rezayati/contactInterpretation/dataset/franka_main/labeled_data/link2/f6_5.csv
index,time,tau_J0,tau_J1,tau_J2,tau_J3,tau_J4,tau_J5,tau_J6,tau_J_d0,tau_J_d1,tau_J_d2,tau_J_d3,tau_J_d4,tau_J_d5,tau_J_d6,tau_ext0,tau_ext1,tau_ext2,tau_ext3,tau_ext4,tau_ext5,tau_ext6,q0,q1,q2,q3,q4,q5,q6,q_d0,q_d1,q_d2,q_d3,q_d4,q_d5,q_d6,dq0,dq1,dq2,dq3,dq4,dq5,dq6,dq_d0,dq_d1,dq_d2,dq_d3,dq_d4,dq_d5,dq_d6,e0,e1,e2,e3,e4,e5,e6,de0,de1,de2,de3,de4,de5,de6,etau_J0,etau_J1,etau_J2,etau_J3,etau_J4,etau_J5,etau_J6,label
1,0.0,-0.8354122042655945,-46.17904281616211,-5.635891437530518,19.535249710083008,0.7372947335243225,2.4108920097351074,-0.15964071452617645,0.0,0.0,0.0,0.0,0.0,0.0,0.0,-0.8062908957474878,0.12071311427063612,-0.44220713721995697,0.3379760248479083,0.15656022498922229,0.1486850300312506,-0.14356622940656233,0.8780814750884434,0.755354632519839,-0.2825504596066057,-1.6690955031083565,0.14140864195069378,2.4034465415212845,1.027343844882316,0.878092876070424,0.7554597494309409,-0.2825552651693207,-1.6690993614607135,0.1414185955172306,2.4034451173676383,1.0273381002308042,0.0005721329476413284,-0.0006566908889616746,0.0004779176291943156,8.367245353173943e-05,5.3761852718710966e-05,0.00014590755786472184,0.0006494176464693442,0.0,0.0,0.0,0.0,0.0,0.0,0.0,1.1400981980602687e-05,0.00010511691110182131,-4.805562715037848e-06,-3.85835235694465e-06,9.953566536824443e-06,-1.4241536461234716e-06,-5.744651511818688e-06,-0.0005721329476413284,0.0006566908889616746,-0.0004779176291943156,-8.367245353173943e-05,-5.3761852718710966e-05,-0.00014590755786472184,-0.0006494176464693442,0.8354122042655945,46.17904281616211,5.635891437530518,-19.535249710083008,-0.7372947335243225,-2.4108920097351074,0.15964071452617645,0
2,0.0042324066162109375,-0.8354122042655945,-46.15127182006836,-5.588284015655518,19.559053421020508,0.7491965889930725,2.4108920097351074,-0.11844198405742645,0.0,0.0,0.0,0.0,0.0,0.0,0.0,-0.8146567770160037,0.12825314744702063,-0.4450029147334627,0.33251317061442015,0.15622959227754138,0.1482045122455383,-0.14544790263597845,0.878080601144942,0.7553526750112146,-0.2825538269692694,-1.6690949993243964,0.1414073196848224,2.4034465415212845,1.0273392672455972,0.878092876070424,0.7554597494309409,-0.2825552651693207,-1.6690993614607135,0.1414185955172306,2.4034451173676383,1.0273381002308042,0.00014545045744924083,-0.001214602550808428,-0.00043950755521998544,-0.0007755462447818903,-0.0003997888416700687,0.00027359103575594866,-0.0015836755070978575,0.0,0.0,0.0,0.0,0.0,0.0,0.0,1.227492548194764e-05,0.00010707441972623855,-1.4382000513291082e-06,-4.362136317048737e-06,1.1275832408202957e-05,-1.4241536461234716e-06,-1.1670147930242791e-06,-0.00014545045744924083,0.001214602550808428,0.00043950755521998544,0.0007755462447818903,0.0003997888416700687,-0.00027359103575594866,0.0015836755070978575,0.8354122042655945,46.15127182006836,5.588284015655518,-19.559053421020508,-0.7491965889930725,-2.4108920097351074,0.11844198405742645,0
3,0.00923013687133789,-0.8354122042655945,-46.15127182006836,-5.588284015655518,19.559053421020508,0.7491965889930725,2.4108920097351074,-0.11844198405742645,0.0,0.0,0.0,0.0,0.0,0.0,0.0,-0.8146567770160037,0.12825314744702063,-0.4450029147334627,0.33251317061442015,0.15622959227754138,0.1482045122455383,-0.14544790263597845,0.878080601144942,0.7553526750112146,-0.2825538269692694,-1.6690949993243964,0.1414073196848224,2.4034465415212845,1.0273392672455972,0.878092876070424,0.7554597494309409,-0.2825552651693207,-1.6690993614607135,0.1414185955172306,2.4034451173676383,1.0273381002308042,0.00014545045744924083,-0.001214602550808428,-0.00043950755521998544,-0.0007755462447818903,-0.0003997888416700687,0.00027359103575594866,-0.0015836755070978575,0.0,0.0,0.0,0.0,0.0,0.0,0.0,1.227492548194764e-05,0.00010707441972623855,-1.4382000513291082e-06,-4.362136317048737e-06,1.1275832408202957e-05,-1.4241536461234716e-06,-1.1670147930242791e-06,-0.00014545045744924083,0.001214602550808428,0.00043950755521998544,0.0007755462447818903,0.0003997888416700687,-0.00027359103575594866,0.0015836755070978575,0.8354122042655945,46.15127182006836,5.588284015655518,-19.559053421020508,-0.7491965889930725,-2.4108920097351074,0.11844198405742645,0
4,0.014227151870727539,-0.8076412081718445,-46.20284652709961,-5.635891437530518,19.511445999145508,0.7427878975868225,2.4237093925476074,-0.16604940593242645,0.0,0.0,0.0,0.0,0.0,0.0,0.0,-0.818541506365931,0.12073586815813926,-0.446939121902634,0.3365314701160889,0.15613602015031589,0.14910132622059394,-0.14728884384229496,0.8780814610659954,0.7553563029556454,-0.28255117486249254,-1.6690930120954175,0.14140803176164624,2.4034451173676383,1.027344556959139,0.878092876070424,0.7554597494309409,-0.2825552651693207,-1.6690993614607135,0.1414185955172306,2.4034451173676383,1.0273381002308042,-0.0005373664896116685,0.00010504197971239145,0.0002603731832231008,0.0011229277627909445,6.964188925379815e-05,-0.00034995511197780506,0.0006966885139751817,0.0,0.0,0.0,0.0,0.0,0.0,0.0,1.141500442858323e-05,0.00010344647529547668,-4.090306828186119e-06,-6.349365295976739e-06,1.0563755584364065e-05,0.0,-6.456728334880424e-06,0.0005373664896116685,-0.00010504197971239145,-0.0002603731832231008,-0.0011229277627909445,-6.964188925379815e-05,0.00034995511197780506,-0.0006966885139751817,0.8076412081718445,46.20284652709961,5.635891437530518,-19.511445999145508,-0.7427878975868225,-2.4237093925476074,0.16604940593242645,0
5,0.01922774314880371,-0.8076412081718445,-46.20284652709961,-5.635891437530518,19.511445999145508,0.7427878975868225,2.4237093925476074,-0.16604940593242645,0.0,0.0,0.0,0.0,0.0,0.0,0.0,-0.818541506365931,0.12073586815813926,-0.446939121902634,0.3365314701160889,0.15613602015031589,0.14910132622059394,-0.14728884384229496,0.8780814610659954,0.7553563029556454,-0.28255117486249254,-1.6690930120954175,0.14140803176164624,2.4034451173676383,1.027344556959139,0.878092876070424,0.7554597494309409,-0.2825552651693207,-1.6690993614607135,0.1414185955172306,2.4034451173676383,1.0273381002308042,-0.0005373664896116685,0.00010504197971239145,0.0002603731832231008,0.0011229277627909445,6.964188925379815e-05,-0.00034995511197780506,0.0006966885139751817,0.0,0.0,0.0,0.0,0.0,0.0,0.0,1.141500442858323e-05,0.00010344647529547668,-4.090306828186119e-06,-6.349365295976739e-06,1.0563755584364065e-05,0.0,-6.456728334880424e-06,0.0005373664896116685,-0.00010504197971239145,-0.0002603731832231008,-0.0011229277627909445,-6.964188925379815e-05,0.00034995511197780506,-0.0006966885139751817,0.8076412081718445,46.20284652709961,5.635891437530518,-19.511445999145508,-0.7427878975868225,-2.4237093925476074,0.16604940593242645,0
6,0.02423548698425293,-0.8592159152030945,-46.17904281616211,-5.612087726593018,19.535249710083008,0.7372947335243225,2.4173007011413574,-0.15964071452617645,0.0,0.0,0.0,0.0,0.0,0.0,0.0,-0.8152102334847199,0.13569177530676146,-0.44141236653945876,0.32914870408282293,0.15608437941500847,0.14773518127842408,-0.14895725969606163,0.8780843404661234,0.755354632519839,-0.2825521300464986,-1.6690935964098315,0.14140864211320875,2.4034458294444616,1.027343844882316,0.878092876070424,0.7554597494309409,-0.2825552651693207,-1.6690993614607135,0.1414185955172306,2.4034451173676383,1.0273381002308042,0.0009112100494485316,-8.199292120324433e-05,0.00013668502974056255,2.5624167393749684e-06,0.00013895399210368602,-0.00018612192043988257,0.0004590228081148491,0.0,0.0,0.0,0.0,0.0,0.0,0.0,8.535604300585753e-06,0.00010511691110182131,-3.1351228221287997e-06,-5.765050882011735e-06,9.953404021850742e-06,-7.120768232837804e-07,-5.744651511818688e-06,-0.0009112100494485316,8.199292120324433e-05,-0.00013668502974056255,-2.5624167393749684e-06,-0.00013895399210368602,0.00018612192043988257,-0.0004590228081148491,0.8592159152030945,46.17904281616211,5.612087726593018,-19.535249710083008,-0.7372947335243225,-2.4173007011413574,0.15964071452617645,0
7,0.029241561889648438,-0.8592159152030945,-46.17904281616211,-5.612087726593018,19.535249710083008,0.7372947335243225,2.4173007011413574,-0.15964071452617645,0.0,0.0,0.0,0.0,0.0,0.0,0.0,-0.8152102334847199,0.13569177530676146,-0.44141236653945876,0.32914870408282293,0.15608437941500847,0.14773518127842408,-0.14895725969606163,0.8780843404661234,0.755354632519839,-0.2825521300464986,-1.6690935964098315,0.14140864211320875,2.4034458294444616,1.027343844882316,0.878092876070424,0.7554597494309409,-0.2825552651693207,-1.6690993614607135,0.1414185955172306,2.4034451173676383,1.0273381002308042,0.0009112100494485316,-8.199292120324433e-05,0.00013668502974056255,2.5624167393749684e-06,0.00013895399210368602,-0.00018612192043988257,0.0004590228081148491,0.0,0.0,0.0,0.0,0.0,0.0,0.0,8.535604300585753e-06,0.00010511691110182131,-3.1351228221287997e-06,-5.765050882011735e-06,9.953404021850742e-06,-7.120768232837804e-07,-5.744651511818688e-06,-0.0009112100494485316,8.199292120324433e-05,-0.00013668502974056255,-2.5624167393749684e-06,-0.00013895399210368602,0.00018612192043988257,-0.0004590228081148491,0.8592159152030945,46.17904281616211,5.612087726593018,-19.535249710083008,-0.7372947335243225,-2.4173007011413574,0.15964071452617645,0
8,0.03423047065734863,-0.8592159152030945,-46.25045394897461,-5.588284015655518,19.559053421020508,0.7427878975868225,2.4173007011413574,-0.13217489421367645,0.0,0.0,0.0,0.0,0.0,0.0,0.0,-0.809808294161303,0.11510611960941461,-0.4391838166006871,0.33993832325455475,0.15597644037761138,0.14921128857824725,-0.15036737758432442,0.8780843376275238,0.7553596438274048,-0.2825538004783162,-1.6690974129338165,0.14140803127410126,2.4034458294444616,1.0273407931245035,0.878092876070424,0.7554597494309409,-0.2825552651693207,-1.6690993614607135,0.1414185955172306,2.4034451173676383,1.0273381002308042,0.0009296151201330237,0.0008527002749278221,-0.0007819238860889747,-0.0006805183168821098,-5.603137542669829e-05,4.697800206546656e-06,-0.0009940019160459578,0.0,0.0,0.0,0.0,0.0,0.0,0.0,8.538442900163368e-06,0.00010010560353601594,-1.4646910045379435e-06,-1.948526896944358e-06,1.0564243129340678e-05,-7.120768232837804e-07,-2.692893699363097e-06,-0.0009296151201330237,-0.0008527002749278221,0.0007819238860889747,0.0006805183168821098,5.603137542669829e-05,-4.697800206546656e-06,0.0009940019160459578,0.8592159152030945,46.25045394897461,5.588284015655518,-19.559053421020508,-0.7427878975868225,-2.4173007011413574,0.13217489421367645,0
9,0.039919137954711914,-0.8592159152030945,-46.25045394897461,-5.588284015655518,19.559053421020508,0.7427878975868225,2.4173007011413574,-0.13217489421367645,0.0,0.0,0.0,0.0,0.0,0.0,0.0,-0.809808294161303,0.11510611960941461,-0.4391838166006871,0.33993832325455475,0.15597644037761138,0.14921128857824725,-0.15036737758432442,0.8780843376275238,0.7553596438274048,-0.2825538004783162,-1.6690974129338165,0.14140803127410126,2.4034458294444616,1.0273407931245035,0.878092876070424,0.7554597494309409,-0.2825552651693207,-1.6690993614607135,0.1414185955172306,2.4034451173676383,1.0273381002308042,0.0009296151201330237,0.0008527002749278221,-0.0007819238860889747,-0.0006805183168821098,-5.603137542669829e-05,4.697800206546656e-06,-0.0009940019160459578,0.0,0.0,0.0,0.0,0.0,0.0,0.0,8.538442900163368e-06,0.00010010560353601594,-1.4646910045379435e-06,-1.948526896944358e-06,1.0564243129340678e-05,-7.120768232837804e-07,-2.692893699363097e-06,-0.0009296151201330237,-0.0008527002749278221,0.0007819238860889747,0.0006805183168821098,5.603137542669829e-05,-4.697800206546656e-06,0.0009940019160459578,0.8592159152030945,46.25045394897461,5.588284015655518,-19.559053421020508,-0.7427878975868225,-2.4173007011413574,0.13217489421367645,0
10,0.04418754577636719,-0.8354122042655945,-46.20284652709961,-5.635891437530518,19.535249710083008,0.7308860421180725,2.4108920097351074,-0.14590780436992645,0.0,0.0,0.0,0.0,0.0,0.0,0.0,-0.8146083328997505,0.11253287568654965,-0.44343035828389393,0.34176289514272873,0.1562564694654203,0.150112891240687,-0.15130965064242408,0.8780826674339122,0.7553563029556942,-0.2825504860975589,-1.6690954745480877,0.14140935419002343,2.4034465429748346,1.0273423190034099,0.878092876070424,0.7554597494309409,-0.2825552651693207,-1.6690993614607135,0.1414185955172306,2.4034451173676383,1.0273381002308042,0.000488042392360448,-0.0004574124915667758,0.00043213309015082286,0.0007252963790792318,0.0002932062273043457,0.00027079583303811673,-0.00014003343874631336,0.0,0.0,0.0,0.0,0.0,0.0,0.0,1.0208636511799263e-05,0.00010344647524662687,-4.779071761829012e-06,-3.886912625761241e-06,9.24132720717119e-06,-1.4256071962925887e-06,-4.218772605701915e-06,-0.000488042392360448,0.0004574124915667758,-0.00043213309015082286,-0.0007252963790792318,-0.0002932062273043457,-0.00027079583303811673,0.00014003343874631336,0.8354122042655945,46.20284652709961,5.635891437530518,-19.535249710083008,-0.7308860421180725,-2.4108920097351074,0.14590780436992645,0
11,0.04923129081726074,-0.8354122042655945,-46.20284652709961,-5.635891437530518,19.535249710083008,0.7308860421180725,2.4108920097351074,-0.14590780436992645,0.0,0.0,0.0,0.0,0.0,0.0,0.0,-0.8146083328997505,0.11253287568654965,-0.44343035828389393,0.34176289514272873,0.1562564694654203,0.150112891240687,-0.15130965064242408,0.8780826674339122,0.7553563029556942,-0.2825504860975589,-1.6690954745480877,0.14140935419002343,2.4034465429748346,1.0273423190034099,0.878092876070424,0.7554597494309409,-0.2825552651693207,-1.6690993614607135,0.1414185955172306,2.4034451173676383,1.0273381002308042,0.000488042392360448,-0.0004574124915667758,0.00043213309015082286,0.0007252963790792318,0.0002932062273043457,0.00027079583303811673,-0.00014003343874631336,0.0,0.0,0.0,0.0,0.0,0.0,0.0,1.0208636511799263e-05,0.00010344647524662687,-4.779071761829012e-06,-3.886912625761241e-06,9.24132720717119e-06,-1.4256071962925887e-06,-4.218772605701915e-06,-0.000488042392360448,0.0004574124915667758,-0.00043213309015082286,-0.0007252963790792318,-0.0002932062273043457,-0.00027079583303811673,0.00014003343874631336,0.8354122042655945,46.20284652709961,5.635891437530518,-19.535249710083008,-0.7308860421180725,-2.4108920097351074,0.14590780436992645,0
12,0.05456209182739258,-0.8076412081718445,-46.17904281616211,-5.663662433624268,19.559053421020508,0.7427878975868225,2.4108920097351074,-0.14590780436992645,0.0,0.0,0.0,0.0,0.0,0.0,0.0,-0.8179288838562819,0.124177317198107,-0.44527221605110867,0.33484838032626857,0.15540205511237412,0.14911287686475727,-0.1507094615429838,0.8780793675211637,0.755354632519839,-0.28254851076482435,-1.6690952631446132,0.141407992270503,2.403446541521287,1.0273455773906575,0.878092876070424,0.7554597494309409,-0.2825552651693207,-1.6690993614607135,0.1414185955172306,2.4034451173676383,1.0273381002308042,-0.00016029570053965886,-0.000647957782555497,0.001018073524039483,-0.0001466045904307977,-9.96503243363189e-05,0.0003023824152268298,8.0491225904054e-05,0.0,0.0,0.0,0.0,0.0,0.0,0.0,1.3508549260299318e-05,0.00010511691110182131,-6.754404496378541e-06,-4.098316100265009e-06,1.0603246727608484e-05,-1.4241536487880069e-06,-7.477159853275239e-06,0.00016029570053965886,0.000647957782555497,-0.001018073524039483,0.0001466045904307977,9.96503243363189e-05,-0.0003023824152268298,-8.0491225904054e-05,0.8076412081718445,46.17904281616211,5.663662433624268,-19.559053421020508,-0.7427878975868225,-2.4108920097351074,0.14590780436992645,0
13,0.05918097496032715,-0.8076412081718445,-46.17904281616211,-5.663662433624268,19.559053421020508,0.7427878975868225,2.4108920097351074,-0.14590780436992645,0.0,0.0,0.0,0.0,0.0,0.0,0.0,-0.8179288838562819,0.124177317198107,-0.44527221605110867,0.33484838032626857,0.15540205511237412,0.14911287686475727,-0.1507094615429838,0.8780793675211637,0.755354632519839,-0.28254851076482435,-1.6690952631446132,0.141407992270503,2.403446541521287,1.0273455773906575,0.878092876070424,0.7554597494309409,-0.2825552651693207,-1.6690993614607135,0.1414185955172306,2.4034451173676383,1.0273381002308042,-0.00016029570053965886,-0.000647957782555497,0.001018073524039483,-0.0001466045904307977,-9.96503243363189e-05,0.0003023824152268298,8.0491225904054e-05,0.0,0.0,0.0,0.0,0.0,0.0,0.0,1.3508549260299318e-05,0.00010511691110182131,-6.754404496378541e-06,-4.098316100265009e-06,1.0603246727608484e-05,-1.4241536487880069e-06,-7.477159853275239e-06,0.00016029570053965886,0.000647957782555497,-0.001018073524039483,0.0001466045904307977,9.96503243363189e-05,-0.0003023824152268298,-8.0491225904054e-05,0.8076412081718445,46.17904281616211,5.663662433624268,-19.559053421020508,-0.7427878975868225,-2.4108920097351074,0.14590780436992645,0
14,0.06422948837280273,-0.8076412081718445,-46.22665023803711,-5.612087726593018,19.559053421020508,0.7372947335243225,2.4173007011413574,-0.11111776530742645,0.0,0.0,0.0,0.0,0.0,0.0,0.0,-0.8133361233776276,0.12041578297298394,-0.4431342767987491,0.3398702328778136,0.15519771629839116,0.1495305445921814,-0.14782473118427553,0.8780793675216134,0.7553579733915495,-0.28255213004246094,-1.6690971744062002,0.14140864211298584,2.403445829928978,1.0273384534619077,0.878092876070424,0.7554597494309409,-0.2825552651693207,-1.6690993614607135,0.1414185955172306,2.4034451173676383,1.0273381002308042,6.562546012948536e-05,0.000543285916958188,-6.401306022436389e-05,0.00032506637015193205,0.00022563451078840861,1.6467403308758447e-05,-0.001610778011189886,0.0,0.0,0.0,0.0,0.0,0.0,0.0,1.3508548810547971e-05,0.0001017760393913214,-3.1351268597878956e-06,-2.187054513269615e-06,9.95340424475577e-06,-7.1256133971076e-07,-3.532311034781799e-07,-6.562546012948536e-05,-0.000543285916958188,6.401306022436389e-05,-0.00032506637015193205,-0.00022563451078840861,-1.6467403308758447e-05,0.001610778011189886,0.8076412081718445,46.22665023803711,5.612087726593018,-19.559053421020508,-0.7372947335243225,-2.4173007011413574,0.11111776530742645,0
15,0.0692451000213623,-0.8076412081718445,-46.22665023803711,-5.612087726593018,19.559053421020508,0.7372947335243225,2.4173007011413574,-0.11111776530742645,0.0,0.0,0.0,0.0,0.0,0.0,0.0,-0.8133361233776276,0.12041578297298394,-0.4431342767987491,0.3398702328778136,0.15519771629839116,0.1495305445921814,-0.14782473118427553,0.8780793675216134,0.7553579733915495,-0.28255213004246094,-1.6690971744062002,0.14140864211298584,2.403445829928978,1.0273384534619077,0.878092876070424,0.7554597494309409,-0.2825552651693207,-1.6690993614607135,0.1414185955172306,2.4034451173676383,1.0273381002308042,6.562546012948536e-05,0.000543285916958188,-6.401306022436389e-05,0.00032506637015193205,0.00022563451078840861,1.6467403308758447e-05,-0.001610778011189886,0.0,0.0,0.0,0.0,0.0,0.0,0.0,1.3508548810547971e-05,0.0001017760393913214,-3.1351268597878956e-06,-2.187054513269615e-06,9.95340424475577e-06,-7.1256133971076e-07,-3.532311034781799e-07,-6.562546012948536e-05,-0.000543285916958188,6.401306022436389e-05,-0.00032506637015193205,-0.00022563451078840861,-1.6467403308758447e-05,0.001610778011189886,0.8076412081718445,46.22665023803711,5.612087726593018,-19.559053421020508,-0.7372947335243225,-2.4173007011413574,0.11111776530742645,0
16,0.07423257827758789,-0.8354122042655945,-46.15127182006836,-5.612087726593018,19.511445999145508,0.7308860421180725,2.4108920097351074,-0.15231649577617645,0.0,0.0,0.0,0.0,0.0,0.0,0.0,-0.8113708071659924,0.12713596117449014,-0.4404236069448571,0.33648430428122356,0.15543235711231193,0.14875048106781835,-0.14628133000619728,0.8780805301744553,0.7553526836780079,-0.2825521300787997,-1.6690939824251627,0.14140935419003167,2.403446541521287,1.0273430310802327,0.878092876070424,0.7554597494309409,-0.2825552651693207,-1.6690993614607135,0.1414185955172306,2.4034451173676383,1.0273381002308042,0.0007563494385719354,-0.001149818864485263,0.0002658175527061675,0.0009237345189997875,0.000430328753084308,9.80578821517069e-05,0.000144661199633754,0.0,0.0,0.0,0.0,0.0,0.0,0.0,1.2345895968657317e-05,0.0001070657529329555,-3.1350905210225655e-06,-5.3790355507565835e-06,9.241327198927785e-06,-1.4241536487880069e-06,-4.930849428541606e-06,-0.0007563494385719354,0.001149818864485263,-0.0002658175527061675,-0.0009237345189997875,-0.000430328753084308,-9.80578821517069e-05,-0.000144661199633754,0.8354122042655945,46.15127182006836,5.612087726593018,-19.511445999145508,-0.7308860421180725,-2.4108920097351074,0.15231649577617645,0
17,0.07923650741577148,-0.8354122042655945,-46.15127182006836,-5.612087726593018,19.511445999145508,0.7308860421180725,2.4108920097351074,-0.15231649577617645,0.0,0.0,0.0,0.0,0.0,0.0,0.0,-0.8113708071659924,0.12713596117449014,-0.4404236069448571,0.33648430428122356,0.15543235711231193,0.14875048106781835,-0.14628133000619728,0.8780805301744553,0.7553526836780079,-0.2825521300787997,-1.6690939824251627,0.14140935419003167,2.403446541521287,1.0273430310802327,0.878092876070424,0.7554597494309409,-0.2825552651693207,-1.6690993614607135,0.1414185955172306,2.4034451173676383,1.0273381002308042,0.0007563494385719354,-0.001149818864485263,0.0002658175527061675,0.0009237345189997875,0.000430328753084308,9.80578821517069e-05,0.000144661199633754,0.0,0.0,0.0,0.0,0.0,0.0,0.0,1.2345895968657317e-05,0.0001070657529329555,-3.1350905210225655e-06,-5.3790355507565835e-06,9.241327198927785e-06,-1.4241536487880069e-06,-4.930849428541606e-06,-0.0007563494385719354,0.001149818864485263,-0.0002658175527061675,-0.0009237345189997875,-0.000430328753084308,-9.80578821517069e-05,-0.000144661199633754,0.8354122042655945,46.15127182006836,5.612087726593018,-19.511445999145508,-0.7308860421180725,-2.4108920097351074,0.15231649577617645,0
18,0.08422493934631348,-0.8354122042655945,-46.20284652709961,-5.588284015655518,19.511445999145508,0.7427878975868225,2.4237093925476074,-0.15231649577617645,0.0,0.0,0.0,0.0,0.0,0.0,0.0,-0.8178495684018974,0.12430700864766642,-0.44538826236463014,0.33759753592498837,0.15588018815885826,0.14882124953600753,-0.14489260485654157,0.8780836325186461,0.7553563029556942,-0.2825538799511761,-1.6690932507451481,0.14140803176164624,2.4034451173676383,1.0273430310802327,0.878092876070424,0.7554597494309409,-0.2825552651693207,-1.6690993614607135,0.1414185955172306,2.4034451173676383,1.0273381002308042,0.0006725528951171891,0.0003023144745846122,-0.0003883520353380607,0.0007450140308530766,6.310097035915086e-05,-0.000397764755013134,0.0007913471594293625,0.0,0.0,0.0,0.0,0.0,0.0,0.0,9.243551777893266e-06,0.00010344647524662687,-1.3852181446338818e-06,-6.110715565332825e-06,1.0563755584364065e-05,0.0,-4.930849428541606e-06,-0.0006725528951171891,-0.0003023144745846122,0.0003883520353380607,-0.0007450140308530766,-6.310097035915086e-05,0.000397764755013134,-0.0007913471594293625,0.8354122042655945,46.20284652709961,5.588284015655518,-19.511445999145508,-0.7427878975868225,-2.4237093925476074,0.15231649577617645,0
19,0.08925437927246094,-0.8354122042655945,-46.20284652709961,-5.588284015655518,19.511445999145508,0.7427878975868225,2.4237093925476074,-0.15231649577617645,0.0,0.0,0.0,0.0,0.0,0.0,0.0,-0.8178495684018974,0.12430700864766642,-0.44538826236463014,0.33759753592498837,0.15588018815885826,0.14882124953600753,-0.14489260485654157,0.8780836325186461,0.7553563029556942,-0.2825538799511761,-1.6690932507451481,0.14140803176164624,2.4034451173676383,1.0273430310802327,0.878092876070424,0.7554597494309409,-0.2825552651693207,-1.6690993614607135,0.1414185955172306,2.4034451173676383,1.0273381002308042,0.0006725528951171891,0.0003023144745846122,-0.0003883520353380607,0.0007450140308530766,6.310097035915086e-05,-0.000397764755013134,0.0007913471594293625,0.0,0.0,0.0,0.0,0.0,0.0,0.0,9.243551777893266e-06,0.00010344647524662687,-1.3852181446338818e-06,-6.110715565332825e-06,1.0563755584364065e-05,0.0,-4.930849428541606e-06,-0.0006725528951171891,-0.0003023144745846122,0.0003883520353380607,-0.0007450140308530766,-6.310097035915086e-05,0.000397764755013134,-0.0007913471594293625,0.8354122042655945,46.20284652709961,5.588284015655518,-19.511445999145508,-0.7427878975868225,-2.4237093925476074,0.15231649577617645,0
20,0.09423375129699707,-0.8354122042655945,-46.20284652709961,-5.588284015655518,19.511445999145508,0.7427878975868225,2.4237093925476074,-0.15231649577617645,0.0,0.0,0.0,0.0,0.0,0.0,0.0,-0.8178495684018974,0.12430700864766642,-0.44538826236463014,0.33759753592498837,0.15588018815885826,0.14882124953600753,-0.14489260485654157,0.8780836325186461,0.7553563029556942,-0.2825538799511761,-1.6690932507451481,0.14140803176164624,2.4034451173676383,1.0273430310802327,0.878092876070424,0.7554597494309409,-0.2825552651693207,-1.6690993614607135,0.1414185955172306,2.4034451173676383,1.0273381002308042,0.0006725528951171891,0.0003023144745846122,-0.0003883520353380607,0.0007450140308530766,6.310097035915086e-05,-0.000397764755013134,0.0007913471594293625,0.0,0.0,0.0,0.0,0.0,0.0,0.0,9.243551777893266e-06,0.00010344647524662687,-1.3852181446338818e-06,-6.110715565332825e-06,1.0563755584364065e-05,0.0,-4.930849428541606e-06,-0.0006725528951171891,-0.0003023144745846122,0.0003883520353380607,-0.0007450140308530766,-6.310097035915086e-05,0.000397764755013134,-0.0007913471594293625,0.8354122042655945,46.20284652709961,5.588284015655518,-19.511445999145508,-0.7427878975868225,-2.4237093925476074,0.15231649577617645,0
21,0.09929656982421875,-0.8354122042655945,-46.20284652709961,-5.588284015655518,19.511445999145508,0.7427878975868225,2.4237093925476074,-0.15231649577617645,0.0,0.0,0.0,0.0,0.0,0.0,0.0,-0.8178495684018974,0.12430700864766642,-0.44538826236463014,0.33759753592498837,0.15588018815885826,0.14882124953600753,-0.14489260485654157,0.8780836325186461,0.7553563029556942,-0.2825538799511761,-1.6690932507451481,0.14140803176164624,2.4034451173676383,1.0273430310802327,0.878092876070424,0.7554597494309409,-0.2825552651693207,-1.6690993614607135,0.1414185955172306,2.4034451173676383,1.0273381002308042,0.0006725528951171891,0.0003023144745846122,-0.0003883520353380607,0.0007450140308530766,6.310097035915086e-05,-0.000397764755013134,0.0007913471594293625,0.0,0.0,0.0,0.0,0.0,0.0,0.0,9.243551777893266e-06,0.00010344647524662687,-1.3852181446338818e-06,-6.110715565332825e-06,1.0563755584364065e-05,0.0,-4.930849428541606e-06,-0.0006725528951171891,-0.0003023144745846122,0.0003883520353380607,-0.0007450140308530766,-6.310097035915086e-05,0.000397764755013134,-0.0007913471594293625,0.8354122042655945,46.20284652709961,5.588284015655518,-19.511445999145508,-0.7427878975868225,-2.4237093925476074,0.15231649577617645,0
22,0.1042022705078125,-0.7838374972343445,-46.17904281616211,-5.588284015655518,19.535249710083008,0.7372947335243225,2.4044833183288574,-0.10470907390117645,0.0,0.0,0.0,0.0,0.0,0.0,0.0,-0.8125193784881634,0.1184106093629609,-0.44014243117690666,0.33857377205426886,0.15637996909188198,0.14922250326446748,-0.14356713231199073,0.8780798703381445,0.7553546324128416,-0.2825538008058136,-1.6690957307316825,0.1414054433306058,2.4034472535981073,1.0273377021208345,0.878092876070424,0.7554597494309409,-0.2825552651693207,-1.6690993614607135,0.1414185955172306,2.4034451173676383,1.0273381002308042,-0.0007026237017099288,-0.0007046629197810778,-0.0002702081149205624,9.637496113465833e-05,0.00020373901449845632,0.0002888672706419538,-0.0018948702534229405,0.0,0.0,0.0,0.0,0.0,0.0,0.0,1.3005732279469662e-05,0.00010511701809923224,-1.4643635071198702e-06,-3.630729030978941e-06,1.3152186624787454e-05,-2.136230468963163e-06,3.981099696570567e-07,0.0007026237017099288,0.0007046629197810778,0.0002702081149205624,-9.637496113465833e-05,-0.00020373901449845632,-0.0002888672706419538,0.0018948702534229405,0.7838374972343445,46.17904281616211,5.588284015655518,-19.535249710083008,-0.7372947335243225,-2.4044833183288574,0.10470907390117645,0
23,0.1092228889465332,-0.7838374972343445,-46.17904281616211,-5.588284015655518,19.535249710083008,0.7372947335243225,2.4044833183288574,-0.10470907390117645,0.0,0.0,0.0,0.0,0.0,0.0,0.0,-0.8125193784881634,0.1184106093629609,-0.44014243117690666,0.33857377205426886,0.15637996909188198,0.14922250326446748,-0.14356713231199073,0.8780798703381445,0.7553546324128416,-0.2825538008058136,-1.6690957307316825,0.1414054433306058,2.4034472535981073,1.0273377021208345,0.878092876070424,0.7554597494309409,-0.2825552651693207,-1.6690993614607135,0.1414185955172306,2.4034451173676383,1.0273381002308042,-0.0007026237017099288,-0.0007046629197810778,-0.0002702081149205624,9.637496113465833e-05,0.00020373901449845632,0.0002888672706419538,-0.0018948702534229405,0.0,0.0,0.0,0.0,0.0,0.0,0.0,1.3005732279469662e-05,0.00010511701809923224,-1.4643635071198702e-06,-3.630729030978941e-06,1.3152186624787454e-05,-2.136230468963163e-06,3.981099696570567e-07,0.0007026237017099288,0.0007046629197810778,0.0002702081149205624,-9.637496113465833e-05,-0.00020373901449845632,-0.0002888672706419538,0.0018948702534229405,0.7838374972343445,46.17904281616211,5.588284015655518,-19.535249710083008,-0.7372947335243225,-2.4044833183288574,0.10470907390117645,0
24,0.11418008804321289,-0.8076412081718445,-46.22665023803711,-5.635891437530518,19.535249710083008,0.7427878975868225,2.4237093925476074,-0.13858358561992645,0.0,0.0,0.0,0.0,0.0,0.0,0.0,-0.818923956813557,0.12218176570989335,-0.444229293929584,0.33666825885541224,0.15686515088386313,0.14827943091095788,-0.1432761330170367,0.8780807301617334,0.7553579733915478,-0.28255260537382315,-1.6690957424008601,0.1414080315449596,2.4034451173676383,1.0273415052006618,0.878092876070424,0.7554597494309409,-0.2825552651693207,-1.6690993614607135,0.1414185955172306,2.4034451173676383,1.0273381002308042,-0.00017596360742090503,0.0006980880126665448,0.00011254370225629341,0.0005303215635393003,6.411625910547742e-05,-0.0005835341708972304,8.715377275520318e-05,0.0,0.0,0.0,0.0,0.0,0.0,0.0,1.2145908690586182e-05,0.00010177603939309776,-2.65979549757267e-06,-3.6190598533547558e-06,1.0563972271004918e-05,0.0,-3.4049698576232856e-06,0.00017596360742090503,-0.0006980880126665448,-0.00011254370225629341,-0.0005303215635393003,-6.411625910547742e-05,0.0005835341708972304,-8.715377275520318e-05,0.8076412081718445,46.22665023803711,5.635891437530518,-19.535249710083008,-0.7427878975868225,-2.4237093925476074,0.13858358561992645,0
25,0.12100362777709961,-0.8076412081718445,-46.22665023803711,-5.635891437530518,19.535249710083008,0.7427878975868225,2.4237093925476074,-0.13858358561992645,0.0,0.0,0.0,0.0,0.0,0.0,0.0,-0.818923956813557,0.12218176570989335,-0.444229293929584,0.33666825885541224,0.15686515088386313,0.14827943091095788,-0.1432761330170367,0.8780807301617334,0.7553579733915478,-0.28255260537382315,-1.6690957424008601,0.1414080315449596,2.4034451173676383,1.0273415052006618,0.878092876070424,0.7554597494309409,-0.2825552651693207,-1.6690993614607135,0.1414185955172306,2.4034451173676383,1.0273381002308042,-0.00017596360742090503,0.0006980880126665448,0.00011254370225629341,0.0005303215635393003,6.411625910547742e-05,-0.0005835341708972304,8.715377275520318e-05,0.0,0.0,0.0,0.0,0.0,0.0,0.0,1.2145908690586182e-05,0.00010177603939309776,-2.65979549757267e-06,-3.6190598533547558e-06,1.0563972271004918e-05,0.0,-3.4049698576232856e-06,0.00017596360742090503,-0.0006980880126665448,-0.00011254370225629341,-0.0005303215635393003,-6.411625910547742e-05,0.0005835341708972304,-8.715377275520318e-05,0.8076412081718445,46.22665023803711,5.635891437530518,-19.535249710083008,-0.7427878975868225,-2.4237093925476074,0.13858358561992645,0
26,0.1242518424987793,-0.8076412081718445,-46.20284652709961,-5.588284015655518,19.559053421020508,0.7427878975868225,2.4108920097351074,-0.11844198405742645,0.0,0.0,0.0,0.0,0.0,0.0,0.0,-0.8102641861265562,0.1230650175116753,-0.439442523840686,0.33722547289181803,0.15667795973230436,0.14717342905457273,-0.14358926335145686,0.8780788197225566,0.7553563029556942,-0.2825538004904291,-1.6690972966982498,0.14140803176164501,2.4034465415212845,1.0273392672455972,0.878092876070424,0.7554597494309409,-0.2825552651693207,-1.6690993614607135,0.1414185955172306,2.4034451173676383,1.0273381002308042,3.625009796592895e-05,-9.689092818389887e-05,-0.0009428906652965001,-0.0003808055813688063,3.254220108307002e-05,0.00011691563164045003,0.00838613804958962,0.0,0.0,0.0,0.0,0.0,0.0,0.0,1.4056347867330565e-05,0.00010344647524662687,-1.4646788916161668e-06,-2.064762463671599e-06,1.056375558558531e-05,-1.4241536461234716e-06,-1.1670147930242791e-06,-3.625009796592895e-05,9.689092818389887e-05,0.0009428906652965001,0.0003808055813688063,-3.254220108307002e-05,-0.00011691563164045003,-0.00838613804958962,0.8076412081718445,46.20284652709961,5.588284015655518,-19.559053421020508,-0.7427878975868225,-2.4108920097351074,0.11844198405742645,0
27,0.12924766540527344,-0.8076412081718445,-46.20284652709961,-5.588284015655518,19.559053421020508,0.7427878975868225,2.4108920097351074,-0.11844198405742645,0.0,0.0,0.0,0.0,0.0,0.0,0.0,-0.8102641861265562,0.1230650175116753,-0.439442523840686,0.33722547289181803,0.15667795973230436,0.14717342905457273,-0.14358926335145686,0.8780788197225566,0.7553563029556942,-0.2825538004904291,-1.6690972966982498,0.14140803176164501,2.4034465415212845,1.0273392672455972,0.878092876070424,0.7554597494309409,-0.2825552651693207,-1.6690993614607135,0.1414185955172306,2.4034451173676383,1.0273381002308042,3.625009796592895e-05,-9.689092818389887e-05,-0.0009428906652965001,-0.0003808055813688063,3.254220108307002e-05,0.00011691563164045003,0.00838613804958962,0.0,0.0,0.0,0.0,0.0,0.0,0.0,1.4056347867330565e-05,0.00010344647524662687,-1.4646788916161668e-06,-2.064762463671599e-06,1.056375558558531e-05,-1.4241536461234716e-06,-1.1670147930242791e-06,-3.625009796592895e-05,9.689092818389887e-05,0.0009428906652965001,0.0003808055813688063,-3.254220108307002e-05,-0.00011691563164045003,-0.00838613804958962,0.8076412081718445,46.20284652709961,5.588284015655518,-19.559053421020508,-0.7427878975868225,-2.4108920097351074,0.11844198405742645,0
28,0.13426756858825684,-0.8354122042655945,-46.20284652709961,-5.588284015655518,19.535249710083008,0.7308860421180725,2.4108920097351074,-0.15964071452617645,0.0,0.0,0.0,0.0,0.0,0.0,0.0,-0.8154379578503036,0.13249020679161053,-0.4422199662822938,0.33460074273445717,0.15626347914764974,0.1467455712368654,-0.14319971439022142,0.8780815554684372,0.7553563029556942,-0.2825538799511759,-1.6690956244088997,0.14140935419003167,2.4034465415212845,1.027343844882316,0.878092876070424,0.7554597494309409,-0.2825552651693207,-1.6690993614607135,0.1414185955172306,2.4034451173676383,1.0273381002308042,0.00024234608037156807,0.0001707221526650645,-0.00034713725196766745,0.0005069738258033895,0.00045745603548332273,0.00019872635479058218,0.0008365792084491038,0.0,0.0,0.0,0.0,0.0,0.0,0.0,1.132060198671958e-05,0.00010344647524662687,-1.3852181448004153e-06,-3.7370518137791464e-06,9.241327198927785e-06,-1.4241536461234716e-06,-5.744651511818688e-06,-0.00024234608037156807,-0.0001707221526650645,0.00034713725196766745,-0.0005069738258033895,-0.00045745603548332273,-0.00019872635479058218,-0.0008365792084491038,0.8354122042655945,46.20284652709961,5.588284015655518,-19.535249710083008,-0.7308860421180725,-2.4108920097351074,0.15964071452617645,0
29,0.13918185234069824,-0.8354122042655945,-46.20284652709961,-5.588284015655518,19.535249710083008,0.7308860421180725,2.4108920097351074,-0.15964071452617645,0.0,0.0,0.0,0.0,0.0,0.0,0.0,-0.8154379578503036,0.13249020679161053,-0.4422199662822938,0.33460074273445717,0.15626347914764974,0.1467455712368654,-0.14319971439022142,0.8780815554684372,0.7553563029556942,-0.2825538799511759,-1.6690956244088997,0.14140935419003167,2.4034465415212845,1.027343844882316,0.878092876070424,0.7554597494309409,-0.2825552651693207,-1.6690993614607135,0.1414185955172306,2.4034451173676383,1.0273381002308042,0.00024234608037156807,0.0001707221526650645,-0.00034713725196766745,0.0005069738258033895,0.00045745603548332273,0.00019872635479058218,0.0008365792084491038,0.0,0.0,0.0,0.0,0.0,0.0,0.0,1.132060198671958e-05,0.00010344647524662687,-1.3852181448004153e-06,-3.7370518137791464e-06,9.241327198927785e-06,-1.4241536461234716e-06,-5.744651511818688e-06,-0.00024234608037156807,-0.0001707221526650645,0.00034713725196766745,-0.0005069738258033895,-0.00045745603548332273,-0.00019872635479058218,-0.0008365792084491038,0.8354122042655945,46.20284652709961,5.588284015655518,-19.535249710083008,-0.7308860421180725,-2.4108920097351074,0.15964071452617645,0
30,0.14422369003295898,-0.8354122042655945,-46.22665023803711,-5.588284015655518,19.559053421020508,0.7427878975868225,2.4108920097351074,-0.17337362468242645,0.0,0.0,0.0,0.0,0.0,0.0,0.0,-0.8098028291749764,0.11954512571515703,-0.4371837743277967,0.3414870806042832,0.15653132418808866,0.14816161667843447,-0.14224774757184366,0.8780807629982157,0.7553579733915495,-0.2825538004787648,-1.6690966885321608,0.14140803176164624,2.4034465415212845,1.0273453841702234,0.878092876070424,0.7554597494309409,-0.2825552651693207,-1.6690993614607135,0.1414185955172306,2.4034451173676383,1.0273381002308042,0.0006607703897179782,0.0003892215405101421,-0.0004265845827134395,-0.0004964662458324348,-0.00013764708439975551,0.00020592314401655516,0.0011463540787613436,0.0,0.0,0.0,0.0,0.0,0.0,0.0,1.2113072208275177e-05,0.0001017760393913214,-1.4646905558968193e-06,-2.6729285527160584e-06,1.0563755584364065e-05,-1.4241536461234716e-06,-7.283939419178154e-06,-0.0006607703897179782,-0.0003892215405101421,0.0004265845827134395,0.0004964662458324348,0.00013764708439975551,-0.00020592314401655516,-0.0011463540787613436,0.8354122042655945,46.22665023803711,5.588284015655518,-19.559053421020508,-0.7427878975868225,-2.4108920097351074,0.17337362468242645,0
31,0.14943504333496094,-0.8354122042655945,-46.22665023803711,-5.588284015655518,19.559053421020508,0.7427878975868225,2.4108920097351074,-0.17337362468242645,0.0,0.0,0.0,0.0,0.0,0.0,0.0,-0.8098028291749764,0.11954512571515703,-0.4371837743277967,0.3414870806042832,0.15653132418808866,0.14816161667843447,-0.14224774757184366,0.8780807629982157,0.7553579733915495,-0.2825538004787648,-1.6690966885321608,0.14140803176164624,2.4034465415212845,1.0273453841702234,0.878092876070424,0.7554597494309409,-0.2825552651693207,-1.6690993614607135,0.1414185955172306,2.4034451173676383,1.0273381002308042,0.0006607703897179782,0.0003892215405101421,-0.0004265845827134395,-0.0004964662458324348,-0.00013764708439975551,0.00020592314401655516,0.0011463540787613436,0.0,0.0,0.0,0.0,0.0,0.0,0.0,1.2113072208275177e-05,0.0001017760393913214,-1.4646905558968193e-06,-2.6729285527160584e-06,1.0563755584364065e-05,-1.4241536461234716e-06,-7.283939419178154e-06,-0.0006607703897179782,-0.0003892215405101421,0.0004265845827134395,0.0004964662458324348,0.00013764708439975551,-0.00020592314401655516,-0.0011463540787613436,0.8354122042655945,46.22665023803711,5.588284015655518,-19.559053421020508,-0.7427878975868225,-2.4108920097351074,0.17337362468242645,0
32,0.15422677993774414,-0.8076412081718445,-46.12746810913086,-5.663662433624268,19.511445999145508,0.7427878975868225,2.4173007011413574,-0.17337362468242645,0.0,0.0,0.0,0.0,0.0,0.0,0.0,-0.8198089874898871,0.12920389787187364,-0.44376149971508133,0.3343123572663587,0.1566629019242038,0.14738603030323597,-0.1425545787557812,0.8780788108841517,0.7553510132421526,-0.2825485107647745,-1.6690940601791795,0.14140803176164624,2.4034458294444616,1.0273453707614495,0.878092876070424,0.7554597494309409,-0.2825552651693207,-1.6690993614607135,0.1414185955172306,2.4034451173676383,1.0273381002308042,-9.013637977155479e-05,-0.0016204181665959933,0.0008738464653513471,0.0007452634874625392,5.893342867967113e-05,-9.421608592115529e-05,0.0013523118525812785,0.0,0.0,0.0,0.0,0.0,0.0,0.0,1.4065186272227415e-05,0.00010873618878826097,-6.754404546227555e-06,-5.30128153397591e-06,1.0563755584364065e-05,-7.120768232837804e-07,-7.270530645309137e-06,9.013637977155479e-05,0.0016204181665959933,-0.0008738464653513471,-0.0007452634874625392,-5.893342867967113e-05,9.421608592115529e-05,-0.0013523118525812785,0.8076412081718445,46.12746810913086,5.663662433624268,-19.511445999145508,-0.7427878975868225,-2.4173007011413574,0.17337362468242645,0
33,0.15923786163330078,-0.8076412081718445,-46.12746810913086,-5.663662433624268,19.511445999145508,0.7427878975868225,2.4173007011413574,-0.17337362468242645,0.0,0.0,0.0,0.0,0.0,0.0,0.0,-0.8198089874898871,0.12920389787187364,-0.44376149971508133,0.3343123572663587,0.1566629019242038,0.14738603030323597,-0.1425545787557812,0.8780788108841517,0.7553510132421526,-0.2825485107647745,-1.6690940601791795,0.14140803176164624,2.4034458294444616,1.0273453707614495,0.878092876070424,0.7554597494309409,-0.2825552651693207,-1.6690993614607135,0.1414185955172306,2.4034451173676383,1.0273381002308042,-9.013637977155479e-05,-0.0016204181665959933,0.0008738464653513471,0.0007452634874625392,5.893342867967113e-05,-9.421608592115529e-05,0.0013523118525812785,0.0,0.0,0.0,0.0,0.0,0.0,0.0,1.4065186272227415e-05,0.00010873618878826097,-6.754404546227555e-06,-5.30128153397591e-06,1.0563755584364065e-05,-7.120768232837804e-07,-7.270530645309137e-06,9.013637977155479e-05,0.0016204181665959933,-0.0008738464653513471,-0.0007452634874625392,-5.893342867967113e-05,9.421608592115529e-05,-0.0013523118525812785,0.8076412081718445,46.12746810913086,5.663662433624268,-19.511445999145508,-0.7427878975868225,-2.4173007011413574,0.17337362468242645,0
34,0.16423988342285156,-0.8592159152030945,-46.20284652709961,-5.635891437530518,19.559053421020508,0.7427878975868225,2.4044833183288574,-0.16604940593242645,0.0,0.0,0.0,0.0,0.0,0.0,0.0,-0.8174133025530775,0.12468971516395068,-0.44743436322780183,0.3342296001277857,0.15711049064842464,0.14747620648810103,-0.14357675754127283,0.8780821946830538,0.7553563029556942,-0.2825504860975589,-1.669096352944392,0.14140803176164624,2.4034472666800593,1.027344556959139,0.878092876070424,0.7554597494309409,-0.2825552651693207,-1.6690993614607135,0.1414185955172306,2.4034451173676383,1.0273381002308042,0.001088768832460387,0.00018984097953463137,0.00018794375255560574,-0.000808038736414466,3.094494310029448e-05,0.0002823152731193237,0.0004465531602034898,0.0,0.0,0.0,0.0,0.0,0.0,0.0,1.0681387370148343e-05,0.00010344647524662687,-4.779071761829012e-06,-3.008516321401089e-06,1.0563755584364065e-05,-2.1493124209293057e-06,-6.456728334880424e-06,-0.001088768832460387,-0.00018984097953463137,-0.00018794375255560574,0.000808038736414466,-3.094494310029448e-05,-0.0002823152731193237,-0.0004465531602034898,0.8592159152030945,46.20284652709961,5.635891437530518,-19.559053421020508,-0.7427878975868225,-2.4044833183288574,0.16604940593242645,0
35,0.16925621032714844,-0.8592159152030945,-46.20284652709961,-5.635891437530518,19.559053421020508,0.7427878975868225,2.4044833183288574,-0.16604940593242645,0.0,0.0,0.0,0.0,0.0,0.0,0.0,-0.8174133025530775,0.12468971516395068,-0.44743436322780183,0.3342296001277857,0.15711049064842464,0.14747620648810103,-0.14357675754127283,0.8780821946830538,0.7553563029556942,-0.2825504860975589,-1.669096352944392,0.14140803176164624,2.4034472666800593,1.027344556959139,0.878092876070424,0.7554597494309409,-0.2825552651693207,-1.6690993614607135,0.1414185955172306,2.4034451173676383,1.0273381002308042,0.001088768832460387,0.00018984097953463137,0.00018794375255560574,-0.000808038736414466,3.094494310029448e-05,0.0002823152731193237,0.0004465531602034898,0.0,0.0,0.0,0.0,0.0,0.0,0.0,1.0681387370148343e-05,0.00010344647524662687,-4.779071761829012e-06,-3.008516321401089e-06,1.0563755584364065e-05,-2.1493124209293057e-06,-6.456728334880424e-06,-0.001088768832460387,-0.00018984097953463137,-0.00018794375255560574,0.000808038736414466,-3.094494310029448e-05,-0.0002823152731193237,-0.0004465531602034898,0.8592159152030945,46.20284652709961,5.635891437530518,-19.559053421020508,-0.7427878975868225,-2.4044833183288574,0.16604940593242645,0
36,0.17423129081726074,-0.8354122042655945,-46.17904281616211,-5.663662433624268,19.559053421020508,0.7427878975868225,2.4044833183288574,-0.10470907390117645,0.0,0.0,0.0,0.0,0.0,0.0,0.0,-0.8020732078074143,0.12956002836365083,-0.43740761603981193,0.33387420202255574,0.15647547875889917,0.14708233116767752,-0.14574121122228578,0.8780814753410312,0.755354632519839,-0.28254874918350315,-1.6690965828537407,0.14140803176164624,2.4034472579588315,1.027337741366691,0.878092876070424,0.7554597494309409,-0.2825552651693207,-1.6690993614607135,0.1414185955172306,2.4034451173676383,1.0273381002308042,0.0006304515590510388,-8.228556228000302e-05,0.0014340335817228118,-0.00023339045681399883,-0.00015830303255834943,0.0003157830413760914,-0.0011785517331219224,0.0,0.0,0.0,0.0,0.0,0.0,0.0,1.1400729392763154e-05,0.00010511691110182131,-6.515985817578951e-06,-2.7786069727309126e-06,1.0563755584364065e-05,-2.140591193189323e-06,3.588641130924941e-07,-0.0006304515590510388,8.228556228000302e-05,-0.0014340335817228118,0.00023339045681399883,0.00015830303255834943,-0.0003157830413760914,0.0011785517331219224,0.8354122042655945,46.17904281616211,5.663662433624268,-19.559053421020508,-0.7427878975868225,-2.4044833183288574,0.10470907390117645,0
37,0.17922282218933105,-0.8354122042655945,-46.17904281616211,-5.663662433624268,19.559053421020508,0.7427878975868225,2.4044833183288574,-0.10470907390117645,0.0,0.0,0.0,0.0,0.0,0.0,0.0,-0.8020732078074143,0.12956002836365083,-0.43740761603981193,0.33387420202255574,0.15647547875889917,0.14708233116767752,-0.14574121122228578,0.8780814753410312,0.755354632519839,-0.28254874918350315,-1.6690965828537407,0.14140803176164624,2.4034472579588315,1.027337741366691,0.878092876070424,0.7554597494309409,-0.2825552651693207,-1.6690993614607135,0.1414185955172306,2.4034451173676383,1.0273381002308042,0.0006304515590510388,-8.228556228000302e-05,0.0014340335817228118,-0.00023339045681399883,-0.00015830303255834943,0.0003157830413760914,-0.0011785517331219224,0.0,0.0,0.0,0.0,0.0,0.0,0.0,1.1400729392763154e-05,0.00010511691110182131,-6.515985817578951e-06,-2.7786069727309126e-06,1.0563755584364065e-05,-2.140591193189323e-06,3.588641130924941e-07,-0.0006304515590510388,8.228556228000302e-05,-0.0014340335817228118,0.00023339045681399883,0.00015830303255834943,-0.0003157830413760914,0.0011785517331219224,0.8354122042655945,46.17904281616211,5.663662433624268,-19.559053421020508,-0.7427878975868225,-2.4044833183288574,0.10470907390117645,0
38,0.1842365264892578,-0.7838374972343445,-46.20284652709961,-5.612087726593018,19.535249710083008,0.7427878975868225,2.4108920097351074,-0.10470907390117645,0.0,0.0,0.0,0.0,0.0,0.0,0.0,-0.8080112972821548,0.12572593176598293,-0.4418720921453169,0.33561217656121717,0.15621700907775554,0.14714213808724877,-0.1453506981192046,0.8780790744345299,0.7553563029556942,-0.2825521329872461,-1.6690926332523974,0.14140803176164624,2.403446541521309,1.027337741366691,0.878092876070424,0.7554597494309409,-0.2825552651693207,-1.6690993614607135,0.1414185955172306,2.4034451173676383,1.0273381002308042,-0.0006679220908239026,0.0002278405184660229,0.0002758033680982703,0.00032369056547764633,0.00014345252558314146,0.00018904310441880372,-0.001710812031780392,0.0,0.0,0.0,0.0,0.0,0.0,0.0,1.3801635894039599e-05,0.00010344647524662687,-3.1321820746499363e-06,-6.728208316042483e-06,1.0563755584364065e-05,-1.4241536705483782e-06,3.588641130924941e-07,0.0006679220908239026,-0.0002278405184660229,-0.0002758033680982703,-0.00032369056547764633,-0.00014345252558314146,-0.00018904310441880372,0.001710812031780392,0.7838374972343445,46.20284652709961,5.612087726593018,-19.535249710083008,-0.7427878975868225,-2.4108920097351074,0.10470907390117645,0
39,0.18924427032470703,-0.7838374972343445,-46.20284652709961,-5.612087726593018,19.535249710083008,0.7427878975868225,2.4108920097351074,-0.10470907390117645,0.0,0.0,0.0,0.0,0.0,0.0,0.0,-0.8080112972821548,0.12572593176598293,-0.4418720921453169,0.33561217656121717,0.15621700907775554,0.14714213808724877,-0.1453506981192046,0.8780790744345299,0.7553563029556942,-0.2825521329872461,-1.6690926332523974,0.14140803176164624,2.403446541521309,1.027337741366691,0.878092876070424,0.7554597494309409,-0.2825552651693207,-1.6690993614607135,0.1414185955172306,2.4034451173676383,1.0273381002308042,-0.0006679220908239026,0.0002278405184660229,0.0002758033680982703,0.00032369056547764633,0.00014345252558314146,0.00018904310441880372,-0.001710812031780392,0.0,0.0,0.0,0.0,0.0,0.0,0.0,1.3801635894039599e-05,0.00010344647524662687,-3.1321820746499363e-06,-6.728208316042483e-06,1.0563755584364065e-05,-1.4241536705483782e-06,3.588641130924941e-07,0.0006679220908239026,-0.0002278405184660229,-0.0002758033680982703,-0.00032369056547764633,-0.00014345252558314146,-0.00018904310441880372,0.001710812031780392,0.7838374972343445,46.20284652709961,5.612087726593018,-19.535249710083008,-0.7427878975868225,-2.4108920097351074,0.10470907390117645,0
40,0.19424057006835938,-0.8354122042655945,-46.22665023803711,-5.635891437530518,19.535249710083008,0.7372947335243225,2.4108920097351074,-0.15231649577617645,0.0,0.0,0.0,0.0,0.0,0.0,0.0,-0.8077115129713867,0.12456529765327189,-0.44144273760380914,0.3351277035569566,0.15661163423309724,0.14750664325414006,-0.1441278369883451,0.8780827554949796,0.7553579733915495,-0.2825504596066223,-1.6690947590567664,0.14140864211320875,2.4034465415212845,1.0273430310802327,0.878092876070424,0.7554597494309409,-0.2825552651693207,-1.6690993614607135,0.1414185955172306,2.4034451173676383,1.0273381002308042,0.0013312048924490037,0.00032006468965064096,0.00045057875352574856,-3.725796553475923e-05,3.8301992639461064e-05,-8.537949405051717e-05,0.0005278759337723143,0.0,0.0,0.0,0.0,0.0,0.0,0.0,1.012057544436118e-05,0.0001017760393913214,-4.8055626984400135e-06,-4.602403947062683e-06,9.953404021850742e-06,-1.4241536461234716e-06,-4.930849428541606e-06,-0.0013312048924490037,-0.00032006468965064096,-0.00045057875352574856,3.725796553475923e-05,-3.8301992639461064e-05,8.537949405051717e-05,-0.0005278759337723143,0.8354122042655945,46.22665023803711,5.635891437530518,-19.535249710083008,-0.7372947335243225,-2.4108920097351074,0.15231649577617645,0
41,0.19922852516174316,-0.8354122042655945,-46.22665023803711,-5.635891437530518,19.535249710083008,0.7372947335243225,2.4108920097351074,-0.15231649577617645,0.0,0.0,0.0,0.0,0.0,0.0,0.0,-0.8077115129713867,0.12456529765327189,-0.44144273760380914,0.3351277035569566,0.15661163423309724,0.14750664325414006,-0.1441278369883451,0.8780827554949796,0.7553579733915495,-0.2825504596066223,-1.6690947590567664,0.14140864211320875,2.4034465415212845,1.0273430310802327,0.878092876070424,0.7554597494309409,-0.2825552651693207,-1.6690993614607135,0.1414185955172306,2.4034451173676383,1.0273381002308042,0.0013312048924490037,0.00032006468965064096,0.00045057875352574856,-3.725796553475923e-05,3.8301992639461064e-05,-8.537949405051717e-05,0.0005278759337723143,0.0,0.0,0.0,0.0,0.0,0.0,0.0,1.012057544436118e-05,0.0001017760393913214,-4.8055626984400135e-06,-4.602403947062683e-06,9.953404021850742e-06,-1.4241536461234716e-06,-4.930849428541606e-06,-0.0013312048924490037,-0.00032006468965064096,-0.00045057875352574856,3.725796553475923e-05,-3.8301992639461064e-05,8.537949405051717e-05,-0.0005278759337723143,0.8354122042655945,46.22665023803711,5.635891437530518,-19.535249710083008,-0.7372947335243225,-2.4108920097351074,0.15231649577617645,0
42,0.20422887802124023,-0.8076412081718445,-46.20284652709961,-5.588284015655518,19.535249710083008,0.7372947335243225,2.4173007011413574,-0.11111776530742645,0.0,0.0,0.0,0.0,0.0,0.0,0.0,-0.8128837468182901,0.13389237009865906,-0.4466186678888368,0.3283032210353419,0.1561541252525394,0.1468609683986317,-0.14386783463904543,0.8780788226664277,0.7553563029556942,-0.28255380930863394,-1.66909573269306,0.14140864211320875,2.403445833805112,1.027338453443514,0.878092876070424,0.7554597494309409,-0.2825552651693207,-1.6690993614607135,0.1414185955172306,2.4034451173676383,1.0273381002308042,8.661544619152425e-05,0.0001332826523024992,-0.000849834636345077,-8.759851061247336e-05,0.00011378785885444358,-0.00020227729619011592,-0.0015472846142398152,0.0,0.0,0.0,0.0,0.0,0.0,0.0,1.4053403996294733e-05,0.00010344647524662687,-1.4558606867831614e-06,-3.6287676534740854e-06,9.953404021850742e-06,-7.164374737911317e-07,-3.532127097471971e-07,-8.661544619152425e-05,-0.0001332826523024992,0.000849834636345077,8.759851061247336e-05,-0.00011378785885444358,0.00020227729619011592,0.0015472846142398152,0.8076412081718445,46.20284652709961,5.588284015655518,-19.535249710083008,-0.7372947335243225,-2.4173007011413574,0.11111776530742645,0
43,0.20929551124572754,-0.8076412081718445,-46.20284652709961,-5.588284015655518,19.535249710083008,0.7372947335243225,2.4173007011413574,-0.11111776530742645,0.0,0.0,0.0,0.0,0.0,0.0,0.0,-0.8128837468182901,0.13389237009865906,-0.4466186678888368,0.3283032210353419,0.1561541252525394,0.1468609683986317,-0.14386783463904543,0.8780788226664277,0.7553563029556942,-0.28255380930863394,-1.66909573269306,0.14140864211320875,2.403445833805112,1.027338453443514,0.878092876070424,0.7554597494309409,-0.2825552651693207,-1.6690993614607135,0.1414185955172306,2.4034451173676383,1.0273381002308042,8.661544619152425e-05,0.0001332826523024992,-0.000849834636345077,-8.759851061247336e-05,0.00011378785885444358,-0.00020227729619011592,-0.0015472846142398152,0.0,0.0,0.0,0.0,0.0,0.0,0.0,1.4053403996294733e-05,0.00010344647524662687,-1.4558606867831614e-06,-3.6287676534740854e-06,9.953404021850742e-06,-7.164374737911317e-07,-3.532127097471971e-07,-8.661544619152425e-05,-0.0001332826523024992,0.000849834636345077,8.759851061247336e-05,-0.00011378785885444358,0.00020227729619011592,0.0015472846142398152,0.8076412081718445,46.20284652709961,5.588284015655518,-19.535249710083008,-0.7372947335243225,-2.4173007011413574,0.11111776530742645,0
44,0.21423649787902832,-0.8076412081718445,-46.20284652709961,-5.588284015655518,19.535249710083008,0.7372947335243225,2.4173007011413574,-0.11111776530742645,0.0,0.0,0.0,0.0,0.0,0.0,0.0,-0.8128837468182901,0.13389237009865906,-0.4466186678888368,0.3283032210353419,0.1561541252525394,0.1468609683986317,-0.14386783463904543,0.8780788226664277,0.7553563029556942,-0.28255380930863394,-1.66909573269306,0.14140864211320875,2.403445833805112,1.027338453443514,0.878092876070424,0.7554597494309409,-0.2825552651693207,-1.6690993614607135,0.1414185955172306,2.4034451173676383,1.0273381002308042,8.661544619152425e-05,0.0001332826523024992,-0.000849834636345077,-8.759851061247336e-05,0.00011378785885444358,-0.00020227729619011592,-0.0015472846142398152,0.0,0.0,0.0,0.0,0.0,0.0,0.0,1.4053403996294733e-05,0.00010344647524662687,-1.4558606867831614e-06,-3.6287676534740854e-06,9.953404021850742e-06,-7.164374737911317e-07,-3.532127097471971e-07,-8.661544619152425e-05,-0.0001332826523024992,0.000849834636345077,8.759851061247336e-05,-0.00011378785885444358,0.00020227729619011592,0.0015472846142398152,0.8076412081718445,46.20284652709961,5.588284015655518,-19.535249710083008,-0.7372947335243225,-2.4173007011413574,0.11111776530742645,0
45,0.2192697525024414,-0.8076412081718445,-46.20284652709961,-5.588284015655518,19.535249710083008,0.7372947335243225,2.4173007011413574,-0.11111776530742645,0.0,0.0,0.0,0.0,0.0,0.0,0.0,-0.8128837468182901,0.13389237009865906,-0.4466186678888368,0.3283032210353419,0.1561541252525394,0.1468609683986317,-0.14386783463904543,0.8780788226664277,0.7553563029556942,-0.28255380930863394,-1.66909573269306,0.14140864211320875,2.403445833805112,1.027338453443514,0.878092876070424,0.7554597494309409,-0.2825552651693207,-1.6690993614607135,0.1414185955172306,2.4034451173676383,1.0273381002308042,8.661544619152425e-05,0.0001332826523024992,-0.000849834636345077,-8.759851061247336e-05,0.00011378785885444358,-0.00020227729619011592,-0.0015472846142398152,0.0,0.0,0.0,0.0,0.0,0.0,0.0,1.4053403996294733e-05,0.00010344647524662687,-1.4558606867831614e-06,-3.6287676534740854e-06,9.953404021850742e-06,-7.164374737911317e-07,-3.532127097471971e-07,-8.661544619152425e-05,-0.0001332826523024992,0.000849834636345077,8.759851061247336e-05,-0.00011378785885444358,0.00020227729619011592,0.0015472846142398152,0.8076412081718445,46.20284652709961,5.588284015655518,-19.535249710083008,-0.7372947335243225,-2.4173007011413574,0.11111776530742645,0
46,0.22425508499145508,-0.7838374972343445,-46.20284652709961,-5.612087726593018,19.535249710083008,0.7372947335243225,2.4237093925476074,-0.09738485515117645,0.0,0.0,0.0,0.0,0.0,0.0,0.0,-0.8046390358317818,0.13175997284501942,-0.4415894786096991,0.33026665435907154,0.1561445157104995,0.146960885476127,-0.1444395578411149,0.8780800812675319,0.7553563029556942,-0.28255213005459046,-1.6690947622357715,0.14140864211320875,2.4034451173676463,1.0273369275646078,0.878092876070424,0.7554597494309409,-0.2825552651693207,-1.6690993614607135,0.1414185955172306,2.4034451173676383,1.0273381002308042,-0.00034996487598569785,0.000415866256998627,-4.258384150866467e-05,0.0004493773403422408,4.986980478366266e-05,-0.00037096090708541913,-0.0022893057775082853,0.0,0.0,0.0,0.0,0.0,0.0,0.0,1.2794802892068802e-05,0.00010344647524662687,-3.1351147302682847e-06,-4.599224942003488e-06,9.953404021850742e-06,-7.993605777301127e-15,1.1726661963695761e-06,0.00034996487598569785,-0.000415866256998627,4.258384150866467e-05,-0.0004493773403422408,-4.986980478366266e-05,0.00037096090708541913,0.0022893057775082853,0.7838374972343445,46.20284652709961,5.612087726593018,-19.535249710083008,-0.7372947335243225,-2.4237093925476074,0.09738485515117645,0
47,0.22922539710998535,-0.7838374972343445,-46.20284652709961,-5.612087726593018,19.535249710083008,0.7372947335243225,2.4237093925476074,-0.09738485515117645,0.0,0.0,0.0,0.0,0.0,0.0,0.0,-0.8046390358317818,0.13175997284501942,-0.4415894786096991,0.33026665435907154,0.1561445157104995,0.146960885476127,-0.1444395578411149,0.8780800812675319,0.7553563029556942,-0.28255213005459046,-1.6690947622357715,0.14140864211320875,2.4034451173676463,1.0273369275646078,0.878092876070424,0.7554597494309409,-0.2825552651693207,-1.6690993614607135,0.1414185955172306,2.4034451173676383,1.0273381002308042,-0.00034996487598569785,0.000415866256998627,-4.258384150866467e-05,0.0004493773403422408,4.986980478366266e-05,-0.00037096090708541913,-0.0022893057775082853,0.0,0.0,0.0,0.0,0.0,0.0,0.0,1.2794802892068802e-05,0.00010344647524662687,-3.1351147302682847e-06,-4.599224942003488e-06,9.953404021850742e-06,-7.993605777301127e-15,1.1726661963695761e-06,0.00034996487598569785,-0.000415866256998627,4.258384150866467e-05,-0.0004493773403422408,-4.986980478366266e-05,0.00037096090708541913,0.0022893057775082853,0.7838374972343445,46.20284652709961,5.612087726593018,-19.535249710083008,-0.7372947335243225,-2.4237093925476074,0.09738485515117645,0
48,0.23422789573669434,-0.8592159152030945,-46.17904281616211,-5.635891437530518,19.511445999145508,0.7372947335243225,2.4108920097351074,-0.16604940593242645,0.0,0.0,0.0,0.0,0.0,0.0,0.0,-0.8090967769942535,0.11982584246411085,-0.4443850529364337,0.3386456318976187,0.15576009199289773,0.14773156297924162,-0.14491243084869324,0.878084337633341,0.755354632519839,-0.28255045960660574,-1.6690919220498406,0.14140864211320875,2.4034465415212845,1.027344556959139,0.878092876070424,0.7554597494309409,-0.2825552651693207,-1.6690993614607135,0.1414185955172306,2.4034451173676383,1.0273381002308042,0.0010358898800312494,-0.000168174546859624,0.0005892385797148591,0.001390737534184521,9.894771918114275e-06,8.612228241703629e-05,0.0005417469694687918,0.0,0.0,0.0,0.0,0.0,0.0,0.0,8.538437082927786e-06,0.00010511691110182131,-4.8055627149823366e-06,-7.4394108728892405e-06,9.953404021850742e-06,-1.4241536461234716e-06,-6.456728334880424e-06,-0.0010358898800312494,0.000168174546859624,-0.0005892385797148591,-0.001390737534184521,-9.894771918114275e-06,-8.612228241703629e-05,-0.0005417469694687918,0.8592159152030945,46.17904281616211,5.635891437530518,-19.511445999145508,-0.7372947335243225,-2.4108920097351074,0.16604940593242645,0
49,0.23919129371643066,-0.8592159152030945,-46.17904281616211,-5.635891437530518,19.511445999145508,0.7372947335243225,2.4108920097351074,-0.16604940593242645,0.0,0.0,0.0,0.0,0.0,0.0,0.0,-0.8090967769942535,0.11982584246411085,-0.4443850529364337,0.3386456318976187,0.15576009199289773,0.14773156297924162,-0.14491243084869324,0.878084337633341,0.755354632519839,-0.28255045960660574,-1.6690919220498406,0.14140864211320875,2.4034465415212845,1.027344556959139,0.878092876070424,0.7554597494309409,-0.2825552651693207,-1.6690993614607135,0.1414185955172306,2.4034451173676383,1.0273381002308042,0.0010358898800312494,-0.000168174546859624,0.0005892385797148591,0.001390737534184521,9.894771918114275e-06,8.612228241703629e-05,0.0005417469694687918,0.0,0.0,0.0,0.0,0.0,0.0,0.0,8.538437082927786e-06,0.00010511691110182131,-4.8055627149823366e-06,-7.4394108728892405e-06,9.953404021850742e-06,-1.4241536461234716e-06,-6.456728334880424e-06,-0.0010358898800312494,0.000168174546859624,-0.0005892385797148591,-0.001390737534184521,-9.894771918114275e-06,-8.612228241703629e-05,-0.0005417469694687918,0.8592159152030945,46.17904281616211,5.635891437530518,-19.511445999145508,-0.7372947335243225,-2.4108920097351074,0.16604940593242645,0
50,0.24422502517700195,-0.8076412081718445,-46.20284652709961,-5.612087726593018,19.535249710083008,0.7372947335243225,2.4237093925476074,-0.11844198405742645,0.0,0.0,0.0,0.0,0.0,0.0,0.0,-0.8186992672758777,0.12089256039750795,-0.44864184257661666,0.3373318295562134,0.15477692253659103,0.147033366150202,-0.14523933147245163,0.8780810364956314,0.7553563029556942,-0.28255213004246094,-1.6690954949219932,0.14140864211320875,2.4034451173676383,1.0273392672455972,0.878092876070424,0.7554597494309409,-0.2825552651693207,-1.6690993614607135,0.1414185955172306,2.4034451173676383,1.0273381002308042,-0.000437304888412656,-0.00016717075947032443,-0.0006052339821074143,-5.4681818985841344e-05,-2.4824939553069133e-05,-0.0001918411431827305,-0.0005870632860160293,0.0,0.0,0.0,0.0,0.0,0.0,0.0,1.183957479256037e-05,0.00010344647524662687,-3.1351268597878956e-06,-3.86653872030962e-06,9.953404021850742e-06,0.0,-1.1670147930242791e-06,0.000437304888412656,0.00016717075947032443,0.0006052339821074143,5.4681818985841344e-05,2.4824939553069133e-05,0.0001918411431827305,0.0005870632860160293,0.8076412081718445,46.20284652709961,5.612087726593018,-19.535249710083008,-0.7372947335243225,-2.4237093925476074,0.11844198405742645,0
51,0.2493586540222168,-0.8076412081718445,-46.20284652709961,-5.612087726593018,19.535249710083008,0.7372947335243225,2.4237093925476074,-0.11844198405742645,0.0,0.0,0.0,0.0,0.0,0.0,0.0,-0.8186992672758777,0.12089256039750795,-0.44864184257661666,0.3373318295562134,0.15477692253659103,0.147033366150202,-0.14523933147245163,0.8780810364956314,0.7553563029556942,-0.28255213004246094,-1.6690954949219932,0.14140864211320875,2.4034451173676383,1.0273392672455972,0.878092876070424,0.7554597494309409,-0.2825552651693207,-1.6690993614607135,0.1414185955172306,2.4034451173676383,1.0273381002308042,-0.000437304888412656,-0.00016717075947032443,-0.0006052339821074143,-5.4681818985841344e-05,-2.4824939553069133e-05,-0.0001918411431827305,-0.0005870632860160293,0.0,0.0,0.0,0.0,0.0,0.0,0.0,1.183957479256037e-05,0.00010344647524662687,-3.1351268597878956e-06,-3.86653872030962e-06,9.953404021850742e-06,0.0,-1.1670147930242791e-06,0.000437304888412656,0.00016717075947032443,0.0006052339821074143,5.4681818985841344e-05,2.4824939553069133e-05,0.0001918411431827305,0.0005870632860160293,0.8076412081718445,46.20284652709961,5.612087726593018,-19.535249710083008,-0.7372947335243225,-2.4237093925476074,0.11844198405742645,0
52,0.25423741340637207,-0.8354122042655945,-46.20284652709961,-5.635891437530518,19.559053421020508,0.7372947335243225,2.4173007011413574,-0.15231649577617645,0.0,0.0,0.0,0.0,0.0,0.0,0.0,-0.8149849388450393,0.12117447074106909,-0.4461271639090229,0.33786985667827885,0.1543481657318311,0.14728787283261024,-0.14465639613602,0.878082747865487,0.7553563029556942,-0.2825504596066057,-1.669095266850273,0.14140864211320875,2.4034458294444616,1.0273430310802327,0.878092876070424,0.7554597494309409,-0.2825552651693207,-1.6690993614607135,0.1414185955172306,2.4034451173676383,1.0273381002308042,0.00020499939993549404,-0.00020230349485953516,0.0004166586107013224,-0.0005652990355476041,8.411969213094388e-05,-0.00011958491951181258,0.00022854481609835105,0.0,0.0,0.0,0.0,0.0,0.0,0.0,1.0128204936954432e-05,0.00010344647524662687,-4.805562715037848e-06,-4.0946104404859796e-06,9.953404021850742e-06,-7.120768232837804e-07,-4.930849428541606e-06,-0.00020499939993549404,0.00020230349485953516,-0.0004166586107013224,0.0005652990355476041,-8.411969213094388e-05,0.00011958491951181258,-0.00022854481609835105,0.8354122042655945,46.20284652709961,5.635891437530518,-19.559053421020508,-0.7372947335243225,-2.4173007011413574,0.15231649577617645,0
53,0.2592349052429199,-0.8354122042655945,-46.20284652709961,-5.635891437530518,19.559053421020508,0.7372947335243225,2.4173007011413574,-0.15231649577617645,0.0,0.0,0.0,0.0,0.0,0.0,0.0,-0.8149849388450393,0.12117447074106909,-0.4461271639090229,0.33786985667827885,0.1543481657318311,0.14728787283261024,-0.14465639613602,0.878082747865487,0.7553563029556942,-0.2825504596066057,-1.669095266850273,0.14140864211320875,2.4034458294444616,1.0273430310802327,0.878092876070424,0.7554597494309409,-0.2825552651693207,-1.6690993614607135,0.1414185955172306,2.4034451173676383,1.0273381002308042,0.00020499939993549404,-0.00020230349485953516,0.0004166586107013224,-0.0005652990355476041,8.411969213094388e-05,-0.00011958491951181258,0.00022854481609835105,0.0,0.0,0.0,0.0,0.0,0.0,0.0,1.0128204936954432e-05,0.00010344647524662687,-4.805562715037848e-06,-4.0946104404859796e-06,9.953404021850742e-06,-7.120768232837804e-07,-4.930849428541606e-06,-0.00020499939993549404,0.00020230349485953516,-0.0004166586107013224,0.0005652990355476041,-8.411969213094388e-05,0.00011958491951181258,-0.00022854481609835105,0.8354122042655945,46.20284652709961,5.635891437530518,-19.559053421020508,-0.7372947335243225,-2.4173007011413574,0.15231649577617645,0
54,0.2641737461090088,-0.8076412081718445,-46.22665023803711,-5.588284015655518,19.559053421020508,0.7308860421180725,2.4173007011413574,-0.15231649577617645,0.0,0.0,0.0,0.0,0.0,0.0,0.0,-0.8034496268563377,0.12210945786167574,-0.4358344124338526,0.3377235674806604,0.15388658785087844,0.1473748943848187,-0.14459593012774336,0.8780807182775991,0.7553579733915495,-0.2825538004783162,-1.6690966878666151,0.14140935419003167,2.4034458294444616,1.0273430310802327,0.878092876070424,0.7554597494309409,-0.2825552651693207,-1.6690993614607135,0.1414185955172306,2.4034451173676383,1.0273381002308042,-7.922012490528526e-05,0.0003940746123949915,-0.0005938060625636038,-0.0005517111856076646,0.0003167453538942635,-0.00013391587124560736,0.00036590257806008004,0.0,0.0,0.0,0.0,0.0,0.0,0.0,1.2157792824818436e-05,0.0001017760393913214,-1.4646910045379435e-06,-2.673594098334675e-06,9.241327198927785e-06,-7.120768232837804e-07,-4.930849428541606e-06,7.922012490528526e-05,-0.0003940746123949915,0.0005938060625636038,0.0005517111856076646,-0.0003167453538942635,0.00013391587124560736,-0.00036590257806008004,0.8076412081718445,46.22665023803711,5.588284015655518,-19.559053421020508,-0.7308860421180725,-2.4173007011413574,0.15231649577617645,0
55,0.2692296504974365,-0.8076412081718445,-46.22665023803711,-5.588284015655518,19.559053421020508,0.7308860421180725,2.4173007011413574,-0.15231649577617645,0.0,0.0,0.0,0.0,0.0,0.0,0.0,-0.8034496268563377,0.12210945786167574,-0.4358344124338526,0.3377235674806604,0.15388658785087844,0.1473748943848187,-0.14459593012774336,0.8780807182775991,0.7553579733915495,-0.2825538004783162,-1.6690966878666151,0.14140935419003167,2.4034458294444616,1.0273430310802327,0.878092876070424,0.7554597494309409,-0.2825552651693207,-1.6690993614607135,0.1414185955172306,2.4034451173676383,1.0273381002308042,-7.922012490528526e-05,0.0003940746123949915,-0.0005938060625636038,-0.0005517111856076646,0.0003167453538942635,-0.00013391587124560736,0.00036590257806008004,0.0,0.0,0.0,0.0,0.0,0.0,0.0,1.2157792824818436e-05,0.0001017760393913214,-1.4646910045379435e-06,-2.673594098334675e-06,9.241327198927785e-06,-7.120768232837804e-07,-4.930849428541606e-06,7.922012490528526e-05,-0.0003940746123949915,0.0005938060625636038,0.0005517111856076646,-0.0003167453538942635,0.00013391587124560736,-0.00036590257806008004,0.8076412081718445,46.22665023803711,5.588284015655518,-19.559053421020508,-0.7308860421180725,-2.4173007011413574,0.15231649577617645,0
56,0.27425289154052734,-0.7838374972343445,-46.22665023803711,-5.635891437530518,19.535249710083008,0.7427878975868225,2.4108920097351074,-0.11844198405742645,0.0,0.0,0.0,0.0,0.0,0.0,0.0,-0.8192039525035716,0.1278025176631872,-0.44801371871138795,0.3327248323117866,0.15432969450013798,0.14721974160028584,-0.1451540536436228,0.87807794405157,0.7553579733915495,-0.2825504596066057,-1.6690947003831338,0.14140803176164624,2.4034465415212845,1.0273392682509694,0.878092876070424,0.7554597494309409,-0.2825552651693207,-1.6690993614607135,0.1414185955172306,2.4034451173676383,1.0273381002308042,-0.0008115318119729701,0.0006942317556846971,0.00039782768426334446,0.0003281702516940935,-0.00012747087183781673,0.00013264929707396632,-0.0008896826651387317,0.0,0.0,0.0,0.0,0.0,0.0,0.0,1.4932018853941464e-05,0.0001017760393913214,-4.805562715037848e-06,-4.661077579681816e-06,1.0563755584364065e-05,-1.4241536461234716e-06,-1.168020165254191e-06,0.0008115318119729701,-0.0006942317556846971,-0.00039782768426334446,-0.0003281702516940935,0.00012747087183781673,-0.00013264929707396632,0.0008896826651387317,0.7838374972343445,46.22665023803711,5.635891437530518,-19.535249710083008,-0.7427878975868225,-2.4108920097351074,0.11844198405742645,0
57,0.27922773361206055,-0.7838374972343445,-46.22665023803711,-5.635891437530518,19.535249710083008,0.7427878975868225,2.4108920097351074,-0.11844198405742645,0.0,0.0,0.0,0.0,0.0,0.0,0.0,-0.8192039525035716,0.1278025176631872,-0.44801371871138795,0.3327248323117866,0.15432969450013798,0.14721974160028584,-0.1451540536436228,0.87807794405157,0.7553579733915495,-0.2825504596066057,-1.6690947003831338,0.14140803176164624,2.4034465415212845,1.0273392682509694,0.878092876070424,0.7554597494309409,-0.2825552651693207,-1.6690993614607135,0.1414185955172306,2.4034451173676383,1.0273381002308042,-0.0008115318119729701,0.0006942317556846971,0.00039782768426334446,0.0003281702516940935,-0.00012747087183781673,0.00013264929707396632,-0.0008896826651387317,0.0,0.0,0.0,0.0,0.0,0.0,0.0,1.4932018853941464e-05,0.0001017760393913214,-4.805562715037848e-06,-4.661077579681816e-06,1.0563755584364065e-05,-1.4241536461234716e-06,-1.168020165254191e-06,0.0008115318119729701,-0.0006942317556846971,-0.00039782768426334446,-0.0003281702516940935,0.00012747087183781673,-0.00013264929707396632,0.0008896826651387317,0.7838374972343445,46.22665023803711,5.635891437530518,-19.535249710083008,-0.7427878975868225,-2.4108920097351074,0.11844198405742645,0
58,0.2842271327972412,-0.7838374972343445,-46.20284652709961,-5.612087726593018,19.535249710083008,0.7372947335243225,2.4237093925476074,-0.11111776530742645,0.0,0.0,0.0,0.0,0.0,0.0,0.0,-0.815050295900071,0.12236166038770474,-0.44617265147715585,0.3374768770576818,0.1544999830788007,0.14736236905134992,-0.14564215909702907,0.8780790507382361,0.7553563029556942,-0.28255213004246094,-1.6690957333144096,0.14140864211320875,2.4034451173676383,1.027338453443516,0.878092876070424,0.7554597494309409,-0.2825552651693207,-1.6690993614607135,0.1414185955172306,2.4034451173676383,1.0273381002308042,-0.0007864710535449331,-0.00026804028395963894,-0.0002474421329894015,0.0005035302634858602,0.00025027064854995314,-0.0005041889103655158,-0.0015765110463688036,0.0,0.0,0.0,0.0,0.0,0.0,0.0,1.3825332187855643e-05,0.00010344647524662687,-3.1351268597878956e-06,-3.6281463038356776e-06,9.953404021850742e-06,0.0,-3.5321271174559854e-07,0.0007864710535449331,0.00026804028395963894,0.0002474421329894015,-0.0005035302634858602,-0.00025027064854995314,0.0005041889103655158,0.0015765110463688036,0.7838374972343445,46.20284652709961,5.612087726593018,-19.535249710083008,-0.7372947335243225,-2.4237093925476074,0.11111776530742645,0
59,0.2892284393310547,-0.7838374972343445,-46.20284652709961,-5.612087726593018,19.535249710083008,0.7372947335243225,2.4237093925476074,-0.11111776530742645,0.0,0.0,0.0,0.0,0.0,0.0,0.0,-0.815050295900071,0.12236166038770474,-0.44617265147715585,0.3374768770576818,0.1544999830788007,0.14736236905134992,-0.14564215909702907,0.8780790507382361,0.7553563029556942,-0.28255213004246094,-1.6690957333144096,0.14140864211320875,2.4034451173676383,1.027338453443516,0.878092876070424,0.7554597494309409,-0.2825552651693207,-1.6690993614607135,0.1414185955172306,2.4034451173676383,1.0273381002308042,-0.0007864710535449331,-0.00026804028395963894,-0.0002474421329894015,0.0005035302634858602,0.00025027064854995314,-0.0005041889103655158,-0.0015765110463688036,0.0,0.0,0.0,0.0,0.0,0.0,0.0,1.3825332187855643e-05,0.00010344647524662687,-3.1351268597878956e-06,-3.6281463038356776e-06,9.953404021850742e-06,0.0,-3.5321271174559854e-07,0.0007864710535449331,0.00026804028395963894,0.0002474421329894015,-0.0005035302634858602,-0.00025027064854995314,0.0005041889103655158,0.0015765110463688036,0.7838374972343445,46.20284652709961,5.612087726593018,-19.535249710083008,-0.7372947335243225,-2.4237093925476074,0.11111776530742645,0
60,0.29422783851623535,-0.7560665011405945,-46.20284652709961,-5.612087726593018,19.535249710083008,0.7308860421180725,2.4108920097351074,-0.17337362468242645,0.0,0.0,0.0,0.0,0.0,0.0,0.0,-0.8155861589451803,0.1312881026037236,-0.4418847918830655,0.3313062305131213,0.1547965296316043,0.1462187181034338,-0.1468033474070507,0.878075915809573,0.7553563000667631,-0.28255213004246094,-1.6690926430684956,0.14140935419003167,2.403446894733994,1.0273452530236524,0.878092876070424,0.7554597494309409,-0.2825552651693207,-1.6690993614607135,0.1414185955172306,2.4034451173676383,1.0273381002308042,-0.0012977103566446297,0.00014076949280654298,0.00014810816189041225,-0.0002822641977257628,0.00033152235993418776,0.00014158933831912062,0.0010413349616932152,0.0,0.0,0.0,0.0,0.0,0.0,0.0,1.696026085096225e-05,0.00010344936417772121,-3.1351268597878956e-06,-6.718392217885949e-06,9.241327198927785e-06,-1.7773663558706687e-06,-7.1527928482417735e-06,0.0012977103566446297,-0.00014076949280654298,-0.00014810816189041225,0.0002822641977257628,-0.00033152235993418776,-0.00014158933831912062,-0.0010413349616932152,0.7560665011405945,46.20284652709961,5.612087726593018,-19.535249710083008,-0.7308860421180725,-2.4108920097351074,0.17337362468242645,0
61,0.29922938346862793,-0.7560665011405945,-46.20284652709961,-5.612087726593018,19.535249710083008,0.7308860421180725,2.4108920097351074,-0.17337362468242645,0.0,0.0,0.0,0.0,0.0,0.0,0.0,-0.8155861589451803,0.1312881026037236,-0.4418847918830655,0.3313062305131213,0.1547965296316043,0.1462187181034338,-0.1468033474070507,0.878075915809573,0.7553563000667631,-0.28255213004246094,-1.6690926430684956,0.14140935419003167,2.403446894733994,1.0273452530236524,0.878092876070424,0.7554597494309409,-0.2825552651693207,-1.6690993614607135,0.1414185955172306,2.4034451173676383,1.0273381002308042,-0.0012977103566446297,0.00014076949280654298,0.00014810816189041225,-0.0002822641977257628,0.00033152235993418776,0.00014158933831912062,0.0010413349616932152,0.0,0.0,0.0,0.0,0.0,0.0,0.0,1.696026085096225e-05,0.00010344936417772121,-3.1351268597878956e-06,-6.718392217885949e-06,9.241327198927785e-06,-1.7773663558706687e-06,-7.1527928482417735e-06,0.0012977103566446297,-0.00014076949280654298,-0.00014810816189041225,0.0002822641977257628,-0.00033152235993418776,-0.00014158933831912062,-0.0010413349616932152,0.7560665011405945,46.20284652709961,5.612087726593018,-19.535249710083008,-0.7308860421180725,-2.4108920097351074,0.17337362468242645,0
62,0.3042278289794922,-0.7560665011405945,-46.20284652709961,-5.612087726593018,19.535249710083008,0.7308860421180725,2.4108920097351074,-0.17337362468242645,0.0,0.0,0.0,0.0,0.0,0.0,0.0,-0.8155861589451803,0.1312881026037236,-0.4418847918830655,0.3313062305131213,0.1547965296316043,0.1462187181034338,-0.1468033474070507,0.878075915809573,0.7553563000667631,-0.28255213004246094,-1.6690926430684956,0.14140935419003167,2.403446894733994,1.0273452530236524,0.878092876070424,0.7554597494309409,-0.2825552651693207,-1.6690993614607135,0.1414185955172306,2.4034451173676383,1.0273381002308042,-0.0012977103566446297,0.00014076949280654298,0.00014810816189041225,-0.0002822641977257628,0.00033152235993418776,0.00014158933831912062,0.0010413349616932152,0.0,0.0,0.0,0.0,0.0,0.0,0.0,1.696026085096225e-05,0.00010344936417772121,-3.1351268597878956e-06,-6.718392217885949e-06,9.241327198927785e-06,-1.7773663558706687e-06,-7.1527928482417735e-06,0.0012977103566446297,-0.00014076949280654298,-0.00014810816189041225,0.0002822641977257628,-0.00033152235993418776,-0.00014158933831912062,-0.0010413349616932152,0.7560665011405945,46.20284652709961,5.612087726593018,-19.535249710083008,-0.7308860421180725,-2.4108920097351074,0.17337362468242645,0
63,0.30922842025756836,-0.7560665011405945,-46.20284652709961,-5.612087726593018,19.535249710083008,0.7308860421180725,2.4108920097351074,-0.17337362468242645,0.0,0.0,0.0,0.0,0.0,0.0,0.0,-0.8155861589451803,0.1312881026037236,-0.4418847918830655,0.3313062305131213,0.1547965296316043,0.1462187181034338,-0.1468033474070507,0.878075915809573,0.7553563000667631,-0.28255213004246094,-1.6690926430684956,0.14140935419003167,2.403446894733994,1.0273452530236524,0.878092876070424,0.7554597494309409,-0.2825552651693207,-1.6690993614607135,0.1414185955172306,2.4034451173676383,1.0273381002308042,-0.0012977103566446297,0.00014076949280654298,0.00014810816189041225,-0.0002822641977257628,0.00033152235993418776,0.00014158933831912062,0.0010413349616932152,0.0,0.0,0.0,0.0,0.0,0.0,0.0,1.696026085096225e-05,0.00010344936417772121,-3.1351268597878956e-06,-6.718392217885949e-06,9.241327198927785e-06,-1.7773663558706687e-06,-7.1527928482417735e-06,0.0012977103566446297,-0.00014076949280654298,-0.00014810816189041225,0.0002822641977257628,-0.00033152235993418776,-0.00014158933831912062,-0.0010413349616932152,0.7560665011405945,46.20284652709961,5.612087726593018,-19.535249710083008,-0.7308860421180725,-2.4108920097351074,0.17337362468242645,0
64,0.3142251968383789,-0.7838374972343445,-46.22665023803711,-5.612087726593018,19.535249710083008,0.7427878975868225,2.4237093925476074,-0.14590780436992645,0.0,0.0,0.0,0.0,0.0,0.0,0.0,-0.815227131875233,0.1176043379257395,-0.44194184207793313,0.3347034590180129,0.1550058186979411,0.14729431443437072,-0.14659385787329793,0.878079287194373,0.7553579733915442,-0.2825521329859002,-1.6690935957195467,0.14140803176164624,2.4034451173683027,1.0273423189852433,0.878092876070424,0.7554597494309409,-0.2825552651693207,-1.6690993614607135,0.1414185955172306,2.4034451173676383,1.0273381002308042,-0.000581381631169428,0.00032627304652914645,0.00027925674899121933,-0.0004979209861680501,-1.7314575035162215e-05,-0.0004314787670259083,0.0006054068949014167,0.0,0.0,0.0,0.0,0.0,0.0,0.0,1.3588876050962817e-05,0.00010177603939665048,-3.132183420517798e-06,-5.76574116673001e-06,1.0563755584364065e-05,-6.643574579356937e-13,-4.218754439122563e-06,0.000581381631169428,-0.00032627304652914645,-0.00027925674899121933,0.0004979209861680501,1.7314575035162215e-05,0.0004314787670259083,-0.0006054068949014167,0.7838374972343445,46.22665023803711,5.612087726593018,-19.535249710083008,-0.7427878975868225,-2.4237093925476074,0.14590780436992645,0
65,0.3191835880279541,-0.7838374972343445,-46.22665023803711,-5.612087726593018,19.535249710083008,0.7427878975868225,2.4237093925476074,-0.14590780436992645,0.0,0.0,0.0,0.0,0.0,0.0,0.0,-0.815227131875233,0.1176043379257395,-0.44194184207793313,0.3347034590180129,0.1550058186979411,0.14729431443437072,-0.14659385787329793,0.878079287194373,0.7553579733915442,-0.2825521329859002,-1.6690935957195467,0.14140803176164624,2.4034451173683027,1.0273423189852433,0.878092876070424,0.7554597494309409,-0.2825552651693207,-1.6690993614607135,0.1414185955172306,2.4034451173676383,1.0273381002308042,-0.000581381631169428,0.00032627304652914645,0.00027925674899121933,-0.0004979209861680501,-1.7314575035162215e-05,-0.0004314787670259083,0.0006054068949014167,0.0,0.0,0.0,0.0,0.0,0.0,0.0,1.3588876050962817e-05,0.00010177603939665048,-3.132183420517798e-06,-5.76574116673001e-06,1.0563755584364065e-05,-6.643574579356937e-13,-4.218754439122563e-06,0.000581381631169428,-0.00032627304652914645,-0.00027925674899121933,0.0004979209861680501,1.7314575035162215e-05,0.0004314787670259083,-0.0006054068949014167,0.7838374972343445,46.22665023803711,5.612087726593018,-19.535249710083008,-0.7427878975868225,-2.4237093925476074,0.14590780436992645,0
66,0.3242325782775879,-0.8354122042655945,-46.20284652709961,-5.635891437530518,19.559053421020508,0.7372947335243225,2.4237093925476074,-0.11844198405742645,0.0,0.0,0.0,0.0,0.0,0.0,0.0,-0.8161263095092894,0.11892951650432315,-0.4417279034522948,0.3304580284771289,0.15543834341263757,0.14738396911563406,-0.14397374441434976,0.8780806096199525,0.7553563029556942,-0.28255045964296105,-1.6690971741881846,0.14140864211320875,2.4034451173676383,1.0273392672455972,0.878092876070424,0.7554597494309409,-0.2825552651693207,-1.6690993614607135,0.1414185955172306,2.4034451173676383,1.0273381002308042,0.0009095539143048338,8.819578887287247e-05,0.0007563565214770326,-0.0006345733045882563,0.00022565727235487377,-0.00028866219571836466,-0.00077114884610793,0.0,0.0,0.0,0.0,0.0,0.0,0.0,1.2266450471476453e-05,0.00010344647524662687,-4.805526359674683e-06,-2.1872725288751838e-06,9.953404021850742e-06,0.0,-1.1670147930242791e-06,-0.0009095539143048338,-8.819578887287247e-05,-0.0007563565214770326,0.0006345733045882563,-0.00022565727235487377,0.00028866219571836466,0.00077114884610793,0.8354122042655945,46.20284652709961,5.635891437530518,-19.559053421020508,-0.7372947335243225,-2.4237093925476074,0.11844198405742645,0
67,0.3291778564453125,-0.8354122042655945,-46.20284652709961,-5.635891437530518,19.559053421020508,0.7372947335243225,2.4237093925476074,-0.11844198405742645,0.0,0.0,0.0,0.0,0.0,0.0,0.0,-0.8161263095092894,0.11892951650432315,-0.4417279034522948,0.3304580284771289,0.15543834341263757,0.14738396911563406,-0.14397374441434976,0.8780806096199525,0.7553563029556942,-0.28255045964296105,-1.6690971741881846,0.14140864211320875,2.4034451173676383,1.0273392672455972,0.878092876070424,0.7554597494309409,-0.2825552651693207,-1.6690993614607135,0.1414185955172306,2.4034451173676383,1.0273381002308042,0.0009095539143048338,8.819578887287247e-05,0.0007563565214770326,-0.0006345733045882563,0.00022565727235487377,-0.00028866219571836466,-0.00077114884610793,0.0,0.0,0.0,0.0,0.0,0.0,0.0,1.2266450471476453e-05,0.00010344647524662687,-4.805526359674683e-06,-2.1872725288751838e-06,9.953404021850742e-06,0.0,-1.1670147930242791e-06,-0.0009095539143048338,-8.819578887287247e-05,-0.0007563565214770326,0.0006345733045882563,-0.00022565727235487377,0.00028866219571836466,0.00077114884610793,0.8354122042655945,46.20284652709961,5.635891437530518,-19.559053421020508,-0.7372947335243225,-2.4237093925476074,0.11844198405742645,0
68,0.3342320919036865,-0.8354122042655945,-46.15127182006836,-5.635891437530518,19.559053421020508,0.7253928780555725,2.4173007011413574,-0.15964071452617645,0.0,0.0,0.0,0.0,0.0,0.0,0.0,-0.8218448382904584,0.11294643224616194,-0.4461808495018488,0.33213953485149006,0.15698426623699116,0.14792242685910553,-0.14332197746620795,0.8780834617996182,0.7553526836780079,-0.2825526057008666,-1.6690949904577435,0.14140996454159416,2.4034458294444616,1.027343844882316,0.878092876070424,0.7554597494309409,-0.2825552651693207,-1.6690993614607135,0.1414185955172306,2.4034451173676383,1.0273381002308042,0.0002317100322633515,-0.001148125796801713,0.0007584021668411319,-0.00024800007917618174,-0.001314203336302798,3.5432724122903806e-05,-4.68749651499172e-05,0.0,0.0,0.0,0.0,0.0,0.0,0.0,9.41427080580759e-06,0.0001070657529329555,-2.6594684541247915e-06,-4.371002970016136e-06,8.630975636442217e-06,-7.120768232837804e-07,-5.744651511818688e-06,-0.0002317100322633515,0.001148125796801713,-0.0007584021668411319,0.00024800007917618174,0.001314203336302798,-3.5432724122903806e-05,4.68749651499172e-05,0.8354122042655945,46.15127182006836,5.635891437530518,-19.559053421020508,-0.7253928780555725,-2.4173007011413574,0.15964071452617645,0
69,0.3392488956451416,-0.8354122042655945,-46.15127182006836,-5.635891437530518,19.559053421020508,0.7253928780555725,2.4173007011413574,-0.15964071452617645,0.0,0.0,0.0,0.0,0.0,0.0,0.0,-0.8218448382904584,0.11294643224616194,-0.4461808495018488,0.33213953485149006,0.15698426623699116,0.14792242685910553,-0.14332197746620795,0.8780834617996182,0.7553526836780079,-0.2825526057008666,-1.6690949904577435,0.14140996454159416,2.4034458294444616,1.027343844882316,0.878092876070424,0.7554597494309409,-0.2825552651693207,-1.6690993614607135,0.1414185955172306,2.4034451173676383,1.0273381002308042,0.0002317100322633515,-0.001148125796801713,0.0007584021668411319,-0.00024800007917618174,-0.001314203336302798,3.5432724122903806e-05,-4.68749651499172e-05,0.0,0.0,0.0,0.0,0.0,0.0,0.0,9.41427080580759e-06,0.0001070657529329555,-2.6594684541247915e-06,-4.371002970016136e-06,8.630975636442217e-06,-7.120768232837804e-07,-5.744651511818688e-06,-0.0002317100322633515,0.001148125796801713,-0.0007584021668411319,0.00024800007917618174,0.001314203336302798,-3.5432724122903806e-05,4.68749651499172e-05,0.8354122042655945,46.15127182006836,5.635891437530518,-19.559053421020508,-0.7253928780555725,-2.4173007011413574,0.15964071452617645,0
70,0.34427452087402344,-0.7838374972343445,-46.20284652709961,-5.612087726593018,19.535249710083008,0.7491965889930725,2.4108920097351074,-0.09738485515117645,0.0,0.0,0.0,0.0,0.0,0.0,0.0,-0.8125260241053844,0.12010643183182605,-0.4397174117207796,0.3310305326581708,0.15541156794597152,0.1480768509944903,-0.14470328886330694,0.8780793925562617,0.7553563029556942,-0.2825521310276456,-1.6690953976870604,0.1414073196848233,2.4034465415212845,1.0273369275646078,0.878092876070424,0.7554597494309409,-0.2825552651693207,-1.6690993614607135,0.1414185955172306,2.4034451173676383,1.0273381002308042,-0.0006213165870673354,-2.19457525118115e-05,-0.00019862746378468662,0.00021611801644213244,-0.0003375487854029416,2.336221753780271e-05,-0.002010526091211038,0.0,0.0,0.0,0.0,0.0,0.0,0.0,1.3483514162304644e-05,0.00010344647524662687,-3.1341416751318185e-06,-3.963773653081759e-06,1.1275832407287023e-05,-1.4241536461234716e-06,1.1726661963695761e-06,0.0006213165870673354,2.19457525118115e-05,0.00019862746378468662,-0.00021611801644213244,0.0003375487854029416,-2.336221753780271e-05,0.002010526091211038,0.7838374972343445,46.20284652709961,5.612087726593018,-19.535249710083008,-0.7491965889930725,-2.4108920097351074,0.09738485515117645,0
71,0.34929370880126953,-0.7838374972343445,-46.20284652709961,-5.612087726593018,19.535249710083008,0.7491965889930725,2.4108920097351074,-0.09738485515117645,0.0,0.0,0.0,0.0,0.0,0.0,0.0,-0.8125260241053844,0.12010643183182605,-0.4397174117207796,0.3310305326581708,0.15541156794597152,0.1480768509944903,-0.14470328886330694,0.8780793925562617,0.7553563029556942,-0.2825521310276456,-1.6690953976870604,0.1414073196848233,2.4034465415212845,1.0273369275646078,0.878092876070424,0.7554597494309409,-0.2825552651693207,-1.6690993614607135,0.1414185955172306,2.4034451173676383,1.0273381002308042,-0.0006213165870673354,-2.19457525118115e-05,-0.00019862746378468662,0.00021611801644213244,-0.0003375487854029416,2.336221753780271e-05,-0.002010526091211038,0.0,0.0,0.0,0.0,0.0,0.0,0.0,1.3483514162304644e-05,0.00010344647524662687,-3.1341416751318185e-06,-3.963773653081759e-06,1.1275832407287023e-05,-1.4241536461234716e-06,1.1726661963695761e-06,0.0006213165870673354,2.19457525118115e-05,0.00019862746378468662,-0.00021611801644213244,0.0003375487854029416,-2.336221753780271e-05,0.002010526091211038,0.7838374972343445,46.20284652709961,5.612087726593018,-19.535249710083008,-0.7491965889930725,-2.4108920097351074,0.09738485515117645,0
72,0.35422611236572266,-0.8354122042655945,-46.20284652709961,-5.588284015655518,19.511445999145508,0.7372947335243225,2.4173007011413574,-0.17337362468242645,0.0,0.0,0.0,0.0,0.0,0.0,0.0,-0.8086074471484218,0.12156944934625877,-0.439823606045893,0.3323562429554494,0.15505883941358242,0.147718926754385,-0.14380113450991777,0.8780814760818488,0.7553563029556942,-0.28255380047832174,-1.669091094946999,0.14140864211320875,2.403445830898012,1.0273453707612223,0.878092876070424,0.7554597494309409,-0.2825552651693207,-1.6690993614607135,0.1414185955172306,2.4034451173676383,1.0273381002308042,0.0004700048552065696,6.330533159060692e-05,-0.00028790185681971215,0.0008040761627923334,0.00012867412053464876,-0.00024125325341908414,0.0007893558881953253,0.0,0.0,0.0,0.0,0.0,0.0,0.0,1.139998857513369e-05,0.00010344647524662687,-1.4646909989868284e-06,-8.266513714438872e-06,9.953404021850742e-06,-7.135303734528975e-07,-7.270530418157506e-06,-0.0004700048552065696,-6.330533159060692e-05,0.00028790185681971215,-0.0008040761627923334,-0.00012867412053464876,0.00024125325341908414,-0.0007893558881953253,0.8354122042655945,46.20284652709961,5.588284015655518,-19.511445999145508,-0.7372947335243225,-2.4173007011413574,0.17337362468242645,0
73,0.3592262268066406,-0.8354122042655945,-46.20284652709961,-5.588284015655518,19.511445999145508,0.7372947335243225,2.4173007011413574,-0.17337362468242645,0.0,0.0,0.0,0.0,0.0,0.0,0.0,-0.8086074471484218,0.12156944934625877,-0.439823606045893,0.3323562429554494,0.15505883941358242,0.147718926754385,-0.14380113450991777,0.8780814760818488,0.7553563029556942,-0.28255380047832174,-1.669091094946999,0.14140864211320875,2.403445830898012,1.0273453707612223,0.878092876070424,0.7554597494309409,-0.2825552651693207,-1.6690993614607135,0.1414185955172306,2.4034451173676383,1.0273381002308042,0.0004700048552065696,6.330533159060692e-05,-0.00028790185681971215,0.0008040761627923334,0.00012867412053464876,-0.00024125325341908414,0.0007893558881953253,0.0,0.0,0.0,0.0,0.0,0.0,0.0,1.139998857513369e-05,0.00010344647524662687,-1.4646909989868284e-06,-8.266513714438872e-06,9.953404021850742e-06,-7.135303734528975e-07,-7.270530418157506e-06,-0.0004700048552065696,-6.330533159060692e-05,0.00028790185681971215,-0.0008040761627923334,-0.00012867412053464876,0.00024125325341908414,-0.0007893558881953253,0.8354122042655945,46.20284652709961,5.588284015655518,-19.511445999145508,-0.7372947335243225,-2.4173007011413574,0.17337362468242645,0
74,0.3641800880432129,-0.8354122042655945,-46.25045394897461,-5.635891437530518,19.511445999145508,0.7491965889930725,2.4108920097351074,-0.12485067546367645,0.0,0.0,0.0,0.0,0.0,0.0,0.0,-0.8073655484838901,0.12502258428685034,-0.43868266071097783,0.3309723362703222,0.15480313860498388,0.1470162834466472,-0.1449916379374827,0.8780815908780897,0.7553596438274048,-0.2825504596066057,-1.6690940362664668,0.1414073196848233,2.403446541521309,1.0273399788379036,0.878092876070424,0.7554597494309409,-0.2825552651693207,-1.6690993614607135,0.1414185955172306,2.4034451173676383,1.0273381002308042,0.0006459538987026822,0.0011626998213071272,0.0005240960947620358,0.0006085782260212862,-0.00019796694676825312,0.00017520722596838542,-0.0010225329037980898,0.0,0.0,0.0,0.0,0.0,0.0,0.0,1.1285192334287153e-05,0.00010010560353601594,-4.805562715037848e-06,-5.325194246674769e-06,1.1275832407287023e-05,-1.4241536705483782e-06,-1.8786070994369908e-06,-0.0006459538987026822,-0.0011626998213071272,-0.0005240960947620358,-0.0006085782260212862,0.00019796694676825312,-0.00017520722596838542,0.0010225329037980898,0.8354122042655945,46.25045394897461,5.635891437530518,-19.511445999145508,-0.7491965889930725,-2.4108920097351074,0.12485067546367645,0
75,0.36967897415161133,-0.8354122042655945,-46.25045394897461,-5.635891437530518,19.511445999145508,0.7491965889930725,2.4108920097351074,-0.12485067546367645,0.0,0.0,0.0,0.0,0.0,0.0,0.0,-0.8073655484838901,0.12502258428685034,-0.43868266071097783,0.3309723362703222,0.15480313860498388,0.1470162834466472,-0.1449916379374827,0.8780815908780897,0.7553596438274048,-0.2825504596066057,-1.6690940362664668,0.1414073196848233,2.403446541521309,1.0273399788379036,0.878092876070424,0.7554597494309409,-0.2825552651693207,-1.6690993614607135,0.1414185955172306,2.4034451173676383,1.0273381002308042,0.0006459538987026822,0.0011626998213071272,0.0005240960947620358,0.0006085782260212862,-0.00019796694676825312,0.00017520722596838542,-0.0010225329037980898,0.0,0.0,0.0,0.0,0.0,0.0,0.0,1.1285192334287153e-05,0.00010010560353601594,-4.805562715037848e-06,-5.325194246674769e-06,1.1275832407287023e-05,-1.4241536705483782e-06,-1.8786070994369908e-06,-0.0006459538987026822,-0.0011626998213071272,-0.0005240960947620358,-0.0006085782260212862,0.00019796694676825312,-0.00017520722596838542,0.0010225329037980898,0.8354122042655945,46.25045394897461,5.635891437530518,-19.511445999145508,-0.7491965889930725,-2.4108920097351074,0.12485067546367645,0
76,0.3742368221282959,-0.7838374972343445,-46.22665023803711,-5.612087726593018,19.586824417114258,0.7427878975868225,2.4108920097351074,-0.15964071452617645,0.0,0.0,0.0,0.0,0.0,0.0,0.0,-0.7985570722964328,0.12320922562291713,-0.43328936143167396,0.3336162296949676,0.15536111086492257,0.14769639355040193,-0.14530331723432324,0.8780769847750097,0.7553579733915495,-0.28255213004246094,-1.6690986169520754,0.14140803192365653,2.4034465415212845,1.0273438448823133,0.878092876070424,0.7554597494309409,-0.2825552651693207,-1.6690993614607135,0.1414185955172306,2.4034451173676383,1.0273381002308042,-0.0004599194635273464,0.0004818131730424903,0.0002958325155622703,-0.001008552665632121,-3.305399017913304e-05,0.000266139601847747,0.00018423792782412958,0.0,0.0,0.0,0.0,0.0,0.0,0.0,1.5891295414238726e-05,0.0001017760393913214,-3.1351268597878956e-06,-7.445086380730714e-07,1.0563593574069996e-05,-1.4241536461234716e-06,-5.744651509154153e-06,0.0004599194635273464,-0.0004818131730424903,-0.0002958325155622703,0.001008552665632121,3.305399017913304e-05,-0.000266139601847747,-0.00018423792782412958,0.7838374972343445,46.22665023803711,5.612087726593018,-19.586824417114258,-0.7427878975868225,-2.4108920097351074,0.15964071452617645,0
77,0.3792304992675781,-0.7838374972343445,-46.22665023803711,-5.612087726593018,19.586824417114258,0.7427878975868225,2.4108920097351074,-0.15964071452617645,0.0,0.0,0.0,0.0,0.0,0.0,0.0,-0.7985570722964328,0.12320922562291713,-0.43328936143167396,0.3336162296949676,0.15536111086492257,0.14769639355040193,-0.14530331723432324,0.8780769847750097,0.7553579733915495,-0.28255213004246094,-1.6690986169520754,0.14140803192365653,2.4034465415212845,1.0273438448823133,0.878092876070424,0.7554597494309409,-0.2825552651693207,-1.6690993614607135,0.1414185955172306,2.4034451173676383,1.0273381002308042,-0.0004599194635273464,0.0004818131730424903,0.0002958325155622703,-0.001008552665632121,-3.305399017913304e-05,0.000266139601847747,0.00018423792782412958,0.0,0.0,0.0,0.0,0.0,0.0,0.0,1.5891295414238726e-05,0.0001017760393913214,-3.1351268597878956e-06,-7.445086380730714e-07,1.0563593574069996e-05,-1.4241536461234716e-06,-5.744651509154153e-06,0.0004599194635273464,-0.0004818131730424903,-0.0002958325155622703,0.001008552665632121,3.305399017913304e-05,-0.000266139601847747,-0.00018423792782412958,0.7838374972343445,46.22665023803711,5.612087726593018,-19.586824417114258,-0.7427878975868225,-2.4108920097351074,0.15964071452617645,0
78,0.384249210357666,-0.8354122042655945,-46.20284652709961,-5.612087726593018,19.535249710083008,0.7372947335243225,2.4108920097351074,-0.15231649577617645,0.0,0.0,0.0,0.0,0.0,0.0,0.0,-0.8229924203399263,0.11253135240392383,-0.4514091363776025,0.33738000533729334,0.15565779871021895,0.1487976941470603,-0.1457916642798294,0.878080522611973,0.7553563029556942,-0.28255213004246094,-1.6690955011075141,0.14140860262206642,2.4034465415212845,1.0273430310802327,0.878092876070424,0.7554597494309409,-0.2825552651693207,-1.6690993614607135,0.1414185955172306,2.4034451173676383,1.0273381002308042,1.1138895492751255e-06,-0.00045547408024403774,-0.00020214959025451783,7.163856951700222e-05,6.572326668523639e-06,0.00010356518823732795,0.0006141273186377725,0.0,0.0,0.0,0.0,0.0,0.0,0.0,1.235345845096436e-05,0.00010344647524662687,-3.1351268597878956e-06,-3.860353199325317e-06,9.992895164179227e-06,-1.4241536461234716e-06,-4.930849428541606e-06,-1.1138895492751255e-06,0.00045547408024403774,0.00020214959025451783,-7.163856951700222e-05,-6.572326668523639e-06,-0.00010356518823732795,-0.0006141273186377725,0.8354122042655945,46.20284652709961,5.612087726593018,-19.535249710083008,-0.7372947335243225,-2.4108920097351074,0.15231649577617645,0
79,0.3892223834991455,-0.8354122042655945,-46.20284652709961,-5.612087726593018,19.535249710083008,0.7372947335243225,2.4108920097351074,-0.15231649577617645,0.0,0.0,0.0,0.0,0.0,0.0,0.0,-0.8229924203399263,0.11253135240392383,-0.4514091363776025,0.33738000533729334,0.15565779871021895,0.1487976941470603,-0.1457916642798294,0.878080522611973,0.7553563029556942,-0.28255213004246094,-1.6690955011075141,0.14140860262206642,2.4034465415212845,1.0273430310802327,0.878092876070424,0.7554597494309409,-0.2825552651693207,-1.6690993614607135,0.1414185955172306,2.4034451173676383,1.0273381002308042,1.1138895492751255e-06,-0.00045547408024403774,-0.00020214959025451783,7.163856951700222e-05,6.572326668523639e-06,0.00010356518823732795,0.0006141273186377725,0.0,0.0,0.0,0.0,0.0,0.0,0.0,1.235345845096436e-05,0.00010344647524662687,-3.1351268597878956e-06,-3.860353199325317e-06,9.992895164179227e-06,-1.4241536461234716e-06,-4.930849428541606e-06,-1.1138895492751255e-06,0.00045547408024403774,0.00020214959025451783,-7.163856951700222e-05,-6.572326668523639e-06,-0.00010356518823732795,-0.0006141273186377725,0.8354122042655945,46.20284652709961,5.612087726593018,-19.535249710083008,-0.7372947335243225,-2.4108920097351074,0.15231649577617645,0
80,0.3942253589630127,-0.8354122042655945,-46.17904281616211,-5.612087726593018,19.535249710083008,0.7427878975868225,2.4173007011413574,-0.17337362468242645,0.0,0.0,0.0,0.0,0.0,0.0,0.0,-0.8135733634315993,0.128290437134908,-0.44075490517436755,0.329723167543544,0.1551521727918828,0.14756127982548048,-0.14514452706586434,0.8780829849619836,0.755354632519839,-0.28255213004246094,-1.6690947858882321,0.14140803176097747,2.4034458294444616,1.0273453707612223,0.878092876070424,0.7554597494309409,-0.2825552651693207,-1.6690993614607135,0.1414185955172306,2.4034451173676383,1.0273381002308042,0.000336163096293975,-0.0006408927865931398,-0.00032568875232455636,0.00024212296910618646,8.857458199937156e-07,-0.00020261754597885475,0.0010968098374084037,0.0,0.0,0.0,0.0,0.0,0.0,0.0,9.891108440407415e-06,0.00010511691110182131,-3.1351268597878956e-06,-4.575572481346768e-06,1.056375625313466e-05,-7.120768232837804e-07,-7.270530418157506e-06,-0.000336163096293975,0.0006408927865931398,0.00032568875232455636,-0.00024212296910618646,-8.857458199937156e-07,0.00020261754597885475,-0.0010968098374084037,0.8354122042655945,46.17904281616211,5.612087726593018,-19.535249710083008,-0.7427878975868225,-2.4173007011413574,0.17337362468242645,0
