rezayati/contactInterpretation/dataset/franka_main/labeled_data/link2/f6_8.csv
index,time,tau_J0,tau_J1,tau_J2,tau_J3,tau_J4,tau_J5,tau_J6,tau_J_d0,tau_J_d1,tau_J_d2,tau_J_d3,tau_J_d4,tau_J_d5,tau_J_d6,tau_ext0,tau_ext1,tau_ext2,tau_ext3,tau_ext4,tau_ext5,tau_ext6,q0,q1,q2,q3,q4,q5,q6,q_d0,q_d1,q_d2,q_d3,q_d4,q_d5,q_d6,dq0,dq1,dq2,dq3,dq4,dq5,dq6,dq_d0,dq_d1,dq_d2,dq_d3,dq_d4,dq_d5,dq_d6,e0,e1,e2,e3,e4,e5,e6,de0,de1,de2,de3,de4,de5,de6,etau_J0,etau_J1,etau_J2,etau_J3,etau_J4,etau_J5,etau_J6,label
1,0.0,-0.3236324191093445,-22.549890518188477,-0.2007109820842743,14.207185745239258,0.09367901086807251,2.1517977714538574,-0.27591270208358765,0.0,0.0,0.0,0.0,0.0,0.0,0.0,-0.3296566816226836,0.24292693364990517,-0.23238481946702735,0.31431384962756975,-0.12666479576769565,-0.035157713004483906,-0.24135798428119593,1.675701688306838,0.05211465438869157,0.029978556424030987,-2.752396274131641,0.03425169313760675,2.7663661825919585,0.769163867149088,1.6754973547542302,0.052104326824870026,0.029969505109285054,-2.752394845125968,0.0342448039870148,2.7663679543071322,0.7691630533470046,-0.00029039995007069946,-0.0002144944784880682,0.0014645719176253264,-0.0006086359035002145,0.0006774763337421774,-0.0001002499187221294,0.0013679713613783259,0.0,0.0,0.0,0.0,0.0,0.0,0.0,-0.00020433355260784936,-1.0327563821542485e-05,-9.05131474593368e-06,1.429005672903827e-06,-6.889150591951609e-06,1.7717151736817982e-06,-8.138020833881043e-07,0.00029039995007069946,0.0002144944784880682,-0.0014645719176253264,0.0006086359035002145,-0.0006774763337421774,0.0001002499187221294,-0.0013679713613783259,0.3236324191093445,22.549890518188477,0.2007109820842743,-14.207185745239258,-0.09367901086807251,-2.1517977714538574,0.27591270208358765,0
2,0.005002737045288086,-0.3236324191093445,-22.549890518188477,-0.2007109820842743,14.207185745239258,0.09367901086807251,2.1517977714538574,-0.27591270208358765,0.0,0.0,0.0,0.0,0.0,0.0,0.0,-0.3296566816226836,0.24292693364990517,-0.23238481946702735,0.31431384962756975,-0.12666479576769565,-0.035157713004483906,-0.24135798428119593,1.675701688306838,0.05211465438869157,0.029978556424030987,-2.752396274131641,0.03425169313760675,2.7663661825919585,0.769163867149088,1.6754973547542302,0.052104326824870026,0.029969505109285054,-2.752394845125968,0.0342448039870148,2.7663679543071322,0.7691630533470046,-0.00029039995007069946,-0.0002144944784880682,0.0014645719176253264,-0.0006086359035002145,0.0006774763337421774,-0.0001002499187221294,0.0013679713613783259,0.0,0.0,0.0,0.0,0.0,0.0,0.0,-0.00020433355260784936,-1.0327563821542485e-05,-9.05131474593368e-06,1.429005672903827e-06,-6.889150591951609e-06,1.7717151736817982e-06,-8.138020833881043e-07,0.00029039995007069946,0.0002144944784880682,-0.0014645719176253264,0.0006086359035002145,-0.0006774763337421774,0.0001002499187221294,-0.0013679713613783259,0.3236324191093445,22.549890518188477,0.2007109820842743,-14.207185745239258,-0.09367901086807251,-2.1517977714538574,0.27591270208358765,0
3,0.00999903678894043,-0.3236324191093445,-22.549890518188477,-0.1729399859905243,14.179414749145508,0.10008770227432251,2.1389803886413574,-0.25485557317733765,0.0,0.0,0.0,0.0,0.0,0.0,0.0,-0.329522783225143,0.2452113754870126,-0.23018195864330473,0.3137407336623807,-0.12640530080445841,-0.035403173439039995,-0.24308149724424846,1.6757019178938033,0.052114373056620776,0.029975897711444478,-2.75239432528981,0.03425092222215038,2.7663686658934568,0.769161646677388,1.6754973547542302,0.052104326824870026,0.029969505109285054,-2.752394845125968,0.0342448039870148,2.7663679543071322,0.7691630533470046,-0.0007835186098379666,-0.00025255119624701945,0.0004754899902614243,0.00010034379341135198,0.00031784608811669487,0.00022096932717365848,0.0011600692766969433,0.0,0.0,0.0,0.0,0.0,0.0,0.0,-0.00020456313957306627,-1.00462317507502e-05,-6.392602159423916e-06,-5.198361581193467e-07,-6.118235135577077e-06,-7.11586324531055e-07,1.4066696166770143e-06,0.0007835186098379666,0.00025255119624701945,-0.0004754899902614243,-0.00010034379341135198,-0.00031784608811669487,-0.00022096932717365848,-0.0011600692766969433,0.3236324191093445,22.549890518188477,0.1729399859905243,-14.179414749145508,-0.10008770227432251,-2.1389803886413574,0.25485557317733765,0
4,0.01499319076538086,-0.3236324191093445,-22.549890518188477,-0.1729399859905243,14.179414749145508,0.10008770227432251,2.1389803886413574,-0.25485557317733765,0.0,0.0,0.0,0.0,0.0,0.0,0.0,-0.329522783225143,0.2452113754870126,-0.23018195864330473,0.3137407336623807,-0.12640530080445841,-0.035403173439039995,-0.24308149724424846,1.6757019178938033,0.052114373056620776,0.029975897711444478,-2.75239432528981,0.03425092222215038,2.7663686658934568,0.769161646677388,1.6754973547542302,0.052104326824870026,0.029969505109285054,-2.752394845125968,0.0342448039870148,2.7663679543071322,0.7691630533470046,-0.0007835186098379666,-0.00025255119624701945,0.0004754899902614243,0.00010034379341135198,0.00031784608811669487,0.00022096932717365848,0.0011600692766969433,0.0,0.0,0.0,0.0,0.0,0.0,0.0,-0.00020456313957306627,-1.00462317507502e-05,-6.392602159423916e-06,-5.198361581193467e-07,-6.118235135577077e-06,-7.11586324531055e-07,1.4066696166770143e-06,0.0007835186098379666,0.00025255119624701945,-0.0004754899902614243,-0.00010034379341135198,-0.00031784608811669487,-0.00022096932717365848,-0.0011600692766969433,0.3236324191093445,22.549890518188477,0.1729399859905243,-14.179414749145508,-0.10008770227432251,-2.1389803886413574,0.25485557317733765,0
5,0.019990921020507812,-0.3752071261405945,-22.573694229125977,-0.1491362750530243,14.207185745239258,0.10558086633682251,2.1453890800476074,-0.26217979192733765,0.0,0.0,0.0,0.0,0.0,0.0,0.0,-0.3378430351322781,0.24336296955622547,-0.23297676710859436,0.3145000175530518,-0.12611161593995282,-0.0359618057363817,-0.24173249398813396,1.6757054606433655,0.052116041828978645,0.02997446389650278,-2.752396274131641,0.03425343119703277,2.7663679543071296,0.7691623412708547,1.6754973547542302,0.052104326824870026,0.029969505109285054,-2.752394845125968,0.0342448039870148,2.7663679543071322,0.7691630533470046,-0.00011858219538492814,0.0005200444402956484,-0.0002097442538241203,-0.0004733356643353148,8.096863164105192e-06,0.00021323083963000825,0.00577263829336877,0.0,0.0,0.0,0.0,0.0,0.0,0.0,-0.00020810588913522388,-1.1715004108618643e-05,-4.958787217727856e-06,1.429005672903827e-06,-8.627210017972398e-06,2.6645352591003757e-15,7.12076149933516e-07,0.00011858219538492814,-0.0005200444402956484,0.0002097442538241203,0.0004733356643353148,-8.096863164105192e-06,-0.00021323083963000825,-0.00577263829336877,0.3752071261405945,22.573694229125977,0.1491362750530243,-14.207185745239258,-0.10558086633682251,-2.1453890800476074,0.26217979192733765,0
6,0.024995803833007812,-0.3752071261405945,-22.573694229125977,-0.1491362750530243,14.207185745239258,0.10558086633682251,2.1453890800476074,-0.26217979192733765,0.0,0.0,0.0,0.0,0.0,0.0,0.0,-0.3378430351322781,0.24336296955622547,-0.23297676710859436,0.3145000175530518,-0.12611161593995282,-0.0359618057363817,-0.24173249398813396,1.6757054606433655,0.052116041828978645,0.02997446389650278,-2.752396274131641,0.03425343119703277,2.7663679543071296,0.7691623412708547,1.6754973547542302,0.052104326824870026,0.029969505109285054,-2.752394845125968,0.0342448039870148,2.7663679543071322,0.7691630533470046,-0.00011858219538492814,0.0005200444402956484,-0.0002097442538241203,-0.0004733356643353148,8.096863164105192e-06,0.00021323083963000825,0.00577263829336877,0.0,0.0,0.0,0.0,0.0,0.0,0.0,-0.00020810588913522388,-1.1715004108618643e-05,-4.958787217727856e-06,1.429005672903827e-06,-8.627210017972398e-06,2.6645352591003757e-15,7.12076149933516e-07,0.00011858219538492814,-0.0005200444402956484,0.0002097442538241203,0.0004733356643353148,-8.096863164105192e-06,-0.00021323083963000825,-0.00577263829336877,0.3752071261405945,22.573694229125977,0.1491362750530243,-14.207185745239258,-0.10558086633682251,-2.1453890800476074,0.26217979192733765,0
7,0.029994487762451172,-0.4029781222343445,-22.522119522094727,-0.1729399859905243,14.155611038208008,0.10008770227432251,2.1517977714538574,-0.26217979192733765,0.0,0.0,0.0,0.0,0.0,0.0,0.0,-0.3534692176908858,0.24872764264410493,-0.2379705067931026,0.30561940683333394,-0.12637873055108512,-0.03759014634028944,-0.2421210881413755,1.6757074860141847,0.052115312539248955,0.029975976691942696,-2.7523926548539546,0.034254015259215675,2.766366849771743,0.7691623412701818,1.6754973547542302,0.052104326824870026,0.029969505109285054,-2.752394845125968,0.0342448039870148,2.7663679543071322,0.7691630533470046,-0.00031658558206396477,-0.0007206514456730079,6.801469743763084e-05,0.00015999941826618094,0.0002366204722056969,-3.2971886546261926e-05,0.00027467457797840134,0.0,0.0,0.0,0.0,0.0,0.0,0.0,-0.00021013125995450466,-1.098571437892909e-05,-6.471582657641833e-06,-2.1902720135358322e-06,-9.211272200874976e-06,1.1045353893734955e-06,7.120768228396912e-07,0.00031658558206396477,0.0007206514456730079,-6.801469743763084e-05,-0.00015999941826618094,-0.0002366204722056969,3.2971886546261926e-05,-0.00027467457797840134,0.4029781222343445,22.522119522094727,0.1729399859905243,-14.155611038208008,-0.10008770227432251,-2.1517977714538574,0.26217979192733765,0
8,0.035010576248168945,-0.4029781222343445,-22.522119522094727,-0.1729399859905243,14.155611038208008,0.10008770227432251,2.1517977714538574,-0.26217979192733765,0.0,0.0,0.0,0.0,0.0,0.0,0.0,-0.3534692176908858,0.24872764264410493,-0.2379705067931026,0.30561940683333394,-0.12637873055108512,-0.03759014634028944,-0.2421210881413755,1.6757074860141847,0.052115312539248955,0.029975976691942696,-2.7523926548539546,0.034254015259215675,2.766366849771743,0.7691623412701818,1.6754973547542302,0.052104326824870026,0.029969505109285054,-2.752394845125968,0.0342448039870148,2.7663679543071322,0.7691630533470046,-0.00031658558206396477,-0.0007206514456730079,6.801469743763084e-05,0.00015999941826618094,0.0002366204722056969,-3.2971886546261926e-05,0.00027467457797840134,0.0,0.0,0.0,0.0,0.0,0.0,0.0,-0.00021013125995450466,-1.098571437892909e-05,-6.471582657641833e-06,-2.1902720135358322e-06,-9.211272200874976e-06,1.1045353893734955e-06,7.120768228396912e-07,0.00031658558206396477,0.0007206514456730079,-6.801469743763084e-05,-0.00015999941826618094,-0.0002366204722056969,3.2971886546261926e-05,-0.00027467457797840134,0.4029781222343445,22.522119522094727,0.1729399859905243,-14.155611038208008,-0.10008770227432251,-2.1517977714538574,0.26217979192733765,0
9,0.040000200271606445,-0.3514034152030945,-22.573694229125977,-0.1491362750530243,14.207185745239258,0.10008770227432251,2.1582064628601074,-0.25485557317733765,0.0,0.0,0.0,0.0,0.0,0.0,0.0,-0.3627311175050852,0.24051255440526756,-0.23905356365879743,0.31123927690788794,-0.12623570014666982,-0.03586277803441545,-0.24338949156676593,1.6757038667369304,0.0521188791909905,0.02997422727291956,-2.752396274131641,0.03425368501251186,2.7663665301468403,0.769161646677388,1.6754973547542302,0.052104326824870026,0.029969505109285054,-2.752394845125968,0.0342448039870148,2.7663679543071322,0.7691630533470046,-0.0016526393899746012,0.00042241754743427707,-0.000880111764040253,-0.0007575623684656971,0.0004024682942564489,-0.00017598321187436207,0.0008821372422609435,0.0,0.0,0.0,0.0,0.0,0.0,0.0,-0.0002065119827001638,-1.4552366120475224e-05,-4.7221636345073925e-06,1.429005672903827e-06,-8.881025497058104e-06,1.424160291918497e-06,1.4066696166770143e-06,0.0016526393899746012,-0.00042241754743427707,0.000880111764040253,0.0007575623684656971,-0.0004024682942564489,0.00017598321187436207,-0.0008821372422609435,0.3514034152030945,22.573694229125977,0.1491362750530243,-14.207185745239258,-0.10008770227432251,-2.1582064628601074,0.25485557317733765,0
10,0.04519939422607422,-0.3514034152030945,-22.573694229125977,-0.1491362750530243,14.207185745239258,0.10008770227432251,2.1582064628601074,-0.25485557317733765,0.0,0.0,0.0,0.0,0.0,0.0,0.0,-0.3627311175050852,0.24051255440526756,-0.23905356365879743,0.31123927690788794,-0.12623570014666982,-0.03586277803441545,-0.24338949156676593,1.6757038667369304,0.0521188791909905,0.02997422727291956,-2.752396274131641,0.03425368501251186,2.7663665301468403,0.769161646677388,1.6754973547542302,0.052104326824870026,0.029969505109285054,-2.752394845125968,0.0342448039870148,2.7663679543071322,0.7691630533470046,-0.0016526393899746012,0.00042241754743427707,-0.000880111764040253,-0.0007575623684656971,0.0004024682942564489,-0.00017598321187436207,0.0008821372422609435,0.0,0.0,0.0,0.0,0.0,0.0,0.0,-0.0002065119827001638,-1.4552366120475224e-05,-4.7221636345073925e-06,1.429005672903827e-06,-8.881025497058104e-06,1.424160291918497e-06,1.4066696166770143e-06,0.0016526393899746012,-0.00042241754743427707,0.000880111764040253,0.0007575623684656971,-0.0004024682942564489,0.00017598321187436207,-0.0008821372422609435,0.3514034152030945,22.573694229125977,0.1491362750530243,-14.207185745239258,-0.10008770227432251,-2.1582064628601074,0.25485557317733765,0
11,0.04999589920043945,-0.3514034152030945,-22.573694229125977,-0.1491362750530243,14.207185745239258,0.10008770227432251,2.1582064628601074,-0.25485557317733765,0.0,0.0,0.0,0.0,0.0,0.0,0.0,-0.3627311175050852,0.24051255440526756,-0.23905356365879743,0.31123927690788794,-0.12623570014666982,-0.03586277803441545,-0.24338949156676593,1.6757038667369304,0.0521188791909905,0.02997422727291956,-2.752396274131641,0.03425368501251186,2.7663665301468403,0.769161646677388,1.6754973547542302,0.052104326824870026,0.029969505109285054,-2.752394845125968,0.0342448039870148,2.7663679543071322,0.7691630533470046,-0.0016526393899746012,0.00042241754743427707,-0.000880111764040253,-0.0007575623684656971,0.0004024682942564489,-0.00017598321187436207,0.0008821372422609435,0.0,0.0,0.0,0.0,0.0,0.0,0.0,-0.0002065119827001638,-1.4552366120475224e-05,-4.7221636345073925e-06,1.429005672903827e-06,-8.881025497058104e-06,1.424160291918497e-06,1.4066696166770143e-06,0.0016526393899746012,-0.00042241754743427707,0.000880111764040253,0.0007575623684656971,-0.0004024682942564489,0.00017598321187436207,-0.0008821372422609435,0.3514034152030945,22.573694229125977,0.1491362750530243,-14.207185745239258,-0.10008770227432251,-2.1582064628601074,0.25485557317733765,0
12,0.0549921989440918,-0.3514034152030945,-22.573694229125977,-0.1491362750530243,14.207185745239258,0.10008770227432251,2.1582064628601074,-0.25485557317733765,0.0,0.0,0.0,0.0,0.0,0.0,0.0,-0.3627311175050852,0.24051255440526756,-0.23905356365879743,0.31123927690788794,-0.12623570014666982,-0.03586277803441545,-0.24338949156676593,1.6757038667369304,0.0521188791909905,0.02997422727291956,-2.752396274131641,0.03425368501251186,2.7663665301468403,0.769161646677388,1.6754973547542302,0.052104326824870026,0.029969505109285054,-2.752394845125968,0.0342448039870148,2.7663679543071322,0.7691630533470046,-0.0016526393899746012,0.00042241754743427707,-0.000880111764040253,-0.0007575623684656971,0.0004024682942564489,-0.00017598321187436207,0.0008821372422609435,0.0,0.0,0.0,0.0,0.0,0.0,0.0,-0.0002065119827001638,-1.4552366120475224e-05,-4.7221636345073925e-06,1.429005672903827e-06,-8.881025497058104e-06,1.424160291918497e-06,1.4066696166770143e-06,0.0016526393899746012,-0.00042241754743427707,0.000880111764040253,0.0007575623684656971,-0.0004024682942564489,0.00017598321187436207,-0.0008821372422609435,0.3514034152030945,22.573694229125977,0.1491362750530243,-14.207185745239258,-0.10008770227432251,-2.1582064628601074,0.25485557317733765,0
13,0.05999612808227539,-0.2720577120780945,-22.549890518188477,-0.1491362750530243,14.207185745239258,0.11198955774307251,2.1453890800476074,-0.21457235515117645,0.0,0.0,0.0,0.0,0.0,0.0,0.0,-0.35634420663904703,0.2428280437551532,-0.23202921303316124,0.30871499961822746,-0.12736214922006886,-0.03531806186064169,-0.24101956522715445,1.675698298617413,0.052115046145932216,0.029974228245347057,-2.752396274166634,0.03425125864333328,2.7663678365635804,0.7691602834513537,1.6754973547542302,0.052104326824870026,0.029969505109285054,-2.752394845125968,0.0342448039870148,2.7663679543071322,0.7691630533470046,-0.001370729910915425,0.00021609068201689766,0.00018919753390705864,-0.0006596004788563499,-0.00017432808755699983,0.00014157159624413743,-0.0004223175009043667,0.0,0.0,0.0,0.0,0.0,0.0,0.0,-0.00020094386318270097,-1.0719321062190035e-05,-4.723136062003558e-06,1.4290406658012955e-06,-6.4546563184816885e-06,1.1774355179738905e-07,2.769895650955867e-06,0.001370729910915425,-0.00021609068201689766,-0.00018919753390705864,0.0006596004788563499,0.00017432808755699983,-0.00014157159624413743,0.0004223175009043667,0.2720577120780945,22.549890518188477,0.1491362750530243,-14.207185745239258,-0.11198955774307251,-2.1453890800476074,0.21457235515117645,0
14,0.06499385833740234,-0.2720577120780945,-22.549890518188477,-0.1491362750530243,14.207185745239258,0.11198955774307251,2.1453890800476074,-0.21457235515117645,0.0,0.0,0.0,0.0,0.0,0.0,0.0,-0.35634420663904703,0.2428280437551532,-0.23202921303316124,0.30871499961822746,-0.12736214922006886,-0.03531806186064169,-0.24101956522715445,1.675698298617413,0.052115046145932216,0.029974228245347057,-2.752396274166634,0.03425125864333328,2.7663678365635804,0.7691602834513537,1.6754973547542302,0.052104326824870026,0.029969505109285054,-2.752394845125968,0.0342448039870148,2.7663679543071322,0.7691630533470046,-0.001370729910915425,0.00021609068201689766,0.00018919753390705864,-0.0006596004788563499,-0.00017432808755699983,0.00014157159624413743,-0.0004223175009043667,0.0,0.0,0.0,0.0,0.0,0.0,0.0,-0.00020094386318270097,-1.0719321062190035e-05,-4.723136062003558e-06,1.4290406658012955e-06,-6.4546563184816885e-06,1.1774355179738905e-07,2.769895650955867e-06,0.001370729910915425,-0.00021609068201689766,-0.00018919753390705864,0.0006596004788563499,0.00017432808755699983,-0.00014157159624413743,0.0004223175009043667,0.2720577120780945,22.549890518188477,0.1491362750530243,-14.207185745239258,-0.11198955774307251,-2.1453890800476074,0.21457235515117645,0
15,0.0699911117553711,-0.3236324191093445,-22.573694229125977,-0.09756157547235489,14.179414749145508,0.10008770227432251,2.1517977714538574,-0.24112264811992645,0.0,0.0,0.0,0.0,0.0,0.0,0.0,-0.3523848691527801,0.24478979531797374,-0.23554739556520082,0.306542772063683,-0.1270041645985056,-0.035972378075503554,-0.23909688284851616,1.6757019178950994,0.052116031897451086,0.029970686905462868,-2.75239432528981,0.03425086084820983,2.7663672422296446,0.7691600016057807,1.6754973547542302,0.052104326824870026,0.029969505109285054,-2.752394845125968,0.0342448039870148,2.7663679543071322,0.7691630533470046,0.0010143919621286128,0.0005837031374270787,-0.0006489211120606003,-0.00021078137737833006,0.00012126115490046125,-0.00012889080799924362,0.0027850062267729286,0.0,0.0,0.0,0.0,0.0,0.0,0.0,-0.00020456314086914062,-1.1705072581059961e-05,-1.181796177814054e-06,-5.198361581193467e-07,-6.056861195029295e-06,7.120774876412383e-07,3.0517412239472463e-06,-0.0010143919621286128,-0.0005837031374270787,0.0006489211120606003,0.00021078137737833006,-0.00012126115490046125,0.00012889080799924362,-0.0027850062267729286,0.3236324191093445,22.573694229125977,0.09756157547235489,-14.179414749145508,-0.10008770227432251,-2.1517977714538574,0.24112264811992645,0
16,0.07499408721923828,-0.3236324191093445,-22.573694229125977,-0.09756157547235489,14.179414749145508,0.10008770227432251,2.1517977714538574,-0.24112264811992645,0.0,0.0,0.0,0.0,0.0,0.0,0.0,-0.3523848691527801,0.24478979531797374,-0.23554739556520082,0.306542772063683,-0.1270041645985056,-0.035972378075503554,-0.23909688284851616,1.6757019178950994,0.052116031897451086,0.029970686905462868,-2.75239432528981,0.03425086084820983,2.7663672422296446,0.7691600016057807,1.6754973547542302,0.052104326824870026,0.029969505109285054,-2.752394845125968,0.0342448039870148,2.7663679543071322,0.7691630533470046,0.0010143919621286128,0.0005837031374270787,-0.0006489211120606003,-0.00021078137737833006,0.00012126115490046125,-0.00012889080799924362,0.0027850062267729286,0.0,0.0,0.0,0.0,0.0,0.0,0.0,-0.00020456314086914062,-1.1705072581059961e-05,-1.181796177814054e-06,-5.198361581193467e-07,-6.056861195029295e-06,7.120774876412383e-07,3.0517412239472463e-06,-0.0010143919621286128,-0.0005837031374270787,0.0006489211120606003,0.00021078137737833006,-0.00012126115490046125,0.00012889080799924362,-0.0027850062267729286,0.3236324191093445,22.573694229125977,0.09756157547235489,-14.179414749145508,-0.10008770227432251,-2.1517977714538574,0.24112264811992645,0
17,0.07999038696289062,-0.2998287081718445,-22.573694229125977,-0.07375786453485489,14.230989456176758,0.10008770227432251,2.1582064628601074,-0.22830526530742645,0.0,0.0,0.0,0.0,0.0,0.0,0.0,-0.3472887244785243,0.25000173838872713,-0.23739349272954027,0.3060358491045765,-0.12651179293801398,-0.03616718806600402,-0.23998000271187236,1.6757002474592442,0.05211608485791193,0.029968937559008587,-2.7523979445674964,0.03425368889386888,2.766365470461522,0.7691585906793673,1.6754973547542302,0.052104326824870026,0.029969505109285054,-2.752394845125968,0.0342448039870148,2.7663679543071322,0.7691630533470046,-0.0001487371065305863,0.0009605912451851428,-0.0015027332497388939,-0.0014066875655409199,5.9035133994335084e-05,-0.0003232660802836131,-0.00010909096074023937,0.0,0.0,0.0,0.0,0.0,0.0,0.0,-0.00020289270501394618,-1.1758033041903149e-05,5.675502764666829e-07,3.0994415283203125e-06,-8.884906854078611e-06,2.483845610079527e-06,4.462667637317175e-06,0.0001487371065305863,-0.0009605912451851428,0.0015027332497388939,0.0014066875655409199,-5.9035133994335084e-05,0.0003232660802836131,0.00010909096074023937,0.2998287081718445,22.573694229125977,0.07375786453485489,-14.230989456176758,-0.10008770227432251,-2.1582064628601074,0.22830526530742645,0
18,0.0849909782409668,-0.2998287081718445,-22.573694229125977,-0.07375786453485489,14.230989456176758,0.10008770227432251,2.1582064628601074,-0.22830526530742645,0.0,0.0,0.0,0.0,0.0,0.0,0.0,-0.3472887244785243,0.25000173838872713,-0.23739349272954027,0.3060358491045765,-0.12651179293801398,-0.03616718806600402,-0.23998000271187236,1.6757002474592442,0.05211608485791193,0.029968937559008587,-2.7523979445674964,0.03425368889386888,2.766365470461522,0.7691585906793673,1.6754973547542302,0.052104326824870026,0.029969505109285054,-2.752394845125968,0.0342448039870148,2.7663679543071322,0.7691630533470046,-0.0001487371065305863,0.0009605912451851428,-0.0015027332497388939,-0.0014066875655409199,5.9035133994335084e-05,-0.0003232660802836131,-0.00010909096074023937,0.0,0.0,0.0,0.0,0.0,0.0,0.0,-0.00020289270501394618,-1.1758033041903149e-05,5.675502764666829e-07,3.0994415283203125e-06,-8.884906854078611e-06,2.483845610079527e-06,4.462667637317175e-06,0.0001487371065305863,-0.0009605912451851428,0.0015027332497388939,0.0014066875655409199,-5.9035133994335084e-05,0.0003232660802836131,0.00010909096074023937,0.2998287081718445,22.573694229125977,0.07375786453485489,-14.230989456176758,-0.10008770227432251,-2.1582064628601074,0.22830526530742645,0
19,0.08999443054199219,-0.2998287081718445,-22.549890518188477,-0.1729399859905243,14.230989456176758,0.10008770227432251,2.1582064628601074,-0.26217979192733765,0.0,0.0,0.0,0.0,0.0,0.0,0.0,-0.334250597580101,0.24786140246770455,-0.22814841024945956,0.30949994740588316,-0.1274151274717769,-0.036327449305338794,-0.23949074395250486,1.6757002465144366,0.05211727016053936,0.029975897707437218,-2.7523979445674964,0.0342508174966495,2.766365470509375,0.7691623412702565,1.6754973547542302,0.052104326824870026,0.029969505109285054,-2.752394845125968,0.0342448039870148,2.7663679543071322,0.7691630533470046,0.00024729417519736265,3.1110436739430935e-05,0.0011394401188392013,-0.001083261696121004,7.510715016750203e-05,-0.0005516296863599629,0.001205551372013164,0.0,0.0,0.0,0.0,0.0,0.0,0.0,-0.00020289176020638067,-1.2943335669333977e-05,-6.392598152164114e-06,3.0994415283203125e-06,-6.0135096347016526e-06,2.4837977572467196e-06,7.120767481216816e-07,-0.00024729417519736265,-3.1110436739430935e-05,-0.0011394401188392013,0.001083261696121004,-7.510715016750203e-05,0.0005516296863599629,-0.001205551372013164,0.2998287081718445,22.549890518188477,0.1729399859905243,-14.230989456176758,-0.10008770227432251,-2.1582064628601074,0.26217979192733765,0
20,0.0950007438659668,-0.2998287081718445,-22.549890518188477,-0.1729399859905243,14.230989456176758,0.10008770227432251,2.1582064628601074,-0.26217979192733765,0.0,0.0,0.0,0.0,0.0,0.0,0.0,-0.334250597580101,0.24786140246770455,-0.22814841024945956,0.30949994740588316,-0.1274151274717769,-0.036327449305338794,-0.23949074395250486,1.6757002465144366,0.05211727016053936,0.029975897707437218,-2.7523979445674964,0.0342508174966495,2.766365470509375,0.7691623412702565,1.6754973547542302,0.052104326824870026,0.029969505109285054,-2.752394845125968,0.0342448039870148,2.7663679543071322,0.7691630533470046,0.00024729417519736265,3.1110436739430935e-05,0.0011394401188392013,-0.001083261696121004,7.510715016750203e-05,-0.0005516296863599629,0.001205551372013164,0.0,0.0,0.0,0.0,0.0,0.0,0.0,-0.00020289176020638067,-1.2943335669333977e-05,-6.392598152164114e-06,3.0994415283203125e-06,-6.0135096347016526e-06,2.4837977572467196e-06,7.120767481216816e-07,-0.00024729417519736265,-3.1110436739430935e-05,-0.0011394401188392013,0.001083261696121004,-7.510715016750203e-05,0.0005516296863599629,-0.001205551372013164,0.2998287081718445,22.549890518188477,0.1729399859905243,-14.230989456176758,-0.10008770227432251,-2.1582064628601074,0.26217979192733765,0
21,0.09999990463256836,-0.3514034152030945,-22.549890518188477,-0.1253325641155243,14.207185745239258,0.10008770227432251,2.1517977714538574,-0.26858848333358765,0.0,0.0,0.0,0.0,0.0,0.0,0.0,-0.33673450680314265,0.2504446292630558,-0.23460295284326996,0.306281568878954,-0.12725274081078555,-0.03703967575794182,-0.2393727774143384,1.675703866736925,0.052115161683464646,0.029973266710489114,-2.752396274446577,0.03425294823823189,2.766367202978471,0.7691630533470046,1.6754973547542302,0.052104326824870026,0.029969505109285054,-2.752394845125968,0.0342448039870148,2.7663679543071322,0.7691630533470046,-0.00043053288317057684,-0.00011219274497439241,-0.0010753632050136783,-0.000922267278338914,-5.291002907042294e-05,-9.363291047952995e-05,0.0011556876369618653,0.0,0.0,0.0,0.0,0.0,0.0,0.0,-0.00020651198269483473,-1.0834858594620245e-05,-3.7616012040601887e-06,1.429320608981044e-06,-8.144251217090392e-06,7.513286610638659e-07,0.0,0.00043053288317057684,0.00011219274497439241,0.0010753632050136783,0.000922267278338914,5.291002907042294e-05,9.363291047952995e-05,-0.0011556876369618653,0.3514034152030945,22.549890518188477,0.1253325641155243,-14.207185745239258,-0.10008770227432251,-2.1517977714538574,0.26858848333358765,0
22,0.10500407218933105,-0.3514034152030945,-22.549890518188477,-0.1253325641155243,14.207185745239258,0.10008770227432251,2.1517977714538574,-0.26858848333358765,0.0,0.0,0.0,0.0,0.0,0.0,0.0,-0.33673450680314265,0.2504446292630558,-0.23460295284326996,0.306281568878954,-0.12725274081078555,-0.03703967575794182,-0.2393727774143384,1.675703866736925,0.052115161683464646,0.029973266710489114,-2.752396274446577,0.03425294823823189,2.766367202978471,0.7691630533470046,1.6754973547542302,0.052104326824870026,0.029969505109285054,-2.752394845125968,0.0342448039870148,2.7663679543071322,0.7691630533470046,-0.00043053288317057684,-0.00011219274497439241,-0.0010753632050136783,-0.000922267278338914,-5.291002907042294e-05,-9.363291047952995e-05,0.0011556876369618653,0.0,0.0,0.0,0.0,0.0,0.0,0.0,-0.00020651198269483473,-1.0834858594620245e-05,-3.7616012040601887e-06,1.429320608981044e-06,-8.144251217090392e-06,7.513286610638659e-07,0.0,0.00043053288317057684,0.00011219274497439241,0.0010753632050136783,0.000922267278338914,5.291002907042294e-05,9.363291047952995e-05,-0.0011556876369618653,0.3514034152030945,22.549890518188477,0.1253325641155243,-14.207185745239258,-0.10008770227432251,-2.1517977714538574,0.26858848333358765,0
23,0.10999846458435059,-0.3752071261405945,-22.549890518188477,-0.1729399859905243,14.207185745239258,0.09367901086807251,2.1582064628601074,-0.26217979192733765,0.0,0.0,0.0,0.0,0.0,0.0,0.0,-0.33804121138953014,0.24818261519424803,-0.2320936149275296,0.30873364314003165,-0.12805960095011448,-0.036473064758448255,-0.24013965739604023,1.6757055371727858,0.052114365219608126,0.0299758978196406,-2.752396274446579,0.03425167425772695,2.7663654269086284,0.7691623412701818,1.6754973547542302,0.052104326824870026,0.029969505109285054,-2.752394845125968,0.0342448039870148,2.7663679543071322,0.7691630533470046,-0.0003253296428932622,0.00030703865191967583,0.00026750600005266456,-0.00048725147569431593,0.0005177594961522965,-0.0003744558359673016,0.0011917418124340663,0.0,0.0,0.0,0.0,0.0,0.0,0.0,-0.00020818241855558028,-1.0038394738100254e-05,-6.392710355546116e-06,1.4293206107574008e-06,-6.8702707121462425e-06,2.527398503815448e-06,7.120768228396912e-07,0.0003253296428932622,-0.00030703865191967583,-0.00026750600005266456,0.00048725147569431593,-0.0005177594961522965,0.0003744558359673016,-0.0011917418124340663,0.3752071261405945,22.549890518188477,0.1729399859905243,-14.207185745239258,-0.09367901086807251,-2.1582064628601074,0.26217979192733765,0
24,0.11500000953674316,-0.3752071261405945,-22.549890518188477,-0.1729399859905243,14.207185745239258,0.09367901086807251,2.1582064628601074,-0.26217979192733765,0.0,0.0,0.0,0.0,0.0,0.0,0.0,-0.33804121138953014,0.24818261519424803,-0.2320936149275296,0.30873364314003165,-0.12805960095011448,-0.036473064758448255,-0.24013965739604023,1.6757055371727858,0.052114365219608126,0.0299758978196406,-2.752396274446579,0.03425167425772695,2.7663654269086284,0.7691623412701818,1.6754973547542302,0.052104326824870026,0.029969505109285054,-2.752394845125968,0.0342448039870148,2.7663679543071322,0.7691630533470046,-0.0003253296428932622,0.00030703865191967583,0.00026750600005266456,-0.00048725147569431593,0.0005177594961522965,-0.0003744558359673016,0.0011917418124340663,0.0,0.0,0.0,0.0,0.0,0.0,0.0,-0.00020818241855558028,-1.0038394738100254e-05,-6.392710355546116e-06,1.4293206107574008e-06,-6.8702707121462425e-06,2.527398503815448e-06,7.120768228396912e-07,0.0003253296428932622,-0.00030703865191967583,-0.00026750600005266456,0.00048725147569431593,-0.0005177594961522965,0.0003744558359673016,-0.0011917418124340663,0.3752071261405945,22.549890518188477,0.1729399859905243,-14.207185745239258,-0.09367901086807251,-2.1582064628601074,0.26217979192733765,0
25,0.1199953556060791,-0.4029781222343445,-22.549890518188477,-0.2007109820842743,14.230989456176758,0.10008770227432251,2.1389803886413574,-0.26858848333358765,0.0,0.0,0.0,0.0,0.0,0.0,0.0,-0.3492848117888069,0.24970710986195807,-0.23905963648181236,0.3078786554574936,-0.12817609123679574,-0.03646348467895768,-0.2394294099216354,1.6757074860146168,0.0521144403623139,0.029978793048952228,-2.752397944567498,0.03424954310795448,2.7663686271318704,0.7691630533470046,1.6754973547542302,0.052104326824870026,0.029969505109285054,-2.752394845125968,0.0342448039870148,2.7663679543071322,0.7691630533470046,-0.00025623084047407644,0.00044222214524604553,0.0004684384703972705,-0.0013966571730892764,0.00039634123269295836,0.0004544064851949782,0.0020341095802920424,0.0,0.0,0.0,0.0,0.0,0.0,0.0,-0.00021013126038660346,-1.0113537443873222e-05,-9.287939667174117e-06,3.0994415300966693e-06,-4.739120939678543e-06,-6.728247381460051e-07,0.0,0.00025623084047407644,-0.00044222214524604553,-0.0004684384703972705,0.0013966571730892764,-0.00039634123269295836,-0.0004544064851949782,-0.0020341095802920424,0.4029781222343445,22.549890518188477,0.2007109820842743,-14.230989456176758,-0.10008770227432251,-2.1389803886413574,0.26858848333358765,0
26,0.12499284744262695,-0.4029781222343445,-22.549890518188477,-0.2007109820842743,14.230989456176758,0.10008770227432251,2.1389803886413574,-0.26858848333358765,0.0,0.0,0.0,0.0,0.0,0.0,0.0,-0.3492848117888069,0.24970710986195807,-0.23905963648181236,0.3078786554574936,-0.12817609123679574,-0.03646348467895768,-0.2394294099216354,1.6757074860146168,0.0521144403623139,0.029978793048952228,-2.752397944567498,0.03424954310795448,2.7663686271318704,0.7691630533470046,1.6754973547542302,0.052104326824870026,0.029969505109285054,-2.752394845125968,0.0342448039870148,2.7663679543071322,0.7691630533470046,-0.00025623084047407644,0.00044222214524604553,0.0004684384703972705,-0.0013966571730892764,0.00039634123269295836,0.0004544064851949782,0.0020341095802920424,0.0,0.0,0.0,0.0,0.0,0.0,0.0,-0.00021013126038660346,-1.0113537443873222e-05,-9.287939667174117e-06,3.0994415300966693e-06,-4.739120939678543e-06,-6.728247381460051e-07,0.0,0.00025623084047407644,-0.00044222214524604553,-0.0004684384703972705,0.0013966571730892764,-0.00039634123269295836,-0.0004544064851949782,-0.0020341095802920424,0.4029781222343445,22.549890518188477,0.2007109820842743,-14.230989456176758,-0.10008770227432251,-2.1389803886413574,0.26858848333358765,0
27,0.12999391555786133,-0.3752071261405945,-22.522119522094727,-0.1729399859905243,14.155611038208008,0.09367901086807251,2.1517977714538574,-0.26858848333358765,0.0,0.0,0.0,0.0,0.0,0.0,0.0,-0.3514615708400997,0.24966204436377756,-0.23815716843982576,0.30995070979017386,-0.12863234885714542,-0.03651188450867033,-0.2396621335806751,1.6757055371727858,0.05211241669886127,0.029975897712780232,-2.7523926548539546,0.03425471210022562,2.7663672291481354,0.7691630533470046,1.6754973547542302,0.052104326824870026,0.029969505109285054,-2.752394845125968,0.0342448039870148,2.7663679543071322,0.7691630533470046,0.0002457261147496958,-0.0004203301142349101,-0.00025477224761906827,0.0006159327108201544,0.00048350172008465527,-0.00016485604942410035,0.0013130891046557098,0.0,0.0,0.0,0.0,0.0,0.0,0.0,-0.00020818241855558028,-8.08987399124328e-06,-6.3926034951783395e-06,-2.1902720135358322e-06,-9.908113210818636e-06,7.25158996850439e-07,0.0,-0.0002457261147496958,0.0004203301142349101,0.00025477224761906827,-0.0006159327108201544,-0.00048350172008465527,0.00016485604942410035,-0.0013130891046557098,0.3752071261405945,22.522119522094727,0.1729399859905243,-14.155611038208008,-0.09367901086807251,-2.1517977714538574,0.26858848333358765,0
28,0.13499021530151367,-0.3752071261405945,-22.522119522094727,-0.1729399859905243,14.155611038208008,0.09367901086807251,2.1517977714538574,-0.26858848333358765,0.0,0.0,0.0,0.0,0.0,0.0,0.0,-0.3514615708400997,0.24966204436377756,-0.23815716843982576,0.30995070979017386,-0.12863234885714542,-0.03651188450867033,-0.2396621335806751,1.6757055371727858,0.05211241669886127,0.029975897712780232,-2.7523926548539546,0.03425471210022562,2.7663672291481354,0.7691630533470046,1.6754973547542302,0.052104326824870026,0.029969505109285054,-2.752394845125968,0.0342448039870148,2.7663679543071322,0.7691630533470046,0.0002457261147496958,-0.0004203301142349101,-0.00025477224761906827,0.0006159327108201544,0.00048350172008465527,-0.00016485604942410035,0.0013130891046557098,0.0,0.0,0.0,0.0,0.0,0.0,0.0,-0.00020818241855558028,-8.08987399124328e-06,-6.3926034951783395e-06,-2.1902720135358322e-06,-9.908113210818636e-06,7.25158996850439e-07,0.0,-0.0002457261147496958,0.0004203301142349101,0.00025477224761906827,-0.0006159327108201544,-0.00048350172008465527,0.00016485604942410035,-0.0013130891046557098,0.3752071261405945,22.522119522094727,0.1729399859905243,-14.155611038208008,-0.09367901086807251,-2.1517977714538574,0.26858848333358765,0
29,0.14006996154785156,-0.3236324191093445,-22.522119522094727,-0.1491362750530243,14.207185745239258,0.10008770227432251,2.1517977714538574,-0.26858848333358765,0.0,0.0,0.0,0.0,0.0,0.0,0.0,-0.3616281609533589,0.2495117651595061,-0.24690126901979662,0.3127290819287394,-0.12785720980710658,-0.03608447945169079,-0.24043240815515243,1.6757019178950994,0.05211455752660821,0.02997493714634441,-2.752396274131641,0.0342529537232875,2.7663671986237284,0.7691630533470046,1.6754973547542302,0.052104326824870026,0.029969505109285054,-2.752394845125968,0.0342448039870148,2.7663679543071322,0.7691630533470046,-0.0008920385374823955,-0.000640407480097652,-0.00034752403702094955,-0.0006824277404770408,0.00025116554381638816,-7.64069220769082e-05,0.0006090038470565374,0.0,0.0,0.0,0.0,0.0,0.0,0.0,-0.00020456314086914062,-1.0230701738181414e-05,-5.432037059355244e-06,1.429005672903827e-06,-8.149736272701491e-06,7.556834038524585e-07,0.0,0.0008920385374823955,0.000640407480097652,0.00034752403702094955,0.0006824277404770408,-0.00025116554381638816,7.64069220769082e-05,-0.0006090038470565374,0.3236324191093445,22.522119522094727,0.1491362750530243,-14.207185745239258,-0.10008770227432251,-2.1517977714538574,0.26858848333358765,0
30,0.14499282836914062,-0.3236324191093445,-22.522119522094727,-0.1491362750530243,14.207185745239258,0.10008770227432251,2.1517977714538574,-0.26858848333358765,0.0,0.0,0.0,0.0,0.0,0.0,0.0,-0.3616281609533589,0.2495117651595061,-0.24690126901979662,0.3127290819287394,-0.12785720980710658,-0.03608447945169079,-0.24043240815515243,1.6757019178950994,0.05211455752660821,0.02997493714634441,-2.752396274131641,0.0342529537232875,2.7663671986237284,0.7691630533470046,1.6754973547542302,0.052104326824870026,0.029969505109285054,-2.752394845125968,0.0342448039870148,2.7663679543071322,0.7691630533470046,-0.0008920385374823955,-0.000640407480097652,-0.00034752403702094955,-0.0006824277404770408,0.00025116554381638816,-7.64069220769082e-05,0.0006090038470565374,0.0,0.0,0.0,0.0,0.0,0.0,0.0,-0.00020456314086914062,-1.0230701738181414e-05,-5.432037059355244e-06,1.429005672903827e-06,-8.149736272701491e-06,7.556834038524585e-07,0.0,0.0008920385374823955,0.000640407480097652,0.00034752403702094955,0.0006824277404770408,-0.00025116554381638816,7.64069220769082e-05,-0.0006090038470565374,0.3236324191093445,22.522119522094727,0.1491362750530243,-14.207185745239258,-0.10008770227432251,-2.1517977714538574,0.26858848333358765,0
31,0.1499931812286377,-0.3236324191093445,-22.522119522094727,-0.1253325641155243,14.207185745239258,0.10008770227432251,2.1517977714538574,-0.24112264811992645,0.0,0.0,0.0,0.0,0.0,0.0,0.0,-0.35634089791589696,0.2506001796344462,-0.24272476742774576,0.31268054707004433,-0.12834988809620407,-0.03549219325055825,-0.24203701316371307,1.6757019178950994,0.05211455753869324,0.02997255716432232,-2.752398340425993,0.034250624087418934,2.7663672420685574,0.7691600015875365,1.6754973547542302,0.052104326824870026,0.029969505109285054,-2.752394845125968,0.0342448039870148,2.7663679543071322,0.7691630533470046,-0.00018853343601211203,-0.0005954043135246833,-0.000307681050623823,-0.0005481320294797988,0.00021869069313807022,7.392634798847806e-06,-0.00020562420377368175,0.0,0.0,0.0,0.0,0.0,0.0,0.0,-0.00020456314086914062,-1.0230713823215776e-05,-3.052055037266327e-06,3.495300024969339e-06,-5.820100404133055e-06,7.122385747848625e-07,3.0517594681311877e-06,0.00018853343601211203,0.0005954043135246833,0.000307681050623823,0.0005481320294797988,-0.00021869069313807022,-7.392634798847806e-06,0.00020562420377368175,0.3236324191093445,22.522119522094727,0.1253325641155243,-14.207185745239258,-0.10008770227432251,-2.1517977714538574,0.24112264811992645,0
32,0.15499138832092285,-0.3236324191093445,-22.522119522094727,-0.1253325641155243,14.207185745239258,0.10008770227432251,2.1517977714538574,-0.24112264811992645,0.0,0.0,0.0,0.0,0.0,0.0,0.0,-0.35634089791589696,0.2506001796344462,-0.24272476742774576,0.31268054707004433,-0.12834988809620407,-0.03549219325055825,-0.24203701316371307,1.6757019178950994,0.05211455753869324,0.02997255716432232,-2.752398340425993,0.034250624087418934,2.7663672420685574,0.7691600015875365,1.6754973547542302,0.052104326824870026,0.029969505109285054,-2.752394845125968,0.0342448039870148,2.7663679543071322,0.7691630533470046,-0.00018853343601211203,-0.0005954043135246833,-0.000307681050623823,-0.0005481320294797988,0.00021869069313807022,7.392634798847806e-06,-0.00020562420377368175,0.0,0.0,0.0,0.0,0.0,0.0,0.0,-0.00020456314086914062,-1.0230713823215776e-05,-3.052055037266327e-06,3.495300024969339e-06,-5.820100404133055e-06,7.122385747848625e-07,3.0517594681311877e-06,0.00018853343601211203,0.0005954043135246833,0.000307681050623823,0.0005481320294797988,-0.00021869069313807022,-7.392634798847806e-06,0.00020562420377368175,0.3236324191093445,22.522119522094727,0.1253325641155243,-14.207185745239258,-0.10008770227432251,-2.1517977714538574,0.24112264811992645,0
33,0.16078734397888184,-0.2998287081718445,-22.573694229125977,-0.1491362750530243,14.179414749145508,0.11748272180557251,2.1582064628601074,-0.28964561223983765,0.0,0.0,0.0,0.0,0.0,0.0,0.0,-0.3483331021565789,0.24848330420562378,-0.23783461599304687,0.31427979077692914,-0.12899450936112752,-0.03506078900581109,-0.2424978904427861,1.6757002474592442,0.05211611079864291,0.029974227271587515,-2.752394325324803,0.03425112226891477,2.766366477825675,0.7691653930279942,1.6754973547542302,0.052104326824870026,0.029969505109285054,-2.752394845125968,0.0342448039870148,2.7663679543071322,0.7691630533470046,-7.953654260471599e-05,0.00032247574380968796,0.0008361623624844208,0.00041043028425996424,-0.0004847399922851422,-0.00027510832271869095,0.0018598026925027726,0.0,0.0,0.0,0.0,0.0,0.0,0.0,-0.00020289270501394618,-1.1783973772883094e-05,-4.7221623024618076e-06,-5.198011652218781e-07,-6.31828189996686e-06,1.4764814570966678e-06,-2.3396809896159e-06,7.953654260471599e-05,-0.00032247574380968796,-0.0008361623624844208,-0.00041043028425996424,0.0004847399922851422,0.00027510832271869095,-0.0018598026925027726,0.2998287081718445,22.573694229125977,0.1491362750530243,-14.179414749145508,-0.11748272180557251,-2.1582064628601074,0.28964561223983765,0
34,0.1650099754333496,-0.2998287081718445,-22.573694229125977,-0.1491362750530243,14.179414749145508,0.11748272180557251,2.1582064628601074,-0.28964561223983765,0.0,0.0,0.0,0.0,0.0,0.0,0.0,-0.3483331021565789,0.24848330420562378,-0.23783461599304687,0.31427979077692914,-0.12899450936112752,-0.03506078900581109,-0.2424978904427861,1.6757002474592442,0.05211611079864291,0.029974227271587515,-2.752394325324803,0.03425112226891477,2.766366477825675,0.7691653930279942,1.6754973547542302,0.052104326824870026,0.029969505109285054,-2.752394845125968,0.0342448039870148,2.7663679543071322,0.7691630533470046,-7.953654260471599e-05,0.00032247574380968796,0.0008361623624844208,0.00041043028425996424,-0.0004847399922851422,-0.00027510832271869095,0.0018598026925027726,0.0,0.0,0.0,0.0,0.0,0.0,0.0,-0.00020289270501394618,-1.1783973772883094e-05,-4.7221623024618076e-06,-5.198011652218781e-07,-6.31828189996686e-06,1.4764814570966678e-06,-2.3396809896159e-06,7.953654260471599e-05,-0.00032247574380968796,-0.0008361623624844208,-0.00041043028425996424,0.0004847399922851422,0.00027510832271869095,-0.0018598026925027726,0.2998287081718445,22.573694229125977,0.1491362750530243,-14.179414749145508,-0.11748272180557251,-2.1582064628601074,0.28964561223983765,0
35,0.1700148582458496,-0.2998287081718445,-22.573694229125977,-0.1491362750530243,14.179414749145508,0.11748272180557251,2.1582064628601074,-0.28964561223983765,0.0,0.0,0.0,0.0,0.0,0.0,0.0,-0.3483331021565789,0.24848330420562378,-0.23783461599304687,0.31427979077692914,-0.12899450936112752,-0.03506078900581109,-0.2424978904427861,1.6757002474592442,0.05211611079864291,0.029974227271587515,-2.752394325324803,0.03425112226891477,2.766366477825675,0.7691653930279942,1.6754973547542302,0.052104326824870026,0.029969505109285054,-2.752394845125968,0.0342448039870148,2.7663679543071322,0.7691630533470046,-7.953654260471599e-05,0.00032247574380968796,0.0008361623624844208,0.00041043028425996424,-0.0004847399922851422,-0.00027510832271869095,0.0018598026925027726,0.0,0.0,0.0,0.0,0.0,0.0,0.0,-0.00020289270501394618,-1.1783973772883094e-05,-4.7221623024618076e-06,-5.198011652218781e-07,-6.31828189996686e-06,1.4764814570966678e-06,-2.3396809896159e-06,7.953654260471599e-05,-0.00032247574380968796,-0.0008361623624844208,-0.00041043028425996424,0.0004847399922851422,0.00027510832271869095,-0.0018598026925027726,0.2998287081718445,22.573694229125977,0.1491362750530243,-14.179414749145508,-0.11748272180557251,-2.1582064628601074,0.28964561223983765,0
36,0.17499995231628418,-0.2998287081718445,-22.573694229125977,-0.1491362750530243,14.179414749145508,0.11748272180557251,2.1582064628601074,-0.28964561223983765,0.0,0.0,0.0,0.0,0.0,0.0,0.0,-0.3483331021565789,0.24848330420562378,-0.23783461599304687,0.31427979077692914,-0.12899450936112752,-0.03506078900581109,-0.2424978904427861,1.6757002474592442,0.05211611079864291,0.029974227271587515,-2.752394325324803,0.03425112226891477,2.766366477825675,0.7691653930279942,1.6754973547542302,0.052104326824870026,0.029969505109285054,-2.752394845125968,0.0342448039870148,2.7663679543071322,0.7691630533470046,-7.953654260471599e-05,0.00032247574380968796,0.0008361623624844208,0.00041043028425996424,-0.0004847399922851422,-0.00027510832271869095,0.0018598026925027726,0.0,0.0,0.0,0.0,0.0,0.0,0.0,-0.00020289270501394618,-1.1783973772883094e-05,-4.7221623024618076e-06,-5.198011652218781e-07,-6.31828189996686e-06,1.4764814570966678e-06,-2.3396809896159e-06,7.953654260471599e-05,-0.00032247574380968796,-0.0008361623624844208,-0.00041043028425996424,0.0004847399922851422,0.00027510832271869095,-0.0018598026925027726,0.2998287081718445,22.573694229125977,0.1491362750530243,-14.179414749145508,-0.11748272180557251,-2.1582064628601074,0.28964561223983765,0
37,0.1803600788116455,-0.2998287081718445,-22.573694229125977,-0.1253325641155243,14.155611038208008,0.11748272180557251,2.1517977714538574,-0.20083944499492645,0.0,0.0,0.0,0.0,0.0,0.0,0.0,-0.33335623760299177,0.24854346973913577,-0.23102811395062509,0.3107989050824372,-0.12900341036304633,-0.0356660251837139,-0.24381671697658353,1.6757002474592442,0.05211600541147186,0.029972556835726687,-2.7523926803637613,0.034250770917581635,2.766367242230211,0.7691555256760781,1.6754973547542302,0.052104326824870026,0.029969505109285054,-2.752394845125968,0.0342448039870148,2.7663679543071322,0.7691630533470046,0.00025791680998809967,9.101107380551377e-05,0.00035714295114615914,0.0003265817829933636,-0.0005664601755667099,-2.222284743569746e-05,-0.001826382473233405,0.0,0.0,0.0,0.0,0.0,0.0,0.0,-0.00020289270501394618,-1.1678586601830687e-05,-3.0517264416329848e-06,-2.1647622068243777e-06,-5.966930566835005e-06,7.120769214274958e-07,7.527670926488206e-06,-0.00025791680998809967,-9.101107380551377e-05,-0.00035714295114615914,-0.0003265817829933636,0.0005664601755667099,2.222284743569746e-05,0.001826382473233405,0.2998287081718445,22.573694229125977,0.1253325641155243,-14.155611038208008,-0.11748272180557251,-2.1517977714538574,0.20083944499492645,0
38,0.1849956512451172,-0.2998287081718445,-22.573694229125977,-0.1253325641155243,14.155611038208008,0.11748272180557251,2.1517977714538574,-0.20083944499492645,0.0,0.0,0.0,0.0,0.0,0.0,0.0,-0.33335623760299177,0.24854346973913577,-0.23102811395062509,0.3107989050824372,-0.12900341036304633,-0.0356660251837139,-0.24381671697658353,1.6757002474592442,0.05211600541147186,0.029972556835726687,-2.7523926803637613,0.034250770917581635,2.766367242230211,0.7691555256760781,1.6754973547542302,0.052104326824870026,0.029969505109285054,-2.752394845125968,0.0342448039870148,2.7663679543071322,0.7691630533470046,0.00025791680998809967,9.101107380551377e-05,0.00035714295114615914,0.0003265817829933636,-0.0005664601755667099,-2.222284743569746e-05,-0.001826382473233405,0.0,0.0,0.0,0.0,0.0,0.0,0.0,-0.00020289270501394618,-1.1678586601830687e-05,-3.0517264416329848e-06,-2.1647622068243777e-06,-5.966930566835005e-06,7.120769214274958e-07,7.527670926488206e-06,-0.00025791680998809967,-9.101107380551377e-05,-0.00035714295114615914,-0.0003265817829933636,0.0005664601755667099,2.222284743569746e-05,0.001826382473233405,0.2998287081718445,22.573694229125977,0.1253325641155243,-14.155611038208008,-0.11748272180557251,-2.1517977714538574,0.20083944499492645,0
39,0.18999409675598145,-0.3752071261405945,-22.522119522094727,-0.1253325641155243,14.179414749145508,0.11198955774307251,2.1453890800476074,-0.21457235515117645,0.0,0.0,0.0,0.0,0.0,0.0,0.0,-0.3326031075430864,0.24828738039767426,-0.2351755285827515,0.31117629649619516,-0.12770362267662733,-0.034970265596154765,-0.2423740951163994,1.6757055371727858,0.052112465291048314,0.029972556835726687,-2.752394325289954,0.03425237670638184,2.76636794122518,0.7691570515549844,1.6754973547542302,0.052104326824870026,0.029969505109285054,-2.752394845125968,0.0342448039870148,2.7663679543071322,0.7691630533470046,0.001161446858063936,-0.0005711929799623733,-0.00016486942221747991,4.47946364429832e-05,-0.00023571566095312207,4.1379076926070004e-05,-0.0009470644159047474,0.0,0.0,0.0,0.0,0.0,0.0,0.0,-0.00020818241855558028,-8.138466178288228e-06,-3.0517264416329848e-06,-5.198360142344427e-07,-7.5727193670424575e-06,1.3081952410232134e-08,6.00179202026041e-06,-0.001161446858063936,0.0005711929799623733,0.00016486942221747991,-4.47946364429832e-05,0.00023571566095312207,-4.1379076926070004e-05,0.0009470644159047474,0.3752071261405945,22.522119522094727,0.1253325641155243,-14.179414749145508,-0.11198955774307251,-2.1453890800476074,0.21457235515117645,0
40,0.1949913501739502,-0.3752071261405945,-22.522119522094727,-0.1253325641155243,14.179414749145508,0.11198955774307251,2.1453890800476074,-0.21457235515117645,0.0,0.0,0.0,0.0,0.0,0.0,0.0,-0.3326031075430864,0.24828738039767426,-0.2351755285827515,0.31117629649619516,-0.12770362267662733,-0.034970265596154765,-0.2423740951163994,1.6757055371727858,0.052112465291048314,0.029972556835726687,-2.752394325289954,0.03425237670638184,2.76636794122518,0.7691570515549844,1.6754973547542302,0.052104326824870026,0.029969505109285054,-2.752394845125968,0.0342448039870148,2.7663679543071322,0.7691630533470046,0.001161446858063936,-0.0005711929799623733,-0.00016486942221747991,4.47946364429832e-05,-0.00023571566095312207,4.1379076926070004e-05,-0.0009470644159047474,0.0,0.0,0.0,0.0,0.0,0.0,0.0,-0.00020818241855558028,-8.138466178288228e-06,-3.0517264416329848e-06,-5.198360142344427e-07,-7.5727193670424575e-06,1.3081952410232134e-08,6.00179202026041e-06,-0.001161446858063936,0.0005711929799623733,0.00016486942221747991,-4.47946364429832e-05,0.00023571566095312207,-4.1379076926070004e-05,0.0009470644159047474,0.3752071261405945,22.522119522094727,0.1253325641155243,-14.179414749145508,-0.11198955774307251,-2.1453890800476074,0.21457235515117645,0
41,0.19999313354492188,-0.4267818331718445,-22.549890518188477,-0.1729399859905243,14.207185745239258,0.10558086633682251,2.1453890800476074,-0.22098104655742645,0.0,0.0,0.0,0.0,0.0,0.0,0.0,-0.33386027230525,0.25098354584074317,-0.2327952251493259,0.30647536058246116,-0.12762015893219758,-0.03586011567995418,-0.24162805441549287,1.6757091564154794,0.0521146014232755,0.029975897707437214,-2.752396274131641,0.03424918496167426,2.7663679407405892,0.7691577636318073,1.6754973547542302,0.052104326824870026,0.029969505109285054,-2.752394845125968,0.0342448039870148,2.7663679543071322,0.7691630533470046,0.0014077252227364348,0.00026714100753217615,3.561455565937161e-05,-0.0010308338260779917,-7.754885550375486e-05,0.0002672597663743648,-0.00097706558931327,0.0,0.0,0.0,0.0,0.0,0.0,0.0,-0.00021180166124912247,-1.0274598405475566e-05,-6.3925981521606445e-06,1.429005672903827e-06,-4.380974659462522e-06,1.3566543000109732e-08,5.289715197309697e-06,-0.0014077252227364348,-0.00026714100753217615,-3.561455565937161e-05,0.0010308338260779917,7.754885550375486e-05,-0.0002672597663743648,0.00097706558931327,0.4267818331718445,22.549890518188477,0.1729399859905243,-14.207185745239258,-0.10558086633682251,-2.1453890800476074,0.22098104655742645,0
42,0.20499444007873535,-0.4267818331718445,-22.549890518188477,-0.1729399859905243,14.207185745239258,0.10558086633682251,2.1453890800476074,-0.22098104655742645,0.0,0.0,0.0,0.0,0.0,0.0,0.0,-0.33386027230525,0.25098354584074317,-0.2327952251493259,0.30647536058246116,-0.12762015893219758,-0.03586011567995418,-0.24162805441549287,1.6757091564154794,0.0521146014232755,0.029975897707437214,-2.752396274131641,0.03424918496167426,2.7663679407405892,0.7691577636318073,1.6754973547542302,0.052104326824870026,0.029969505109285054,-2.752394845125968,0.0342448039870148,2.7663679543071322,0.7691630533470046,0.0014077252227364348,0.00026714100753217615,3.561455565937161e-05,-0.0010308338260779917,-7.754885550375486e-05,0.0002672597663743648,-0.00097706558931327,0.0,0.0,0.0,0.0,0.0,0.0,0.0,-0.00021180166124912247,-1.0274598405475566e-05,-6.3925981521606445e-06,1.429005672903827e-06,-4.380974659462522e-06,1.3566543000109732e-08,5.289715197309697e-06,-0.0014077252227364348,-0.00026714100753217615,-3.561455565937161e-05,0.0010308338260779917,7.754885550375486e-05,-0.0002672597663743648,0.00097706558931327,0.4267818331718445,22.549890518188477,0.1729399859905243,-14.207185745239258,-0.10558086633682251,-2.1453890800476074,0.22098104655742645,0
43,0.2099928855895996,-0.4783565402030945,-22.498315811157227,-0.1729399859905243,14.179414749145508,0.11748272180557251,2.1453890800476074,-0.25485557317733765,0.0,0.0,0.0,0.0,0.0,0.0,0.0,-0.34826506439259347,0.2476820804114652,-0.2392472652899866,0.31183046151026955,-0.1274604766411135,-0.03521407792490229,-0.2417156870732756,1.6757127757281582,0.05211312543155111,0.029975923999095083,-2.75239432528981,0.03424793721010727,2.7663668941844093,0.769161528939818,1.6754973547542302,0.052104326824870026,0.029969505109285054,-2.752394845125968,0.0342448039870148,2.7663679543071322,0.7691630533470046,0.0011477631324201295,-0.0010964051365381893,-0.000855516862076527,0.00035770786626233245,-0.0005707175266461777,0.0002152797064239217,0.0010546310609313323,0.0,0.0,0.0,0.0,0.0,0.0,0.0,-0.0002154209739280155,-8.798606681084675e-06,-6.418889810028833e-06,-5.198361581193467e-07,-3.133223092470494e-06,1.0601227229400934e-06,1.5244071865927467e-06,-0.0011477631324201295,0.0010964051365381893,0.000855516862076527,-0.00035770786626233245,0.0005707175266461777,-0.0002152797064239217,-0.0010546310609313323,0.4783565402030945,22.498315811157227,0.1729399859905243,-14.179414749145508,-0.11748272180557251,-2.1453890800476074,0.25485557317733765,0
44,0.21495270729064941,-0.4783565402030945,-22.498315811157227,-0.1729399859905243,14.179414749145508,0.11748272180557251,2.1453890800476074,-0.25485557317733765,0.0,0.0,0.0,0.0,0.0,0.0,0.0,-0.34826506439259347,0.2476820804114652,-0.2392472652899866,0.31183046151026955,-0.1274604766411135,-0.03521407792490229,-0.2417156870732756,1.6757127757281582,0.05211312543155111,0.029975923999095083,-2.75239432528981,0.03424793721010727,2.7663668941844093,0.769161528939818,1.6754973547542302,0.052104326824870026,0.029969505109285054,-2.752394845125968,0.0342448039870148,2.7663679543071322,0.7691630533470046,0.0011477631324201295,-0.0010964051365381893,-0.000855516862076527,0.00035770786626233245,-0.0005707175266461777,0.0002152797064239217,0.0010546310609313323,0.0,0.0,0.0,0.0,0.0,0.0,0.0,-0.0002154209739280155,-8.798606681084675e-06,-6.418889810028833e-06,-5.198361581193467e-07,-3.133223092470494e-06,1.0601227229400934e-06,1.5244071865927467e-06,-0.0011477631324201295,0.0010964051365381893,0.000855516862076527,-0.00035770786626233245,0.0005707175266461777,-0.0002152797064239217,-0.0010546310609313323,0.4783565402030945,22.498315811157227,0.1729399859905243,-14.179414749145508,-0.11748272180557251,-2.1453890800476074,0.25485557317733765,0
45,0.21999192237854004,-0.3752071261405945,-22.549890518188477,-0.1729399859905243,14.230989456176758,0.10558086633682251,2.1582064628601074,-0.26217979192733765,0.0,0.0,0.0,0.0,0.0,0.0,0.0,-0.3530512183411982,0.24748699367706245,-0.23677409390555412,0.31277888032498974,-0.12807427922390546,-0.03529387916413455,-0.2400816077159579,1.6757055371727858,0.052115046466831794,0.029976607906936428,-2.7523979445674964,0.03424929909939666,2.766366530147502,0.7691623412701901,1.6754973547542302,0.052104326824870026,0.029969505109285054,-2.752394845125968,0.0342448039870148,2.7663679543071322,0.7691630533470046,-0.0006331165445497715,-0.00021278236156508263,-0.0001577979967783089,-0.0009485618701916607,-3.367588739441749e-05,-0.00019269430473610935,0.0007905044429522889,0.0,0.0,0.0,0.0,0.0,0.0,0.0,-0.00020818241855558028,-1.0719641961767779e-05,-7.102797651373921e-06,3.0994415283203125e-06,-4.495112381860955e-06,1.4241596302255743e-06,7.120768145130185e-07,0.0006331165445497715,0.00021278236156508263,0.0001577979967783089,0.0009485618701916607,3.367588739441749e-05,0.00019269430473610935,-0.0007905044429522889,0.3752071261405945,22.549890518188477,0.1729399859905243,-14.230989456176758,-0.10558086633682251,-2.1582064628601074,0.26217979192733765,0
46,0.2249922752380371,-0.3752071261405945,-22.549890518188477,-0.1729399859905243,14.230989456176758,0.10558086633682251,2.1582064628601074,-0.26217979192733765,0.0,0.0,0.0,0.0,0.0,0.0,0.0,-0.3530512183411982,0.24748699367706245,-0.23677409390555412,0.31277888032498974,-0.12807427922390546,-0.03529387916413455,-0.2400816077159579,1.6757055371727858,0.052115046466831794,0.029976607906936428,-2.7523979445674964,0.03424929909939666,2.766366530147502,0.7691623412701901,1.6754973547542302,0.052104326824870026,0.029969505109285054,-2.752394845125968,0.0342448039870148,2.7663679543071322,0.7691630533470046,-0.0006331165445497715,-0.00021278236156508263,-0.0001577979967783089,-0.0009485618701916607,-3.367588739441749e-05,-0.00019269430473610935,0.0007905044429522889,0.0,0.0,0.0,0.0,0.0,0.0,0.0,-0.00020818241855558028,-1.0719641961767779e-05,-7.102797651373921e-06,3.0994415283203125e-06,-4.495112381860955e-06,1.4241596302255743e-06,7.120768145130185e-07,0.0006331165445497715,0.00021278236156508263,0.0001577979967783089,0.0009485618701916607,3.367588739441749e-05,0.00019269430473610935,-0.0007905044429522889,0.3752071261405945,22.549890518188477,0.1729399859905243,-14.230989456176758,-0.10558086633682251,-2.1582064628601074,0.26217979192733765,0
47,0.23080873489379883,-0.2998287081718445,-22.549890518188477,-0.1253325641155243,14.179414749145508,0.10008770227432251,2.1453890800476074,-0.24112264811992645,0.0,0.0,0.0,0.0,0.0,0.0,0.0,-0.3607372799137718,0.24857071782606455,-0.24194222423164194,0.31496711926252796,-0.12776377998190763,-0.0350593202039505,-0.24049238302204473,1.6757002474592442,0.05211467747725844,0.029972556839735785,-2.75239432528981,0.03424987464584557,2.7663676010944225,0.7691600015875365,1.6754973547542302,0.052104326824870026,0.029969505109285054,-2.752394845125968,0.0342448039870148,2.7663679543071322,0.7691630533470046,-0.00134475005345207,-0.0005481920832076484,-0.0009691376156638681,0.00016468935066182082,0.00020909188347290424,0.0002722433149334453,-0.00016079672659451342,0.0,0.0,0.0,0.0,0.0,0.0,0.0,-0.00020289270501394618,-1.0350652388413373e-05,-3.0517304507315934e-06,-5.198361581193467e-07,-5.070658830770569e-06,3.532127097471971e-07,3.0517594681311877e-06,0.00134475005345207,0.0005481920832076484,0.0009691376156638681,-0.00016468935066182082,-0.00020909188347290424,-0.0002722433149334453,0.00016079672659451342,0.2998287081718445,22.549890518188477,0.1253325641155243,-14.179414749145508,-0.10008770227432251,-2.1453890800476074,0.24112264811992645,0
48,0.2350003719329834,-0.2998287081718445,-22.549890518188477,-0.1253325641155243,14.179414749145508,0.10008770227432251,2.1453890800476074,-0.24112264811992645,0.0,0.0,0.0,0.0,0.0,0.0,0.0,-0.3607372799137718,0.24857071782606455,-0.24194222423164194,0.31496711926252796,-0.12776377998190763,-0.0350593202039505,-0.24049238302204473,1.6757002474592442,0.05211467747725844,0.029972556839735785,-2.75239432528981,0.03424987464584557,2.7663676010944225,0.7691600015875365,1.6754973547542302,0.052104326824870026,0.029969505109285054,-2.752394845125968,0.0342448039870148,2.7663679543071322,0.7691630533470046,-0.00134475005345207,-0.0005481920832076484,-0.0009691376156638681,0.00016468935066182082,0.00020909188347290424,0.0002722433149334453,-0.00016079672659451342,0.0,0.0,0.0,0.0,0.0,0.0,0.0,-0.00020289270501394618,-1.0350652388413373e-05,-3.0517304507315934e-06,-5.198361581193467e-07,-5.070658830770569e-06,3.532127097471971e-07,3.0517594681311877e-06,0.00134475005345207,0.0005481920832076484,0.0009691376156638681,-0.00016468935066182082,-0.00020909188347290424,-0.0002722433149334453,0.00016079672659451342,0.2998287081718445,22.549890518188477,0.1253325641155243,-14.179414749145508,-0.10008770227432251,-2.1453890800476074,0.24112264811992645,0
49,0.23999881744384766,-0.3236324191093445,-22.573694229125977,-0.09756157547235489,14.207185745239258,0.11198955774307251,2.1655306816101074,-0.21457235515117645,0.0,0.0,0.0,0.0,0.0,0.0,0.0,-0.3511511848025145,0.24779456820612222,-0.23715615253684433,0.3139068230517347,-0.12840790428430085,-0.03565598884845052,-0.24038762788092774,1.6757019178950994,0.05211846503892871,0.02997060799441842,-2.752396274131641,0.03425161227212268,2.766365716349409,0.769157053026704,1.6754973547542302,0.052104326824870026,0.029969505109285054,-2.752394845125968,0.0342448039870148,2.7663679543071322,0.7691630533470046,0.00040405115393474564,5.9698244441049646e-05,-0.000394557522328707,-0.0009620288001509367,-0.0003474769929687138,-0.0004577530588024802,-0.0012225255424024226,0.0,0.0,0.0,0.0,0.0,0.0,0.0,-0.00020456314086914062,-1.4138214058684317e-05,-1.1028851333652612e-06,1.429005672903827e-06,-6.8082851078787865e-06,2.2379577231390613e-06,6.000320300625361e-06,-0.00040405115393474564,-5.9698244441049646e-05,0.000394557522328707,0.0009620288001509367,0.0003474769929687138,0.0004577530588024802,0.0012225255424024226,0.3236324191093445,22.573694229125977,0.09756157547235489,-14.207185745239258,-0.11198955774307251,-2.1655306816101074,0.21457235515117645,0
50,0.24499797821044922,-0.3236324191093445,-22.573694229125977,-0.09756157547235489,14.207185745239258,0.11198955774307251,2.1655306816101074,-0.21457235515117645,0.0,0.0,0.0,0.0,0.0,0.0,0.0,-0.3511511848025145,0.24779456820612222,-0.23715615253684433,0.3139068230517347,-0.12840790428430085,-0.03565598884845052,-0.24038762788092774,1.6757019178950994,0.05211846503892871,0.02997060799441842,-2.752396274131641,0.03425161227212268,2.766365716349409,0.769157053026704,1.6754973547542302,0.052104326824870026,0.029969505109285054,-2.752394845125968,0.0342448039870148,2.7663679543071322,0.7691630533470046,0.00040405115393474564,5.9698244441049646e-05,-0.000394557522328707,-0.0009620288001509367,-0.0003474769929687138,-0.0004577530588024802,-0.0012225255424024226,0.0,0.0,0.0,0.0,0.0,0.0,0.0,-0.00020456314086914062,-1.4138214058684317e-05,-1.1028851333652612e-06,1.429005672903827e-06,-6.8082851078787865e-06,2.2379577231390613e-06,6.000320300625361e-06,-0.00040405115393474564,-5.9698244441049646e-05,0.000394557522328707,0.0009620288001509367,0.0003474769929687138,0.0004577530588024802,0.0012225255424024226,0.3236324191093445,22.573694229125977,0.09756157547235489,-14.207185745239258,-0.11198955774307251,-2.1655306816101074,0.21457235515117645,0
51,0.2499997615814209,-0.2720577120780945,-22.573694229125977,-0.07375786453485489,14.207185745239258,0.10558086633682251,2.1517977714538574,-0.23471395671367645,0.0,0.0,0.0,0.0,0.0,0.0,0.0,-0.34292315094131987,0.24105045782165715,-0.2348233399901814,0.3158022132367657,-0.1279784668961238,-0.034339582178993015,-0.24056862040525698,1.675698298617413,0.05211683500691237,0.02996893864052436,-2.752396274131641,0.03424989524604258,2.7663672421764742,0.7691592895107219,1.6754973547542302,0.052104326824870026,0.029969505109285054,-2.752394845125968,0.0342448039870148,2.7663679543071322,0.7691630533470046,8.358240233626595e-06,4.0703360206204924e-05,-0.001143596599801003,-0.0009358022827352071,-5.9801360336424495e-05,4.573046438333242e-05,-0.00027447679902867407,0.0,0.0,0.0,0.0,0.0,0.0,0.0,-0.00020094386318270097,-1.2508182042340887e-05,5.664687606939112e-07,1.429005672903827e-06,-5.0912590277771286e-06,7.121306579982445e-07,3.7638362827552285e-06,-8.358240233626595e-06,-4.0703360206204924e-05,0.001143596599801003,0.0009358022827352071,5.9801360336424495e-05,-4.573046438333242e-05,0.00027447679902867407,0.2720577120780945,22.573694229125977,0.07375786453485489,-14.207185745239258,-0.10558086633682251,-2.1517977714538574,0.23471395671367645,0
52,0.2549920082092285,-0.2720577120780945,-22.573694229125977,-0.07375786453485489,14.207185745239258,0.10558086633682251,2.1517977714538574,-0.23471395671367645,0.0,0.0,0.0,0.0,0.0,0.0,0.0,-0.34292315094131987,0.24105045782165715,-0.2348233399901814,0.3158022132367657,-0.1279784668961238,-0.034339582178993015,-0.24056862040525698,1.675698298617413,0.05211683500691237,0.02996893864052436,-2.752396274131641,0.03424989524604258,2.7663672421764742,0.7691592895107219,1.6754973547542302,0.052104326824870026,0.029969505109285054,-2.752394845125968,0.0342448039870148,2.7663679543071322,0.7691630533470046,8.358240233626595e-06,4.0703360206204924e-05,-0.001143596599801003,-0.0009358022827352071,-5.9801360336424495e-05,4.573046438333242e-05,-0.00027447679902867407,0.0,0.0,0.0,0.0,0.0,0.0,0.0,-0.00020094386318270097,-1.2508182042340887e-05,5.664687606939112e-07,1.429005672903827e-06,-5.0912590277771286e-06,7.121306579982445e-07,3.7638362827552285e-06,-8.358240233626595e-06,-4.0703360206204924e-05,0.001143596599801003,0.0009358022827352071,5.9801360336424495e-05,-4.573046438333242e-05,0.00027447679902867407,0.2720577120780945,22.573694229125977,0.07375786453485489,-14.207185745239258,-0.10558086633682251,-2.1517977714538574,0.23471395671367645,0
53,0.26000308990478516,-0.2720577120780945,-22.573694229125977,-0.07375786453485489,14.207185745239258,0.10558086633682251,2.1517977714538574,-0.23471395671367645,0.0,0.0,0.0,0.0,0.0,0.0,0.0,-0.34292315094131987,0.24105045782165715,-0.2348233399901814,0.3158022132367657,-0.1279784668961238,-0.034339582178993015,-0.24056862040525698,1.675698298617413,0.05211683500691237,0.02996893864052436,-2.752396274131641,0.03424989524604258,2.7663672421764742,0.7691592895107219,1.6754973547542302,0.052104326824870026,0.029969505109285054,-2.752394845125968,0.0342448039870148,2.7663679543071322,0.7691630533470046,8.358240233626595e-06,4.0703360206204924e-05,-0.001143596599801003,-0.0009358022827352071,-5.9801360336424495e-05,4.573046438333242e-05,-0.00027447679902867407,0.0,0.0,0.0,0.0,0.0,0.0,0.0,-0.00020094386318270097,-1.2508182042340887e-05,5.664687606939112e-07,1.429005672903827e-06,-5.0912590277771286e-06,7.121306579982445e-07,3.7638362827552285e-06,-8.358240233626595e-06,-4.0703360206204924e-05,0.001143596599801003,0.0009358022827352071,5.9801360336424495e-05,-4.573046438333242e-05,0.00027447679902867407,0.2720577120780945,22.573694229125977,0.07375786453485489,-14.207185745239258,-0.10558086633682251,-2.1517977714538574,0.23471395671367645,0
54,0.2650015354156494,-0.2720577120780945,-22.573694229125977,-0.07375786453485489,14.207185745239258,0.10558086633682251,2.1517977714538574,-0.23471395671367645,0.0,0.0,0.0,0.0,0.0,0.0,0.0,-0.34292315094131987,0.24105045782165715,-0.2348233399901814,0.3158022132367657,-0.1279784668961238,-0.034339582178993015,-0.24056862040525698,1.675698298617413,0.05211683500691237,0.02996893864052436,-2.752396274131641,0.03424989524604258,2.7663672421764742,0.7691592895107219,1.6754973547542302,0.052104326824870026,0.029969505109285054,-2.752394845125968,0.0342448039870148,2.7663679543071322,0.7691630533470046,8.358240233626595e-06,4.0703360206204924e-05,-0.001143596599801003,-0.0009358022827352071,-5.9801360336424495e-05,4.573046438333242e-05,-0.00027447679902867407,0.0,0.0,0.0,0.0,0.0,0.0,0.0,-0.00020094386318270097,-1.2508182042340887e-05,5.664687606939112e-07,1.429005672903827e-06,-5.0912590277771286e-06,7.121306579982445e-07,3.7638362827552285e-06,-8.358240233626595e-06,-4.0703360206204924e-05,0.001143596599801003,0.0009358022827352071,5.9801360336424495e-05,-4.573046438333242e-05,0.00027447679902867407,0.2720577120780945,22.573694229125977,0.07375786453485489,-14.207185745239258,-0.10558086633682251,-2.1517977714538574,0.23471395671367645,0
55,0.2699930667877197,-0.2720577120780945,-22.573694229125977,-0.07375786453485489,14.207185745239258,0.10558086633682251,2.1517977714538574,-0.23471395671367645,0.0,0.0,0.0,0.0,0.0,0.0,0.0,-0.34292315094131987,0.24105045782165715,-0.2348233399901814,0.3158022132367657,-0.1279784668961238,-0.034339582178993015,-0.24056862040525698,1.675698298617413,0.05211683500691237,0.02996893864052436,-2.752396274131641,0.03424989524604258,2.7663672421764742,0.7691592895107219,1.6754973547542302,0.052104326824870026,0.029969505109285054,-2.752394845125968,0.0342448039870148,2.7663679543071322,0.7691630533470046,8.358240233626595e-06,4.0703360206204924e-05,-0.001143596599801003,-0.0009358022827352071,-5.9801360336424495e-05,4.573046438333242e-05,-0.00027447679902867407,0.0,0.0,0.0,0.0,0.0,0.0,0.0,-0.00020094386318270097,-1.2508182042340887e-05,5.664687606939112e-07,1.429005672903827e-06,-5.0912590277771286e-06,7.121306579982445e-07,3.7638362827552285e-06,-8.358240233626595e-06,-4.0703360206204924e-05,0.001143596599801003,0.0009358022827352071,5.9801360336424495e-05,-4.573046438333242e-05,0.00027447679902867407,0.2720577120780945,22.573694229125977,0.07375786453485489,-14.207185745239258,-0.10558086633682251,-2.1517977714538574,0.23471395671367645,0
56,0.27500295639038086,-0.3752071261405945,-22.549890518188477,-0.1253325641155243,14.179414749145508,0.10558086633682251,2.1453890800476074,-0.24844686686992645,0.0,0.0,0.0,0.0,0.0,0.0,0.0,-0.3308505879091665,0.2478301765566706,-0.2338980867528975,0.30931125706406587,-0.12825580291200173,-0.03613571388700031,-0.24076037937432995,1.6757054606433655,0.052115047429159886,0.029972556835726687,-2.75239432528981,0.034253193801957973,2.766367953660445,0.7691608153896198,1.6754973547542302,0.052104326824870026,0.029969505109285054,-2.752394845125968,0.0342448039870148,2.7663679543071322,0.7691630533470046,0.0006747655401846432,0.0005053934209843973,-0.00042235504628786933,0.0004191067080481445,0.00010939321473873175,0.00015231252879297692,0.00021134983694840102,0.0,0.0,0.0,0.0,0.0,0.0,0.0,-0.00020810588913522388,-1.0720604289859992e-05,-3.0517264416329848e-06,-5.198361581193467e-07,-8.38981494317298e-06,6.466871482757597e-10,2.2379573848541057e-06,-0.0006747655401846432,-0.0005053934209843973,0.00042235504628786933,-0.0004191067080481445,-0.00010939321473873175,-0.00015231252879297692,-0.00021134983694840102,0.3752071261405945,22.549890518188477,0.1253325641155243,-14.179414749145508,-0.10558086633682251,-2.1453890800476074,0.24844686686992645,0
57,0.2799961566925049,-0.3752071261405945,-22.549890518188477,-0.1253325641155243,14.179414749145508,0.10558086633682251,2.1453890800476074,-0.24844686686992645,0.0,0.0,0.0,0.0,0.0,0.0,0.0,-0.3308505879091665,0.2478301765566706,-0.2338980867528975,0.30931125706406587,-0.12825580291200173,-0.03613571388700031,-0.24076037937432995,1.6757054606433655,0.052115047429159886,0.029972556835726687,-2.75239432528981,0.034253193801957973,2.766367953660445,0.7691608153896198,1.6754973547542302,0.052104326824870026,0.029969505109285054,-2.752394845125968,0.0342448039870148,2.7663679543071322,0.7691630533470046,0.0006747655401846432,0.0005053934209843973,-0.00042235504628786933,0.0004191067080481445,0.00010939321473873175,0.00015231252879297692,0.00021134983694840102,0.0,0.0,0.0,0.0,0.0,0.0,0.0,-0.00020810588913522388,-1.0720604289859992e-05,-3.0517264416329848e-06,-5.198361581193467e-07,-8.38981494317298e-06,6.466871482757597e-10,2.2379573848541057e-06,-0.0006747655401846432,-0.0005053934209843973,0.00042235504628786933,-0.0004191067080481445,-0.00010939321473873175,-0.00015231252879297692,-0.00021134983694840102,0.3752071261405945,22.549890518188477,0.1253325641155243,-14.179414749145508,-0.10558086633682251,-2.1453890800476074,0.24844686686992645,0
58,0.28499627113342285,-0.3514034152030945,-22.498315811157227,-0.2245146930217743,14.179414749145508,0.10558086633682251,2.1453890800476074,-0.24844686686992645,0.0,0.0,0.0,0.0,0.0,0.0,0.0,-0.33681607322353946,0.2443417203652112,-0.23249028158177107,0.3129678375228076,-0.12811623708614422,-0.03571908326416207,-0.2403143215200703,1.6757038667364983,0.052112936951880365,0.029979525749009577,-2.75239432528981,0.03425019382985469,2.766367915061272,0.7691608153896198,1.6754973547542302,0.052104326824870026,0.029969505109285054,-2.752394845125968,0.0342448039870148,2.7663679543071322,0.7691630533470046,-0.0005265573834938135,-0.0008851137803092107,0.0009537551682103878,0.0003446194995842568,0.00011922435518555638,0.000225420710273808,0.0008849035869915087,0.0,0.0,0.0,0.0,0.0,0.0,0.0,-0.000206511982268065,-8.61012701033892e-06,-1.0020639724522828e-05,-5.198361581193467e-07,-5.389842839889636e-06,3.924586033932087e-08,2.2379573848541057e-06,0.0005265573834938135,0.0008851137803092107,-0.0009537551682103878,-0.0003446194995842568,-0.00011922435518555638,-0.000225420710273808,-0.0008849035869915087,0.3514034152030945,22.498315811157227,0.2245146930217743,-14.179414749145508,-0.10558086633682251,-2.1453890800476074,0.24844686686992645,0
59,0.2899959087371826,-0.3514034152030945,-22.498315811157227,-0.2245146930217743,14.179414749145508,0.10558086633682251,2.1453890800476074,-0.24844686686992645,0.0,0.0,0.0,0.0,0.0,0.0,0.0,-0.33681607322353946,0.2443417203652112,-0.23249028158177107,0.3129678375228076,-0.12811623708614422,-0.03571908326416207,-0.2403143215200703,1.6757038667364983,0.052112936951880365,0.029979525749009577,-2.75239432528981,0.03425019382985469,2.766367915061272,0.7691608153896198,1.6754973547542302,0.052104326824870026,0.029969505109285054,-2.752394845125968,0.0342448039870148,2.7663679543071322,0.7691630533470046,-0.0005265573834938135,-0.0008851137803092107,0.0009537551682103878,0.0003446194995842568,0.00011922435518555638,0.000225420710273808,0.0008849035869915087,0.0,0.0,0.0,0.0,0.0,0.0,0.0,-0.000206511982268065,-8.61012701033892e-06,-1.0020639724522828e-05,-5.198361581193467e-07,-5.389842839889636e-06,3.924586033932087e-08,2.2379573848541057e-06,0.0005265573834938135,0.0008851137803092107,-0.0009537551682103878,-0.0003446194995842568,-0.00011922435518555638,-0.000225420710273808,-0.0008849035869915087,0.3514034152030945,22.498315811157227,0.2245146930217743,-14.179414749145508,-0.10558086633682251,-2.1453890800476074,0.24844686686992645,0
60,0.2949974536895752,-0.3514034152030945,-22.549890518188477,-0.1729399859905243,14.179414749145508,0.10558086633682251,2.1582064628601074,-0.25485557317733765,0.0,0.0,0.0,0.0,0.0,0.0,0.0,-0.34169977041854666,0.2458185255130684,-0.2357443046380907,0.3116078565642035,-0.12821226321658105,-0.035843227174591354,-0.2381745075613408,1.6757038667369304,0.0521143477051761,0.029975897707486685,-2.75239432528981,0.03425023879462195,2.766366530153265,0.7691618983414437,1.6754973547542302,0.052104326824870026,0.029969505109285054,-2.752394845125968,0.0342448039870148,2.7663679543071322,0.7691630533470046,-0.0006366394278592773,-0.00011449027446027595,-0.00012645962162056288,-2.8369008135951086e-05,1.923498663447129e-05,-0.0002653909591809984,0.0001858148793078996,0.0,0.0,0.0,0.0,0.0,0.0,0.0,-0.0002065119827001638,-1.0020880306077506e-05,-6.392598201631489e-06,-5.198361581193467e-07,-5.43480760714643e-06,1.4241538672798981e-06,1.1550055609710341e-06,0.0006366394278592773,0.00011449027446027595,0.00012645962162056288,2.8369008135951086e-05,-1.923498663447129e-05,0.0002653909591809984,-0.0001858148793078996,0.3514034152030945,22.549890518188477,0.1729399859905243,-14.179414749145508,-0.10558086633682251,-2.1582064628601074,0.25485557317733765,0
61,0.3000178337097168,-0.3514034152030945,-22.549890518188477,-0.1729399859905243,14.179414749145508,0.10558086633682251,2.1582064628601074,-0.25485557317733765,0.0,0.0,0.0,0.0,0.0,0.0,0.0,-0.34169977041854666,0.2458185255130684,-0.2357443046380907,0.3116078565642035,-0.12821226321658105,-0.035843227174591354,-0.2381745075613408,1.6757038667369304,0.0521143477051761,0.029975897707486685,-2.75239432528981,0.03425023879462195,2.766366530153265,0.7691618983414437,1.6754973547542302,0.052104326824870026,0.029969505109285054,-2.752394845125968,0.0342448039870148,2.7663679543071322,0.7691630533470046,-0.0006366394278592773,-0.00011449027446027595,-0.00012645962162056288,-2.8369008135951086e-05,1.923498663447129e-05,-0.0002653909591809984,0.0001858148793078996,0.0,0.0,0.0,0.0,0.0,0.0,0.0,-0.0002065119827001638,-1.0020880306077506e-05,-6.392598201631489e-06,-5.198361581193467e-07,-5.43480760714643e-06,1.4241538672798981e-06,1.1550055609710341e-06,0.0006366394278592773,0.00011449027446027595,0.00012645962162056288,2.8369008135951086e-05,-1.923498663447129e-05,0.0002653909591809984,-0.0001858148793078996,0.3514034152030945,22.549890518188477,0.1729399859905243,-14.179414749145508,-0.10558086633682251,-2.1582064628601074,0.25485557317733765,0
62,0.3049483299255371,-0.3752071261405945,-22.549890518188477,-0.1491362750530243,14.179414749145508,0.10008770227432251,2.1582064628601074,-0.22098104655742645,0.0,0.0,0.0,0.0,0.0,0.0,0.0,-0.34742083309388005,0.24628871882688866,-0.23723328748402717,0.3104073171456459,-0.12815575539029106,-0.03573600315822577,-0.23928808007232585,1.6757055371727858,0.05211433530064631,0.029974227379778073,-2.7523945548780713,0.034249796921036656,2.7663664865469793,0.7691577635800657,1.6754973547542302,0.052104326824870026,0.029969505109285054,-2.752394845125968,0.0342448039870148,2.7663679543071322,0.7691630533470046,0.0001059654442937043,-0.000171906161006425,-0.00015471282508208297,0.00013915083080414894,0.00010869210962224816,-0.00020385997020969037,-0.0008797873928398799,0.0,0.0,0.0,0.0,0.0,0.0,0.0,-0.00020818241855558028,-1.0008475776285275e-05,-4.722270493019015e-06,-2.902478968280775e-07,-4.992934021855189e-06,1.4677601529733408e-06,5.2897669389206925e-06,-0.0001059654442937043,0.000171906161006425,0.00015471282508208297,-0.00013915083080414894,-0.00010869210962224816,0.00020385997020969037,0.0008797873928398799,0.3752071261405945,22.549890518188477,0.1491362750530243,-14.179414749145508,-0.10008770227432251,-2.1582064628601074,0.22098104655742645,0
63,0.30999279022216797,-0.3752071261405945,-22.549890518188477,-0.1491362750530243,14.179414749145508,0.10008770227432251,2.1582064628601074,-0.22098104655742645,0.0,0.0,0.0,0.0,0.0,0.0,0.0,-0.34742083309388005,0.24628871882688866,-0.23723328748402717,0.3104073171456459,-0.12815575539029106,-0.03573600315822577,-0.23928808007232585,1.6757055371727858,0.05211433530064631,0.029974227379778073,-2.7523945548780713,0.034249796921036656,2.7663664865469793,0.7691577635800657,1.6754973547542302,0.052104326824870026,0.029969505109285054,-2.752394845125968,0.0342448039870148,2.7663679543071322,0.7691630533470046,0.0001059654442937043,-0.000171906161006425,-0.00015471282508208297,0.00013915083080414894,0.00010869210962224816,-0.00020385997020969037,-0.0008797873928398799,0.0,0.0,0.0,0.0,0.0,0.0,0.0,-0.00020818241855558028,-1.0008475776285275e-05,-4.722270493019015e-06,-2.902478968280775e-07,-4.992934021855189e-06,1.4677601529733408e-06,5.2897669389206925e-06,-0.0001059654442937043,0.000171906161006425,0.00015471282508208297,-0.00013915083080414894,-0.00010869210962224816,0.00020385997020969037,0.0008797873928398799,0.3752071261405945,22.549890518188477,0.1491362750530243,-14.179414749145508,-0.10008770227432251,-2.1582064628601074,0.22098104655742645,0
64,0.31499719619750977,-0.3752071261405945,-22.549890518188477,-0.1491362750530243,14.179414749145508,0.10008770227432251,2.1582064628601074,-0.22098104655742645,0.0,0.0,0.0,0.0,0.0,0.0,0.0,-0.34742083309388005,0.24628871882688866,-0.23723328748402717,0.3104073171456459,-0.12815575539029106,-0.03573600315822577,-0.23928808007232585,1.6757055371727858,0.05211433530064631,0.029974227379778073,-2.7523945548780713,0.034249796921036656,2.7663664865469793,0.7691577635800657,1.6754973547542302,0.052104326824870026,0.029969505109285054,-2.752394845125968,0.0342448039870148,2.7663679543071322,0.7691630533470046,0.0001059654442937043,-0.000171906161006425,-0.00015471282508208297,0.00013915083080414894,0.00010869210962224816,-0.00020385997020969037,-0.0008797873928398799,0.0,0.0,0.0,0.0,0.0,0.0,0.0,-0.00020818241855558028,-1.0008475776285275e-05,-4.722270493019015e-06,-2.902478968280775e-07,-4.992934021855189e-06,1.4677601529733408e-06,5.2897669389206925e-06,-0.0001059654442937043,0.000171906161006425,0.00015471282508208297,-0.00013915083080414894,-0.00010869210962224816,0.00020385997020969037,0.0008797873928398799,0.3752071261405945,22.549890518188477,0.1491362750530243,-14.179414749145508,-0.10008770227432251,-2.1582064628601074,0.22098104655742645,0
65,0.3199896812438965,-0.3752071261405945,-22.549890518188477,-0.1491362750530243,14.179414749145508,0.10008770227432251,2.1582064628601074,-0.22098104655742645,0.0,0.0,0.0,0.0,0.0,0.0,0.0,-0.34742083309388005,0.24628871882688866,-0.23723328748402717,0.3104073171456459,-0.12815575539029106,-0.03573600315822577,-0.23928808007232585,1.6757055371727858,0.05211433530064631,0.029974227379778073,-2.7523945548780713,0.034249796921036656,2.7663664865469793,0.7691577635800657,1.6754973547542302,0.052104326824870026,0.029969505109285054,-2.752394845125968,0.0342448039870148,2.7663679543071322,0.7691630533470046,0.0001059654442937043,-0.000171906161006425,-0.00015471282508208297,0.00013915083080414894,0.00010869210962224816,-0.00020385997020969037,-0.0008797873928398799,0.0,0.0,0.0,0.0,0.0,0.0,0.0,-0.00020818241855558028,-1.0008475776285275e-05,-4.722270493019015e-06,-2.902478968280775e-07,-4.992934021855189e-06,1.4677601529733408e-06,5.2897669389206925e-06,-0.0001059654442937043,0.000171906161006425,0.00015471282508208297,-0.00013915083080414894,-0.00010869210962224816,0.00020385997020969037,0.0008797873928398799,0.3752071261405945,22.549890518188477,0.1491362750530243,-14.179414749145508,-0.10008770227432251,-2.1582064628601074,0.22098104655742645,0
66,0.32500123977661133,-0.3514034152030945,-22.573694229125977,-0.2007109820842743,14.155611038208008,0.11198955774307251,2.1453890800476074,-0.22098104655742645,0.0,0.0,0.0,0.0,0.0,0.0,0.0,-0.3548887290641902,0.24855447267472222,-0.23975054014787547,0.30494893921777194,-0.12803239560432333,-0.03605307648897432,-0.23999333478054607,1.6757038667369304,0.05211603211020912,0.029977846549268966,-2.7523926548552504,0.034249178875267974,2.766367954306886,0.7691577768772836,1.6754973547542302,0.052104326824870026,0.029969505109285054,-2.752394845125968,0.0342448039870148,2.7663679543071322,0.7691630533470046,-0.00021552507995712848,0.000379263144430352,0.0010501040008728346,-1.9831176488621207e-05,-0.00018469792172140165,0.0003161798423694383,-0.0007318748335421367,0.0,0.0,0.0,0.0,0.0,0.0,0.0,-0.0002065119827001638,-1.1705285339093374e-05,-8.341439983912402e-06,-2.190270717683518e-06,-4.3748882531738364e-06,2.460254222569347e-13,5.276469721038346e-06,0.00021552507995712848,-0.000379263144430352,-0.0010501040008728346,1.9831176488621207e-05,0.00018469792172140165,-0.0003161798423694383,0.0007318748335421367,0.3514034152030945,22.573694229125977,0.2007109820842743,-14.155611038208008,-0.11198955774307251,-2.1453890800476074,0.22098104655742645,0
67,0.32999634742736816,-0.3514034152030945,-22.573694229125977,-0.2007109820842743,14.155611038208008,0.11198955774307251,2.1453890800476074,-0.22098104655742645,0.0,0.0,0.0,0.0,0.0,0.0,0.0,-0.3548887290641902,0.24855447267472222,-0.23975054014787547,0.30494893921777194,-0.12803239560432333,-0.03605307648897432,-0.23999333478054607,1.6757038667369304,0.05211603211020912,0.029977846549268966,-2.7523926548552504,0.034249178875267974,2.766367954306886,0.7691577768772836,1.6754973547542302,0.052104326824870026,0.029969505109285054,-2.752394845125968,0.0342448039870148,2.7663679543071322,0.7691630533470046,-0.00021552507995712848,0.000379263144430352,0.0010501040008728346,-1.9831176488621207e-05,-0.00018469792172140165,0.0003161798423694383,-0.0007318748335421367,0.0,0.0,0.0,0.0,0.0,0.0,0.0,-0.0002065119827001638,-1.1705285339093374e-05,-8.341439983912402e-06,-2.190270717683518e-06,-4.3748882531738364e-06,2.460254222569347e-13,5.276469721038346e-06,0.00021552507995712848,-0.000379263144430352,-0.0010501040008728346,1.9831176488621207e-05,0.00018469792172140165,-0.0003161798423694383,0.0007318748335421367,0.3514034152030945,22.573694229125977,0.2007109820842743,-14.155611038208008,-0.11198955774307251,-2.1453890800476074,0.22098104655742645,0
68,0.3349936008453369,-0.3236324191093445,-22.522119522094727,-0.1491362750530243,14.207185745239258,0.11198955774307251,2.1582064628601074,-0.28964561223983765,0.0,0.0,0.0,0.0,0.0,0.0,0.0,-0.3484935007662605,0.24739234889301745,-0.23415871697755403,0.30661715342616735,-0.12845783003607092,-0.03557929789566823,-0.24120432045811344,1.6757019178950994,0.05211455557564941,0.02997422727158195,-2.752396274131641,0.03425279744337294,2.7663654177030317,0.769165393028069,1.6754973547542302,0.052104326824870026,0.029969505109285054,-2.752394845125968,0.0342448039870148,2.7663679543071322,0.7691630533470046,6.858908202352572e-05,-0.0005073079348573925,0.00030055897573663833,-0.0006404889903189679,-0.0002466205814485287,-0.0003881683803476909,0.0023884032975945123,0.0,0.0,0.0,0.0,0.0,0.0,0.0,-0.00020456314086914062,-1.0228750779384121e-05,-4.722162296896815e-06,1.429005672903827e-06,-7.993456358136586e-06,2.5366041005447926e-06,-2.3396810643339094e-06,-6.858908202352572e-05,0.0005073079348573925,-0.00030055897573663833,0.0006404889903189679,0.0002466205814485287,0.0003881683803476909,-0.0023884032975945123,0.3236324191093445,22.522119522094727,0.1491362750530243,-14.207185745239258,-0.11198955774307251,-2.1582064628601074,0.28964561223983765,0
69,0.3400101661682129,-0.3236324191093445,-22.522119522094727,-0.1491362750530243,14.207185745239258,0.11198955774307251,2.1582064628601074,-0.28964561223983765,0.0,0.0,0.0,0.0,0.0,0.0,0.0,-0.3484935007662605,0.24739234889301745,-0.23415871697755403,0.30661715342616735,-0.12845783003607092,-0.03557929789566823,-0.24120432045811344,1.6757019178950994,0.05211455557564941,0.02997422727158195,-2.752396274131641,0.03425279744337294,2.7663654177030317,0.769165393028069,1.6754973547542302,0.052104326824870026,0.029969505109285054,-2.752394845125968,0.0342448039870148,2.7663679543071322,0.7691630533470046,6.858908202352572e-05,-0.0005073079348573925,0.00030055897573663833,-0.0006404889903189679,-0.0002466205814485287,-0.0003881683803476909,0.0023884032975945123,0.0,0.0,0.0,0.0,0.0,0.0,0.0,-0.00020456314086914062,-1.0228750779384121e-05,-4.722162296896815e-06,1.429005672903827e-06,-7.993456358136586e-06,2.5366041005447926e-06,-2.3396810643339094e-06,-6.858908202352572e-05,0.0005073079348573925,-0.00030055897573663833,0.0006404889903189679,0.0002466205814485287,0.0003881683803476909,-0.0023884032975945123,0.3236324191093445,22.522119522094727,0.1491362750530243,-14.207185745239258,-0.11198955774307251,-2.1582064628601074,0.28964561223983765,0
70,0.34784674644470215,-0.2998287081718445,-22.522119522094727,-0.1491362750530243,14.230989456176758,0.09367901086807251,2.1517977714538574,-0.20083944499492645,0.0,0.0,0.0,0.0,0.0,0.0,0.0,-0.34482554633381196,0.24593861001196005,-0.23652464084560593,0.30937040117422937,-0.127093658331188,-0.03528416508822586,-0.2436618473847586,1.6757002474592442,0.05211238907223917,0.02997422759617032,-2.7523979445674964,0.03425164876929666,2.7663672421701944,0.7691555256760781,1.6754973547542302,0.052104326824870026,0.029969505109285054,-2.752394845125968,0.0342448039870148,2.7663679543071322,0.7691630533470046,-0.00013565421026420833,-0.0008701294186348148,0.0004133820157692152,-0.0010740390456191154,0.0005261997586572149,8.970314824258543e-06,-0.0011600048356219567,0.0,0.0,0.0,0.0,0.0,0.0,0.0,-0.00020289270501394618,-8.062247369142184e-06,-4.7224868852668855e-06,3.0994415283203125e-06,-6.844782281856254e-06,7.12136937863761e-07,7.527670926488206e-06,0.00013565421026420833,0.0008701294186348148,-0.0004133820157692152,0.0010740390456191154,-0.0005261997586572149,-8.970314824258543e-06,0.0011600048356219567,0.2998287081718445,22.522119522094727,0.1491362750530243,-14.230989456176758,-0.09367901086807251,-2.1517977714538574,0.20083944499492645,0
71,0.35001635551452637,-0.2998287081718445,-22.522119522094727,-0.1491362750530243,14.230989456176758,0.09367901086807251,2.1517977714538574,-0.20083944499492645,0.0,0.0,0.0,0.0,0.0,0.0,0.0,-0.34482554633381196,0.24593861001196005,-0.23652464084560593,0.30937040117422937,-0.127093658331188,-0.03528416508822586,-0.2436618473847586,1.6757002474592442,0.05211238907223917,0.02997422759617032,-2.7523979445674964,0.03425164876929666,2.7663672421701944,0.7691555256760781,1.6754973547542302,0.052104326824870026,0.029969505109285054,-2.752394845125968,0.0342448039870148,2.7663679543071322,0.7691630533470046,-0.00013565421026420833,-0.0008701294186348148,0.0004133820157692152,-0.0010740390456191154,0.0005261997586572149,8.970314824258543e-06,-0.0011600048356219567,0.0,0.0,0.0,0.0,0.0,0.0,0.0,-0.00020289270501394618,-8.062247369142184e-06,-4.7224868852668855e-06,3.0994415283203125e-06,-6.844782281856254e-06,7.12136937863761e-07,7.527670926488206e-06,0.00013565421026420833,0.0008701294186348148,-0.0004133820157692152,0.0010740390456191154,-0.0005261997586572149,-8.970314824258543e-06,0.0011600048356219567,0.2998287081718445,22.522119522094727,0.1491362750530243,-14.230989456176758,-0.09367901086807251,-2.1517977714538574,0.20083944499492645,0
72,0.3550088405609131,-0.4029781222343445,-22.474512100219727,-0.1729399859905243,14.179414749145508,0.11198955774307251,2.1453890800476074,-0.24844686686992645,0.0,0.0,0.0,0.0,0.0,0.0,0.0,-0.34412328472471804,0.25711454242900506,-0.24197085874443344,0.3053115626162816,-0.1263427543923008,-0.036189663036350996,-0.24243117102446166,1.6757074775113479,0.052111260586952035,0.029975901638564846,-2.7523943262346178,0.0342517745586753,2.766364775231238,0.7691608153896198,1.6754973547542302,0.052104326824870026,0.029969505109285054,-2.752394845125968,0.0342448039870148,2.7663679543071322,0.7691630533470046,0.0011950538919896906,-0.0010680862158636666,0.0005752074975061929,-9.736250098274447e-05,-0.000235187272065768,0.00024054977234255355,-0.0002147243784192782,0.0,0.0,0.0,0.0,0.0,0.0,0.0,-0.00021012275711762562,-6.933762082009243e-06,-6.396529279792396e-06,-5.188913503317849e-07,-6.970571660498692e-06,3.179075894088612e-06,2.2379573848541057e-06,-0.0011950538919896906,0.0010680862158636666,-0.0005752074975061929,9.736250098274447e-05,0.000235187272065768,-0.00024054977234255355,0.0002147243784192782,0.4029781222343445,22.474512100219727,0.1729399859905243,-14.179414749145508,-0.11198955774307251,-2.1453890800476074,0.24844686686992645,0
73,0.36004209518432617,-0.4029781222343445,-22.474512100219727,-0.1729399859905243,14.179414749145508,0.11198955774307251,2.1453890800476074,-0.24844686686992645,0.0,0.0,0.0,0.0,0.0,0.0,0.0,-0.34412328472471804,0.25711454242900506,-0.24197085874443344,0.3053115626162816,-0.1263427543923008,-0.036189663036350996,-0.24243117102446166,1.6757074775113479,0.052111260586952035,0.029975901638564846,-2.7523943262346178,0.0342517745586753,2.766364775231238,0.7691608153896198,1.6754973547542302,0.052104326824870026,0.029969505109285054,-2.752394845125968,0.0342448039870148,2.7663679543071322,0.7691630533470046,0.0011950538919896906,-0.0010680862158636666,0.0005752074975061929,-9.736250098274447e-05,-0.000235187272065768,0.00024054977234255355,-0.0002147243784192782,0.0,0.0,0.0,0.0,0.0,0.0,0.0,-0.00021012275711762562,-6.933762082009243e-06,-6.396529279792396e-06,-5.188913503317849e-07,-6.970571660498692e-06,3.179075894088612e-06,2.2379573848541057e-06,-0.0011950538919896906,0.0010680862158636666,-0.0005752074975061929,9.736250098274447e-05,0.000235187272065768,-0.00024054977234255355,0.0002147243784192782,0.4029781222343445,22.474512100219727,0.1729399859905243,-14.179414749145508,-0.11198955774307251,-2.1453890800476074,0.24844686686992645,0
74,0.3650400638580322,-0.4783565402030945,-22.522119522094727,-0.1729399859905243,14.131807327270508,0.10008770227432251,2.1453890800476074,-0.21457235515117645,0.0,0.0,0.0,0.0,0.0,0.0,0.0,-0.35793767513748975,0.25610755670377044,-0.24986787399399432,0.3122859990791318,-0.12590814110369183,-0.03458550099408978,-0.2429995347565664,1.6757127757281105,0.052112465159040035,0.029976134332380215,-2.7523910108727194,0.034254124920464375,2.76636779730576,0.7691570515549844,1.6754973547542302,0.052104326824870026,0.029969505109285054,-2.752394845125968,0.0342448039870148,2.7663679543071322,0.7691630533470046,0.0012310420404605424,-5.166513047699681e-05,-0.0007102728664159276,0.0012461825735288858,0.0002503448826700479,0.0002583365244810645,-0.0013854189438097853,0.0,0.0,0.0,0.0,0.0,0.0,0.0,-0.00021542097388027592,-8.13833417000892e-06,-6.629223095161452e-06,-3.834253248680142e-06,-9.320933449574742e-06,1.570013723473096e-07,6.00179202026041e-06,-0.0012310420404605424,5.166513047699681e-05,0.0007102728664159276,-0.0012461825735288858,-0.0002503448826700479,-0.0002583365244810645,0.0013854189438097853,0.4783565402030945,22.522119522094727,0.1729399859905243,-14.131807327270508,-0.10008770227432251,-2.1453890800476074,0.21457235515117645,0
75,0.37003016471862793,-0.4783565402030945,-22.522119522094727,-0.1729399859905243,14.131807327270508,0.10008770227432251,2.1453890800476074,-0.21457235515117645,0.0,0.0,0.0,0.0,0.0,0.0,0.0,-0.35793767513748975,0.25610755670377044,-0.24986787399399432,0.3122859990791318,-0.12590814110369183,-0.03458550099408978,-0.2429995347565664,1.6757127757281105,0.052112465159040035,0.029976134332380215,-2.7523910108727194,0.034254124920464375,2.76636779730576,0.7691570515549844,1.6754973547542302,0.052104326824870026,0.029969505109285054,-2.752394845125968,0.0342448039870148,2.7663679543071322,0.7691630533470046,0.0012310420404605424,-5.166513047699681e-05,-0.0007102728664159276,0.0012461825735288858,0.0002503448826700479,0.0002583365244810645,-0.0013854189438097853,0.0,0.0,0.0,0.0,0.0,0.0,0.0,-0.00021542097388027592,-8.13833417000892e-06,-6.629223095161452e-06,-3.834253248680142e-06,-9.320933449574742e-06,1.570013723473096e-07,6.00179202026041e-06,-0.0012310420404605424,5.166513047699681e-05,0.0007102728664159276,-0.0012461825735288858,-0.0002503448826700479,-0.0002583365244810645,0.0013854189438097853,0.4783565402030945,22.522119522094727,0.1729399859905243,-14.131807327270508,-0.10008770227432251,-2.1453890800476074,0.21457235515117645,0
76,0.3750128746032715,-0.4505855441093445,-22.597497940063477,-0.2007109820842743,14.155611038208008,0.11198955774307251,2.1389803886413574,-0.20724813640117645,0.0,0.0,0.0,0.0,0.0,0.0,0.0,-0.3697931685648533,0.25594855536588484,-0.25009049421534146,0.30743755698302433,-0.12719917759459903,-0.03501156185698217,-0.2422770261624799,1.6757108268863274,0.052118476056889115,0.029979976499479765,-2.752392663357373,0.034251376832331606,2.7663686663830687,0.7691562377529011,1.6754973547542302,0.052104326824870026,0.029969505109285054,-2.752394845125968,0.0342448039870148,2.7663679543071322,0.7691630533470046,-6.1758379463106e-05,0.0008057611537531063,-0.0003068283577419748,-0.0004341900400901345,-0.0004538406750207224,0.00019483057377577974,-0.0016295092757699831,0.0,0.0,0.0,0.0,0.0,0.0,0.0,-0.00021347213209721438,-1.4149232019089464e-05,-1.0471390194711355e-05,-2.18176859512198e-06,-6.572845316805964e-06,-7.120759364376283e-07,6.815594103537492e-06,6.1758379463106e-05,-0.0008057611537531063,0.0003068283577419748,0.0004341900400901345,0.0004538406750207224,-0.00019483057377577974,0.0016295092757699831,0.4505855441093445,22.597497940063477,0.2007109820842743,-14.155611038208008,-0.11198955774307251,-2.1389803886413574,0.20724813640117645,0
77,0.38004016876220703,-0.4505855441093445,-22.597497940063477,-0.2007109820842743,14.155611038208008,0.11198955774307251,2.1389803886413574,-0.20724813640117645,0.0,0.0,0.0,0.0,0.0,0.0,0.0,-0.3697931685648533,0.25594855536588484,-0.25009049421534146,0.30743755698302433,-0.12719917759459903,-0.03501156185698217,-0.2422770261624799,1.6757108268863274,0.052118476056889115,0.029979976499479765,-2.752392663357373,0.034251376832331606,2.7663686663830687,0.7691562377529011,1.6754973547542302,0.052104326824870026,0.029969505109285054,-2.752394845125968,0.0342448039870148,2.7663679543071322,0.7691630533470046,-6.1758379463106e-05,0.0008057611537531063,-0.0003068283577419748,-0.0004341900400901345,-0.0004538406750207224,0.00019483057377577974,-0.0016295092757699831,0.0,0.0,0.0,0.0,0.0,0.0,0.0,-0.00021347213209721438,-1.4149232019089464e-05,-1.0471390194711355e-05,-2.18176859512198e-06,-6.572845316805964e-06,-7.120759364376283e-07,6.815594103537492e-06,6.1758379463106e-05,-0.0008057611537531063,0.0003068283577419748,0.0004341900400901345,0.0004538406750207224,-0.00019483057377577974,0.0016295092757699831,0.4505855441093445,22.597497940063477,0.2007109820842743,-14.155611038208008,-0.11198955774307251,-2.1389803886413574,0.20724813640117645,0
78,0.3852083683013916,-0.2998287081718445,-22.597497940063477,-0.1491362750530243,14.155611038208008,0.10008770227432251,2.1517977714538574,-0.23471395671367645,0.0,0.0,0.0,0.0,0.0,0.0,0.0,-0.3651875678843827,0.24681250893651435,-0.2406992775403764,0.30452834627063696,-0.12937841989237403,-0.035312170879654874,-0.24150687057595718,1.6757002474592442,0.05211799482984075,0.029974306158579184,-2.7523926548540025,0.03425378130348339,2.766364061862371,0.7691592895107136,1.6754973547542302,0.052104326824870026,0.029969505109285054,-2.752394845125968,0.0342448039870148,2.7663679543071322,0.7691630533470046,-0.0010072389663041519,9.74918509615439e-06,-0.0006592763265299456,-0.0002074367461553599,0.00021069227633074071,1.7479042943437546e-05,8.454313339799344e-05,0.0,0.0,0.0,0.0,0.0,0.0,0.0,-0.00020289270501394618,-1.3668004970726622e-05,-4.80104929413e-06,-2.1902719655741976e-06,-8.977316468587737e-06,3.892444761177671e-06,3.763836291081901e-06,0.0010072389663041519,-9.74918509615439e-06,0.0006592763265299456,0.0002074367461553599,-0.00021069227633074071,-1.7479042943437546e-05,-8.454313339799344e-05,0.2998287081718445,22.597497940063477,0.1491362750530243,-14.155611038208008,-0.10008770227432251,-2.1517977714538574,0.23471395671367645,0
79,0.39000439643859863,-0.2998287081718445,-22.597497940063477,-0.1491362750530243,14.155611038208008,0.10008770227432251,2.1517977714538574,-0.23471395671367645,0.0,0.0,0.0,0.0,0.0,0.0,0.0,-0.3651875678843827,0.24681250893651435,-0.2406992775403764,0.30452834627063696,-0.12937841989237403,-0.035312170879654874,-0.24150687057595718,1.6757002474592442,0.05211799482984075,0.029974306158579184,-2.7523926548540025,0.03425378130348339,2.766364061862371,0.7691592895107136,1.6754973547542302,0.052104326824870026,0.029969505109285054,-2.752394845125968,0.0342448039870148,2.7663679543071322,0.7691630533470046,-0.0010072389663041519,9.74918509615439e-06,-0.0006592763265299456,-0.0002074367461553599,0.00021069227633074071,1.7479042943437546e-05,8.454313339799344e-05,0.0,0.0,0.0,0.0,0.0,0.0,0.0,-0.00020289270501394618,-1.3668004970726622e-05,-4.80104929413e-06,-2.1902719655741976e-06,-8.977316468587737e-06,3.892444761177671e-06,3.763836291081901e-06,0.0010072389663041519,-9.74918509615439e-06,0.0006592763265299456,0.0002074367461553599,-0.00021069227633074071,-1.7479042943437546e-05,-8.454313339799344e-05,0.2998287081718445,22.597497940063477,0.1491362750530243,-14.155611038208008,-0.10008770227432251,-2.1517977714538574,0.23471395671367645,0
