rezayati/contactInterpretation/dataset/franka_main/labeled_data/link1/g1_2.csv
index,time,tau_J0,tau_J1,tau_J2,tau_J3,tau_J4,tau_J5,tau_J6,tau_J_d0,tau_J_d1,tau_J_d2,tau_J_d3,tau_J_d4,tau_J_d5,tau_J_d6,tau_ext0,tau_ext1,tau_ext2,tau_ext3,tau_ext4,tau_ext5,tau_ext6,q0,q1,q2,q3,q4,q5,q6,q_d0,q_d1,q_d2,q_d3,q_d4,q_d5,q_d6,dq0,dq1,dq2,dq3,dq4,dq5,dq6,dq_d0,dq_d1,dq_d2,dq_d3,dq_d4,dq_d5,dq_d6,e0,e1,e2,e3,e4,e5,e6,de0,de1,de2,de3,de4,de5,de6,etau_J0,etau_J1,etau_J2,etau_J3,etau_J4,etau_J5,etau_J6,label
1,0.0,-0.22445029020309448,-13.464807510375977,0.3983490765094757,18.345064163208008,0.5642600655555725,2.3138461112976074,-0.25485557317733765,0.0,0.0,0.0,0.0,0.0,0.0,0.0,-0.2315471801051623,0.44543780351796963,-0.03238992658393562,0.5768158379375596,0.13550932914799216,0.08834990172517633,-0.2254255485695205,0.07181883640351987,-0.3343417780989894,-0.12042308572899027,-2.874887617445828,-0.0646050626974047,2.5181991267759702,0.7687540701163893,0.07165585495296277,-0.33419673383382315,-0.1203439052763738,-2.874768336042937,-0.06453255302590709,2.518161157661014,0.7687020283728597,-0.0002046893309287304,9.085312845096854e-05,-0.0004444845853255013,-0.0011163105519579155,3.24397259420649e-05,-0.0006734680625315097,0.0017693929540299577,0.0,0.0,0.0,0.0,0.0,0.0,0.0,-0.00016298145055709812,0.0001450442651662609,7.918045261647022e-05,0.00011928140289096945,7.25096714976059e-05,-3.796911495612676e-05,-5.2041743529573914e-05,0.0002046893309287304,-9.085312845096854e-05,0.0004444845853255013,0.0011163105519579155,-3.24397259420649e-05,0.0006734680625315097,-0.0017693929540299577,0.22445029020309448,13.464807510375977,-0.3983490765094757,-18.345064163208008,-0.5642600655555725,-2.3138461112976074,0.25485557317733765,0
2,0.0038907527923583984,-0.22445029020309448,-13.464807510375977,0.3983490765094757,18.345064163208008,0.5642600655555725,2.3138461112976074,-0.25485557317733765,0.0,0.0,0.0,0.0,0.0,0.0,0.0,-0.2315471801051623,0.44543780351796963,-0.03238992658393562,0.5768158379375596,0.13550932914799216,0.08834990172517633,-0.2254255485695205,0.07181883640351987,-0.3343417780989894,-0.12042308572899027,-2.874887617445828,-0.0646050626974047,2.5181991267759702,0.7687540701163893,0.07165585495296277,-0.33419673383382315,-0.1203439052763738,-2.874768336042937,-0.06453255302590709,2.518161157661014,0.7687020283728597,-0.0002046893309287304,9.085312845096854e-05,-0.0004444845853255013,-0.0011163105519579155,3.24397259420649e-05,-0.0006734680625315097,0.0017693929540299577,0.0,0.0,0.0,0.0,0.0,0.0,0.0,-0.00016298145055709812,0.0001450442651662609,7.918045261647022e-05,0.00011928140289096945,7.25096714976059e-05,-3.796911495612676e-05,-5.2041743529573914e-05,0.0002046893309287304,-9.085312845096854e-05,0.0004444845853255013,0.0011163105519579155,-3.24397259420649e-05,0.0006734680625315097,-0.0017693929540299577,0.22445029020309448,13.464807510375977,-0.3983490765094757,-18.345064163208008,-0.5642600655555725,-2.3138461112976074,0.25485557317733765,0
3,0.008828163146972656,-0.22445029020309448,-13.437036514282227,0.3705780804157257,18.297456741333008,0.5642600655555725,2.2946200370788574,-0.25485557317733765,0.0,0.0,0.0,0.0,0.0,0.0,0.0,-0.25688367343968155,0.4459280055365981,-0.05894155442631214,0.5767724173323785,0.1372044644452573,0.08770541534745639,-0.22495072442033753,0.07181883640352046,-0.33434361905401894,-0.12042113688849565,-2.8748842765741176,-0.06460529927700201,2.518201262844934,0.7687540570344618,0.07165585495296277,-0.33419673383382315,-0.1203439052763738,-2.874768336042937,-0.06453255302590709,2.518161157661014,0.7687020283728597,-0.0005501164666083443,-0.0008029365412140885,0.0017557436440798174,0.00014720049696220698,-2.45149120717294e-05,0.0003480132619326396,0.0012764835766165177,0.0,0.0,0.0,0.0,0.0,0.0,0.0,-0.00016298145055769486,0.00014688522019579153,7.723161212185026e-05,0.00011594053118058056,7.274625109492117e-05,-4.010518392005835e-05,-5.202866160203268e-05,0.0005501164666083443,0.0008029365412140885,-0.0017557436440798174,-0.00014720049696220698,2.45149120717294e-05,-0.0003480132619326396,-0.0012764835766165177,0.22445029020309448,13.437036514282227,-0.3705780804157257,-18.297456741333008,-0.5642600655555725,-2.2946200370788574,0.25485557317733765,0
4,0.013827800750732422,-0.22445029020309448,-13.437036514282227,0.3705780804157257,18.297456741333008,0.5642600655555725,2.2946200370788574,-0.25485557317733765,0.0,0.0,0.0,0.0,0.0,0.0,0.0,-0.25688367343968155,0.4459280055365981,-0.05894155442631214,0.5767724173323785,0.1372044644452573,0.08770541534745639,-0.22495072442033753,0.07181883640352046,-0.33434361905401894,-0.12042113688849565,-2.8748842765741176,-0.06460529927700201,2.518201262844934,0.7687540570344618,0.07165585495296277,-0.33419673383382315,-0.1203439052763738,-2.874768336042937,-0.06453255302590709,2.518161157661014,0.7687020283728597,-0.0005501164666083443,-0.0008029365412140885,0.0017557436440798174,0.00014720049696220698,-2.45149120717294e-05,0.0003480132619326396,0.0012764835766165177,0.0,0.0,0.0,0.0,0.0,0.0,0.0,-0.00016298145055769486,0.00014688522019579153,7.723161212185026e-05,0.00011594053118058056,7.274625109492117e-05,-4.010518392005835e-05,-5.202866160203268e-05,0.0005501164666083443,0.0008029365412140885,-0.0017557436440798174,-0.00014720049696220698,2.45149120717294e-05,-0.0003480132619326396,-0.0012764835766165177,0.22445029020309448,13.437036514282227,-0.3705780804157257,-18.297456741333008,-0.5642600655555725,-2.2946200370788574,0.25485557317733765,0
5,0.01907181739807129,-0.22445029020309448,-13.488611221313477,0.3983490765094757,18.297456741333008,0.5642600655555725,2.2946200370788574,-0.23471395671367645,0.0,0.0,0.0,0.0,0.0,0.0,0.0,-0.23459286780094354,0.4457655011677145,-0.033950380948321354,0.5780841435957768,0.1350723294211165,0.08820544416330399,-0.2262044937991728,0.07181883640352046,-0.3343401037863283,-0.1204230857303268,-2.8748842765741176,-0.06460494440994316,2.5182012628449333,0.7687518321589553,0.07165585495296277,-0.33419673383382315,-0.1203439052763738,-2.874768336042937,-0.06453255302590709,2.518161157661014,0.7687020283728597,-0.00020486366527662693,0.0006429400507519531,-7.720514787804505e-05,0.000705258097610013,6.778611620186984e-06,0.0001381605939765687,6.260036022212145e-05,0.0,0.0,0.0,0.0,0.0,0.0,0.0,-0.00016298145055769486,0.00014336995250513462,7.918045395299833e-05,0.00011594053118058056,7.239138403607182e-05,-4.010518391917017e-05,-4.980378609553693e-05,0.00020486366527662693,-0.0006429400507519531,7.720514787804505e-05,-0.000705258097610013,-6.778611620186984e-06,-0.0001381605939765687,-6.260036022212145e-05,0.22445029020309448,13.488611221313477,-0.3983490765094757,-18.297456741333008,-0.5642600655555725,-2.2946200370788574,0.23471395671367645,0
6,0.023876428604125977,-0.22445029020309448,-13.488611221313477,0.3983490765094757,18.297456741333008,0.5642600655555725,2.2946200370788574,-0.23471395671367645,0.0,0.0,0.0,0.0,0.0,0.0,0.0,-0.23459286780094354,0.4457655011677145,-0.033950380948321354,0.5780841435957768,0.1350723294211165,0.08820544416330399,-0.2262044937991728,0.07181883640352046,-0.3343401037863283,-0.1204230857303268,-2.8748842765741176,-0.06460494440994316,2.5182012628449333,0.7687518321589553,0.07165585495296277,-0.33419673383382315,-0.1203439052763738,-2.874768336042937,-0.06453255302590709,2.518161157661014,0.7687020283728597,-0.00020486366527662693,0.0006429400507519531,-7.720514787804505e-05,0.000705258097610013,6.778611620186984e-06,0.0001381605939765687,6.260036022212145e-05,0.0,0.0,0.0,0.0,0.0,0.0,0.0,-0.00016298145055769486,0.00014336995250513462,7.918045395299833e-05,0.00011594053118058056,7.239138403607182e-05,-4.010518391917017e-05,-4.980378609553693e-05,0.00020486366527662693,-0.0006429400507519531,7.720514787804505e-05,-0.000705258097610013,-6.778611620186984e-06,-0.0001381605939765687,-6.260036022212145e-05,0.22445029020309448,13.488611221313477,-0.3983490765094757,-18.297456741333008,-0.5642600655555725,-2.2946200370788574,0.23471395671367645,0
7,0.028873443603515625,-0.22445029020309448,-13.437036514282227,0.3705780804157257,18.321260452270508,0.5642600655555725,2.3010287284851074,-0.21457235515117645,0.0,0.0,0.0,0.0,0.0,0.0,0.0,-0.22917271765430383,0.44415225888362275,-0.026959593449736693,0.5770698510066162,0.13457864039615322,0.08829137996705476,-0.22642385155234793,0.07181883640352046,-0.3343436190539531,-0.12042113688849566,-2.874885947009973,-0.06460494440793994,2.5182005507681104,0.7687495942032999,0.07165585495296277,-0.33419673383382315,-0.1203439052763738,-2.874768336042937,-0.06453255302590709,2.518161157661014,0.7687020283728597,-0.0005310855090211627,-0.0009779886921918058,0.0003806118245433716,-0.0003580064585299503,1.0076631759518708e-05,-0.00010322959649943402,-0.0008946324355637843,0.0,0.0,0.0,0.0,0.0,0.0,0.0,-0.00016298145055769486,0.0001468852201299553,7.723161212186413e-05,0.00011761096703599705,7.239138203285478e-05,-3.939310709633048e-05,-4.756583044018825e-05,0.0005310855090211627,0.0009779886921918058,-0.0003806118245433716,0.0003580064585299503,-1.0076631759518708e-05,0.00010322959649943402,0.0008946324355637843,0.22445029020309448,13.437036514282227,-0.3705780804157257,-18.321260452270508,-0.5642600655555725,-2.3010287284851074,0.21457235515117645,0
8,0.03387880325317383,-0.22445029020309448,-13.437036514282227,0.3705780804157257,18.321260452270508,0.5642600655555725,2.3010287284851074,-0.21457235515117645,0.0,0.0,0.0,0.0,0.0,0.0,0.0,-0.22917271765430383,0.44415225888362275,-0.026959593449736693,0.5770698510066162,0.13457864039615322,0.08829137996705476,-0.22642385155234793,0.07181883640352046,-0.3343436190539531,-0.12042113688849566,-2.874885947009973,-0.06460494440793994,2.5182005507681104,0.7687495942032999,0.07165585495296277,-0.33419673383382315,-0.1203439052763738,-2.874768336042937,-0.06453255302590709,2.518161157661014,0.7687020283728597,-0.0005310855090211627,-0.0009779886921918058,0.0003806118245433716,-0.0003580064585299503,1.0076631759518708e-05,-0.00010322959649943402,-0.0008946324355637843,0.0,0.0,0.0,0.0,0.0,0.0,0.0,-0.00016298145055769486,0.0001468852201299553,7.723161212186413e-05,0.00011761096703599705,7.239138203285478e-05,-3.939310709633048e-05,-4.756583044018825e-05,0.0005310855090211627,0.0009779886921918058,-0.0003806118245433716,0.0003580064585299503,-1.0076631759518708e-05,0.00010322959649943402,0.0008946324355637843,0.22445029020309448,13.437036514282227,-0.3705780804157257,-18.321260452270508,-0.5642600655555725,-2.3010287284851074,0.21457235515117645,0
9,0.039025306701660156,-0.19667929410934448,-13.512414932250977,0.3705780804157257,18.321260452270508,0.5697532296180725,2.3010287284851074,-0.22098104655742645,0.0,0.0,0.0,0.0,0.0,0.0,0.0,-0.22962557576418216,0.4464635879751626,-0.02656939778870249,0.5717639764955668,0.13438760253615648,0.08751199858712465,-0.2276232861415575,0.07181688756168933,-0.3343384283461553,-0.12042112811949957,-2.874885947009973,-0.06460555475950241,2.5182005507681104,0.7687502151970306,0.07165585495296277,-0.33419673383382315,-0.1203439052763738,-2.874768336042937,-0.06453255302590709,2.518161157661014,0.7687020283728597,-0.0011951083430533525,0.0009384644535908325,0.0004832802559818341,-0.0010064504101592341,-0.00022343938813486732,-0.00015716160600868446,6.187081549125085e-05,0.0,0.0,0.0,0.0,0.0,0.0,0.0,-0.00016103260872656067,0.0001416945123321467,7.722284312576544e-05,0.00011761096703599705,7.300173359532647e-05,-3.939310709633048e-05,-4.81868241708483e-05,0.0011951083430533525,-0.0009384644535908325,-0.0004832802559818341,0.0010064504101592341,0.00022343938813486732,0.00015716160600868446,-6.187081549125085e-05,0.19667929410934448,13.512414932250977,-0.3705780804157257,-18.321260452270508,-0.5697532296180725,-2.3010287284851074,0.22098104655742645,0
10,0.04387521743774414,-0.19667929410934448,-13.512414932250977,0.3705780804157257,18.321260452270508,0.5697532296180725,2.3010287284851074,-0.22098104655742645,0.0,0.0,0.0,0.0,0.0,0.0,0.0,-0.22962557576418216,0.4464635879751626,-0.02656939778870249,0.5717639764955668,0.13438760253615648,0.08751199858712465,-0.2276232861415575,0.07181688756168933,-0.3343384283461553,-0.12042112811949957,-2.874885947009973,-0.06460555475950241,2.5182005507681104,0.7687502151970306,0.07165585495296277,-0.33419673383382315,-0.1203439052763738,-2.874768336042937,-0.06453255302590709,2.518161157661014,0.7687020283728597,-0.0011951083430533525,0.0009384644535908325,0.0004832802559818341,-0.0010064504101592341,-0.00022343938813486732,-0.00015716160600868446,6.187081549125085e-05,0.0,0.0,0.0,0.0,0.0,0.0,0.0,-0.00016103260872656067,0.0001416945123321467,7.722284312576544e-05,0.00011761096703599705,7.300173359532647e-05,-3.939310709633048e-05,-4.81868241708483e-05,0.0011951083430533525,-0.0009384644535908325,-0.0004832802559818341,0.0010064504101592341,0.00022343938813486732,0.00015716160600868446,-6.187081549125085e-05,0.19667929410934448,13.512414932250977,-0.3705780804157257,-18.321260452270508,-0.5697532296180725,-2.3010287284851074,0.22098104655742645,0
11,0.048883676528930664,-0.24825400114059448,-13.488611221313477,0.3705780804157257,18.297456741333008,0.5697532296180725,2.3010287284851074,-0.24844686686992645,0.0,0.0,0.0,0.0,0.0,0.0,0.0,-0.2290628465812049,0.44389840565017646,-0.028426150761282125,0.5726605786076159,0.13420273729930682,0.08789156662200963,-0.22760765080275158,0.07182050683937573,-0.3343379814521165,-0.12042113688844616,-2.8748842765741176,-0.06460555475950241,2.5182005507681104,0.7687533187915645,0.07165585495296277,-0.33419673383382315,-0.1203439052763738,-2.874768336042937,-0.06453255302590709,2.518161157661014,0.7687020283728597,0.0006946964958954025,0.0006209391330399334,0.00016653135162228436,0.00022225453268748415,-0.00013719529113106042,-0.00010099889073905636,0.0013429463585104386,0.0,0.0,0.0,0.0,0.0,0.0,0.0,-0.0001646518864129587,0.00014124761829337196,7.723161207236207e-05,0.00011594053118058056,7.300173359532647e-05,-3.939310709633048e-05,-5.129041870477469e-05,-0.0006946964958954025,-0.0006209391330399334,-0.00016653135162228436,-0.00022225453268748415,0.00013719529113106042,0.00010099889073905636,-0.0013429463585104386,0.24825400114059448,13.488611221313477,-0.3705780804157257,-18.297456741333008,-0.5697532296180725,-2.3010287284851074,0.24844686686992645,0
12,0.0538785457611084,-0.24825400114059448,-13.488611221313477,0.3705780804157257,18.297456741333008,0.5697532296180725,2.3010287284851074,-0.24844686686992645,0.0,0.0,0.0,0.0,0.0,0.0,0.0,-0.2290628465812049,0.44389840565017646,-0.028426150761282125,0.5726605786076159,0.13420273729930682,0.08789156662200963,-0.22760765080275158,0.07182050683937573,-0.3343379814521165,-0.12042113688844616,-2.8748842765741176,-0.06460555475950241,2.5182005507681104,0.7687533187915645,0.07165585495296277,-0.33419673383382315,-0.1203439052763738,-2.874768336042937,-0.06453255302590709,2.518161157661014,0.7687020283728597,0.0006946964958954025,0.0006209391330399334,0.00016653135162228436,0.00022225453268748415,-0.00013719529113106042,-0.00010099889073905636,0.0013429463585104386,0.0,0.0,0.0,0.0,0.0,0.0,0.0,-0.0001646518864129587,0.00014124761829337196,7.723161207236207e-05,0.00011594053118058056,7.300173359532647e-05,-3.939310709633048e-05,-5.129041870477469e-05,-0.0006946964958954025,-0.0006209391330399334,-0.00016653135162228436,-0.00022225453268748415,0.00013719529113106042,0.00010099889073905636,-0.0013429463585104386,0.24825400114059448,13.488611221313477,-0.3705780804157257,-18.297456741333008,-0.5697532296180725,-2.3010287284851074,0.24844686686992645,0
13,0.05883598327636719,-0.22445029020309448,-13.464807510375977,0.3705780804157257,18.297456741333008,0.5642600655555725,2.3074374198913574,-0.22098104655742645,0.0,0.0,0.0,0.0,0.0,0.0,0.0,-0.23030467707441596,0.4452517680079473,-0.03228033573038812,0.5719339148337267,0.13474726040073412,0.08754961289311879,-0.22770628774120844,0.07181883640352046,-0.3343408245064827,-0.12042113688849566,-2.874884276234956,-0.06460494494881537,2.5181998386912876,0.7687503057953846,0.07165585495296277,-0.33419673383382315,-0.1203439052763738,-2.874768336042937,-0.06453255302590709,2.518161157661014,0.7687020283728597,7.000312093562557e-05,0.0004493589882266898,-0.000172199528237394,0.0003688237425712461,2.7400473838541353e-05,-0.000383303928238296,-0.00033609754258553585,0.0,0.0,0.0,0.0,0.0,0.0,0.0,-0.00016298145055769486,0.0001440906726595803,7.723161212186413e-05,0.00011594019201899286,7.239192290828256e-05,-3.868103027349079e-05,-4.8277422524889424e-05,-7.000312093562557e-05,-0.0004493589882266898,0.000172199528237394,-0.0003688237425712461,-2.7400473838541353e-05,0.000383303928238296,0.00033609754258553585,0.22445029020309448,13.464807510375977,-0.3705780804157257,-18.297456741333008,-0.5642600655555725,-2.3074374198913574,0.22098104655742645,0
14,0.06390047073364258,-0.22445029020309448,-13.464807510375977,0.3705780804157257,18.297456741333008,0.5642600655555725,2.3074374198913574,-0.22098104655742645,0.0,0.0,0.0,0.0,0.0,0.0,0.0,-0.23030467707441596,0.4452517680079473,-0.03228033573038812,0.5719339148337267,0.13474726040073412,0.08754961289311879,-0.22770628774120844,0.07181883640352046,-0.3343408245064827,-0.12042113688849566,-2.874884276234956,-0.06460494494881537,2.5181998386912876,0.7687503057953846,0.07165585495296277,-0.33419673383382315,-0.1203439052763738,-2.874768336042937,-0.06453255302590709,2.518161157661014,0.7687020283728597,7.000312093562557e-05,0.0004493589882266898,-0.000172199528237394,0.0003688237425712461,2.7400473838541353e-05,-0.000383303928238296,-0.00033609754258553585,0.0,0.0,0.0,0.0,0.0,0.0,0.0,-0.00016298145055769486,0.0001440906726595803,7.723161212186413e-05,0.00011594019201899286,7.239192290828256e-05,-3.868103027349079e-05,-4.8277422524889424e-05,-7.000312093562557e-05,-0.0004493589882266898,0.000172199528237394,-0.0003688237425712461,-2.7400473838541353e-05,0.000383303928238296,0.00033609754258553585,0.22445029020309448,13.464807510375977,-0.3705780804157257,-18.297456741333008,-0.5642600655555725,-2.3074374198913574,0.22098104655742645,0
15,0.06888222694396973,-0.22445029020309448,-13.488611221313477,0.3705780804157257,18.297456741333008,0.5697532296180725,2.3074374198913574,-0.22098104655742645,0.0,0.0,0.0,0.0,0.0,0.0,0.0,-0.22878505761605997,0.4476762689029709,-0.033896154812135065,0.5676158926960203,0.13468048860014936,0.08672930028732599,-0.22653566089135058,0.07181883640352046,-0.33433798177080415,-0.12042113688849566,-2.874884276574116,-0.06460555475950547,2.5181998386912876,0.7687503062801201,0.07165585495296277,-0.33419673383382315,-0.1203439052763738,-2.874768336042937,-0.06453255302590709,2.518161157661014,0.7687020283728597,-0.0002788555279159036,0.000605911493660224,0.0004118628059374991,-0.00021600343284563774,-0.00014692463238449518,-0.0002593403115508163,-0.0003091683433117098,0.0,0.0,0.0,0.0,0.0,0.0,0.0,-0.00016298145055769486,0.0001412479369810038,7.723161212186413e-05,0.00011594053117880421,7.300173359837958e-05,-3.868103027349079e-05,-4.8277907260363406e-05,0.0002788555279159036,-0.000605911493660224,-0.0004118628059374991,0.00021600343284563774,0.00014692463238449518,0.0002593403115508163,0.0003091683433117098,0.22445029020309448,13.488611221313477,-0.3705780804157257,-18.297456741333008,-0.5697532296180725,-2.3074374198913574,0.22098104655742645,0
16,0.07388806343078613,-0.22445029020309448,-13.488611221313477,0.3705780804157257,18.297456741333008,0.5697532296180725,2.3074374198913574,-0.22098104655742645,0.0,0.0,0.0,0.0,0.0,0.0,0.0,-0.22878505761605997,0.4476762689029709,-0.033896154812135065,0.5676158926960203,0.13468048860014936,0.08672930028732599,-0.22653566089135058,0.07181883640352046,-0.33433798177080415,-0.12042113688849566,-2.874884276574116,-0.06460555475950547,2.5181998386912876,0.7687503062801201,0.07165585495296277,-0.33419673383382315,-0.1203439052763738,-2.874768336042937,-0.06453255302590709,2.518161157661014,0.7687020283728597,-0.0002788555279159036,0.000605911493660224,0.0004118628059374991,-0.00021600343284563774,-0.00014692463238449518,-0.0002593403115508163,-0.0003091683433117098,0.0,0.0,0.0,0.0,0.0,0.0,0.0,-0.00016298145055769486,0.0001412479369810038,7.723161212186413e-05,0.00011594053117880421,7.300173359837958e-05,-3.868103027349079e-05,-4.8277907260363406e-05,0.0002788555279159036,-0.000605911493660224,-0.0004118628059374991,0.00021600343284563774,0.00014692463238449518,0.0002593403115508163,0.0003091683433117098,0.22445029020309448,13.488611221313477,-0.3705780804157257,-18.297456741333008,-0.5697532296180725,-2.3074374198913574,0.22098104655742645,0
17,0.07890486717224121,-0.22445029020309448,-13.488611221313477,0.3983490765094757,18.345064163208008,0.5697532296180725,2.3074374198913574,-0.19351522624492645,0.0,0.0,0.0,0.0,0.0,0.0,0.0,-0.22667407135387072,0.4468465481562149,-0.03257810135874368,0.570590031845893,0.1352085294212311,0.08734909042436634,-0.2261997737406327,0.07181883640352046,-0.33433773354042395,-0.1204230857303268,-2.874887617445828,-0.06460555492176505,2.5181998386912876,0.7687471367847405,0.07165585495296277,-0.33419673383382315,-0.1203439052763738,-2.874768336042937,-0.06453255302590709,2.518161157661014,0.7687020283728597,0.000547520656257598,0.00044075449698056593,-0.0008473686790520718,-0.0013691274922088075,8.32231950086077e-05,-0.0003910030437489224,-0.0013166110778329706,0.0,0.0,0.0,0.0,0.0,0.0,0.0,-0.00016298145055769486,0.0001409997066008084,7.918045395299833e-05,0.00011928140289096945,7.300189585796035e-05,-3.868103027349079e-05,-4.510841188076764e-05,-0.000547520656257598,-0.00044075449698056593,0.0008473686790520718,0.0013691274922088075,-8.32231950086077e-05,0.0003910030437489224,0.0013166110778329706,0.22445029020309448,13.488611221313477,-0.3983490765094757,-18.345064163208008,-0.5697532296180725,-2.3074374198913574,0.19351522624492645,0
18,0.08387899398803711,-0.22445029020309448,-13.488611221313477,0.3983490765094757,18.345064163208008,0.5697532296180725,2.3074374198913574,-0.19351522624492645,0.0,0.0,0.0,0.0,0.0,0.0,0.0,-0.22667407135387072,0.4468465481562149,-0.03257810135874368,0.570590031845893,0.1352085294212311,0.08734909042436634,-0.2261997737406327,0.07181883640352046,-0.33433773354042395,-0.1204230857303268,-2.874887617445828,-0.06460555492176505,2.5181998386912876,0.7687471367847405,0.07165585495296277,-0.33419673383382315,-0.1203439052763738,-2.874768336042937,-0.06453255302590709,2.518161157661014,0.7687020283728597,0.000547520656257598,0.00044075449698056593,-0.0008473686790520718,-0.0013691274922088075,8.32231950086077e-05,-0.0003910030437489224,-0.0013166110778329706,0.0,0.0,0.0,0.0,0.0,0.0,0.0,-0.00016298145055769486,0.0001409997066008084,7.918045395299833e-05,0.00011928140289096945,7.300189585796035e-05,-3.868103027349079e-05,-4.510841188076764e-05,-0.000547520656257598,-0.00044075449698056593,0.0008473686790520718,0.0013691274922088075,-8.32231950086077e-05,0.0003910030437489224,0.0013166110778329706,0.22445029020309448,13.488611221313477,-0.3983490765094757,-18.345064163208008,-0.5697532296180725,-2.3074374198913574,0.19351522624492645,0
19,0.08887839317321777,-0.2998287081718445,-13.464807510375977,0.3983490765094757,18.321260452270508,0.5642600655555725,2.3010287284851074,-0.25485557317733765,0.0,0.0,0.0,0.0,0.0,0.0,0.0,-0.22647929102434197,0.44887313629696673,-0.034951203722209424,0.5706558164519141,0.1365637579166107,0.08751951048246674,-0.22561314936606805,0.07182412611706214,-0.33433965220757517,-0.1204230857303268,-2.874885947009973,-0.06460600901312329,2.5182006685056804,0.7687540700623572,0.07165585495296277,-0.33419673383382315,-0.1203439052763738,-2.874768336042937,-0.06453255302590709,2.518161157661014,0.7687020283728597,0.0015034681802827954,0.00010228274150133567,-0.0003446832612958908,-0.00041211438127135844,9.697857706195092e-05,-0.0001338586719042694,0.0008932115175950332,0.0,0.0,0.0,0.0,0.0,0.0,0.0,-0.0001682711640993706,0.0001429183737520212,7.918045395299833e-05,0.00011761096703599705,7.345598721619773e-05,-3.9510844666246214e-05,-5.2041689497461796e-05,-0.0015034681802827954,-0.00010228274150133567,0.0003446832612958908,0.00041211438127135844,-9.697857706195092e-05,0.0001338586719042694,-0.0008932115175950332,0.2998287081718445,13.464807510375977,-0.3983490765094757,-18.321260452270508,-0.5642600655555725,-2.3010287284851074,0.25485557317733765,0
20,0.09387660026550293,-0.2998287081718445,-13.464807510375977,0.3983490765094757,18.321260452270508,0.5642600655555725,2.3010287284851074,-0.25485557317733765,0.0,0.0,0.0,0.0,0.0,0.0,0.0,-0.22647929102434197,0.44887313629696673,-0.034951203722209424,0.5706558164519141,0.1365637579166107,0.08751951048246674,-0.22561314936606805,0.07182412611706214,-0.33433965220757517,-0.1204230857303268,-2.874885947009973,-0.06460600901312329,2.5182006685056804,0.7687540700623572,0.07165585495296277,-0.33419673383382315,-0.1203439052763738,-2.874768336042937,-0.06453255302590709,2.518161157661014,0.7687020283728597,0.0015034681802827954,0.00010228274150133567,-0.0003446832612958908,-0.00041211438127135844,9.697857706195092e-05,-0.0001338586719042694,0.0008932115175950332,0.0,0.0,0.0,0.0,0.0,0.0,0.0,-0.0001682711640993706,0.0001429183737520212,7.918045395299833e-05,0.00011761096703599705,7.345598721619773e-05,-3.9510844666246214e-05,-5.2041689497461796e-05,-0.0015034681802827954,-0.00010228274150133567,0.0003446832612958908,0.00041211438127135844,-9.697857706195092e-05,0.0001338586719042694,-0.0008932115175950332,0.2998287081718445,13.464807510375977,-0.3983490765094757,-18.321260452270508,-0.5642600655555725,-2.3010287284851074,0.25485557317733765,0
21,0.09887576103210449,-0.19667929410934448,-13.464807510375977,0.3983490765094757,18.345064163208008,0.5697532296180725,2.3010287284851074,-0.24844686686992645,0.0,0.0,0.0,0.0,0.0,0.0,0.0,-0.22561444125917257,0.4450952493118186,-0.029195089583103125,0.575724895488077,0.13656705281457454,0.08798819604654982,-0.22704562334686124,0.07181688756168933,-0.3343417779910319,-0.1204230857303268,-2.874887617445828,-0.06460567305497691,2.5182005507687752,0.768753358037935,0.07165585495296277,-0.33419673383382315,-0.1203439052763738,-2.874768336042937,-0.06453255302590709,2.518161157661014,0.7687020283728597,-0.00036678898053088896,-4.815348462091996e-05,-0.0001566039257593217,-0.0005568741575666164,-4.0965030229778795e-05,-0.00010664647536813557,0.0007407347388189259,0.0,0.0,0.0,0.0,0.0,0.0,0.0,-0.00016103260872656067,0.0001450441572087291,7.918045395299833e-05,0.00011928140289096945,7.312002906982584e-05,-3.939310776113203e-05,-5.132966507526149e-05,0.00036678898053088896,4.815348462091996e-05,0.0001566039257593217,0.0005568741575666164,4.0965030229778795e-05,0.00010664647536813557,-0.0007407347388189259,0.19667929410934448,13.464807510375977,-0.3983490765094757,-18.345064163208008,-0.5697532296180725,-2.3010287284851074,0.24844686686992645,0
22,0.10388398170471191,-0.19667929410934448,-13.464807510375977,0.3983490765094757,18.345064163208008,0.5697532296180725,2.3010287284851074,-0.24844686686992645,0.0,0.0,0.0,0.0,0.0,0.0,0.0,-0.22561444125917257,0.4450952493118186,-0.029195089583103125,0.575724895488077,0.13656705281457454,0.08798819604654982,-0.22704562334686124,0.07181688756168933,-0.3343417779910319,-0.1204230857303268,-2.874887617445828,-0.06460567305497691,2.5182005507687752,0.768753358037935,0.07165585495296277,-0.33419673383382315,-0.1203439052763738,-2.874768336042937,-0.06453255302590709,2.518161157661014,0.7687020283728597,-0.00036678898053088896,-4.815348462091996e-05,-0.0001566039257593217,-0.0005568741575666164,-4.0965030229778795e-05,-0.00010664647536813557,0.0007407347388189259,0.0,0.0,0.0,0.0,0.0,0.0,0.0,-0.00016103260872656067,0.0001450441572087291,7.918045395299833e-05,0.00011928140289096945,7.312002906982584e-05,-3.939310776113203e-05,-5.132966507526149e-05,0.00036678898053088896,4.815348462091996e-05,0.0001566039257593217,0.0005568741575666164,4.0965030229778795e-05,0.00010664647536813557,-0.0007407347388189259,0.19667929410934448,13.464807510375977,-0.3983490765094757,-18.345064163208008,-0.5697532296180725,-2.3010287284851074,0.24844686686992645,0
23,0.10887742042541504,-0.24825400114059448,-13.464807510375977,0.3705780804157257,18.345064163208008,0.5642600655555725,2.3074374198913574,-0.21457235515117645,0.0,0.0,0.0,0.0,0.0,0.0,0.0,-0.227404719734744,0.4440453882003661,-0.031897619843238544,0.5750707031663073,0.13703207004566245,0.08734830697286769,-0.22696577036271823,0.07182050683937573,-0.3343417781110375,-0.12042113688849566,-2.874887617445828,-0.06460813887454303,2.5181998386912876,0.7687495942032999,0.07165585495296277,-0.33419673383382315,-0.1203439052763738,-2.874768336042937,-0.06453255302590709,2.518161157661014,0.7687020283728597,0.0008911165710530543,-0.0004595974094913454,2.7874063091926002e-05,-0.00042238380757821353,0.00013630835613718617,-0.00010825876604504118,-0.0003925309553312618,0.0,0.0,0.0,0.0,0.0,0.0,0.0,-0.0001646518864129587,0.00014504427721434565,7.723161212186413e-05,0.00011928140289096945,7.558584863594231e-05,-3.868103027349079e-05,-4.756583044018825e-05,-0.0008911165710530543,0.0004595974094913454,-2.7874063091926002e-05,0.00042238380757821353,-0.00013630835613718617,0.00010825876604504118,0.0003925309553312618,0.24825400114059448,13.464807510375977,-0.3705780804157257,-18.345064163208008,-0.5642600655555725,-2.3074374198913574,0.21457235515117645,0
24,0.11388039588928223,-0.24825400114059448,-13.464807510375977,0.3705780804157257,18.345064163208008,0.5642600655555725,2.3074374198913574,-0.21457235515117645,0.0,0.0,0.0,0.0,0.0,0.0,0.0,-0.227404719734744,0.4440453882003661,-0.031897619843238544,0.5750707031663073,0.13703207004566245,0.08734830697286769,-0.22696577036271823,0.07182050683937573,-0.3343417781110375,-0.12042113688849566,-2.874887617445828,-0.06460813887454303,2.5181998386912876,0.7687495942032999,0.07165585495296277,-0.33419673383382315,-0.1203439052763738,-2.874768336042937,-0.06453255302590709,2.518161157661014,0.7687020283728597,0.0008911165710530543,-0.0004595974094913454,2.7874063091926002e-05,-0.00042238380757821353,0.00013630835613718617,-0.00010825876604504118,-0.0003925309553312618,0.0,0.0,0.0,0.0,0.0,0.0,0.0,-0.0001646518864129587,0.00014504427721434565,7.723161212186413e-05,0.00011928140289096945,7.558584863594231e-05,-3.868103027349079e-05,-4.756583044018825e-05,-0.0008911165710530543,0.0004595974094913454,-2.7874063091926002e-05,0.00042238380757821353,-0.00013630835613718617,0.00010825876604504118,0.0003925309553312618,0.24825400114059448,13.464807510375977,-0.3705780804157257,-18.345064163208008,-0.5642600655555725,-2.3074374198913574,0.21457235515117645,0
25,0.11888003349304199,-0.2720577120780945,-13.488611221313477,0.3467743694782257,18.297456741333008,0.5642600655555725,2.3010287284851074,-0.22098104655742645,0.0,0.0,0.0,0.0,0.0,0.0,0.0,-0.2249234125574132,0.44047689790998173,-0.03417565218450691,0.5782864003138679,0.13686234177391104,0.0879056336624195,-0.22574228778663827,0.07182217727523099,-0.33433987146418465,-0.1204194664526404,-2.874884276461064,-0.0646049445762135,2.5182005507681104,0.7687502670342662,0.07165585495296277,-0.33419673383382315,-0.1203439052763738,-2.874768336042937,-0.06453255302590709,2.518161157661014,0.7687020283728597,0.0008646150995991765,2.572738590913003e-05,0.0006559250535143647,0.0006458644759247539,-2.518052712099506e-07,-3.678787540864066e-05,9.721130579192734e-05,0.0,0.0,0.0,0.0,0.0,0.0,0.0,-0.00016632232226822252,0.00014313763036150062,7.55611762666003e-05,0.00011594041812701406,7.239155030641653e-05,-3.939310709633048e-05,-4.823866140646338e-05,-0.0008646150995991765,-2.572738590913003e-05,-0.0006559250535143647,-0.0006458644759247539,2.518052712099506e-07,3.678787540864066e-05,-9.721130579192734e-05,0.2720577120780945,13.488611221313477,-0.3467743694782257,-18.297456741333008,-0.5642600655555725,-2.3010287284851074,0.22098104655742645,0
26,0.12387466430664062,-0.2720577120780945,-13.488611221313477,0.3467743694782257,18.297456741333008,0.5642600655555725,2.3010287284851074,-0.22098104655742645,0.0,0.0,0.0,0.0,0.0,0.0,0.0,-0.2249234125574132,0.44047689790998173,-0.03417565218450691,0.5782864003138679,0.13686234177391104,0.0879056336624195,-0.22574228778663827,0.07182217727523099,-0.33433987146418465,-0.1204194664526404,-2.874884276461064,-0.0646049445762135,2.5182005507681104,0.7687502670342662,0.07165585495296277,-0.33419673383382315,-0.1203439052763738,-2.874768336042937,-0.06453255302590709,2.518161157661014,0.7687020283728597,0.0008646150995991765,2.572738590913003e-05,0.0006559250535143647,0.0006458644759247539,-2.518052712099506e-07,-3.678787540864066e-05,9.721130579192734e-05,0.0,0.0,0.0,0.0,0.0,0.0,0.0,-0.00016632232226822252,0.00014313763036150062,7.55611762666003e-05,0.00011594041812701406,7.239155030641653e-05,-3.939310709633048e-05,-4.823866140646338e-05,-0.0008646150995991765,-2.572738590913003e-05,-0.0006559250535143647,-0.0006458644759247539,2.518052712099506e-07,3.678787540864066e-05,-9.721130579192734e-05,0.2720577120780945,13.488611221313477,-0.3467743694782257,-18.297456741333008,-0.5642600655555725,-2.3010287284851074,0.22098104655742645,0
27,0.12884140014648438,-0.2720577120780945,-13.488611221313477,0.3467743694782257,18.297456741333008,0.5642600655555725,2.3010287284851074,-0.22098104655742645,0.0,0.0,0.0,0.0,0.0,0.0,0.0,-0.2249234125574132,0.44047689790998173,-0.03417565218450691,0.5782864003138679,0.13686234177391104,0.0879056336624195,-0.22574228778663827,0.07182217727523099,-0.33433987146418465,-0.1204194664526404,-2.874884276461064,-0.0646049445762135,2.5182005507681104,0.7687502670342662,0.07165585495296277,-0.33419673383382315,-0.1203439052763738,-2.874768336042937,-0.06453255302590709,2.518161157661014,0.7687020283728597,0.0008646150995991765,2.572738590913003e-05,0.0006559250535143647,0.0006458644759247539,-2.518052712099506e-07,-3.678787540864066e-05,9.721130579192734e-05,0.0,0.0,0.0,0.0,0.0,0.0,0.0,-0.00016632232226822252,0.00014313763036150062,7.55611762666003e-05,0.00011594041812701406,7.239155030641653e-05,-3.939310709633048e-05,-4.823866140646338e-05,-0.0008646150995991765,-2.572738590913003e-05,-0.0006559250535143647,-0.0006458644759247539,2.518052712099506e-07,3.678787540864066e-05,-9.721130579192734e-05,0.2720577120780945,13.488611221313477,-0.3467743694782257,-18.297456741333008,-0.5642600655555725,-2.3010287284851074,0.22098104655742645,0
28,0.13388872146606445,-0.2720577120780945,-13.488611221313477,0.3467743694782257,18.297456741333008,0.5642600655555725,2.3010287284851074,-0.22098104655742645,0.0,0.0,0.0,0.0,0.0,0.0,0.0,-0.2249234125574132,0.44047689790998173,-0.03417565218450691,0.5782864003138679,0.13686234177391104,0.0879056336624195,-0.22574228778663827,0.07182217727523099,-0.33433987146418465,-0.1204194664526404,-2.874884276461064,-0.0646049445762135,2.5182005507681104,0.7687502670342662,0.07165585495296277,-0.33419673383382315,-0.1203439052763738,-2.874768336042937,-0.06453255302590709,2.518161157661014,0.7687020283728597,0.0008646150995991765,2.572738590913003e-05,0.0006559250535143647,0.0006458644759247539,-2.518052712099506e-07,-3.678787540864066e-05,9.721130579192734e-05,0.0,0.0,0.0,0.0,0.0,0.0,0.0,-0.00016632232226822252,0.00014313763036150062,7.55611762666003e-05,0.00011594041812701406,7.239155030641653e-05,-3.939310709633048e-05,-4.823866140646338e-05,-0.0008646150995991765,-2.572738590913003e-05,-0.0006559250535143647,-0.0006458644759247539,2.518052712099506e-07,3.678787540864066e-05,-9.721130579192734e-05,0.2720577120780945,13.488611221313477,-0.3467743694782257,-18.297456741333008,-0.5642600655555725,-2.3010287284851074,0.22098104655742645,0
29,0.13888788223266602,-0.24825400114059448,-13.488611221313477,0.3705780804157257,18.321260452270508,0.5642600655555725,2.3074374198913574,-0.22098104655742645,0.0,0.0,0.0,0.0,0.0,0.0,0.0,-0.22898642317826076,0.44180020201450865,-0.03766020557073035,0.5795376797154437,0.13664389295028234,0.0880488784846578,-0.22503958443127509,0.07182050683937573,-0.33433798177485385,-0.12042113688849566,-2.8748859470099726,-0.06460495755121472,2.5181998386912876,0.7687502931979491,0.07165585495296277,-0.33419673383382315,-0.1203439052763738,-2.874768336042937,-0.06453255302590709,2.518161157661014,0.7687020283728597,-0.00011779491036566908,0.000774037127064693,0.00015810409913368886,0.00015703067817701032,0.0001438872219481583,-0.00028696118893803256,0.00047700400974421076,0.0,0.0,0.0,0.0,0.0,0.0,0.0,-0.0001646518864129587,0.0001412479410307088,7.723161212186413e-05,0.00011761096703555296,7.240452530762886e-05,-3.868103027349079e-05,-4.826482508935026e-05,0.00011779491036566908,-0.000774037127064693,-0.00015810409913368886,-0.00015703067817701032,-0.0001438872219481583,0.00028696118893803256,-0.00047700400974421076,0.24825400114059448,13.488611221313477,-0.3705780804157257,-18.321260452270508,-0.5642600655555725,-2.3074374198913574,0.22098104655742645,0
30,0.14420485496520996,-0.24825400114059448,-13.488611221313477,0.3705780804157257,18.321260452270508,0.5642600655555725,2.3074374198913574,-0.22098104655742645,0.0,0.0,0.0,0.0,0.0,0.0,0.0,-0.22898642317826076,0.44180020201450865,-0.03766020557073035,0.5795376797154437,0.13664389295028234,0.0880488784846578,-0.22503958443127509,0.07182050683937573,-0.33433798177485385,-0.12042113688849566,-2.8748859470099726,-0.06460495755121472,2.5181998386912876,0.7687502931979491,0.07165585495296277,-0.33419673383382315,-0.1203439052763738,-2.874768336042937,-0.06453255302590709,2.518161157661014,0.7687020283728597,-0.00011779491036566908,0.000774037127064693,0.00015810409913368886,0.00015703067817701032,0.0001438872219481583,-0.00028696118893803256,0.00047700400974421076,0.0,0.0,0.0,0.0,0.0,0.0,0.0,-0.0001646518864129587,0.0001412479410307088,7.723161212186413e-05,0.00011761096703555296,7.240452530762886e-05,-3.868103027349079e-05,-4.826482508935026e-05,0.00011779491036566908,-0.000774037127064693,-0.00015810409913368886,-0.00015703067817701032,-0.0001438872219481583,0.00028696118893803256,-0.00047700400974421076,0.24825400114059448,13.488611221313477,-0.3705780804157257,-18.321260452270508,-0.5642600655555725,-2.3074374198913574,0.22098104655742645,0
31,0.14887666702270508,-0.22445029020309448,-13.464807510375977,0.3467743694782257,18.321260452270508,0.5642600655555725,2.2946200370788574,-0.24844686686992645,0.0,0.0,0.0,0.0,0.0,0.0,0.0,-0.2300217885216459,0.44117326759536946,-0.03501465899452769,0.5779351989387979,0.13614855277767313,0.08800549036806816,-0.22542895315109335,0.07181883640352046,-0.33434177809903876,-0.1204194664526404,-2.874885947009973,-0.06460565359290796,2.5182012628449333,0.7687530033716015,0.07165585495296277,-0.33419673383382315,-0.1203439052763738,-2.874768336042937,-0.06453255302590709,2.518161157661014,0.7687020283728597,-0.000601012723242977,-0.00019717426388236257,0.0010281409611228908,-0.000628882612363981,-2.9268066192449926e-05,0.00023034727769141307,0.00039455252623329603,0.0,0.0,0.0,0.0,0.0,0.0,0.0,-0.00016298145055769486,0.0001450442652156103,7.55611762666003e-05,0.00011761096703599705,7.310056700086942e-05,-4.010518391917017e-05,-5.097499874173739e-05,0.000601012723242977,0.00019717426388236257,-0.0010281409611228908,0.000628882612363981,2.9268066192449926e-05,-0.00023034727769141307,-0.00039455252623329603,0.22445029020309448,13.464807510375977,-0.3467743694782257,-18.321260452270508,-0.5642600655555725,-2.2946200370788574,0.24844686686992645,0
32,0.15389513969421387,-0.22445029020309448,-13.464807510375977,0.3467743694782257,18.321260452270508,0.5642600655555725,2.2946200370788574,-0.24844686686992645,0.0,0.0,0.0,0.0,0.0,0.0,0.0,-0.2300217885216459,0.44117326759536946,-0.03501465899452769,0.5779351989387979,0.13614855277767313,0.08800549036806816,-0.22542895315109335,0.07181883640352046,-0.33434177809903876,-0.1204194664526404,-2.874885947009973,-0.06460565359290796,2.5182012628449333,0.7687530033716015,0.07165585495296277,-0.33419673383382315,-0.1203439052763738,-2.874768336042937,-0.06453255302590709,2.518161157661014,0.7687020283728597,-0.000601012723242977,-0.00019717426388236257,0.0010281409611228908,-0.000628882612363981,-2.9268066192449926e-05,0.00023034727769141307,0.00039455252623329603,0.0,0.0,0.0,0.0,0.0,0.0,0.0,-0.00016298145055769486,0.0001450442652156103,7.55611762666003e-05,0.00011761096703599705,7.310056700086942e-05,-4.010518391917017e-05,-5.097499874173739e-05,0.000601012723242977,0.00019717426388236257,-0.0010281409611228908,0.000628882612363981,2.9268066192449926e-05,-0.00023034727769141307,-0.00039455252623329603,0.22445029020309448,13.464807510375977,-0.3467743694782257,-18.321260452270508,-0.5642600655555725,-2.2946200370788574,0.24844686686992645,0
33,0.1588737964630127,-0.22445029020309448,-13.488611221313477,0.3705780804157257,18.297456741333008,0.5642600655555725,2.2882113456726074,-0.20083944499492645,0.0,0.0,0.0,0.0,0.0,0.0,0.0,-0.23079750885770742,0.44562736047959606,-0.03597782860945322,0.5752574754959551,0.13600946845514436,0.08730280271313116,-0.22636107141993508,0.07181883640352046,-0.33433798177618723,-0.12042113688849566,-2.8748842765741176,-0.06460494441194328,2.518201974921756,0.7687480683223916,0.07165585495296277,-0.33419673383382315,-0.1203439052763738,-2.874768336042937,-0.06453255302590709,2.518161157661014,0.7687020283728597,-7.866087902407568e-05,0.0009791735483928108,5.0632828202882325e-05,-4.0538362419289373e-05,-8.293447719460894e-05,0.00028783223691560743,-0.000671250857929627,0.0,0.0,0.0,0.0,0.0,0.0,0.0,-0.00016298145055769486,0.00014124794236408666,7.723161212186413e-05,0.00011594053118058056,7.23913860361941e-05,-4.0817260742009864e-05,-4.6039949531895275e-05,7.866087902407568e-05,-0.0009791735483928108,-5.0632828202882325e-05,4.0538362419289373e-05,8.293447719460894e-05,-0.00028783223691560743,0.000671250857929627,0.22445029020309448,13.488611221313477,-0.3705780804157257,-18.297456741333008,-0.5642600655555725,-2.2882113456726074,0.20083944499492645,0
34,0.16447710990905762,-0.22445029020309448,-13.488611221313477,0.3705780804157257,18.297456741333008,0.5642600655555725,2.2882113456726074,-0.20083944499492645,0.0,0.0,0.0,0.0,0.0,0.0,0.0,-0.23079750885770742,0.44562736047959606,-0.03597782860945322,0.5752574754959551,0.13600946845514436,0.08730280271313116,-0.22636107141993508,0.07181883640352046,-0.33433798177618723,-0.12042113688849566,-2.8748842765741176,-0.06460494441194328,2.518201974921756,0.7687480683223916,0.07165585495296277,-0.33419673383382315,-0.1203439052763738,-2.874768336042937,-0.06453255302590709,2.518161157661014,0.7687020283728597,-7.866087902407568e-05,0.0009791735483928108,5.0632828202882325e-05,-4.0538362419289373e-05,-8.293447719460894e-05,0.00028783223691560743,-0.000671250857929627,0.0,0.0,0.0,0.0,0.0,0.0,0.0,-0.00016298145055769486,0.00014124794236408666,7.723161212186413e-05,0.00011594053118058056,7.23913860361941e-05,-4.0817260742009864e-05,-4.6039949531895275e-05,7.866087902407568e-05,-0.0009791735483928108,-5.0632828202882325e-05,4.0538362419289373e-05,8.293447719460894e-05,-0.00028783223691560743,0.000671250857929627,0.22445029020309448,13.488611221313477,-0.3705780804157257,-18.297456741333008,-0.5642600655555725,-2.2882113456726074,0.20083944499492645,0
35,0.16887664794921875,-0.24825400114059448,-13.464807510375977,0.3983490765094757,18.345064163208008,0.5523582100868225,2.3074374198913574,-0.22830526530742645,0.0,0.0,0.0,0.0,0.0,0.0,0.0,-0.23053185371641818,0.4374474267969967,-0.03854676689373755,0.581647453129295,0.13578536616623438,0.08746762056091718,-0.2260604997024356,0.07182050683937573,-0.3343396522080423,-0.1204230857303268,-2.874887617445828,-0.0646068157951037,2.5181998386912876,0.7687511200822061,0.07165585495296277,-0.33419673383382315,-0.1203439052763738,-2.874768336042937,-0.06453255302590709,2.518161157661014,0.7687020283728597,0.00035265915501549926,-0.0005434815974386648,-0.00023065317182669595,-0.0007082346851796311,0.0004133818643603046,-0.0005070232753500427,0.00028394894621370327,0.0,0.0,0.0,0.0,0.0,0.0,0.0,-0.0001646518864129587,0.00014291837421914755,7.918045395299833e-05,0.00011928140289096945,7.426276919661468e-05,-3.868103027349079e-05,-4.9091709346416046e-05,-0.00035265915501549926,0.0005434815974386648,0.00023065317182669595,0.0007082346851796311,-0.0004133818643603046,0.0005070232753500427,-0.00028394894621370327,0.24825400114059448,13.464807510375977,-0.3983490765094757,-18.345064163208008,-0.5523582100868225,-2.3074374198913574,0.22830526530742645,0
36,0.17387843132019043,-0.24825400114059448,-13.464807510375977,0.3983490765094757,18.345064163208008,0.5523582100868225,2.3074374198913574,-0.22830526530742645,0.0,0.0,0.0,0.0,0.0,0.0,0.0,-0.23053185371641818,0.4374474267969967,-0.03854676689373755,0.581647453129295,0.13578536616623438,0.08746762056091718,-0.2260604997024356,0.07182050683937573,-0.3343396522080423,-0.1204230857303268,-2.874887617445828,-0.0646068157951037,2.5181998386912876,0.7687511200822061,0.07165585495296277,-0.33419673383382315,-0.1203439052763738,-2.874768336042937,-0.06453255302590709,2.518161157661014,0.7687020283728597,0.00035265915501549926,-0.0005434815974386648,-0.00023065317182669595,-0.0007082346851796311,0.0004133818643603046,-0.0005070232753500427,0.00028394894621370327,0.0,0.0,0.0,0.0,0.0,0.0,0.0,-0.0001646518864129587,0.00014291837421914755,7.918045395299833e-05,0.00011928140289096945,7.426276919661468e-05,-3.868103027349079e-05,-4.9091709346416046e-05,-0.00035265915501549926,0.0005434815974386648,0.00023065317182669595,0.0007082346851796311,-0.0004133818643603046,0.0005070232753500427,-0.00028394894621370327,0.24825400114059448,13.464807510375977,-0.3983490765094757,-18.345064163208008,-0.5523582100868225,-2.3074374198913574,0.22830526530742645,0
37,0.1788806915283203,-0.22445029020309448,-13.437036514282227,0.4221527874469757,18.345064163208008,0.5697532296180725,2.2946200370788574,-0.26217979192733765,0.0,0.0,0.0,0.0,0.0,0.0,0.0,-0.22971515168743042,0.4434612584216003,-0.034313560901667095,0.5786131330393531,0.13496395003381956,0.0869667660377967,-0.22482439103329485,0.07181883640352046,-0.3343406270360224,-0.12042475616618206,-2.874887617445828,-0.06460555477753159,2.5182012628449333,0.7687548839184973,0.07165585495296277,-0.33419673383382315,-0.1203439052763738,-2.874768336042937,-0.06453255302590709,2.518161157661014,0.7687020283728597,-0.00021399320134884626,-0.000538257430756521,-0.0006218463042560461,-0.000860907290604795,-0.000204073874273076,0.0003040004646053124,0.0015668623381186698,0.0,0.0,0.0,0.0,0.0,0.0,0.0,-0.00016298145055769486,0.00014389320219926338,8.085088980826216e-05,0.00011928140289096945,7.300175162450184e-05,-4.010518391917017e-05,-5.285554563760897e-05,0.00021399320134884626,0.000538257430756521,0.0006218463042560461,0.000860907290604795,0.000204073874273076,-0.0003040004646053124,-0.0015668623381186698,0.22445029020309448,13.437036514282227,-0.4221527874469757,-18.345064163208008,-0.5697532296180725,-2.2946200370788574,0.26217979192733765,0
38,0.18387866020202637,-0.22445029020309448,-13.437036514282227,0.4221527874469757,18.345064163208008,0.5697532296180725,2.2946200370788574,-0.26217979192733765,0.0,0.0,0.0,0.0,0.0,0.0,0.0,-0.22971515168743042,0.4434612584216003,-0.034313560901667095,0.5786131330393531,0.13496395003381956,0.0869667660377967,-0.22482439103329485,0.07181883640352046,-0.3343406270360224,-0.12042475616618206,-2.874887617445828,-0.06460555477753159,2.5182012628449333,0.7687548839184973,0.07165585495296277,-0.33419673383382315,-0.1203439052763738,-2.874768336042937,-0.06453255302590709,2.518161157661014,0.7687020283728597,-0.00021399320134884626,-0.000538257430756521,-0.0006218463042560461,-0.000860907290604795,-0.000204073874273076,0.0003040004646053124,0.0015668623381186698,0.0,0.0,0.0,0.0,0.0,0.0,0.0,-0.00016298145055769486,0.00014389320219926338,8.085088980826216e-05,0.00011928140289096945,7.300175162450184e-05,-4.010518391917017e-05,-5.285554563760897e-05,0.00021399320134884626,0.000538257430756521,0.0006218463042560461,0.000860907290604795,0.000204073874273076,-0.0003040004646053124,-0.0015668623381186698,0.22445029020309448,13.437036514282227,-0.4221527874469757,-18.345064163208008,-0.5697532296180725,-2.2946200370788574,0.26217979192733765,0
39,0.18887567520141602,-0.24825400114059448,-13.464807510375977,0.3705780804157257,18.297456741333008,0.5523582100868225,2.2946200370788574,-0.21457235515117645,0.0,0.0,0.0,0.0,0.0,0.0,0.0,-0.2337704640152705,0.4423116293901416,-0.03509216407244217,0.5807922511243834,0.13533574193349934,0.08758370835905746,-0.2246743600099811,0.07182050683937573,-0.33434106935253455,-0.12042113688849566,-2.8748842765741176,-0.0646068157951038,2.5182012628449333,0.7687495942032999,0.07165585495296277,-0.33419673383382315,-0.1203439052763738,-2.874768336042937,-0.06453255302590709,2.518161157661014,0.7687020283728597,0.0005085239723973634,-0.00011842003441244932,-4.037529180702574e-05,0.00044089790389158993,0.0005650820215021469,0.00028892894424340627,-0.0007051210180762123,0.0,0.0,0.0,0.0,0.0,0.0,0.0,-0.0001646518864129587,0.0001443355187114026,7.723161212186413e-05,0.00011594053118058056,7.426276919671182e-05,-4.010518391917017e-05,-4.756583044018825e-05,-0.0005085239723973634,0.00011842003441244932,4.037529180702574e-05,-0.00044089790389158993,-0.0005650820215021469,-0.00028892894424340627,0.0007051210180762123,0.24825400114059448,13.464807510375977,-0.3705780804157257,-18.297456741333008,-0.5523582100868225,-2.2946200370788574,0.21457235515117645,0
40,0.1938767433166504,-0.24825400114059448,-13.464807510375977,0.3705780804157257,18.297456741333008,0.5523582100868225,2.2946200370788574,-0.21457235515117645,0.0,0.0,0.0,0.0,0.0,0.0,0.0,-0.2337704640152705,0.4423116293901416,-0.03509216407244217,0.5807922511243834,0.13533574193349934,0.08758370835905746,-0.2246743600099811,0.07182050683937573,-0.33434106935253455,-0.12042113688849566,-2.8748842765741176,-0.0646068157951038,2.5182012628449333,0.7687495942032999,0.07165585495296277,-0.33419673383382315,-0.1203439052763738,-2.874768336042937,-0.06453255302590709,2.518161157661014,0.7687020283728597,0.0005085239723973634,-0.00011842003441244932,-4.037529180702574e-05,0.00044089790389158993,0.0005650820215021469,0.00028892894424340627,-0.0007051210180762123,0.0,0.0,0.0,0.0,0.0,0.0,0.0,-0.0001646518864129587,0.0001443355187114026,7.723161212186413e-05,0.00011594053118058056,7.426276919671182e-05,-4.010518391917017e-05,-4.756583044018825e-05,-0.0005085239723973634,0.00011842003441244932,4.037529180702574e-05,-0.00044089790389158993,-0.0005650820215021469,-0.00028892894424340627,0.0007051210180762123,0.24825400114059448,13.464807510375977,-0.3705780804157257,-18.297456741333008,-0.5523582100868225,-2.2946200370788574,0.21457235515117645,0
41,0.19887733459472656,-0.24825400114059448,-13.437036514282227,0.3705780804157257,18.297456741333008,0.5697532296180725,2.2946200370788574,-0.21457235515117645,0.0,0.0,0.0,0.0,0.0,0.0,0.0,-0.23401144691932574,0.4437522597672555,-0.03393619079848474,0.5807730717220906,0.13588896399761696,0.08770163935542039,-0.2244213824684907,0.07182050683937573,-0.3343430063271094,-0.12042113688849566,-2.8748842765741176,-0.06460555477753159,2.5182012628449333,0.7687464152889119,0.07165585495296277,-0.33419673383382315,-0.1203439052763738,-2.874768336042937,-0.06453255302590709,2.518161157661014,0.7687020283728597,0.000636760981309286,-0.0006811641962789597,-0.00017220602108744112,0.00045737826470140797,-1.1512058365633833e-05,0.0002528749089221456,-0.0005684929429645536,0.0,0.0,0.0,0.0,0.0,0.0,0.0,-0.0001646518864129587,0.00014627249328624803,7.723161212186413e-05,0.00011594053118058056,7.300175162450184e-05,-4.010518391917017e-05,-4.438691605213041e-05,-0.000636760981309286,0.0006811641962789597,0.00017220602108744112,-0.00045737826470140797,1.1512058365633833e-05,-0.0002528749089221456,0.0005684929429645536,0.24825400114059448,13.437036514282227,-0.3705780804157257,-18.297456741333008,-0.5697532296180725,-2.2946200370788574,0.21457235515117645,0
42,0.2038886547088623,-0.24825400114059448,-13.437036514282227,0.3705780804157257,18.297456741333008,0.5697532296180725,2.2946200370788574,-0.21457235515117645,0.0,0.0,0.0,0.0,0.0,0.0,0.0,-0.23401144691932574,0.4437522597672555,-0.03393619079848474,0.5807730717220906,0.13588896399761696,0.08770163935542039,-0.2244213824684907,0.07182050683937573,-0.3343430063271094,-0.12042113688849566,-2.8748842765741176,-0.06460555477753159,2.5182012628449333,0.7687464152889119,0.07165585495296277,-0.33419673383382315,-0.1203439052763738,-2.874768336042937,-0.06453255302590709,2.518161157661014,0.7687020283728597,0.000636760981309286,-0.0006811641962789597,-0.00017220602108744112,0.00045737826470140797,-1.1512058365633833e-05,0.0002528749089221456,-0.0005684929429645536,0.0,0.0,0.0,0.0,0.0,0.0,0.0,-0.0001646518864129587,0.00014627249328624803,7.723161212186413e-05,0.00011594053118058056,7.300175162450184e-05,-4.010518391917017e-05,-4.438691605213041e-05,-0.000636760981309286,0.0006811641962789597,0.00017220602108744112,-0.00045737826470140797,1.1512058365633833e-05,-0.0002528749089221456,0.0005684929429645536,0.24825400114059448,13.437036514282227,-0.3705780804157257,-18.297456741333008,-0.5697532296180725,-2.2946200370788574,0.21457235515117645,0
43,0.20888352394104004,-0.19667929410934448,-13.437036514282227,0.3983490765094757,18.297456741333008,0.5642600655555725,2.3010287284851074,-0.24112264811992645,0.0,0.0,0.0,0.0,0.0,0.0,0.0,-0.23342194281623815,0.445906404418853,-0.03563969251890613,0.5806118265976398,0.13624472160226114,0.08807489530494535,-0.22560630542719456,0.07181688756168933,-0.3343415746601299,-0.1204230857303268,-2.8748842765741176,-0.06460494440794001,2.5182005507681104,0.768752544217907,0.07165585495296277,-0.33419673383382315,-0.1203439052763738,-2.874768336042937,-0.06453255302590709,2.518161157661014,0.7687020283728597,-0.001148030972954863,-0.00029302784996154143,-0.0005829380419660922,0.00028378331688061654,-6.325492822940073e-05,4.211551331329377e-05,0.0007037512601009776,0.0,0.0,0.0,0.0,0.0,0.0,0.0,-0.00016103260872656067,0.0001448408263067802,7.918045395299833e-05,0.00011594053118058056,7.239138203292417e-05,-3.939310709633048e-05,-5.0515845047227614e-05,0.001148030972954863,0.00029302784996154143,0.0005829380419660922,-0.00028378331688061654,6.325492822940073e-05,-4.211551331329377e-05,-0.0007037512601009776,0.19667929410934448,13.437036514282227,-0.3983490765094757,-18.297456741333008,-0.5642600655555725,-2.3010287284851074,0.24112264811992645,0
44,0.21388936042785645,-0.19667929410934448,-13.437036514282227,0.3983490765094757,18.297456741333008,0.5642600655555725,2.3010287284851074,-0.24112264811992645,0.0,0.0,0.0,0.0,0.0,0.0,0.0,-0.23342194281623815,0.445906404418853,-0.03563969251890613,0.5806118265976398,0.13624472160226114,0.08807489530494535,-0.22560630542719456,0.07181688756168933,-0.3343415746601299,-0.1204230857303268,-2.8748842765741176,-0.06460494440794001,2.5182005507681104,0.768752544217907,0.07165585495296277,-0.33419673383382315,-0.1203439052763738,-2.874768336042937,-0.06453255302590709,2.518161157661014,0.7687020283728597,-0.001148030972954863,-0.00029302784996154143,-0.0005829380419660922,0.00028378331688061654,-6.325492822940073e-05,4.211551331329377e-05,0.0007037512601009776,0.0,0.0,0.0,0.0,0.0,0.0,0.0,-0.00016103260872656067,0.0001448408263067802,7.918045395299833e-05,0.00011594053118058056,7.239138203292417e-05,-3.939310709633048e-05,-5.0515845047227614e-05,0.001148030972954863,0.00029302784996154143,0.0005829380419660922,-0.00028378331688061654,6.325492822940073e-05,-4.211551331329377e-05,-0.0007037512601009776,0.19667929410934448,13.437036514282227,-0.3983490765094757,-18.297456741333008,-0.5642600655555725,-2.3010287284851074,0.24112264811992645,0
45,0.2189946174621582,-0.19667929410934448,-13.464807510375977,0.4221527874469757,18.269685745239258,0.5642600655555725,2.3010287284851074,-0.21457235515117645,0.0,0.0,0.0,0.0,0.0,0.0,0.0,-0.23045923579440614,0.4453381403589517,-0.03255917998368894,0.5793434323573867,0.13557719146524208,0.08863979414381248,-0.22572625450994188,0.07181688756168933,-0.33434175181722087,-0.12042475616618206,-2.8748823277322866,-0.06460494440793992,2.5182005507681104,0.7687464152889117,0.07165585495296277,-0.33419673383382315,-0.1203439052763738,-2.874768336042937,-0.06453255302590709,2.518161157661014,0.7687020283728597,-0.0007316317121737217,-0.0004700363936057674,-0.0005379152096782446,0.0009365483495749242,3.45363596376805e-05,-0.00012467432959006153,0.0001746456106631506,0.0,0.0,0.0,0.0,0.0,0.0,0.0,-0.00016103260872656067,0.00014501798339772165,8.085088980826216e-05,0.00011399168934955739,7.239138203282702e-05,-3.939310709633048e-05,-4.438691605201939e-05,0.0007316317121737217,0.0004700363936057674,0.0005379152096782446,-0.0009365483495749242,-3.45363596376805e-05,0.00012467432959006153,-0.0001746456106631506,0.19667929410934448,13.464807510375977,-0.4221527874469757,-18.269685745239258,-0.5642600655555725,-2.3010287284851074,0.21457235515117645,0
46,0.2238309383392334,-0.19667929410934448,-13.464807510375977,0.4221527874469757,18.269685745239258,0.5642600655555725,2.3010287284851074,-0.21457235515117645,0.0,0.0,0.0,0.0,0.0,0.0,0.0,-0.23045923579440614,0.4453381403589517,-0.03255917998368894,0.5793434323573867,0.13557719146524208,0.08863979414381248,-0.22572625450994188,0.07181688756168933,-0.33434175181722087,-0.12042475616618206,-2.8748823277322866,-0.06460494440793992,2.5182005507681104,0.7687464152889117,0.07165585495296277,-0.33419673383382315,-0.1203439052763738,-2.874768336042937,-0.06453255302590709,2.518161157661014,0.7687020283728597,-0.0007316317121737217,-0.0004700363936057674,-0.0005379152096782446,0.0009365483495749242,3.45363596376805e-05,-0.00012467432959006153,0.0001746456106631506,0.0,0.0,0.0,0.0,0.0,0.0,0.0,-0.00016103260872656067,0.00014501798339772165,8.085088980826216e-05,0.00011399168934955739,7.239138203282702e-05,-3.939310709633048e-05,-4.438691605201939e-05,0.0007316317121737217,0.0004700363936057674,0.0005379152096782446,-0.0009365483495749242,-3.45363596376805e-05,0.00012467432959006153,-0.0001746456106631506,0.19667929410934448,13.464807510375977,-0.4221527874469757,-18.269685745239258,-0.5642600655555725,-2.3010287284851074,0.21457235515117645,0
47,0.22887468338012695,-0.24825400114059448,-13.488611221313477,0.3705780804157257,18.321260452270508,0.5578513741493225,2.2946200370788574,-0.21457235515117645,0.0,0.0,0.0,0.0,0.0,0.0,0.0,-0.2342714479022316,0.4442884006509374,-0.0339004634949195,0.5791551294702794,0.1354741640461817,0.0886808773045875,-0.2245336889787109,0.07182050683937573,-0.3343401043265264,-0.12042113688849566,-2.874885947009973,-0.06460743052775748,2.51820126332945,0.7687495941494648,0.07165585495296277,-0.33419673383382315,-0.1203439052763738,-2.874768336042937,-0.06453255302590709,2.518161157661014,0.7687020283728597,0.00040384872684686617,0.0003238200053254222,0.00035272349595927315,-0.0002964746100029802,0.00024279871495721465,0.00021833829859152615,-0.0005900268918377017,0.0,0.0,0.0,0.0,0.0,0.0,0.0,-0.0001646518864129587,0.0001433704927032431,7.723161212186413e-05,0.00011761096703599705,7.487750185039554e-05,-4.010566843604124e-05,-4.75657766050297e-05,-0.00040384872684686617,-0.0003238200053254222,-0.00035272349595927315,0.0002964746100029802,-0.00024279871495721465,-0.00021833829859152615,0.0005900268918377017,0.24825400114059448,13.488611221313477,-0.3705780804157257,-18.321260452270508,-0.5578513741493225,-2.2946200370788574,0.21457235515117645,0
48,0.23387551307678223,-0.24825400114059448,-13.488611221313477,0.3705780804157257,18.321260452270508,0.5578513741493225,2.2946200370788574,-0.21457235515117645,0.0,0.0,0.0,0.0,0.0,0.0,0.0,-0.2342714479022316,0.4442884006509374,-0.0339004634949195,0.5791551294702794,0.1354741640461817,0.0886808773045875,-0.2245336889787109,0.07182050683937573,-0.3343401043265264,-0.12042113688849566,-2.874885947009973,-0.06460743052775748,2.51820126332945,0.7687495941494648,0.07165585495296277,-0.33419673383382315,-0.1203439052763738,-2.874768336042937,-0.06453255302590709,2.518161157661014,0.7687020283728597,0.00040384872684686617,0.0003238200053254222,0.00035272349595927315,-0.0002964746100029802,0.00024279871495721465,0.00021833829859152615,-0.0005900268918377017,0.0,0.0,0.0,0.0,0.0,0.0,0.0,-0.0001646518864129587,0.0001433704927032431,7.723161212186413e-05,0.00011761096703599705,7.487750185039554e-05,-4.010566843604124e-05,-4.75657766050297e-05,-0.00040384872684686617,-0.0003238200053254222,-0.00035272349595927315,0.0002964746100029802,-0.00024279871495721465,-0.00021833829859152615,0.0005900268918377017,0.24825400114059448,13.488611221313477,-0.3705780804157257,-18.321260452270508,-0.5578513741493225,-2.2946200370788574,0.21457235515117645,0
49,0.23888134956359863,-0.24825400114059448,-13.488611221313477,0.3705780804157257,18.321260452270508,0.5578513741493225,2.2946200370788574,-0.21457235515117645,0.0,0.0,0.0,0.0,0.0,0.0,0.0,-0.2342714479022316,0.4442884006509374,-0.0339004634949195,0.5791551294702794,0.1354741640461817,0.0886808773045875,-0.2245336889787109,0.07182050683937573,-0.3343401043265264,-0.12042113688849566,-2.874885947009973,-0.06460743052775748,2.51820126332945,0.7687495941494648,0.07165585495296277,-0.33419673383382315,-0.1203439052763738,-2.874768336042937,-0.06453255302590709,2.518161157661014,0.7687020283728597,0.00040384872684686617,0.0003238200053254222,0.00035272349595927315,-0.0002964746100029802,0.00024279871495721465,0.00021833829859152615,-0.0005900268918377017,0.0,0.0,0.0,0.0,0.0,0.0,0.0,-0.0001646518864129587,0.0001433704927032431,7.723161212186413e-05,0.00011761096703599705,7.487750185039554e-05,-4.010566843604124e-05,-4.75657766050297e-05,-0.00040384872684686617,-0.0003238200053254222,-0.00035272349595927315,0.0002964746100029802,-0.00024279871495721465,-0.00021833829859152615,0.0005900268918377017,0.24825400114059448,13.488611221313477,-0.3705780804157257,-18.321260452270508,-0.5578513741493225,-2.2946200370788574,0.21457235515117645,0
50,0.24383044242858887,-0.24825400114059448,-13.488611221313477,0.3705780804157257,18.321260452270508,0.5578513741493225,2.2946200370788574,-0.21457235515117645,0.0,0.0,0.0,0.0,0.0,0.0,0.0,-0.2342714479022316,0.4442884006509374,-0.0339004634949195,0.5791551294702794,0.1354741640461817,0.0886808773045875,-0.2245336889787109,0.07182050683937573,-0.3343401043265264,-0.12042113688849566,-2.874885947009973,-0.06460743052775748,2.51820126332945,0.7687495941494648,0.07165585495296277,-0.33419673383382315,-0.1203439052763738,-2.874768336042937,-0.06453255302590709,2.518161157661014,0.7687020283728597,0.00040384872684686617,0.0003238200053254222,0.00035272349595927315,-0.0002964746100029802,0.00024279871495721465,0.00021833829859152615,-0.0005900268918377017,0.0,0.0,0.0,0.0,0.0,0.0,0.0,-0.0001646518864129587,0.0001433704927032431,7.723161212186413e-05,0.00011761096703599705,7.487750185039554e-05,-4.010566843604124e-05,-4.75657766050297e-05,-0.00040384872684686617,-0.0003238200053254222,-0.00035272349595927315,0.0002964746100029802,-0.00024279871495721465,-0.00021833829859152615,0.0005900268918377017,0.24825400114059448,13.488611221313477,-0.3705780804157257,-18.321260452270508,-0.5578513741493225,-2.2946200370788574,0.21457235515117645,0
51,0.24887609481811523,-0.22445029020309448,-13.464807510375977,0.3705780804157257,18.297456741333008,0.5642600655555725,2.3010287284851074,-0.24112264811992645,0.0,0.0,0.0,0.0,0.0,0.0,0.0,-0.23199453178801738,0.4433672318875451,-0.030679627693862625,0.5754525357347423,0.13476703515685926,0.08865132972060531,-0.22573880637425897,0.07181883640352046,-0.33434175185336584,-0.12042090012560114,-2.8748842765741176,-0.06460494441395788,2.5182005507681113,0.7687525442358519,0.07165585495296277,-0.33419673383382315,-0.1203439052763738,-2.874768336042937,-0.06453255302590709,2.518161157661014,0.7687020283728597,0.0001283714813786088,-0.00029618866516615893,0.00022111890119636836,-3.71511978320808e-05,4.979030349501436e-05,0.0001432577894013236,0.0005098986989267647,0.0,0.0,0.0,0.0,0.0,0.0,0.0,-0.00016298145055769486,0.00014501801954269755,7.699484922733812e-05,0.00011594053118058056,7.239138805079093e-05,-3.939310709721866e-05,-5.051586299220645e-05,-0.0001283714813786088,0.00029618866516615893,-0.00022111890119636836,3.71511978320808e-05,-4.979030349501436e-05,-0.0001432577894013236,-0.0005098986989267647,0.22445029020309448,13.464807510375977,-0.3705780804157257,-18.297456741333008,-0.5642600655555725,-2.3010287284851074,0.24112264811992645,0
52,0.2538759708404541,-0.22445029020309448,-13.464807510375977,0.3705780804157257,18.297456741333008,0.5642600655555725,2.3010287284851074,-0.24112264811992645,0.0,0.0,0.0,0.0,0.0,0.0,0.0,-0.23199453178801738,0.4433672318875451,-0.030679627693862625,0.5754525357347423,0.13476703515685926,0.08865132972060531,-0.22573880637425897,0.07181883640352046,-0.33434175185336584,-0.12042090012560114,-2.8748842765741176,-0.06460494441395788,2.5182005507681113,0.7687525442358519,0.07165585495296277,-0.33419673383382315,-0.1203439052763738,-2.874768336042937,-0.06453255302590709,2.518161157661014,0.7687020283728597,0.0001283714813786088,-0.00029618866516615893,0.00022111890119636836,-3.71511978320808e-05,4.979030349501436e-05,0.0001432577894013236,0.0005098986989267647,0.0,0.0,0.0,0.0,0.0,0.0,0.0,-0.00016298145055769486,0.00014501801954269755,7.699484922733812e-05,0.00011594053118058056,7.239138805079093e-05,-3.939310709721866e-05,-5.051586299220645e-05,-0.0001283714813786088,0.00029618866516615893,-0.00022111890119636836,3.71511978320808e-05,-4.979030349501436e-05,-0.0001432577894013236,-0.0005098986989267647,0.22445029020309448,13.464807510375977,-0.3705780804157257,-18.297456741333008,-0.5642600655555725,-2.3010287284851074,0.24112264811992645,0
53,0.25887465476989746,-0.22445029020309448,-13.464807510375977,0.3983490765094757,18.345064163208008,0.5642600655555725,2.2946200370788574,-0.20724813640117645,0.0,0.0,0.0,0.0,0.0,0.0,0.0,-0.2337298115568129,0.4441826228396301,-0.033869850048579654,0.5782681186916433,0.13512899133022463,0.08957392209981961,-0.2248468385366181,0.07181883640352046,-0.3343410607293368,-0.12042308572899027,-2.874887617445828,-0.06460494440793994,2.5182012628449333,0.7687487804012166,0.07165585495296277,-0.33419673383382315,-0.1203439052763738,-2.874768336042937,-0.06453255302590709,2.518161157661014,0.7687020283728597,-0.00011687697822373374,0.00047736108061731045,-0.0006700848116869552,-0.0005895286109220894,2.4026524448359984e-05,4.8763006093551276e-05,-0.0008428583780482221,0.0,0.0,0.0,0.0,0.0,0.0,0.0,-0.00016298145055769486,0.00014432689551363564,7.918045261647022e-05,0.00011928140289096945,7.239138203285478e-05,-4.010518391917017e-05,-4.675202835691117e-05,0.00011687697822373374,-0.00047736108061731045,0.0006700848116869552,0.0005895286109220894,-2.4026524448359984e-05,-4.8763006093551276e-05,0.0008428583780482221,0.22445029020309448,13.464807510375977,-0.3983490765094757,-18.345064163208008,-0.5642600655555725,-2.2946200370788574,0.20724813640117645,0
54,0.2647440433502197,-0.22445029020309448,-13.464807510375977,0.3983490765094757,18.345064163208008,0.5642600655555725,2.2946200370788574,-0.20724813640117645,0.0,0.0,0.0,0.0,0.0,0.0,0.0,-0.2337298115568129,0.4441826228396301,-0.033869850048579654,0.5782681186916433,0.13512899133022463,0.08957392209981961,-0.2248468385366181,0.07181883640352046,-0.3343410607293368,-0.12042308572899027,-2.874887617445828,-0.06460494440793994,2.5182012628449333,0.7687487804012166,0.07165585495296277,-0.33419673383382315,-0.1203439052763738,-2.874768336042937,-0.06453255302590709,2.518161157661014,0.7687020283728597,-0.00011687697822373374,0.00047736108061731045,-0.0006700848116869552,-0.0005895286109220894,2.4026524448359984e-05,4.8763006093551276e-05,-0.0008428583780482221,0.0,0.0,0.0,0.0,0.0,0.0,0.0,-0.00016298145055769486,0.00014432689551363564,7.918045261647022e-05,0.00011928140289096945,7.239138203285478e-05,-4.010518391917017e-05,-4.675202835691117e-05,0.00011687697822373374,-0.00047736108061731045,0.0006700848116869552,0.0005895286109220894,-2.4026524448359984e-05,-4.8763006093551276e-05,0.0008428583780482221,0.22445029020309448,13.464807510375977,-0.3983490765094757,-18.345064163208008,-0.5642600655555725,-2.2946200370788574,0.20724813640117645,0
55,0.2688775062561035,-0.22445029020309448,-13.488611221313477,0.3705780804157257,18.321260452270508,0.5697532296180725,2.3010287284851074,-0.26217979192733765,0.0,0.0,0.0,0.0,0.0,0.0,0.0,-0.23182003526835804,0.4448823688558227,-0.03358031601818378,0.5760910413971371,0.13499545352817405,0.08778570312141326,-0.2246899932431443,0.07181883640352046,-0.33434010767383443,-0.12042113688849566,-2.874885947009973,-0.06460874857505162,2.5182005512526273,0.7687548839184973,0.07165585495296277,-0.33419673383382315,-0.1203439052763738,-2.874768336042937,-0.06453255302590709,2.518161157661014,0.7687020283728597,0.00025841010441916075,0.0005481697175902491,-2.533700971160536e-06,-0.00026933482081626335,-0.00015261182969418123,-0.0001611998070320427,0.0010159421715468793,0.0,0.0,0.0,0.0,0.0,0.0,0.0,-0.00016298145055769486,0.00014337384001128495,7.723161212186413e-05,0.00011761096703599705,7.619554914453652e-05,-3.939359161320155e-05,-5.285554563760897e-05,-0.00025841010441916075,-0.0005481697175902491,2.533700971160536e-06,0.00026933482081626335,0.00015261182969418123,0.0001611998070320427,-0.0010159421715468793,0.22445029020309448,13.488611221313477,-0.3705780804157257,-18.321260452270508,-0.5697532296180725,-2.3010287284851074,0.26217979192733765,0
56,0.27477169036865234,-0.22445029020309448,-13.488611221313477,0.3705780804157257,18.321260452270508,0.5697532296180725,2.3010287284851074,-0.26217979192733765,0.0,0.0,0.0,0.0,0.0,0.0,0.0,-0.23182003526835804,0.4448823688558227,-0.03358031601818378,0.5760910413971371,0.13499545352817405,0.08778570312141326,-0.2246899932431443,0.07181883640352046,-0.33434010767383443,-0.12042113688849566,-2.874885947009973,-0.06460874857505162,2.5182005512526273,0.7687548839184973,0.07165585495296277,-0.33419673383382315,-0.1203439052763738,-2.874768336042937,-0.06453255302590709,2.518161157661014,0.7687020283728597,0.00025841010441916075,0.0005481697175902491,-2.533700971160536e-06,-0.00026933482081626335,-0.00015261182969418123,-0.0001611998070320427,0.0010159421715468793,0.0,0.0,0.0,0.0,0.0,0.0,0.0,-0.00016298145055769486,0.00014337384001128495,7.723161212186413e-05,0.00011761096703599705,7.619554914453652e-05,-3.939359161320155e-05,-5.285554563760897e-05,-0.00025841010441916075,-0.0005481697175902491,2.533700971160536e-06,0.00026933482081626335,0.00015261182969418123,0.0001611998070320427,-0.0010159421715468793,0.22445029020309448,13.488611221313477,-0.3705780804157257,-18.321260452270508,-0.5697532296180725,-2.3010287284851074,0.26217979192733765,0
57,0.27884769439697266,-0.24825400114059448,-13.437036514282227,0.3229706585407257,18.321260452270508,0.5642600655555725,2.3010287284851074,-0.20083944499492645,0.0,0.0,0.0,0.0,0.0,0.0,0.0,-0.2312682209121848,0.4427332374723865,-0.03308986853168063,0.5802002002862637,0.1353122477338409,0.0883701116548397,-0.2263240154034994,0.07182050683937573,-0.33434369779101886,-0.12041779601678514,-2.874885947009973,-0.06460529929436344,2.518200550768113,0.768748063963743,0.07165585495296277,-0.33419673383382315,-0.1203439052763738,-2.874768336042937,-0.06453255302590709,2.518161157661014,0.7687020283728597,0.0005106143332386775,-0.000922554762037803,0.0015251756654522974,-3.7789785685256255e-05,0.0001505143128621925,-0.0002219861251081938,-0.0012755578329751173,0.0,0.0,0.0,0.0,0.0,0.0,0.0,-0.0001646518864129587,0.00014696395719571154,7.389074041133648e-05,0.00011761096703599705,7.27462684563529e-05,-3.939310709899502e-05,-4.603559088323106e-05,-0.0005106143332386775,0.000922554762037803,-0.0015251756654522974,3.7789785685256255e-05,-0.0001505143128621925,0.0002219861251081938,0.0012755578329751173,0.24825400114059448,13.437036514282227,-0.3229706585407257,-18.321260452270508,-0.5642600655555725,-2.3010287284851074,0.20083944499492645,0
58,0.28388476371765137,-0.24825400114059448,-13.437036514282227,0.3229706585407257,18.321260452270508,0.5642600655555725,2.3010287284851074,-0.20083944499492645,0.0,0.0,0.0,0.0,0.0,0.0,0.0,-0.2312682209121848,0.4427332374723865,-0.03308986853168063,0.5802002002862637,0.1353122477338409,0.0883701116548397,-0.2263240154034994,0.07182050683937573,-0.33434369779101886,-0.12041779601678514,-2.874885947009973,-0.06460529929436344,2.518200550768113,0.768748063963743,0.07165585495296277,-0.33419673383382315,-0.1203439052763738,-2.874768336042937,-0.06453255302590709,2.518161157661014,0.7687020283728597,0.0005106143332386775,-0.000922554762037803,0.0015251756654522974,-3.7789785685256255e-05,0.0001505143128621925,-0.0002219861251081938,-0.0012755578329751173,0.0,0.0,0.0,0.0,0.0,0.0,0.0,-0.0001646518864129587,0.00014696395719571154,7.389074041133648e-05,0.00011761096703599705,7.27462684563529e-05,-3.939310709899502e-05,-4.603559088323106e-05,-0.0005106143332386775,0.000922554762037803,-0.0015251756654522974,3.7789785685256255e-05,-0.0001505143128621925,0.0002219861251081938,0.0012755578329751173,0.24825400114059448,13.437036514282227,-0.3229706585407257,-18.321260452270508,-0.5642600655555725,-2.3010287284851074,0.20083944499492645,0
59,0.28969812393188477,-0.19667929410934448,-13.437036514282227,0.3705780804157257,18.368867874145508,0.5697532296180725,2.3010287284851074,-0.20724813640117645,0.0,0.0,0.0,0.0,0.0,0.0,0.0,-0.23220180469341364,0.44566342856219077,-0.03218436267961901,0.5766593830946126,0.1355364444960112,0.08718720083291748,-0.22564937682757646,0.07181688756168933,-0.33434372695270603,-0.12042113688849566,-2.8748892054653847,-0.06460555492376839,2.5182005507681104,0.7687486626636221,0.07165585495296277,-0.33419673383382315,-0.1203439052763738,-2.874768336042937,-0.06453255302590709,2.518161157661014,0.7687020283728597,-0.0011916965118768119,-0.0007597373775286753,0.0005340651653263549,-0.0013280763393509595,-5.688771966083664e-05,8.013882847177112e-05,-0.0013824240759202956,0.0,0.0,0.0,0.0,0.0,0.0,0.0,-0.00016103260872656067,0.00014699311888288769,7.723161212186413e-05,0.00012086942244771137,7.300189786130229e-05,-3.939310709633048e-05,-4.6634290762348485e-05,0.0011916965118768119,0.0007597373775286753,-0.0005340651653263549,0.0013280763393509595,5.688771966083664e-05,-8.013882847177112e-05,0.0013824240759202956,0.19667929410934448,13.437036514282227,-0.3705780804157257,-18.368867874145508,-0.5697532296180725,-2.3010287284851074,0.20724813640117645,0
60,0.29387450218200684,-0.19667929410934448,-13.437036514282227,0.3705780804157257,18.368867874145508,0.5697532296180725,2.3010287284851074,-0.20724813640117645,0.0,0.0,0.0,0.0,0.0,0.0,0.0,-0.23220180469341364,0.44566342856219077,-0.03218436267961901,0.5766593830946126,0.1355364444960112,0.08718720083291748,-0.22564937682757646,0.07181688756168933,-0.33434372695270603,-0.12042113688849566,-2.8748892054653847,-0.06460555492376839,2.5182005507681104,0.7687486626636221,0.07165585495296277,-0.33419673383382315,-0.1203439052763738,-2.874768336042937,-0.06453255302590709,2.518161157661014,0.7687020283728597,-0.0011916965118768119,-0.0007597373775286753,0.0005340651653263549,-0.0013280763393509595,-5.688771966083664e-05,8.013882847177112e-05,-0.0013824240759202956,0.0,0.0,0.0,0.0,0.0,0.0,0.0,-0.00016103260872656067,0.00014699311888288769,7.723161212186413e-05,0.00012086942244771137,7.300189786130229e-05,-3.939310709633048e-05,-4.6634290762348485e-05,0.0011916965118768119,0.0007597373775286753,-0.0005340651653263549,0.0013280763393509595,5.688771966083664e-05,-8.013882847177112e-05,0.0013824240759202956,0.19667929410934448,13.437036514282227,-0.3705780804157257,-18.368867874145508,-0.5697532296180725,-2.3010287284851074,0.20724813640117645,0
61,0.2988777160644531,-0.24825400114059448,-13.488611221313477,0.3983490765094757,18.269685745239258,0.5697532296180725,2.2882113456726074,-0.22830526530742645,0.0,0.0,0.0,0.0,0.0,0.0,0.0,-0.23264689995910176,0.4452988321330601,-0.031249443393982397,0.5752181007725781,0.1357739978235412,0.08717819617860158,-0.22721543048862192,0.07182050683937573,-0.33433795553052065,-0.1204230857303268,-2.8748823277318216,-0.06460555475950333,2.518201974921756,0.7687511200815416,0.07165585495296277,-0.33419673383382315,-0.1203439052763738,-2.874768336042937,-0.06453255302590709,2.518161157661014,0.7687020283728597,0.0003427078993149656,0.00042678833999551394,-0.0004619658125391834,0.00032509450216729755,-0.00028881981718761337,0.0005335882648640194,0.00032388406883393934,0.0,0.0,0.0,0.0,0.0,0.0,0.0,-0.0001646518864129587,0.00014122169669750217,7.918045395299833e-05,0.00011399168888459599,7.30017335962424e-05,-4.0817260742009864e-05,-4.909170868183654e-05,-0.0003427078993149656,-0.00042678833999551394,0.0004619658125391834,-0.00032509450216729755,0.00028881981718761337,-0.0005335882648640194,-0.00032388406883393934,0.24825400114059448,13.488611221313477,-0.3983490765094757,-18.269685745239258,-0.5697532296180725,-2.2882113456726074,0.22830526530742645,0
62,0.3038811683654785,-0.24825400114059448,-13.488611221313477,0.3983490765094757,18.269685745239258,0.5697532296180725,2.2882113456726074,-0.22830526530742645,0.0,0.0,0.0,0.0,0.0,0.0,0.0,-0.23264689995910176,0.4452988321330601,-0.031249443393982397,0.5752181007725781,0.1357739978235412,0.08717819617860158,-0.22721543048862192,0.07182050683937573,-0.33433795553052065,-0.1204230857303268,-2.8748823277318216,-0.06460555475950333,2.518201974921756,0.7687511200815416,0.07165585495296277,-0.33419673383382315,-0.1203439052763738,-2.874768336042937,-0.06453255302590709,2.518161157661014,0.7687020283728597,0.0003427078993149656,0.00042678833999551394,-0.0004619658125391834,0.00032509450216729755,-0.00028881981718761337,0.0005335882648640194,0.00032388406883393934,0.0,0.0,0.0,0.0,0.0,0.0,0.0,-0.0001646518864129587,0.00014122169669750217,7.918045395299833e-05,0.00011399168888459599,7.30017335962424e-05,-4.0817260742009864e-05,-4.909170868183654e-05,-0.0003427078993149656,-0.00042678833999551394,0.0004619658125391834,-0.00032509450216729755,0.00028881981718761337,-0.0005335882648640194,-0.00032388406883393934,0.24825400114059448,13.488611221313477,-0.3983490765094757,-18.269685745239258,-0.5697532296180725,-2.2882113456726074,0.22830526530742645,0
63,0.30887675285339355,-0.24825400114059448,-13.488611221313477,0.3983490765094757,18.297456741333008,0.5697532296180725,2.3010287284851074,-0.22098104655742645,0.0,0.0,0.0,0.0,0.0,0.0,0.0,-0.23561215747463438,0.44708739955332316,-0.03418547346030328,0.575258153195718,0.13591500075563379,0.08793096197837545,-0.22519703514841863,0.07182050683937573,-0.33434010723100793,-0.1204230857303268,-2.8748842765741176,-0.06460555475950241,2.5182006685056804,0.7687503062801229,0.07165585495296277,-0.33419673383382315,-0.1203439052763738,-2.874768336042937,-0.06453255302590709,2.518161157661014,0.7687020283728597,-0.00010631466938505212,0.0007974969723177881,-0.000328202900599138,-0.00013329381579102093,-0.00021765308402753214,-0.00011242422248228254,0.00011228479551236074,0.0,0.0,0.0,0.0,0.0,0.0,0.0,-0.0001646518864129587,0.00014337339718478725,7.918045395299833e-05,0.00011594053118058056,7.300173359532647e-05,-3.9510844666246214e-05,-4.8277907263138964e-05,0.00010631466938505212,-0.0007974969723177881,0.000328202900599138,0.00013329381579102093,0.00021765308402753214,0.00011242422248228254,-0.00011228479551236074,0.24825400114059448,13.488611221313477,-0.3983490765094757,-18.297456741333008,-0.5697532296180725,-2.3010287284851074,0.22098104655742645,0
64,0.3138761520385742,-0.24825400114059448,-13.488611221313477,0.3983490765094757,18.297456741333008,0.5697532296180725,2.3010287284851074,-0.22098104655742645,0.0,0.0,0.0,0.0,0.0,0.0,0.0,-0.23561215747463438,0.44708739955332316,-0.03418547346030328,0.575258153195718,0.13591500075563379,0.08793096197837545,-0.22519703514841863,0.07182050683937573,-0.33434010723100793,-0.1204230857303268,-2.8748842765741176,-0.06460555475950241,2.5182006685056804,0.7687503062801229,0.07165585495296277,-0.33419673383382315,-0.1203439052763738,-2.874768336042937,-0.06453255302590709,2.518161157661014,0.7687020283728597,-0.00010631466938505212,0.0007974969723177881,-0.000328202900599138,-0.00013329381579102093,-0.00021765308402753214,-0.00011242422248228254,0.00011228479551236074,0.0,0.0,0.0,0.0,0.0,0.0,0.0,-0.0001646518864129587,0.00014337339718478725,7.918045395299833e-05,0.00011594053118058056,7.300173359532647e-05,-3.9510844666246214e-05,-4.8277907263138964e-05,0.00010631466938505212,-0.0007974969723177881,0.000328202900599138,0.00013329381579102093,0.00021765308402753214,0.00011242422248228254,-0.00011228479551236074,0.24825400114059448,13.488611221313477,-0.3983490765094757,-18.297456741333008,-0.5697532296180725,-2.3010287284851074,0.22098104655742645,0
65,0.3188765048980713,-0.22445029020309448,-13.437036514282227,0.3983490765094757,18.269685745239258,0.5642600655555725,2.3138461112976074,-0.20724813640117645,0.0,0.0,0.0,0.0,0.0,0.0,0.0,-0.23583671893611774,0.44426556595585964,-0.031910464648769246,0.5738702900135415,0.13580109054222467,0.08830656014883702,-0.22434000426959586,0.07181886271050875,-0.3343434894457862,-0.1204230857303268,-2.8748823277322866,-0.0646049838377615,2.5181991266151296,0.7687487804012166,0.07165585495296277,-0.33419673383382315,-0.1203439052763738,-2.874768336042937,-0.06453255302590709,2.518161157661014,0.7687020283728597,-0.00027319933942093614,-0.0006446421268240263,-0.0006775230860319015,0.0006873003139209881,9.42664672533919e-05,-0.0006831966952327962,-0.0011922394371958584,0.0,0.0,0.0,0.0,0.0,0.0,0.0,-0.00016300775754597707,0.00014675561196303422,7.918045395299833e-05,0.00011399168934955739,7.243081185441536e-05,-3.796895411545265e-05,-4.675202835691117e-05,0.00027319933942093614,0.0006446421268240263,0.0006775230860319015,-0.0006873003139209881,-9.42664672533919e-05,0.0006831966952327962,0.0011922394371958584,0.22445029020309448,13.437036514282227,-0.3983490765094757,-18.269685745239258,-0.5642600655555725,-2.3138461112976074,0.20724813640117645,0
66,0.32387447357177734,-0.22445029020309448,-13.437036514282227,0.3983490765094757,18.269685745239258,0.5642600655555725,2.3138461112976074,-0.20724813640117645,0.0,0.0,0.0,0.0,0.0,0.0,0.0,-0.23583671893611774,0.44426556595585964,-0.031910464648769246,0.5738702900135415,0.13580109054222467,0.08830656014883702,-0.22434000426959586,0.07181886271050875,-0.3343434894457862,-0.1204230857303268,-2.8748823277322866,-0.0646049838377615,2.5181991266151296,0.7687487804012166,0.07165585495296277,-0.33419673383382315,-0.1203439052763738,-2.874768336042937,-0.06453255302590709,2.518161157661014,0.7687020283728597,-0.00027319933942093614,-0.0006446421268240263,-0.0006775230860319015,0.0006873003139209881,9.42664672533919e-05,-0.0006831966952327962,-0.0011922394371958584,0.0,0.0,0.0,0.0,0.0,0.0,0.0,-0.00016300775754597707,0.00014675561196303422,7.918045395299833e-05,0.00011399168934955739,7.243081185441536e-05,-3.796895411545265e-05,-4.675202835691117e-05,0.00027319933942093614,0.0006446421268240263,0.0006775230860319015,-0.0006873003139209881,-9.42664672533919e-05,0.0006831966952327962,0.0011922394371958584,0.22445029020309448,13.437036514282227,-0.3983490765094757,-18.269685745239258,-0.5642600655555725,-2.3138461112976074,0.20724813640117645,0
67,0.32887887954711914,-0.24825400114059448,-13.437036514282227,0.4221527874469757,18.297456741333008,0.5697532296180725,2.2946200370788574,-0.22098104655742645,0.0,0.0,0.0,0.0,0.0,0.0,0.0,-0.23784666038864785,0.4437562222217516,-0.03525140882841478,0.5754332351540216,0.1358864749684143,0.08874401016841903,-0.22418791499904636,0.07182053314651252,-0.33434372403534474,-0.12042475616618206,-2.8748842765741176,-0.06460555475972499,2.5182012628449333,0.7687503061186173,0.07165585495296277,-0.33419673383382315,-0.1203439052763738,-2.874768336042937,-0.06453255302590709,2.518161157661014,0.7687020283728597,-6.136774984433019e-05,-0.0008998143834486705,-0.0012523860091303539,0.00018932853241008184,-0.00013436929445756002,-3.781703683836316e-05,0.0004082379057662796,0.0,0.0,0.0,0.0,0.0,0.0,0.0,-0.0001646781935497471,0.0001469902015215907,8.085088980826216e-05,0.00011594053118058056,7.300173381789843e-05,-4.010518391917017e-05,-4.827774575755228e-05,6.136774984433019e-05,0.0008998143834486705,0.0012523860091303539,-0.00018932853241008184,0.00013436929445756002,3.781703683836316e-05,-0.0004082379057662796,0.24825400114059448,13.437036514282227,-0.4221527874469757,-18.297456741333008,-0.5697532296180725,-2.2946200370788574,0.22098104655742645,0
68,0.3346860408782959,-0.24825400114059448,-13.437036514282227,0.4221527874469757,18.297456741333008,0.5697532296180725,2.2946200370788574,-0.22098104655742645,0.0,0.0,0.0,0.0,0.0,0.0,0.0,-0.23784666038864785,0.4437562222217516,-0.03525140882841478,0.5754332351540216,0.1358864749684143,0.08874401016841903,-0.22418791499904636,0.07182053314651252,-0.33434372403534474,-0.12042475616618206,-2.8748842765741176,-0.06460555475972499,2.5182012628449333,0.7687503061186173,0.07165585495296277,-0.33419673383382315,-0.1203439052763738,-2.874768336042937,-0.06453255302590709,2.518161157661014,0.7687020283728597,-6.136774984433019e-05,-0.0008998143834486705,-0.0012523860091303539,0.00018932853241008184,-0.00013436929445756002,-3.781703683836316e-05,0.0004082379057662796,0.0,0.0,0.0,0.0,0.0,0.0,0.0,-0.0001646781935497471,0.0001469902015215907,8.085088980826216e-05,0.00011594053118058056,7.300173381789843e-05,-4.010518391917017e-05,-4.827774575755228e-05,6.136774984433019e-05,0.0008998143834486705,0.0012523860091303539,-0.00018932853241008184,0.00013436929445756002,3.781703683836316e-05,-0.0004082379057662796,0.24825400114059448,13.437036514282227,-0.4221527874469757,-18.297456741333008,-0.5697532296180725,-2.2946200370788574,0.22098104655742645,0
69,0.3388848304748535,-0.24825400114059448,-13.488611221313477,0.3983490765094757,18.297456741333008,0.5642600655555725,2.3010287284851074,-0.25485557317733765,0.0,0.0,0.0,0.0,0.0,0.0,0.0,-0.23673575568079097,0.4466452625673081,-0.03305129085118702,0.5723105294316,0.13533966707829273,0.08751557245820324,-0.22258055393599305,0.07182050683952423,-0.3343401076751678,-0.1204230857303268,-2.8748842765741176,-0.06460494457020255,2.5182005507681104,0.7687540701164131,0.07165585495296277,-0.33419673383382315,-0.1203439052763738,-2.874768336042937,-0.06453255302590709,2.518161157661014,0.7687020283728597,0.0005027431792396741,0.0006334465066311375,-0.00033843480473428705,9.972922669431576e-05,5.25734631763738e-05,0.00010938487012177056,0.00088020676675835,0.0,0.0,0.0,0.0,0.0,0.0,0.0,-0.0001646518865614649,0.0001433738413446628,7.918045395299833e-05,0.00011594053118058056,7.239154429546091e-05,-3.939310709633048e-05,-5.204174355333269e-05,-0.0005027431792396741,-0.0006334465066311375,0.00033843480473428705,-9.972922669431576e-05,-5.25734631763738e-05,-0.00010938487012177056,-0.00088020676675835,0.24825400114059448,13.488611221313477,-0.3983490765094757,-18.297456741333008,-0.5642600655555725,-2.3010287284851074,0.25485557317733765,0
70,0.3438384532928467,-0.24825400114059448,-13.488611221313477,0.3983490765094757,18.297456741333008,0.5642600655555725,2.3010287284851074,-0.25485557317733765,0.0,0.0,0.0,0.0,0.0,0.0,0.0,-0.23673575568079097,0.4466452625673081,-0.03305129085118702,0.5723105294316,0.13533966707829273,0.08751557245820324,-0.22258055393599305,0.07182050683952423,-0.3343401076751678,-0.1204230857303268,-2.8748842765741176,-0.06460494457020255,2.5182005507681104,0.7687540701164131,0.07165585495296277,-0.33419673383382315,-0.1203439052763738,-2.874768336042937,-0.06453255302590709,2.518161157661014,0.7687020283728597,0.0005027431792396741,0.0006334465066311375,-0.00033843480473428705,9.972922669431576e-05,5.25734631763738e-05,0.00010938487012177056,0.00088020676675835,0.0,0.0,0.0,0.0,0.0,0.0,0.0,-0.0001646518865614649,0.0001433738413446628,7.918045395299833e-05,0.00011594053118058056,7.239154429546091e-05,-3.939310709633048e-05,-5.204174355333269e-05,-0.0005027431792396741,-0.0006334465066311375,0.00033843480473428705,-9.972922669431576e-05,-5.25734631763738e-05,-0.00010938487012177056,-0.00088020676675835,0.24825400114059448,13.488611221313477,-0.3983490765094757,-18.297456741333008,-0.5642600655555725,-2.3010287284851074,0.25485557317733765,0
71,0.3489208221435547,-0.24825400114059448,-13.488611221313477,0.3983490765094757,18.297456741333008,0.5642600655555725,2.3010287284851074,-0.25485557317733765,0.0,0.0,0.0,0.0,0.0,0.0,0.0,-0.23673575568079097,0.4466452625673081,-0.03305129085118702,0.5723105294316,0.13533966707829273,0.08751557245820324,-0.22258055393599305,0.07182050683952423,-0.3343401076751678,-0.1204230857303268,-2.8748842765741176,-0.06460494457020255,2.5182005507681104,0.7687540701164131,0.07165585495296277,-0.33419673383382315,-0.1203439052763738,-2.874768336042937,-0.06453255302590709,2.518161157661014,0.7687020283728597,0.0005027431792396741,0.0006334465066311375,-0.00033843480473428705,9.972922669431576e-05,5.25734631763738e-05,0.00010938487012177056,0.00088020676675835,0.0,0.0,0.0,0.0,0.0,0.0,0.0,-0.0001646518865614649,0.0001433738413446628,7.918045395299833e-05,0.00011594053118058056,7.239154429546091e-05,-3.939310709633048e-05,-5.204174355333269e-05,-0.0005027431792396741,-0.0006334465066311375,0.00033843480473428705,-9.972922669431576e-05,-5.25734631763738e-05,-0.00010938487012177056,-0.00088020676675835,0.24825400114059448,13.488611221313477,-0.3983490765094757,-18.297456741333008,-0.5642600655555725,-2.3010287284851074,0.25485557317733765,0
72,0.3538782596588135,-0.24825400114059448,-13.488611221313477,0.3983490765094757,18.297456741333008,0.5642600655555725,2.3010287284851074,-0.25485557317733765,0.0,0.0,0.0,0.0,0.0,0.0,0.0,-0.23673575568079097,0.4466452625673081,-0.03305129085118702,0.5723105294316,0.13533966707829273,0.08751557245820324,-0.22258055393599305,0.07182050683952423,-0.3343401076751678,-0.1204230857303268,-2.8748842765741176,-0.06460494457020255,2.5182005507681104,0.7687540701164131,0.07165585495296277,-0.33419673383382315,-0.1203439052763738,-2.874768336042937,-0.06453255302590709,2.518161157661014,0.7687020283728597,0.0005027431792396741,0.0006334465066311375,-0.00033843480473428705,9.972922669431576e-05,5.25734631763738e-05,0.00010938487012177056,0.00088020676675835,0.0,0.0,0.0,0.0,0.0,0.0,0.0,-0.0001646518865614649,0.0001433738413446628,7.918045395299833e-05,0.00011594053118058056,7.239154429546091e-05,-3.939310709633048e-05,-5.204174355333269e-05,-0.0005027431792396741,-0.0006334465066311375,0.00033843480473428705,-9.972922669431576e-05,-5.25734631763738e-05,-0.00010938487012177056,-0.00088020676675835,0.24825400114059448,13.488611221313477,-0.3983490765094757,-18.297456741333008,-0.5642600655555725,-2.3010287284851074,0.25485557317733765,0
73,0.358875036239624,-0.24825400114059448,-13.488611221313477,0.3983490765094757,18.297456741333008,0.5642600655555725,2.3010287284851074,-0.25485557317733765,0.0,0.0,0.0,0.0,0.0,0.0,0.0,-0.23673575568079097,0.4466452625673081,-0.03305129085118702,0.5723105294316,0.13533966707829273,0.08751557245820324,-0.22258055393599305,0.07182050683952423,-0.3343401076751678,-0.1204230857303268,-2.8748842765741176,-0.06460494457020255,2.5182005507681104,0.7687540701164131,0.07165585495296277,-0.33419673383382315,-0.1203439052763738,-2.874768336042937,-0.06453255302590709,2.518161157661014,0.7687020283728597,0.0005027431792396741,0.0006334465066311375,-0.00033843480473428705,9.972922669431576e-05,5.25734631763738e-05,0.00010938487012177056,0.00088020676675835,0.0,0.0,0.0,0.0,0.0,0.0,0.0,-0.0001646518865614649,0.0001433738413446628,7.918045395299833e-05,0.00011594053118058056,7.239154429546091e-05,-3.939310709633048e-05,-5.204174355333269e-05,-0.0005027431792396741,-0.0006334465066311375,0.00033843480473428705,-9.972922669431576e-05,-5.25734631763738e-05,-0.00010938487012177056,-0.00088020676675835,0.24825400114059448,13.488611221313477,-0.3983490765094757,-18.297456741333008,-0.5642600655555725,-2.3010287284851074,0.25485557317733765,0
74,0.3638741970062256,-0.19667929410934448,-13.488611221313477,0.3983490765094757,18.297456741333008,0.5578513741493225,2.2946200370788574,-0.24112264811992645,0.0,0.0,0.0,0.0,0.0,0.0,0.0,-0.23581990223145466,0.44331406670675017,-0.0317443429656763,0.5740950120543766,0.1349614034770917,0.08812290183244138,-0.22525077551364225,0.07181688756168934,-0.33433979268984904,-0.1204230857303268,-2.8748842765741176,-0.06460423233111699,2.5182012628449333,0.768752544235852,0.07165585495296277,-0.33419673383382315,-0.1203439052763738,-2.874768336042937,-0.06453255302590709,2.518161157661014,0.7687020283728597,-0.0007919483147939907,0.00043221940835929854,-0.0007536633763992532,8.584437977949297e-05,0.00018153409197421642,0.00017059860675765125,0.0005971358756270074,0.0,0.0,0.0,0.0,0.0,0.0,0.0,-0.00016103260872657454,0.00014305885602589052,7.918045395299833e-05,0.00011594053118058056,7.167930520990407e-05,-4.010518391917017e-05,-5.051586299231747e-05,0.0007919483147939907,-0.00043221940835929854,0.0007536633763992532,-8.584437977949297e-05,-0.00018153409197421642,-0.00017059860675765125,-0.0005971358756270074,0.19667929410934448,13.488611221313477,-0.3983490765094757,-18.297456741333008,-0.5578513741493225,-2.2946200370788574,0.24112264811992645,0
75,0.36888909339904785,-0.19667929410934448,-13.488611221313477,0.3983490765094757,18.297456741333008,0.5578513741493225,2.2946200370788574,-0.24112264811992645,0.0,0.0,0.0,0.0,0.0,0.0,0.0,-0.23581990223145466,0.44331406670675017,-0.0317443429656763,0.5740950120543766,0.1349614034770917,0.08812290183244138,-0.22525077551364225,0.07181688756168934,-0.33433979268984904,-0.1204230857303268,-2.8748842765741176,-0.06460423233111699,2.5182012628449333,0.768752544235852,0.07165585495296277,-0.33419673383382315,-0.1203439052763738,-2.874768336042937,-0.06453255302590709,2.518161157661014,0.7687020283728597,-0.0007919483147939907,0.00043221940835929854,-0.0007536633763992532,8.584437977949297e-05,0.00018153409197421642,0.00017059860675765125,0.0005971358756270074,0.0,0.0,0.0,0.0,0.0,0.0,0.0,-0.00016103260872657454,0.00014305885602589052,7.918045395299833e-05,0.00011594053118058056,7.167930520990407e-05,-4.010518391917017e-05,-5.051586299231747e-05,0.0007919483147939907,-0.00043221940835929854,0.0007536633763992532,-8.584437977949297e-05,-0.00018153409197421642,-0.00017059860675765125,-0.0005971358756270074,0.19667929410934448,13.488611221313477,-0.3983490765094757,-18.297456741333008,-0.5578513741493225,-2.2946200370788574,0.24112264811992645,0
76,0.37387752532958984,-0.2720577120780945,-13.437036514282227,0.3983490765094757,18.297456741333008,0.5642600655555725,2.3010287284851074,-0.25485557317733765,0.0,0.0,0.0,0.0,0.0,0.0,0.0,-0.2318313461410408,0.442841416377668,-0.03272415392931125,0.5769402619346713,0.13446373607400577,0.088236705907242,-0.2266630657288593,0.0718221782495639,-0.33434349063208607,-0.1204230857303268,-2.8748842765741176,-0.06460494440793992,2.5182005508219456,0.768754070116414,0.07165585495296277,-0.33419673383382315,-0.1203439052763738,-2.874768336042937,-0.06453255302590709,2.518161157661014,0.7687020283728597,0.0010299550054919408,-0.0007956676155520303,-0.00017512774457681954,0.0003356510569926551,-1.708785686846784e-05,-0.00014096000340187053,0.00034084152842451415,0.0,0.0,0.0,0.0,0.0,0.0,0.0,-0.00016632329660112855,0.00014675679826292587,7.918045395299833e-05,0.00011594053118058056,7.239138203282702e-05,-3.9393160931489035e-05,-5.2041743554220865e-05,-0.0010299550054919408,0.0007956676155520303,0.00017512774457681954,-0.0003356510569926551,1.708785686846784e-05,0.00014096000340187053,-0.00034084152842451415,0.2720577120780945,13.437036514282227,-0.3983490765094757,-18.297456741333008,-0.5642600655555725,-2.3010287284851074,0.25485557317733765,0
77,0.3788719177246094,-0.2720577120780945,-13.437036514282227,0.3983490765094757,18.297456741333008,0.5642600655555725,2.3010287284851074,-0.25485557317733765,0.0,0.0,0.0,0.0,0.0,0.0,0.0,-0.2318313461410408,0.442841416377668,-0.03272415392931125,0.5769402619346713,0.13446373607400577,0.088236705907242,-0.2266630657288593,0.0718221782495639,-0.33434349063208607,-0.1204230857303268,-2.8748842765741176,-0.06460494440793992,2.5182005508219456,0.768754070116414,0.07165585495296277,-0.33419673383382315,-0.1203439052763738,-2.874768336042937,-0.06453255302590709,2.518161157661014,0.7687020283728597,0.0010299550054919408,-0.0007956676155520303,-0.00017512774457681954,0.0003356510569926551,-1.708785686846784e-05,-0.00014096000340187053,0.00034084152842451415,0.0,0.0,0.0,0.0,0.0,0.0,0.0,-0.00016632329660112855,0.00014675679826292587,7.918045395299833e-05,0.00011594053118058056,7.239138203282702e-05,-3.9393160931489035e-05,-5.2041743554220865e-05,-0.0010299550054919408,0.0007956676155520303,0.00017512774457681954,-0.0003356510569926551,1.708785686846784e-05,0.00014096000340187053,-0.00034084152842451415,0.2720577120780945,13.437036514282227,-0.3983490765094757,-18.297456741333008,-0.5642600655555725,-2.3010287284851074,0.25485557317733765,0
78,0.3838980197906494,-0.2720577120780945,-13.437036514282227,0.3983490765094757,18.297456741333008,0.5642600655555725,2.3010287284851074,-0.25485557317733765,0.0,0.0,0.0,0.0,0.0,0.0,0.0,-0.2318313461410408,0.442841416377668,-0.03272415392931125,0.5769402619346713,0.13446373607400577,0.088236705907242,-0.2266630657288593,0.0718221782495639,-0.33434349063208607,-0.1204230857303268,-2.8748842765741176,-0.06460494440793992,2.5182005508219456,0.768754070116414,0.07165585495296277,-0.33419673383382315,-0.1203439052763738,-2.874768336042937,-0.06453255302590709,2.518161157661014,0.7687020283728597,0.0010299550054919408,-0.0007956676155520303,-0.00017512774457681954,0.0003356510569926551,-1.708785686846784e-05,-0.00014096000340187053,0.00034084152842451415,0.0,0.0,0.0,0.0,0.0,0.0,0.0,-0.00016632329660112855,0.00014675679826292587,7.918045395299833e-05,0.00011594053118058056,7.239138203282702e-05,-3.9393160931489035e-05,-5.2041743554220865e-05,-0.0010299550054919408,0.0007956676155520303,0.00017512774457681954,-0.0003356510569926551,1.708785686846784e-05,0.00014096000340187053,-0.00034084152842451415,0.2720577120780945,13.437036514282227,-0.3983490765094757,-18.297456741333008,-0.5642600655555725,-2.3010287284851074,0.25485557317733765,0
79,0.3888893127441406,-0.2720577120780945,-13.437036514282227,0.3983490765094757,18.297456741333008,0.5642600655555725,2.3010287284851074,-0.25485557317733765,0.0,0.0,0.0,0.0,0.0,0.0,0.0,-0.2318313461410408,0.442841416377668,-0.03272415392931125,0.5769402619346713,0.13446373607400577,0.088236705907242,-0.2266630657288593,0.0718221782495639,-0.33434349063208607,-0.1204230857303268,-2.8748842765741176,-0.06460494440793992,2.5182005508219456,0.768754070116414,0.07165585495296277,-0.33419673383382315,-0.1203439052763738,-2.874768336042937,-0.06453255302590709,2.518161157661014,0.7687020283728597,0.0010299550054919408,-0.0007956676155520303,-0.00017512774457681954,0.0003356510569926551,-1.708785686846784e-05,-0.00014096000340187053,0.00034084152842451415,0.0,0.0,0.0,0.0,0.0,0.0,0.0,-0.00016632329660112855,0.00014675679826292587,7.918045395299833e-05,0.00011594053118058056,7.239138203282702e-05,-3.9393160931489035e-05,-5.2041743554220865e-05,-0.0010299550054919408,0.0007956676155520303,0.00017512774457681954,-0.0003356510569926551,1.708785686846784e-05,0.00014096000340187053,-0.00034084152842451415,0.2720577120780945,13.437036514282227,-0.3983490765094757,-18.297456741333008,-0.5642600655555725,-2.3010287284851074,0.25485557317733765,0
