rezayati/contactInterpretation/dataset/franka_main/labeled_data/link1/g1_3.csv
index,time,tau_J0,tau_J1,tau_J2,tau_J3,tau_J4,tau_J5,tau_J6,tau_J_d0,tau_J_d1,tau_J_d2,tau_J_d3,tau_J_d4,tau_J_d5,tau_J_d6,tau_ext0,tau_ext1,tau_ext2,tau_ext3,tau_ext4,tau_ext5,tau_ext6,q0,q1,q2,q3,q4,q5,q6,q_d0,q_d1,q_d2,q_d3,q_d4,q_d5,q_d6,dq0,dq1,dq2,dq3,dq4,dq5,dq6,dq_d0,dq_d1,dq_d2,dq_d3,dq_d4,dq_d5,dq_d6,e0,e1,e2,e3,e4,e5,e6,de0,de1,de2,de3,de4,de5,de6,etau_J0,etau_J1,etau_J2,etau_J3,etau_J4,etau_J5,etau_J6,label
1,0.0,-0.4505855441093445,-34.03915023803711,-3.7990386486053467,19.511445999145508,0.2667136788368225,1.783755898475647,-0.08365194499492645,0.0,0.0,0.0,0.0,0.0,0.0,0.0,-0.4123332668555684,0.06800392718673874,-0.24249036419703734,0.4648296482963099,0.2053499353990365,-0.11845742846057175,-0.10675700520682234,1.0544647274160766,0.3243113062800561,-0.3925156121002945,-2.153506026966595,0.8647472352343432,2.465992341558976,0.544486274930836,1.0544104758940245,0.3238615046091247,-0.39250456234122666,-2.153291787532338,0.8647539153680389,2.46587817577521,0.5445020185570556,0.0006334801317524853,0.000816223429675359,-0.0006114820752903918,-0.0007126791320275427,-0.00013431382323972116,0.00019800439516355495,-0.0010449961365578857,0.0,0.0,0.0,0.0,0.0,0.0,0.0,-5.42515220520734e-05,-0.00044980167093139345,1.104975906784933e-05,0.00021423943425702419,6.680133695757817e-06,-0.000114165783766218,1.574362621958869e-05,-0.0006334801317524853,-0.000816223429675359,0.0006114820752903918,0.0007126791320275427,0.00013431382323972116,-0.00019800439516355495,0.0010449961365578857,0.4505855441093445,34.03915023803711,3.7990386486053467,-19.511445999145508,-0.2667136788368225,-1.783755898475647,0.08365194499492645,0
2,0.004535675048828125,-0.4029781222343445,-34.03915023803711,-3.7990386486053467,19.487642288208008,0.2603049874305725,1.783755898475647,-0.07724325358867645,0.0,0.0,0.0,0.0,0.0,0.0,0.0,-0.4206169624593251,0.07218117694792413,-0.24687248588546354,0.45912686070150377,0.2056190263037608,-0.11797999200433971,-0.1077660674967015,1.0544611481244406,0.32431133543119184,-0.3925156121003,-2.1535043839902257,0.8647476289476981,2.4659881409628546,0.5444866123167275,1.0544104758940245,0.3238615046091247,-0.39250456234122666,-2.153291787532338,0.8647539153680389,2.46587817577521,0.5445020185570556,-0.00085142176646858,0.0009854101602137103,-5.208751261365937e-05,-0.0002689722141879667,-2.3149648232726196e-05,0.0002034206047385323,-0.0011344288241698583,0.0,0.0,0.0,0.0,0.0,0.0,0.0,-5.067223041610447e-05,-0.000449830822067121,1.1049759073344934e-05,0.0002125964578878481,6.286420340839705e-06,-0.00010996518764461172,1.5406240328141863e-05,0.00085142176646858,-0.0009854101602137103,5.208751261365937e-05,0.0002689722141879667,2.3149648232726196e-05,-0.0002034206047385323,0.0011344288241698583,0.4029781222343445,34.03915023803711,3.7990386486053467,-19.487642288208008,-0.2603049874305725,-1.783755898475647,0.07724325358867645,0
3,0.009538412094116211,-0.4029781222343445,-34.03915023803711,-3.7990386486053467,19.487642288208008,0.2603049874305725,1.783755898475647,-0.07724325358867645,0.0,0.0,0.0,0.0,0.0,0.0,0.0,-0.4206169624593251,0.07218117694792413,-0.24687248588546354,0.45912686070150377,0.2056190263037608,-0.11797999200433971,-0.1077660674967015,1.0544611481244406,0.32431133543119184,-0.3925156121003,-2.1535043839902257,0.8647476289476981,2.4659881409628546,0.5444866123167275,1.0544104758940245,0.3238615046091247,-0.39250456234122666,-2.153291787532338,0.8647539153680389,2.46587817577521,0.5445020185570556,-0.00085142176646858,0.0009854101602137103,-5.208751261365937e-05,-0.0002689722141879667,-2.3149648232726196e-05,0.0002034206047385323,-0.0011344288241698583,0.0,0.0,0.0,0.0,0.0,0.0,0.0,-5.067223041610447e-05,-0.000449830822067121,1.1049759073344934e-05,0.0002125964578878481,6.286420340839705e-06,-0.00010996518764461172,1.5406240328141863e-05,0.00085142176646858,-0.0009854101602137103,5.208751261365937e-05,0.0002689722141879667,2.3149648232726196e-05,-0.0002034206047385323,0.0011344288241698583,0.4029781222343445,34.03915023803711,3.7990386486053467,-19.487642288208008,-0.2603049874305725,-1.783755898475647,0.07724325358867645,0
4,0.014535665512084961,-0.4783565402030945,-33.99154281616211,-3.7990386486053467,19.511445999145508,0.2548118233680725,1.790164589881897,-0.14590780436992645,0.0,0.0,0.0,0.0,0.0,0.0,0.0,-0.4176062982386908,0.06154830557166456,-0.24202932271452404,0.4659360098486389,0.20534864450492754,-0.11734281596231626,-0.1079415626800275,1.0544664381645825,0.3243072651919981,-0.3925156117762794,-2.153506026954137,0.8647484791331063,2.465991667899203,0.5444932562103192,1.0544104758940245,0.3238615046091247,-0.39250456234122666,-2.153291787532338,0.8647539153680389,2.46587817577521,0.5445020185570556,0.0015401270821273417,-0.000579451245637585,0.0003613269983170912,-0.0006111245948628546,3.925170588434675e-05,-0.000187172826664823,0.001573337102764148,0.0,0.0,0.0,0.0,0.0,0.0,0.0,-5.596227055804093e-05,-0.00044576058287337794,1.1049435052756795e-05,0.00021423942179898958,5.436234932654216e-06,-0.00011349212399291986,8.762346736412852e-06,-0.0015401270821273417,0.000579451245637585,-0.0003613269983170912,0.0006111245948628546,-3.925170588434675e-05,0.000187172826664823,-0.001573337102764148,0.4783565402030945,33.99154281616211,3.7990386486053467,-19.511445999145508,-0.2548118233680725,-1.790164589881897,0.14590780436992645,0
5,0.019536256790161133,-0.4783565402030945,-33.99154281616211,-3.7990386486053467,19.511445999145508,0.2548118233680725,1.790164589881897,-0.14590780436992645,0.0,0.0,0.0,0.0,0.0,0.0,0.0,-0.4176062982386908,0.06154830557166456,-0.24202932271452404,0.4659360098486389,0.20534864450492754,-0.11734281596231626,-0.1079415626800275,1.0544664381645825,0.3243072651919981,-0.3925156117762794,-2.153506026954137,0.8647484791331063,2.465991667899203,0.5444932562103192,1.0544104758940245,0.3238615046091247,-0.39250456234122666,-2.153291787532338,0.8647539153680389,2.46587817577521,0.5445020185570556,0.0015401270821273417,-0.000579451245637585,0.0003613269983170912,-0.0006111245948628546,3.925170588434675e-05,-0.000187172826664823,0.001573337102764148,0.0,0.0,0.0,0.0,0.0,0.0,0.0,-5.596227055804093e-05,-0.00044576058287337794,1.1049435052756795e-05,0.00021423942179898958,5.436234932654216e-06,-0.00011349212399291986,8.762346736412852e-06,-0.0015401270821273417,0.000579451245637585,-0.0003613269983170912,0.0006111245948628546,-3.925170588434675e-05,0.000187172826664823,-0.001573337102764148,0.4783565402030945,33.99154281616211,3.7990386486053467,-19.511445999145508,-0.2548118233680725,-1.790164589881897,0.14590780436992645,0
6,0.024544477462768555,-0.4267818331718445,-33.93996810913086,-3.7990386486053467,19.487642288208008,0.2603049874305725,1.790164589881897,-0.11111776530742645,0.0,0.0,0.0,0.0,0.0,0.0,0.0,-0.4251911947922551,0.07042434172429049,-0.2446856021556265,0.46037248460365304,0.20526599362079553,-0.11760908097672443,-0.10763030459993106,1.0544628185598492,0.32430371600664565,-0.3925156121002982,-2.153504438934425,0.8647479865743027,2.4659916635086465,0.5444892727457847,1.0544104758940245,0.3238615046091247,-0.39250456234122666,-2.153291787532338,0.8647539153680389,2.46587817577521,0.5445020185570556,-0.00017319859556222782,-0.0014967408055132545,4.14338925112937e-05,-6.941413089286933e-05,-0.00016675401691518266,1.2106006719530188e-05,0.00047980302477510845,0.0,0.0,0.0,0.0,0.0,0.0,0.0,-5.234266582476721e-05,-0.00044221139752093075,1.1049759071513066e-05,0.00021265140208726052,5.928793736176274e-06,-0.00011348773343655694,1.2745811270864493e-05,0.00017319859556222782,0.0014967408055132545,-4.14338925112937e-05,6.941413089286933e-05,0.00016675401691518266,-1.2106006719530188e-05,-0.00047980302477510845,0.4267818331718445,33.93996810913086,3.7990386486053467,-19.487642288208008,-0.2603049874305725,-1.790164589881897,0.11111776530742645,0
7,0.029546022415161133,-0.4267818331718445,-33.93996810913086,-3.7990386486053467,19.487642288208008,0.2603049874305725,1.790164589881897,-0.11111776530742645,0.0,0.0,0.0,0.0,0.0,0.0,0.0,-0.4251911947922551,0.07042434172429049,-0.2446856021556265,0.46037248460365304,0.20526599362079553,-0.11760908097672443,-0.10763030459993106,1.0544628185598492,0.32430371600664565,-0.3925156121002982,-2.153504438934425,0.8647479865743027,2.4659916635086465,0.5444892727457847,1.0544104758940245,0.3238615046091247,-0.39250456234122666,-2.153291787532338,0.8647539153680389,2.46587817577521,0.5445020185570556,-0.00017319859556222782,-0.0014967408055132545,4.14338925112937e-05,-6.941413089286933e-05,-0.00016675401691518266,1.2106006719530188e-05,0.00047980302477510845,0.0,0.0,0.0,0.0,0.0,0.0,0.0,-5.234266582476721e-05,-0.00044221139752093075,1.1049759071513066e-05,0.00021265140208726052,5.928793736176274e-06,-0.00011348773343655694,1.2745811270864493e-05,0.00017319859556222782,0.0014967408055132545,-4.14338925112937e-05,6.941413089286933e-05,0.00016675401691518266,-1.2106006719530188e-05,-0.00047980302477510845,0.4267818331718445,33.93996810913086,3.7990386486053467,-19.487642288208008,-0.2603049874305725,-1.790164589881897,0.11111776530742645,0
8,0.03453850746154785,-0.4029781222343445,-33.99154281616211,-3.8228423595428467,19.459871292114258,0.2548118233680725,1.783755898475647,-0.13858358561992645,0.0,0.0,0.0,0.0,0.0,0.0,0.0,-0.42226590545616643,0.06933574943465054,-0.24087231814019186,0.4618802975820884,0.20519683162361094,-0.11761066772912396,-0.10654685250612521,1.054461148123992,0.324308070379407,-0.3925139416644447,-2.1535024076767604,0.8647484791889603,2.4659881022015564,0.5444923288635825,1.0544104758940245,0.3238615046091247,-0.39250456234122666,-2.153291787532338,0.8647539153680389,2.46587817577521,0.5445020185570556,-0.00043011831410362056,-0.0004513636405655265,0.0004323385544841585,0.00023835252090701847,8.14210933394029e-05,-8.024187328096433e-05,0.001519019958786749,0.0,0.0,0.0,0.0,0.0,0.0,0.0,-5.067222996757437e-05,-0.0004465657702822923,9.37932321803947e-06,0.0002106201444225242,5.436179078666115e-06,-0.00010992642634644056,9.689693473147187e-06,0.00043011831410362056,0.0004513636405655265,-0.0004323385544841585,-0.00023835252090701847,-8.14210933394029e-05,8.024187328096433e-05,-0.001519019958786749,0.4029781222343445,33.99154281616211,3.8228423595428467,-19.459871292114258,-0.2548118233680725,-1.783755898475647,0.13858358561992645,0
9,0.0395967960357666,-0.4029781222343445,-33.99154281616211,-3.8228423595428467,19.459871292114258,0.2548118233680725,1.783755898475647,-0.13858358561992645,0.0,0.0,0.0,0.0,0.0,0.0,0.0,-0.42226590545616643,0.06933574943465054,-0.24087231814019186,0.4618802975820884,0.20519683162361094,-0.11761066772912396,-0.10654685250612521,1.054461148123992,0.324308070379407,-0.3925139416644447,-2.1535024076767604,0.8647484791889603,2.4659881022015564,0.5444923288635825,1.0544104758940245,0.3238615046091247,-0.39250456234122666,-2.153291787532338,0.8647539153680389,2.46587817577521,0.5445020185570556,-0.00043011831410362056,-0.0004513636405655265,0.0004323385544841585,0.00023835252090701847,8.14210933394029e-05,-8.024187328096433e-05,0.001519019958786749,0.0,0.0,0.0,0.0,0.0,0.0,0.0,-5.067222996757437e-05,-0.0004465657702822923,9.37932321803947e-06,0.0002106201444225242,5.436179078666115e-06,-0.00010992642634644056,9.689693473147187e-06,0.00043011831410362056,0.0004513636405655265,-0.0004323385544841585,-0.00023835252090701847,-8.14210933394029e-05,8.024187328096433e-05,-0.001519019958786749,0.4029781222343445,33.99154281616211,3.8228423595428467,-19.459871292114258,-0.2548118233680725,-1.783755898475647,0.13858358561992645,0
10,0.04453849792480469,-0.3514034152030945,-33.99154281616211,-3.7990386486053467,19.459871292114258,0.2667136788368225,1.783755898475647,-0.08365194499492645,0.0,0.0,0.0,0.0,0.0,0.0,0.0,-0.42166251490008244,0.06814644224814381,-0.24027315707912525,0.46486186053926004,0.20495415607320183,-0.11762253491149638,-0.10576820304011644,1.054457767373901,0.3243093833149293,-0.39251348620130305,-2.1535024076762954,0.8647468035472005,2.4659919825105674,0.5444862781603076,1.0544104758940245,0.3238615046091247,-0.39250456234122666,-2.153291787532338,0.8647539153680389,2.46587817577521,0.5445020185570556,-0.0013936785308917986,-0.00023096426759063485,-0.0002251419901210242,0.0008346574290271243,-0.00018439991195111068,0.00013866023356943528,-0.0008405767452280014,0.0,0.0,0.0,0.0,0.0,0.0,0.0,-4.729147987658777e-05,-0.0004478787058045941,8.923860076393009e-06,0.0002106201439575628,7.1118208384568504e-06,-0.00011380673535743568,1.5740396748009644e-05,0.0013936785308917986,0.00023096426759063485,0.0002251419901210242,-0.0008346574290271243,0.00018439991195111068,-0.00013866023356943528,0.0008405767452280014,0.3514034152030945,33.99154281616211,3.7990386486053467,-19.459871292114258,-0.2667136788368225,-1.783755898475647,0.08365194499492645,0
11,0.049535512924194336,-0.3514034152030945,-33.99154281616211,-3.7990386486053467,19.459871292114258,0.2667136788368225,1.783755898475647,-0.08365194499492645,0.0,0.0,0.0,0.0,0.0,0.0,0.0,-0.42166251490008244,0.06814644224814381,-0.24027315707912525,0.46486186053926004,0.20495415607320183,-0.11762253491149638,-0.10576820304011644,1.054457767373901,0.3243093833149293,-0.39251348620130305,-2.1535024076762954,0.8647468035472005,2.4659919825105674,0.5444862781603076,1.0544104758940245,0.3238615046091247,-0.39250456234122666,-2.153291787532338,0.8647539153680389,2.46587817577521,0.5445020185570556,-0.0013936785308917986,-0.00023096426759063485,-0.0002251419901210242,0.0008346574290271243,-0.00018439991195111068,0.00013866023356943528,-0.0008405767452280014,0.0,0.0,0.0,0.0,0.0,0.0,0.0,-4.729147987658777e-05,-0.0004478787058045941,8.923860076393009e-06,0.0002106201439575628,7.1118208384568504e-06,-0.00011380673535743568,1.5740396748009644e-05,0.0013936785308917986,0.00023096426759063485,0.0002251419901210242,-0.0008346574290271243,0.00018439991195111068,-0.00013866023356943528,0.0008405767452280014,0.3514034152030945,33.99154281616211,3.7990386486053467,-19.459871292114258,-0.2667136788368225,-1.783755898475647,0.08365194499492645,0
12,0.05453753471374512,-0.4505855441093445,-33.99154281616211,-3.7752349376678467,19.487642288208008,0.2667136788368225,1.783755898475647,-0.11844198405742645,0.0,0.0,0.0,0.0,0.0,0.0,0.0,-0.4205656813671679,0.07244610045161537,-0.2388638163244315,0.4602862125869762,0.20610525199218555,-0.11818462615180496,-0.1061837356524995,1.0544644889970491,0.3243072575313507,-0.39251728252415446,-2.1535050982648167,0.8647472686812853,2.4659923639548236,0.5444902174208825,1.0544104758940245,0.3238615046091247,-0.39250456234122666,-2.153291787532338,0.8647539153680389,2.46587817577521,0.5445020185570556,0.0011359389914578019,-0.00026717212574955935,-0.001037404252493644,-2.384465863518538e-05,-0.00013290572095572958,0.00026840625696523816,0.0010249858962339078,0.0,0.0,0.0,0.0,0.0,0.0,0.0,-5.401310302466378e-05,-0.00044575292222598373,1.2720182927805634e-05,0.00021331073247887744,6.646686753652986e-06,-0.00011418817961361682,1.1801136173050786e-05,-0.0011359389914578019,0.00026717212574955935,0.001037404252493644,2.384465863518538e-05,0.00013290572095572958,-0.00026840625696523816,-0.0010249858962339078,0.4505855441093445,33.99154281616211,3.7752349376678467,-19.487642288208008,-0.2667136788368225,-1.783755898475647,0.11844198405742645,0
13,0.05955195426940918,-0.4505855441093445,-33.99154281616211,-3.7752349376678467,19.487642288208008,0.2667136788368225,1.783755898475647,-0.11844198405742645,0.0,0.0,0.0,0.0,0.0,0.0,0.0,-0.4205656813671679,0.07244610045161537,-0.2388638163244315,0.4602862125869762,0.20610525199218555,-0.11818462615180496,-0.1061837356524995,1.0544644889970491,0.3243072575313507,-0.39251728252415446,-2.1535050982648167,0.8647472686812853,2.4659923639548236,0.5444902174208825,1.0544104758940245,0.3238615046091247,-0.39250456234122666,-2.153291787532338,0.8647539153680389,2.46587817577521,0.5445020185570556,0.0011359389914578019,-0.00026717212574955935,-0.001037404252493644,-2.384465863518538e-05,-0.00013290572095572958,0.00026840625696523816,0.0010249858962339078,0.0,0.0,0.0,0.0,0.0,0.0,0.0,-5.401310302466378e-05,-0.00044575292222598373,1.2720182927805634e-05,0.00021331073247887744,6.646686753652986e-06,-0.00011418817961361682,1.1801136173050786e-05,-0.0011359389914578019,0.00026717212574955935,0.001037404252493644,2.384465863518538e-05,0.00013290572095572958,-0.00026840625696523816,-0.0010249858962339078,0.4505855441093445,33.99154281616211,3.7752349376678467,-19.487642288208008,-0.2667136788368225,-1.783755898475647,0.11844198405742645,0
14,0.06455063819885254,-0.4267818331718445,-34.01534652709961,-3.8228423595428467,19.487642288208008,0.2548118233680725,1.790164589881897,-0.11844198405742645,0.0,0.0,0.0,0.0,0.0,0.0,0.0,-0.4211352046148588,0.06597408463452992,-0.2398751459476356,0.464280192388631,0.2068540284793081,-0.11778746357512637,-0.10569048174757287,1.0544628215032867,0.32431176140713336,-0.39251394166444464,-2.1535043565223133,0.8647485925658466,2.465990570492606,0.5444900865479413,1.0544104758940245,0.3238615046091247,-0.39250456234122666,-2.153291787532338,0.8647539153680389,2.46587817577521,0.5445020185570556,0.00016308305545620482,-9.567546367938667e-05,0.0004264008390654795,0.00018442306805170063,0.000316479308300412,-0.00016576029647491318,0.00034865721396000184,0.0,0.0,0.0,0.0,0.0,0.0,0.0,-5.234560926226095e-05,-0.0004502567980086414,9.37932321798396e-06,0.00021256898997545903,5.32280219234238e-06,-0.00011239471739621365,1.1932009114312692e-05,-0.00016308305545620482,9.567546367938667e-05,-0.0004264008390654795,-0.00018442306805170063,-0.000316479308300412,0.00016576029647491318,-0.00034865721396000184,0.4267818331718445,34.01534652709961,3.8228423595428467,-19.487642288208008,-0.2548118233680725,-1.790164589881897,0.11844198405742645,0
15,0.06953668594360352,-0.4267818331718445,-34.01534652709961,-3.8228423595428467,19.487642288208008,0.2548118233680725,1.790164589881897,-0.11844198405742645,0.0,0.0,0.0,0.0,0.0,0.0,0.0,-0.4211352046148588,0.06597408463452992,-0.2398751459476356,0.464280192388631,0.2068540284793081,-0.11778746357512637,-0.10569048174757287,1.0544628215032867,0.32431176140713336,-0.39251394166444464,-2.1535043565223133,0.8647485925658466,2.465990570492606,0.5444900865479413,1.0544104758940245,0.3238615046091247,-0.39250456234122666,-2.153291787532338,0.8647539153680389,2.46587817577521,0.5445020185570556,0.00016308305545620482,-9.567546367938667e-05,0.0004264008390654795,0.00018442306805170063,0.000316479308300412,-0.00016576029647491318,0.00034865721396000184,0.0,0.0,0.0,0.0,0.0,0.0,0.0,-5.234560926226095e-05,-0.0004502567980086414,9.37932321798396e-06,0.00021256898997545903,5.32280219234238e-06,-0.00011239471739621365,1.1932009114312692e-05,-0.00016308305545620482,9.567546367938667e-05,-0.0004264008390654795,-0.00018442306805170063,-0.000316479308300412,0.00016576029647491318,-0.00034865721396000184,0.4267818331718445,34.01534652709961,3.8228423595428467,-19.487642288208008,-0.2548118233680725,-1.790164589881897,0.11844198405742645,0
16,0.07453489303588867,-0.4267818331718445,-34.01534652709961,-3.8228423595428467,19.487642288208008,0.2548118233680725,1.790164589881897,-0.11844198405742645,0.0,0.0,0.0,0.0,0.0,0.0,0.0,-0.4211352046148588,0.06597408463452992,-0.2398751459476356,0.464280192388631,0.2068540284793081,-0.11778746357512637,-0.10569048174757287,1.0544628215032867,0.32431176140713336,-0.39251394166444464,-2.1535043565223133,0.8647485925658466,2.465990570492606,0.5444900865479413,1.0544104758940245,0.3238615046091247,-0.39250456234122666,-2.153291787532338,0.8647539153680389,2.46587817577521,0.5445020185570556,0.00016308305545620482,-9.567546367938667e-05,0.0004264008390654795,0.00018442306805170063,0.000316479308300412,-0.00016576029647491318,0.00034865721396000184,0.0,0.0,0.0,0.0,0.0,0.0,0.0,-5.234560926226095e-05,-0.0004502567980086414,9.37932321798396e-06,0.00021256898997545903,5.32280219234238e-06,-0.00011239471739621365,1.1932009114312692e-05,-0.00016308305545620482,9.567546367938667e-05,-0.0004264008390654795,-0.00018442306805170063,-0.000316479308300412,0.00016576029647491318,-0.00034865721396000184,0.4267818331718445,34.01534652709961,3.8228423595428467,-19.487642288208008,-0.2548118233680725,-1.790164589881897,0.11844198405742645,0
17,0.07958602905273438,-0.4267818331718445,-34.01534652709961,-3.8228423595428467,19.487642288208008,0.2548118233680725,1.790164589881897,-0.11844198405742645,0.0,0.0,0.0,0.0,0.0,0.0,0.0,-0.4211352046148588,0.06597408463452992,-0.2398751459476356,0.464280192388631,0.2068540284793081,-0.11778746357512637,-0.10569048174757287,1.0544628215032867,0.32431176140713336,-0.39251394166444464,-2.1535043565223133,0.8647485925658466,2.465990570492606,0.5444900865479413,1.0544104758940245,0.3238615046091247,-0.39250456234122666,-2.153291787532338,0.8647539153680389,2.46587817577521,0.5445020185570556,0.00016308305545620482,-9.567546367938667e-05,0.0004264008390654795,0.00018442306805170063,0.000316479308300412,-0.00016576029647491318,0.00034865721396000184,0.0,0.0,0.0,0.0,0.0,0.0,0.0,-5.234560926226095e-05,-0.0004502567980086414,9.37932321798396e-06,0.00021256898997545903,5.32280219234238e-06,-0.00011239471739621365,1.1932009114312692e-05,-0.00016308305545620482,9.567546367938667e-05,-0.0004264008390654795,-0.00018442306805170063,-0.000316479308300412,0.00016576029647491318,-0.00034865721396000184,0.4267818331718445,34.01534652709961,3.8228423595428467,-19.487642288208008,-0.2548118233680725,-1.790164589881897,0.11844198405742645,0
18,0.08458447456359863,-0.4267818331718445,-34.01534652709961,-3.7990386486053467,19.511445999145508,0.2603049874305725,1.802981972694397,-0.13217489421367645,0.0,0.0,0.0,0.0,0.0,0.0,0.0,-0.417299495884487,0.06993635446503477,-0.23625610686857568,0.46274710483037057,0.20689040513047294,-0.11805489346039276,-0.10593446486398833,1.0544628185598641,0.32430893567569,-0.3925156121003,-2.153506026953982,0.864744807660555,2.4659902450015014,0.5444919656388185,1.0544104758940245,0.3238615046091247,-0.39250456234122666,-2.153291787532338,0.8647539153680389,2.46587817577521,0.5445020185570556,0.0006771511666742784,0.0002140535734270174,-0.00036166723583611174,-0.0005184322226536872,9.667692641700076e-06,-0.0006475717489685085,0.0012064282692171055,0.0,0.0,0.0,0.0,0.0,0.0,0.0,-5.23426658396442e-05,-0.00044743106656530696,1.1049759073344934e-05,0.00021423942164400245,9.107707483968497e-06,-0.00011206922629147797,1.00529182370801e-05,-0.0006771511666742784,-0.0002140535734270174,0.00036166723583611174,0.0005184322226536872,-9.667692641700076e-06,0.0006475717489685085,-0.0012064282692171055,0.4267818331718445,34.01534652709961,3.7990386486053467,-19.511445999145508,-0.2603049874305725,-1.802981972694397,0.13217489421367645,0
19,0.08955502510070801,-0.4267818331718445,-34.01534652709961,-3.7990386486053467,19.511445999145508,0.2603049874305725,1.802981972694397,-0.13217489421367645,0.0,0.0,0.0,0.0,0.0,0.0,0.0,-0.417299495884487,0.06993635446503477,-0.23625610686857568,0.46274710483037057,0.20689040513047294,-0.11805489346039276,-0.10593446486398833,1.0544628185598641,0.32430893567569,-0.3925156121003,-2.153506026953982,0.864744807660555,2.4659902450015014,0.5444919656388185,1.0544104758940245,0.3238615046091247,-0.39250456234122666,-2.153291787532338,0.8647539153680389,2.46587817577521,0.5445020185570556,0.0006771511666742784,0.0002140535734270174,-0.00036166723583611174,-0.0005184322226536872,9.667692641700076e-06,-0.0006475717489685085,0.0012064282692171055,0.0,0.0,0.0,0.0,0.0,0.0,0.0,-5.23426658396442e-05,-0.00044743106656530696,1.1049759073344934e-05,0.00021423942164400245,9.107707483968497e-06,-0.00011206922629147797,1.00529182370801e-05,-0.0006771511666742784,-0.0002140535734270174,0.00036166723583611174,0.0005184322226536872,-9.667692641700076e-06,0.0006475717489685085,-0.0012064282692171055,0.4267818331718445,34.01534652709961,3.7990386486053467,-19.511445999145508,-0.2603049874305725,-1.802981972694397,0.13217489421367645,0
20,0.09453439712524414,-0.4505855441093445,-33.96377182006836,-3.8228423595428467,19.436067581176758,0.2548118233680725,1.790164589881897,-0.09738485515117645,0.0,0.0,0.0,0.0,0.0,0.0,0.0,-0.4186969650173017,0.0749655236920651,-0.23625314900857433,0.45979981970978817,0.20714047211782427,-0.11779573476607934,-0.10608025398068908,1.0544645684685623,0.3243053075974944,-0.392513940692383,-2.15350073724044,0.8647485969085851,2.4659874250099714,0.5444888065063361,1.0544104758940245,0.3238615046091247,-0.39250456234122666,-2.153291787532338,0.8647539153680389,2.46587817577521,0.5445020185570556,0.0008738390382047795,-0.0006614723482115307,0.0006832534934122445,0.0010986218303959173,0.000269147624804829,-0.00017773271138024968,-0.00021906323871798345,0.0,0.0,0.0,0.0,0.0,0.0,0.0,-5.40925745378118e-05,-0.00044380298836965704,9.378351156330567e-06,0.0002089497081021463,5.318459453840241e-06,-0.00010924923476141046,1.3212050719468849e-05,-0.0008738390382047795,0.0006614723482115307,-0.0006832534934122445,-0.0010986218303959173,-0.000269147624804829,0.00017773271138024968,0.00021906323871798345,0.4505855441093445,33.96377182006836,3.8228423595428467,-19.436067581176758,-0.2548118233680725,-1.790164589881897,0.09738485515117645,0
21,0.09953737258911133,-0.4505855441093445,-33.96377182006836,-3.8228423595428467,19.436067581176758,0.2548118233680725,1.790164589881897,-0.09738485515117645,0.0,0.0,0.0,0.0,0.0,0.0,0.0,-0.4186969650173017,0.0749655236920651,-0.23625314900857433,0.45979981970978817,0.20714047211782427,-0.11779573476607934,-0.10608025398068908,1.0544645684685623,0.3243053075974944,-0.392513940692383,-2.15350073724044,0.8647485969085851,2.4659874250099714,0.5444888065063361,1.0544104758940245,0.3238615046091247,-0.39250456234122666,-2.153291787532338,0.8647539153680389,2.46587817577521,0.5445020185570556,0.0008738390382047795,-0.0006614723482115307,0.0006832534934122445,0.0010986218303959173,0.000269147624804829,-0.00017773271138024968,-0.00021906323871798345,0.0,0.0,0.0,0.0,0.0,0.0,0.0,-5.40925745378118e-05,-0.00044380298836965704,9.378351156330567e-06,0.0002089497081021463,5.318459453840241e-06,-0.00010924923476141046,1.3212050719468849e-05,-0.0008738390382047795,0.0006614723482115307,-0.0006832534934122445,-0.0010986218303959173,-0.000269147624804829,0.00017773271138024968,0.00021906323871798345,0.4505855441093445,33.96377182006836,3.8228423595428467,-19.436067581176758,-0.2548118233680725,-1.790164589881897,0.09738485515117645,0
22,0.1045382022857666,-0.4267818331718445,-34.01534652709961,-3.7752349376678467,19.511445999145508,0.2603049874305725,1.796573281288147,-0.09738485515117645,0.0,0.0,0.0,0.0,0.0,0.0,0.0,-0.4199232997644517,0.06623322291196612,-0.23784320060371425,0.46368666517684587,0.20724786745434334,-0.11727411073695701,-0.10541958057920789,1.054462827394203,0.3243092418231307,-0.39251728253610585,-2.153506026953982,0.8647478688373968,2.4659877345633365,0.5444877469200482,1.0544104758940245,0.3238615046091247,-0.39250456234122666,-2.153291787532338,0.8647539153680389,2.46587817577521,0.5445020185570556,0.00016844708383110748,0.00026673005728163735,-0.000494314086370514,-0.0005900739824088784,-2.5868468848749054e-05,-0.0005727869558569801,-0.000297757281391549,0.0,0.0,0.0,0.0,0.0,0.0,0.0,-5.235150017846024e-05,-0.0004477372140059832,1.2720194879189961e-05,0.00021423942164400245,6.046530642067616e-06,-0.0001095587881265736,1.4271637007401416e-05,-0.00016844708383110748,-0.00026673005728163735,0.000494314086370514,0.0005900739824088784,2.5868468848749054e-05,0.0005727869558569801,0.000297757281391549,0.4267818331718445,34.01534652709961,3.7752349376678467,-19.511445999145508,-0.2603049874305725,-1.796573281288147,0.09738485515117645,0
23,0.10953617095947266,-0.4267818331718445,-34.01534652709961,-3.7752349376678467,19.511445999145508,0.2603049874305725,1.796573281288147,-0.09738485515117645,0.0,0.0,0.0,0.0,0.0,0.0,0.0,-0.4199232997644517,0.06623322291196612,-0.23784320060371425,0.46368666517684587,0.20724786745434334,-0.11727411073695701,-0.10541958057920789,1.054462827394203,0.3243092418231307,-0.39251728253610585,-2.153506026953982,0.8647478688373968,2.4659877345633365,0.5444877469200482,1.0544104758940245,0.3238615046091247,-0.39250456234122666,-2.153291787532338,0.8647539153680389,2.46587817577521,0.5445020185570556,0.00016844708383110748,0.00026673005728163735,-0.000494314086370514,-0.0005900739824088784,-2.5868468848749054e-05,-0.0005727869558569801,-0.000297757281391549,0.0,0.0,0.0,0.0,0.0,0.0,0.0,-5.235150017846024e-05,-0.0004477372140059832,1.2720194879189961e-05,0.00021423942164400245,6.046530642067616e-06,-0.0001095587881265736,1.4271637007401416e-05,-0.00016844708383110748,-0.00026673005728163735,0.000494314086370514,0.0005900739824088784,2.5868468848749054e-05,0.0005727869558569801,0.000297757281391549,0.4267818331718445,34.01534652709961,3.7752349376678467,-19.511445999145508,-0.2603049874305725,-1.796573281288147,0.09738485515117645,0
24,0.11454248428344727,-0.4783565402030945,-34.03915023803711,-3.8228423595428467,19.487642288208008,0.2603049874305725,1.783755898475647,-0.11111776530742645,0.0,0.0,0.0,0.0,0.0,0.0,0.0,-0.41253929442225706,0.0635492173665569,-0.2325311120855756,0.465294247518929,0.20644405466060806,-0.11774377119196605,-0.10542846463728082,1.0544664643285369,0.3243106238824515,-0.3925139416644447,-2.15350435663118,0.8647476333615932,2.4659922630517292,0.5444924560201582,1.0544104758940245,0.3238615046091247,-0.39250456234122666,-2.153291787532338,0.8647539153680389,2.46587817577521,0.5445020185570556,0.0018934852116957758,0.0005026607345608527,0.00041052610240189077,6.556020767513214e-05,8.593646850413853e-06,0.000266395649527821,0.00019312872293621085,0.0,0.0,0.0,0.0,0.0,0.0,0.0,-5.598843451237734e-05,-0.00044911927332680346,9.37932321803947e-06,0.00021256909884215247,6.282006445701427e-06,-0.0001140872765192924,9.562536897433915e-06,-0.0018934852116957758,-0.0005026607345608527,-0.00041052610240189077,-6.556020767513214e-05,-8.593646850413853e-06,-0.000266395649527821,-0.00019312872293621085,0.4783565402030945,34.03915023803711,3.8228423595428467,-19.487642288208008,-0.2603049874305725,-1.783755898475647,0.11111776530742645,0
25,0.11957263946533203,-0.4783565402030945,-34.03915023803711,-3.8228423595428467,19.487642288208008,0.2603049874305725,1.783755898475647,-0.11111776530742645,0.0,0.0,0.0,0.0,0.0,0.0,0.0,-0.41253929442225706,0.0635492173665569,-0.2325311120855756,0.465294247518929,0.20644405466060806,-0.11774377119196605,-0.10542846463728082,1.0544664643285369,0.3243106238824515,-0.3925139416644447,-2.15350435663118,0.8647476333615932,2.4659922630517292,0.5444924560201582,1.0544104758940245,0.3238615046091247,-0.39250456234122666,-2.153291787532338,0.8647539153680389,2.46587817577521,0.5445020185570556,0.0018934852116957758,0.0005026607345608527,0.00041052610240189077,6.556020767513214e-05,8.593646850413853e-06,0.000266395649527821,0.00019312872293621085,0.0,0.0,0.0,0.0,0.0,0.0,0.0,-5.598843451237734e-05,-0.00044911927332680346,9.37932321803947e-06,0.00021256909884215247,6.282006445701427e-06,-0.0001140872765192924,9.562536897433915e-06,-0.0018934852116957758,-0.0005026607345608527,-0.00041052610240189077,-6.556020767513214e-05,-8.593646850413853e-06,-0.000266395649527821,-0.00019312872293621085,0.4783565402030945,34.03915023803711,3.8228423595428467,-19.487642288208008,-0.2603049874305725,-1.783755898475647,0.11111776530742645,0
26,0.12453269958496094,-0.4505855441093445,-34.01534652709961,-3.8228423595428467,19.487642288208008,0.2603049874305725,1.790164589881897,-0.07724325358867645,0.0,0.0,0.0,0.0,0.0,0.0,0.0,-0.41872041908739555,0.07239861250094179,-0.23822619855307967,0.4584233858721968,0.20663831460135343,-0.1178266501197787,-0.10544626427942952,1.0544652042878286,0.32430896220542466,-0.3925139416644447,-2.1535043565181264,0.8647469138542214,2.4659911977801663,0.5444855089164736,1.0544104758940245,0.3238615046091247,-0.39250456234122666,-2.153291787532338,0.8647539153680389,2.46587817577521,0.5445020185570556,0.00041686196468043127,0.0004640777011777847,0.0005314512993563304,7.394348184089254e-05,4.338322788379324e-05,6.477547366004477e-06,-0.0007513698364095394,0.0,0.0,0.0,0.0,0.0,0.0,0.0,-5.4728393804159836e-05,-0.0004474575962999383,9.37932321803947e-06,0.00021256898578858596,7.001513817495031e-06,-0.0001130220049563313,1.650964058197424e-05,-0.00041686196468043127,-0.0004640777011777847,-0.0005314512993563304,-7.394348184089254e-05,-4.338322788379324e-05,-6.477547366004477e-06,0.0007513698364095394,0.4505855441093445,34.01534652709961,3.8228423595428467,-19.487642288208008,-0.2603049874305725,-1.790164589881897,0.07724325358867645,0
27,0.1295461654663086,-0.4505855441093445,-34.01534652709961,-3.8228423595428467,19.487642288208008,0.2603049874305725,1.790164589881897,-0.07724325358867645,0.0,0.0,0.0,0.0,0.0,0.0,0.0,-0.41872041908739555,0.07239861250094179,-0.23822619855307967,0.4584233858721968,0.20663831460135343,-0.1178266501197787,-0.10544626427942952,1.0544652042878286,0.32430896220542466,-0.3925139416644447,-2.1535043565181264,0.8647469138542214,2.4659911977801663,0.5444855089164736,1.0544104758940245,0.3238615046091247,-0.39250456234122666,-2.153291787532338,0.8647539153680389,2.46587817577521,0.5445020185570556,0.00041686196468043127,0.0004640777011777847,0.0005314512993563304,7.394348184089254e-05,4.338322788379324e-05,6.477547366004477e-06,-0.0007513698364095394,0.0,0.0,0.0,0.0,0.0,0.0,0.0,-5.4728393804159836e-05,-0.0004474575962999383,9.37932321803947e-06,0.00021256898578858596,7.001513817495031e-06,-0.0001130220049563313,1.650964058197424e-05,-0.00041686196468043127,-0.0004640777011777847,-0.0005314512993563304,-7.394348184089254e-05,-4.338322788379324e-05,-6.477547366004477e-06,0.0007513698364095394,0.4505855441093445,34.01534652709961,3.8228423595428467,-19.487642288208008,-0.2603049874305725,-1.790164589881897,0.07724325358867645,0
28,0.1345348358154297,-0.4267818331718445,-34.01534652709961,-3.7752349376678467,19.459871292114258,0.2484031319618225,1.783755898475647,-0.10470907390117645,0.0,0.0,0.0,0.0,0.0,0.0,0.0,-0.4126617284184826,0.06770162315159563,-0.23153333330685621,0.46055160376589466,0.2065143856686999,-0.11817722724253056,-0.10442560722785396,1.054462898036745,0.3243089531209972,-0.39251728253615525,-2.1535024076762954,0.8647493075437473,2.4659923625546987,0.5444885611528131,1.0544104758940245,0.3238615046091247,-0.39250456234122666,-2.153291787532338,0.8647539153680389,2.46587817577521,0.5445020185570556,0.00033641331862235585,7.795472881746736e-05,-0.0009218789437393445,0.0008436259467957528,0.000504807259092659,-1.0247688440924331e-05,0.0001094068547871609,0.0,0.0,0.0,0.0,0.0,0.0,0.0,-5.24221427204985e-05,-0.0004474485118725058,1.2720194928594886e-05,0.0002106201439575628,4.607824291569251e-06,-0.00011418677948871192,1.3457404242522841e-05,-0.00033641331862235585,-7.795472881746736e-05,0.0009218789437393445,-0.0008436259467957528,-0.000504807259092659,1.0247688440924331e-05,-0.0001094068547871609,0.4267818331718445,34.01534652709961,3.7752349376678467,-19.459871292114258,-0.2484031319618225,-1.783755898475647,0.10470907390117645,0
29,0.13954639434814453,-0.4267818331718445,-34.01534652709961,-3.7752349376678467,19.459871292114258,0.2484031319618225,1.783755898475647,-0.10470907390117645,0.0,0.0,0.0,0.0,0.0,0.0,0.0,-0.4126617284184826,0.06770162315159563,-0.23153333330685621,0.46055160376589466,0.2065143856686999,-0.11817722724253056,-0.10442560722785396,1.054462898036745,0.3243089531209972,-0.39251728253615525,-2.1535024076762954,0.8647493075437473,2.4659923625546987,0.5444885611528131,1.0544104758940245,0.3238615046091247,-0.39250456234122666,-2.153291787532338,0.8647539153680389,2.46587817577521,0.5445020185570556,0.00033641331862235585,7.795472881746736e-05,-0.0009218789437393445,0.0008436259467957528,0.000504807259092659,-1.0247688440924331e-05,0.0001094068547871609,0.0,0.0,0.0,0.0,0.0,0.0,0.0,-5.24221427204985e-05,-0.0004474485118725058,1.2720194928594886e-05,0.0002106201439575628,4.607824291569251e-06,-0.00011418677948871192,1.3457404242522841e-05,-0.00033641331862235585,-7.795472881746736e-05,0.0009218789437393445,-0.0008436259467957528,-0.000504807259092659,1.0247688440924331e-05,-0.0001094068547871609,0.4267818331718445,34.01534652709961,3.7752349376678467,-19.459871292114258,-0.2484031319618225,-1.783755898475647,0.10470907390117645,0
30,0.14453530311584473,-0.4267818331718445,-34.06295394897461,-3.7752349376678467,19.459871292114258,0.2667136788368225,1.790164589881897,-0.06351034343242645,0.0,0.0,0.0,0.0,0.0,0.0,0.0,-0.41578165584987914,0.06746341683860192,-0.23347972483811172,0.46066945067612225,0.20658184731781637,-0.11834218160436968,-0.10433683684638283,1.0544628224848818,0.3243129767040094,-0.39251728253615525,-2.1535024076762954,0.8647440563378919,2.465991629646211,0.5444839830315802,1.0544104758940245,0.3238615046091247,-0.39250456234122666,-2.153291787532338,0.8647539153680389,2.46587817577521,0.5445020185570556,0.00019076626900903684,0.001211867512593316,-0.0005709022085924581,0.0007053021337588717,-0.00029226503212664433,-0.00014742419865157853,-0.0014926534603908292,0.0,0.0,0.0,0.0,0.0,0.0,0.0,-5.234659085728843e-05,-0.000451472094884664,1.2720194928594886e-05,0.0002106201439575628,9.859030147052472e-06,-0.00011345387100103466,1.803552547541276e-05,-0.00019076626900903684,-0.001211867512593316,0.0005709022085924581,-0.0007053021337588717,0.00029226503212664433,0.00014742419865157853,0.0014926534603908292,0.4267818331718445,34.06295394897461,3.7752349376678467,-19.459871292114258,-0.2667136788368225,-1.790164589881897,0.06351034343242645,0
31,0.14954543113708496,-0.4267818331718445,-34.06295394897461,-3.7752349376678467,19.459871292114258,0.2667136788368225,1.790164589881897,-0.06351034343242645,0.0,0.0,0.0,0.0,0.0,0.0,0.0,-0.41578165584987914,0.06746341683860192,-0.23347972483811172,0.46066945067612225,0.20658184731781637,-0.11834218160436968,-0.10433683684638283,1.0544628224848818,0.3243129767040094,-0.39251728253615525,-2.1535024076762954,0.8647440563378919,2.465991629646211,0.5444839830315802,1.0544104758940245,0.3238615046091247,-0.39250456234122666,-2.153291787532338,0.8647539153680389,2.46587817577521,0.5445020185570556,0.00019076626900903684,0.001211867512593316,-0.0005709022085924581,0.0007053021337588717,-0.00029226503212664433,-0.00014742419865157853,-0.0014926534603908292,0.0,0.0,0.0,0.0,0.0,0.0,0.0,-5.234659085728843e-05,-0.000451472094884664,1.2720194928594886e-05,0.0002106201439575628,9.859030147052472e-06,-0.00011345387100103466,1.803552547541276e-05,-0.00019076626900903684,-0.001211867512593316,0.0005709022085924581,-0.0007053021337588717,0.00029226503212664433,0.00014742419865157853,0.0014926534603908292,0.4267818331718445,34.06295394897461,3.7752349376678467,-19.459871292114258,-0.2667136788368225,-1.790164589881897,0.06351034343242645,0
32,0.15594148635864258,-0.4267818331718445,-34.01534652709961,-3.8228423595428467,19.487642288208008,0.2667136788368225,1.790164589881897,-0.08365194499492645,0.0,0.0,0.0,0.0,0.0,0.0,0.0,-0.418190083440369,0.06845181682374742,-0.2344250645090212,0.4621697838915332,0.20678675600191637,-0.11820871474200229,-0.10512822573019712,1.0544628186688858,0.32431105277813027,-0.3925139416284424,-2.1535043565181264,0.8647472337805713,2.4659900862987434,0.5444862209873067,1.0544104758940245,0.3238615046091247,-0.39250456234122666,-2.153291787532338,0.8647539153680389,2.46587817577521,0.5445020185570556,0.00025756376958914674,0.000488897496275404,0.0006511656723550735,0.00018113482537574613,-0.00011311654191953781,-0.00014833881003920761,-0.0008357324359862808,0.0,0.0,0.0,0.0,0.0,0.0,0.0,-5.234277486132477e-05,-0.0004495481690055536,9.379287215727228e-06,0.00021256898578858596,6.681587467638472e-06,-0.00011191052353343167,1.5797569748898788e-05,-0.00025756376958914674,-0.000488897496275404,-0.0006511656723550735,-0.00018113482537574613,0.00011311654191953781,0.00014833881003920761,0.0008357324359862808,0.4267818331718445,34.01534652709961,3.8228423595428467,-19.487642288208008,-0.2667136788368225,-1.790164589881897,0.08365194499492645,0
33,0.15948247909545898,-0.4267818331718445,-34.01534652709961,-3.8228423595428467,19.487642288208008,0.2667136788368225,1.790164589881897,-0.08365194499492645,0.0,0.0,0.0,0.0,0.0,0.0,0.0,-0.418190083440369,0.06845181682374742,-0.2344250645090212,0.4621697838915332,0.20678675600191637,-0.11820871474200229,-0.10512822573019712,1.0544628186688858,0.32431105277813027,-0.3925139416284424,-2.1535043565181264,0.8647472337805713,2.4659900862987434,0.5444862209873067,1.0544104758940245,0.3238615046091247,-0.39250456234122666,-2.153291787532338,0.8647539153680389,2.46587817577521,0.5445020185570556,0.00025756376958914674,0.000488897496275404,0.0006511656723550735,0.00018113482537574613,-0.00011311654191953781,-0.00014833881003920761,-0.0008357324359862808,0.0,0.0,0.0,0.0,0.0,0.0,0.0,-5.234277486132477e-05,-0.0004495481690055536,9.379287215727228e-06,0.00021256898578858596,6.681587467638472e-06,-0.00011191052353343167,1.5797569748898788e-05,-0.00025756376958914674,-0.000488897496275404,-0.0006511656723550735,-0.00018113482537574613,0.00011311654191953781,0.00014833881003920761,0.0008357324359862808,0.4267818331718445,34.01534652709961,3.8228423595428467,-19.487642288208008,-0.2667136788368225,-1.790164589881897,0.08365194499492645,0
34,0.1645371913909912,-0.3752071261405945,-33.96377182006836,-3.7990386486053467,19.511445999145508,0.2484031319618225,1.777347207069397,-0.07724325358867645,0.0,0.0,0.0,0.0,0.0,0.0,0.0,-0.41759373699656194,0.06214063929340291,-0.23291279419363314,0.4652381641162133,0.2070537369048593,-0.11801016548366618,-0.10495172528542633,1.0544591993911778,0.3243053076094455,-0.3925156121002998,-2.153506026953982,0.8647493090031233,2.4659930935214,0.5444855089104838,1.0544104758940245,0.3238615046091247,-0.39250456234122666,-2.153291787532338,0.8647539153680389,2.46587817577521,0.5445020185570556,-0.0010659637630588456,-0.0012250802602075416,0.00022079874361671402,-0.0007403689806402914,0.0005186012677266434,0.00034765680017636083,-0.00042936281682282176,0.0,0.0,0.0,0.0,0.0,0.0,0.0,-4.8723497153346784e-05,-0.0004438030003207638,1.1049759073122889e-05,0.00021423942164400245,4.606364915615835e-06,-0.00011491774619010187,1.65096465718495e-05,0.0010659637630588456,0.0012250802602075416,-0.00022079874361671402,0.0007403689806402914,-0.0005186012677266434,-0.00034765680017636083,0.00042936281682282176,0.3752071261405945,33.96377182006836,3.7990386486053467,-19.511445999145508,-0.2484031319618225,-1.777347207069397,0.07724325358867645,0
35,0.16953301429748535,-0.3752071261405945,-33.96377182006836,-3.7990386486053467,19.511445999145508,0.2484031319618225,1.777347207069397,-0.07724325358867645,0.0,0.0,0.0,0.0,0.0,0.0,0.0,-0.41759373699656194,0.06214063929340291,-0.23291279419363314,0.4652381641162133,0.2070537369048593,-0.11801016548366618,-0.10495172528542633,1.0544591993911778,0.3243053076094455,-0.3925156121002998,-2.153506026953982,0.8647493090031233,2.4659930935214,0.5444855089104838,1.0544104758940245,0.3238615046091247,-0.39250456234122666,-2.153291787532338,0.8647539153680389,2.46587817577521,0.5445020185570556,-0.0010659637630588456,-0.0012250802602075416,0.00022079874361671402,-0.0007403689806402914,0.0005186012677266434,0.00034765680017636083,-0.00042936281682282176,0.0,0.0,0.0,0.0,0.0,0.0,0.0,-4.8723497153346784e-05,-0.0004438030003207638,1.1049759073122889e-05,0.00021423942164400245,4.606364915615835e-06,-0.00011491774619010187,1.65096465718495e-05,0.0010659637630588456,0.0012250802602075416,-0.00022079874361671402,0.0007403689806402914,-0.0005186012677266434,-0.00034765680017636083,0.00042936281682282176,0.3752071261405945,33.96377182006836,3.7990386486053467,-19.511445999145508,-0.2484031319618225,-1.777347207069397,0.07724325358867645,0
36,0.16953301429748535,-0.3752071261405945,-33.96377182006836,-3.7990386486053467,19.511445999145508,0.2484031319618225,1.777347207069397,-0.07724325358867645,0.0,0.0,0.0,0.0,0.0,0.0,0.0,-0.41759373699656194,0.06214063929340291,-0.23291279419363314,0.4652381641162133,0.2070537369048593,-0.11801016548366618,-0.10495172528542633,1.0544591993911778,0.3243053076094455,-0.3925156121002998,-2.153506026953982,0.8647493090031233,2.4659930935214,0.5444855089104838,1.0544104758940245,0.3238615046091247,-0.39250456234122666,-2.153291787532338,0.8647539153680389,2.46587817577521,0.5445020185570556,-0.0010659637630588456,-0.0012250802602075416,0.00022079874361671402,-0.0007403689806402914,0.0005186012677266434,0.00034765680017636083,-0.00042936281682282176,0.0,0.0,0.0,0.0,0.0,0.0,0.0,-4.8723497153346784e-05,-0.0004438030003207638,1.1049759073122889e-05,0.00021423942164400245,4.606364915615835e-06,-0.00011491774619010187,1.65096465718495e-05,0.0010659637630588456,0.0012250802602075416,-0.00022079874361671402,0.0007403689806402914,-0.0005186012677266434,-0.00034765680017636083,0.00042936281682282176,0.3752071261405945,33.96377182006836,3.7990386486053467,-19.511445999145508,-0.2484031319618225,-1.777347207069397,0.07724325358867645,0
37,0.1795501708984375,-0.4029781222343445,-33.96377182006836,-3.7990386486053467,19.459871292114258,0.2603049874305725,1.777347207069397,-0.09097616374492645,0.0,0.0,0.0,0.0,0.0,0.0,0.0,-0.42563805713015984,0.06529816092052082,-0.23941538576681728,0.46140289489446956,0.20727233500431505,-0.1179634436615651,-0.10220117677280215,1.0544611510674315,0.32430539619907106,-0.3925156121003,-2.1535024076762954,0.8647442974644433,2.4659916806794975,0.5444875059011752,1.0544104758940245,0.3238615046091247,-0.39250456234122666,-2.153291787532338,0.8647539153680389,2.46587817577521,0.5445020185570556,-0.0005784492523681187,-0.0011249744799903204,-0.00025115611317289845,0.00038698559456438146,-3.636681837113622e-05,0.0003204082244217677,-0.00018762851141900828,0.0,0.0,0.0,0.0,0.0,0.0,0.0,-5.067517340706651e-05,-0.0004438915899463436,1.1049759073344934e-05,0.0002106201439575628,9.61790359566006e-06,-0.00011350490428752025,1.4512655880372094e-05,0.0005784492523681187,0.0011249744799903204,0.00025115611317289845,-0.00038698559456438146,3.636681837113622e-05,-0.0003204082244217677,0.00018762851141900828,0.4029781222343445,33.96377182006836,3.7990386486053467,-19.459871292114258,-0.2603049874305725,-1.777347207069397,0.09097616374492645,0
38,0.18454813957214355,-0.4029781222343445,-33.96377182006836,-3.7990386486053467,19.459871292114258,0.2603049874305725,1.777347207069397,-0.09097616374492645,0.0,0.0,0.0,0.0,0.0,0.0,0.0,-0.42563805713015984,0.06529816092052082,-0.23941538576681728,0.46140289489446956,0.20727233500431505,-0.1179634436615651,-0.10220117677280215,1.0544611510674315,0.32430539619907106,-0.3925156121003,-2.1535024076762954,0.8647442974644433,2.4659916806794975,0.5444875059011752,1.0544104758940245,0.3238615046091247,-0.39250456234122666,-2.153291787532338,0.8647539153680389,2.46587817577521,0.5445020185570556,-0.0005784492523681187,-0.0011249744799903204,-0.00025115611317289845,0.00038698559456438146,-3.636681837113622e-05,0.0003204082244217677,-0.00018762851141900828,0.0,0.0,0.0,0.0,0.0,0.0,0.0,-5.067517340706651e-05,-0.0004438915899463436,1.1049759073344934e-05,0.0002106201439575628,9.61790359566006e-06,-0.00011350490428752025,1.4512655880372094e-05,0.0005784492523681187,0.0011249744799903204,0.00025115611317289845,-0.00038698559456438146,3.636681837113622e-05,-0.0003204082244217677,0.00018762851141900828,0.4029781222343445,33.96377182006836,3.7990386486053467,-19.459871292114258,-0.2603049874305725,-1.777347207069397,0.09097616374492645,0
39,0.18954205513000488,-0.4029781222343445,-33.96377182006836,-3.7990386486053467,19.459871292114258,0.2603049874305725,1.777347207069397,-0.09097616374492645,0.0,0.0,0.0,0.0,0.0,0.0,0.0,-0.42563805713015984,0.06529816092052082,-0.23941538576681728,0.46140289489446956,0.20727233500431505,-0.1179634436615651,-0.10220117677280215,1.0544611510674315,0.32430539619907106,-0.3925156121003,-2.1535024076762954,0.8647442974644433,2.4659916806794975,0.5444875059011752,1.0544104758940245,0.3238615046091247,-0.39250456234122666,-2.153291787532338,0.8647539153680389,2.46587817577521,0.5445020185570556,-0.0005784492523681187,-0.0011249744799903204,-0.00025115611317289845,0.00038698559456438146,-3.636681837113622e-05,0.0003204082244217677,-0.00018762851141900828,0.0,0.0,0.0,0.0,0.0,0.0,0.0,-5.067517340706651e-05,-0.0004438915899463436,1.1049759073344934e-05,0.0002106201439575628,9.61790359566006e-06,-0.00011350490428752025,1.4512655880372094e-05,0.0005784492523681187,0.0011249744799903204,0.00025115611317289845,-0.00038698559456438146,3.636681837113622e-05,-0.0003204082244217677,0.00018762851141900828,0.4029781222343445,33.96377182006836,3.7990386486053467,-19.459871292114258,-0.2603049874305725,-1.777347207069397,0.09097616374492645,0
40,0.1959397792816162,-0.4505855441093445,-33.99154281616211,-3.8228423595428467,19.487642288208008,0.2548118233680725,1.790164589881897,-0.08365194499492645,0.0,0.0,0.0,0.0,0.0,0.0,0.0,-0.41779740165139323,0.057433371240229236,-0.23390285340011402,0.4676898624324081,0.20701024538123725,-0.11788881286523509,-0.10275024572860136,1.0544644889957082,0.3243094737242427,-0.39251386195538307,-2.1535043565181264,0.8647482417688117,2.4659912617339415,0.5444862214727099,1.0544104758940245,0.3238615046091247,-0.39250456234122666,-2.153291787532338,0.8647539153680389,2.46587817577521,0.5445020185570556,0.000918447592137148,-0.0007085105444786645,0.0005421933127793294,0.00045575924834212375,7.663905110796586e-05,-8.366719645414878e-05,-0.0010886990221931413,0.0,0.0,0.0,0.0,0.0,0.0,0.0,-5.401310168373641e-05,-0.0004479691151179632,9.299614156410563e-06,0.00021256898578858596,5.673599227207227e-06,-0.00011308595873149585,1.5797084345736678e-05,-0.000918447592137148,0.0007085105444786645,-0.0005421933127793294,-0.00045575924834212375,-7.663905110796586e-05,8.366719645414878e-05,0.0010886990221931413,0.4505855441093445,33.99154281616211,3.8228423595428467,-19.487642288208008,-0.2548118233680725,-1.790164589881897,0.08365194499492645,0
41,0.1995410919189453,-0.4505855441093445,-33.99154281616211,-3.8228423595428467,19.487642288208008,0.2548118233680725,1.790164589881897,-0.08365194499492645,0.0,0.0,0.0,0.0,0.0,0.0,0.0,-0.41779740165139323,0.057433371240229236,-0.23390285340011402,0.4676898624324081,0.20701024538123725,-0.11788881286523509,-0.10275024572860136,1.0544644889957082,0.3243094737242427,-0.39251386195538307,-2.1535043565181264,0.8647482417688117,2.4659912617339415,0.5444862214727099,1.0544104758940245,0.3238615046091247,-0.39250456234122666,-2.153291787532338,0.8647539153680389,2.46587817577521,0.5445020185570556,0.000918447592137148,-0.0007085105444786645,0.0005421933127793294,0.00045575924834212375,7.663905110796586e-05,-8.366719645414878e-05,-0.0010886990221931413,0.0,0.0,0.0,0.0,0.0,0.0,0.0,-5.401310168373641e-05,-0.0004479691151179632,9.299614156410563e-06,0.00021256898578858596,5.673599227207227e-06,-0.00011308595873149585,1.5797084345736678e-05,-0.000918447592137148,0.0007085105444786645,-0.0005421933127793294,-0.00045575924834212375,-7.663905110796586e-05,8.366719645414878e-05,0.0010886990221931413,0.4505855441093445,33.99154281616211,3.8228423595428467,-19.487642288208008,-0.2548118233680725,-1.790164589881897,0.08365194499492645,0
42,0.20456290245056152,-0.4505855441093445,-33.99154281616211,-3.8228423595428467,19.487642288208008,0.2548118233680725,1.790164589881897,-0.08365194499492645,0.0,0.0,0.0,0.0,0.0,0.0,0.0,-0.41779740165139323,0.057433371240229236,-0.23390285340011402,0.4676898624324081,0.20701024538123725,-0.11788881286523509,-0.10275024572860136,1.0544644889957082,0.3243094737242427,-0.39251386195538307,-2.1535043565181264,0.8647482417688117,2.4659912617339415,0.5444862214727099,1.0544104758940245,0.3238615046091247,-0.39250456234122666,-2.153291787532338,0.8647539153680389,2.46587817577521,0.5445020185570556,0.000918447592137148,-0.0007085105444786645,0.0005421933127793294,0.00045575924834212375,7.663905110796586e-05,-8.366719645414878e-05,-0.0010886990221931413,0.0,0.0,0.0,0.0,0.0,0.0,0.0,-5.401310168373641e-05,-0.0004479691151179632,9.299614156410563e-06,0.00021256898578858596,5.673599227207227e-06,-0.00011308595873149585,1.5797084345736678e-05,-0.000918447592137148,0.0007085105444786645,-0.0005421933127793294,-0.00045575924834212375,-7.663905110796586e-05,8.366719645414878e-05,0.0010886990221931413,0.4505855441093445,33.99154281616211,3.8228423595428467,-19.487642288208008,-0.2548118233680725,-1.790164589881897,0.08365194499492645,0
43,0.20958924293518066,-0.3752071261405945,-34.01534652709961,-3.8228423595428467,19.459871292114258,0.2548118233680725,1.783755898475647,-0.13217489421367645,0.0,0.0,0.0,0.0,0.0,0.0,0.0,-0.417822191076283,0.06862252015176923,-0.23292445433046405,0.45839545204383936,0.20647379323308312,-0.11849121049938388,-0.10429851383155382,1.054459199282161,0.3243090322303372,-0.3925139416639947,-2.1535024107287506,0.8647485823890229,2.4659923799976626,0.5444926765863971,1.0544104758940245,0.3238615046091247,-0.39250456234122666,-2.153291787532338,0.8647539153680389,2.46587817577521,0.5445020185570556,-0.0009505328365961258,0.00033314841748181525,7.999409890625892e-05,0.0003741148799423683,0.0002466932159411413,0.0001836412118236986,0.0016849810067117341,0.0,0.0,0.0,0.0,0.0,0.0,0.0,-4.872338813655119e-05,-0.00044752762121247347,9.379322768066078e-06,0.0002106231964127403,5.332979016059447e-06,-0.00011420422245267403,9.34197065849407e-06,0.0009505328365961258,-0.00033314841748181525,-7.999409890625892e-05,-0.0003741148799423683,-0.0002466932159411413,-0.0001836412118236986,-0.0016849810067117341,0.3752071261405945,34.01534652709961,3.8228423595428467,-19.459871292114258,-0.2548118233680725,-1.783755898475647,0.13217489421367645,0
44,0.2145709991455078,-0.3752071261405945,-34.01534652709961,-3.8228423595428467,19.459871292114258,0.2548118233680725,1.783755898475647,-0.13217489421367645,0.0,0.0,0.0,0.0,0.0,0.0,0.0,-0.417822191076283,0.06862252015176923,-0.23292445433046405,0.45839545204383936,0.20647379323308312,-0.11849121049938388,-0.10429851383155382,1.054459199282161,0.3243090322303372,-0.3925139416639947,-2.1535024107287506,0.8647485823890229,2.4659923799976626,0.5444926765863971,1.0544104758940245,0.3238615046091247,-0.39250456234122666,-2.153291787532338,0.8647539153680389,2.46587817577521,0.5445020185570556,-0.0009505328365961258,0.00033314841748181525,7.999409890625892e-05,0.0003741148799423683,0.0002466932159411413,0.0001836412118236986,0.0016849810067117341,0.0,0.0,0.0,0.0,0.0,0.0,0.0,-4.872338813655119e-05,-0.00044752762121247347,9.379322768066078e-06,0.0002106231964127403,5.332979016059447e-06,-0.00011420422245267403,9.34197065849407e-06,0.0009505328365961258,-0.00033314841748181525,-7.999409890625892e-05,-0.0003741148799423683,-0.0002466932159411413,-0.0001836412118236986,-0.0016849810067117341,0.3752071261405945,34.01534652709961,3.8228423595428467,-19.459871292114258,-0.2548118233680725,-1.783755898475647,0.13217489421367645,0
45,0.21957159042358398,-0.4267818331718445,-34.01534652709961,-3.7514312267303467,19.487642288208008,0.2603049874305725,1.796573281288147,-0.07724325358867645,0.0,0.0,0.0,0.0,0.0,0.0,0.0,-0.42309810879022175,0.06433879114715943,-0.2397295532118508,0.4618496765272226,0.2063815663050193,-0.11743419205007291,-0.10422819483518013,1.0544628215032867,0.32430893576829056,-0.3925189529720105,-2.1535043565181433,0.8647479859288633,2.4659898976617307,0.544485508916491,1.0544104758940245,0.3238615046091247,-0.39250456234122666,-2.153291787532338,0.8647539153680389,2.46587817577521,0.5445020185570556,-0.0003306388631081032,0.0003312964545434916,-0.0013037439874676962,-1.5628009481475128e-05,8.630949679590234e-05,-0.0002695399341866481,-0.0011457426281420127,0.0,0.0,0.0,0.0,0.0,0.0,0.0,-5.234560926226095e-05,-0.0004474311591658453,1.4390630783844838e-05,0.00021256898580546135,5.929439175655915e-06,-0.00011172188652075477,1.650964056465476e-05,0.0003306388631081032,-0.0003312964545434916,0.0013037439874676962,1.5628009481475128e-05,-8.630949679590234e-05,0.0002695399341866481,0.0011457426281420127,0.4267818331718445,34.01534652709961,3.7514312267303467,-19.487642288208008,-0.2603049874305725,-1.796573281288147,0.07724325358867645,0
46,0.22454142570495605,-0.4267818331718445,-34.01534652709961,-3.7514312267303467,19.487642288208008,0.2603049874305725,1.796573281288147,-0.07724325358867645,0.0,0.0,0.0,0.0,0.0,0.0,0.0,-0.42309810879022175,0.06433879114715943,-0.2397295532118508,0.4618496765272226,0.2063815663050193,-0.11743419205007291,-0.10422819483518013,1.0544628215032867,0.32430893576829056,-0.3925189529720105,-2.1535043565181433,0.8647479859288633,2.4659898976617307,0.544485508916491,1.0544104758940245,0.3238615046091247,-0.39250456234122666,-2.153291787532338,0.8647539153680389,2.46587817577521,0.5445020185570556,-0.0003306388631081032,0.0003312964545434916,-0.0013037439874676962,-1.5628009481475128e-05,8.630949679590234e-05,-0.0002695399341866481,-0.0011457426281420127,0.0,0.0,0.0,0.0,0.0,0.0,0.0,-5.234560926226095e-05,-0.0004474311591658453,1.4390630783844838e-05,0.00021256898580546135,5.929439175655915e-06,-0.00011172188652075477,1.650964056465476e-05,0.0003306388631081032,-0.0003312964545434916,0.0013037439874676962,1.5628009481475128e-05,-8.630949679590234e-05,0.0002695399341866481,0.0011457426281420127,0.4267818331718445,34.01534652709961,3.7514312267303467,-19.487642288208008,-0.2603049874305725,-1.796573281288147,0.07724325358867645,0
47,0.22953557968139648,-0.4267818331718445,-33.99154281616211,-3.7990386486053467,19.459871292114258,0.2548118233680725,1.783755898475647,-0.11111776530742645,0.0,0.0,0.0,0.0,0.0,0.0,0.0,-0.4195944609547577,0.06718052888394806,-0.23605696510936564,0.45942463345266027,0.20657410539586457,-0.11783364500468642,-0.10371829061883014,1.0544628274265206,0.32430733564435565,-0.3925156121003,-2.1535024076762954,0.8647475372883972,2.465991317448752,0.5444893950048454,1.0544104758940245,0.3238615046091247,-0.39250456234122666,-2.153291787532338,0.8647539153680389,2.46587817577521,0.5445020185570556,0.00021376686575867487,-0.00045344234331019573,-0.00041095328162441,0.00035172477952857074,0.0002935351132902129,9.006036212859419e-05,0.0009873036698349203,0.0,0.0,0.0,0.0,0.0,0.0,0.0,-5.235153249616431e-05,-0.0004458310352309369,1.1049759073344934e-05,0.0002106201439575628,6.378079641766732e-06,-0.00011314167354203875,1.2623552210211386e-05,-0.00021376686575867487,0.00045344234331019573,0.00041095328162441,-0.00035172477952857074,-0.0002935351132902129,-9.006036212859419e-05,-0.0009873036698349203,0.4267818331718445,33.99154281616211,3.7990386486053467,-19.459871292114258,-0.2548118233680725,-1.783755898475647,0.11111776530742645,0
48,0.23453402519226074,-0.4267818331718445,-33.99154281616211,-3.7990386486053467,19.459871292114258,0.2548118233680725,1.783755898475647,-0.11111776530742645,0.0,0.0,0.0,0.0,0.0,0.0,0.0,-0.4195944609547577,0.06718052888394806,-0.23605696510936564,0.45942463345266027,0.20657410539586457,-0.11783364500468642,-0.10371829061883014,1.0544628274265206,0.32430733564435565,-0.3925156121003,-2.1535024076762954,0.8647475372883972,2.465991317448752,0.5444893950048454,1.0544104758940245,0.3238615046091247,-0.39250456234122666,-2.153291787532338,0.8647539153680389,2.46587817577521,0.5445020185570556,0.00021376686575867487,-0.00045344234331019573,-0.00041095328162441,0.00035172477952857074,0.0002935351132902129,9.006036212859419e-05,0.0009873036698349203,0.0,0.0,0.0,0.0,0.0,0.0,0.0,-5.235153249616431e-05,-0.0004458310352309369,1.1049759073344934e-05,0.0002106201439575628,6.378079641766732e-06,-0.00011314167354203875,1.2623552210211386e-05,-0.00021376686575867487,0.00045344234331019573,0.00041095328162441,-0.00035172477952857074,-0.0002935351132902129,-9.006036212859419e-05,-0.0009873036698349203,0.4267818331718445,33.99154281616211,3.7990386486053467,-19.459871292114258,-0.2548118233680725,-1.783755898475647,0.11111776530742645,0
49,0.2395460605621338,-0.4029781222343445,-34.01534652709961,-3.7990386486053467,19.487642288208008,0.2667136788368225,1.790164589881897,-0.06991903483867645,0.0,0.0,0.0,0.0,0.0,0.0,0.0,-0.4195259624310322,0.06414905831624543,-0.235865115586818,0.46024968980142966,0.20637422913982803,-0.11765752453596313,-0.10235499570731751,1.054461148160381,0.3243090086367702,-0.3925156121003,-2.1535043565181264,0.8647462148001985,2.465990605210399,0.5444846994697413,1.0544104758940245,0.3238615046091247,-0.39250456234122666,-2.153291787532338,0.8647539153680389,2.46587817577521,0.5445020185570556,-0.0007025182549293283,8.554650372501031e-05,4.9573228117914926e-05,-0.00018298671103901835,-0.00023669417400174936,-0.00030652975529166346,-0.0011312269944891635,0.0,0.0,0.0,0.0,0.0,0.0,0.0,-5.067226635646627e-05,-0.00044750402764548447,1.1049759073344934e-05,0.00021256898578858596,7.700567840385197e-06,-0.0001124294351888544,1.7319087314282555e-05,0.0007025182549293283,-8.554650372501031e-05,-4.9573228117914926e-05,0.00018298671103901835,0.00023669417400174936,0.00030652975529166346,0.0011312269944891635,0.4029781222343445,34.01534652709961,3.7990386486053467,-19.487642288208008,-0.2667136788368225,-1.790164589881897,0.06991903483867645,0
50,0.2449629306793213,-0.4029781222343445,-34.01534652709961,-3.7990386486053467,19.487642288208008,0.2667136788368225,1.790164589881897,-0.06991903483867645,0.0,0.0,0.0,0.0,0.0,0.0,0.0,-0.4195259624310322,0.06414905831624543,-0.235865115586818,0.46024968980142966,0.20637422913982803,-0.11765752453596313,-0.10235499570731751,1.054461148160381,0.3243090086367702,-0.3925156121003,-2.1535043565181264,0.8647462148001985,2.465990605210399,0.5444846994697413,1.0544104758940245,0.3238615046091247,-0.39250456234122666,-2.153291787532338,0.8647539153680389,2.46587817577521,0.5445020185570556,-0.0007025182549293283,8.554650372501031e-05,4.9573228117914926e-05,-0.00018298671103901835,-0.00023669417400174936,-0.00030652975529166346,-0.0011312269944891635,0.0,0.0,0.0,0.0,0.0,0.0,0.0,-5.067226635646627e-05,-0.00044750402764548447,1.1049759073344934e-05,0.00021256898578858596,7.700567840385197e-06,-0.0001124294351888544,1.7319087314282555e-05,0.0007025182549293283,-8.554650372501031e-05,-4.9573228117914926e-05,0.00018298671103901835,0.00023669417400174936,0.00030652975529166346,0.0011312269944891635,0.4029781222343445,34.01534652709961,3.7990386486053467,-19.487642288208008,-0.2667136788368225,-1.790164589881897,0.06991903483867645,0
51,0.24955272674560547,-0.4783565402030945,-34.01534652709961,-3.8228423595428467,19.487642288208008,0.2603049874305725,1.783755898475647,-0.13217489421367645,0.0,0.0,0.0,0.0,0.0,0.0,0.0,-0.41292093654505824,0.06231185840488303,-0.22878407365569964,0.46082689860966297,0.20649930762281732,-0.11858162432612003,-0.10336181996792604,1.054466437837534,0.3243097142455916,-0.3925139416644447,-2.153506581758198,0.8647479865689857,2.4659892010795685,0.5444947913405214,1.0544104758940245,0.3238615046091247,-0.39250456234122666,-2.153291787532338,0.8647539153680389,2.46587817577521,0.5445020185570556,0.0020790342461341395,3.931114021359828e-05,0.0006119073588813317,0.0003052819503661692,7.03973215607932e-05,6.155113623981876e-05,0.0012831625120981488,0.0,0.0,0.0,0.0,0.0,0.0,0.0,-5.596194350943051e-05,-0.0004482096364668564,9.37932321803947e-06,0.00021479422586034858,5.928799053256384e-06,-0.00011102530435858071,7.227216534233527e-06,-0.0020790342461341395,-3.931114021359828e-05,-0.0006119073588813317,-0.0003052819503661692,-7.03973215607932e-05,-6.155113623981876e-05,-0.0012831625120981488,0.4783565402030945,34.01534652709961,3.8228423595428467,-19.487642288208008,-0.2603049874305725,-1.783755898475647,0.13217489421367645,0
52,0.25458455085754395,-0.4783565402030945,-34.01534652709961,-3.8228423595428467,19.487642288208008,0.2603049874305725,1.783755898475647,-0.13217489421367645,0.0,0.0,0.0,0.0,0.0,0.0,0.0,-0.41292093654505824,0.06231185840488303,-0.22878407365569964,0.46082689860966297,0.20649930762281732,-0.11858162432612003,-0.10336181996792604,1.054466437837534,0.3243097142455916,-0.3925139416644447,-2.153506581758198,0.8647479865689857,2.4659892010795685,0.5444947913405214,1.0544104758940245,0.3238615046091247,-0.39250456234122666,-2.153291787532338,0.8647539153680389,2.46587817577521,0.5445020185570556,0.0020790342461341395,3.931114021359828e-05,0.0006119073588813317,0.0003052819503661692,7.03973215607932e-05,6.155113623981876e-05,0.0012831625120981488,0.0,0.0,0.0,0.0,0.0,0.0,0.0,-5.596194350943051e-05,-0.0004482096364668564,9.37932321803947e-06,0.00021479422586034858,5.928799053256384e-06,-0.00011102530435858071,7.227216534233527e-06,-0.0020790342461341395,-3.931114021359828e-05,-0.0006119073588813317,-0.0003052819503661692,-7.03973215607932e-05,-6.155113623981876e-05,-0.0012831625120981488,0.4783565402030945,34.01534652709961,3.8228423595428467,-19.487642288208008,-0.2603049874305725,-1.783755898475647,0.13217489421367645,0
53,0.25953102111816406,-0.4267818331718445,-34.03915023803711,-3.8228423595428467,19.487642288208008,0.2548118233680725,1.790164589881897,-0.06991903483867645,0.0,0.0,0.0,0.0,0.0,0.0,0.0,-0.42207129342331906,0.05832180002043088,-0.23877006605376133,0.46139258547137596,0.2068702369159904,-0.11829424747683998,-0.10384538601665826,1.0544628185598475,0.32431059861151346,-0.3925139416644447,-2.153504356530688,0.8647485953114743,2.4659902565078986,0.5444846951263455,1.0544104758940245,0.3238615046091247,-0.39250456234122666,-2.153291787532338,0.8647539153680389,2.46587817577521,0.5445020185570556,0.0003241660956682882,0.00019906510418275124,0.00038357227988100877,-0.00020019684675797348,0.000161151439352947,-8.84170924007299e-05,-0.001167485543238596,0.0,0.0,0.0,0.0,0.0,0.0,0.0,-5.234266582299085e-05,-0.0004490940023887391,9.37932321803947e-06,0.00021256899835009335,5.320056564617204e-06,-0.00011208073268864638,1.7323430710147747e-05,-0.0003241660956682882,-0.00019906510418275124,-0.00038357227988100877,0.00020019684675797348,-0.000161151439352947,8.84170924007299e-05,0.001167485543238596,0.4267818331718445,34.03915023803711,3.8228423595428467,-19.487642288208008,-0.2548118233680725,-1.790164589881897,0.06991903483867645,0
54,0.2644946575164795,-0.4267818331718445,-34.03915023803711,-3.8228423595428467,19.487642288208008,0.2548118233680725,1.790164589881897,-0.06991903483867645,0.0,0.0,0.0,0.0,0.0,0.0,0.0,-0.42207129342331906,0.05832180002043088,-0.23877006605376133,0.46139258547137596,0.2068702369159904,-0.11829424747683998,-0.10384538601665826,1.0544628185598475,0.32431059861151346,-0.3925139416644447,-2.153504356530688,0.8647485953114743,2.4659902565078986,0.5444846951263455,1.0544104758940245,0.3238615046091247,-0.39250456234122666,-2.153291787532338,0.8647539153680389,2.46587817577521,0.5445020185570556,0.0003241660956682882,0.00019906510418275124,0.00038357227988100877,-0.00020019684675797348,0.000161151439352947,-8.84170924007299e-05,-0.001167485543238596,0.0,0.0,0.0,0.0,0.0,0.0,0.0,-5.234266582299085e-05,-0.0004490940023887391,9.37932321803947e-06,0.00021256899835009335,5.320056564617204e-06,-0.00011208073268864638,1.7323430710147747e-05,-0.0003241660956682882,-0.00019906510418275124,-0.00038357227988100877,0.00020019684675797348,-0.000161151439352947,8.84170924007299e-05,0.001167485543238596,0.4267818331718445,34.03915023803711,3.8228423595428467,-19.487642288208008,-0.2548118233680725,-1.790164589881897,0.06991903483867645,0
55,0.2695329189300537,-0.4029781222343445,-34.03915023803711,-3.7990386486053467,19.487642288208008,0.2603049874305725,1.790164589881897,-0.11111776530742645,0.0,0.0,0.0,0.0,0.0,0.0,0.0,-0.4029840164647076,0.06713508387433083,-0.2226980838917517,0.4610260283885695,0.20576716672672923,-0.11953272915376034,-0.10417529167224025,1.054461148123992,0.3243113088961802,-0.3925153729731152,-2.1535043565181264,0.8647479865749585,2.465988490454327,0.5444892858270715,1.0544104758940245,0.3238615046091247,-0.39250456234122666,-2.153291787532338,0.8647539153680389,2.46587817577521,0.5445020185570556,0.0005903620806557383,0.0006369551848803413,0.00014910117647316595,0.00027616221858383846,8.698986831548001e-05,-0.0002520601531498042,2.04673722124108e-05,0.0,0.0,0.0,0.0,0.0,0.0,0.0,-5.067222996757437e-05,-0.0004498042870554886,1.0810631888513722e-05,0.00021256898578858596,5.928793080367534e-06,-0.00011031467911726267,1.2732729984143987e-05,-0.0005903620806557383,-0.0006369551848803413,-0.00014910117647316595,-0.00027616221858383846,-8.698986831548001e-05,0.0002520601531498042,-2.04673722124108e-05,0.4029781222343445,34.03915023803711,3.7990386486053467,-19.487642288208008,-0.2603049874305725,-1.790164589881897,0.11111776530742645,0
56,0.2749028205871582,-0.4029781222343445,-34.03915023803711,-3.7990386486053467,19.487642288208008,0.2603049874305725,1.790164589881897,-0.11111776530742645,0.0,0.0,0.0,0.0,0.0,0.0,0.0,-0.4029840164647076,0.06713508387433083,-0.2226980838917517,0.4610260283885695,0.20576716672672923,-0.11953272915376034,-0.10417529167224025,1.054461148123992,0.3243113088961802,-0.3925153729731152,-2.1535043565181264,0.8647479865749585,2.465988490454327,0.5444892858270715,1.0544104758940245,0.3238615046091247,-0.39250456234122666,-2.153291787532338,0.8647539153680389,2.46587817577521,0.5445020185570556,0.0005903620806557383,0.0006369551848803413,0.00014910117647316595,0.00027616221858383846,8.698986831548001e-05,-0.0002520601531498042,2.04673722124108e-05,0.0,0.0,0.0,0.0,0.0,0.0,0.0,-5.067222996757437e-05,-0.0004498042870554886,1.0810631888513722e-05,0.00021256898578858596,5.928793080367534e-06,-0.00011031467911726267,1.2732729984143987e-05,-0.0005903620806557383,-0.0006369551848803413,-0.00014910117647316595,-0.00027616221858383846,-8.698986831548001e-05,0.0002520601531498042,-2.04673722124108e-05,0.4029781222343445,34.03915023803711,3.7990386486053467,-19.487642288208008,-0.2603049874305725,-1.790164589881897,0.11111776530742645,0
57,0.2794990539550781,-0.4029781222343445,-33.99154281616211,-3.7752349376678467,19.459871292114258,0.2548118233680725,1.770938515663147,-0.06991903483867645,0.0,0.0,0.0,0.0,0.0,0.0,0.0,-0.41090140435710387,0.06659730685431106,-0.23185614809975094,0.46009593384642694,0.20617079165336594,-0.11889308719315622,-0.10456724799275212,1.054463293891204,0.32430820521154063,-0.3925172824267985,-2.1535024076762954,0.8647485969265302,2.465992270424814,0.5444846951623095,1.0544104758940245,0.3238615046091247,-0.39250456234122666,-2.153291787532338,0.8647539153680389,2.46587817577521,0.5445020185570556,-0.00025489500596479755,-0.0003123204578485476,-7.21555533750178e-06,0.0005310288972652436,0.00013322148334256353,0.0006639411872498854,-0.0011118750284241374,0.0,0.0,0.0,0.0,0.0,0.0,0.0,-5.281799717948843e-05,-0.000446700602415917,1.2720085571849005e-05,0.0002106201439575628,5.318441508750382e-06,-0.00011409464960410176,1.73233947461382e-05,0.00025489500596479755,0.0003123204578485476,7.21555533750178e-06,-0.0005310288972652436,-0.00013322148334256353,-0.0006639411872498854,0.0011118750284241374,0.4029781222343445,33.99154281616211,3.7752349376678467,-19.459871292114258,-0.2548118233680725,-1.770938515663147,0.06991903483867645,0
58,0.2845337390899658,-0.4029781222343445,-33.99154281616211,-3.7752349376678467,19.459871292114258,0.2548118233680725,1.770938515663147,-0.06991903483867645,0.0,0.0,0.0,0.0,0.0,0.0,0.0,-0.41090140435710387,0.06659730685431106,-0.23185614809975094,0.46009593384642694,0.20617079165336594,-0.11889308719315622,-0.10456724799275212,1.054463293891204,0.32430820521154063,-0.3925172824267985,-2.1535024076762954,0.8647485969265302,2.465992270424814,0.5444846951623095,1.0544104758940245,0.3238615046091247,-0.39250456234122666,-2.153291787532338,0.8647539153680389,2.46587817577521,0.5445020185570556,-0.00025489500596479755,-0.0003123204578485476,-7.21555533750178e-06,0.0005310288972652436,0.00013322148334256353,0.0006639411872498854,-0.0011118750284241374,0.0,0.0,0.0,0.0,0.0,0.0,0.0,-5.281799717948843e-05,-0.000446700602415917,1.2720085571849005e-05,0.0002106201439575628,5.318441508750382e-06,-0.00011409464960410176,1.73233947461382e-05,0.00025489500596479755,0.0003123204578485476,7.21555533750178e-06,-0.0005310288972652436,-0.00013322148334256353,-0.0006639411872498854,0.0011118750284241374,0.4029781222343445,33.99154281616211,3.7752349376678467,-19.459871292114258,-0.2548118233680725,-1.770938515663147,0.06991903483867645,0
59,0.2895486354827881,-0.4267818331718445,-34.01534652709961,-3.7752349376678467,19.436067581176758,0.2667136788368225,1.783755898475647,-0.11844198405742645,0.0,0.0,0.0,0.0,0.0,0.0,0.0,-0.42124654777922604,0.06592890134773734,-0.2401866454812088,0.46420985055122127,0.20596386269889647,-0.11841174968766557,-0.10508029999748869,1.054464964331097,0.324311402826142,-0.39251728253615503,-2.15350073724044,0.8647472729907594,2.4659923814506253,0.5444900865472025,1.0544104758940245,0.3238615046091247,-0.39250456234122666,-2.153291787532338,0.8647539153680389,2.46587817577521,0.5445020185570556,6.448624489207001e-05,0.0006400983901862944,-0.0007424369730412056,0.0017673076207253197,-0.0003634888759029885,2.8597600387939954e-05,0.000389911515319182,0.0,0.0,0.0,0.0,0.0,0.0,0.0,-5.448843707256401e-05,-0.00044989821701729715,1.2720194928372841e-05,0.0002089497081021463,6.642377279542089e-06,-0.00011420567541531312,1.1932009853055092e-05,-6.448624489207001e-05,-0.0006400983901862944,0.0007424369730412056,-0.0017673076207253197,0.0003634888759029885,-2.8597600387939954e-05,-0.000389911515319182,0.4267818331718445,34.01534652709961,3.7752349376678467,-19.436067581176758,-0.2667136788368225,-1.783755898475647,0.11844198405742645,0
60,0.2945401668548584,-0.4267818331718445,-34.01534652709961,-3.7752349376678467,19.436067581176758,0.2667136788368225,1.783755898475647,-0.11844198405742645,0.0,0.0,0.0,0.0,0.0,0.0,0.0,-0.42124654777922604,0.06592890134773734,-0.2401866454812088,0.46420985055122127,0.20596386269889647,-0.11841174968766557,-0.10508029999748869,1.054464964331097,0.324311402826142,-0.39251728253615503,-2.15350073724044,0.8647472729907594,2.4659923814506253,0.5444900865472025,1.0544104758940245,0.3238615046091247,-0.39250456234122666,-2.153291787532338,0.8647539153680389,2.46587817577521,0.5445020185570556,6.448624489207001e-05,0.0006400983901862944,-0.0007424369730412056,0.0017673076207253197,-0.0003634888759029885,2.8597600387939954e-05,0.000389911515319182,0.0,0.0,0.0,0.0,0.0,0.0,0.0,-5.448843707256401e-05,-0.00044989821701729715,1.2720194928372841e-05,0.0002089497081021463,6.642377279542089e-06,-0.00011420567541531312,1.1932009853055092e-05,-6.448624489207001e-05,-0.0006400983901862944,0.0007424369730412056,-0.0017673076207253197,0.0003634888759029885,-2.8597600387939954e-05,-0.000389911515319182,0.4267818331718445,34.01534652709961,3.7752349376678467,-19.436067581176758,-0.2667136788368225,-1.783755898475647,0.11844198405742645,0
61,0.29958605766296387,-0.4267818331718445,-34.01534652709961,-3.7752349376678467,19.436067581176758,0.2667136788368225,1.783755898475647,-0.11844198405742645,0.0,0.0,0.0,0.0,0.0,0.0,0.0,-0.42124654777922604,0.06592890134773734,-0.2401866454812088,0.46420985055122127,0.20596386269889647,-0.11841174968766557,-0.10508029999748869,1.054464964331097,0.324311402826142,-0.39251728253615503,-2.15350073724044,0.8647472729907594,2.4659923814506253,0.5444900865472025,1.0544104758940245,0.3238615046091247,-0.39250456234122666,-2.153291787532338,0.8647539153680389,2.46587817577521,0.5445020185570556,6.448624489207001e-05,0.0006400983901862944,-0.0007424369730412056,0.0017673076207253197,-0.0003634888759029885,2.8597600387939954e-05,0.000389911515319182,0.0,0.0,0.0,0.0,0.0,0.0,0.0,-5.448843707256401e-05,-0.00044989821701729715,1.2720194928372841e-05,0.0002089497081021463,6.642377279542089e-06,-0.00011420567541531312,1.1932009853055092e-05,-6.448624489207001e-05,-0.0006400983901862944,0.0007424369730412056,-0.0017673076207253197,0.0003634888759029885,-2.8597600387939954e-05,-0.000389911515319182,0.4267818331718445,34.01534652709961,3.7752349376678467,-19.436067581176758,-0.2667136788368225,-1.783755898475647,0.11844198405742645,0
62,0.3046231269836426,-0.4267818331718445,-34.01534652709961,-3.7752349376678467,19.436067581176758,0.2667136788368225,1.783755898475647,-0.11844198405742645,0.0,0.0,0.0,0.0,0.0,0.0,0.0,-0.42124654777922604,0.06592890134773734,-0.2401866454812088,0.46420985055122127,0.20596386269889647,-0.11841174968766557,-0.10508029999748869,1.054464964331097,0.324311402826142,-0.39251728253615503,-2.15350073724044,0.8647472729907594,2.4659923814506253,0.5444900865472025,1.0544104758940245,0.3238615046091247,-0.39250456234122666,-2.153291787532338,0.8647539153680389,2.46587817577521,0.5445020185570556,6.448624489207001e-05,0.0006400983901862944,-0.0007424369730412056,0.0017673076207253197,-0.0003634888759029885,2.8597600387939954e-05,0.000389911515319182,0.0,0.0,0.0,0.0,0.0,0.0,0.0,-5.448843707256401e-05,-0.00044989821701729715,1.2720194928372841e-05,0.0002089497081021463,6.642377279542089e-06,-0.00011420567541531312,1.1932009853055092e-05,-6.448624489207001e-05,-0.0006400983901862944,0.0007424369730412056,-0.0017673076207253197,0.0003634888759029885,-2.8597600387939954e-05,-0.000389911515319182,0.4267818331718445,34.01534652709961,3.7752349376678467,-19.436067581176758,-0.2667136788368225,-1.783755898475647,0.11844198405742645,0
63,0.3095381259918213,-0.4267818331718445,-34.03915023803711,-3.8228423595428467,19.511445999145508,0.2548118233680725,1.777347207069397,-0.09097616374492645,0.0,0.0,0.0,0.0,0.0,0.0,0.0,-0.4191168283841045,0.061831591803851386,-0.2379696618202655,0.46658920429832573,0.20571906147953406,-0.11906749262369139,-0.10596954477205223,1.0544628185719604,0.3243106323191854,-0.39251370545344505,-2.153506026953982,0.8647450645840831,2.4659929757927666,0.5444870362429401,1.0544104758940245,0.3238615046091247,-0.39250456234122666,-2.153291787532338,0.8647539153680389,2.46587817577521,0.5445020185570556,-2.4469382193515692e-05,0.0007312585564334849,0.00017314506529516834,-0.0005494307215695042,0.0001378192472263187,0.0002572735100411001,0.00013597934881905255,0.0,0.0,0.0,0.0,0.0,0.0,0.0,-5.234267793596814e-05,-0.00044912771006067054,9.143112218390481e-06,0.00021423942164400245,8.850783955849373e-06,-0.0001148000175565933,1.4982314115452589e-05,2.4469382193515692e-05,-0.0007312585564334849,-0.00017314506529516834,0.0005494307215695042,-0.0001378192472263187,-0.0002572735100411001,-0.00013597934881905255,0.4267818331718445,34.03915023803711,3.8228423595428467,-19.511445999145508,-0.2548118233680725,-1.777347207069397,0.09097616374492645,0
64,0.31449341773986816,-0.4267818331718445,-34.03915023803711,-3.8228423595428467,19.511445999145508,0.2548118233680725,1.777347207069397,-0.09097616374492645,0.0,0.0,0.0,0.0,0.0,0.0,0.0,-0.4191168283841045,0.061831591803851386,-0.2379696618202655,0.46658920429832573,0.20571906147953406,-0.11906749262369139,-0.10596954477205223,1.0544628185719604,0.3243106323191854,-0.39251370545344505,-2.153506026953982,0.8647450645840831,2.4659929757927666,0.5444870362429401,1.0544104758940245,0.3238615046091247,-0.39250456234122666,-2.153291787532338,0.8647539153680389,2.46587817577521,0.5445020185570556,-2.4469382193515692e-05,0.0007312585564334849,0.00017314506529516834,-0.0005494307215695042,0.0001378192472263187,0.0002572735100411001,0.00013597934881905255,0.0,0.0,0.0,0.0,0.0,0.0,0.0,-5.234267793596814e-05,-0.00044912771006067054,9.143112218390481e-06,0.00021423942164400245,8.850783955849373e-06,-0.0001148000175565933,1.4982314115452589e-05,2.4469382193515692e-05,-0.0007312585564334849,-0.00017314506529516834,0.0005494307215695042,-0.0001378192472263187,-0.0002572735100411001,-0.00013597934881905255,0.4267818331718445,34.03915023803711,3.8228423595428467,-19.511445999145508,-0.2548118233680725,-1.777347207069397,0.09097616374492645,0
65,0.3195369243621826,-0.4029781222343445,-34.01534652709961,-3.8228423595428467,19.487642288208008,0.2484031319618225,1.790164589881897,-0.11111776530742645,0.0,0.0,0.0,0.0,0.0,0.0,0.0,-0.42031898227812575,0.0672285428337736,-0.23819467031140132,0.46331581977719866,0.20528820483638555,-0.11977944376454816,-0.10537965869385266,1.0544611579354561,0.32431105277419403,-0.3925139416640002,-2.153504438934425,0.8647493089787613,2.465988084921563,0.5444924647414621,1.0544104758940245,0.3238615046091247,-0.39250456234122666,-2.153291787532338,0.8647539153680389,2.46587817577521,0.5445020185570556,-0.0010666390552822992,1.3374670232084912e-05,0.0002039286235245914,-0.0001180254949614078,0.0005443997333501302,-7.016526069618734e-05,0.0006932669977834094,0.0,0.0,0.0,0.0,0.0,0.0,0.0,-5.0682041431659997e-05,-0.0004495481650693134,9.379322773561682e-06,0.00021265140208726052,4.606389277572731e-06,-0.00010990914635300442,9.553815593532633e-06,0.0010666390552822992,-1.3374670232084912e-05,-0.0002039286235245914,0.0001180254949614078,-0.0005443997333501302,7.016526069618734e-05,-0.0006932669977834094,0.4029781222343445,34.01534652709961,3.8228423595428467,-19.487642288208008,-0.2484031319618225,-1.790164589881897,0.11111776530742645,0
66,0.3245375156402588,-0.4029781222343445,-34.01534652709961,-3.8228423595428467,19.487642288208008,0.2484031319618225,1.790164589881897,-0.11111776530742645,0.0,0.0,0.0,0.0,0.0,0.0,0.0,-0.42031898227812575,0.0672285428337736,-0.23819467031140132,0.46331581977719866,0.20528820483638555,-0.11977944376454816,-0.10537965869385266,1.0544611579354561,0.32431105277419403,-0.3925139416640002,-2.153504438934425,0.8647493089787613,2.465988084921563,0.5444924647414621,1.0544104758940245,0.3238615046091247,-0.39250456234122666,-2.153291787532338,0.8647539153680389,2.46587817577521,0.5445020185570556,-0.0010666390552822992,1.3374670232084912e-05,0.0002039286235245914,-0.0001180254949614078,0.0005443997333501302,-7.016526069618734e-05,0.0006932669977834094,0.0,0.0,0.0,0.0,0.0,0.0,0.0,-5.0682041431659997e-05,-0.0004495481650693134,9.379322773561682e-06,0.00021265140208726052,4.606389277572731e-06,-0.00010990914635300442,9.553815593532633e-06,0.0010666390552822992,-1.3374670232084912e-05,-0.0002039286235245914,0.0001180254949614078,-0.0005443997333501302,7.016526069618734e-05,-0.0006932669977834094,0.4029781222343445,34.01534652709961,3.8228423595428467,-19.487642288208008,-0.2484031319618225,-1.790164589881897,0.11111776530742645,0
67,0.3295423984527588,-0.4267818331718445,-34.01534652709961,-3.8228423595428467,19.511445999145508,0.2548118233680725,1.783755898475647,-0.09097616374492645,0.0,0.0,0.0,0.0,0.0,0.0,0.0,-0.41794519872683966,0.07450451351904962,-0.23421579802357262,0.45848613335152605,0.20506205082941617,-0.12031298241495032,-0.10489585650518231,1.054462821503342,0.32431113541137574,-0.39251386292744483,-2.153506026954447,0.86474824226027,2.4659892005269892,0.5444870348612441,1.0544104758940245,0.3238615046091247,-0.39250456234122666,-2.153291787532338,0.8647539153680389,2.46587817577521,0.5445020185570556,-3.805554594983844e-05,0.0007645841001277249,0.0003433906809735741,-0.0009411699172015767,0.00013695111493000294,7.701814307556271e-05,-0.0001431710522047601,0.0,0.0,0.0,0.0,0.0,0.0,0.0,-5.234560931755006e-05,-0.00044963080225102203,9.300586218174978e-06,0.00021423942210896385,5.673107768888741e-06,-0.00011102475177926507,1.4983695811543463e-05,3.805554594983844e-05,-0.0007645841001277249,-0.0003433906809735741,0.0009411699172015767,-0.00013695111493000294,-7.701814307556271e-05,0.0001431710522047601,0.4267818331718445,34.01534652709961,3.8228423595428467,-19.511445999145508,-0.2548118233680725,-1.783755898475647,0.09097616374492645,0
68,0.3345351219177246,-0.4267818331718445,-34.01534652709961,-3.8228423595428467,19.511445999145508,0.2548118233680725,1.783755898475647,-0.09097616374492645,0.0,0.0,0.0,0.0,0.0,0.0,0.0,-0.41794519872683966,0.07450451351904962,-0.23421579802357262,0.45848613335152605,0.20506205082941617,-0.12031298241495032,-0.10489585650518231,1.054462821503342,0.32431113541137574,-0.39251386292744483,-2.153506026954447,0.86474824226027,2.4659892005269892,0.5444870348612441,1.0544104758940245,0.3238615046091247,-0.39250456234122666,-2.153291787532338,0.8647539153680389,2.46587817577521,0.5445020185570556,-3.805554594983844e-05,0.0007645841001277249,0.0003433906809735741,-0.0009411699172015767,0.00013695111493000294,7.701814307556271e-05,-0.0001431710522047601,0.0,0.0,0.0,0.0,0.0,0.0,0.0,-5.234560931755006e-05,-0.00044963080225102203,9.300586218174978e-06,0.00021423942210896385,5.673107768888741e-06,-0.00011102475177926507,1.4983695811543463e-05,3.805554594983844e-05,-0.0007645841001277249,-0.0003433906809735741,0.0009411699172015767,-0.00013695111493000294,-7.701814307556271e-05,0.0001431710522047601,0.4267818331718445,34.01534652709961,3.8228423595428467,-19.511445999145508,-0.2548118233680725,-1.783755898475647,0.09097616374492645,0
69,0.3395411968231201,-0.4505855441093445,-34.01534652709961,-3.7752349376678467,19.487642288208008,0.2603049874305725,1.783755898475647,-0.11111776530742645,0.0,0.0,0.0,0.0,0.0,0.0,0.0,-0.4218261226236296,0.06565587514998655,-0.23925287177511514,0.4619472719845837,0.20484588094243056,-0.11955454876690556,-0.10492954819033594,1.054464568468579,0.324308953133265,-0.3925172825357108,-2.1535043565181264,0.8647469269348362,2.4659919846163403,0.5444893920977453,1.0544104758940245,0.3238615046091247,-0.39250456234122666,-2.153291787532338,0.8647539153680389,2.46587817577521,0.5445020185570556,0.0006568072919876533,0.00022617415947866372,-0.0008776026146082926,-0.00020431148531695136,-6.939761952619399e-05,-1.5811422390444095e-05,-0.00010256504006364736,0.0,0.0,0.0,0.0,0.0,0.0,0.0,-5.4092574554465145e-05,-0.00044744852414030367,1.2720194484117098e-05,0.00021256898578858596,6.988433202681499e-06,-0.00011380884113032508,1.2626459310327576e-05,-0.0006568072919876533,-0.00022617415947866372,0.0008776026146082926,0.00020431148531695136,6.939761952619399e-05,1.5811422390444095e-05,0.00010256504006364736,0.4505855441093445,34.01534652709961,3.7752349376678467,-19.487642288208008,-0.2603049874305725,-1.783755898475647,0.11111776530742645,0
70,0.3444995880126953,-0.4505855441093445,-34.01534652709961,-3.7752349376678467,19.487642288208008,0.2603049874305725,1.783755898475647,-0.11111776530742645,0.0,0.0,0.0,0.0,0.0,0.0,0.0,-0.4218261226236296,0.06565587514998655,-0.23925287177511514,0.4619472719845837,0.20484588094243056,-0.11955454876690556,-0.10492954819033594,1.054464568468579,0.324308953133265,-0.3925172825357108,-2.1535043565181264,0.8647469269348362,2.4659919846163403,0.5444893920977453,1.0544104758940245,0.3238615046091247,-0.39250456234122666,-2.153291787532338,0.8647539153680389,2.46587817577521,0.5445020185570556,0.0006568072919876533,0.00022617415947866372,-0.0008776026146082926,-0.00020431148531695136,-6.939761952619399e-05,-1.5811422390444095e-05,-0.00010256504006364736,0.0,0.0,0.0,0.0,0.0,0.0,0.0,-5.4092574554465145e-05,-0.00044744852414030367,1.2720194484117098e-05,0.00021256898578858596,6.988433202681499e-06,-0.00011380884113032508,1.2626459310327576e-05,-0.0006568072919876533,-0.00022617415947866372,0.0008776026146082926,0.00020431148531695136,6.939761952619399e-05,1.5811422390444095e-05,0.00010256504006364736,0.4505855441093445,34.01534652709961,3.7752349376678467,-19.487642288208008,-0.2603049874305725,-1.783755898475647,0.11111776530742645,0
71,0.3495323657989502,-0.4029781222343445,-33.99154281616211,-3.7752349376678467,19.487642288208008,0.2667136788368225,1.770938515663147,-0.12485067546367645,0.0,0.0,0.0,0.0,0.0,0.0,0.0,-0.4147531546881449,0.05956002886546863,-0.23155720310672606,0.4666317342449542,0.20450100400208096,-0.11948511421923512,-0.10592694869215263,1.0544618908522776,0.32431009100742236,-0.39251728253615525,-2.1535043565181264,0.8647469211179477,2.4659933340086173,0.5444907986785343,1.0544104758940245,0.3238615046091247,-0.39250456234122666,-2.153291787532338,0.8647539153680389,2.46587817577521,0.5445020185570556,0.00028439629599887707,-0.000679045836861511,-0.00016644887059678192,7.345241158126682e-05,-0.00027491733481202555,0.0005972643984772451,0.0009134951544614176,0.0,0.0,0.0,0.0,0.0,0.0,0.0,-5.141495825311537e-05,-0.0004485863982976457,1.2720194928594886e-05,0.00021256898578858596,6.99425009120791e-06,-0.0001151582334073531,1.1219878521262494e-05,-0.00028439629599887707,0.000679045836861511,0.00016644887059678192,-7.345241158126682e-05,0.00027491733481202555,-0.0005972643984772451,-0.0009134951544614176,0.4029781222343445,33.99154281616211,3.7752349376678467,-19.487642288208008,-0.2667136788368225,-1.770938515663147,0.12485067546367645,0
72,0.3549346923828125,-0.4029781222343445,-33.99154281616211,-3.7752349376678467,19.487642288208008,0.2667136788368225,1.770938515663147,-0.12485067546367645,0.0,0.0,0.0,0.0,0.0,0.0,0.0,-0.4147531546881449,0.05956002886546863,-0.23155720310672606,0.4666317342449542,0.20450100400208096,-0.11948511421923512,-0.10592694869215263,1.0544618908522776,0.32431009100742236,-0.39251728253615525,-2.1535043565181264,0.8647469211179477,2.4659933340086173,0.5444907986785343,1.0544104758940245,0.3238615046091247,-0.39250456234122666,-2.153291787532338,0.8647539153680389,2.46587817577521,0.5445020185570556,0.00028439629599887707,-0.000679045836861511,-0.00016644887059678192,7.345241158126682e-05,-0.00027491733481202555,0.0005972643984772451,0.0009134951544614176,0.0,0.0,0.0,0.0,0.0,0.0,0.0,-5.141495825311537e-05,-0.0004485863982976457,1.2720194928594886e-05,0.00021256898578858596,6.99425009120791e-06,-0.0001151582334073531,1.1219878521262494e-05,-0.00028439629599887707,0.000679045836861511,0.00016644887059678192,-7.345241158126682e-05,0.00027491733481202555,-0.0005972643984772451,-0.0009134951544614176,0.4029781222343445,33.99154281616211,3.7752349376678467,-19.487642288208008,-0.2667136788368225,-1.770938515663147,0.12485067546367645,0
73,0.35953807830810547,-0.4029781222343445,-33.99154281616211,-3.7752349376678467,19.487642288208008,0.2603049874305725,1.796573281288147,-0.12485067546367645,0.0,0.0,0.0,0.0,0.0,0.0,0.0,-0.430532782324902,0.05753583834654822,-0.245043019055147,0.4663447835462801,0.20569831208837058,-0.11814155893489615,-0.10646275082105265,1.0544611484552335,0.32431032820633676,-0.39251728253615525,-2.153504356555811,0.864747868297051,2.465987778382818,0.5444908422843683,1.0544104758940245,0.3238615046091247,-0.39250456234122666,-2.153291787532338,0.8647539153680389,2.46587817577521,0.5445020185570556,-0.0005583614557230916,-0.0006381006008124103,-0.000609307533270068,-5.578063410537281e-05,-0.00019482070588725529,-0.0003800187485839906,0.0009468655061164686,0.0,0.0,0.0,0.0,0.0,0.0,0.0,-5.067256120905306e-05,-0.0004488235972120447,1.2720194928594886e-05,0.00021256902347310813,6.047070987946768e-06,-0.00010960260760795038,1.11762726873188e-05,0.0005583614557230916,0.0006381006008124103,0.000609307533270068,5.578063410537281e-05,0.00019482070588725529,0.0003800187485839906,-0.0009468655061164686,0.4029781222343445,33.99154281616211,3.7752349376678467,-19.487642288208008,-0.2603049874305725,-1.796573281288147,0.12485067546367645,0
74,0.3645501136779785,-0.4029781222343445,-33.99154281616211,-3.7752349376678467,19.487642288208008,0.2603049874305725,1.796573281288147,-0.12485067546367645,0.0,0.0,0.0,0.0,0.0,0.0,0.0,-0.430532782324902,0.05753583834654822,-0.245043019055147,0.4663447835462801,0.20569831208837058,-0.11814155893489615,-0.10646275082105265,1.0544611484552335,0.32431032820633676,-0.39251728253615525,-2.153504356555811,0.864747868297051,2.465987778382818,0.5444908422843683,1.0544104758940245,0.3238615046091247,-0.39250456234122666,-2.153291787532338,0.8647539153680389,2.46587817577521,0.5445020185570556,-0.0005583614557230916,-0.0006381006008124103,-0.000609307533270068,-5.578063410537281e-05,-0.00019482070588725529,-0.0003800187485839906,0.0009468655061164686,0.0,0.0,0.0,0.0,0.0,0.0,0.0,-5.067256120905306e-05,-0.0004488235972120447,1.2720194928594886e-05,0.00021256902347310813,6.047070987946768e-06,-0.00010960260760795038,1.11762726873188e-05,0.0005583614557230916,0.0006381006008124103,0.000609307533270068,5.578063410537281e-05,0.00019482070588725529,0.0003800187485839906,-0.0009468655061164686,0.4029781222343445,33.99154281616211,3.7752349376678467,-19.487642288208008,-0.2603049874305725,-1.796573281288147,0.12485067546367645,0
75,0.37001919746398926,-0.4267818331718445,-33.99154281616211,-3.7990386486053467,19.511445999145508,0.2548118233680725,1.777347207069397,-0.11111776530742645,0.0,0.0,0.0,0.0,0.0,0.0,0.0,-0.4172267064185712,0.0635136422900879,-0.23463699781279562,0.4656220007009015,0.2055992573645051,-0.11885488661174,-0.10625894917338513,1.0544628185598492,0.32430725753668466,-0.3925156121003,-2.1535067687006726,0.8647485533193551,2.4659920162163185,0.5444896303187261,1.0544104758940245,0.3238615046091247,-0.39250456234122666,-2.153291787532338,0.8647539153680389,2.46587817577521,0.5445020185570556,0.00043366940487368875,-0.0003382261198226726,1.1387624159317514e-05,-0.0004289682952139534,3.4792604272623775e-05,0.00024393930264621322,0.0008879464053890978,0.0,0.0,0.0,0.0,0.0,0.0,0.0,-5.234266582476721e-05,-0.00044575292755993923,1.1049759073344934e-05,0.00021498116833473802,5.36204868384349e-06,-0.00011384044110851477,1.2388238329497092e-05,-0.00043366940487368875,0.0003382261198226726,-1.1387624159317514e-05,0.0004289682952139534,-3.4792604272623775e-05,-0.00024393930264621322,-0.0008879464053890978,0.4267818331718445,33.99154281616211,3.7990386486053467,-19.511445999145508,-0.2548118233680725,-1.777347207069397,0.11111776530742645,0
76,0.3744974136352539,-0.4267818331718445,-33.99154281616211,-3.7990386486053467,19.511445999145508,0.2548118233680725,1.777347207069397,-0.11111776530742645,0.0,0.0,0.0,0.0,0.0,0.0,0.0,-0.4172267064185712,0.0635136422900879,-0.23463699781279562,0.4656220007009015,0.2055992573645051,-0.11885488661174,-0.10625894917338513,1.0544628185598492,0.32430725753668466,-0.3925156121003,-2.1535067687006726,0.8647485533193551,2.4659920162163185,0.5444896303187261,1.0544104758940245,0.3238615046091247,-0.39250456234122666,-2.153291787532338,0.8647539153680389,2.46587817577521,0.5445020185570556,0.00043366940487368875,-0.0003382261198226726,1.1387624159317514e-05,-0.0004289682952139534,3.4792604272623775e-05,0.00024393930264621322,0.0008879464053890978,0.0,0.0,0.0,0.0,0.0,0.0,0.0,-5.234266582476721e-05,-0.00044575292755993923,1.1049759073344934e-05,0.00021498116833473802,5.36204868384349e-06,-0.00011384044110851477,1.2388238329497092e-05,-0.00043366940487368875,0.0003382261198226726,-1.1387624159317514e-05,0.0004289682952139534,-3.4792604272623775e-05,-0.00024393930264621322,-0.0008879464053890978,0.4267818331718445,33.99154281616211,3.7990386486053467,-19.511445999145508,-0.2548118233680725,-1.777347207069397,0.11111776530742645,0
77,0.379544734954834,-0.4505855441093445,-34.06295394897461,-3.7990386486053467,19.487642288208008,0.2603049874305725,1.783755898475647,-0.08365194499492645,0.0,0.0,0.0,0.0,0.0,0.0,0.0,-0.4174524891386621,0.06059557322181269,-0.2361586020917833,0.4693164631776429,0.2052242445608502,-0.11934451399518596,-0.10488131233024203,1.0544644889957027,0.3243125039578475,-0.392514903467301,-2.1535043565223133,0.8647479865747215,2.4659913201942474,0.5444873242339618,1.0544104758940245,0.3238615046091247,-0.39250456234122666,-2.153291787532338,0.8647539153680389,2.46587817577521,0.5445020185570556,0.0012067278696785283,0.001123707278986842,0.0001749575358931127,0.0004194413649072847,-1.8386962620213717e-05,0.0001230773877232884,-0.0006084963457919871,0.0,0.0,0.0,0.0,0.0,0.0,0.0,-5.4013101678185294e-05,-0.00045099934872278036,1.0341126074342455e-05,0.00021256898997545903,5.9287933174001495e-06,-0.00011314441903742534,1.4694323093755735e-05,-0.0012067278696785283,-0.001123707278986842,-0.0001749575358931127,-0.0004194413649072847,1.8386962620213717e-05,-0.0001230773877232884,0.0006084963457919871,0.4505855441093445,34.06295394897461,3.7990386486053467,-19.487642288208008,-0.2603049874305725,-1.783755898475647,0.08365194499492645,0
78,0.384533166885376,-0.4505855441093445,-34.06295394897461,-3.7990386486053467,19.487642288208008,0.2603049874305725,1.783755898475647,-0.08365194499492645,0.0,0.0,0.0,0.0,0.0,0.0,0.0,-0.4174524891386621,0.06059557322181269,-0.2361586020917833,0.4693164631776429,0.2052242445608502,-0.11934451399518596,-0.10488131233024203,1.0544644889957027,0.3243125039578475,-0.392514903467301,-2.1535043565223133,0.8647479865747215,2.4659913201942474,0.5444873242339618,1.0544104758940245,0.3238615046091247,-0.39250456234122666,-2.153291787532338,0.8647539153680389,2.46587817577521,0.5445020185570556,0.0012067278696785283,0.001123707278986842,0.0001749575358931127,0.0004194413649072847,-1.8386962620213717e-05,0.0001230773877232884,-0.0006084963457919871,0.0,0.0,0.0,0.0,0.0,0.0,0.0,-5.4013101678185294e-05,-0.00045099934872278036,1.0341126074342455e-05,0.00021256898997545903,5.9287933174001495e-06,-0.00011314441903742534,1.4694323093755735e-05,-0.0012067278696785283,-0.001123707278986842,-0.0001749575358931127,-0.0004194413649072847,1.8386962620213717e-05,-0.0001230773877232884,0.0006084963457919871,0.4505855441093445,34.06295394897461,3.7990386486053467,-19.487642288208008,-0.2603049874305725,-1.783755898475647,0.08365194499492645,0
79,0.3895585536956787,-0.4029781222343445,-34.03915023803711,-3.7752349376678467,19.487642288208008,0.2603049874305725,1.783755898475647,-0.11844198405742645,0.0,0.0,0.0,0.0,0.0,0.0,0.0,-0.4213029754656278,0.06055186591566996,-0.23770478635143288,0.47054458575709257,0.20603724283290376,-0.1193881099265049,-0.10319860400763188,1.0544612285779982,0.3243115431643825,-0.392517282532155,-2.1535043565181264,0.864746925483288,2.46598802499593,0.5444904402506568,1.0544104758940245,0.3238615046091247,-0.39250456234122666,-2.153291787532338,0.8647539153680389,2.46587817577521,0.5445020185570556,-0.000560739580810917,0.0004048406942981003,-0.0007444291422892991,0.000558379600304452,7.263405454922119e-05,8.057470468091118e-05,0.0005741900177093112,0.0,0.0,0.0,0.0,0.0,0.0,0.0,-5.0752683973698254e-05,-0.00045003855525777015,1.2720190928350306e-05,0.00021256898578858596,6.989884750896458e-06,-0.00010984922072010406,1.1578306398751792e-05,0.000560739580810917,-0.0004048406942981003,0.0007444291422892991,-0.000558379600304452,-7.263405454922119e-05,-8.057470468091118e-05,-0.0005741900177093112,0.4029781222343445,34.03915023803711,3.7752349376678467,-19.487642288208008,-0.2603049874305725,-1.783755898475647,0.11844198405742645,0
80,0.39458394050598145,-0.4029781222343445,-34.03915023803711,-3.7752349376678467,19.487642288208008,0.2603049874305725,1.783755898475647,-0.11844198405742645,0.0,0.0,0.0,0.0,0.0,0.0,0.0,-0.4213029754656278,0.06055186591566996,-0.23770478635143288,0.47054458575709257,0.20603724283290376,-0.1193881099265049,-0.10319860400763188,1.0544612285779982,0.3243115431643825,-0.392517282532155,-2.1535043565181264,0.864746925483288,2.46598802499593,0.5444904402506568,1.0544104758940245,0.3238615046091247,-0.39250456234122666,-2.153291787532338,0.8647539153680389,2.46587817577521,0.5445020185570556,-0.000560739580810917,0.0004048406942981003,-0.0007444291422892991,0.000558379600304452,7.263405454922119e-05,8.057470468091118e-05,0.0005741900177093112,0.0,0.0,0.0,0.0,0.0,0.0,0.0,-5.0752683973698254e-05,-0.00045003855525777015,1.2720190928350306e-05,0.00021256898578858596,6.989884750896458e-06,-0.00010984922072010406,1.1578306398751792e-05,0.000560739580810917,-0.0004048406942981003,0.0007444291422892991,-0.000558379600304452,-7.263405454922119e-05,-8.057470468091118e-05,-0.0005741900177093112,0.4029781222343445,34.03915023803711,3.7752349376678467,-19.487642288208008,-0.2603049874305725,-1.783755898475647,0.11844198405742645,0
