rezayati/contactInterpretation/dataset/franka_main/labeled_data/link1/g1_4.csv
index,time,tau_J0,tau_J1,tau_J2,tau_J3,tau_J4,tau_J5,tau_J6,tau_J_d0,tau_J_d1,tau_J_d2,tau_J_d3,tau_J_d4,tau_J_d5,tau_J_d6,tau_ext0,tau_ext1,tau_ext2,tau_ext3,tau_ext4,tau_ext5,tau_ext6,q0,q1,q2,q3,q4,q5,q6,q_d0,q_d1,q_d2,q_d3,q_d4,q_d5,q_d6,dq0,dq1,dq2,dq3,dq4,dq5,dq6,dq_d0,dq_d1,dq_d2,dq_d3,dq_d4,dq_d5,dq_d6,e0,e1,e2,e3,e4,e5,e6,de0,de1,de2,de3,de4,de5,de6,etau_J0,etau_J1,etau_J2,etau_J3,etau_J4,etau_J5,etau_J6,label
1,0.0,-0.4029781222343445,-19.693445205688477,-0.5220611095428467,19.983552932739258,0.6539817452430725,2.4566683769226074,-0.20724813640117645,0.0,0.0,0.0,0.0,0.0,0.0,0.0,-0.3697473304867108,0.057892537776710835,-0.31799422674937244,0.1961669496829467,0.06961407051048747,0.0941537014710047,-0.24122623388822723,1.2134448250269094,-0.22023988974094388,-0.007511118084890915,-2.6038520101246077,-0.108884639163812,2.4681849740876087,0.8264732170090785,1.2134413937687574,-0.2202432315892585,-0.0075118285948192216,-2.6038483821997875,-0.10888392708698907,2.4681821257803174,0.826474908251239,0.0006841741546568896,0.0004646033324990827,-0.00014021625609518336,-0.0001814053242484989,-7.115951085787505e-05,0.000311437541111327,-0.00120356417662527,0.0,0.0,0.0,0.0,0.0,0.0,0.0,-3.4312581520534735e-06,-3.3418483146030464e-06,-7.105099283062979e-07,3.6279248201154246e-06,7.120768229229579e-07,-2.848307291358765e-06,1.6912421605397299e-06,-0.0006841741546568896,-0.0004646033324990827,0.00014021625609518336,0.0001814053242484989,7.115951085787505e-05,-0.000311437541111327,0.00120356417662527,0.4029781222343445,19.693445205688477,0.5220611095428467,-19.983552932739258,-0.6539817452430725,-2.4566683769226074,0.20724813640117645,0
2,0.005007028579711914,-0.3514034152030945,-19.669641494750977,-0.5458648204803467,19.983552932739258,0.6658836007118225,2.4694857597351074,-0.23471395671367645,0.0,0.0,0.0,0.0,0.0,0.0,0.0,-0.3646489394537047,0.05678331454822684,-0.31320748921158326,0.19663030297633233,0.06907709508641446,0.09438753412091513,-0.24044014532410626,1.2134419484370171,-0.22024156017679913,-0.007510149387240052,-2.6038499438302556,-0.10888596159219742,2.468183549933963,0.8264772091626827,1.2134413937687574,-0.2202432315892585,-0.0075118285948192216,-2.6038483821997875,-0.10888392708698907,2.4681821257803174,0.826474908251239,-0.00022050802929349025,-0.00036166877003451954,0.000819693046865231,0.00010203449703133641,-0.00039620557070073776,0.00010148411657572384,9.531656476710155e-05,0.0,0.0,0.0,0.0,0.0,0.0,0.0,-5.546682597667996e-07,-1.6714124593530943e-06,-1.6792075791692215e-06,1.5616304680499127e-06,2.0345052083453607e-06,-1.4241536456793824e-06,-2.3009114437089195e-06,0.00022050802929349025,0.00036166877003451954,-0.000819693046865231,-0.00010203449703133641,0.00039620557070073776,-0.00010148411657572384,-9.531656476710155e-05,0.3514034152030945,19.669641494750977,0.5458648204803467,-19.983552932739258,-0.6658836007118225,-2.4694857597351074,0.23471395671367645,0
3,0.010014772415161133,-0.3514034152030945,-19.669641494750977,-0.5458648204803467,19.983552932739258,0.6658836007118225,2.4694857597351074,-0.23471395671367645,0.0,0.0,0.0,0.0,0.0,0.0,0.0,-0.3646489394537047,0.05678331454822684,-0.31320748921158326,0.19663030297633233,0.06907709508641446,0.09438753412091513,-0.24044014532410626,1.2134419484370171,-0.22024156017679913,-0.007510149387240052,-2.6038499438302556,-0.10888596159219742,2.468183549933963,0.8264772091626827,1.2134413937687574,-0.2202432315892585,-0.0075118285948192216,-2.6038483821997875,-0.10888392708698907,2.4681821257803174,0.826474908251239,-0.00022050802929349025,-0.00036166877003451954,0.000819693046865231,0.00010203449703133641,-0.00039620557070073776,0.00010148411657572384,9.531656476710155e-05,0.0,0.0,0.0,0.0,0.0,0.0,0.0,-5.546682597667996e-07,-1.6714124593530943e-06,-1.6792075791692215e-06,1.5616304680499127e-06,2.0345052083453607e-06,-1.4241536456793824e-06,-2.3009114437089195e-06,0.00022050802929349025,0.00036166877003451954,-0.000819693046865231,-0.00010203449703133641,0.00039620557070073776,-0.00010148411657572384,-9.531656476710155e-05,0.3514034152030945,19.669641494750977,0.5458648204803467,-19.983552932739258,-0.6658836007118225,-2.4694857597351074,0.23471395671367645,0
4,0.015000581741333008,-0.3752071261405945,-19.693445205688477,-0.4982573688030243,19.931978225708008,0.6475730538368225,2.4694857597351074,-0.22098104655742645,0.0,0.0,0.0,0.0,0.0,0.0,0.0,-0.36842750619476516,0.06285805012980307,-0.31872879788297204,0.1945379728658129,0.06947780585397846,0.09494158815866605,-0.23857313076007275,1.2134435923861118,-0.22023988974094388,-0.007513490156759863,-2.603848390835257,-0.10888392708698909,2.468183549933963,0.8264721637594229,1.2134413937687574,-0.2202432315892585,-0.0075118285948192216,-2.6038483821997875,-0.10888392708698907,2.4681821257803174,0.826474908251239,3.301309069956635e-05,0.00022048037285764954,-0.0004683908738168754,0.0011430312114657252,0.00010159911566827693,-6.557778709550309e-05,-0.001054046361310976,0.0,0.0,0.0,0.0,0.0,0.0,0.0,-2.1986173543986354e-06,-3.3418483146030464e-06,1.6615619406416121e-06,8.635469672668705e-09,1.3877787807814457e-17,-1.4241536456793824e-06,2.744491816142336e-06,-3.301309069956635e-05,-0.00022048037285764954,0.0004683908738168754,-0.0011430312114657252,-0.00010159911566827693,6.557778709550309e-05,0.001054046361310976,0.3752071261405945,19.693445205688477,0.4982573688030243,-19.931978225708008,-0.6475730538368225,-2.4694857597351074,0.22098104655742645,0
5,0.019945621490478516,-0.3752071261405945,-19.693445205688477,-0.4982573688030243,19.931978225708008,0.6475730538368225,2.4694857597351074,-0.22098104655742645,0.0,0.0,0.0,0.0,0.0,0.0,0.0,-0.36842750619476516,0.06285805012980307,-0.31872879788297204,0.1945379728658129,0.06947780585397846,0.09494158815866605,-0.23857313076007275,1.2134435923861118,-0.22023988974094388,-0.007513490156759863,-2.603848390835257,-0.10888392708698909,2.468183549933963,0.8264721637594229,1.2134413937687574,-0.2202432315892585,-0.0075118285948192216,-2.6038483821997875,-0.10888392708698907,2.4681821257803174,0.826474908251239,3.301309069956635e-05,0.00022048037285764954,-0.0004683908738168754,0.0011430312114657252,0.00010159911566827693,-6.557778709550309e-05,-0.001054046361310976,0.0,0.0,0.0,0.0,0.0,0.0,0.0,-2.1986173543986354e-06,-3.3418483146030464e-06,1.6615619406416121e-06,8.635469672668705e-09,1.3877787807814457e-17,-1.4241536456793824e-06,2.744491816142336e-06,-3.301309069956635e-05,-0.00022048037285764954,0.0004683908738168754,-0.0011430312114657252,-0.00010159911566827693,6.557778709550309e-05,0.001054046361310976,0.3752071261405945,19.693445205688477,0.4982573688030243,-19.931978225708008,-0.6475730538368225,-2.4694857597351074,0.22098104655742645,0
6,0.024995088577270508,-0.3752071261405945,-19.693445205688477,-0.4982573688030243,19.931978225708008,0.6475730538368225,2.4694857597351074,-0.22098104655742645,0.0,0.0,0.0,0.0,0.0,0.0,0.0,-0.36842750619476516,0.06285805012980307,-0.31872879788297204,0.1945379728658129,0.06947780585397846,0.09494158815866605,-0.23857313076007275,1.2134435923861118,-0.22023988974094388,-0.007513490156759863,-2.603848390835257,-0.10888392708698909,2.468183549933963,0.8264721637594229,1.2134413937687574,-0.2202432315892585,-0.0075118285948192216,-2.6038483821997875,-0.10888392708698907,2.4681821257803174,0.826474908251239,3.301309069956635e-05,0.00022048037285764954,-0.0004683908738168754,0.0011430312114657252,0.00010159911566827693,-6.557778709550309e-05,-0.001054046361310976,0.0,0.0,0.0,0.0,0.0,0.0,0.0,-2.1986173543986354e-06,-3.3418483146030464e-06,1.6615619406416121e-06,8.635469672668705e-09,1.3877787807814457e-17,-1.4241536456793824e-06,2.744491816142336e-06,-3.301309069956635e-05,-0.00022048037285764954,0.0004683908738168754,-0.0011430312114657252,-0.00010159911566827693,6.557778709550309e-05,0.001054046361310976,0.3752071261405945,19.693445205688477,0.4982573688030243,-19.931978225708008,-0.6475730538368225,-2.4694857597351074,0.22098104655742645,0
7,0.029996156692504883,-0.3752071261405945,-19.693445205688477,-0.4982573688030243,19.931978225708008,0.6475730538368225,2.4694857597351074,-0.22098104655742645,0.0,0.0,0.0,0.0,0.0,0.0,0.0,-0.36842750619476516,0.06285805012980307,-0.31872879788297204,0.1945379728658129,0.06947780585397846,0.09494158815866605,-0.23857313076007275,1.2134435923861118,-0.22023988974094388,-0.007513490156759863,-2.603848390835257,-0.10888392708698909,2.468183549933963,0.8264721637594229,1.2134413937687574,-0.2202432315892585,-0.0075118285948192216,-2.6038483821997875,-0.10888392708698907,2.4681821257803174,0.826474908251239,3.301309069956635e-05,0.00022048037285764954,-0.0004683908738168754,0.0011430312114657252,0.00010159911566827693,-6.557778709550309e-05,-0.001054046361310976,0.0,0.0,0.0,0.0,0.0,0.0,0.0,-2.1986173543986354e-06,-3.3418483146030464e-06,1.6615619406416121e-06,8.635469672668705e-09,1.3877787807814457e-17,-1.4241536456793824e-06,2.744491816142336e-06,-3.301309069956635e-05,-0.00022048037285764954,0.0004683908738168754,-0.0011430312114657252,-0.00010159911566827693,6.557778709550309e-05,0.001054046361310976,0.3752071261405945,19.693445205688477,0.4982573688030243,-19.931978225708008,-0.6475730538368225,-2.4694857597351074,0.22098104655742645,0
8,0.035002708435058594,-0.3752071261405945,-19.693445205688477,-0.5220611095428467,19.983552932739258,0.6420798897743225,2.4758944511413574,-0.25485557317733765,0.0,0.0,0.0,0.0,0.0,0.0,0.0,-0.3673736655766067,0.06375694141315365,-0.31496045001208933,0.19555052032613782,0.06878089600329218,0.09554733710628653,-0.238454387870599,1.213440724494988,-0.22023988974094388,-0.007511828594774618,-2.6038517805363464,-0.10888331673542659,2.46818283785714,0.8264781607135407,1.2134413937687574,-0.2202432315892585,-0.0075118285948192216,-2.6038483821997875,-0.10888392708698907,2.4681821257803174,0.826474908251239,0.00021196436027789037,0.000641832729942806,0.00014531199167994762,5.424619744778946e-05,0.0004488450954902749,-0.0005076416234977915,0.00044970143668698225,0.0,0.0,0.0,0.0,0.0,0.0,0.0,6.692737692937101e-07,-3.3418483146030464e-06,-4.4603210014315664e-14,3.3983365588241554e-06,-6.103515624855671e-07,-7.120768228396912e-07,-3.2524623017060605e-06,-0.00021196436027789037,-0.000641832729942806,-0.00014531199167994762,-5.424619744778946e-05,-0.0004488450954902749,0.0005076416234977915,-0.00044970143668698225,0.3752071261405945,19.693445205688477,0.5220611095428467,-19.983552932739258,-0.6420798897743225,-2.4758944511413574,0.25485557317733765,0
9,0.0400233268737793,-0.3752071261405945,-19.693445205688477,-0.5220611095428467,19.983552932739258,0.6420798897743225,2.4758944511413574,-0.25485557317733765,0.0,0.0,0.0,0.0,0.0,0.0,0.0,-0.3673736655766067,0.06375694141315365,-0.31496045001208933,0.19555052032613782,0.06878089600329218,0.09554733710628653,-0.238454387870599,1.213440724494988,-0.22023988974094388,-0.007511828594774618,-2.6038517805363464,-0.10888331673542659,2.46818283785714,0.8264781607135407,1.2134413937687574,-0.2202432315892585,-0.0075118285948192216,-2.6038483821997875,-0.10888392708698907,2.4681821257803174,0.826474908251239,0.00021196436027789037,0.000641832729942806,0.00014531199167994762,5.424619744778946e-05,0.0004488450954902749,-0.0005076416234977915,0.00044970143668698225,0.0,0.0,0.0,0.0,0.0,0.0,0.0,6.692737692937101e-07,-3.3418483146030464e-06,-4.4603210014315664e-14,3.3983365588241554e-06,-6.103515624855671e-07,-7.120768228396912e-07,-3.2524623017060605e-06,-0.00021196436027789037,-0.000641832729942806,-0.00014531199167994762,-5.424619744778946e-05,-0.0004488450954902749,0.0005076416234977915,-0.00044970143668698225,0.3752071261405945,19.693445205688477,0.5220611095428467,-19.983552932739258,-0.6420798897743225,-2.4758944511413574,0.25485557317733765,0
10,0.04500293731689453,-0.3752071261405945,-19.645837783813477,-0.4982573688030243,19.983552932739258,0.6539817452430725,2.4630770683288574,-0.26217979192733765,0.0,0.0,0.0,0.0,0.0,0.0,0.0,-0.36900255820155686,0.06468000335080433,-0.31706158138557905,0.19506432811114913,0.0682271963579496,0.09459267111453526,-0.23910155562096055,1.2134428703913658,-0.2202432306126544,-0.0075111053373613035,-2.603852010123312,-0.108884639163812,2.468184262010786,0.8264799028623205,1.2134413937687574,-0.2202432315892585,-0.0075118285948192216,-2.6038483821997875,-0.10888392708698907,2.4681821257803174,0.826474908251239,0.0001216036990575871,-0.0007536538472075175,-0.0005581877697830291,-0.00035022690687581986,0.00011625096937407871,6.100680258734895e-05,0.0014474393777793113,0.0,0.0,0.0,0.0,0.0,0.0,0.0,-1.476622608409528e-06,-9.76604075386689e-10,-7.232574579180487e-07,3.6279235242631103e-06,7.120768229229579e-07,-2.1362304685190736e-06,-4.994611081499123e-06,-0.0001216036990575871,0.0007536538472075175,0.0005581877697830291,0.00035022690687581986,-0.00011625096937407871,-6.100680258734895e-05,-0.0014474393777793113,0.3752071261405945,19.645837783813477,0.4982573688030243,-19.983552932739258,-0.6539817452430725,-2.4630770683288574,0.26217979192733765,0
11,0.049996137619018555,-0.3752071261405945,-19.645837783813477,-0.4982573688030243,19.983552932739258,0.6539817452430725,2.4630770683288574,-0.26217979192733765,0.0,0.0,0.0,0.0,0.0,0.0,0.0,-0.36900255820155686,0.06468000335080433,-0.31706158138557905,0.19506432811114913,0.0682271963579496,0.09459267111453526,-0.23910155562096055,1.2134428703913658,-0.2202432306126544,-0.0075111053373613035,-2.603852010123312,-0.108884639163812,2.468184262010786,0.8264799028623205,1.2134413937687574,-0.2202432315892585,-0.0075118285948192216,-2.6038483821997875,-0.10888392708698907,2.4681821257803174,0.826474908251239,0.0001216036990575871,-0.0007536538472075175,-0.0005581877697830291,-0.00035022690687581986,0.00011625096937407871,6.100680258734895e-05,0.0014474393777793113,0.0,0.0,0.0,0.0,0.0,0.0,0.0,-1.476622608409528e-06,-9.76604075386689e-10,-7.232574579180487e-07,3.6279235242631103e-06,7.120768229229579e-07,-2.1362304685190736e-06,-4.994611081499123e-06,-0.0001216036990575871,0.0007536538472075175,0.0005581877697830291,0.00035022690687581986,-0.00011625096937407871,-6.100680258734895e-05,-0.0014474393777793113,0.3752071261405945,19.645837783813477,0.4982573688030243,-19.983552932739258,-0.6539817452430725,-2.4630770683288574,0.26217979192733765,0
12,0.05499529838562012,-0.4029781222343445,-19.669641494750977,-0.5458648204803467,19.955781936645508,0.6539817452430725,2.4630770683288574,-0.22098104655742645,0.0,0.0,0.0,0.0,0.0,0.0,0.0,-0.36864650612124195,0.0642993084724735,-0.31925356995615434,0.19706519693473964,0.06854151448891978,0.09423755183010693,-0.23703351451697444,1.2134452529120263,-0.22024156017679913,-0.0075101314093275464,-2.6038500612827766,-0.108884639163812,2.468184262010786,0.8264715975726632,1.2134413937687574,-0.2202432315892585,-0.0075118285948192216,-2.6038483821997875,-0.10888392708698907,2.4681821257803174,0.826474908251239,0.0008183726848547218,-0.00012654602971797104,0.00047416710586216534,0.0004715563172540436,-1.9903551149039895e-05,-7.09015370948343e-05,-0.0006053019947377181,0.0,0.0,0.0,0.0,0.0,0.0,0.0,-3.859143268947207e-06,-1.6714124593530943e-06,-1.697185491675128e-06,1.679082989092251e-06,7.120768229229579e-07,-2.1362304685190736e-06,3.3106785758407753e-06,-0.0008183726848547218,0.00012654602971797104,-0.00047416710586216534,-0.0004715563172540436,1.9903551149039895e-05,7.09015370948343e-05,0.0006053019947377181,0.4029781222343445,19.669641494750977,0.5458648204803467,-19.955781936645508,-0.6539817452430725,-2.4630770683288574,0.22098104655742645,0
13,0.059995412826538086,-0.4029781222343445,-19.669641494750977,-0.5458648204803467,19.955781936645508,0.6539817452430725,2.4630770683288574,-0.22098104655742645,0.0,0.0,0.0,0.0,0.0,0.0,0.0,-0.36864650612124195,0.0642993084724735,-0.31925356995615434,0.19706519693473964,0.06854151448891978,0.09423755183010693,-0.23703351451697444,1.2134452529120263,-0.22024156017679913,-0.0075101314093275464,-2.6038500612827766,-0.108884639163812,2.468184262010786,0.8264715975726632,1.2134413937687574,-0.2202432315892585,-0.0075118285948192216,-2.6038483821997875,-0.10888392708698907,2.4681821257803174,0.826474908251239,0.0008183726848547218,-0.00012654602971797104,0.00047416710586216534,0.0004715563172540436,-1.9903551149039895e-05,-7.09015370948343e-05,-0.0006053019947377181,0.0,0.0,0.0,0.0,0.0,0.0,0.0,-3.859143268947207e-06,-1.6714124593530943e-06,-1.697185491675128e-06,1.679082989092251e-06,7.120768229229579e-07,-2.1362304685190736e-06,3.3106785758407753e-06,-0.0008183726848547218,0.00012654602971797104,-0.00047416710586216534,-0.0004715563172540436,1.9903551149039895e-05,7.09015370948343e-05,0.0006053019947377181,0.4029781222343445,19.669641494750977,0.5458648204803467,-19.955781936645508,-0.6539817452430725,-2.4630770683288574,0.22098104655742645,0
14,0.059995412826538086,-0.4029781222343445,-19.669641494750977,-0.5458648204803467,19.955781936645508,0.6539817452430725,2.4630770683288574,-0.22098104655742645,0.0,0.0,0.0,0.0,0.0,0.0,0.0,-0.36864650612124195,0.0642993084724735,-0.31925356995615434,0.19706519693473964,0.06854151448891978,0.09423755183010693,-0.23703351451697444,1.2134452529120263,-0.22024156017679913,-0.0075101314093275464,-2.6038500612827766,-0.108884639163812,2.468184262010786,0.8264715975726632,1.2134413937687574,-0.2202432315892585,-0.0075118285948192216,-2.6038483821997875,-0.10888392708698907,2.4681821257803174,0.826474908251239,0.0008183726848547218,-0.00012654602971797104,0.00047416710586216534,0.0004715563172540436,-1.9903551149039895e-05,-7.09015370948343e-05,-0.0006053019947377181,0.0,0.0,0.0,0.0,0.0,0.0,0.0,-3.859143268947207e-06,-1.6714124593530943e-06,-1.697185491675128e-06,1.679082989092251e-06,7.120768229229579e-07,-2.1362304685190736e-06,3.3106785758407753e-06,-0.0008183726848547218,0.00012654602971797104,-0.00047416710586216534,-0.0004715563172540436,1.9903551149039895e-05,7.09015370948343e-05,0.0006053019947377181,0.4029781222343445,19.669641494750977,0.5458648204803467,-19.955781936645508,-0.6539817452430725,-2.4630770683288574,0.22098104655742645,0
15,0.07001304626464844,-0.4029781222343445,-19.693445205688477,-0.4982573688030243,19.955781936645508,0.6539817452430725,2.4630770683288574,-0.22098104655742645,0.0,0.0,0.0,0.0,0.0,0.0,0.0,-0.36620761795922274,0.06273987903671101,-0.31986826238219973,0.19800072157830154,0.06858875255058906,0.09398816670582556,-0.23547290910310104,1.2134434246026362,-0.2202398897771144,-0.007512788847417088,-2.6038493725179928,-0.108884639163812,2.468184262010786,0.8264710997375788,1.2134413937687574,-0.2202432315892585,-0.0075118285948192216,-2.6038483821997875,-0.10888392708698907,2.4681821257803174,0.826474908251239,0.0009496249720848177,0.0003904902171135047,-0.00043727876310593953,0.00042509351318740406,-5.9009523892604615e-05,0.00018548912664281283,-0.0006271779368369776,0.0,0.0,0.0,0.0,0.0,0.0,0.0,-2.030833878841065e-06,-3.3418121440920157e-06,9.602525978666052e-07,9.903182052184434e-07,7.120768229229579e-07,-2.1362304685190736e-06,3.8085136602195035e-06,-0.0009496249720848177,-0.0003904902171135047,0.00043727876310593953,-0.00042509351318740406,5.9009523892604615e-05,-0.00018548912664281283,0.0006271779368369776,0.4029781222343445,19.693445205688477,0.4982573688030243,-19.955781936645508,-0.6539817452430725,-2.4630770683288574,0.22098104655742645,0
16,0.07501506805419922,-0.4029781222343445,-19.693445205688477,-0.4982573688030243,19.955781936645508,0.6539817452430725,2.4630770683288574,-0.22098104655742645,0.0,0.0,0.0,0.0,0.0,0.0,0.0,-0.36620761795922274,0.06273987903671101,-0.31986826238219973,0.19800072157830154,0.06858875255058906,0.09398816670582556,-0.23547290910310104,1.2134434246026362,-0.2202398897771144,-0.007512788847417088,-2.6038493725179928,-0.108884639163812,2.468184262010786,0.8264710997375788,1.2134413937687574,-0.2202432315892585,-0.0075118285948192216,-2.6038483821997875,-0.10888392708698907,2.4681821257803174,0.826474908251239,0.0009496249720848177,0.0003904902171135047,-0.00043727876310593953,0.00042509351318740406,-5.9009523892604615e-05,0.00018548912664281283,-0.0006271779368369776,0.0,0.0,0.0,0.0,0.0,0.0,0.0,-2.030833878841065e-06,-3.3418121440920157e-06,9.602525978666052e-07,9.903182052184434e-07,7.120768229229579e-07,-2.1362304685190736e-06,3.8085136602195035e-06,-0.0009496249720848177,-0.0003904902171135047,0.00043727876310593953,-0.00042509351318740406,5.9009523892604615e-05,-0.00018548912664281283,0.0006271779368369776,0.4029781222343445,19.693445205688477,0.4982573688030243,-19.955781936645508,-0.6539817452430725,-2.4630770683288574,0.22098104655742645,0
17,0.08001041412353516,-0.3752071261405945,-19.693445205688477,-0.4982573688030243,20.031160354614258,0.6539817452430725,2.4630770683288574,-0.25485557317733765,0.0,0.0,0.0,0.0,0.0,0.0,0.0,-0.3712977516769811,0.06234276577813928,-0.3246762358893763,0.2002180115616611,0.06950258658944941,0.09402272682841499,-0.2342743473190342,1.2134435836890511,-0.22024012705573348,-0.007513498884437775,-2.60385535099243,-0.108884639163812,2.468184262010786,0.8264763069464539,1.2134413937687574,-0.2202432315892585,-0.0075118285948192216,-2.6038483821997875,-0.10888392708698907,2.4681821257803174,0.826474908251239,0.00029301031311789355,0.000334759993043488,-0.0005616227202754168,-0.0011031710356984275,-0.0027431720888191134,0.0002451108583026497,0.0012137985014970488,0.0,0.0,0.0,0.0,0.0,0.0,0.0,-2.189920293771408e-06,-3.104533525005726e-06,1.6702896185535887e-06,6.968792642503274e-06,7.120768229229579e-07,-2.1362304685190736e-06,-1.3986952148714593e-06,-0.00029301031311789355,-0.000334759993043488,0.0005616227202754168,0.0011031710356984275,0.0027431720888191134,-0.0002451108583026497,-0.0012137985014970488,0.3752071261405945,19.693445205688477,0.4982573688030243,-20.031160354614258,-0.6539817452430725,-2.4630770683288574,0.25485557317733765,0
18,0.08495736122131348,-0.3752071261405945,-19.693445205688477,-0.4982573688030243,20.031160354614258,0.6539817452430725,2.4630770683288574,-0.25485557317733765,0.0,0.0,0.0,0.0,0.0,0.0,0.0,-0.3712977516769811,0.06234276577813928,-0.3246762358893763,0.2002180115616611,0.06950258658944941,0.09402272682841499,-0.2342743473190342,1.2134435836890511,-0.22024012705573348,-0.007513498884437775,-2.60385535099243,-0.108884639163812,2.468184262010786,0.8264763069464539,1.2134413937687574,-0.2202432315892585,-0.0075118285948192216,-2.6038483821997875,-0.10888392708698907,2.4681821257803174,0.826474908251239,0.00029301031311789355,0.000334759993043488,-0.0005616227202754168,-0.0011031710356984275,-0.0027431720888191134,0.0002451108583026497,0.0012137985014970488,0.0,0.0,0.0,0.0,0.0,0.0,0.0,-2.189920293771408e-06,-3.104533525005726e-06,1.6702896185535887e-06,6.968792642503274e-06,7.120768229229579e-07,-2.1362304685190736e-06,-1.3986952148714593e-06,-0.00029301031311789355,-0.000334759993043488,0.0005616227202754168,0.0011031710356984275,0.0027431720888191134,-0.0002451108583026497,-0.0012137985014970488,0.3752071261405945,19.693445205688477,0.4982573688030243,-20.031160354614258,-0.6539817452430725,-2.4630770683288574,0.25485557317733765,0
19,0.08999514579772949,-0.3514034152030945,-19.693445205688477,-0.5220611095428467,19.983552932739258,0.6594749093055725,2.4758944511413574,-0.23471395671367645,0.0,0.0,0.0,0.0,0.0,0.0,0.0,-0.3647972048889287,0.0643782982639392,-0.3204890006560195,0.197852142394384,0.06919839608991345,0.09406328809748711,-0.23354126684859372,1.213441924711371,-0.22023988974496284,-0.007511118084888607,-2.6038520101246077,-0.1088852495153745,2.46818283785714,0.8264758454135666,1.2134413937687574,-0.2202432315892585,-0.0075118285948192216,-2.6038483821997875,-0.10888392708698907,2.4681821257803174,0.826474908251239,1.911258014264846e-05,0.000413619155656323,0.00039159688668984673,-0.0003723327069288785,-0.0003688471390672233,-0.00026219485314640106,-0.0002043060963229972,0.0,0.0,0.0,0.0,0.0,0.0,0.0,-5.309426136523854e-07,-3.3418442956512084e-06,-7.105099306143475e-07,3.6279248201154246e-06,1.3224283854224028e-06,-7.120768228396912e-07,-9.371623275189478e-07,-1.911258014264846e-05,-0.000413619155656323,-0.00039159688668984673,0.0003723327069288785,0.0003688471390672233,0.00026219485314640106,0.0002043060963229972,0.3514034152030945,19.693445205688477,0.5220611095428467,-19.983552932739258,-0.6594749093055725,-2.4758944511413574,0.23471395671367645,0
20,0.09501242637634277,-0.3514034152030945,-19.693445205688477,-0.5220611095428467,19.983552932739258,0.6594749093055725,2.4758944511413574,-0.23471395671367645,0.0,0.0,0.0,0.0,0.0,0.0,0.0,-0.3647972048889287,0.0643782982639392,-0.3204890006560195,0.197852142394384,0.06919839608991345,0.09406328809748711,-0.23354126684859372,1.213441924711371,-0.22023988974496284,-0.007511118084888607,-2.6038520101246077,-0.1088852495153745,2.46818283785714,0.8264758454135666,1.2134413937687574,-0.2202432315892585,-0.0075118285948192216,-2.6038483821997875,-0.10888392708698907,2.4681821257803174,0.826474908251239,1.911258014264846e-05,0.000413619155656323,0.00039159688668984673,-0.0003723327069288785,-0.0003688471390672233,-0.00026219485314640106,-0.0002043060963229972,0.0,0.0,0.0,0.0,0.0,0.0,0.0,-5.309426136523854e-07,-3.3418442956512084e-06,-7.105099306143475e-07,3.6279248201154246e-06,1.3224283854224028e-06,-7.120768228396912e-07,-9.371623275189478e-07,-1.911258014264846e-05,-0.000413619155656323,-0.00039159688668984673,0.0003723327069288785,0.0003688471390672233,0.00026219485314640106,0.0002043060963229972,0.3514034152030945,19.693445205688477,0.5220611095428467,-19.983552932739258,-0.6594749093055725,-2.4758944511413574,0.23471395671367645,0
21,0.10000729560852051,-0.3514034152030945,-19.645837783813477,-0.4982573688030243,19.955781936645508,0.6475730538368225,2.4630770683288574,-0.22098104655742645,0.0,0.0,0.0,0.0,0.0,0.0,0.0,-0.36750043637773483,0.0588821958835455,-0.3230188378484497,0.20311087434993894,0.06933055711493445,0.09539198515045394,-0.235218657235567,1.2134396906294664,-0.2202432306126544,-0.007513498045216428,-2.6038493725179928,-0.10888392562662531,2.468184262010786,0.8264716116237504,1.2134413937687574,-0.2202432315892585,-0.0075118285948192216,-2.6038483821997875,-0.10888392708698907,2.4681821257803174,0.826474908251239,-0.00026852568859396373,-0.001290874099537571,-0.000403631020261074,0.0007067168796006706,9.504674936693401e-05,7.559775159562602e-05,-0.0009537624530752976,0.0,0.0,0.0,0.0,0.0,0.0,0.0,1.7031392909316878e-06,-9.76604075386689e-10,1.6694503972066593e-06,9.903182052184434e-07,-1.4603637604748698e-09,-2.1362304685190736e-06,3.2966274886581104e-06,0.00026852568859396373,0.001290874099537571,0.000403631020261074,-0.0007067168796006706,-9.504674936693401e-05,-7.559775159562602e-05,0.0009537624530752976,0.3514034152030945,19.645837783813477,0.4982573688030243,-19.955781936645508,-0.6475730538368225,-2.4630770683288574,0.22098104655742645,0
22,0.10501217842102051,-0.3514034152030945,-19.645837783813477,-0.4982573688030243,19.955781936645508,0.6475730538368225,2.4630770683288574,-0.22098104655742645,0.0,0.0,0.0,0.0,0.0,0.0,0.0,-0.36750043637773483,0.0588821958835455,-0.3230188378484497,0.20311087434993894,0.06933055711493445,0.09539198515045394,-0.235218657235567,1.2134396906294664,-0.2202432306126544,-0.007513498045216428,-2.6038493725179928,-0.10888392562662531,2.468184262010786,0.8264716116237504,1.2134413937687574,-0.2202432315892585,-0.0075118285948192216,-2.6038483821997875,-0.10888392708698907,2.4681821257803174,0.826474908251239,-0.00026852568859396373,-0.001290874099537571,-0.000403631020261074,0.0007067168796006706,9.504674936693401e-05,7.559775159562602e-05,-0.0009537624530752976,0.0,0.0,0.0,0.0,0.0,0.0,0.0,1.7031392909316878e-06,-9.76604075386689e-10,1.6694503972066593e-06,9.903182052184434e-07,-1.4603637604748698e-09,-2.1362304685190736e-06,3.2966274886581104e-06,0.00026852568859396373,0.001290874099537571,0.000403631020261074,-0.0007067168796006706,-9.504674936693401e-05,-7.559775159562602e-05,0.0009537624530752976,0.3514034152030945,19.645837783813477,0.4982573688030243,-19.955781936645508,-0.6475730538368225,-2.4630770683288574,0.22098104655742645,0
23,0.11003899574279785,-0.3752071261405945,-19.717248916625977,-0.5458648204803467,19.983552932739258,0.6475730538368225,2.4758944511413574,-0.20724813640117645,0.0,0.0,0.0,0.0,0.0,0.0,0.0,-0.36762566859258544,0.062021391728104676,-0.32272767872459546,0.19953548919563893,0.06859810258971592,0.09488534141898426,-0.2369312311605723,1.2134433570520902,-0.2202382193050886,-0.007508026629166789,-2.603852010123312,-0.10888396651680793,2.46818283785714,0.8264707774143251,1.2134413937687574,-0.2202432315892585,-0.0075118285948192216,-2.6038483821997875,-0.10888392708698907,2.4681821257803174,0.826474908251239,-4.1512313785068626e-05,0.0008766650714831628,0.00022682518188484388,-0.00031019836008613796,0.00026251952949185126,-0.00023359000505001915,-0.0013222250528861544,0.0,0.0,0.0,0.0,0.0,0.0,0.0,-1.9632833327953847e-06,-5.012284169880754e-06,-3.8019656524324735e-06,3.6279235242631103e-06,3.942981885440844e-08,-7.120768228396912e-07,4.130836913973646e-06,4.1512313785068626e-05,-0.0008766650714831628,-0.00022682518188484388,0.00031019836008613796,-0.00026251952949185126,0.00023359000505001915,0.0013222250528861544,0.3752071261405945,19.717248916625977,0.5458648204803467,-19.983552932739258,-0.6475730538368225,-2.4758944511413574,0.20724813640117645,0
24,0.11504578590393066,-0.3752071261405945,-19.717248916625977,-0.5458648204803467,19.983552932739258,0.6475730538368225,2.4758944511413574,-0.20724813640117645,0.0,0.0,0.0,0.0,0.0,0.0,0.0,-0.36762566859258544,0.062021391728104676,-0.32272767872459546,0.19953548919563893,0.06859810258971592,0.09488534141898426,-0.2369312311605723,1.2134433570520902,-0.2202382193050886,-0.007508026629166789,-2.603852010123312,-0.10888396651680793,2.46818283785714,0.8264707774143251,1.2134413937687574,-0.2202432315892585,-0.0075118285948192216,-2.6038483821997875,-0.10888392708698907,2.4681821257803174,0.826474908251239,-4.1512313785068626e-05,0.0008766650714831628,0.00022682518188484388,-0.00031019836008613796,0.00026251952949185126,-0.00023359000505001915,-0.0013222250528861544,0.0,0.0,0.0,0.0,0.0,0.0,0.0,-1.9632833327953847e-06,-5.012284169880754e-06,-3.8019656524324735e-06,3.6279235242631103e-06,3.942981885440844e-08,-7.120768228396912e-07,4.130836913973646e-06,4.1512313785068626e-05,-0.0008766650714831628,-0.00022682518188484388,0.00031019836008613796,-0.00026251952949185126,0.00023359000505001915,0.0013222250528861544,0.3752071261405945,19.717248916625977,0.5458648204803467,-19.983552932739258,-0.6475730538368225,-2.4758944511413574,0.20724813640117645,0
25,0.1200261116027832,-0.3752071261405945,-19.693445205688477,-0.5458648204803467,19.955781936645508,0.6539817452430725,2.4694857597351074,-0.24844686686992645,0.0,0.0,0.0,0.0,0.0,0.0,0.0,-0.36696452225390674,0.06266722202482997,-0.31958850122462124,0.20259204476527348,0.06893332829947905,0.09552609664922446,-0.23678591849149813,1.213443619020942,-0.22023988974094388,-0.007509447925652479,-2.6038500612827766,-0.10888463916403457,2.468183549933963,0.8264774370074478,1.2134413937687574,-0.2202432315892585,-0.0075118285948192216,-2.6038483821997875,-0.10888392708698907,2.4681821257803174,0.826474908251239,0.00019970859894129326,0.0005121796329402321,0.00043956460978551346,0.0008524995542255429,5.6285476351910845e-05,-0.0001682275388306201,0.0003456951811308806,0.0,0.0,0.0,0.0,0.0,0.0,0.0,-2.225252184739901e-06,-3.3418483146030464e-06,-2.380669166742594e-06,1.679082989092251e-06,7.120770454949188e-07,-1.4241536456793824e-06,-2.528756208763916e-06,-0.00019970859894129326,-0.0005121796329402321,-0.00043956460978551346,-0.0008524995542255429,-5.6285476351910845e-05,0.0001682275388306201,-0.0003456951811308806,0.3752071261405945,19.693445205688477,0.5458648204803467,-19.955781936645508,-0.6539817452430725,-2.4694857597351074,0.24844686686992645,0
26,0.12502002716064453,-0.3752071261405945,-19.693445205688477,-0.5458648204803467,19.955781936645508,0.6539817452430725,2.4694857597351074,-0.24844686686992645,0.0,0.0,0.0,0.0,0.0,0.0,0.0,-0.36696452225390674,0.06266722202482997,-0.31958850122462124,0.20259204476527348,0.06893332829947905,0.09552609664922446,-0.23678591849149813,1.213443619020942,-0.22023988974094388,-0.007509447925652479,-2.6038500612827766,-0.10888463916403457,2.468183549933963,0.8264774370074478,1.2134413937687574,-0.2202432315892585,-0.0075118285948192216,-2.6038483821997875,-0.10888392708698907,2.4681821257803174,0.826474908251239,0.00019970859894129326,0.0005121796329402321,0.00043956460978551346,0.0008524995542255429,5.6285476351910845e-05,-0.0001682275388306201,0.0003456951811308806,0.0,0.0,0.0,0.0,0.0,0.0,0.0,-2.225252184739901e-06,-3.3418483146030464e-06,-2.380669166742594e-06,1.679082989092251e-06,7.120770454949188e-07,-1.4241536456793824e-06,-2.528756208763916e-06,-0.00019970859894129326,-0.0005121796329402321,-0.00043956460978551346,-0.0008524995542255429,-5.6285476351910845e-05,0.0001682275388306201,-0.0003456951811308806,0.3752071261405945,19.693445205688477,0.5458648204803467,-19.955781936645508,-0.6539817452430725,-2.4694857597351074,0.24844686686992645,0
27,0.13003993034362793,-0.4029781222343445,-19.693445205688477,-0.5696685314178467,20.007356643676758,0.6594749093055725,2.4566683769226074,-0.28232139348983765,0.0,0.0,0.0,0.0,0.0,0.0,0.0,-0.3665684063640907,0.060443031099832685,-0.31906432816363695,0.2022872057292868,0.06947077388417011,0.09520788885820736,-0.2362350686211704,1.2134445813760386,-0.22023988974094388,-0.007508487719104909,-2.603853680560463,-0.1088852495153745,2.4681849740876087,0.8264812038164274,1.2134413937687574,-0.2202432315892585,-0.0075118285948192216,-2.6038483821997875,-0.10888392708698907,2.4681821257803174,0.826474908251239,0.0008613743710858417,0.0001634343478273828,0.0013445557029414057,-0.0007567613919064839,-0.00015544111075980566,0.0002895874819180063,0.0020724295732671475,0.0,0.0,0.0,0.0,0.0,0.0,0.0,-3.1876072812409006e-06,-3.3418483146030464e-06,-3.3408757143128104e-06,5.29836067553191e-06,1.3224283854224028e-06,-2.848307291358765e-06,-6.295565188385588e-06,-0.0008613743710858417,-0.0001634343478273828,-0.0013445557029414057,0.0007567613919064839,0.00015544111075980566,-0.0002895874819180063,-0.0020724295732671475,0.4029781222343445,19.693445205688477,0.5696685314178467,-20.007356643676758,-0.6594749093055725,-2.4566683769226074,0.28232139348983765,0
28,0.13503313064575195,-0.4029781222343445,-19.693445205688477,-0.5696685314178467,20.007356643676758,0.6594749093055725,2.4566683769226074,-0.28232139348983765,0.0,0.0,0.0,0.0,0.0,0.0,0.0,-0.3665684063640907,0.060443031099832685,-0.31906432816363695,0.2022872057292868,0.06947077388417011,0.09520788885820736,-0.2362350686211704,1.2134445813760386,-0.22023988974094388,-0.007508487719104909,-2.603853680560463,-0.1088852495153745,2.4681849740876087,0.8264812038164274,1.2134413937687574,-0.2202432315892585,-0.0075118285948192216,-2.6038483821997875,-0.10888392708698907,2.4681821257803174,0.826474908251239,0.0008613743710858417,0.0001634343478273828,0.0013445557029414057,-0.0007567613919064839,-0.00015544111075980566,0.0002895874819180063,0.0020724295732671475,0.0,0.0,0.0,0.0,0.0,0.0,0.0,-3.1876072812409006e-06,-3.3418483146030464e-06,-3.3408757143128104e-06,5.29836067553191e-06,1.3224283854224028e-06,-2.848307291358765e-06,-6.295565188385588e-06,-0.0008613743710858417,-0.0001634343478273828,-0.0013445557029414057,0.0007567613919064839,0.00015544111075980566,-0.0002895874819180063,-0.0020724295732671475,0.4029781222343445,19.693445205688477,0.5696685314178467,-20.007356643676758,-0.6594749093055725,-2.4566683769226074,0.28232139348983765,0
29,0.14003419876098633,-0.4029781222343445,-19.693445205688477,-0.5696685314178467,20.007356643676758,0.6594749093055725,2.4566683769226074,-0.28232139348983765,0.0,0.0,0.0,0.0,0.0,0.0,0.0,-0.3665684063640907,0.060443031099832685,-0.31906432816363695,0.2022872057292868,0.06947077388417011,0.09520788885820736,-0.2362350686211704,1.2134445813760386,-0.22023988974094388,-0.007508487719104909,-2.603853680560463,-0.1088852495153745,2.4681849740876087,0.8264812038164274,1.2134413937687574,-0.2202432315892585,-0.0075118285948192216,-2.6038483821997875,-0.10888392708698907,2.4681821257803174,0.826474908251239,0.0008613743710858417,0.0001634343478273828,0.0013445557029414057,-0.0007567613919064839,-0.00015544111075980566,0.0002895874819180063,0.0020724295732671475,0.0,0.0,0.0,0.0,0.0,0.0,0.0,-3.1876072812409006e-06,-3.3418483146030464e-06,-3.3408757143128104e-06,5.29836067553191e-06,1.3224283854224028e-06,-2.848307291358765e-06,-6.295565188385588e-06,-0.0008613743710858417,-0.0001634343478273828,-0.0013445557029414057,0.0007567613919064839,0.00015544111075980566,-0.0002895874819180063,-0.0020724295732671475,0.4029781222343445,19.693445205688477,0.5696685314178467,-20.007356643676758,-0.6594749093055725,-2.4566683769226074,0.28232139348983765,0
30,0.14504051208496094,-0.4029781222343445,-19.693445205688477,-0.5696685314178467,20.007356643676758,0.6594749093055725,2.4566683769226074,-0.28232139348983765,0.0,0.0,0.0,0.0,0.0,0.0,0.0,-0.3665684063640907,0.060443031099832685,-0.31906432816363695,0.2022872057292868,0.06947077388417011,0.09520788885820736,-0.2362350686211704,1.2134445813760386,-0.22023988974094388,-0.007508487719104909,-2.603853680560463,-0.1088852495153745,2.4681849740876087,0.8264812038164274,1.2134413937687574,-0.2202432315892585,-0.0075118285948192216,-2.6038483821997875,-0.10888392708698907,2.4681821257803174,0.826474908251239,0.0008613743710858417,0.0001634343478273828,0.0013445557029414057,-0.0007567613919064839,-0.00015544111075980566,0.0002895874819180063,0.0020724295732671475,0.0,0.0,0.0,0.0,0.0,0.0,0.0,-3.1876072812409006e-06,-3.3418483146030464e-06,-3.3408757143128104e-06,5.29836067553191e-06,1.3224283854224028e-06,-2.848307291358765e-06,-6.295565188385588e-06,-0.0008613743710858417,-0.0001634343478273828,-0.0013445557029414057,0.0007567613919064839,0.00015544111075980566,-0.0002895874819180063,-0.0020724295732671475,0.4029781222343445,19.693445205688477,0.5696685314178467,-20.007356643676758,-0.6594749093055725,-2.4566683769226074,0.28232139348983765,0
31,0.15003395080566406,-0.3752071261405945,-19.669641494750977,-0.5220611095428467,19.983552932739258,0.6539817452430725,2.4630770683288574,-0.22098104655742645,0.0,0.0,0.0,0.0,0.0,0.0,0.0,-0.36629689621138595,0.06703222515560796,-0.3187505740819303,0.1945789561560092,0.07005443997080911,0.09411767617991947,-0.235892366418096,1.2134435915447526,-0.22024156017679913,-0.0075086722161434236,-2.6038499438302556,-0.108884639163812,2.468184262010786,0.8264712453236975,1.2134413937687574,-0.2202432315892585,-0.0075118285948192216,-2.6038483821997875,-0.10888392708698907,2.4681821257803174,0.826474908251239,0.0006129473596089219,-0.00011659420129627429,0.0002520312761445571,-0.0007750203356254597,-0.00011736270906158576,0.00019757554556090983,-0.0012131657369818438,0.0,0.0,0.0,0.0,0.0,0.0,0.0,-2.1977759951941067e-06,-1.6714124593530943e-06,-3.1563786757980022e-06,1.5616304680499127e-06,7.120768229229579e-07,-2.1362304685190736e-06,3.6629275415034357e-06,-0.0006129473596089219,0.00011659420129627429,-0.0002520312761445571,0.0007750203356254597,0.00011736270906158576,-0.00019757554556090983,0.0012131657369818438,0.3752071261405945,19.669641494750977,0.5220611095428467,-19.983552932739258,-0.6539817452430725,-2.4630770683288574,0.22098104655742645,0
32,0.1550447940826416,-0.3752071261405945,-19.669641494750977,-0.5220611095428467,19.983552932739258,0.6539817452430725,2.4630770683288574,-0.22098104655742645,0.0,0.0,0.0,0.0,0.0,0.0,0.0,-0.36629689621138595,0.06703222515560796,-0.3187505740819303,0.1945789561560092,0.07005443997080911,0.09411767617991947,-0.235892366418096,1.2134435915447526,-0.22024156017679913,-0.0075086722161434236,-2.6038499438302556,-0.108884639163812,2.468184262010786,0.8264712453236975,1.2134413937687574,-0.2202432315892585,-0.0075118285948192216,-2.6038483821997875,-0.10888392708698907,2.4681821257803174,0.826474908251239,0.0006129473596089219,-0.00011659420129627429,0.0002520312761445571,-0.0007750203356254597,-0.00011736270906158576,0.00019757554556090983,-0.0012131657369818438,0.0,0.0,0.0,0.0,0.0,0.0,0.0,-2.1977759951941067e-06,-1.6714124593530943e-06,-3.1563786757980022e-06,1.5616304680499127e-06,7.120768229229579e-07,-2.1362304685190736e-06,3.6629275415034357e-06,-0.0006129473596089219,0.00011659420129627429,-0.0002520312761445571,0.0007750203356254597,0.00011736270906158576,-0.00019757554556090983,0.0012131657369818438,0.3752071261405945,19.669641494750977,0.5220611095428467,-19.983552932739258,-0.6539817452430725,-2.4630770683288574,0.22098104655742645,0
33,0.1600358486175537,-0.3236324191093445,-19.669641494750977,-0.5220611095428467,19.983552932739258,0.6539817452430725,2.4758944511413574,-0.26858848333358765,0.0,0.0,0.0,0.0,0.0,0.0,0.0,-0.36484276516010083,0.06607585676731692,-0.32097547925639713,0.19715920981743149,0.0697936459371171,0.09496980330483185,-0.23724731184274472,1.2134399938577007,-0.22024156017679913,-0.007511039482336554,-2.603851984603137,-0.108884639163812,2.46818283785714,0.826479726963658,1.2134413937687574,-0.2202432315892585,-0.0075118285948192216,-2.6038483821997875,-0.10888392708698907,2.4681821257803174,0.826474908251239,-0.0010929730419628515,0.00030544601730050225,7.729501495576622e-05,-0.00025151915162150725,0.0064605354835556034,-0.00027562946403553976,0.001063740471287461,0.0,0.0,0.0,0.0,0.0,0.0,0.0,1.3999110566320638e-06,-1.6714124593530943e-06,-7.891124826674492e-07,3.6024033494008734e-06,7.120768229229579e-07,-7.120768228396912e-07,-4.818712418974691e-06,0.0010929730419628515,-0.00030544601730050225,-7.729501495576622e-05,0.00025151915162150725,-0.0064605354835556034,0.00027562946403553976,-0.001063740471287461,0.3236324191093445,19.669641494750977,0.5220611095428467,-19.983552932739258,-0.6539817452430725,-2.4758944511413574,0.26858848333358765,0
34,0.1650409698486328,-0.3236324191093445,-19.669641494750977,-0.5220611095428467,19.983552932739258,0.6539817452430725,2.4758944511413574,-0.26858848333358765,0.0,0.0,0.0,0.0,0.0,0.0,0.0,-0.36484276516010083,0.06607585676731692,-0.32097547925639713,0.19715920981743149,0.0697936459371171,0.09496980330483185,-0.23724731184274472,1.2134399938577007,-0.22024156017679913,-0.007511039482336554,-2.603851984603137,-0.108884639163812,2.46818283785714,0.826479726963658,1.2134413937687574,-0.2202432315892585,-0.0075118285948192216,-2.6038483821997875,-0.10888392708698907,2.4681821257803174,0.826474908251239,-0.0010929730419628515,0.00030544601730050225,7.729501495576622e-05,-0.00025151915162150725,0.0064605354835556034,-0.00027562946403553976,0.001063740471287461,0.0,0.0,0.0,0.0,0.0,0.0,0.0,1.3999110566320638e-06,-1.6714124593530943e-06,-7.891124826674492e-07,3.6024033494008734e-06,7.120768229229579e-07,-7.120768228396912e-07,-4.818712418974691e-06,0.0010929730419628515,-0.00030544601730050225,-7.729501495576622e-05,0.00025151915162150725,-0.0064605354835556034,0.00027562946403553976,-0.001063740471287461,0.3236324191093445,19.669641494750977,0.5220611095428467,-19.983552932739258,-0.6539817452430725,-2.4758944511413574,0.26858848333358765,0
35,0.17003965377807617,-0.3752071261405945,-19.669641494750977,-0.5220611095428467,19.983552932739258,0.6594749093055725,2.4823031425476074,-0.23471395671367645,0.0,0.0,0.0,0.0,0.0,0.0,0.0,-0.3619056563089761,0.06229463800375118,-0.3189134004666048,0.19960419956925607,0.0691870291638951,0.095326513533288,-0.23759639655548506,1.2134426564814147,-0.22024156017679913,-0.007509461306359202,-2.6038520101244638,-0.1088852495153745,2.468182125780317,0.8264768658000883,1.2134413937687574,-0.2202432315892585,-0.0075118285948192216,-2.6038483821997875,-0.10888392708698907,2.4681821257803174,0.826474908251239,0.0006051372443552231,-0.0003097754490428317,-6.071966094964903e-05,-0.0006026200046485391,-3.94091827023827e-05,-0.0005648217197684632,-0.0002779621053353462,0.0,0.0,0.0,0.0,0.0,0.0,0.0,-1.2627126573239167e-06,-1.6714124593530943e-06,-2.3672884600194066e-06,3.6279246762305206e-06,1.3224283854224028e-06,4.440892098500626e-16,-1.957548849240709e-06,-0.0006051372443552231,0.0003097754490428317,6.071966094964903e-05,0.0006026200046485391,3.94091827023827e-05,0.0005648217197684632,0.0002779621053353462,0.3752071261405945,19.669641494750977,0.5220611095428467,-19.983552932739258,-0.6594749093055725,-2.4823031425476074,0.23471395671367645,0
36,0.1750330924987793,-0.3752071261405945,-19.669641494750977,-0.5220611095428467,19.983552932739258,0.6594749093055725,2.4823031425476074,-0.23471395671367645,0.0,0.0,0.0,0.0,0.0,0.0,0.0,-0.3619056563089761,0.06229463800375118,-0.3189134004666048,0.19960419956925607,0.0691870291638951,0.095326513533288,-0.23759639655548506,1.2134426564814147,-0.22024156017679913,-0.007509461306359202,-2.6038520101244638,-0.1088852495153745,2.468182125780317,0.8264768658000883,1.2134413937687574,-0.2202432315892585,-0.0075118285948192216,-2.6038483821997875,-0.10888392708698907,2.4681821257803174,0.826474908251239,0.0006051372443552231,-0.0003097754490428317,-6.071966094964903e-05,-0.0006026200046485391,-3.94091827023827e-05,-0.0005648217197684632,-0.0002779621053353462,0.0,0.0,0.0,0.0,0.0,0.0,0.0,-1.2627126573239167e-06,-1.6714124593530943e-06,-2.3672884600194066e-06,3.6279246762305206e-06,1.3224283854224028e-06,4.440892098500626e-16,-1.957548849240709e-06,-0.0006051372443552231,0.0003097754490428317,6.071966094964903e-05,0.0006026200046485391,3.94091827023827e-05,0.0005648217197684632,0.0002779621053353462,0.3752071261405945,19.669641494750977,0.5220611095428467,-19.983552932739258,-0.6594749093055725,-2.4823031425476074,0.23471395671367645,0
37,0.18003439903259277,-0.4267818331718445,-19.717248916625977,-0.4982573688030243,19.955781936645508,0.6539817452430725,2.4694857597351074,-0.23471395671367645,0.0,0.0,0.0,0.0,0.0,0.0,0.0,-0.36544027518117594,0.06261100798625646,-0.3212062851657325,0.2003568528964034,0.06926570548518539,0.09604141617558538,-0.23861585160608312,1.2134471499551576,-0.2202382193050886,-0.0075134960968351126,-2.6038500612827766,-0.108884639163812,2.468183549933963,0.8264763207238416,1.2134413937687574,-0.2202432315892585,-0.0075118285948192216,-2.6038483821997875,-0.10888392708698907,2.4681821257803174,0.826474908251239,0.0013985732594905495,0.0004482926681371878,-0.0004970138504848412,0.0004037183345855615,3.902165105011736e-06,0.00018260877049350034,-0.0005765699145492273,0.0,0.0,0.0,0.0,0.0,0.0,0.0,-5.7561864001964835e-06,-5.012284169880754e-06,1.6675020158909981e-06,1.679082989092251e-06,7.120768229229579e-07,-1.4241536456793824e-06,-1.4124726025466217e-06,-0.0013985732594905495,-0.0004482926681371878,0.0004970138504848412,-0.0004037183345855615,-3.902165105011736e-06,-0.00018260877049350034,0.0005765699145492273,0.4267818331718445,19.717248916625977,0.4982573688030243,-19.955781936645508,-0.6539817452430725,-2.4694857597351074,0.23471395671367645,0
38,0.18503999710083008,-0.4267818331718445,-19.717248916625977,-0.4982573688030243,19.955781936645508,0.6539817452430725,2.4694857597351074,-0.23471395671367645,0.0,0.0,0.0,0.0,0.0,0.0,0.0,-0.36544027518117594,0.06261100798625646,-0.3212062851657325,0.2003568528964034,0.06926570548518539,0.09604141617558538,-0.23861585160608312,1.2134471499551576,-0.2202382193050886,-0.0075134960968351126,-2.6038500612827766,-0.108884639163812,2.468183549933963,0.8264763207238416,1.2134413937687574,-0.2202432315892585,-0.0075118285948192216,-2.6038483821997875,-0.10888392708698907,2.4681821257803174,0.826474908251239,0.0013985732594905495,0.0004482926681371878,-0.0004970138504848412,0.0004037183345855615,3.902165105011736e-06,0.00018260877049350034,-0.0005765699145492273,0.0,0.0,0.0,0.0,0.0,0.0,0.0,-5.7561864001964835e-06,-5.012284169880754e-06,1.6675020158909981e-06,1.679082989092251e-06,7.120768229229579e-07,-1.4241536456793824e-06,-1.4124726025466217e-06,-0.0013985732594905495,-0.0004482926681371878,0.0004970138504848412,-0.0004037183345855615,-3.902165105011736e-06,-0.00018260877049350034,0.0005765699145492273,0.4267818331718445,19.717248916625977,0.4982573688030243,-19.955781936645508,-0.6539817452430725,-2.4694857597351074,0.23471395671367645,0
39,0.19002532958984375,-0.4029781222343445,-19.669641494750977,-0.4704863727092743,19.983552932739258,0.6475730538368225,2.4758944511413574,-0.24844686686992645,0.0,0.0,0.0,0.0,0.0,0.0,0.0,-0.36525533050401787,0.06861374257019721,-0.31615967696552577,0.19364833265195855,0.06870940923215231,0.09595164944952504,-0.23924471845658363,1.2134454648433795,-0.22024156017679913,-0.007514421690703066,-2.6038520101246077,-0.10888392708698909,2.46818283785714,0.8264787346112008,1.2134413937687574,-0.2202432315892585,-0.0075118285948192216,-2.6038483821997875,-0.10888392708698907,2.4681821257803174,0.826474908251239,0.00104878577706476,2.8822876331463155e-05,-0.000900182571715268,-0.0004175330263700183,0.0003677157823124816,-0.00028531711211979635,4.7235740159036e-05,0.0,0.0,0.0,0.0,0.0,0.0,0.0,-4.071074622080673e-06,-1.6714124593530943e-06,2.593095883844654e-06,3.6279248201154246e-06,1.3877787807814457e-17,-7.120768228396912e-07,-3.826359961767167e-06,-0.00104878577706476,-2.8822876331463155e-05,0.000900182571715268,0.0004175330263700183,-0.0003677157823124816,0.00028531711211979635,-4.7235740159036e-05,0.4029781222343445,19.669641494750977,0.4704863727092743,-19.983552932739258,-0.6475730538368225,-2.4758944511413574,0.24844686686992645,0
40,0.19504451751708984,-0.4029781222343445,-19.669641494750977,-0.4704863727092743,19.983552932739258,0.6475730538368225,2.4758944511413574,-0.24844686686992645,0.0,0.0,0.0,0.0,0.0,0.0,0.0,-0.36525533050401787,0.06861374257019721,-0.31615967696552577,0.19364833265195855,0.06870940923215231,0.09595164944952504,-0.23924471845658363,1.2134454648433795,-0.22024156017679913,-0.007514421690703066,-2.6038520101246077,-0.10888392708698909,2.46818283785714,0.8264787346112008,1.2134413937687574,-0.2202432315892585,-0.0075118285948192216,-2.6038483821997875,-0.10888392708698907,2.4681821257803174,0.826474908251239,0.00104878577706476,2.8822876331463155e-05,-0.000900182571715268,-0.0004175330263700183,0.0003677157823124816,-0.00028531711211979635,4.7235740159036e-05,0.0,0.0,0.0,0.0,0.0,0.0,0.0,-4.071074622080673e-06,-1.6714124593530943e-06,2.593095883844654e-06,3.6279248201154246e-06,1.3877787807814457e-17,-7.120768228396912e-07,-3.826359961767167e-06,-0.00104878577706476,-2.8822876331463155e-05,0.000900182571715268,0.0004175330263700183,-0.0003677157823124816,0.00028531711211979635,-4.7235740159036e-05,0.4029781222343445,19.669641494750977,0.4704863727092743,-19.983552932739258,-0.6475730538368225,-2.4758944511413574,0.24844686686992645,0
41,0.20003890991210938,-0.3514034152030945,-19.669641494750977,-0.4982573688030243,19.931978225708008,0.6539817452430725,2.4758944511413574,-0.24844686686992645,0.0,0.0,0.0,0.0,0.0,0.0,0.0,-0.36845974935660886,0.06484681007584502,-0.3168647981365671,0.19587243065739585,0.06871321304501381,0.09626996721267929,-0.24015332869940778,1.2134416238265202,-0.22024156050233382,-0.007513261324386493,-2.603848390846921,-0.108884639163812,2.46818283785714,0.8264777947613916,1.2134413937687574,-0.2202432315892585,-0.0075118285948192216,-2.6038483821997875,-0.10888392708698907,2.4681821257803174,0.826474908251239,-0.0002808796267913751,3.167740934716123e-05,-6.338408779907445e-06,0.0008783610684338153,-0.0001253001726568742,-0.00019441493218171492,6.63092202173908e-05,0.0,0.0,0.0,0.0,0.0,0.0,0.0,-2.300577628400191e-07,-1.6710869246705506e-06,1.4327295672711751e-06,8.647133675765417e-09,7.120768229229579e-07,-7.120768228396912e-07,-2.8865101525665793e-06,0.0002808796267913751,-3.167740934716123e-05,6.338408779907445e-06,-0.0008783610684338153,0.0001253001726568742,0.00019441493218171492,-6.63092202173908e-05,0.3514034152030945,19.669641494750977,0.4982573688030243,-19.931978225708008,-0.6539817452430725,-2.4758944511413574,0.24844686686992645,0
42,0.20503473281860352,-0.3514034152030945,-19.669641494750977,-0.4982573688030243,19.931978225708008,0.6539817452430725,2.4758944511413574,-0.24844686686992645,0.0,0.0,0.0,0.0,0.0,0.0,0.0,-0.36845974935660886,0.06484681007584502,-0.3168647981365671,0.19587243065739585,0.06871321304501381,0.09626996721267929,-0.24015332869940778,1.2134416238265202,-0.22024156050233382,-0.007513261324386493,-2.603848390846921,-0.108884639163812,2.46818283785714,0.8264777947613916,1.2134413937687574,-0.2202432315892585,-0.0075118285948192216,-2.6038483821997875,-0.10888392708698907,2.4681821257803174,0.826474908251239,-0.0002808796267913751,3.167740934716123e-05,-6.338408779907445e-06,0.0008783610684338153,-0.0001253001726568742,-0.00019441493218171492,6.63092202173908e-05,0.0,0.0,0.0,0.0,0.0,0.0,0.0,-2.300577628400191e-07,-1.6710869246705506e-06,1.4327295672711751e-06,8.647133675765417e-09,7.120768229229579e-07,-7.120768228396912e-07,-2.8865101525665793e-06,0.0002808796267913751,-3.167740934716123e-05,6.338408779907445e-06,-0.0008783610684338153,0.0001253001726568742,0.00019441493218171492,-6.63092202173908e-05,0.3514034152030945,19.669641494750977,0.4982573688030243,-19.931978225708008,-0.6539817452430725,-2.4758944511413574,0.24844686686992645,0
43,0.21003985404968262,-0.3514034152030945,-19.645837783813477,-0.5220611095428467,20.007356643676758,0.6594749093055725,2.4566683769226074,-0.26217979192733765,0.0,0.0,0.0,0.0,0.0,0.0,0.0,-0.37067838300372796,0.06885381487749297,-0.32011938397462614,0.1939890964491403,0.06828622146266371,0.0962160449057409,-0.24052342649277864,1.2134397701126398,-0.22024323061265624,-0.00751179348652747,-2.6038536550506564,-0.1088852495153745,2.4681849740876087,0.8264793322650501,1.2134413937687574,-0.2202432315892585,-0.0075118285948192216,-2.6038483821997875,-0.10888392708698907,2.4681821257803174,0.826474908251239,-0.0005138915948095904,-0.0003001098702976486,-0.0001855450999143265,-0.000891463695342344,-0.0002834134595540075,0.0005834155381687841,0.0011089802332877742,0.0,0.0,0.0,0.0,0.0,0.0,0.0,1.6236561175553277e-06,-9.766022435186983e-10,-3.510829175122632e-08,5.272850868820456e-06,1.3224283854224028e-06,-2.848307291358765e-06,-4.424013811066274e-06,0.0005138915948095904,0.0003001098702976486,0.0001855450999143265,0.000891463695342344,0.0002834134595540075,-0.0005834155381687841,-0.0011089802332877742,0.3514034152030945,19.645837783813477,0.5220611095428467,-20.007356643676758,-0.6594749093055725,-2.4566683769226074,0.26217979192733765,0
44,0.2150411605834961,-0.3514034152030945,-19.645837783813477,-0.5220611095428467,20.007356643676758,0.6594749093055725,2.4566683769226074,-0.26217979192733765,0.0,0.0,0.0,0.0,0.0,0.0,0.0,-0.37067838300372796,0.06885381487749297,-0.32011938397462614,0.1939890964491403,0.06828622146266371,0.0962160449057409,-0.24052342649277864,1.2134397701126398,-0.22024323061265624,-0.00751179348652747,-2.6038536550506564,-0.1088852495153745,2.4681849740876087,0.8264793322650501,1.2134413937687574,-0.2202432315892585,-0.0075118285948192216,-2.6038483821997875,-0.10888392708698907,2.4681821257803174,0.826474908251239,-0.0005138915948095904,-0.0003001098702976486,-0.0001855450999143265,-0.000891463695342344,-0.0002834134595540075,0.0005834155381687841,0.0011089802332877742,0.0,0.0,0.0,0.0,0.0,0.0,0.0,1.6236561175553277e-06,-9.766022435186983e-10,-3.510829175122632e-08,5.272850868820456e-06,1.3224283854224028e-06,-2.848307291358765e-06,-4.424013811066274e-06,0.0005138915948095904,0.0003001098702976486,0.0001855450999143265,0.000891463695342344,0.0002834134595540075,-0.0005834155381687841,-0.0011089802332877742,0.3514034152030945,19.645837783813477,0.5220611095428467,-20.007356643676758,-0.6594749093055725,-2.4566683769226074,0.26217979192733765,0
45,0.22003531455993652,-0.3514034152030945,-19.693445205688477,-0.5220611095428467,20.007356643676758,0.6594749093055725,2.4630770683288574,-0.20083944499492645,0.0,0.0,0.0,0.0,0.0,0.0,0.0,-0.36577151802002716,0.0652646050438253,-0.314697317634622,0.19516814960253903,0.06799334414825403,0.09677338369260292,-0.24065610547733224,1.213441153409606,-0.22023988974094388,-0.007511588907571441,-2.603853680560319,-0.1088852495153745,2.468184262010786,0.8264721512377132,1.2134413937687574,-0.2202432315892585,-0.0075118285948192216,-2.6038483821997875,-0.10888392708698907,2.4681821257803174,0.826474908251239,-0.00037923617673697225,0.0004063622761157557,0.00035743657112128713,-0.0010707232804936418,-0.0002435106931147103,0.00018612776576317316,-0.0014209169096786318,0.0,0.0,0.0,0.0,0.0,0.0,0.0,2.403591514710257e-07,-3.3418483146030464e-06,-2.396872477803541e-07,5.298360531647006e-06,1.3224283854224028e-06,-2.1362304685190736e-06,2.7570135258114803e-06,0.00037923617673697225,-0.0004063622761157557,-0.00035743657112128713,0.0010707232804936418,0.0002435106931147103,-0.00018612776576317316,0.0014209169096786318,0.3514034152030945,19.693445205688477,0.5220611095428467,-20.007356643676758,-0.6594749093055725,-2.4630770683288574,0.20083944499492645,0
46,0.22503304481506348,-0.3514034152030945,-19.693445205688477,-0.5220611095428467,20.007356643676758,0.6594749093055725,2.4630770683288574,-0.20083944499492645,0.0,0.0,0.0,0.0,0.0,0.0,0.0,-0.36577151802002716,0.0652646050438253,-0.314697317634622,0.19516814960253903,0.06799334414825403,0.09677338369260292,-0.24065610547733224,1.213441153409606,-0.22023988974094388,-0.007511588907571441,-2.603853680560319,-0.1088852495153745,2.468184262010786,0.8264721512377132,1.2134413937687574,-0.2202432315892585,-0.0075118285948192216,-2.6038483821997875,-0.10888392708698907,2.4681821257803174,0.826474908251239,-0.00037923617673697225,0.0004063622761157557,0.00035743657112128713,-0.0010707232804936418,-0.0002435106931147103,0.00018612776576317316,-0.0014209169096786318,0.0,0.0,0.0,0.0,0.0,0.0,0.0,2.403591514710257e-07,-3.3418483146030464e-06,-2.396872477803541e-07,5.298360531647006e-06,1.3224283854224028e-06,-2.1362304685190736e-06,2.7570135258114803e-06,0.00037923617673697225,-0.0004063622761157557,-0.00035743657112128713,0.0010707232804936418,0.0002435106931147103,-0.00018612776576317316,0.0014209169096786318,0.3514034152030945,19.693445205688477,0.5220611095428467,-20.007356643676758,-0.6594749093055725,-2.4630770683288574,0.20083944499492645,0
47,0.2300407886505127,-0.4029781222343445,-19.669641494750977,-0.5220611095428467,19.955781936645508,0.6420798897743225,2.4630770683288574,-0.22098104655742645,0.0,0.0,0.0,0.0,0.0,0.0,0.0,-0.37086837049025906,0.06513857238740414,-0.3188135702423118,0.19947515286121376,0.06834796267197953,0.09674781955245966,-0.23985549365337566,1.2134453314034768,-0.22024156017679913,-0.007511749359274333,-2.6038500612827766,-0.10888331673542659,2.468184262010786,0.826471145297912,1.2134413937687574,-0.2202432315892585,-0.0075118285948192216,-2.6038483821997875,-0.10888392708698907,2.4681821257803174,0.826474908251239,0.0007947745534819537,-0.0001615469310053481,5.720256618940557e-05,0.0006566085255363834,0.0003367289384316147,0.000208977168305499,-0.0006505157213183753,0.0,0.0,0.0,0.0,0.0,0.0,0.0,-3.937634719397565e-06,-1.6714124593530943e-06,-7.923554488833279e-08,1.679082989092251e-06,-6.103515624855671e-07,-2.1362304685190736e-06,3.762953327046681e-06,-0.0007947745534819537,0.0001615469310053481,-5.720256618940557e-05,-0.0006566085255363834,-0.0003367289384316147,-0.000208977168305499,0.0006505157213183753,0.4029781222343445,19.669641494750977,0.5220611095428467,-19.955781936645508,-0.6420798897743225,-2.4630770683288574,0.22098104655742645,0
48,0.23503971099853516,-0.4029781222343445,-19.669641494750977,-0.5220611095428467,19.955781936645508,0.6420798897743225,2.4630770683288574,-0.22098104655742645,0.0,0.0,0.0,0.0,0.0,0.0,0.0,-0.37086837049025906,0.06513857238740414,-0.3188135702423118,0.19947515286121376,0.06834796267197953,0.09674781955245966,-0.23985549365337566,1.2134453314034768,-0.22024156017679913,-0.007511749359274333,-2.6038500612827766,-0.10888331673542659,2.468184262010786,0.826471145297912,1.2134413937687574,-0.2202432315892585,-0.0075118285948192216,-2.6038483821997875,-0.10888392708698907,2.4681821257803174,0.826474908251239,0.0007947745534819537,-0.0001615469310053481,5.720256618940557e-05,0.0006566085255363834,0.0003367289384316147,0.000208977168305499,-0.0006505157213183753,0.0,0.0,0.0,0.0,0.0,0.0,0.0,-3.937634719397565e-06,-1.6714124593530943e-06,-7.923554488833279e-08,1.679082989092251e-06,-6.103515624855671e-07,-2.1362304685190736e-06,3.762953327046681e-06,-0.0007947745534819537,0.0001615469310053481,-5.720256618940557e-05,-0.0006566085255363834,-0.0003367289384316147,-0.000208977168305499,0.0006505157213183753,0.4029781222343445,19.669641494750977,0.5220611095428467,-19.955781936645508,-0.6420798897743225,-2.4630770683288574,0.22098104655742645,0
49,0.24004006385803223,-0.3752071261405945,-19.717248916625977,-0.5696685314178467,19.955781936645508,0.6475730538368225,2.4630770683288574,-0.26217979192733765,0.0,0.0,0.0,0.0,0.0,0.0,0.0,-0.36637188215353494,0.06410364340899774,-0.3137525701146931,0.19936847113794226,0.06751232799019127,0.09596094862413847,-0.2392152104305649,1.2134414673306568,-0.2202382193050886,-0.0075084872896931535,-2.6038493725179928,-0.10888428244217135,2.4681842605572357,0.8264789628814729,1.2134413937687574,-0.2202432315892585,-0.0075118285948192216,-2.6038483821997875,-0.10888392708698907,2.4681821257803174,0.826474908251239,0.0006805471425131356,0.0009381185099457156,0.001297183143851174,0.0005343601214971988,0.00029993826231758706,8.691111624198453e-05,0.0006581186937425596,0.0,0.0,0.0,0.0,0.0,0.0,0.0,-7.356189946072789e-08,-5.012284169880754e-06,-3.341305126068096e-06,9.903182052184434e-07,3.5535518227991503e-07,-2.1347769183499565e-06,-4.054630233896184e-06,-0.0006805471425131356,-0.0009381185099457156,-0.001297183143851174,-0.0005343601214971988,-0.00029993826231758706,-8.691111624198453e-05,-0.0006581186937425596,0.3752071261405945,19.717248916625977,0.5696685314178467,-19.955781936645508,-0.6475730538368225,-2.4630770683288574,0.26217979192733765,0
50,0.24501776695251465,-0.3752071261405945,-19.717248916625977,-0.5696685314178467,19.955781936645508,0.6475730538368225,2.4630770683288574,-0.26217979192733765,0.0,0.0,0.0,0.0,0.0,0.0,0.0,-0.36637188215353494,0.06410364340899774,-0.3137525701146931,0.19936847113794226,0.06751232799019127,0.09596094862413847,-0.2392152104305649,1.2134414673306568,-0.2202382193050886,-0.0075084872896931535,-2.6038493725179928,-0.10888428244217135,2.4681842605572357,0.8264789628814729,1.2134413937687574,-0.2202432315892585,-0.0075118285948192216,-2.6038483821997875,-0.10888392708698907,2.4681821257803174,0.826474908251239,0.0006805471425131356,0.0009381185099457156,0.001297183143851174,0.0005343601214971988,0.00029993826231758706,8.691111624198453e-05,0.0006581186937425596,0.0,0.0,0.0,0.0,0.0,0.0,0.0,-7.356189946072789e-08,-5.012284169880754e-06,-3.341305126068096e-06,9.903182052184434e-07,3.5535518227991503e-07,-2.1347769183499565e-06,-4.054630233896184e-06,-0.0006805471425131356,-0.0009381185099457156,-0.001297183143851174,-0.0005343601214971988,-0.00029993826231758706,-8.691111624198453e-05,-0.0006581186937425596,0.3752071261405945,19.717248916625977,0.5696685314178467,-19.955781936645508,-0.6475730538368225,-2.4630770683288574,0.26217979192733765,0
51,0.2500321865081787,-0.3752071261405945,-19.717248916625977,-0.5220611095428467,19.983552932739258,0.6594749093055725,2.4630770683288574,-0.22830526530742645,0.0,0.0,0.0,0.0,0.0,0.0,0.0,-0.3655396504611194,0.06693115687012946,-0.31786003931666823,0.1948222625454917,0.0673644126192928,0.09447584706262192,-0.24027168543988245,1.2134433834261185,-0.2202382193050886,-0.007511582990459183,-2.6038520101207197,-0.10888525389847177,2.468184262010778,0.8264724127691553,1.2134413937687574,-0.2202432315892585,-0.0075118285948192216,-2.6038483821997875,-0.10888392708698907,2.4681821257803174,0.826474908251239,-6.61307745649877e-07,0.0011210936922841088,0.0004683187032291398,-0.0002869479260160016,-0.0002255987189686989,0.00020160361584953132,-0.00042843664947541884,0.0,0.0,0.0,0.0,0.0,0.0,0.0,-1.9896573610900248e-06,-5.012284169880754e-06,-2.4560436003885633e-07,3.6279209321143924e-06,1.3268114826964217e-06,-2.136230460525468e-06,2.4954820837530534e-06,6.61307745649877e-07,-0.0011210936922841088,-0.0004683187032291398,0.0002869479260160016,0.0002255987189686989,-0.00020160361584953132,0.00042843664947541884,0.3752071261405945,19.717248916625977,0.5220611095428467,-19.983552932739258,-0.6594749093055725,-2.4630770683288574,0.22830526530742645,0
52,0.2550392150878906,-0.3752071261405945,-19.717248916625977,-0.5220611095428467,19.983552932739258,0.6594749093055725,2.4630770683288574,-0.22830526530742645,0.0,0.0,0.0,0.0,0.0,0.0,0.0,-0.3655396504611194,0.06693115687012946,-0.31786003931666823,0.1948222625454917,0.0673644126192928,0.09447584706262192,-0.24027168543988245,1.2134433834261185,-0.2202382193050886,-0.007511582990459183,-2.6038520101207197,-0.10888525389847177,2.468184262010778,0.8264724127691553,1.2134413937687574,-0.2202432315892585,-0.0075118285948192216,-2.6038483821997875,-0.10888392708698907,2.4681821257803174,0.826474908251239,-6.61307745649877e-07,0.0011210936922841088,0.0004683187032291398,-0.0002869479260160016,-0.0002255987189686989,0.00020160361584953132,-0.00042843664947541884,0.0,0.0,0.0,0.0,0.0,0.0,0.0,-1.9896573610900248e-06,-5.012284169880754e-06,-2.4560436003885633e-07,3.6279209321143924e-06,1.3268114826964217e-06,-2.136230460525468e-06,2.4954820837530534e-06,6.61307745649877e-07,-0.0011210936922841088,-0.0004683187032291398,0.0002869479260160016,0.0002255987189686989,-0.00020160361584953132,0.00042843664947541884,0.3752071261405945,19.717248916625977,0.5220611095428467,-19.983552932739258,-0.6594749093055725,-2.4630770683288574,0.22830526530742645,0
53,0.26003384590148926,-0.3752071261405945,-19.717248916625977,-0.5220611095428467,19.983552932739258,0.6594749093055725,2.4630770683288574,-0.22830526530742645,0.0,0.0,0.0,0.0,0.0,0.0,0.0,-0.3655396504611194,0.06693115687012946,-0.31786003931666823,0.1948222625454917,0.0673644126192928,0.09447584706262192,-0.24027168543988245,1.2134433834261185,-0.2202382193050886,-0.007511582990459183,-2.6038520101207197,-0.10888525389847177,2.468184262010778,0.8264724127691553,1.2134413937687574,-0.2202432315892585,-0.0075118285948192216,-2.6038483821997875,-0.10888392708698907,2.4681821257803174,0.826474908251239,-6.61307745649877e-07,0.0011210936922841088,0.0004683187032291398,-0.0002869479260160016,-0.0002255987189686989,0.00020160361584953132,-0.00042843664947541884,0.0,0.0,0.0,0.0,0.0,0.0,0.0,-1.9896573610900248e-06,-5.012284169880754e-06,-2.4560436003885633e-07,3.6279209321143924e-06,1.3268114826964217e-06,-2.136230460525468e-06,2.4954820837530534e-06,6.61307745649877e-07,-0.0011210936922841088,-0.0004683187032291398,0.0002869479260160016,0.0002255987189686989,-0.00020160361584953132,0.00042843664947541884,0.3752071261405945,19.717248916625977,0.5220611095428467,-19.983552932739258,-0.6594749093055725,-2.4630770683288574,0.22830526530742645,0
54,0.26504039764404297,-0.3752071261405945,-19.717248916625977,-0.5220611095428467,19.983552932739258,0.6594749093055725,2.4630770683288574,-0.22830526530742645,0.0,0.0,0.0,0.0,0.0,0.0,0.0,-0.3655396504611194,0.06693115687012946,-0.31786003931666823,0.1948222625454917,0.0673644126192928,0.09447584706262192,-0.24027168543988245,1.2134433834261185,-0.2202382193050886,-0.007511582990459183,-2.6038520101207197,-0.10888525389847177,2.468184262010778,0.8264724127691553,1.2134413937687574,-0.2202432315892585,-0.0075118285948192216,-2.6038483821997875,-0.10888392708698907,2.4681821257803174,0.826474908251239,-6.61307745649877e-07,0.0011210936922841088,0.0004683187032291398,-0.0002869479260160016,-0.0002255987189686989,0.00020160361584953132,-0.00042843664947541884,0.0,0.0,0.0,0.0,0.0,0.0,0.0,-1.9896573610900248e-06,-5.012284169880754e-06,-2.4560436003885633e-07,3.6279209321143924e-06,1.3268114826964217e-06,-2.136230460525468e-06,2.4954820837530534e-06,6.61307745649877e-07,-0.0011210936922841088,-0.0004683187032291398,0.0002869479260160016,0.0002255987189686989,-0.00020160361584953132,0.00042843664947541884,0.3752071261405945,19.717248916625977,0.5220611095428467,-19.983552932739258,-0.6594749093055725,-2.4630770683288574,0.22830526530742645,0
55,0.27003955841064453,-0.4267818331718445,-19.669641494750977,-0.4982573688030243,19.983552932739258,0.6658836007118225,2.4630770683288574,-0.21457235515117645,0.0,0.0,0.0,0.0,0.0,0.0,0.0,-0.3696408649853461,0.062037316712490936,-0.32132988542881746,0.1984011368517545,0.06788656804216181,0.09521386807480571,-0.23989123125180462,1.2134443684091716,-0.22024156017679913,-0.007513411318118197,-2.6038520101246077,-0.10888596159222215,2.468184262010786,0.8264705467975981,1.2134413937687574,-0.2202432315892585,-0.0075118285948192216,-2.6038483821997875,-0.10888392708698907,2.4681821257803174,0.826474908251239,0.0015851369415411168,-0.0002630734300288493,-0.0004177611036297155,0.0002680964728138704,-0.000338300304755876,0.00019184326067327704,-0.0012268527063987948,0.0,0.0,0.0,0.0,0.0,0.0,0.0,-2.974640414210583e-06,-1.6714124593530943e-06,1.5827232989753734e-06,3.6279248201154246e-06,2.0345052330755786e-06,-2.1362304685190736e-06,4.361453640910895e-06,-0.0015851369415411168,0.0002630734300288493,0.0004177611036297155,-0.0002680964728138704,0.000338300304755876,-0.00019184326067327704,0.0012268527063987948,0.4267818331718445,19.669641494750977,0.4982573688030243,-19.983552932739258,-0.6658836007118225,-2.4630770683288574,0.21457235515117645,0
56,0.2750401496887207,-0.4267818331718445,-19.669641494750977,-0.4982573688030243,19.983552932739258,0.6658836007118225,2.4630770683288574,-0.21457235515117645,0.0,0.0,0.0,0.0,0.0,0.0,0.0,-0.3696408649853461,0.062037316712490936,-0.32132988542881746,0.1984011368517545,0.06788656804216181,0.09521386807480571,-0.23989123125180462,1.2134443684091716,-0.22024156017679913,-0.007513411318118197,-2.6038520101246077,-0.10888596159222215,2.468184262010786,0.8264705467975981,1.2134413937687574,-0.2202432315892585,-0.0075118285948192216,-2.6038483821997875,-0.10888392708698907,2.4681821257803174,0.826474908251239,0.0015851369415411168,-0.0002630734300288493,-0.0004177611036297155,0.0002680964728138704,-0.000338300304755876,0.00019184326067327704,-0.0012268527063987948,0.0,0.0,0.0,0.0,0.0,0.0,0.0,-2.974640414210583e-06,-1.6714124593530943e-06,1.5827232989753734e-06,3.6279248201154246e-06,2.0345052330755786e-06,-2.1362304685190736e-06,4.361453640910895e-06,-0.0015851369415411168,0.0002630734300288493,0.0004177611036297155,-0.0002680964728138704,0.000338300304755876,-0.00019184326067327704,0.0012268527063987948,0.4267818331718445,19.669641494750977,0.4982573688030243,-19.983552932739258,-0.6658836007118225,-2.4630770683288574,0.21457235515117645,0
57,0.2800452709197998,-0.3752071261405945,-19.669641494750977,-0.4982573688030243,19.983552932739258,0.6475730538368225,2.4694857597351074,-0.24844686686992645,0.0,0.0,0.0,0.0,0.0,0.0,0.0,-0.37007255146370827,0.0626581242973048,-0.3219007601612445,0.19802027843793732,0.06853931932259007,0.0949051723589894,-0.2403655329033351,1.2134414760734313,-0.22024156017679913,-0.007513157091252421,-2.6038520090398287,-0.10888392708698909,2.46818355041848,0.8264788625036618,1.2134413937687574,-0.2202432315892585,-0.0075118285948192216,-2.6038483821997875,-0.10888392708698907,2.4681821257803174,0.826474908251239,-0.00028922096652585596,-0.00026222501257408955,-0.00020767142290729088,-0.00012837669928158834,0.00028718541754621036,-0.00010008332145263705,0.0003190516949629724,0.0,0.0,0.0,0.0,0.0,0.0,0.0,-8.230467396508345e-08,-1.6714124593530943e-06,1.328496433199329e-06,3.626840041182078e-06,1.3877787807814457e-17,-1.4246381625504512e-06,-3.954252422722071e-06,0.00028922096652585596,0.00026222501257408955,0.00020767142290729088,0.00012837669928158834,-0.00028718541754621036,0.00010008332145263705,-0.0003190516949629724,0.3752071261405945,19.669641494750977,0.4982573688030243,-19.983552932739258,-0.6475730538368225,-2.4694857597351074,0.24844686686992645,0
58,0.2850332260131836,-0.3752071261405945,-19.669641494750977,-0.4982573688030243,19.983552932739258,0.6475730538368225,2.4694857597351074,-0.24844686686992645,0.0,0.0,0.0,0.0,0.0,0.0,0.0,-0.37007255146370827,0.0626581242973048,-0.3219007601612445,0.19802027843793732,0.06853931932259007,0.0949051723589894,-0.2403655329033351,1.2134414760734313,-0.22024156017679913,-0.007513157091252421,-2.6038520090398287,-0.10888392708698909,2.46818355041848,0.8264788625036618,1.2134413937687574,-0.2202432315892585,-0.0075118285948192216,-2.6038483821997875,-0.10888392708698907,2.4681821257803174,0.826474908251239,-0.00028922096652585596,-0.00026222501257408955,-0.00020767142290729088,-0.00012837669928158834,0.00028718541754621036,-0.00010008332145263705,0.0003190516949629724,0.0,0.0,0.0,0.0,0.0,0.0,0.0,-8.230467396508345e-08,-1.6714124593530943e-06,1.328496433199329e-06,3.626840041182078e-06,1.3877787807814457e-17,-1.4246381625504512e-06,-3.954252422722071e-06,0.00028922096652585596,0.00026222501257408955,0.00020767142290729088,0.00012837669928158834,-0.00028718541754621036,0.00010008332145263705,-0.0003190516949629724,0.3752071261405945,19.669641494750977,0.4982573688030243,-19.983552932739258,-0.6475730538368225,-2.4694857597351074,0.24844686686992645,0
59,0.29003167152404785,-0.4029781222343445,-19.717248916625977,-0.4982573688030243,19.983552932739258,0.6475730538368225,2.4630770683288574,-0.20724813640117645,0.0,0.0,0.0,0.0,0.0,0.0,0.0,-0.37075548203972963,0.058618023180277486,-0.32092310919364003,0.2003428254512746,0.06865864384806206,0.09511362160028557,-0.24095495010301743,1.2134452525771064,-0.2202382193050886,-0.007511253520699026,-2.6038512438855896,-0.10888392708698909,2.468184262010789,0.8264696980802494,1.2134413937687574,-0.2202432315892585,-0.0075118285948192216,-2.6038483821997875,-0.10888392708698907,2.4681821257803174,0.826474908251239,0.0006476894180752634,0.0005598059154442108,-0.0003712376172282261,-0.0004896717718103341,0.0003122405701446003,0.00023799867914170157,-0.0014444543152802574,0.0,0.0,0.0,0.0,0.0,0.0,0.0,-3.8588083490775915e-06,-5.012284169880754e-06,-5.750741201952791e-07,2.8616858021024427e-06,1.3877787807814457e-17,-2.136230471627698e-06,5.2101709896446025e-06,-0.0006476894180752634,-0.0005598059154442108,0.0003712376172282261,0.0004896717718103341,-0.0003122405701446003,-0.00023799867914170157,0.0014444543152802574,0.4029781222343445,19.717248916625977,0.4982573688030243,-19.983552932739258,-0.6475730538368225,-2.4630770683288574,0.20724813640117645,0
60,0.29503965377807617,-0.4029781222343445,-19.717248916625977,-0.4982573688030243,19.983552932739258,0.6475730538368225,2.4630770683288574,-0.20724813640117645,0.0,0.0,0.0,0.0,0.0,0.0,0.0,-0.37075548203972963,0.058618023180277486,-0.32092310919364003,0.2003428254512746,0.06865864384806206,0.09511362160028557,-0.24095495010301743,1.2134452525771064,-0.2202382193050886,-0.007511253520699026,-2.6038512438855896,-0.10888392708698909,2.468184262010789,0.8264696980802494,1.2134413937687574,-0.2202432315892585,-0.0075118285948192216,-2.6038483821997875,-0.10888392708698907,2.4681821257803174,0.826474908251239,0.0006476894180752634,0.0005598059154442108,-0.0003712376172282261,-0.0004896717718103341,0.0003122405701446003,0.00023799867914170157,-0.0014444543152802574,0.0,0.0,0.0,0.0,0.0,0.0,0.0,-3.8588083490775915e-06,-5.012284169880754e-06,-5.750741201952791e-07,2.8616858021024427e-06,1.3877787807814457e-17,-2.136230471627698e-06,5.2101709896446025e-06,-0.0006476894180752634,-0.0005598059154442108,0.0003712376172282261,0.0004896717718103341,-0.0003122405701446003,-0.00023799867914170157,0.0014444543152802574,0.4029781222343445,19.717248916625977,0.4982573688030243,-19.983552932739258,-0.6475730538368225,-2.4630770683288574,0.20724813640117645,0
61,0.3000204563140869,-0.3752071261405945,-19.669641494750977,-0.4704863727092743,19.983552932739258,0.6420798897743225,2.4566683769226074,-0.25485557317733765,0.0,0.0,0.0,0.0,0.0,0.0,0.0,-0.3705203885142387,0.0606600537075983,-0.3179060034402969,0.20236795289995102,0.0681580249172077,0.09501567929385733,-0.2414802791174684,1.213443585661663,-0.22024156017679913,-0.007512525289073502,-2.6038513213554983,-0.10888331819579035,2.468184974087609,0.8264748519971941,1.2134413937687574,-0.2202432315892585,-0.0075118285948192216,-2.6038483821997875,-0.10888392708698907,2.4681821257803174,0.826474908251239,0.00016548189178000396,-0.0003654621242488723,-0.0012853636285899788,0.0004036709752490918,0.00034726383926055466,0.0004587175145432238,0.00023356188098665832,0.0,0.0,0.0,0.0,0.0,0.0,0.0,-2.1918929056230496e-06,-1.6714124593530943e-06,6.966942542804833e-07,2.939155710812713e-06,-6.088911987250922e-07,-2.848307291802854e-06,5.6254044977777085e-08,-0.00016548189178000396,0.0003654621242488723,0.0012853636285899788,-0.0004036709752490918,-0.00034726383926055466,-0.0004587175145432238,-0.00023356188098665832,0.3752071261405945,19.669641494750977,0.4704863727092743,-19.983552932739258,-0.6420798897743225,-2.4566683769226074,0.25485557317733765,0
62,0.3050405979156494,-0.3752071261405945,-19.669641494750977,-0.4704863727092743,19.983552932739258,0.6420798897743225,2.4566683769226074,-0.25485557317733765,0.0,0.0,0.0,0.0,0.0,0.0,0.0,-0.3705203885142387,0.0606600537075983,-0.3179060034402969,0.20236795289995102,0.0681580249172077,0.09501567929385733,-0.2414802791174684,1.213443585661663,-0.22024156017679913,-0.007512525289073502,-2.6038513213554983,-0.10888331819579035,2.468184974087609,0.8264748519971941,1.2134413937687574,-0.2202432315892585,-0.0075118285948192216,-2.6038483821997875,-0.10888392708698907,2.4681821257803174,0.826474908251239,0.00016548189178000396,-0.0003654621242488723,-0.0012853636285899788,0.0004036709752490918,0.00034726383926055466,0.0004587175145432238,0.00023356188098665832,0.0,0.0,0.0,0.0,0.0,0.0,0.0,-2.1918929056230496e-06,-1.6714124593530943e-06,6.966942542804833e-07,2.939155710812713e-06,-6.088911987250922e-07,-2.848307291802854e-06,5.6254044977777085e-08,-0.00016548189178000396,0.0003654621242488723,0.0012853636285899788,-0.0004036709752490918,-0.00034726383926055466,-0.0004587175145432238,-0.00023356188098665832,0.3752071261405945,19.669641494750977,0.4704863727092743,-19.983552932739258,-0.6420798897743225,-2.4566683769226074,0.25485557317733765,0
63,0.31003332138061523,-0.3752071261405945,-19.669641494750977,-0.5458648204803467,19.983552932739258,0.6539817452430725,2.4630770683288574,-0.25485557317733765,0.0,0.0,0.0,0.0,0.0,0.0,0.0,-0.3705025473674835,0.06504309591874115,-0.3182505453523923,0.199977098124304,0.06739319156157819,0.09392732326310722,-0.24276579883724103,1.213442640492207,-0.22024156017679913,-0.0075100701405554715,-2.6038520101207197,-0.10888463916382024,2.4681842620107863,0.8264749877687876,1.2134413937687574,-0.2202432315892585,-0.0075118285948192216,-2.6038483821997875,-0.10888392708698907,2.4681821257803174,0.826474908251239,0.0003277172977784711,0.00016602738367748048,0.0006365566990129963,0.00016494905368491451,-1.7738714018857506e-05,5.062060663796294e-06,0.0003711015554938243,0.0,0.0,0.0,0.0,0.0,0.0,0.0,-1.2467234495883162e-06,-1.6714124593530943e-06,-1.7584542637500214e-06,3.6279209321143924e-06,7.120768311663639e-07,-2.136230468963163e-06,-7.951754854573778e-08,-0.0003277172977784711,-0.00016602738367748048,-0.0006365566990129963,-0.00016494905368491451,1.7738714018857506e-05,-5.062060663796294e-06,-0.0003711015554938243,0.3752071261405945,19.669641494750977,0.5458648204803467,-19.983552932739258,-0.6539817452430725,-2.4630770683288574,0.25485557317733765,0
64,0.31503939628601074,-0.3752071261405945,-19.669641494750977,-0.5458648204803467,19.983552932739258,0.6539817452430725,2.4630770683288574,-0.25485557317733765,0.0,0.0,0.0,0.0,0.0,0.0,0.0,-0.3705025473674835,0.06504309591874115,-0.3182505453523923,0.199977098124304,0.06739319156157819,0.09392732326310722,-0.24276579883724103,1.213442640492207,-0.22024156017679913,-0.0075100701405554715,-2.6038520101207197,-0.10888463916382024,2.4681842620107863,0.8264749877687876,1.2134413937687574,-0.2202432315892585,-0.0075118285948192216,-2.6038483821997875,-0.10888392708698907,2.4681821257803174,0.826474908251239,0.0003277172977784711,0.00016602738367748048,0.0006365566990129963,0.00016494905368491451,-1.7738714018857506e-05,5.062060663796294e-06,0.0003711015554938243,0.0,0.0,0.0,0.0,0.0,0.0,0.0,-1.2467234495883162e-06,-1.6714124593530943e-06,-1.7584542637500214e-06,3.6279209321143924e-06,7.120768311663639e-07,-2.136230468963163e-06,-7.951754854573778e-08,-0.0003277172977784711,-0.00016602738367748048,-0.0006365566990129963,-0.00016494905368491451,1.7738714018857506e-05,-5.062060663796294e-06,-0.0003711015554938243,0.3752071261405945,19.669641494750977,0.5458648204803467,-19.983552932739258,-0.6539817452430725,-2.4630770683288574,0.25485557317733765,0
65,0.3200099468231201,-0.3752071261405945,-19.618066787719727,-0.5220611095428467,19.983552932739258,0.6594749093055725,2.4566683769226074,-0.22830526530742645,0.0,0.0,0.0,0.0,0.0,0.0,0.0,-0.37058402243963223,0.06538756764781445,-0.3199800351369922,0.20019749680723428,0.06772977043262321,0.09281283562409039,-0.2423043694229763,1.2134435156331358,-0.22024517945448555,-0.0075115908917358105,-2.6038520101246077,-0.1088852495153745,2.468184974087609,0.8264754776427561,1.2134413937687574,-0.2202432315892585,-0.0075118285948192216,-2.6038483821997875,-0.10888392708698907,2.4681821257803174,0.826474908251239,0.00045672042794827917,-0.0011614694845481334,0.00012243895308469002,-0.00041386398675868387,-0.00034853744759300774,0.00029269630242338685,-0.0007602638774493682,0.0,0.0,0.0,0.0,0.0,0.0,0.0,-2.1218643784237656e-06,1.9478652270588093e-06,-2.3770308341108937e-07,3.6279248201154246e-06,1.3224283854224028e-06,-2.848307291802854e-06,-5.693915170468244e-07,-0.00045672042794827917,0.0011614694845481334,-0.00012243895308469002,0.00041386398675868387,0.00034853744759300774,-0.00029269630242338685,0.0007602638774493682,0.3752071261405945,19.618066787719727,0.5220611095428467,-19.983552932739258,-0.6594749093055725,-2.4566683769226074,0.22830526530742645,0
66,0.32503509521484375,-0.3752071261405945,-19.618066787719727,-0.5220611095428467,19.983552932739258,0.6594749093055725,2.4566683769226074,-0.22830526530742645,0.0,0.0,0.0,0.0,0.0,0.0,0.0,-0.37058402243963223,0.06538756764781445,-0.3199800351369922,0.20019749680723428,0.06772977043262321,0.09281283562409039,-0.2423043694229763,1.2134435156331358,-0.22024517945448555,-0.0075115908917358105,-2.6038520101246077,-0.1088852495153745,2.468184974087609,0.8264754776427561,1.2134413937687574,-0.2202432315892585,-0.0075118285948192216,-2.6038483821997875,-0.10888392708698907,2.4681821257803174,0.826474908251239,0.00045672042794827917,-0.0011614694845481334,0.00012243895308469002,-0.00041386398675868387,-0.00034853744759300774,0.00029269630242338685,-0.0007602638774493682,0.0,0.0,0.0,0.0,0.0,0.0,0.0,-2.1218643784237656e-06,1.9478652270588093e-06,-2.3770308341108937e-07,3.6279248201154246e-06,1.3224283854224028e-06,-2.848307291802854e-06,-5.693915170468244e-07,-0.00045672042794827917,0.0011614694845481334,-0.00012243895308469002,0.00041386398675868387,0.00034853744759300774,-0.00029269630242338685,0.0007602638774493682,0.3752071261405945,19.618066787719727,0.5220611095428467,-19.983552932739258,-0.6594749093055725,-2.4566683769226074,0.22830526530742645,0
67,0.3300337791442871,-0.4029781222343445,-19.669641494750977,-0.5458648204803467,19.955781936645508,0.6539817452430725,2.4566683769226074,-0.26217979192733765,0.0,0.0,0.0,0.0,0.0,0.0,0.0,-0.37219559972510546,0.06162528031058347,-0.32261604457386206,0.20374212477277207,0.06829999605275908,0.09247532106496724,-0.2423848988750868,1.213444739776093,-0.22024156017679913,-0.007507787481988906,-2.6038500356679912,-0.108884639163812,2.468184620874899,0.826476136930481,1.2134413937687574,-0.2202432315892585,-0.0075118285948192216,-2.6038483821997875,-0.10888392708698907,2.4681821257803174,0.826474908251239,0.0006161947759400082,7.748099683396988e-06,0.0006806058266437774,0.0004020438160209557,-0.00018527230554646272,-0.0001244843372193564,0.0007485719709034276,0.0,0.0,0.0,0.0,0.0,0.0,0.0,-3.346007335647272e-06,-1.6714124593530943e-06,-4.04111283031517e-06,1.6534682036883908e-06,7.120768229229579e-07,-2.4950945816115677e-06,-1.228679242015751e-06,-0.0006161947759400082,-7.748099683396988e-06,-0.0006806058266437774,-0.0004020438160209557,0.00018527230554646272,0.0001244843372193564,-0.0007485719709034276,0.4029781222343445,19.669641494750977,0.5458648204803467,-19.955781936645508,-0.6539817452430725,-2.4566683769226074,0.26217979192733765,0
68,0.3350396156311035,-0.4029781222343445,-19.669641494750977,-0.5458648204803467,19.955781936645508,0.6539817452430725,2.4566683769226074,-0.26217979192733765,0.0,0.0,0.0,0.0,0.0,0.0,0.0,-0.37219559972510546,0.06162528031058347,-0.32261604457386206,0.20374212477277207,0.06829999605275908,0.09247532106496724,-0.2423848988750868,1.213444739776093,-0.22024156017679913,-0.007507787481988906,-2.6038500356679912,-0.108884639163812,2.468184620874899,0.826476136930481,1.2134413937687574,-0.2202432315892585,-0.0075118285948192216,-2.6038483821997875,-0.10888392708698907,2.4681821257803174,0.826474908251239,0.0006161947759400082,7.748099683396988e-06,0.0006806058266437774,0.0004020438160209557,-0.00018527230554646272,-0.0001244843372193564,0.0007485719709034276,0.0,0.0,0.0,0.0,0.0,0.0,0.0,-3.346007335647272e-06,-1.6714124593530943e-06,-4.04111283031517e-06,1.6534682036883908e-06,7.120768229229579e-07,-2.4950945816115677e-06,-1.228679242015751e-06,-0.0006161947759400082,-7.748099683396988e-06,-0.0006806058266437774,-0.0004020438160209557,0.00018527230554646272,0.0001244843372193564,-0.0007485719709034276,0.4029781222343445,19.669641494750977,0.5458648204803467,-19.955781936645508,-0.6539817452430725,-2.4566683769226074,0.26217979192733765,0
69,0.34003376960754395,-0.3514034152030945,-19.669641494750977,-0.5220611095428467,19.955781936645508,0.6475730538368225,2.4630770683288574,-0.19351522624492645,0.0,0.0,0.0,0.0,0.0,0.0,0.0,-0.36871780944859045,0.06722523387286587,-0.31937217142652863,0.20082592240933206,0.06831378763490263,0.09102217526281077,-0.24237944866790279,1.213439689982841,-0.22024156017679913,-0.007511828473198744,-2.6038500612826323,-0.10888392708698909,2.4681842620087924,0.8264722870704195,1.2134413937687574,-0.2202432315892585,-0.0075118285948192216,-2.6038483821997875,-0.10888392708698907,2.4681821257803174,0.826474908251239,-9.921599939402505e-05,0.00018477888290140842,0.00020252521622226628,0.00047125115267698656,0.0004924493147699557,-2.9609185013718776e-05,-0.0023554536470012143,0.0,0.0,0.0,0.0,0.0,0.0,0.0,1.7037859163515634e-06,-1.6714124593530943e-06,-1.216204775777996e-10,1.6790828447632578e-06,1.3877787807814457e-17,-2.1362284750026106e-06,2.6211808195064634e-06,9.921599939402505e-05,-0.00018477888290140842,-0.00020252521622226628,-0.00047125115267698656,-0.0004924493147699557,2.9609185013718776e-05,0.0023554536470012143,0.3514034152030945,19.669641494750977,0.5220611095428467,-19.955781936645508,-0.6475730538368225,-2.4630770683288574,0.19351522624492645,0
70,0.34500980377197266,-0.3514034152030945,-19.669641494750977,-0.5220611095428467,19.955781936645508,0.6475730538368225,2.4630770683288574,-0.19351522624492645,0.0,0.0,0.0,0.0,0.0,0.0,0.0,-0.36871780944859045,0.06722523387286587,-0.31937217142652863,0.20082592240933206,0.06831378763490263,0.09102217526281077,-0.24237944866790279,1.213439689982841,-0.22024156017679913,-0.007511828473198744,-2.6038500612826323,-0.10888392708698909,2.4681842620087924,0.8264722870704195,1.2134413937687574,-0.2202432315892585,-0.0075118285948192216,-2.6038483821997875,-0.10888392708698907,2.4681821257803174,0.826474908251239,-9.921599939402505e-05,0.00018477888290140842,0.00020252521622226628,0.00047125115267698656,0.0004924493147699557,-2.9609185013718776e-05,-0.0023554536470012143,0.0,0.0,0.0,0.0,0.0,0.0,0.0,1.7037859163515634e-06,-1.6714124593530943e-06,-1.216204775777996e-10,1.6790828447632578e-06,1.3877787807814457e-17,-2.1362284750026106e-06,2.6211808195064634e-06,9.921599939402505e-05,-0.00018477888290140842,-0.00020252521622226628,-0.00047125115267698656,-0.0004924493147699557,2.9609185013718776e-05,0.0023554536470012143,0.3514034152030945,19.669641494750977,0.5220611095428467,-19.955781936645508,-0.6475730538368225,-2.4630770683288574,0.19351522624492645,0
71,0.35004305839538574,-0.3752071261405945,-19.717248916625977,-0.4982573688030243,19.931978225708008,0.6539817452430725,2.4694857597351074,-0.23471395671367645,0.0,0.0,0.0,0.0,0.0,0.0,0.0,-0.3689727196751006,0.06218569964189587,-0.31927215322763264,0.20374425546479935,0.06888435382673648,0.09152007401006641,-0.2425071846742149,1.213442824281074,-0.2202382193050886,-0.007512705716606251,-2.603848390846921,-0.10888428429541763,2.468183549933963,0.826477378746909,1.2134413937687574,-0.2202432315892585,-0.0075118285948192216,-2.6038483821997875,-0.10888392708698907,2.4681821257803174,0.826474908251239,3.79671886109989e-05,0.0006466345858959418,-0.0004579207665597177,0.001464177146779206,-3.9150020076139625e-06,-0.00021898957541836592,-0.000688489440219814,0.0,0.0,0.0,0.0,0.0,0.0,0.0,-1.4305123166025169e-06,-5.012284169880754e-06,8.771217870290685e-07,8.647133675765417e-09,3.5720842855857526e-07,-1.4241536456793824e-06,-2.470495669926187e-06,-3.79671886109989e-05,-0.0006466345858959418,0.0004579207665597177,-0.001464177146779206,3.9150020076139625e-06,0.00021898957541836592,0.000688489440219814,0.3752071261405945,19.717248916625977,0.4982573688030243,-19.931978225708008,-0.6539817452430725,-2.4694857597351074,0.23471395671367645,0
72,0.35503411293029785,-0.3752071261405945,-19.717248916625977,-0.4982573688030243,19.931978225708008,0.6539817452430725,2.4694857597351074,-0.23471395671367645,0.0,0.0,0.0,0.0,0.0,0.0,0.0,-0.3689727196751006,0.06218569964189587,-0.31927215322763264,0.20374425546479935,0.06888435382673648,0.09152007401006641,-0.2425071846742149,1.213442824281074,-0.2202382193050886,-0.007512705716606251,-2.603848390846921,-0.10888428429541763,2.468183549933963,0.826477378746909,1.2134413937687574,-0.2202432315892585,-0.0075118285948192216,-2.6038483821997875,-0.10888392708698907,2.4681821257803174,0.826474908251239,3.79671886109989e-05,0.0006466345858959418,-0.0004579207665597177,0.001464177146779206,-3.9150020076139625e-06,-0.00021898957541836592,-0.000688489440219814,0.0,0.0,0.0,0.0,0.0,0.0,0.0,-1.4305123166025169e-06,-5.012284169880754e-06,8.771217870290685e-07,8.647133675765417e-09,3.5720842855857526e-07,-1.4241536456793824e-06,-2.470495669926187e-06,-3.79671886109989e-05,-0.0006466345858959418,0.0004579207665597177,-0.001464177146779206,3.9150020076139625e-06,0.00021898957541836592,0.000688489440219814,0.3752071261405945,19.717248916625977,0.4982573688030243,-19.931978225708008,-0.6539817452430725,-2.4694857597351074,0.23471395671367645,0
73,0.3600330352783203,-0.3752071261405945,-19.669641494750977,-0.4704863727092743,20.007356643676758,0.6475730538368225,2.4758944511413574,-0.22830526530742645,0.0,0.0,0.0,0.0,0.0,0.0,0.0,-0.3726447276430808,0.06032836804590117,-0.32247263796057624,0.2061456388238172,0.06920109606500617,0.09243449420295789,-0.24264836347003016,1.2134426388163262,-0.22024156017679913,-0.00751521114172313,-2.6038536720571943,-0.10888404537445062,2.46818283785714,0.8264719455417888,1.2134413937687574,-0.2202432315892585,-0.0075118285948192216,-2.6038483821997875,-0.10888392708698907,2.4681821257803174,0.826474908251239,2.5040920527341175e-05,-0.0006612379632730287,-0.0011523794096196202,-3.422537726434577e-05,0.0002220262071019106,-0.00026431032795408226,-0.0008138726041690843,0.0,0.0,0.0,0.0,0.0,0.0,0.0,-1.245047568820823e-06,-1.6714124593530943e-06,3.382546903908136e-06,5.289857406776122e-06,1.1828746154796121e-07,-7.120768228396912e-07,2.962709450216039e-06,-2.5040920527341175e-05,0.0006612379632730287,0.0011523794096196202,3.422537726434577e-05,-0.0002220262071019106,0.00026431032795408226,0.0008138726041690843,0.3752071261405945,19.669641494750977,0.4704863727092743,-20.007356643676758,-0.6475730538368225,-2.4758944511413574,0.22830526530742645,0
74,0.3650338649749756,-0.3752071261405945,-19.669641494750977,-0.4704863727092743,20.007356643676758,0.6475730538368225,2.4758944511413574,-0.22830526530742645,0.0,0.0,0.0,0.0,0.0,0.0,0.0,-0.3726447276430808,0.06032836804590117,-0.32247263796057624,0.2061456388238172,0.06920109606500617,0.09243449420295789,-0.24264836347003016,1.2134426388163262,-0.22024156017679913,-0.00751521114172313,-2.6038536720571943,-0.10888404537445062,2.46818283785714,0.8264719455417888,1.2134413937687574,-0.2202432315892585,-0.0075118285948192216,-2.6038483821997875,-0.10888392708698907,2.4681821257803174,0.826474908251239,2.5040920527341175e-05,-0.0006612379632730287,-0.0011523794096196202,-3.422537726434577e-05,0.0002220262071019106,-0.00026431032795408226,-0.0008138726041690843,0.0,0.0,0.0,0.0,0.0,0.0,0.0,-1.245047568820823e-06,-1.6714124593530943e-06,3.382546903908136e-06,5.289857406776122e-06,1.1828746154796121e-07,-7.120768228396912e-07,2.962709450216039e-06,-2.5040920527341175e-05,0.0006612379632730287,0.0011523794096196202,3.422537726434577e-05,-0.0002220262071019106,0.00026431032795408226,0.0008138726041690843,0.3752071261405945,19.669641494750977,0.4704863727092743,-20.007356643676758,-0.6475730538368225,-2.4758944511413574,0.22830526530742645,0
75,0.37003421783447266,-0.4029781222343445,-19.645837783813477,-0.5458648204803467,19.955781936645508,0.6475730538368225,2.4758944511413574,-0.24844686686992645,0.0,0.0,0.0,0.0,0.0,0.0,0.0,-0.3692961815219162,0.06601260189540442,-0.3185617062343301,0.2010849420999002,0.0686063425009023,0.09237882633315056,-0.24316396911492758,1.2134423904705582,-0.22024323354246664,-0.007509920418959904,-2.6038499819188856,-0.10888392708765682,2.46818283785714,0.8264784952392485,1.2134413937687574,-0.2202432315892585,-0.0075118285948192216,-2.6038483821997875,-0.10888392708698907,2.4681821257803174,0.826474908251239,0.0014063931444664925,-0.0008734570424976759,0.000720669715542892,0.0005143851367843495,0.000232119543647066,-0.00022211698854702336,-9.730254293161985e-05,0.0,0.0,0.0,0.0,0.0,0.0,0.0,-9.967018008705253e-07,1.953208150773378e-09,-1.9081758593176776e-06,1.5997190980776566e-06,6.677436381608004e-13,-7.120768228396912e-07,-3.586988009507408e-06,-0.0014063931444664925,0.0008734570424976759,-0.000720669715542892,-0.0005143851367843495,-0.000232119543647066,0.00022211698854702336,9.730254293161985e-05,0.4029781222343445,19.645837783813477,0.5458648204803467,-19.955781936645508,-0.6475730538368225,-2.4758944511413574,0.24844686686992645,0
76,0.3750267028808594,-0.4029781222343445,-19.645837783813477,-0.5458648204803467,19.955781936645508,0.6475730538368225,2.4758944511413574,-0.24844686686992645,0.0,0.0,0.0,0.0,0.0,0.0,0.0,-0.3692961815219162,0.06601260189540442,-0.3185617062343301,0.2010849420999002,0.0686063425009023,0.09237882633315056,-0.24316396911492758,1.2134423904705582,-0.22024323354246664,-0.007509920418959904,-2.6038499819188856,-0.10888392708765682,2.46818283785714,0.8264784952392485,1.2134413937687574,-0.2202432315892585,-0.0075118285948192216,-2.6038483821997875,-0.10888392708698907,2.4681821257803174,0.826474908251239,0.0014063931444664925,-0.0008734570424976759,0.000720669715542892,0.0005143851367843495,0.000232119543647066,-0.00022211698854702336,-9.730254293161985e-05,0.0,0.0,0.0,0.0,0.0,0.0,0.0,-9.967018008705253e-07,1.953208150773378e-09,-1.9081758593176776e-06,1.5997190980776566e-06,6.677436381608004e-13,-7.120768228396912e-07,-3.586988009507408e-06,-0.0014063931444664925,0.0008734570424976759,-0.000720669715542892,-0.0005143851367843495,-0.000232119543647066,0.00022211698854702336,9.730254293161985e-05,0.4029781222343445,19.645837783813477,0.5458648204803467,-19.955781936645508,-0.6475730538368225,-2.4758944511413574,0.24844686686992645,0
77,0.3800323009490967,-0.4029781222343445,-19.645837783813477,-0.5458648204803467,19.955781936645508,0.6475730538368225,2.4758944511413574,-0.24844686686992645,0.0,0.0,0.0,0.0,0.0,0.0,0.0,-0.3692961815219162,0.06601260189540442,-0.3185617062343301,0.2010849420999002,0.0686063425009023,0.09237882633315056,-0.24316396911492758,1.2134423904705582,-0.22024323354246664,-0.007509920418959904,-2.6038499819188856,-0.10888392708765682,2.46818283785714,0.8264784952392485,1.2134413937687574,-0.2202432315892585,-0.0075118285948192216,-2.6038483821997875,-0.10888392708698907,2.4681821257803174,0.826474908251239,0.0014063931444664925,-0.0008734570424976759,0.000720669715542892,0.0005143851367843495,0.000232119543647066,-0.00022211698854702336,-9.730254293161985e-05,0.0,0.0,0.0,0.0,0.0,0.0,0.0,-9.967018008705253e-07,1.953208150773378e-09,-1.9081758593176776e-06,1.5997190980776566e-06,6.677436381608004e-13,-7.120768228396912e-07,-3.586988009507408e-06,-0.0014063931444664925,0.0008734570424976759,-0.000720669715542892,-0.0005143851367843495,-0.000232119543647066,0.00022211698854702336,9.730254293161985e-05,0.4029781222343445,19.645837783813477,0.5458648204803467,-19.955781936645508,-0.6475730538368225,-2.4758944511413574,0.24844686686992645,0
78,0.38503575325012207,-0.4029781222343445,-19.645837783813477,-0.5458648204803467,19.955781936645508,0.6475730538368225,2.4758944511413574,-0.24844686686992645,0.0,0.0,0.0,0.0,0.0,0.0,0.0,-0.3692961815219162,0.06601260189540442,-0.3185617062343301,0.2010849420999002,0.0686063425009023,0.09237882633315056,-0.24316396911492758,1.2134423904705582,-0.22024323354246664,-0.007509920418959904,-2.6038499819188856,-0.10888392708765682,2.46818283785714,0.8264784952392485,1.2134413937687574,-0.2202432315892585,-0.0075118285948192216,-2.6038483821997875,-0.10888392708698907,2.4681821257803174,0.826474908251239,0.0014063931444664925,-0.0008734570424976759,0.000720669715542892,0.0005143851367843495,0.000232119543647066,-0.00022211698854702336,-9.730254293161985e-05,0.0,0.0,0.0,0.0,0.0,0.0,0.0,-9.967018008705253e-07,1.953208150773378e-09,-1.9081758593176776e-06,1.5997190980776566e-06,6.677436381608004e-13,-7.120768228396912e-07,-3.586988009507408e-06,-0.0014063931444664925,0.0008734570424976759,-0.000720669715542892,-0.0005143851367843495,-0.000232119543647066,0.00022211698854702336,9.730254293161985e-05,0.4029781222343445,19.645837783813477,0.5458648204803467,-19.955781936645508,-0.6475730538368225,-2.4758944511413574,0.24844686686992645,0
79,0.39003562927246094,-0.3236324191093445,-19.693445205688477,-0.4982573688030243,20.007356643676758,0.6594749093055725,2.4566683769226074,-0.26217979192733765,0.0,0.0,0.0,0.0,0.0,0.0,0.0,-0.3671150415829822,0.061973783904320866,-0.3192273464677774,0.20669530150863236,0.06833850763816972,0.09448255537984697,-0.24379586403535658,1.2134399928587731,-0.22023988974096043,-0.007513498995348182,-2.6038536805600154,-0.1088852495153745,2.4681849740876087,0.8264756686763621,1.2134413937687574,-0.2202432315892585,-0.0075118285948192216,-2.6038483821997875,-0.10888392708698907,2.4681821257803174,0.826474908251239,-0.0009314795695958013,0.0006299306407508811,-0.00010644642379923003,-0.00023747669467466174,-0.00012247654072180855,0.0004312536110908682,0.0005630493371661088,0.0,0.0,0.0,0.0,0.0,0.0,0.0,1.4009099842393624e-06,-3.3418482980607234e-06,1.6704005289603155e-06,5.298360227889987e-06,1.3224283854224028e-06,-2.848307291358765e-06,-7.604251230919346e-07,0.0009314795695958013,-0.0006299306407508811,0.00010644642379923003,0.00023747669467466174,0.00012247654072180855,-0.0004312536110908682,-0.0005630493371661088,0.3236324191093445,19.693445205688477,0.4982573688030243,-20.007356643676758,-0.6594749093055725,-2.4566683769226074,0.26217979192733765,0
