rezayati/contactInterpretation/dataset/franka_main/labeled_data/link1/g1_5.csv
index,time,tau_J0,tau_J1,tau_J2,tau_J3,tau_J4,tau_J5,tau_J6,tau_J_d0,tau_J_d1,tau_J_d2,tau_J_d3,tau_J_d4,tau_J_d5,tau_J_d6,tau_ext0,tau_ext1,tau_ext2,tau_ext3,tau_ext4,tau_ext5,tau_ext6,q0,q1,q2,q3,q4,q5,q6,q_d0,q_d1,q_d2,q_d3,q_d4,q_d5,q_d6,dq0,dq1,dq2,dq3,dq4,dq5,dq6,dq_d0,dq_d1,dq_d2,dq_d3,dq_d4,dq_d5,dq_d6,e0,e1,e2,e3,e4,e5,e6,de0,de1,de2,de3,de4,de5,de6,etau_J0,etau_J1,etau_J2,etau_J3,etau_J4,etau_J5,etau_J6,label
1,0.0,-0.6568843722343445,-46.59957504272461,-5.564480304718018,19.535249710083008,0.7730002999305725,2.3788485527038574,-0.20724813640117645,0.0,0.0,0.0,0.0,0.0,0.0,0.0,-0.6329840307494723,-0.29943791138913395,-0.3987193856451649,0.362908382126733,0.1906320779202987,0.11055487383906064,-0.18485651326452618,0.8780107085556081,0.7554257475953353,-0.28249798223428557,-1.66905747632813,0.14140609647107316,2.4035737205918233,1.0273491345958576,0.878092876070424,0.7554597494309409,-0.2825552651693207,-1.6690993614607135,0.1414185955172306,2.4034451173676383,1.0273381002308042,0.0009603946759298405,0.00035215965050899297,5.245732941331071e-05,-0.0015176775817286603,8.00177076272762e-05,-0.0002738879209500247,0.0005223579506137694,0.0,0.0,0.0,0.0,0.0,0.0,0.0,8.216751481582296e-05,3.4001835605534936e-05,-5.728293503515225e-05,-4.188513258340798e-05,1.2499046157438132e-05,-0.0001286032241849533,-1.1034365053452788e-05,-0.0009603946759298405,-0.00035215965050899297,-5.245732941331071e-05,0.0015176775817286603,-8.00177076272762e-05,0.0002738879209500247,-0.0005223579506137694,0.6568843722343445,46.59957504272461,5.564480304718018,-19.535249710083008,-0.7730002999305725,-2.3788485527038574,0.20724813640117645,0
2,0.004992246627807617,-0.6568843722343445,-46.59957504272461,-5.564480304718018,19.535249710083008,0.7730002999305725,2.3788485527038574,-0.20724813640117645,0.0,0.0,0.0,0.0,0.0,0.0,0.0,-0.6329840307494723,-0.29943791138913395,-0.3987193856451649,0.362908382126733,0.1906320779202987,0.11055487383906064,-0.18485651326452618,0.8780107085556081,0.7554257475953353,-0.28249798223428557,-1.66905747632813,0.14140609647107316,2.4035737205918233,1.0273491345958576,0.878092876070424,0.7554597494309409,-0.2825552651693207,-1.6690993614607135,0.1414185955172306,2.4034451173676383,1.0273381002308042,0.0009603946759298405,0.00035215965050899297,5.245732941331071e-05,-0.0015176775817286603,8.00177076272762e-05,-0.0002738879209500247,0.0005223579506137694,0.0,0.0,0.0,0.0,0.0,0.0,0.0,8.216751481582296e-05,3.4001835605534936e-05,-5.728293503515225e-05,-4.188513258340798e-05,1.2499046157438132e-05,-0.0001286032241849533,-1.1034365053452788e-05,-0.0009603946759298405,-0.00035215965050899297,-5.245732941331071e-05,0.0015176775817286603,-8.00177076272762e-05,0.0002738879209500247,-0.0005223579506137694,0.6568843722343445,46.59957504272461,5.564480304718018,-19.535249710083008,-0.7730002999305725,-2.3788485527038574,0.20724813640117645,0
3,0.009938955307006836,-0.6291133761405945,-46.52419662475586,-5.536709308624268,19.487642288208008,0.7730002999305725,2.3660311698913574,-0.15231649577617645,0.0,0.0,0.0,0.0,0.0,0.0,0.0,-0.6532666643954733,-0.228415193484397,-0.40348524541410485,0.30819643283892384,0.1898697389635867,0.10283987328589697,-0.1863371080950022,0.8780085257116776,0.7554204578817937,-0.2825000090772568,-1.6690541354564197,0.14140587533231058,2.403571860580191,1.0273430310802327,0.878092876070424,0.7554597494309409,-0.2825552651693207,-1.6690993614607135,0.1414185955172306,2.4034451173676383,1.0273381002308042,-0.00021169770461764424,-0.00041972585298565414,-0.00021158601968081095,0.0006003842802618327,6.918638995563381e-05,9.838713832049664e-05,-0.001220871116876728,0.0,0.0,0.0,0.0,0.0,0.0,0.0,8.435035874632124e-05,3.9291549147169036e-05,-5.5256092063915574e-05,-4.522600429379686e-05,1.2720184920017585e-05,-0.0001267432125526824,-4.930849428541606e-06,0.00021169770461764424,0.00041972585298565414,0.00021158601968081095,-0.0006003842802618327,-6.918638995563381e-05,-9.838713832049664e-05,0.001220871116876728,0.6291133761405945,46.52419662475586,5.536709308624268,-19.487642288208008,-0.7730002999305725,-2.3660311698913574,0.15231649577617645,0
4,0.014983654022216797,-0.6291133761405945,-46.52419662475586,-5.536709308624268,19.487642288208008,0.7730002999305725,2.3660311698913574,-0.15231649577617645,0.0,0.0,0.0,0.0,0.0,0.0,0.0,-0.6532666643954733,-0.228415193484397,-0.40348524541410485,0.30819643283892384,0.1898697389635867,0.10283987328589697,-0.1863371080950022,0.8780085257116776,0.7554204578817937,-0.2825000090772568,-1.6690541354564197,0.14140587533231058,2.403571860580191,1.0273430310802327,0.878092876070424,0.7554597494309409,-0.2825552651693207,-1.6690993614607135,0.1414185955172306,2.4034451173676383,1.0273381002308042,-0.00021169770461764424,-0.00041972585298565414,-0.00021158601968081095,0.0006003842802618327,6.918638995563381e-05,9.838713832049664e-05,-0.001220871116876728,0.0,0.0,0.0,0.0,0.0,0.0,0.0,8.435035874632124e-05,3.9291549147169036e-05,-5.5256092063915574e-05,-4.522600429379686e-05,1.2720184920017585e-05,-0.0001267432125526824,-4.930849428541606e-06,0.00021169770461764424,0.00041972585298565414,0.00021158601968081095,-0.0006003842802618327,-6.918638995563381e-05,-9.838713832049664e-05,0.001220871116876728,0.6291133761405945,46.52419662475586,5.536709308624268,-19.487642288208008,-0.7730002999305725,-2.3660311698913574,0.15231649577617645,0
5,0.019986391067504883,-0.6291133761405945,-46.59957504272461,-5.564480304718018,19.535249710083008,0.7784934639930725,2.3596224784851074,-0.15964071452617645,0.0,0.0,0.0,0.0,0.0,0.0,0.0,-0.6465168913648713,-0.2252845476275602,-0.39533628137599813,0.3049452105949266,0.18969180848475428,0.10229670341205195,-0.1845984053520794,0.8780086037114968,0.7554257475953353,-0.28249821623814614,-1.66905747632813,0.1414073065251402,2.4035735936229345,1.027343844882316,0.878092876070424,0.7554597494309409,-0.2825552651693207,-1.6690993614607135,0.1414185955172306,2.4034451173676383,1.0273381002308042,-0.0002477458834749959,0.001795839994987584,0.0003626089649524065,-0.0003262053267416843,-0.00015120775377661883,0.000500781463253677,-0.000571037446921842,0.0,0.0,0.0,0.0,0.0,0.0,0.0,8.427235892716212e-05,3.4001835605534936e-05,-5.704893117458587e-05,-4.188513258340798e-05,1.1288992090408012e-05,-0.0001284762552962171,-5.744651511818688e-06,0.0002477458834749959,-0.001795839994987584,-0.0003626089649524065,0.0003262053267416843,0.00015120775377661883,-0.000500781463253677,0.000571037446921842,0.6291133761405945,46.59957504272461,5.564480304718018,-19.535249710083008,-0.7784934639930725,-2.3596224784851074,0.15964071452617645,0
6,0.02498769760131836,-0.6291133761405945,-46.59957504272461,-5.564480304718018,19.535249710083008,0.7784934639930725,2.3596224784851074,-0.15964071452617645,0.0,0.0,0.0,0.0,0.0,0.0,0.0,-0.6465168913648713,-0.2252845476275602,-0.39533628137599813,0.3049452105949266,0.18969180848475428,0.10229670341205195,-0.1845984053520794,0.8780086037114968,0.7554257475953353,-0.28249821623814614,-1.66905747632813,0.1414073065251402,2.4035735936229345,1.027343844882316,0.878092876070424,0.7554597494309409,-0.2825552651693207,-1.6690993614607135,0.1414185955172306,2.4034451173676383,1.0273381002308042,-0.0002477458834749959,0.001795839994987584,0.0003626089649524065,-0.0003262053267416843,-0.00015120775377661883,0.000500781463253677,-0.000571037446921842,0.0,0.0,0.0,0.0,0.0,0.0,0.0,8.427235892716212e-05,3.4001835605534936e-05,-5.704893117458587e-05,-4.188513258340798e-05,1.1288992090408012e-05,-0.0001284762552962171,-5.744651511818688e-06,0.0002477458834749959,-0.001795839994987584,-0.0003626089649524065,0.0003262053267416843,0.00015120775377661883,-0.000500781463253677,0.000571037446921842,0.6291133761405945,46.59957504272461,5.564480304718018,-19.535249710083008,-0.7784934639930725,-2.3596224784851074,0.15964071452617645,0
7,0.02998828887939453,-0.6291133761405945,-46.54800033569336,-5.588284015655518,19.487642288208008,0.7730002999305725,2.3660311698913574,-0.17337362468242645,0.0,0.0,0.0,0.0,0.0,0.0,0.0,-0.6422648807602424,-0.23808908093578726,-0.3939844014385575,0.3148193280554221,0.18953438867680908,0.10385023070931942,-0.1840936630415255,0.8780087597150978,0.7554221283176489,-0.2824963118023932,-1.6690541354564197,0.1414046813633684,2.403571980366878,1.0273453707612223,0.878092876070424,0.7554597494309409,-0.2825552651693207,-1.6690993614607135,0.1414185955172306,2.4034451173676383,1.0273381002308042,-0.00016210635579372933,-0.00044147662573520996,0.0006795375789517038,0.0008136273189413584,6.847473721025888e-05,-3.1938805432971394e-06,-0.0008451750831507881,0.0,0.0,0.0,0.0,0.0,0.0,0.0,8.411635532612483e-05,3.7621113291974595e-05,-5.8953366927516626e-05,-4.522600429379686e-05,1.3914153862204515e-05,-0.0001268629992394743,-7.270530418157506e-06,0.00016210635579372933,0.00044147662573520996,-0.0006795375789517038,-0.0008136273189413584,-6.847473721025888e-05,3.1938805432971394e-06,0.0008451750831507881,0.6291133761405945,46.54800033569336,5.588284015655518,-19.487642288208008,-0.7730002999305725,-2.3660311698913574,0.17337362468242645,0
8,0.03500223159790039,-0.6291133761405945,-46.54800033569336,-5.588284015655518,19.487642288208008,0.7730002999305725,2.3660311698913574,-0.17337362468242645,0.0,0.0,0.0,0.0,0.0,0.0,0.0,-0.6422648807602424,-0.23808908093578726,-0.3939844014385575,0.3148193280554221,0.18953438867680908,0.10385023070931942,-0.1840936630415255,0.8780087597150978,0.7554221283176489,-0.2824963118023932,-1.6690541354564197,0.1414046813633684,2.403571980366878,1.0273453707612223,0.878092876070424,0.7554597494309409,-0.2825552651693207,-1.6690993614607135,0.1414185955172306,2.4034451173676383,1.0273381002308042,-0.00016210635579372933,-0.00044147662573520996,0.0006795375789517038,0.0008136273189413584,6.847473721025888e-05,-3.1938805432971394e-06,-0.0008451750831507881,0.0,0.0,0.0,0.0,0.0,0.0,0.0,8.411635532612483e-05,3.7621113291974595e-05,-5.8953366927516626e-05,-4.522600429379686e-05,1.3914153862204515e-05,-0.0001268629992394743,-7.270530418157506e-06,0.00016210635579372933,0.00044147662573520996,-0.0006795375789517038,-0.0008136273189413584,-6.847473721025888e-05,3.1938805432971394e-06,0.0008451750831507881,0.6291133761405945,46.54800033569336,5.588284015655518,-19.487642288208008,-0.7730002999305725,-2.3660311698913574,0.17337362468242645,0
9,0.03994250297546387,-0.6806880831718445,-46.50039291381836,-5.564480304718018,19.535249710083008,0.7784934639930725,2.3724398612976074,-0.17978231608867645,0.0,0.0,0.0,0.0,0.0,0.0,0.0,-0.6507771108636392,-0.23091585984491778,-0.40051767966307555,0.31535248962312495,0.18959281921900117,0.10370866759705803,-0.18459265108860423,0.8780121709897442,0.7554187874459384,-0.28249798223428557,-1.66905747632813,0.14140407047090753,2.4035709131180356,1.0273460828380452,0.878092876070424,0.7554597494309409,-0.2825552651693207,-1.6690993614607135,0.1414185955172306,2.4034451173676383,1.0273381002308042,0.0008033496382093376,-0.001627003747332966,-0.0004158718793909037,0.00012127639397814316,-0.000129912748802699,0.00013973991259196364,-0.00011619709201451279,0.0,0.0,0.0,0.0,0.0,0.0,0.0,8.070508067981041e-05,4.09619850024745e-05,-5.728293503515225e-05,-4.188513258340798e-05,1.4525046323071722e-05,-0.00012579575039728397,-7.982607240997197e-06,-0.0008033496382093376,0.001627003747332966,0.0004158718793909037,-0.00012127639397814316,0.000129912748802699,-0.00013973991259196364,0.00011619709201451279,0.6806880831718445,46.50039291381836,5.564480304718018,-19.535249710083008,-0.7784934639930725,-2.3724398612976074,0.17978231608867645,0
10,0.04498791694641113,-0.6806880831718445,-46.50039291381836,-5.564480304718018,19.535249710083008,0.7784934639930725,2.3724398612976074,-0.17978231608867645,0.0,0.0,0.0,0.0,0.0,0.0,0.0,-0.6507771108636392,-0.23091585984491778,-0.40051767966307555,0.31535248962312495,0.18959281921900117,0.10370866759705803,-0.18459265108860423,0.8780121709897442,0.7554187874459384,-0.28249798223428557,-1.66905747632813,0.14140407047090753,2.4035709131180356,1.0273460828380452,0.878092876070424,0.7554597494309409,-0.2825552651693207,-1.6690993614607135,0.1414185955172306,2.4034451173676383,1.0273381002308042,0.0008033496382093376,-0.001627003747332966,-0.0004158718793909037,0.00012127639397814316,-0.000129912748802699,0.00013973991259196364,-0.00011619709201451279,0.0,0.0,0.0,0.0,0.0,0.0,0.0,8.070508067981041e-05,4.09619850024745e-05,-5.728293503515225e-05,-4.188513258340798e-05,1.4525046323071722e-05,-0.00012579575039728397,-7.982607240997197e-06,-0.0008033496382093376,0.001627003747332966,0.0004158718793909037,-0.00012127639397814316,0.000129912748802699,-0.00013973991259196364,0.00011619709201451279,0.6806880831718445,46.50039291381836,5.564480304718018,-19.535249710083008,-0.7784934639930725,-2.3724398612976074,0.17978231608867645,0
11,0.0499880313873291,-0.6568843722343445,-46.59957504272461,-5.612087726593018,19.511445999145508,0.7784934639930725,2.3788485527038574,-0.22830526530742645,0.0,0.0,0.0,0.0,0.0,0.0,0.0,-0.65055535251872,-0.22583620573951627,-0.4027033186687058,0.31569421903033074,0.18963882990049147,0.10397953501533555,-0.18479306379893445,0.8780104745523347,0.7554257475953353,-0.28249464136257507,-1.6690558058922749,0.14140407047090447,2.403574396039053,1.0273514742768473,0.878092876070424,0.7554597494309409,-0.2825552651693207,-1.6690993614607135,0.1414185955172306,2.4034451173676383,1.0273381002308042,-5.074795632698285e-05,0.0008800771644247444,0.00037580143506237343,0.00011243617149286736,-0.0002699147276486007,-4.292267922645219e-05,0.0017488322059009262,0.0,0.0,0.0,0.0,0.0,0.0,0.0,8.24015180892479e-05,3.4001835605534936e-05,-6.0623806745652153e-05,-4.355556843860242e-05,1.4525046326124835e-05,-0.00012927867141465654,-1.3374046043068688e-05,5.074795632698285e-05,-0.0008800771644247444,-0.00037580143506237343,-0.00011243617149286736,0.0002699147276486007,4.292267922645219e-05,-0.0017488322059009262,0.6568843722343445,46.59957504272461,5.612087726593018,-19.511445999145508,-0.7784934639930725,-2.3788485527038574,0.22830526530742645,0
12,0.05498242378234863,-0.6568843722343445,-46.59957504272461,-5.612087726593018,19.511445999145508,0.7784934639930725,2.3788485527038574,-0.22830526530742645,0.0,0.0,0.0,0.0,0.0,0.0,0.0,-0.65055535251872,-0.22583620573951627,-0.4027033186687058,0.31569421903033074,0.18963882990049147,0.10397953501533555,-0.18479306379893445,0.8780104745523347,0.7554257475953353,-0.28249464136257507,-1.6690558058922749,0.14140407047090447,2.403574396039053,1.0273514742768473,0.878092876070424,0.7554597494309409,-0.2825552651693207,-1.6690993614607135,0.1414185955172306,2.4034451173676383,1.0273381002308042,-5.074795632698285e-05,0.0008800771644247444,0.00037580143506237343,0.00011243617149286736,-0.0002699147276486007,-4.292267922645219e-05,0.0017488322059009262,0.0,0.0,0.0,0.0,0.0,0.0,0.0,8.24015180892479e-05,3.4001835605534936e-05,-6.0623806745652153e-05,-4.355556843860242e-05,1.4525046326124835e-05,-0.00012927867141465654,-1.3374046043068688e-05,5.074795632698285e-05,-0.0008800771644247444,-0.00037580143506237343,-0.00011243617149286736,0.0002699147276486007,4.292267922645219e-05,-0.0017488322059009262,0.6568843722343445,46.59957504272461,5.612087726593018,-19.511445999145508,-0.7784934639930725,-2.3788485527038574,0.22830526530742645,0
13,0.059983253479003906,-0.6568843722343445,-46.59957504272461,-5.612087726593018,19.511445999145508,0.7784934639930725,2.3788485527038574,-0.22830526530742645,0.0,0.0,0.0,0.0,0.0,0.0,0.0,-0.65055535251872,-0.22583620573951627,-0.4027033186687058,0.31569421903033074,0.18963882990049147,0.10397953501533555,-0.18479306379893445,0.8780104745523347,0.7554257475953353,-0.28249464136257507,-1.6690558058922749,0.14140407047090447,2.403574396039053,1.0273514742768473,0.878092876070424,0.7554597494309409,-0.2825552651693207,-1.6690993614607135,0.1414185955172306,2.4034451173676383,1.0273381002308042,-5.074795632698285e-05,0.0008800771644247444,0.00037580143506237343,0.00011243617149286736,-0.0002699147276486007,-4.292267922645219e-05,0.0017488322059009262,0.0,0.0,0.0,0.0,0.0,0.0,0.0,8.24015180892479e-05,3.4001835605534936e-05,-6.0623806745652153e-05,-4.355556843860242e-05,1.4525046326124835e-05,-0.00012927867141465654,-1.3374046043068688e-05,5.074795632698285e-05,-0.0008800771644247444,-0.00037580143506237343,-0.00011243617149286736,0.0002699147276486007,4.292267922645219e-05,-0.0017488322059009262,0.6568843722343445,46.59957504272461,5.612087726593018,-19.511445999145508,-0.7784934639930725,-2.3788485527038574,0.22830526530742645,0
14,0.06499695777893066,-0.6568843722343445,-46.59957504272461,-5.612087726593018,19.511445999145508,0.7784934639930725,2.3788485527038574,-0.22830526530742645,0.0,0.0,0.0,0.0,0.0,0.0,0.0,-0.65055535251872,-0.22583620573951627,-0.4027033186687058,0.31569421903033074,0.18963882990049147,0.10397953501533555,-0.18479306379893445,0.8780104745523347,0.7554257475953353,-0.28249464136257507,-1.6690558058922749,0.14140407047090447,2.403574396039053,1.0273514742768473,0.878092876070424,0.7554597494309409,-0.2825552651693207,-1.6690993614607135,0.1414185955172306,2.4034451173676383,1.0273381002308042,-5.074795632698285e-05,0.0008800771644247444,0.00037580143506237343,0.00011243617149286736,-0.0002699147276486007,-4.292267922645219e-05,0.0017488322059009262,0.0,0.0,0.0,0.0,0.0,0.0,0.0,8.24015180892479e-05,3.4001835605534936e-05,-6.0623806745652153e-05,-4.355556843860242e-05,1.4525046326124835e-05,-0.00012927867141465654,-1.3374046043068688e-05,5.074795632698285e-05,-0.0008800771644247444,-0.00037580143506237343,-0.00011243617149286736,0.0002699147276486007,4.292267922645219e-05,-0.0017488322059009262,0.6568843722343445,46.59957504272461,5.612087726593018,-19.511445999145508,-0.7784934639930725,-2.3788485527038574,0.22830526530742645,0
15,0.0699915885925293,-0.6291133761405945,-46.52419662475586,-5.588284015655518,19.535249710083008,0.7784934639930725,2.3788485527038574,-0.22098104655742645,0.0,0.0,0.0,0.0,0.0,0.0,0.0,-0.6582201883337959,-0.22247306799462002,-0.40293099527888143,0.3118296134497194,0.1897943322745241,0.1044265881812592,-0.18717375266055927,0.8780092277219386,0.7554204578817937,-0.2824963117984303,-1.66905747632813,0.14140737209730528,2.4035711270096454,1.027350660474764,0.878092876070424,0.7554597494309409,-0.2825552651693207,-1.6690993614607135,0.1414185955172306,2.4034451173676383,1.0273381002308042,-0.0013241027951041329,-0.0009116784616921141,0.0002689456662795066,-5.00070485358518e-05,-0.0001855176835444036,-0.0002373575933344871,0.0010456096520819016,0.0,0.0,0.0,0.0,0.0,0.0,0.0,8.364834848539893e-05,3.9291549147169036e-05,-5.89533708904022e-05,-4.188513258340798e-05,1.1223419925321387e-05,-0.00012600964200704112,-1.2560243959791606e-05,0.0013241027951041329,0.0009116784616921141,-0.0002689456662795066,5.00070485358518e-05,0.0001855176835444036,0.0002373575933344871,-0.0010456096520819016,0.6291133761405945,46.52419662475586,5.588284015655518,-19.535249710083008,-0.7784934639930725,-2.3788485527038574,0.22098104655742645,0
16,0.0755605697631836,-0.6291133761405945,-46.52419662475586,-5.588284015655518,19.535249710083008,0.7784934639930725,2.3788485527038574,-0.22098104655742645,0.0,0.0,0.0,0.0,0.0,0.0,0.0,-0.6582201883337959,-0.22247306799462002,-0.40293099527888143,0.3118296134497194,0.1897943322745241,0.1044265881812592,-0.18717375266055927,0.8780092277219386,0.7554204578817937,-0.2824963117984303,-1.66905747632813,0.14140737209730528,2.4035711270096454,1.027350660474764,0.878092876070424,0.7554597494309409,-0.2825552651693207,-1.6690993614607135,0.1414185955172306,2.4034451173676383,1.0273381002308042,-0.0013241027951041329,-0.0009116784616921141,0.0002689456662795066,-5.00070485358518e-05,-0.0001855176835444036,-0.0002373575933344871,0.0010456096520819016,0.0,0.0,0.0,0.0,0.0,0.0,0.0,8.364834848539893e-05,3.9291549147169036e-05,-5.89533708904022e-05,-4.188513258340798e-05,1.1223419925321387e-05,-0.00012600964200704112,-1.2560243959791606e-05,0.0013241027951041329,0.0009116784616921141,-0.0002689456662795066,5.00070485358518e-05,0.0001855176835444036,0.0002373575933344871,-0.0010456096520819016,0.6291133761405945,46.52419662475586,5.588284015655518,-19.535249710083008,-0.7784934639930725,-2.3788485527038574,0.22098104655742645,0
17,0.08009958267211914,-0.6291133761405945,-46.52419662475586,-5.588284015655518,19.535249710083008,0.7784934639930725,2.3788485527038574,-0.22098104655742645,0.0,0.0,0.0,0.0,0.0,0.0,0.0,-0.6582201883337959,-0.22247306799462002,-0.40293099527888143,0.3118296134497194,0.1897943322745241,0.1044265881812592,-0.18717375266055927,0.8780092277219386,0.7554204578817937,-0.2824963117984303,-1.66905747632813,0.14140737209730528,2.4035711270096454,1.027350660474764,0.878092876070424,0.7554597494309409,-0.2825552651693207,-1.6690993614607135,0.1414185955172306,2.4034451173676383,1.0273381002308042,-0.0013241027951041329,-0.0009116784616921141,0.0002689456662795066,-5.00070485358518e-05,-0.0001855176835444036,-0.0002373575933344871,0.0010456096520819016,0.0,0.0,0.0,0.0,0.0,0.0,0.0,8.364834848539893e-05,3.9291549147169036e-05,-5.89533708904022e-05,-4.188513258340798e-05,1.1223419925321387e-05,-0.00012600964200704112,-1.2560243959791606e-05,0.0013241027951041329,0.0009116784616921141,-0.0002689456662795066,5.00070485358518e-05,0.0001855176835444036,0.0002373575933344871,-0.0010456096520819016,0.6291133761405945,46.52419662475586,5.588284015655518,-19.535249710083008,-0.7784934639930725,-2.3788485527038574,0.22098104655742645,0
18,0.08499026298522949,-0.6291133761405945,-46.52419662475586,-5.588284015655518,19.535249710083008,0.7784934639930725,2.3788485527038574,-0.22098104655742645,0.0,0.0,0.0,0.0,0.0,0.0,0.0,-0.6582201883337959,-0.22247306799462002,-0.40293099527888143,0.3118296134497194,0.1897943322745241,0.1044265881812592,-0.18717375266055927,0.8780092277219386,0.7554204578817937,-0.2824963117984303,-1.66905747632813,0.14140737209730528,2.4035711270096454,1.027350660474764,0.878092876070424,0.7554597494309409,-0.2825552651693207,-1.6690993614607135,0.1414185955172306,2.4034451173676383,1.0273381002308042,-0.0013241027951041329,-0.0009116784616921141,0.0002689456662795066,-5.00070485358518e-05,-0.0001855176835444036,-0.0002373575933344871,0.0010456096520819016,0.0,0.0,0.0,0.0,0.0,0.0,0.0,8.364834848539893e-05,3.9291549147169036e-05,-5.89533708904022e-05,-4.188513258340798e-05,1.1223419925321387e-05,-0.00012600964200704112,-1.2560243959791606e-05,0.0013241027951041329,0.0009116784616921141,-0.0002689456662795066,5.00070485358518e-05,0.0001855176835444036,0.0002373575933344871,-0.0010456096520819016,0.6291133761405945,46.52419662475586,5.588284015655518,-19.535249710083008,-0.7784934639930725,-2.3788485527038574,0.22098104655742645,0
19,0.08998465538024902,-0.6568843722343445,-46.52419662475586,-5.588284015655518,19.535249710083008,0.7730002999305725,2.3788485527038574,-0.17978231608867645,0.0,0.0,0.0,0.0,0.0,0.0,0.0,-0.6510598827270576,-0.23157669110553777,-0.3954642522863985,0.3185886863627652,0.1899821588267282,0.10513457508553943,-0.1896670834213454,0.8780107096295455,0.7554204578817937,-0.2824963117984303,-1.66905747632813,0.141404675332755,2.4035736910185754,1.0273460828380452,0.878092876070424,0.7554597494309409,-0.2825552651693207,-1.6690993614607135,0.1414185955172306,2.4034451173676383,1.0273381002308042,-0.0004022556196326938,-0.0005831559936120888,0.0005569933287547371,-0.00015598834734957805,1.5682756013662467e-06,-0.00030341724502992257,7.892090340675874e-05,0.0,0.0,0.0,0.0,0.0,0.0,0.0,8.21664408784395e-05,3.9291549147169036e-05,-5.89533708904022e-05,-4.188513258340798e-05,1.392018447560206e-05,-0.0001285736509371027,-7.982607240997197e-06,0.0004022556196326938,0.0005831559936120888,-0.0005569933287547371,0.00015598834734957805,-1.5682756013662467e-06,0.00030341724502992257,-7.892090340675874e-05,0.6568843722343445,46.52419662475586,5.588284015655518,-19.535249710083008,-0.7730002999305725,-2.3788485527038574,0.17978231608867645,0
20,0.09498739242553711,-0.6568843722343445,-46.52419662475586,-5.588284015655518,19.535249710083008,0.7730002999305725,2.3788485527038574,-0.17978231608867645,0.0,0.0,0.0,0.0,0.0,0.0,0.0,-0.6510598827270576,-0.23157669110553777,-0.3954642522863985,0.3185886863627652,0.1899821588267282,0.10513457508553943,-0.1896670834213454,0.8780107096295455,0.7554204578817937,-0.2824963117984303,-1.66905747632813,0.141404675332755,2.4035736910185754,1.0273460828380452,0.878092876070424,0.7554597494309409,-0.2825552651693207,-1.6690993614607135,0.1414185955172306,2.4034451173676383,1.0273381002308042,-0.0004022556196326938,-0.0005831559936120888,0.0005569933287547371,-0.00015598834734957805,1.5682756013662467e-06,-0.00030341724502992257,7.892090340675874e-05,0.0,0.0,0.0,0.0,0.0,0.0,0.0,8.21664408784395e-05,3.9291549147169036e-05,-5.89533708904022e-05,-4.188513258340798e-05,1.392018447560206e-05,-0.0001285736509371027,-7.982607240997197e-06,0.0004022556196326938,0.0005831559936120888,-0.0005569933287547371,0.00015598834734957805,-1.5682756013662467e-06,0.00030341724502992257,-7.892090340675874e-05,0.6568843722343445,46.52419662475586,5.588284015655518,-19.535249710083008,-0.7730002999305725,-2.3788485527038574,0.17978231608867645,0
21,0.09998679161071777,-0.6568843722343445,-46.57577133178711,-5.564480304718018,19.559053421020508,0.7849021553993225,2.3660311698913574,-0.22098104655742645,0.0,0.0,0.0,0.0,0.0,0.0,0.0,-0.6506979937371641,-0.23053415683079118,-0.39431072239143794,0.3173136197441011,0.18968786836171456,0.10480385542395675,-0.18858829469732682,0.878010474553515,0.75542407715948,-0.28249798223428557,-1.6690591467639855,0.14140654141017572,2.4035718476595775,1.027350660474764,0.878092876070424,0.7554597494309409,-0.2825552651693207,-1.6690993614607135,0.1414185955172306,2.4034451173676383,1.0273381002308042,0.00010909949484344472,0.0006648431717999862,0.00020628060882716578,-0.001012757157491897,-0.000403001608633153,0.00025959727147152487,0.0013796756615931378,0.0,0.0,0.0,0.0,0.0,0.0,0.0,8.24015169089698e-05,3.56722714608404e-05,-5.728293503515225e-05,-4.0214696727991495e-05,1.2054107054876306e-05,-0.00012673029193921437,-1.2560243959791606e-05,-0.00010909949484344472,-0.0006648431717999862,-0.00020628060882716578,0.001012757157491897,0.000403001608633153,-0.00025959727147152487,-0.0013796756615931378,0.6568843722343445,46.57577133178711,5.564480304718018,-19.559053421020508,-0.7849021553993225,-2.3660311698913574,0.22098104655742645,0
22,0.10508179664611816,-0.6568843722343445,-46.57577133178711,-5.564480304718018,19.559053421020508,0.7849021553993225,2.3660311698913574,-0.22098104655742645,0.0,0.0,0.0,0.0,0.0,0.0,0.0,-0.6506979937371641,-0.23053415683079118,-0.39431072239143794,0.3173136197441011,0.18968786836171456,0.10480385542395675,-0.18858829469732682,0.878010474553515,0.75542407715948,-0.28249798223428557,-1.6690591467639855,0.14140654141017572,2.4035718476595775,1.027350660474764,0.878092876070424,0.7554597494309409,-0.2825552651693207,-1.6690993614607135,0.1414185955172306,2.4034451173676383,1.0273381002308042,0.00010909949484344472,0.0006648431717999862,0.00020628060882716578,-0.001012757157491897,-0.000403001608633153,0.00025959727147152487,0.0013796756615931378,0.0,0.0,0.0,0.0,0.0,0.0,0.0,8.24015169089698e-05,3.56722714608404e-05,-5.728293503515225e-05,-4.0214696727991495e-05,1.2054107054876306e-05,-0.00012673029193921437,-1.2560243959791606e-05,-0.00010909949484344472,-0.0006648431717999862,-0.00020628060882716578,0.001012757157491897,0.000403001608633153,-0.00025959727147152487,-0.0013796756615931378,0.6568843722343445,46.57577133178711,5.564480304718018,-19.559053421020508,-0.7849021553993225,-2.3660311698913574,0.22098104655742645,0
23,0.10998106002807617,-0.6291133761405945,-46.54800033569336,-5.612087726593018,19.487642288208008,0.7665916085243225,2.3660311698913574,-0.20724813640117645,0.0,0.0,0.0,0.0,0.0,0.0,0.0,-0.6496431708920318,-0.24274181763830277,-0.39825762860240127,0.3268991684470799,0.19034844096440634,0.105797911354334,-0.188477117417064,0.8780087598207744,0.7554221283176489,-0.28249464136257507,-1.6690541354564197,0.14140543260977867,2.4035761998397445,1.0273491345958576,0.878092876070424,0.7554597494309409,-0.2825552651693207,-1.6690993614607135,0.1414185955172306,2.4034451173676383,1.0273381002308042,0.00014691024730793196,-0.00019408644122182665,0.0010963573077691297,0.0015077396449236062,0.0004209168584715221,0.00025101234064990716,0.0012267662828355185,0.0,0.0,0.0,0.0,0.0,0.0,0.0,8.411624964954623e-05,3.7621113291974595e-05,-6.0623806745652153e-05,-4.522600429379686e-05,1.3162907451930161e-05,-0.00013108247210613655,-1.1034365053452788e-05,-0.00014691024730793196,0.00019408644122182665,-0.0010963573077691297,-0.0015077396449236062,-0.0004209168584715221,-0.00025101234064990716,-0.0012267662828355185,0.6291133761405945,46.54800033569336,5.612087726593018,-19.487642288208008,-0.7665916085243225,-2.3660311698913574,0.20724813640117645,0
24,0.11498832702636719,-0.6291133761405945,-46.54800033569336,-5.612087726593018,19.487642288208008,0.7665916085243225,2.3660311698913574,-0.20724813640117645,0.0,0.0,0.0,0.0,0.0,0.0,0.0,-0.6496431708920318,-0.24274181763830277,-0.39825762860240127,0.3268991684470799,0.19034844096440634,0.105797911354334,-0.188477117417064,0.8780087598207744,0.7554221283176489,-0.28249464136257507,-1.6690541354564197,0.14140543260977867,2.4035761998397445,1.0273491345958576,0.878092876070424,0.7554597494309409,-0.2825552651693207,-1.6690993614607135,0.1414185955172306,2.4034451173676383,1.0273381002308042,0.00014691024730793196,-0.00019408644122182665,0.0010963573077691297,0.0015077396449236062,0.0004209168584715221,0.00025101234064990716,0.0012267662828355185,0.0,0.0,0.0,0.0,0.0,0.0,0.0,8.411624964954623e-05,3.7621113291974595e-05,-6.0623806745652153e-05,-4.522600429379686e-05,1.3162907451930161e-05,-0.00013108247210613655,-1.1034365053452788e-05,-0.00014691024730793196,0.00019408644122182665,-0.0010963573077691297,-0.0015077396449236062,-0.0004209168584715221,-0.00025101234064990716,-0.0012267662828355185,0.6291133761405945,46.54800033569336,5.612087726593018,-19.487642288208008,-0.7665916085243225,-2.3660311698913574,0.20724813640117645,0
25,0.11999034881591797,-0.6291133761405945,-46.57577133178711,-5.564480304718018,19.511445999145508,0.7784934639930725,2.3724398612976074,-0.20724813640117645,0.0,0.0,0.0,0.0,0.0,0.0,0.0,-0.6375486057746979,-0.22963501730934363,-0.3941967325872035,0.321565534890457,0.19039281857298992,0.1044916581218976,-0.18673215820319133,0.8780085257116783,0.75542407715948,-0.28249798223428557,-1.6690558058922749,0.14140730727466932,2.4035719166298763,1.0273491345958576,0.878092876070424,0.7554597494309409,-0.2825552651693207,-1.6690993614607135,0.1414185955172306,2.4034451173676383,1.0273381002308042,0.00043001241683037134,0.0003362117806645693,0.0003771737739480822,0.0002728050411524905,-0.00018938148918398463,-2.8053708725692456e-05,0.0001211771751362524,0.0,0.0,0.0,0.0,0.0,0.0,0.0,8.435035874565511e-05,3.56722714608404e-05,-5.728293503515225e-05,-4.355556843860242e-05,1.1288242561274808e-05,-0.00012679926223801985,-1.1034365053452788e-05,-0.00043001241683037134,-0.0003362117806645693,-0.0003771737739480822,-0.0002728050411524905,0.00018938148918398463,2.8053708725692456e-05,-0.0001211771751362524,0.6291133761405945,46.57577133178711,5.564480304718018,-19.511445999145508,-0.7784934639930725,-2.3724398612976074,0.20724813640117645,0
26,0.1250145435333252,-0.6291133761405945,-46.57577133178711,-5.564480304718018,19.511445999145508,0.7784934639930725,2.3724398612976074,-0.20724813640117645,0.0,0.0,0.0,0.0,0.0,0.0,0.0,-0.6375486057746979,-0.22963501730934363,-0.3941967325872035,0.321565534890457,0.19039281857298992,0.1044916581218976,-0.18673215820319133,0.8780085257116783,0.75542407715948,-0.28249798223428557,-1.6690558058922749,0.14140730727466932,2.4035719166298763,1.0273491345958576,0.878092876070424,0.7554597494309409,-0.2825552651693207,-1.6690993614607135,0.1414185955172306,2.4034451173676383,1.0273381002308042,0.00043001241683037134,0.0003362117806645693,0.0003771737739480822,0.0002728050411524905,-0.00018938148918398463,-2.8053708725692456e-05,0.0001211771751362524,0.0,0.0,0.0,0.0,0.0,0.0,0.0,8.435035874565511e-05,3.56722714608404e-05,-5.728293503515225e-05,-4.355556843860242e-05,1.1288242561274808e-05,-0.00012679926223801985,-1.1034365053452788e-05,-0.00043001241683037134,-0.0003362117806645693,-0.0003771737739480822,-0.0002728050411524905,0.00018938148918398463,2.8053708725692456e-05,-0.0001211771751362524,0.6291133761405945,46.57577133178711,5.564480304718018,-19.511445999145508,-0.7784934639930725,-2.3724398612976074,0.20724813640117645,0
27,0.129990816116333,-0.5815059542655945,-46.57577133178711,-5.588284015655518,19.559053421020508,0.7784934639930725,2.3788485527038574,-0.20083944499492645,0.0,0.0,0.0,0.0,0.0,0.0,0.0,-0.6359038492636786,-0.2337332958423317,-0.39653382651285113,0.32259566802333484,0.1905378445528468,0.104422924586864,-0.18865103457878518,0.8780051848386462,0.75542407715948,-0.2824963117984303,-1.6690591467639855,0.14140423951991,2.4035743042557116,1.0273484269887019,0.878092876070424,0.7554597494309409,-0.2825552651693207,-1.6690993614607135,0.1414185955172306,2.4034451173676383,1.0273381002308042,-0.000911297610371168,0.00022579355169849362,0.0007811098386912437,-0.0008562180953960699,-0.00013252746333644545,-0.0003489949280332354,0.0009389613695681405,0.0,0.0,0.0,0.0,0.0,0.0,0.0,8.76912317777645e-05,3.56722714608404e-05,-5.89533708904022e-05,-4.0214696727991495e-05,1.435599732060866e-05,-0.00012918688807328493,-1.0326757897693994e-05,0.000911297610371168,-0.00022579355169849362,-0.0007811098386912437,0.0008562180953960699,0.00013252746333644545,0.0003489949280332354,-0.0009389613695681405,0.5815059542655945,46.57577133178711,5.588284015655518,-19.559053421020508,-0.7784934639930725,-2.3788485527038574,0.20083944499492645,0
28,0.1350109577178955,-0.5815059542655945,-46.57577133178711,-5.588284015655518,19.559053421020508,0.7784934639930725,2.3788485527038574,-0.20083944499492645,0.0,0.0,0.0,0.0,0.0,0.0,0.0,-0.6359038492636786,-0.2337332958423317,-0.39653382651285113,0.32259566802333484,0.1905378445528468,0.104422924586864,-0.18865103457878518,0.8780051848386462,0.75542407715948,-0.2824963117984303,-1.6690591467639855,0.14140423951991,2.4035743042557116,1.0273484269887019,0.878092876070424,0.7554597494309409,-0.2825552651693207,-1.6690993614607135,0.1414185955172306,2.4034451173676383,1.0273381002308042,-0.000911297610371168,0.00022579355169849362,0.0007811098386912437,-0.0008562180953960699,-0.00013252746333644545,-0.0003489949280332354,0.0009389613695681405,0.0,0.0,0.0,0.0,0.0,0.0,0.0,8.76912317777645e-05,3.56722714608404e-05,-5.89533708904022e-05,-4.0214696727991495e-05,1.435599732060866e-05,-0.00012918688807328493,-1.0326757897693994e-05,0.000911297610371168,-0.00022579355169849362,-0.0007811098386912437,0.0008562180953960699,0.00013252746333644545,0.0003489949280332354,-0.0009389613695681405,0.5815059542655945,46.57577133178711,5.588284015655518,-19.559053421020508,-0.7784934639930725,-2.3788485527038574,0.20083944499492645,0
29,0.1399366855621338,-0.7084590792655945,-46.59957504272461,-5.588284015655518,19.559053421020508,0.7610984444618225,2.3788485527038574,-0.22098104655742645,0.0,0.0,0.0,0.0,0.0,0.0,0.0,-0.6486798185313206,-0.23254050408648047,-0.4064913200188531,0.31836714929332594,0.1907415547108934,0.10418536410364204,-0.1877871524497978,0.8780140938298743,0.7554257475953353,-0.28249633779881034,-1.6690591467639855,0.14140922741854492,2.403570189487804,1.0273506604747893,0.878092876070424,0.7554597494309409,-0.2825552651693207,-1.6690993614607135,0.1414185955172306,2.4034451173676383,1.0273381002308042,0.0015573637818428014,0.0007157409608740867,0.00016172804261922435,-0.0012216382629581801,0.0006161909553379014,-0.00025235136552292253,0.0011902526696033198,0.0,0.0,0.0,0.0,0.0,0.0,0.0,7.878224054969074e-05,3.4001835605534936e-05,-5.8927370510386545e-05,-4.0214696727991495e-05,9.368098685680337e-06,-0.00012507212016554803,-1.2560243985104691e-05,-0.0015573637818428014,-0.0007157409608740867,-0.00016172804261922435,0.0012216382629581801,-0.0006161909553379014,0.00025235136552292253,-0.0011902526696033198,0.7084590792655945,46.59957504272461,5.588284015655518,-19.559053421020508,-0.7610984444618225,-2.3788485527038574,0.22098104655742645,0
30,0.14494776725769043,-0.7084590792655945,-46.59957504272461,-5.588284015655518,19.559053421020508,0.7610984444618225,2.3788485527038574,-0.22098104655742645,0.0,0.0,0.0,0.0,0.0,0.0,0.0,-0.6486798185313206,-0.23254050408648047,-0.4064913200188531,0.31836714929332594,0.1907415547108934,0.10418536410364204,-0.1877871524497978,0.8780140938298743,0.7554257475953353,-0.28249633779881034,-1.6690591467639855,0.14140922741854492,2.403570189487804,1.0273506604747893,0.878092876070424,0.7554597494309409,-0.2825552651693207,-1.6690993614607135,0.1414185955172306,2.4034451173676383,1.0273381002308042,0.0015573637818428014,0.0007157409608740867,0.00016172804261922435,-0.0012216382629581801,0.0006161909553379014,-0.00025235136552292253,0.0011902526696033198,0.0,0.0,0.0,0.0,0.0,0.0,0.0,7.878224054969074e-05,3.4001835605534936e-05,-5.8927370510386545e-05,-4.0214696727991495e-05,9.368098685680337e-06,-0.00012507212016554803,-1.2560243985104691e-05,-0.0015573637818428014,-0.0007157409608740867,-0.00016172804261922435,0.0012216382629581801,-0.0006161909553379014,0.00025235136552292253,-0.0011902526696033198,0.7084590792655945,46.59957504272461,5.588284015655518,-19.559053421020508,-0.7610984444618225,-2.3788485527038574,0.22098104655742645,0
31,0.14999079704284668,-0.7084590792655945,-46.57577133178711,-5.564480304718018,19.511445999145508,0.7665916085243225,2.3724398612976074,-0.20724813640117645,0.0,0.0,0.0,0.0,0.0,0.0,0.0,-0.6471722812283977,-0.22958513311896403,-0.4038269321627447,0.3168383330381439,0.19049262322521682,0.10452196542031227,-0.18758624922974898,0.8780140938298743,0.75542407715948,-0.2824979825554247,-1.6690558058922749,0.14140964071923065,2.403575461597696,1.0273491345958576,0.878092876070424,0.7554597494309409,-0.2825552651693207,-1.6690993614607135,0.1414185955172306,2.4034451173676383,1.0273381002308042,0.000548509487670917,0.0003855019292100303,-0.0002850370726060992,0.0005060260520902566,0.0002644744004080459,-0.00013240385833915072,0.0010585589569938368,0.0,0.0,0.0,0.0,0.0,0.0,0.0,7.878224054969074e-05,3.56722714608404e-05,-5.728261389603695e-05,-4.355556843860242e-05,8.95479799994936e-06,-0.00013034423005775508,-1.1034365053452788e-05,-0.000548509487670917,-0.0003855019292100303,0.0002850370726060992,-0.0005060260520902566,-0.0002644744004080459,0.00013240385833915072,-0.0010585589569938368,0.7084590792655945,46.57577133178711,5.564480304718018,-19.511445999145508,-0.7665916085243225,-2.3724398612976074,0.20724813640117645,0
32,0.154984712600708,-0.7084590792655945,-46.57577133178711,-5.564480304718018,19.511445999145508,0.7665916085243225,2.3724398612976074,-0.20724813640117645,0.0,0.0,0.0,0.0,0.0,0.0,0.0,-0.6471722812283977,-0.22958513311896403,-0.4038269321627447,0.3168383330381439,0.19049262322521682,0.10452196542031227,-0.18758624922974898,0.8780140938298743,0.75542407715948,-0.2824979825554247,-1.6690558058922749,0.14140964071923065,2.403575461597696,1.0273491345958576,0.878092876070424,0.7554597494309409,-0.2825552651693207,-1.6690993614607135,0.1414185955172306,2.4034451173676383,1.0273381002308042,0.000548509487670917,0.0003855019292100303,-0.0002850370726060992,0.0005060260520902566,0.0002644744004080459,-0.00013240385833915072,0.0010585589569938368,0.0,0.0,0.0,0.0,0.0,0.0,0.0,7.878224054969074e-05,3.56722714608404e-05,-5.728261389603695e-05,-4.355556843860242e-05,8.95479799994936e-06,-0.00013034423005775508,-1.1034365053452788e-05,-0.000548509487670917,-0.0003855019292100303,0.0002850370726060992,-0.0005060260520902566,-0.0002644744004080459,0.00013240385833915072,-0.0010585589569938368,0.7084590792655945,46.57577133178711,5.564480304718018,-19.511445999145508,-0.7665916085243225,-2.3724398612976074,0.20724813640117645,0
33,0.16000127792358398,-0.6806880831718445,-46.59957504272461,-5.564480304718018,19.535249710083008,0.7730002999305725,2.3788485527038574,-0.18710653483867645,0.0,0.0,0.0,0.0,0.0,0.0,0.0,-0.6406241530108759,-0.2346269448528385,-0.39221445043501707,0.31980036950533264,0.18941794365909678,0.10464076943640828,-0.18629986003778776,0.8780121449880431,0.7554257475953353,-0.2824979823769507,-1.66905747632813,0.14140507291134263,2.4035705120169664,1.0273469100491295,0.878092876070424,0.7554597494309409,-0.2825552651693207,-1.6690993614607135,0.1414185955172306,2.4034451173676383,1.0273381002308042,9.063619679079605e-05,0.0005481238021881233,-0.00033368229202612845,-0.0002510420309136105,2.2246466912332762e-05,-0.00037137075619667466,5.75388298287488e-05,0.0,0.0,0.0,0.0,0.0,0.0,0.0,8.073108238082494e-05,3.4001835605534936e-05,-5.7282792370050295e-05,-4.188513258340798e-05,1.3522605887966721e-05,-0.00012539464932803668,-8.809818325294927e-06,-9.063619679079605e-05,-0.0005481238021881233,0.00033368229202612845,0.0002510420309136105,-2.2246466912332762e-05,0.00037137075619667466,-5.75388298287488e-05,0.6806880831718445,46.59957504272461,5.564480304718018,-19.535249710083008,-0.7730002999305725,-2.3788485527038574,0.18710653483867645,0
34,0.16498303413391113,-0.6806880831718445,-46.59957504272461,-5.564480304718018,19.535249710083008,0.7730002999305725,2.3788485527038574,-0.18710653483867645,0.0,0.0,0.0,0.0,0.0,0.0,0.0,-0.6406241530108759,-0.2346269448528385,-0.39221445043501707,0.31980036950533264,0.18941794365909678,0.10464076943640828,-0.18629986003778776,0.8780121449880431,0.7554257475953353,-0.2824979823769507,-1.66905747632813,0.14140507291134263,2.4035705120169664,1.0273469100491295,0.878092876070424,0.7554597494309409,-0.2825552651693207,-1.6690993614607135,0.1414185955172306,2.4034451173676383,1.0273381002308042,9.063619679079605e-05,0.0005481238021881233,-0.00033368229202612845,-0.0002510420309136105,2.2246466912332762e-05,-0.00037137075619667466,5.75388298287488e-05,0.0,0.0,0.0,0.0,0.0,0.0,0.0,8.073108238082494e-05,3.4001835605534936e-05,-5.7282792370050295e-05,-4.188513258340798e-05,1.3522605887966721e-05,-0.00012539464932803668,-8.809818325294927e-06,-9.063619679079605e-05,-0.0005481238021881233,0.00033368229202612845,0.0002510420309136105,-2.2246466912332762e-05,0.00037137075619667466,-5.75388298287488e-05,0.6806880831718445,46.59957504272461,5.564480304718018,-19.535249710083008,-0.7730002999305725,-2.3788485527038574,0.18710653483867645,0
35,0.16994166374206543,-0.6568843722343445,-46.54800033569336,-5.612087726593018,19.511445999145508,0.7784934639930725,2.3724398612976074,-0.15231649577617645,0.0,0.0,0.0,0.0,0.0,0.0,0.0,-0.6566525708407823,-0.24219441163344282,-0.40009993174979785,0.3216950778191398,0.18948264182595534,0.10456596654051685,-0.18568718002342224,0.878011185229242,0.7554221283176489,-0.2824946413625759,-1.6690558058922749,0.141408434382231,2.4035740749664174,1.0273430713073115,0.878092876070424,0.7554597494309409,-0.2825552651693207,-1.6690993614607135,0.1414185955172306,2.4034451173676383,1.0273381002308042,-0.0002739713097014016,-0.0008799238031906242,0.0006094756219400388,0.0002571865607690638,-0.00020724116135471178,-4.8264862936296995e-05,-0.0014199269889405076,0.0,0.0,0.0,0.0,0.0,0.0,0.0,8.169084118192504e-05,3.7621113291974595e-05,-6.0623806744819486e-05,-4.355556843860242e-05,1.016113499960336e-05,-0.00012895759877906698,-4.97107650732076e-06,0.0002739713097014016,0.0008799238031906242,-0.0006094756219400388,-0.0002571865607690638,0.00020724116135471178,4.8264862936296995e-05,0.0014199269889405076,0.6568843722343445,46.54800033569336,5.612087726593018,-19.511445999145508,-0.7784934639930725,-2.3724398612976074,0.15231649577617645,0
36,0.17498302459716797,-0.6568843722343445,-46.54800033569336,-5.612087726593018,19.511445999145508,0.7784934639930725,2.3724398612976074,-0.15231649577617645,0.0,0.0,0.0,0.0,0.0,0.0,0.0,-0.6566525708407823,-0.24219441163344282,-0.40009993174979785,0.3216950778191398,0.18948264182595534,0.10456596654051685,-0.18568718002342224,0.878011185229242,0.7554221283176489,-0.2824946413625759,-1.6690558058922749,0.141408434382231,2.4035740749664174,1.0273430713073115,0.878092876070424,0.7554597494309409,-0.2825552651693207,-1.6690993614607135,0.1414185955172306,2.4034451173676383,1.0273381002308042,-0.0002739713097014016,-0.0008799238031906242,0.0006094756219400388,0.0002571865607690638,-0.00020724116135471178,-4.8264862936296995e-05,-0.0014199269889405076,0.0,0.0,0.0,0.0,0.0,0.0,0.0,8.169084118192504e-05,3.7621113291974595e-05,-6.0623806744819486e-05,-4.355556843860242e-05,1.016113499960336e-05,-0.00012895759877906698,-4.97107650732076e-06,0.0002739713097014016,0.0008799238031906242,-0.0006094756219400388,-0.0002571865607690638,0.00020724116135471178,4.8264862936296995e-05,0.0014199269889405076,0.6568843722343445,46.54800033569336,5.612087726593018,-19.511445999145508,-0.7784934639930725,-2.3724398612976074,0.15231649577617645,0
37,0.17998051643371582,-0.6806880831718445,-46.59957504272461,-5.588284015655518,19.511445999145508,0.7849021553993225,2.3724398612976074,-0.19351522624492645,0.0,0.0,0.0,0.0,0.0,0.0,0.0,-0.6540184970569096,-0.23723332000513006,-0.39831792914922043,0.32013812736924496,0.18983919291306053,0.10400110856304448,-0.18607406625538594,0.8780123790034987,0.7554257475953353,-0.2824963117984303,-1.6690558058922749,0.1414065870090685,2.403571798706659,1.027347608883176,0.878092876070424,0.7554597494309409,-0.2825552651693207,-1.6690993614607135,0.1414185955172306,2.4034451173676383,1.0273381002308042,4.3651359501787097e-05,0.0004630885317978168,0.0002496959698116153,0.0003261056870153537,-0.000284027866113809,-0.00011219056381072106,-9.287811909403059e-05,0.0,0.0,0.0,0.0,0.0,0.0,0.0,8.049706692525582e-05,3.4001835605534936e-05,-5.89533708904022e-05,-4.355556843860242e-05,1.2008508162103526e-05,-0.00012668133902060674,-9.508652371703619e-06,-4.3651359501787097e-05,-0.0004630885317978168,-0.0002496959698116153,-0.0003261056870153537,0.000284027866113809,0.00011219056381072106,9.287811909403059e-05,0.6806880831718445,46.59957504272461,5.588284015655518,-19.511445999145508,-0.7849021553993225,-2.3724398612976074,0.19351522624492645,0
38,0.18500947952270508,-0.6806880831718445,-46.59957504272461,-5.588284015655518,19.511445999145508,0.7849021553993225,2.3724398612976074,-0.19351522624492645,0.0,0.0,0.0,0.0,0.0,0.0,0.0,-0.6540184970569096,-0.23723332000513006,-0.39831792914922043,0.32013812736924496,0.18983919291306053,0.10400110856304448,-0.18607406625538594,0.8780123790034987,0.7554257475953353,-0.2824963117984303,-1.6690558058922749,0.1414065870090685,2.403571798706659,1.027347608883176,0.878092876070424,0.7554597494309409,-0.2825552651693207,-1.6690993614607135,0.1414185955172306,2.4034451173676383,1.0273381002308042,4.3651359501787097e-05,0.0004630885317978168,0.0002496959698116153,0.0003261056870153537,-0.000284027866113809,-0.00011219056381072106,-9.287811909403059e-05,0.0,0.0,0.0,0.0,0.0,0.0,0.0,8.049706692525582e-05,3.4001835605534936e-05,-5.89533708904022e-05,-4.355556843860242e-05,1.2008508162103526e-05,-0.00012668133902060674,-9.508652371703619e-06,-4.3651359501787097e-05,-0.0004630885317978168,-0.0002496959698116153,-0.0003261056870153537,0.000284027866113809,0.00011219056381072106,9.287811909403059e-05,0.6806880831718445,46.59957504272461,5.588284015655518,-19.511445999145508,-0.7849021553993225,-2.3724398612976074,0.19351522624492645,0
39,0.18998384475708008,-0.6291133761405945,-46.54800033569336,-5.612087726593018,19.511445999145508,0.7665916085243225,2.3788485527038574,-0.16604940593242645,0.0,0.0,0.0,0.0,0.0,0.0,0.0,-0.6589065204244927,-0.23132706195251884,-0.39978318228102605,0.3162306918380037,0.19028956587502094,0.10334714104278359,-0.18736736660812983,0.878008525710797,0.7554221283176489,-0.2824946500293684,-1.6690558058922749,0.1414059001595538,2.4035744283591236,1.0273445569591393,0.878092876070424,0.7554597494309409,-0.2825552651693207,-1.6690993614607135,0.1414185955172306,2.4034451173676383,1.0273381002308042,-0.0006069430521466889,-6.678340869110178e-05,0.0009500201576225492,0.00018633204465906778,0.00012798736551008236,-0.00023351389047144533,-0.000450938855958134,0.0,0.0,0.0,0.0,0.0,0.0,0.0,8.435035962695014e-05,3.7621113291974595e-05,-6.06151399523136e-05,-4.355556843860242e-05,1.2695357676811847e-05,-0.00012931099148527636,-6.4567283351024685e-06,0.0006069430521466889,6.678340869110178e-05,-0.0009500201576225492,-0.00018633204465906778,-0.00012798736551008236,0.00023351389047144533,0.000450938855958134,0.6291133761405945,46.54800033569336,5.612087726593018,-19.511445999145508,-0.7665916085243225,-2.3788485527038574,0.16604940593242645,0
40,0.19493913650512695,-0.6291133761405945,-46.54800033569336,-5.612087726593018,19.511445999145508,0.7665916085243225,2.3788485527038574,-0.16604940593242645,0.0,0.0,0.0,0.0,0.0,0.0,0.0,-0.6589065204244927,-0.23132706195251884,-0.39978318228102605,0.3162306918380037,0.19028956587502094,0.10334714104278359,-0.18736736660812983,0.878008525710797,0.7554221283176489,-0.2824946500293684,-1.6690558058922749,0.1414059001595538,2.4035744283591236,1.0273445569591393,0.878092876070424,0.7554597494309409,-0.2825552651693207,-1.6690993614607135,0.1414185955172306,2.4034451173676383,1.0273381002308042,-0.0006069430521466889,-6.678340869110178e-05,0.0009500201576225492,0.00018633204465906778,0.00012798736551008236,-0.00023351389047144533,-0.000450938855958134,0.0,0.0,0.0,0.0,0.0,0.0,0.0,8.435035962695014e-05,3.7621113291974595e-05,-6.06151399523136e-05,-4.355556843860242e-05,1.2695357676811847e-05,-0.00012931099148527636,-6.4567283351024685e-06,0.0006069430521466889,6.678340869110178e-05,-0.0009500201576225492,-0.00018633204465906778,-0.00012798736551008236,0.00023351389047144533,0.000450938855958134,0.6291133761405945,46.54800033569336,5.612087726593018,-19.511445999145508,-0.7665916085243225,-2.3788485527038574,0.16604940593242645,0
41,0.19998669624328613,-0.6291133761405945,-46.54800033569336,-5.612087726593018,19.511445999145508,0.7665916085243225,2.3788485527038574,-0.16604940593242645,0.0,0.0,0.0,0.0,0.0,0.0,0.0,-0.6589065204244927,-0.23132706195251884,-0.39978318228102605,0.3162306918380037,0.19028956587502094,0.10334714104278359,-0.18736736660812983,0.878008525710797,0.7554221283176489,-0.2824946500293684,-1.6690558058922749,0.1414059001595538,2.4035744283591236,1.0273445569591393,0.878092876070424,0.7554597494309409,-0.2825552651693207,-1.6690993614607135,0.1414185955172306,2.4034451173676383,1.0273381002308042,-0.0006069430521466889,-6.678340869110178e-05,0.0009500201576225492,0.00018633204465906778,0.00012798736551008236,-0.00023351389047144533,-0.000450938855958134,0.0,0.0,0.0,0.0,0.0,0.0,0.0,8.435035962695014e-05,3.7621113291974595e-05,-6.06151399523136e-05,-4.355556843860242e-05,1.2695357676811847e-05,-0.00012931099148527636,-6.4567283351024685e-06,0.0006069430521466889,6.678340869110178e-05,-0.0009500201576225492,-0.00018633204465906778,-0.00012798736551008236,0.00023351389047144533,0.000450938855958134,0.6291133761405945,46.54800033569336,5.612087726593018,-19.511445999145508,-0.7665916085243225,-2.3788485527038574,0.16604940593242645,0
42,0.20499682426452637,-0.6291133761405945,-46.54800033569336,-5.612087726593018,19.511445999145508,0.7665916085243225,2.3788485527038574,-0.16604940593242645,0.0,0.0,0.0,0.0,0.0,0.0,0.0,-0.6589065204244927,-0.23132706195251884,-0.39978318228102605,0.3162306918380037,0.19028956587502094,0.10334714104278359,-0.18736736660812983,0.878008525710797,0.7554221283176489,-0.2824946500293684,-1.6690558058922749,0.1414059001595538,2.4035744283591236,1.0273445569591393,0.878092876070424,0.7554597494309409,-0.2825552651693207,-1.6690993614607135,0.1414185955172306,2.4034451173676383,1.0273381002308042,-0.0006069430521466889,-6.678340869110178e-05,0.0009500201576225492,0.00018633204465906778,0.00012798736551008236,-0.00023351389047144533,-0.000450938855958134,0.0,0.0,0.0,0.0,0.0,0.0,0.0,8.435035962695014e-05,3.7621113291974595e-05,-6.06151399523136e-05,-4.355556843860242e-05,1.2695357676811847e-05,-0.00012931099148527636,-6.4567283351024685e-06,0.0006069430521466889,6.678340869110178e-05,-0.0009500201576225492,-0.00018633204465906778,-0.00012798736551008236,0.00023351389047144533,0.000450938855958134,0.6291133761405945,46.54800033569336,5.612087726593018,-19.511445999145508,-0.7665916085243225,-2.3788485527038574,0.16604940593242645,0
43,0.2100217342376709,-0.6568843722343445,-46.57577133178711,-5.564480304718018,19.487642288208008,0.7784934639930725,2.3724398612976074,-0.20724813640117645,0.0,0.0,0.0,0.0,0.0,0.0,0.0,-0.6566690416187523,-0.22962008514288015,-0.4012884654387961,0.3149720002688667,0.1897149964010457,0.10395254341162705,-0.18812898733057187,0.878010474552188,0.75542407715948,-0.2824979822343345,-1.6690541354564197,0.14140560055292975,2.4035753453914404,1.0273491345958576,0.878092876070424,0.7554597494309409,-0.2825552651693207,-1.6690993614607135,0.1414185955172306,2.4034451173676383,1.0273381002308042,0.0007752440802960083,0.0009431886743102996,-0.0004499668333644824,0.00045511730241484653,-0.00020194329272862566,-6.45405341490225e-06,0.00046953844911951564,0.0,0.0,0.0,0.0,0.0,0.0,0.0,8.240151823601938e-05,3.56722714608404e-05,-5.7282934986246925e-05,-4.522600429379686e-05,1.2994964300849787e-05,-0.00013022802380202592,-1.1034365053452788e-05,-0.0007752440802960083,-0.0009431886743102996,0.0004499668333644824,-0.00045511730241484653,0.00020194329272862566,6.45405341490225e-06,-0.00046953844911951564,0.6568843722343445,46.57577133178711,5.564480304718018,-19.487642288208008,-0.7784934639930725,-2.3724398612976074,0.20724813640117645,0
44,0.21498322486877441,-0.6568843722343445,-46.57577133178711,-5.564480304718018,19.487642288208008,0.7784934639930725,2.3724398612976074,-0.20724813640117645,0.0,0.0,0.0,0.0,0.0,0.0,0.0,-0.6566690416187523,-0.22962008514288015,-0.4012884654387961,0.3149720002688667,0.1897149964010457,0.10395254341162705,-0.18812898733057187,0.878010474552188,0.75542407715948,-0.2824979822343345,-1.6690541354564197,0.14140560055292975,2.4035753453914404,1.0273491345958576,0.878092876070424,0.7554597494309409,-0.2825552651693207,-1.6690993614607135,0.1414185955172306,2.4034451173676383,1.0273381002308042,0.0007752440802960083,0.0009431886743102996,-0.0004499668333644824,0.00045511730241484653,-0.00020194329272862566,-6.45405341490225e-06,0.00046953844911951564,0.0,0.0,0.0,0.0,0.0,0.0,0.0,8.240151823601938e-05,3.56722714608404e-05,-5.7282934986246925e-05,-4.522600429379686e-05,1.2994964300849787e-05,-0.00013022802380202592,-1.1034365053452788e-05,-0.0007752440802960083,-0.0009431886743102996,0.0004499668333644824,-0.00045511730241484653,0.00020194329272862566,6.45405341490225e-06,-0.00046953844911951564,0.6568843722343445,46.57577133178711,5.564480304718018,-19.487642288208008,-0.7784934639930725,-2.3724398612976074,0.20724813640117645,0
45,0.2199864387512207,-0.6291133761405945,-46.50039291381836,-5.564480304718018,19.511445999145508,0.7784934639930725,2.3788485527038574,-0.17978231608867645,0.0,0.0,0.0,0.0,0.0,0.0,0.0,-0.6600044941122064,-0.2313391144490044,-0.4099044001624383,0.3128939514929976,0.18977494351137578,0.10444456305212772,-0.19017687845724562,0.8780085257460225,0.7554187874459384,-0.28249798223428557,-1.6690558029488356,0.14140524996844073,2.403570080796404,1.0273460828380452,0.878092876070424,0.7554597494309409,-0.2825552651693207,-1.6690993614607135,0.1414185955172306,2.4034451173676383,1.0273381002308042,-0.0004483240004437726,-0.0008787275535231182,5.0918541764005195e-05,4.3461170017085625e-05,-1.7601470174181465e-05,-0.00039182600275029333,-0.0001799714521517622,0.0,0.0,0.0,0.0,0.0,0.0,0.0,8.435032440146095e-05,4.09619850024745e-05,-5.728293503515225e-05,-4.355851187787252e-05,1.3345548789872597e-05,-0.00012496342876566757,-7.982607240997197e-06,0.0004483240004437726,0.0008787275535231182,-5.0918541764005195e-05,-4.3461170017085625e-05,1.7601470174181465e-05,0.00039182600275029333,0.0001799714521517622,0.6291133761405945,46.50039291381836,5.564480304718018,-19.511445999145508,-0.7784934639930725,-2.3788485527038574,0.17978231608867645,0
46,0.22493934631347656,-0.6291133761405945,-46.50039291381836,-5.564480304718018,19.511445999145508,0.7784934639930725,2.3788485527038574,-0.17978231608867645,0.0,0.0,0.0,0.0,0.0,0.0,0.0,-0.6600044941122064,-0.2313391144490044,-0.4099044001624383,0.3128939514929976,0.18977494351137578,0.10444456305212772,-0.19017687845724562,0.8780085257460225,0.7554187874459384,-0.28249798223428557,-1.6690558029488356,0.14140524996844073,2.403570080796404,1.0273460828380452,0.878092876070424,0.7554597494309409,-0.2825552651693207,-1.6690993614607135,0.1414185955172306,2.4034451173676383,1.0273381002308042,-0.0004483240004437726,-0.0008787275535231182,5.0918541764005195e-05,4.3461170017085625e-05,-1.7601470174181465e-05,-0.00039182600275029333,-0.0001799714521517622,0.0,0.0,0.0,0.0,0.0,0.0,0.0,8.435032440146095e-05,4.09619850024745e-05,-5.728293503515225e-05,-4.355851187787252e-05,1.3345548789872597e-05,-0.00012496342876566757,-7.982607240997197e-06,0.0004483240004437726,0.0008787275535231182,-5.0918541764005195e-05,-4.3461170017085625e-05,1.7601470174181465e-05,0.00039182600275029333,0.0001799714521517622,0.6291133761405945,46.50039291381836,5.564480304718018,-19.511445999145508,-0.7784934639930725,-2.3788485527038574,0.17978231608867645,0
47,0.22998666763305664,-0.6291133761405945,-46.50039291381836,-5.564480304718018,19.511445999145508,0.7784934639930725,2.3788485527038574,-0.17978231608867645,0.0,0.0,0.0,0.0,0.0,0.0,0.0,-0.6600044941122064,-0.2313391144490044,-0.4099044001624383,0.3128939514929976,0.18977494351137578,0.10444456305212772,-0.19017687845724562,0.8780085257460225,0.7554187874459384,-0.28249798223428557,-1.6690558029488356,0.14140524996844073,2.403570080796404,1.0273460828380452,0.878092876070424,0.7554597494309409,-0.2825552651693207,-1.6690993614607135,0.1414185955172306,2.4034451173676383,1.0273381002308042,-0.0004483240004437726,-0.0008787275535231182,5.0918541764005195e-05,4.3461170017085625e-05,-1.7601470174181465e-05,-0.00039182600275029333,-0.0001799714521517622,0.0,0.0,0.0,0.0,0.0,0.0,0.0,8.435032440146095e-05,4.09619850024745e-05,-5.728293503515225e-05,-4.355851187787252e-05,1.3345548789872597e-05,-0.00012496342876566757,-7.982607240997197e-06,0.0004483240004437726,0.0008787275535231182,-5.0918541764005195e-05,-4.3461170017085625e-05,1.7601470174181465e-05,0.00039182600275029333,0.0001799714521517622,0.6291133761405945,46.50039291381836,5.564480304718018,-19.511445999145508,-0.7784934639930725,-2.3788485527038574,0.17978231608867645,0
48,0.2349872589111328,-0.5815059542655945,-46.54800033569336,-5.564480304718018,19.511445999145508,0.7849021553993225,2.3724398612976074,-0.22098104655742645,0.0,0.0,0.0,0.0,0.0,0.0,0.0,-0.6567337296803543,-0.23113185046309917,-0.40757541710057654,0.31340783537453476,0.18978754057220412,0.10440322984690481,-0.18871587695875422,0.8780051851596387,0.7554221283176489,-0.28249798223428557,-1.6690558058922693,0.14140689709698995,2.403570757603216,1.027350660474764,0.878092876070424,0.7554597494309409,-0.2825552651693207,-1.6690993614607135,0.1414185955172306,2.4034451173676383,1.0273381002308042,-0.0016837803369882248,-5.094178493040855e-06,-0.00010447479417673726,0.00015035456325799095,-0.00039404447540823385,-0.0001014890552731367,0.0012299262934084266,0.0,0.0,0.0,0.0,0.0,0.0,0.0,8.769091078530966e-05,3.7621113291974595e-05,-5.728293503515225e-05,-4.3555568444153536e-05,1.1698420240652263e-05,-0.0001256402355775954,-1.2560243959791606e-05,0.0016837803369882248,5.094178493040855e-06,0.00010447479417673726,-0.00015035456325799095,0.00039404447540823385,0.0001014890552731367,-0.0012299262934084266,0.5815059542655945,46.54800033569336,5.564480304718018,-19.511445999145508,-0.7849021553993225,-2.3724398612976074,0.22098104655742645,0
49,0.23998427391052246,-0.5815059542655945,-46.54800033569336,-5.564480304718018,19.511445999145508,0.7849021553993225,2.3724398612976074,-0.22098104655742645,0.0,0.0,0.0,0.0,0.0,0.0,0.0,-0.6567337296803543,-0.23113185046309917,-0.40757541710057654,0.31340783537453476,0.18978754057220412,0.10440322984690481,-0.18871587695875422,0.8780051851596387,0.7554221283176489,-0.28249798223428557,-1.6690558058922693,0.14140689709698995,2.403570757603216,1.027350660474764,0.878092876070424,0.7554597494309409,-0.2825552651693207,-1.6690993614607135,0.1414185955172306,2.4034451173676383,1.0273381002308042,-0.0016837803369882248,-5.094178493040855e-06,-0.00010447479417673726,0.00015035456325799095,-0.00039404447540823385,-0.0001014890552731367,0.0012299262934084266,0.0,0.0,0.0,0.0,0.0,0.0,0.0,8.769091078530966e-05,3.7621113291974595e-05,-5.728293503515225e-05,-4.3555568444153536e-05,1.1698420240652263e-05,-0.0001256402355775954,-1.2560243959791606e-05,0.0016837803369882248,5.094178493040855e-06,0.00010447479417673726,-0.00015035456325799095,0.00039404447540823385,0.0001014890552731367,-0.0012299262934084266,0.5815059542655945,46.54800033569336,5.564480304718018,-19.511445999145508,-0.7849021553993225,-2.3724398612976074,0.22098104655742645,0
50,0.24498772621154785,-0.6291133761405945,-46.59957504272461,-5.564480304718018,19.511445999145508,0.7849021553993225,2.3660311698913574,-0.18710653483867645,0.0,0.0,0.0,0.0,0.0,0.0,0.0,-0.6492528276590328,-0.24059032110113765,-0.4014036087377834,0.31822841419439885,0.18975156320698408,0.10430364031348215,-0.1882999912223897,0.8780085257103573,0.7554257735957154,-0.28249798223428557,-1.6690558824216952,0.14140478932958334,2.4035760835535194,1.0273468966401285,0.878092876070424,0.7554597494309409,-0.2825552651693207,-1.6690993614607135,0.1414185955172306,2.4034451173676383,1.0273381002308042,-0.0005619209036467471,0.0004651095904908259,-1.6018407116540998e-05,-4.079686269021004e-05,-0.0004251528141508207,-2.3543061527590438e-05,0.0002930300587275894,0.0,0.0,0.0,0.0,0.0,0.0,0.0,8.435036006670948e-05,3.397583522546377e-05,-5.728293503515225e-05,-4.347903901824601e-05,1.3806187647263934e-05,-0.00013096618588104292,-8.796409324274279e-06,0.0005619209036467471,-0.0004651095904908259,1.6018407116540998e-05,4.079686269021004e-05,0.0004251528141508207,2.3543061527590438e-05,-0.0002930300587275894,0.6291133761405945,46.59957504272461,5.564480304718018,-19.511445999145508,-0.7849021553993225,-2.3660311698913574,0.18710653483867645,0
51,0.25026440620422363,-0.6291133761405945,-46.62337875366211,-5.564480304718018,19.559053421020508,0.7730002999305725,2.3724398612976074,-0.21457235515117645,0.0,0.0,0.0,0.0,0.0,0.0,0.0,-0.6485729776842328,-0.23196706585619495,-0.397045069958206,0.3131359296330093,0.18957412449776564,0.10286803537565933,-0.1870495576443453,0.8780085343771501,0.7554274180313374,-0.28249798223428557,-1.6690591467644176,0.1414078775095374,2.4035721572725386,1.0273499483979411,0.878092876070424,0.7554597494309409,-0.2825552651693207,-1.6690993614607135,0.1414185955172306,2.4034451173676383,1.0273381002308042,-0.0007997868979568838,0.0014171464407634804,0.00012503597149368846,-0.0008402111026070977,0.00010951286913877997,-5.468276665711812e-05,0.0016973358023815977,0.0,0.0,0.0,0.0,0.0,0.0,0.0,8.434169327387053e-05,3.233139960345799e-05,-5.728293503515225e-05,-4.0214696295892693e-05,1.0718007693200082e-05,-0.0001270399049002613,-1.1848167136951915e-05,0.0007997868979568838,-0.0014171464407634804,-0.00012503597149368846,0.0008402111026070977,-0.00010951286913877997,5.468276665711812e-05,-0.0016973358023815977,0.6291133761405945,46.62337875366211,5.564480304718018,-19.559053421020508,-0.7730002999305725,-2.3724398612976074,0.21457235515117645,0
52,0.25499773025512695,-0.6291133761405945,-46.62337875366211,-5.564480304718018,19.559053421020508,0.7730002999305725,2.3724398612976074,-0.21457235515117645,0.0,0.0,0.0,0.0,0.0,0.0,0.0,-0.6485729776842328,-0.23196706585619495,-0.397045069958206,0.3131359296330093,0.18957412449776564,0.10286803537565933,-0.1870495576443453,0.8780085343771501,0.7554274180313374,-0.28249798223428557,-1.6690591467644176,0.1414078775095374,2.4035721572725386,1.0273499483979411,0.878092876070424,0.7554597494309409,-0.2825552651693207,-1.6690993614607135,0.1414185955172306,2.4034451173676383,1.0273381002308042,-0.0007997868979568838,0.0014171464407634804,0.00012503597149368846,-0.0008402111026070977,0.00010951286913877997,-5.468276665711812e-05,0.0016973358023815977,0.0,0.0,0.0,0.0,0.0,0.0,0.0,8.434169327387053e-05,3.233139960345799e-05,-5.728293503515225e-05,-4.0214696295892693e-05,1.0718007693200082e-05,-0.0001270399049002613,-1.1848167136951915e-05,0.0007997868979568838,-0.0014171464407634804,-0.00012503597149368846,0.0008402111026070977,-0.00010951286913877997,5.468276665711812e-05,-0.0016973358023815977,0.6291133761405945,46.62337875366211,5.564480304718018,-19.559053421020508,-0.7730002999305725,-2.3724398612976074,0.21457235515117645,0
53,0.25994086265563965,-0.6291133761405945,-46.62337875366211,-5.564480304718018,19.559053421020508,0.7730002999305725,2.3724398612976074,-0.21457235515117645,0.0,0.0,0.0,0.0,0.0,0.0,0.0,-0.6485729776842328,-0.23196706585619495,-0.397045069958206,0.3131359296330093,0.18957412449776564,0.10286803537565933,-0.1870495576443453,0.8780085343771501,0.7554274180313374,-0.28249798223428557,-1.6690591467644176,0.1414078775095374,2.4035721572725386,1.0273499483979411,0.878092876070424,0.7554597494309409,-0.2825552651693207,-1.6690993614607135,0.1414185955172306,2.4034451173676383,1.0273381002308042,-0.0007997868979568838,0.0014171464407634804,0.00012503597149368846,-0.0008402111026070977,0.00010951286913877997,-5.468276665711812e-05,0.0016973358023815977,0.0,0.0,0.0,0.0,0.0,0.0,0.0,8.434169327387053e-05,3.233139960345799e-05,-5.728293503515225e-05,-4.0214696295892693e-05,1.0718007693200082e-05,-0.0001270399049002613,-1.1848167136951915e-05,0.0007997868979568838,-0.0014171464407634804,-0.00012503597149368846,0.0008402111026070977,-0.00010951286913877997,5.468276665711812e-05,-0.0016973358023815977,0.6291133761405945,46.62337875366211,5.564480304718018,-19.559053421020508,-0.7730002999305725,-2.3724398612976074,0.21457235515117645,0
54,0.2649848461151123,-0.6568843722343445,-46.59957504272461,-5.564480304718018,19.535249710083008,0.7730002999305725,2.3724398612976074,-0.22830526530742645,0.0,0.0,0.0,0.0,0.0,0.0,0.0,-0.6592986891449425,-0.2228048412430759,-0.4003706527539649,0.3064129647550443,0.18994321053590002,0.10239608047456429,-0.18520107758513976,0.8780104745522369,0.7554257475953353,-0.28249798223428557,-1.66905747632813,0.14140614654758646,2.403575505372798,1.0273514742768473,0.878092876070424,0.7554597494309409,-0.2825552651693207,-1.6690993614607135,0.1414185955172306,2.4034451173676383,1.0273381002308042,-0.0002788057361260427,0.001275458484800817,-5.63394088041771e-05,-0.00046640152666649353,0.00017335896444470306,-5.173858452401835e-05,0.0016553882280638068,0.0,0.0,0.0,0.0,0.0,0.0,0.0,8.240151818705854e-05,3.4001835605534936e-05,-5.728293503515225e-05,-4.188513258340798e-05,1.2448969644140995e-05,-0.00013038800515952076,-1.3374046043068688e-05,0.0002788057361260427,-0.001275458484800817,5.63394088041771e-05,0.00046640152666649353,-0.00017335896444470306,5.173858452401835e-05,-0.0016553882280638068,0.6568843722343445,46.59957504272461,5.564480304718018,-19.535249710083008,-0.7730002999305725,-2.3724398612976074,0.22830526530742645,0
55,0.27000951766967773,-0.6568843722343445,-46.59957504272461,-5.564480304718018,19.535249710083008,0.7730002999305725,2.3724398612976074,-0.22830526530742645,0.0,0.0,0.0,0.0,0.0,0.0,0.0,-0.6592986891449425,-0.2228048412430759,-0.4003706527539649,0.3064129647550443,0.18994321053590002,0.10239608047456429,-0.18520107758513976,0.8780104745522369,0.7554257475953353,-0.28249798223428557,-1.66905747632813,0.14140614654758646,2.403575505372798,1.0273514742768473,0.878092876070424,0.7554597494309409,-0.2825552651693207,-1.6690993614607135,0.1414185955172306,2.4034451173676383,1.0273381002308042,-0.0002788057361260427,0.001275458484800817,-5.63394088041771e-05,-0.00046640152666649353,0.00017335896444470306,-5.173858452401835e-05,0.0016553882280638068,0.0,0.0,0.0,0.0,0.0,0.0,0.0,8.240151818705854e-05,3.4001835605534936e-05,-5.728293503515225e-05,-4.188513258340798e-05,1.2448969644140995e-05,-0.00013038800515952076,-1.3374046043068688e-05,0.0002788057361260427,-0.001275458484800817,5.63394088041771e-05,0.00046640152666649353,-0.00017335896444470306,5.173858452401835e-05,-0.0016553882280638068,0.6568843722343445,46.59957504272461,5.564480304718018,-19.535249710083008,-0.7730002999305725,-2.3724398612976074,0.22830526530742645,0
56,0.27503323554992676,-0.7084590792655945,-46.57577133178711,-5.564480304718018,19.535249710083008,0.7665916085243225,2.3724398612976074,-0.20724813640117645,0.0,0.0,0.0,0.0,0.0,0.0,0.0,-0.6538874746644726,-0.23414271125528982,-0.39462863044503055,0.31412257824469036,0.1896876935702078,0.10384626497706688,-0.18548669256236103,0.8780140941508666,0.75542407715948,-0.28249798223428557,-1.66905747632813,0.14140646320152886,2.403575108087964,1.0273491345958576,0.878092876070424,0.7554597494309409,-0.2825552651693207,-1.6690993614607135,0.1414185955172306,2.4034451173676383,1.0273381002308042,0.0009251596827977055,0.0006697627394702954,0.00010116069038733575,-0.00019858693700285386,0.0001797728990704368,-0.00021016894364955959,0.0012268448547347666,0.0,0.0,0.0,0.0,0.0,0.0,0.0,7.878191955734692e-05,3.56722714608404e-05,-5.728293503515225e-05,-4.188513258340798e-05,1.213231570174056e-05,-0.00012999072032560122,-1.1034365053452788e-05,-0.0009251596827977055,-0.0006697627394702954,-0.00010116069038733575,0.00019858693700285386,-0.0001797728990704368,0.00021016894364955959,-0.0012268448547347666,0.7084590792655945,46.57577133178711,5.564480304718018,-19.535249710083008,-0.7665916085243225,-2.3724398612976074,0.20724813640117645,0
57,0.2800009250640869,-0.7084590792655945,-46.57577133178711,-5.564480304718018,19.535249710083008,0.7665916085243225,2.3724398612976074,-0.20724813640117645,0.0,0.0,0.0,0.0,0.0,0.0,0.0,-0.6538874746644726,-0.23414271125528982,-0.39462863044503055,0.31412257824469036,0.1896876935702078,0.10384626497706688,-0.18548669256236103,0.8780140941508666,0.75542407715948,-0.28249798223428557,-1.66905747632813,0.14140646320152886,2.403575108087964,1.0273491345958576,0.878092876070424,0.7554597494309409,-0.2825552651693207,-1.6690993614607135,0.1414185955172306,2.4034451173676383,1.0273381002308042,0.0009251596827977055,0.0006697627394702954,0.00010116069038733575,-0.00019858693700285386,0.0001797728990704368,-0.00021016894364955959,0.0012268448547347666,0.0,0.0,0.0,0.0,0.0,0.0,0.0,7.878191955734692e-05,3.56722714608404e-05,-5.728293503515225e-05,-4.188513258340798e-05,1.213231570174056e-05,-0.00012999072032560122,-1.1034365053452788e-05,-0.0009251596827977055,-0.0006697627394702954,-0.00010116069038733575,0.00019858693700285386,-0.0001797728990704368,0.00021016894364955959,-0.0012268448547347666,0.7084590792655945,46.57577133178711,5.564480304718018,-19.535249710083008,-0.7665916085243225,-2.3724398612976074,0.20724813640117645,0
58,0.2849910259246826,-0.7084590792655945,-46.57577133178711,-5.564480304718018,19.535249710083008,0.7665916085243225,2.3724398612976074,-0.20724813640117645,0.0,0.0,0.0,0.0,0.0,0.0,0.0,-0.6538874746644726,-0.23414271125528982,-0.39462863044503055,0.31412257824469036,0.1896876935702078,0.10384626497706688,-0.18548669256236103,0.8780140941508666,0.75542407715948,-0.28249798223428557,-1.66905747632813,0.14140646320152886,2.403575108087964,1.0273491345958576,0.878092876070424,0.7554597494309409,-0.2825552651693207,-1.6690993614607135,0.1414185955172306,2.4034451173676383,1.0273381002308042,0.0009251596827977055,0.0006697627394702954,0.00010116069038733575,-0.00019858693700285386,0.0001797728990704368,-0.00021016894364955959,0.0012268448547347666,0.0,0.0,0.0,0.0,0.0,0.0,0.0,7.878191955734692e-05,3.56722714608404e-05,-5.728293503515225e-05,-4.188513258340798e-05,1.213231570174056e-05,-0.00012999072032560122,-1.1034365053452788e-05,-0.0009251596827977055,-0.0006697627394702954,-0.00010116069038733575,0.00019858693700285386,-0.0001797728990704368,0.00021016894364955959,-0.0012268448547347666,0.7084590792655945,46.57577133178711,5.564480304718018,-19.535249710083008,-0.7665916085243225,-2.3724398612976074,0.20724813640117645,0
59,0.289994478225708,-0.7084590792655945,-46.57577133178711,-5.564480304718018,19.535249710083008,0.7665916085243225,2.3724398612976074,-0.20724813640117645,0.0,0.0,0.0,0.0,0.0,0.0,0.0,-0.6538874746644726,-0.23414271125528982,-0.39462863044503055,0.31412257824469036,0.1896876935702078,0.10384626497706688,-0.18548669256236103,0.8780140941508666,0.75542407715948,-0.28249798223428557,-1.66905747632813,0.14140646320152886,2.403575108087964,1.0273491345958576,0.878092876070424,0.7554597494309409,-0.2825552651693207,-1.6690993614607135,0.1414185955172306,2.4034451173676383,1.0273381002308042,0.0009251596827977055,0.0006697627394702954,0.00010116069038733575,-0.00019858693700285386,0.0001797728990704368,-0.00021016894364955959,0.0012268448547347666,0.0,0.0,0.0,0.0,0.0,0.0,0.0,7.878191955734692e-05,3.56722714608404e-05,-5.728293503515225e-05,-4.188513258340798e-05,1.213231570174056e-05,-0.00012999072032560122,-1.1034365053452788e-05,-0.0009251596827977055,-0.0006697627394702954,-0.00010116069038733575,0.00019858693700285386,-0.0001797728990704368,0.00021016894364955959,-0.0012268448547347666,0.7084590792655945,46.57577133178711,5.564480304718018,-19.535249710083008,-0.7665916085243225,-2.3724398612976074,0.20724813640117645,0
60,0.2950892448425293,-0.6806880831718445,-46.57577133178711,-5.564480304718018,19.535249710083008,0.7784934639930725,2.3788485527038574,-0.15231649577617645,0.0,0.0,0.0,0.0,0.0,0.0,0.0,-0.6580518242561559,-0.22971752217114363,-0.3949095788610633,0.3143621910204328,0.18884178067723734,0.10301126980451654,-0.1847129162300388,0.8780121449880437,0.75542407715948,-0.28249798223428557,-1.66905747632813,0.14140459383813017,2.403570425431534,1.0273430310802327,0.878092876070424,0.7554597494309409,-0.2825552651693207,-1.6690993614607135,0.1414185955172306,2.4034451173676383,1.0273381002308042,0.0005824518515747466,0.0009271695576421442,-0.0005024498039101331,-0.0006494236092515008,-0.0004941104936339774,-0.00031159762977365834,-0.0013130000390663588,0.0,0.0,0.0,0.0,0.0,0.0,0.0,8.073108238026983e-05,3.56722714608404e-05,-5.728293503515225e-05,-4.188513258340798e-05,1.4001679100428266e-05,-0.00012530806389587923,-4.930849428541606e-06,-0.0005824518515747466,-0.0009271695576421442,0.0005024498039101331,0.0006494236092515008,0.0004941104936339774,0.00031159762977365834,0.0013130000390663588,0.6806880831718445,46.57577133178711,5.564480304718018,-19.535249710083008,-0.7784934639930725,-2.3788485527038574,0.15231649577617645,0
61,0.29998040199279785,-0.6806880831718445,-46.57577133178711,-5.564480304718018,19.535249710083008,0.7784934639930725,2.3788485527038574,-0.15231649577617645,0.0,0.0,0.0,0.0,0.0,0.0,0.0,-0.6580518242561559,-0.22971752217114363,-0.3949095788610633,0.3143621910204328,0.18884178067723734,0.10301126980451654,-0.1847129162300388,0.8780121449880437,0.75542407715948,-0.28249798223428557,-1.66905747632813,0.14140459383813017,2.403570425431534,1.0273430310802327,0.878092876070424,0.7554597494309409,-0.2825552651693207,-1.6690993614607135,0.1414185955172306,2.4034451173676383,1.0273381002308042,0.0005824518515747466,0.0009271695576421442,-0.0005024498039101331,-0.0006494236092515008,-0.0004941104936339774,-0.00031159762977365834,-0.0013130000390663588,0.0,0.0,0.0,0.0,0.0,0.0,0.0,8.073108238026983e-05,3.56722714608404e-05,-5.728293503515225e-05,-4.188513258340798e-05,1.4001679100428266e-05,-0.00012530806389587923,-4.930849428541606e-06,-0.0005824518515747466,-0.0009271695576421442,0.0005024498039101331,0.0006494236092515008,0.0004941104936339774,0.00031159762977365834,0.0013130000390663588,0.6806880831718445,46.57577133178711,5.564480304718018,-19.535249710083008,-0.7784934639930725,-2.3788485527038574,0.15231649577617645,0
62,0.3049948215484619,-0.6568843722343445,-46.54800033569336,-5.588284015655518,19.535249710083008,0.7730002999305725,2.3660311698913574,-0.15964071452617645,0.0,0.0,0.0,0.0,0.0,0.0,0.0,-0.6636188623790332,-0.23794211852887637,-0.40265676992529237,0.32002608980298475,0.18862869632988924,0.10425933099574451,-0.18454520834551735,0.8780104745878538,0.7554221283176489,-0.2824963117984303,-1.66905747632813,0.14140790353406707,2.403576059814415,1.027343844882316,0.878092876070424,0.7554597494309409,-0.2825552651693207,-1.6690993614607135,0.1414185955172306,2.4034451173676383,1.0273381002308042,-0.0003204282917934268,-0.0001666025740894331,0.00012842236787110765,-0.000516275836941159,0.00019339510676764988,0.00028444490229927107,-0.0013829662378770503,0.0,0.0,0.0,0.0,0.0,0.0,0.0,8.240148257021573e-05,3.7621113291974595e-05,-5.89533708904022e-05,-4.188513258340798e-05,1.0691983163529928e-05,-0.00013094244677658295,-5.744651511818688e-06,0.0003204282917934268,0.0001666025740894331,-0.00012842236787110765,0.000516275836941159,-0.00019339510676764988,-0.00028444490229927107,0.0013829662378770503,0.6568843722343445,46.54800033569336,5.588284015655518,-19.535249710083008,-0.7730002999305725,-2.3660311698913574,0.15964071452617645,0
63,0.3101658821105957,-0.6568843722343445,-46.54800033569336,-5.588284015655518,19.535249710083008,0.7730002999305725,2.3660311698913574,-0.15964071452617645,0.0,0.0,0.0,0.0,0.0,0.0,0.0,-0.6636188623790332,-0.23794211852887637,-0.40265676992529237,0.32002608980298475,0.18862869632988924,0.10425933099574451,-0.18454520834551735,0.8780104745878538,0.7554221283176489,-0.2824963117984303,-1.66905747632813,0.14140790353406707,2.403576059814415,1.027343844882316,0.878092876070424,0.7554597494309409,-0.2825552651693207,-1.6690993614607135,0.1414185955172306,2.4034451173676383,1.0273381002308042,-0.0003204282917934268,-0.0001666025740894331,0.00012842236787110765,-0.000516275836941159,0.00019339510676764988,0.00028444490229927107,-0.0013829662378770503,0.0,0.0,0.0,0.0,0.0,0.0,0.0,8.240148257021573e-05,3.7621113291974595e-05,-5.89533708904022e-05,-4.188513258340798e-05,1.0691983163529928e-05,-0.00013094244677658295,-5.744651511818688e-06,0.0003204282917934268,0.0001666025740894331,-0.00012842236787110765,0.000516275836941159,-0.00019339510676764988,-0.00028444490229927107,0.0013829662378770503,0.6568843722343445,46.54800033569336,5.588284015655518,-19.535249710083008,-0.7730002999305725,-2.3660311698913574,0.15964071452617645,0
64,0.3150215148925781,-0.6568843722343445,-46.57577133178711,-5.588284015655518,19.511445999145508,0.7730002999305725,2.3596224784851074,-0.18710653483867645,0.0,0.0,0.0,0.0,0.0,0.0,0.0,-0.6586630895256991,-0.22455533066122235,-0.39661237646841613,0.314849741678755,0.188529534887071,0.10408814430029424,-0.18549759547804412,0.8780104745521882,0.75542407715948,-0.2824963117984303,-1.6690558058922749,0.14140578321266117,2.403575516262933,1.0273468966401285,0.878092876070424,0.7554597494309409,-0.2825552651693207,-1.6690993614607135,0.1414185955172306,2.4034451173676383,1.0273381002308042,-0.0003317088900349335,0.0008699543472916803,0.0003296462667073852,0.0006184445039981502,0.00013274154353454655,0.00046026686902927934,0.0004742000373617715,0.0,0.0,0.0,0.0,0.0,0.0,0.0,8.240151823579733e-05,3.56722714608404e-05,-5.89533708904022e-05,-4.355556843860242e-05,1.281230456942617e-05,-0.00013039889529453674,-8.796409324274279e-06,0.0003317088900349335,-0.0008699543472916803,-0.0003296462667073852,-0.0006184445039981502,-0.00013274154353454655,-0.00046026686902927934,-0.0004742000373617715,0.6568843722343445,46.57577133178711,5.588284015655518,-19.511445999145508,-0.7730002999305725,-2.3596224784851074,0.18710653483867645,0
65,0.319979190826416,-0.6568843722343445,-46.57577133178711,-5.588284015655518,19.511445999145508,0.7730002999305725,2.3596224784851074,-0.18710653483867645,0.0,0.0,0.0,0.0,0.0,0.0,0.0,-0.6586630895256991,-0.22455533066122235,-0.39661237646841613,0.314849741678755,0.188529534887071,0.10408814430029424,-0.18549759547804412,0.8780104745521882,0.75542407715948,-0.2824963117984303,-1.6690558058922749,0.14140578321266117,2.403575516262933,1.0273468966401285,0.878092876070424,0.7554597494309409,-0.2825552651693207,-1.6690993614607135,0.1414185955172306,2.4034451173676383,1.0273381002308042,-0.0003317088900349335,0.0008699543472916803,0.0003296462667073852,0.0006184445039981502,0.00013274154353454655,0.00046026686902927934,0.0004742000373617715,0.0,0.0,0.0,0.0,0.0,0.0,0.0,8.240151823579733e-05,3.56722714608404e-05,-5.89533708904022e-05,-4.355556843860242e-05,1.281230456942617e-05,-0.00013039889529453674,-8.796409324274279e-06,0.0003317088900349335,-0.0008699543472916803,-0.0003296462667073852,-0.0006184445039981502,-0.00013274154353454655,-0.00046026686902927934,-0.0004742000373617715,0.6568843722343445,46.57577133178711,5.588284015655518,-19.511445999145508,-0.7730002999305725,-2.3596224784851074,0.18710653483867645,0
66,0.3249835968017578,-0.6291133761405945,-46.52419662475586,-5.588284015655518,19.535249710083008,0.7665916085243225,2.3788485527038574,-0.22098104655742645,0.0,0.0,0.0,0.0,0.0,0.0,0.0,-0.653270823148496,-0.23723789449661353,-0.3936518031256095,0.32171125024175845,0.18864185751709334,0.10498519007332369,-0.1834521285433984,0.8780106318481362,0.7554204578817937,-0.2824963117984303,-1.66905747632813,0.14140894908533438,2.403573327482227,1.027350660474764,0.878092876070424,0.7554597494309409,-0.2825552651693207,-1.6690993614607135,0.1414185955172306,2.4034451173676383,1.0273381002308042,-0.00034004153723359725,-0.0017064720419513253,0.00028484318305489,-0.00045328155484767604,0.00026523749792229057,-0.0002742968348770073,0.001482096914939795,0.0,0.0,0.0,0.0,0.0,0.0,0.0,8.224422228775286e-05,3.9291549147169036e-05,-5.89533708904022e-05,-4.188513258340798e-05,9.64643189621528e-06,-0.00012821011458852283,-1.2560243959791606e-05,0.00034004153723359725,0.0017064720419513253,-0.00028484318305489,0.00045328155484767604,-0.00026523749792229057,0.0002742968348770073,-0.001482096914939795,0.6291133761405945,46.52419662475586,5.588284015655518,-19.535249710083008,-0.7665916085243225,-2.3788485527038574,0.22098104655742645,0
67,0.32998156547546387,-0.6291133761405945,-46.52419662475586,-5.588284015655518,19.535249710083008,0.7665916085243225,2.3788485527038574,-0.22098104655742645,0.0,0.0,0.0,0.0,0.0,0.0,0.0,-0.653270823148496,-0.23723789449661353,-0.3936518031256095,0.32171125024175845,0.18864185751709334,0.10498519007332369,-0.1834521285433984,0.8780106318481362,0.7554204578817937,-0.2824963117984303,-1.66905747632813,0.14140894908533438,2.403573327482227,1.027350660474764,0.878092876070424,0.7554597494309409,-0.2825552651693207,-1.6690993614607135,0.1414185955172306,2.4034451173676383,1.0273381002308042,-0.00034004153723359725,-0.0017064720419513253,0.00028484318305489,-0.00045328155484767604,0.00026523749792229057,-0.0002742968348770073,0.001482096914939795,0.0,0.0,0.0,0.0,0.0,0.0,0.0,8.224422228775286e-05,3.9291549147169036e-05,-5.89533708904022e-05,-4.188513258340798e-05,9.64643189621528e-06,-0.00012821011458852283,-1.2560243959791606e-05,0.00034004153723359725,0.0017064720419513253,-0.00028484318305489,0.00045328155484767604,-0.00026523749792229057,0.0002742968348770073,-0.001482096914939795,0.6291133761405945,46.52419662475586,5.588284015655518,-19.535249710083008,-0.7665916085243225,-2.3788485527038574,0.22098104655742645,0
68,0.335007905960083,-0.6568843722343445,-46.52419662475586,-5.588284015655518,19.535249710083008,0.7730002999305725,2.3724398612976074,-0.21457235515117645,0.0,0.0,0.0,0.0,0.0,0.0,0.0,-0.6637623866017213,-0.23004639320828463,-0.4023363645951291,0.3146808678483575,0.18862887666501899,0.10354888876843416,-0.18507941713858367,0.8780105525537684,0.7554204578817937,-0.2824963117984303,-1.66905747632813,0.1414046765029036,2.4035707838055926,1.0273499483979411,0.878092876070424,0.7554597494309409,-0.2825552651693207,-1.6690993614607135,0.1414185955172306,2.4034451173676383,1.0273381002308042,0.00010005012807816168,-0.00128556033579444,0.0002142423728951529,-0.0005382794877050559,0.00010619253385397675,-7.572642075715241e-05,0.001458971376522779,0.0,0.0,0.0,0.0,0.0,0.0,0.0,8.232351665560245e-05,3.9291549147169036e-05,-5.89533708904022e-05,-4.188513258340798e-05,1.3919014327012924e-05,-0.0001256664379543082,-1.1848167136951915e-05,-0.00010005012807816168,0.00128556033579444,-0.0002142423728951529,0.0005382794877050559,-0.00010619253385397675,7.572642075715241e-05,-0.001458971376522779,0.6568843722343445,46.52419662475586,5.588284015655518,-19.535249710083008,-0.7730002999305725,-2.3724398612976074,0.21457235515117645,0
69,0.34003138542175293,-0.6568843722343445,-46.52419662475586,-5.588284015655518,19.535249710083008,0.7730002999305725,2.3724398612976074,-0.21457235515117645,0.0,0.0,0.0,0.0,0.0,0.0,0.0,-0.6637623866017213,-0.23004639320828463,-0.4023363645951291,0.3146808678483575,0.18862887666501899,0.10354888876843416,-0.18507941713858367,0.8780105525537684,0.7554204578817937,-0.2824963117984303,-1.66905747632813,0.1414046765029036,2.4035707838055926,1.0273499483979411,0.878092876070424,0.7554597494309409,-0.2825552651693207,-1.6690993614607135,0.1414185955172306,2.4034451173676383,1.0273381002308042,0.00010005012807816168,-0.00128556033579444,0.0002142423728951529,-0.0005382794877050559,0.00010619253385397675,-7.572642075715241e-05,0.001458971376522779,0.0,0.0,0.0,0.0,0.0,0.0,0.0,8.232351665560245e-05,3.9291549147169036e-05,-5.89533708904022e-05,-4.188513258340798e-05,1.3919014327012924e-05,-0.0001256664379543082,-1.1848167136951915e-05,-0.00010005012807816168,0.00128556033579444,-0.0002142423728951529,0.0005382794877050559,-0.00010619253385397675,7.572642075715241e-05,-0.001458971376522779,0.6568843722343445,46.52419662475586,5.588284015655518,-19.535249710083008,-0.7730002999305725,-2.3724398612976074,0.21457235515117645,0
70,0.34499502182006836,-0.6568843722343445,-46.54800033569336,-5.588284015655518,19.535249710083008,0.7730002999305725,2.3724398612976074,-0.20724813640117645,0.0,0.0,0.0,0.0,0.0,0.0,0.0,-0.6547074621245957,-0.23312071850585797,-0.398021941460818,0.31718629934252235,0.1891568360185261,0.10392997548342224,-0.18541720947059712,0.8780111794518201,0.7554221292806259,-0.2824963117984303,-1.66905747632813,0.14140614652951666,2.403575020902131,1.0273491345958576,0.878092876070424,0.7554597494309409,-0.2825552651693207,-1.6690993614607135,0.1414185955172306,2.4034451173676383,1.0273381002308042,0.000413419814326144,-0.0004128160134999437,0.0004937652528738931,3.884128188161625e-05,0.00016952196667268583,3.4320970446847444e-05,0.0006477588243726956,0.0,0.0,0.0,0.0,0.0,0.0,0.0,8.169661860391031e-05,3.7620150314943146e-05,-5.89533708904022e-05,-4.188513258340798e-05,1.2448987713936654e-05,-0.00012990353449282566,-1.1034365053452788e-05,-0.000413419814326144,0.0004128160134999437,-0.0004937652528738931,-3.884128188161625e-05,-0.00016952196667268583,-3.4320970446847444e-05,-0.0006477588243726956,0.6568843722343445,46.54800033569336,5.588284015655518,-19.535249710083008,-0.7730002999305725,-2.3724398612976074,0.20724813640117645,0
71,0.34998345375061035,-0.6568843722343445,-46.54800033569336,-5.588284015655518,19.535249710083008,0.7730002999305725,2.3724398612976074,-0.20724813640117645,0.0,0.0,0.0,0.0,0.0,0.0,0.0,-0.6547074621245957,-0.23312071850585797,-0.398021941460818,0.31718629934252235,0.1891568360185261,0.10392997548342224,-0.18541720947059712,0.8780111794518201,0.7554221292806259,-0.2824963117984303,-1.66905747632813,0.14140614652951666,2.403575020902131,1.0273491345958576,0.878092876070424,0.7554597494309409,-0.2825552651693207,-1.6690993614607135,0.1414185955172306,2.4034451173676383,1.0273381002308042,0.000413419814326144,-0.0004128160134999437,0.0004937652528738931,3.884128188161625e-05,0.00016952196667268583,3.4320970446847444e-05,0.0006477588243726956,0.0,0.0,0.0,0.0,0.0,0.0,0.0,8.169661860391031e-05,3.7620150314943146e-05,-5.89533708904022e-05,-4.188513258340798e-05,1.2448987713936654e-05,-0.00012990353449282566,-1.1034365053452788e-05,-0.000413419814326144,0.0004128160134999437,-0.0004937652528738931,-3.884128188161625e-05,-0.00016952196667268583,-3.4320970446847444e-05,-0.0006477588243726956,0.6568843722343445,46.54800033569336,5.588284015655518,-19.535249710083008,-0.7730002999305725,-2.3724398612976074,0.20724813640117645,0
72,0.35498547554016113,-0.6291133761405945,-46.52419662475586,-5.564480304718018,19.535249710083008,0.7784934639930725,2.3660311698913574,-0.21457235515117645,0.0,0.0,0.0,0.0,0.0,0.0,0.0,-0.6568218820054954,-0.2368459220990718,-0.39904657594745524,0.31852222681464015,0.18948706482567879,0.10434254117075864,-0.18622302695217668,0.8780085343811292,0.7554204578817991,-0.28249798223428557,-1.66905747632813,0.14140833577802975,2.4035756893425297,1.0273499483979411,0.878092876070424,0.7554597494309409,-0.2825552651693207,-1.6690993614607135,0.1414185955172306,2.4034451173676383,1.0273381002308042,-0.0007905477708721935,-0.0012742671742227664,0.0001035222858108264,-0.00021674429772439142,-0.00016770227044996628,1.6149968198646067e-05,0.0009150013998315585,0.0,0.0,0.0,0.0,0.0,0.0,0.0,8.434168929472019e-05,3.929154914172894e-05,-5.728293503515225e-05,-4.188513258340798e-05,1.025973920085188e-05,-0.0001305719748914136,-1.1848167136951915e-05,0.0007905477708721935,0.0012742671742227664,-0.0001035222858108264,0.00021674429772439142,0.00016770227044996628,-1.6149968198646067e-05,-0.0009150013998315585,0.6291133761405945,46.52419662475586,5.564480304718018,-19.535249710083008,-0.7784934639930725,-2.3660311698913574,0.21457235515117645,0
73,0.36001086235046387,-0.6291133761405945,-46.52419662475586,-5.564480304718018,19.535249710083008,0.7784934639930725,2.3660311698913574,-0.21457235515117645,0.0,0.0,0.0,0.0,0.0,0.0,0.0,-0.6568218820054954,-0.2368459220990718,-0.39904657594745524,0.31852222681464015,0.18948706482567879,0.10434254117075864,-0.18622302695217668,0.8780085343811292,0.7554204578817991,-0.28249798223428557,-1.66905747632813,0.14140833577802975,2.4035756893425297,1.0273499483979411,0.878092876070424,0.7554597494309409,-0.2825552651693207,-1.6690993614607135,0.1414185955172306,2.4034451173676383,1.0273381002308042,-0.0007905477708721935,-0.0012742671742227664,0.0001035222858108264,-0.00021674429772439142,-0.00016770227044996628,1.6149968198646067e-05,0.0009150013998315585,0.0,0.0,0.0,0.0,0.0,0.0,0.0,8.434168929472019e-05,3.929154914172894e-05,-5.728293503515225e-05,-4.188513258340798e-05,1.025973920085188e-05,-0.0001305719748914136,-1.1848167136951915e-05,0.0007905477708721935,0.0012742671742227664,-0.0001035222858108264,0.00021674429772439142,0.00016770227044996628,-1.6149968198646067e-05,-0.0009150013998315585,0.6291133761405945,46.52419662475586,5.564480304718018,-19.535249710083008,-0.7784934639930725,-2.3660311698913574,0.21457235515117645,0
74,0.36498332023620605,-0.6568843722343445,-46.59957504272461,-5.588284015655518,19.535249710083008,0.7903953194618225,2.3724398612976074,-0.16604940593242645,0.0,0.0,0.0,0.0,0.0,0.0,0.0,-0.6586565110136468,-0.23177487564797855,-0.39984356637785434,0.31449339718668673,0.18948083790027384,0.10344135061545541,-0.18565630359578847,0.8780104745522369,0.755426449605596,-0.2824963117984303,-1.66905747632813,0.14140384584830723,2.4035750969410974,1.027344556959139,0.878092876070424,0.7554597494309409,-0.2825552651693207,-1.6690993614607135,0.1414185955172306,2.4034451173676383,1.0273381002308042,-0.0001359527399745802,0.001100702569878523,0.0003670015962706919,-0.0006439677884009954,-0.0005775860521419374,1.333513083840677e-05,-0.0010028991873499314,0.0,0.0,0.0,0.0,0.0,0.0,0.0,8.240151818705854e-05,3.3299825344834666e-05,-5.89533708904022e-05,-4.188513258340798e-05,1.4749668923369486e-05,-0.0001299795734590603,-6.456728334880424e-06,0.0001359527399745802,-0.001100702569878523,-0.0003670015962706919,0.0006439677884009954,0.0005775860521419374,-1.333513083840677e-05,0.0010028991873499314,0.6568843722343445,46.59957504272461,5.588284015655518,-19.535249710083008,-0.7903953194618225,-2.3724398612976074,0.16604940593242645,0
75,0.3700094223022461,-0.6568843722343445,-46.59957504272461,-5.588284015655518,19.535249710083008,0.7903953194618225,2.3724398612976074,-0.16604940593242645,0.0,0.0,0.0,0.0,0.0,0.0,0.0,-0.6586565110136468,-0.23177487564797855,-0.39984356637785434,0.31449339718668673,0.18948083790027384,0.10344135061545541,-0.18565630359578847,0.8780104745522369,0.755426449605596,-0.2824963117984303,-1.66905747632813,0.14140384584830723,2.4035750969410974,1.027344556959139,0.878092876070424,0.7554597494309409,-0.2825552651693207,-1.6690993614607135,0.1414185955172306,2.4034451173676383,1.0273381002308042,-0.0001359527399745802,0.001100702569878523,0.0003670015962706919,-0.0006439677884009954,-0.0005775860521419374,1.333513083840677e-05,-0.0010028991873499314,0.0,0.0,0.0,0.0,0.0,0.0,0.0,8.240151818705854e-05,3.3299825344834666e-05,-5.89533708904022e-05,-4.188513258340798e-05,1.4749668923369486e-05,-0.0001299795734590603,-6.456728334880424e-06,0.0001359527399745802,-0.001100702569878523,-0.0003670015962706919,0.0006439677884009954,0.0005775860521419374,-1.333513083840677e-05,0.0010028991873499314,0.6568843722343445,46.59957504272461,5.588284015655518,-19.535249710083008,-0.7903953194618225,-2.3724398612976074,0.16604940593242645,0
76,0.3749537467956543,-0.6053096652030945,-46.54800033569336,-5.564480304718018,19.511445999145508,0.7784934639930725,2.3596224784851074,-0.16604940593242645,0.0,0.0,0.0,0.0,0.0,0.0,0.0,-0.6416895988383318,-0.23160255055423523,-0.3893712092890369,0.31813908400788166,0.18920211652741267,0.10366546088863898,-0.1850792173866224,0.8780075572847622,0.755422362325032,-0.28249798223428557,-1.6690558058922749,0.14140422195672075,2.4035726864683644,1.027344556959139,0.878092876070424,0.7554597494309409,-0.2825552651693207,-1.6690993614607135,0.1414185955172306,2.4034451173676383,1.0273381002308042,-0.000595391973608688,0.00019335979783192638,-0.0002390202945179135,0.0007185634040529944,-0.00022604369798279124,0.00028861950465390785,-0.0009418776055515509,0.0,0.0,0.0,0.0,0.0,0.0,0.0,8.531878566175877e-05,3.738710590883709e-05,-5.728293503515225e-05,-4.355556843860242e-05,1.4373560509844951e-05,-0.00012756910072608818,-6.456728334880424e-06,0.000595391973608688,-0.00019335979783192638,0.0002390202945179135,-0.0007185634040529944,0.00022604369798279124,-0.00028861950465390785,0.0009418776055515509,0.6053096652030945,46.54800033569336,5.564480304718018,-19.511445999145508,-0.7784934639930725,-2.3596224784851074,0.16604940593242645,0
77,0.37999701499938965,-0.6053096652030945,-46.54800033569336,-5.564480304718018,19.511445999145508,0.7784934639930725,2.3596224784851074,-0.16604940593242645,0.0,0.0,0.0,0.0,0.0,0.0,0.0,-0.6416895988383318,-0.23160255055423523,-0.3893712092890369,0.31813908400788166,0.18920211652741267,0.10366546088863898,-0.1850792173866224,0.8780075572847622,0.755422362325032,-0.28249798223428557,-1.6690558058922749,0.14140422195672075,2.4035726864683644,1.027344556959139,0.878092876070424,0.7554597494309409,-0.2825552651693207,-1.6690993614607135,0.1414185955172306,2.4034451173676383,1.0273381002308042,-0.000595391973608688,0.00019335979783192638,-0.0002390202945179135,0.0007185634040529944,-0.00022604369798279124,0.00028861950465390785,-0.0009418776055515509,0.0,0.0,0.0,0.0,0.0,0.0,0.0,8.531878566175877e-05,3.738710590883709e-05,-5.728293503515225e-05,-4.355556843860242e-05,1.4373560509844951e-05,-0.00012756910072608818,-6.456728334880424e-06,0.000595391973608688,-0.00019335979783192638,0.0002390202945179135,-0.0007185634040529944,0.00022604369798279124,-0.00028861950465390785,0.0009418776055515509,0.6053096652030945,46.54800033569336,5.564480304718018,-19.511445999145508,-0.7784934639930725,-2.3596224784851074,0.16604940593242645,0
78,0.38498759269714355,-0.6053096652030945,-46.54800033569336,-5.564480304718018,19.511445999145508,0.7784934639930725,2.3596224784851074,-0.16604940593242645,0.0,0.0,0.0,0.0,0.0,0.0,0.0,-0.6416895988383318,-0.23160255055423523,-0.3893712092890369,0.31813908400788166,0.18920211652741267,0.10366546088863898,-0.1850792173866224,0.8780075572847622,0.755422362325032,-0.28249798223428557,-1.6690558058922749,0.14140422195672075,2.4035726864683644,1.027344556959139,0.878092876070424,0.7554597494309409,-0.2825552651693207,-1.6690993614607135,0.1414185955172306,2.4034451173676383,1.0273381002308042,-0.000595391973608688,0.00019335979783192638,-0.0002390202945179135,0.0007185634040529944,-0.00022604369798279124,0.00028861950465390785,-0.0009418776055515509,0.0,0.0,0.0,0.0,0.0,0.0,0.0,8.531878566175877e-05,3.738710590883709e-05,-5.728293503515225e-05,-4.355556843860242e-05,1.4373560509844951e-05,-0.00012756910072608818,-6.456728334880424e-06,0.000595391973608688,-0.00019335979783192638,0.0002390202945179135,-0.0007185634040529944,0.00022604369798279124,-0.00028861950465390785,0.0009418776055515509,0.6053096652030945,46.54800033569336,5.564480304718018,-19.511445999145508,-0.7784934639930725,-2.3596224784851074,0.16604940593242645,0
79,0.3899881839752197,-0.6053096652030945,-46.54800033569336,-5.564480304718018,19.511445999145508,0.7784934639930725,2.3596224784851074,-0.16604940593242645,0.0,0.0,0.0,0.0,0.0,0.0,0.0,-0.6416895988383318,-0.23160255055423523,-0.3893712092890369,0.31813908400788166,0.18920211652741267,0.10366546088863898,-0.1850792173866224,0.8780075572847622,0.755422362325032,-0.28249798223428557,-1.6690558058922749,0.14140422195672075,2.4035726864683644,1.027344556959139,0.878092876070424,0.7554597494309409,-0.2825552651693207,-1.6690993614607135,0.1414185955172306,2.4034451173676383,1.0273381002308042,-0.000595391973608688,0.00019335979783192638,-0.0002390202945179135,0.0007185634040529944,-0.00022604369798279124,0.00028861950465390785,-0.0009418776055515509,0.0,0.0,0.0,0.0,0.0,0.0,0.0,8.531878566175877e-05,3.738710590883709e-05,-5.728293503515225e-05,-4.355556843860242e-05,1.4373560509844951e-05,-0.00012756910072608818,-6.456728334880424e-06,0.000595391973608688,-0.00019335979783192638,0.0002390202945179135,-0.0007185634040529944,0.00022604369798279124,-0.00028861950465390785,0.0009418776055515509,0.6053096652030945,46.54800033569336,5.564480304718018,-19.511445999145508,-0.7784934639930725,-2.3596224784851074,0.16604940593242645,0
80,0.39499378204345703,-0.5815059542655945,-46.54800033569336,-5.588284015655518,19.511445999145508,0.7665916085243225,2.3724398612976074,-0.16604940593242645,0.0,0.0,0.0,0.0,0.0,0.0,0.0,-0.6492826155734216,-0.22939434652813379,-0.39524996527725587,0.3172508159155595,0.18948830970858027,0.10318969082433216,-0.18572609498188294,0.8780051848782748,0.7554221283189698,-0.2824963117984303,-1.6690558058922749,0.14140645439155097,2.4035750179438966,1.027344556959139,0.878092876070424,0.7554597494309409,-0.2825552651693207,-1.6690993614607135,0.1414185955172306,2.4034451173676383,1.0273381002308042,-0.0013574840097514349,-4.099955139190503e-05,0.0009139913015600787,0.0003236445623541793,0.00043275062853149505,-0.00019618884041831578,-0.0004018813050726868,0.0,0.0,0.0,0.0,0.0,0.0,0.0,8.769119214913079e-05,3.762111197103124e-05,-5.89533708904022e-05,-4.355556843860242e-05,1.2141125679626663e-05,-0.00012990057625827944,-6.456728334880424e-06,0.0013574840097514349,4.099955139190503e-05,-0.0009139913015600787,-0.0003236445623541793,-0.00043275062853149505,0.00019618884041831578,0.0004018813050726868,0.5815059542655945,46.54800033569336,5.588284015655518,-19.511445999145508,-0.7665916085243225,-2.3724398612976074,0.16604940593242645,0
