rezayati/contactInterpretation/dataset/franka_main/labeled_data/link1/g1_6.csv
index,time,tau_J0,tau_J1,tau_J2,tau_J3,tau_J4,tau_J5,tau_J6,tau_J_d0,tau_J_d1,tau_J_d2,tau_J_d3,tau_J_d4,tau_J_d5,tau_J_d6,tau_ext0,tau_ext1,tau_ext2,tau_ext3,tau_ext4,tau_ext5,tau_ext6,q0,q1,q2,q3,q4,q5,q6,q_d0,q_d1,q_d2,q_d3,q_d4,q_d5,q_d6,dq0,dq1,dq2,dq3,dq4,dq5,dq6,dq_d0,dq_d1,dq_d2,dq_d3,dq_d4,dq_d5,dq_d6,e0,e1,e2,e3,e4,e5,e6,de0,de1,de2,de3,de4,de5,de6,etau_J0,etau_J1,etau_J2,etau_J3,etau_J4,etau_J5,etau_J6,label
1,0.0,0.13260537385940552,-18.177942276000977,1.0688202381134033,17.999910354614258,0.4864402413368225,2.2360262870788574,-0.16604940593242645,0.0,0.0,0.0,0.0,0.0,0.0,0.0,0.17075987349446373,0.5225943246815218,0.3351814628975693,0.3510207849453463,0.06816782466469955,0.04783936326024362,-0.15120351430514314,-0.6090604736052061,-0.057526955914096546,-0.6665961369199679,-2.5945601563035394,-0.055622368128326986,2.507973178916507,0.8763146125392777,-0.6090851748156966,-0.05753196718556838,-0.666603097082616,-2.5945565370258534,-0.05562143941554,2.507976027223799,0.8763108487046415,0.0003548759706688611,0.00010561566413677639,0.0003552734683825938,-0.000639611380502919,0.0001915547898959456,-7.51004086459397e-05,0.001150173109955815,0.0,0.0,0.0,0.0,0.0,0.0,0.0,-2.4701210490474246e-05,-5.011271471837275e-06,-6.960162648117496e-06,3.61927768599557e-06,9.287127869864187e-07,2.848307291802854e-06,-3.7638346361834607e-06,-0.0003548759706688611,-0.00010561566413677639,-0.0003552734683825938,0.000639611380502919,-0.0001915547898959456,7.51004086459397e-05,-0.001150173109955815,-0.13260537385940552,18.177942276000977,-1.0688202381134033,-17.999910354614258,-0.4864402413368225,-2.2360262870788574,0.16604940593242645,0
2,0.0049970149993896484,0.18418008089065552,-18.154138565063477,1.0926239490509033,17.972139358520508,0.4809470772743225,2.2296175956726074,-0.14590780436992645,0.0,0.0,0.0,0.0,0.0,0.0,0.0,0.17640889877547375,0.5147951781129672,0.3262465241273408,0.35257726939930756,0.06742011607170299,0.04889803912363273,-0.1476285294509494,-0.6090640928828925,-0.05753078348689693,-0.6665968270465611,-2.5945582074617084,-0.05561834012935997,2.507973931692737,0.8763123745835488,-0.6090851748156966,-0.05753196718556838,-0.666603097082616,-2.5945565370258534,-0.05562143941554,2.507976027223799,0.8763108487046415,-0.00031452259166920107,-9.317349314754213e-05,7.554880615113002e-05,0.0003956516499249449,0.00048598470561669687,0.0001701831573890195,0.00012066282345242279,0.0,0.0,0.0,0.0,0.0,0.0,0.0,-2.1081932804034587e-05,-1.1836986714558462e-06,-6.270036054911721e-06,1.6704358549723963e-06,-3.099286180030525e-06,2.0955310620074385e-06,-1.5258789073380186e-06,0.00031452259166920107,9.317349314754213e-05,-7.554880615113002e-05,-0.0003956516499249449,-0.00048598470561669687,-0.0001701831573890195,-0.00012066282345242279,-0.18418008089065552,18.154138565063477,-1.0926239490509033,-17.972139358520508,-0.4809470772743225,-2.2296175956726074,0.14590780436992645,0
3,0.010011434555053711,0.18418008089065552,-18.154138565063477,1.0926239490509033,17.972139358520508,0.4809470772743225,2.2296175956726074,-0.14590780436992645,0.0,0.0,0.0,0.0,0.0,0.0,0.0,0.17640889877547375,0.5147951781129672,0.3262465241273408,0.35257726939930756,0.06742011607170299,0.04889803912363273,-0.1476285294509494,-0.6090640928828925,-0.05753078348689693,-0.6665968270465611,-2.5945582074617084,-0.05561834012935997,2.507973931692737,0.8763123745835488,-0.6090851748156966,-0.05753196718556838,-0.666603097082616,-2.5945565370258534,-0.05562143941554,2.507976027223799,0.8763108487046415,-0.00031452259166920107,-9.317349314754213e-05,7.554880615113002e-05,0.0003956516499249449,0.00048598470561669687,0.0001701831573890195,0.00012066282345242279,0.0,0.0,0.0,0.0,0.0,0.0,0.0,-2.1081932804034587e-05,-1.1836986714558462e-06,-6.270036054911721e-06,1.6704358549723963e-06,-3.099286180030525e-06,2.0955310620074385e-06,-1.5258789073380186e-06,0.00031452259166920107,9.317349314754213e-05,-7.554880615113002e-05,-0.0003956516499249449,-0.00048598470561669687,-0.0001701831573890195,-0.00012066282345242279,-0.18418008089065552,18.154138565063477,-1.0926239490509033,-17.972139358520508,-0.4809470772743225,-2.2296175956726074,0.14590780436992645,0
4,0.01501321792602539,0.21195107698440552,-18.130334854125977,1.1918060779571533,17.972139358520508,0.4928489327430725,2.2296175956726074,-0.14590780436992645,0.0,0.0,0.0,0.0,0.0,0.0,0.0,0.16815109615295337,0.5085595964731476,0.3111136837610803,0.3519314515791311,0.06797450539221407,0.04905339758442574,-0.14629777687267415,-0.6090660407435773,-0.05753135783477235,-0.6666047671629322,-2.5945584547106053,-0.05562203030636246,2.507973891478536,0.8763122568459789,-0.6090851748156966,-0.05753196718556838,-0.666603097082616,-2.5945565370258534,-0.05562143941554,2.507976027223799,0.8763108487046415,-0.0011145378254905076,-0.0005651322104324406,-0.0016815304401847336,1.2292688677770506e-05,8.745950626473772e-05,0.00024591765112519023,9.0287446667116e-05,0.0,0.0,0.0,0.0,0.0,0.0,0.0,-1.913407211928675e-05,-6.093507960366895e-07,1.6700803161517896e-06,1.917684751884252e-06,5.908908224591669e-07,2.1357452628656404e-06,-1.4081413374222862e-06,0.0011145378254905076,0.0005651322104324406,0.0016815304401847336,-1.2292688677770506e-05,-8.745950626473772e-05,-0.00024591765112519023,-9.0287446667116e-05,-0.21195107698440552,18.130334854125977,-1.1918060779571533,-17.972139358520508,-0.4928489327430725,-2.2296175956726074,0.14590780436992645,0
5,0.019998788833618164,0.21195107698440552,-18.130334854125977,1.1918060779571533,17.972139358520508,0.4928489327430725,2.2296175956726074,-0.14590780436992645,0.0,0.0,0.0,0.0,0.0,0.0,0.0,0.16815109615295337,0.5085595964731476,0.3111136837610803,0.3519314515791311,0.06797450539221407,0.04905339758442574,-0.14629777687267415,-0.6090660407435773,-0.05753135783477235,-0.6666047671629322,-2.5945584547106053,-0.05562203030636246,2.507973891478536,0.8763122568459789,-0.6090851748156966,-0.05753196718556838,-0.666603097082616,-2.5945565370258534,-0.05562143941554,2.507976027223799,0.8763108487046415,-0.0011145378254905076,-0.0005651322104324406,-0.0016815304401847336,1.2292688677770506e-05,8.745950626473772e-05,0.00024591765112519023,9.0287446667116e-05,0.0,0.0,0.0,0.0,0.0,0.0,0.0,-1.913407211928675e-05,-6.093507960366895e-07,1.6700803161517896e-06,1.917684751884252e-06,5.908908224591669e-07,2.1357452628656404e-06,-1.4081413374222862e-06,0.0011145378254905076,0.0005651322104324406,0.0016815304401847336,-1.2292688677770506e-05,-8.745950626473772e-05,-0.00024591765112519023,-9.0287446667116e-05,-0.21195107698440552,18.130334854125977,-1.1918060779571533,-17.972139358520508,-0.4928489327430725,-2.2296175956726074,0.14590780436992645,0
6,0.025002479553222656,0.21195107698440552,-18.130334854125977,1.2156097888946533,17.972139358520508,0.4864402413368225,2.2360262870788574,-0.13217489421367645,0.0,0.0,0.0,0.0,0.0,0.0,0.0,0.17965052682360566,0.5135929650333453,0.32742733996448964,0.3532130150959633,0.06797257824972891,0.04868737695462976,-0.1444258444550154,-0.6090660417247181,-0.05753064848987961,-0.6666064378334198,-2.594558207463104,-0.05562095254305141,2.50797317891651,0.876310848703978,-0.6090851748156966,-0.05753196718556838,-0.666603097082616,-2.5945565370258534,-0.05562143941554,2.507976027223799,0.8763108487046415,-0.00016015761290964317,0.0001514132884479684,4.01175211566877e-05,0.0004884994561159002,0.0002538883798355966,-0.0002036888449251409,1.5870479721836858e-06,0.0,0.0,0.0,0.0,0.0,0.0,0.0,-1.9133090978451506e-05,-1.3186956887706325e-06,3.340750803770831e-06,1.6704372507447829e-06,-4.868724885892517e-07,2.8483072891383188e-06,6.634692795159935e-13,0.00016015761290964317,-0.0001514132884479684,-4.01175211566877e-05,-0.0004884994561159002,-0.0002538883798355966,0.0002036888449251409,-1.5870479721836858e-06,-0.21195107698440552,18.130334854125977,-1.2156097888946533,-17.972139358520508,-0.4864402413368225,-2.2360262870788574,0.13217489421367645,0
7,0.02999567985534668,0.21195107698440552,-18.130334854125977,1.2156097888946533,17.972139358520508,0.4864402413368225,2.2360262870788574,-0.13217489421367645,0.0,0.0,0.0,0.0,0.0,0.0,0.0,0.17965052682360566,0.5135929650333453,0.32742733996448964,0.3532130150959633,0.06797257824972891,0.04868737695462976,-0.1444258444550154,-0.6090660417247181,-0.05753064848987961,-0.6666064378334198,-2.594558207463104,-0.05562095254305141,2.50797317891651,0.876310848703978,-0.6090851748156966,-0.05753196718556838,-0.666603097082616,-2.5945565370258534,-0.05562143941554,2.507976027223799,0.8763108487046415,-0.00016015761290964317,0.0001514132884479684,4.01175211566877e-05,0.0004884994561159002,0.0002538883798355966,-0.0002036888449251409,1.5870479721836858e-06,0.0,0.0,0.0,0.0,0.0,0.0,0.0,-1.9133090978451506e-05,-1.3186956887706325e-06,3.340750803770831e-06,1.6704372507447829e-06,-4.868724885892517e-07,2.8483072891383188e-06,6.634692795159935e-13,0.00016015761290964317,-0.0001514132884479684,-4.01175211566877e-05,-0.0004884994561159002,-0.0002538883798355966,0.0002036888449251409,-1.5870479721836858e-06,-0.21195107698440552,18.130334854125977,-1.2156097888946533,-17.972139358520508,-0.4864402413368225,-2.2360262870788574,0.13217489421367645,0
8,0.03499412536621094,0.21195107698440552,-18.054956436157227,1.2156097888946533,17.999910354614258,0.4983420968055725,2.2424349784851074,-0.13858358561992645,0.0,0.0,0.0,0.0,0.0,0.0,0.0,0.1728132850801186,0.5277059178333328,0.33315473773842197,0.3488501236268404,0.06888821257095773,0.047064130176097105,-0.1426217425332584,-0.6090660417247237,-0.05753559631682858,-0.6666064379424373,-2.5945601563035394,-0.055622758457953086,2.5079735662081872,0.8763115601354433,-0.6090851748156966,-0.05753196718556838,-0.666603097082616,-2.5945565370258534,-0.05562143941554,2.507976027223799,0.8763108487046415,-0.0005748212583146573,-0.00032943800173760305,-6.778178876939536e-06,-0.0005439900006854728,-0.0003159988384421603,-0.0003327054045068057,-8.590549341450211e-05,0.0,0.0,0.0,0.0,0.0,0.0,0.0,-1.913309097290039e-05,3.6291312601952064e-06,3.340859821343578e-06,3.61927768599557e-06,1.3190424130865575e-06,2.461015611743278e-06,-7.114308018252302e-07,0.0005748212583146573,0.00032943800173760305,6.778178876939536e-06,0.0005439900006854728,0.0003159988384421603,0.0003327054045068057,8.590549341450211e-05,-0.21195107698440552,18.054956436157227,-1.2156097888946533,-17.999910354614258,-0.4983420968055725,-2.2424349784851074,0.13858358561992645,0
9,0.03994321823120117,0.21195107698440552,-18.054956436157227,1.2156097888946533,17.999910354614258,0.4983420968055725,2.2424349784851074,-0.13858358561992645,0.0,0.0,0.0,0.0,0.0,0.0,0.0,0.1728132850801186,0.5277059178333328,0.33315473773842197,0.3488501236268404,0.06888821257095773,0.047064130176097105,-0.1426217425332584,-0.6090660417247237,-0.05753559631682858,-0.6666064379424373,-2.5945601563035394,-0.055622758457953086,2.5079735662081872,0.8763115601354433,-0.6090851748156966,-0.05753196718556838,-0.666603097082616,-2.5945565370258534,-0.05562143941554,2.507976027223799,0.8763108487046415,-0.0005748212583146573,-0.00032943800173760305,-6.778178876939536e-06,-0.0005439900006854728,-0.0003159988384421603,-0.0003327054045068057,-8.590549341450211e-05,0.0,0.0,0.0,0.0,0.0,0.0,0.0,-1.913309097290039e-05,3.6291312601952064e-06,3.340859821343578e-06,3.61927768599557e-06,1.3190424130865575e-06,2.461015611743278e-06,-7.114308018252302e-07,0.0005748212583146573,0.00032943800173760305,6.778178876939536e-06,0.0005439900006854728,0.0003159988384421603,0.0003327054045068057,8.590549341450211e-05,-0.21195107698440552,18.054956436157227,-1.2156097888946533,-17.999910354614258,-0.4983420968055725,-2.2424349784851074,0.13858358561992645,0
10,0.04499983787536621,0.21195107698440552,-18.054956436157227,1.2156097888946533,17.999910354614258,0.4983420968055725,2.2424349784851074,-0.13858358561992645,0.0,0.0,0.0,0.0,0.0,0.0,0.0,0.1728132850801186,0.5277059178333328,0.33315473773842197,0.3488501236268404,0.06888821257095773,0.047064130176097105,-0.1426217425332584,-0.6090660417247237,-0.05753559631682858,-0.6666064379424373,-2.5945601563035394,-0.055622758457953086,2.5079735662081872,0.8763115601354433,-0.6090851748156966,-0.05753196718556838,-0.666603097082616,-2.5945565370258534,-0.05562143941554,2.507976027223799,0.8763108487046415,-0.0005748212583146573,-0.00032943800173760305,-6.778178876939536e-06,-0.0005439900006854728,-0.0003159988384421603,-0.0003327054045068057,-8.590549341450211e-05,0.0,0.0,0.0,0.0,0.0,0.0,0.0,-1.913309097290039e-05,3.6291312601952064e-06,3.340859821343578e-06,3.61927768599557e-06,1.3190424130865575e-06,2.461015611743278e-06,-7.114308018252302e-07,0.0005748212583146573,0.00032943800173760305,6.778178876939536e-06,0.0005439900006854728,0.0003159988384421603,0.0003327054045068057,8.590549341450211e-05,-0.21195107698440552,18.054956436157227,-1.2156097888946533,-17.999910354614258,-0.4983420968055725,-2.2424349784851074,0.13858358561992645,0
11,0.04999518394470215,0.21195107698440552,-18.054956436157227,1.2156097888946533,17.999910354614258,0.4983420968055725,2.2424349784851074,-0.13858358561992645,0.0,0.0,0.0,0.0,0.0,0.0,0.0,0.1728132850801186,0.5277059178333328,0.33315473773842197,0.3488501236268404,0.06888821257095773,0.047064130176097105,-0.1426217425332584,-0.6090660417247237,-0.05753559631682858,-0.6666064379424373,-2.5945601563035394,-0.055622758457953086,2.5079735662081872,0.8763115601354433,-0.6090851748156966,-0.05753196718556838,-0.666603097082616,-2.5945565370258534,-0.05562143941554,2.507976027223799,0.8763108487046415,-0.0005748212583146573,-0.00032943800173760305,-6.778178876939536e-06,-0.0005439900006854728,-0.0003159988384421603,-0.0003327054045068057,-8.590549341450211e-05,0.0,0.0,0.0,0.0,0.0,0.0,0.0,-1.913309097290039e-05,3.6291312601952064e-06,3.340859821343578e-06,3.61927768599557e-06,1.3190424130865575e-06,2.461015611743278e-06,-7.114308018252302e-07,0.0005748212583146573,0.00032943800173760305,6.778178876939536e-06,0.0005439900006854728,0.0003159988384421603,0.0003327054045068057,8.590549341450211e-05,-0.21195107698440552,18.054956436157227,-1.2156097888946533,-17.999910354614258,-0.4983420968055725,-2.2424349784851074,0.13858358561992645,0
12,0.054995059967041016,0.18418008089065552,-18.106531143188477,1.2156097888946533,17.999910354614258,0.4928489327430725,2.2424349784851074,-0.12485067546367645,0.0,0.0,0.0,0.0,0.0,0.0,0.0,0.17270444120572578,0.528362352653565,0.3423993976907058,0.3542156960138846,0.06907409799598606,0.04846468464155823,-0.14114593421844926,-0.6090640927738763,-0.05753490039677408,-0.6666064379424379,-2.5945601563035394,-0.05561984803619349,2.5079724668458905,0.876310030541905,-0.6090851748156966,-0.05753196718556838,-0.666603097082616,-2.5945565370258534,-0.05562143941554,2.507976027223799,0.8763108487046415,0.0002949165558562281,0.00035453255841885143,-0.0009102950855014582,-0.00046352697205829537,9.677822415385504e-05,-0.00040473054704798337,-0.000343092127392154,0.0,0.0,0.0,0.0,0.0,0.0,0.0,-2.1082041820275066e-05,2.9332112056953963e-06,3.3408598218986896e-06,3.61927768599557e-06,-1.5913793465077708e-06,3.5603779084958376e-06,8.181627364489685e-07,-0.0002949165558562281,-0.00035453255841885143,0.0009102950855014582,0.00046352697205829537,-9.677822415385504e-05,0.00040473054704798337,0.000343092127392154,-0.18418008089065552,18.106531143188477,-1.2156097888946533,-17.999910354614258,-0.4928489327430725,-2.2424349784851074,0.12485067546367645,0
13,0.06000041961669922,0.18418008089065552,-18.106531143188477,1.2156097888946533,17.999910354614258,0.4928489327430725,2.2424349784851074,-0.12485067546367645,0.0,0.0,0.0,0.0,0.0,0.0,0.0,0.17270444120572578,0.528362352653565,0.3423993976907058,0.3542156960138846,0.06907409799598606,0.04846468464155823,-0.14114593421844926,-0.6090640927738763,-0.05753490039677408,-0.6666064379424379,-2.5945601563035394,-0.05561984803619349,2.5079724668458905,0.876310030541905,-0.6090851748156966,-0.05753196718556838,-0.666603097082616,-2.5945565370258534,-0.05562143941554,2.507976027223799,0.8763108487046415,0.0002949165558562281,0.00035453255841885143,-0.0009102950855014582,-0.00046352697205829537,9.677822415385504e-05,-0.00040473054704798337,-0.000343092127392154,0.0,0.0,0.0,0.0,0.0,0.0,0.0,-2.1082041820275066e-05,2.9332112056953963e-06,3.3408598218986896e-06,3.61927768599557e-06,-1.5913793465077708e-06,3.5603779084958376e-06,8.181627364489685e-07,-0.0002949165558562281,-0.00035453255841885143,0.0009102950855014582,0.00046352697205829537,-9.677822415385504e-05,0.00040473054704798337,0.000343092127392154,-0.18418008089065552,18.106531143188477,-1.2156097888946533,-17.999910354614258,-0.4928489327430725,-2.2424349784851074,0.12485067546367645,0
14,0.06500983238220215,0.18418008089065552,-18.154138565063477,1.1680023670196533,17.972139358520508,0.4928489327430725,2.2296175956726074,-0.13858358561992645,0.0,0.0,0.0,0.0,0.0,0.0,0.0,0.1731160359641565,0.5233053863821154,0.3454947997511536,0.363423986968263,0.06922186700850907,0.05015403185924517,-0.14031266654972108,-0.6090640928828919,-0.05752871438124089,-0.6666030970707273,-2.5945582074617084,-0.055621677859004306,2.507973905690338,0.8763115592740556,-0.6090851748156966,-0.05753196718556838,-0.666603097082616,-2.5945565370258534,-0.05562143941554,2.507976027223799,0.8763108487046415,0.00012011099962816413,-0.00035417171730385853,-0.0005499633157501663,0.000791621814618841,3.4831458571744155e-05,0.00023511979761194033,-0.0007965032458319879,0.0,0.0,0.0,0.0,0.0,0.0,0.0,-2.108193280470072e-05,-3.2528043274956953e-06,-1.1888712236896026e-11,1.6704358549723963e-06,2.3844346430657026e-07,2.1215334609081538e-06,-7.10569414086315e-07,-0.00012011099962816413,0.00035417171730385853,0.0005499633157501663,-0.000791621814618841,-3.4831458571744155e-05,-0.00023511979761194033,0.0007965032458319879,-0.18418008089065552,18.154138565063477,-1.1680023670196533,-17.972139358520508,-0.4928489327430725,-2.2296175956726074,0.13858358561992645,0
15,0.06999993324279785,0.18418008089065552,-18.154138565063477,1.1680023670196533,17.972139358520508,0.4928489327430725,2.2296175956726074,-0.13858358561992645,0.0,0.0,0.0,0.0,0.0,0.0,0.0,0.1731160359641565,0.5233053863821154,0.3454947997511536,0.363423986968263,0.06922186700850907,0.05015403185924517,-0.14031266654972108,-0.6090640928828919,-0.05752871438124089,-0.6666030970707273,-2.5945582074617084,-0.055621677859004306,2.507973905690338,0.8763115592740556,-0.6090851748156966,-0.05753196718556838,-0.666603097082616,-2.5945565370258534,-0.05562143941554,2.507976027223799,0.8763108487046415,0.00012011099962816413,-0.00035417171730385853,-0.0005499633157501663,0.000791621814618841,3.4831458571744155e-05,0.00023511979761194033,-0.0007965032458319879,0.0,0.0,0.0,0.0,0.0,0.0,0.0,-2.108193280470072e-05,-3.2528043274956953e-06,-1.1888712236896026e-11,1.6704358549723963e-06,2.3844346430657026e-07,2.1215334609081538e-06,-7.10569414086315e-07,-0.00012011099962816413,0.00035417171730385853,0.0005499633157501663,-0.000791621814618841,-3.4831458571744155e-05,-0.00023511979761194033,0.0007965032458319879,-0.18418008089065552,18.154138565063477,-1.1680023670196533,-17.972139358520508,-0.4928489327430725,-2.2296175956726074,0.13858358561992645,0
16,0.07500076293945312,0.16037636995315552,-18.205713272094727,1.1441986560821533,17.972139358520508,0.4809470772743225,2.2360262870788574,-0.13217489421367645,0.0,0.0,0.0,0.0,0.0,0.0,0.0,0.1866489573156457,0.5354312653827457,0.3544399469550016,0.35099536783016744,0.06846816079795477,0.04811116393581811,-0.14200806653773235,-0.6090624224470372,-0.05752536071951104,-0.6665992808676602,-2.5945582074617084,-0.05562069262271486,2.507976357830978,0.8763108351381652,-0.6090851748156966,-0.05753196718556838,-0.666603097082616,-2.5945565370258534,-0.05562143941554,2.507976027223799,0.8763108487046415,0.0007981193788781815,0.001025025425442651,0.0006711063055816355,-0.00011082159963292509,0.0005148782190210128,-0.000296419401188297,-2.116640682811773e-05,0.0,0.0,0.0,0.0,0.0,0.0,0.0,-2.275236865934005e-05,-6.606466057344773e-06,-3.81621495582074e-06,1.6704358549723963e-06,-7.467928251417288e-07,-3.306071789666021e-07,1.3566476275705952e-08,-0.0007981193788781815,-0.001025025425442651,-0.0006711063055816355,0.00011082159963292509,-0.0005148782190210128,0.000296419401188297,2.116640682811773e-05,-0.16037636995315552,18.205713272094727,-1.1441986560821533,-17.972139358520508,-0.4809470772743225,-2.2360262870788574,0.13217489421367645,0
17,0.07999777793884277,0.16037636995315552,-18.205713272094727,1.1441986560821533,17.972139358520508,0.4809470772743225,2.2360262870788574,-0.13217489421367645,0.0,0.0,0.0,0.0,0.0,0.0,0.0,0.1866489573156457,0.5354312653827457,0.3544399469550016,0.35099536783016744,0.06846816079795477,0.04811116393581811,-0.14200806653773235,-0.6090624224470372,-0.05752536071951104,-0.6665992808676602,-2.5945582074617084,-0.05562069262271486,2.507976357830978,0.8763108351381652,-0.6090851748156966,-0.05753196718556838,-0.666603097082616,-2.5945565370258534,-0.05562143941554,2.507976027223799,0.8763108487046415,0.0007981193788781815,0.001025025425442651,0.0006711063055816355,-0.00011082159963292509,0.0005148782190210128,-0.000296419401188297,-2.116640682811773e-05,0.0,0.0,0.0,0.0,0.0,0.0,0.0,-2.275236865934005e-05,-6.606466057344773e-06,-3.81621495582074e-06,1.6704358549723963e-06,-7.467928251417288e-07,-3.306071789666021e-07,1.3566476275705952e-08,-0.0007981193788781815,-0.001025025425442651,-0.0006711063055816355,0.00011082159963292509,-0.0005148782190210128,0.000296419401188297,2.116640682811773e-05,-0.16037636995315552,18.205713272094727,-1.1441986560821533,-17.972139358520508,-0.4809470772743225,-2.2360262870788574,0.13217489421367645,0
18,0.08499884605407715,0.16037636995315552,-18.130334854125977,1.1441986560821533,17.999910354614258,0.4864402413368225,2.2360262870788574,-0.14590780436992645,0.0,0.0,0.0,0.0,0.0,0.0,0.0,0.17768262632963938,0.5214594196870571,0.343452979950849,0.3564633689775321,0.0690833062350132,0.04869503849856502,-0.14226912201879435,-0.6090624224470372,-0.05753030552070577,-0.6666014222621085,-2.5945601563035394,-0.05562236904172765,2.507973183295103,0.876311314945343,-0.6090851748156966,-0.05753196718556838,-0.666603097082616,-2.5945565370258534,-0.05562143941554,2.507976027223799,0.8763108487046415,9.324533838189327e-05,-0.0010626781966820821,-0.00025467817447655196,5.905917910989588e-05,0.00040611999648333983,-0.0001854507369911376,7.469662750447481e-06,0.0,0.0,0.0,0.0,0.0,0.0,0.0,-2.275236865934005e-05,-1.6616648626163744e-06,-1.6748205075023392e-06,3.61927768599557e-06,9.296261876470813e-07,2.843928696094622e-06,-4.662407014910386e-07,-9.324533838189327e-05,0.0010626781966820821,0.00025467817447655196,-5.905917910989588e-05,-0.00040611999648333983,0.0001854507369911376,-7.469662750447481e-06,-0.16037636995315552,18.130334854125977,-1.1441986560821533,-17.999910354614258,-0.4864402413368225,-2.2360262870788574,0.14590780436992645,0
19,0.08999896049499512,0.16037636995315552,-18.130334854125977,1.1441986560821533,17.999910354614258,0.4864402413368225,2.2360262870788574,-0.14590780436992645,0.0,0.0,0.0,0.0,0.0,0.0,0.0,0.17768262632963938,0.5214594196870571,0.343452979950849,0.3564633689775321,0.0690833062350132,0.04869503849856502,-0.14226912201879435,-0.6090624224470372,-0.05753030552070577,-0.6666014222621085,-2.5945601563035394,-0.05562236904172765,2.507973183295103,0.876311314945343,-0.6090851748156966,-0.05753196718556838,-0.666603097082616,-2.5945565370258534,-0.05562143941554,2.507976027223799,0.8763108487046415,9.324533838189327e-05,-0.0010626781966820821,-0.00025467817447655196,5.905917910989588e-05,0.00040611999648333983,-0.0001854507369911376,7.469662750447481e-06,0.0,0.0,0.0,0.0,0.0,0.0,0.0,-2.275236865934005e-05,-1.6616648626163744e-06,-1.6748205075023392e-06,3.61927768599557e-06,9.296261876470813e-07,2.843928696094622e-06,-4.662407014910386e-07,-9.324533838189327e-05,0.0010626781966820821,0.00025467817447655196,-5.905917910989588e-05,-0.00040611999648333983,0.0001854507369911376,-7.469662750447481e-06,-0.16037636995315552,18.130334854125977,-1.1441986560821533,-17.999910354614258,-0.4864402413368225,-2.2360262870788574,0.14590780436992645,0
20,0.0950002670288086,0.16037636995315552,-18.177942276000977,1.0688202381134033,17.972139358520508,0.5102439522743225,2.2296175956726074,-0.15964071452617645,0.0,0.0,0.0,0.0,0.0,0.0,0.0,0.17069631542206395,0.5100433220839278,0.3345006884190417,0.35985163512702595,0.06939164002388631,0.04898419008363882,-0.14236445320417201,-0.6090624224470372,-0.05752703479901695,-0.6665961359401593,-2.5945582074617084,-0.05562146862808834,2.5079770699077426,0.8763107215420853,-0.6090851748156966,-0.05753196718556838,-0.666603097082616,-2.5945565370258534,-0.05562143941554,2.507976027223799,0.8763108487046415,-0.00038841878082364497,-0.00012401296199139944,0.0009207473665195002,0.0006188629587986468,-0.0005928674559244584,0.00026124648293370325,0.001024864403446775,0.0,0.0,0.0,0.0,0.0,0.0,0.0,-2.275236865934005e-05,-4.932386551435852e-06,-6.96114245668511e-06,1.6704358549723963e-06,2.9212548338652944e-08,-1.0426839436306068e-06,1.2716255615163874e-07,0.00038841878082364497,0.00012401296199139944,-0.0009207473665195002,-0.0006188629587986468,0.0005928674559244584,-0.00026124648293370325,-0.001024864403446775,-0.16037636995315552,18.177942276000977,-1.0688202381134033,-17.972139358520508,-0.5102439522743225,-2.2296175956726074,0.15964071452617645,0
21,0.09999918937683105,0.16037636995315552,-18.177942276000977,1.0688202381134033,17.972139358520508,0.5102439522743225,2.2296175956726074,-0.15964071452617645,0.0,0.0,0.0,0.0,0.0,0.0,0.0,0.17069631542206395,0.5100433220839278,0.3345006884190417,0.35985163512702595,0.06939164002388631,0.04898419008363882,-0.14236445320417201,-0.6090624224470372,-0.05752703479901695,-0.6665961359401593,-2.5945582074617084,-0.05562146862808834,2.5079770699077426,0.8763107215420853,-0.6090851748156966,-0.05753196718556838,-0.666603097082616,-2.5945565370258534,-0.05562143941554,2.507976027223799,0.8763108487046415,-0.00038841878082364497,-0.00012401296199139944,0.0009207473665195002,0.0006188629587986468,-0.0005928674559244584,0.00026124648293370325,0.001024864403446775,0.0,0.0,0.0,0.0,0.0,0.0,0.0,-2.275236865934005e-05,-4.932386551435852e-06,-6.96114245668511e-06,1.6704358549723963e-06,2.9212548338652944e-08,-1.0426839436306068e-06,1.2716255615163874e-07,0.00038841878082364497,0.00012401296199139944,-0.0009207473665195002,-0.0006188629587986468,0.0005928674559244584,-0.00026124648293370325,-0.001024864403446775,-0.16037636995315552,18.177942276000977,-1.0688202381134033,-17.972139358520508,-0.5102439522743225,-2.2296175956726074,0.15964071452617645,0
22,0.10499835014343262,0.13260537385940552,-18.205713272094727,1.1164276599884033,17.948335647583008,0.4864402413368225,2.2488436698913574,-0.15964071452617645,0.0,0.0,0.0,0.0,0.0,0.0,0.0,0.1706894181403241,0.5132215712178468,0.3293619357449591,0.3517309321055939,0.0696659627602556,0.047918620805058584,-0.14202010226472414,-0.6090604736052061,-0.057525034318829174,-0.6665994773569593,-2.5945565370258534,-0.05561823199197501,2.5079749337310844,0.8763128362483341,-0.6090851748156966,-0.05753196718556838,-0.666603097082616,-2.5945565370258534,-0.05562143941554,2.507976027223799,0.8763108487046415,0.00022316874738200932,0.0008956567167167544,-0.00025453203855628964,0.00038253406688569655,0.00034479848559526165,-0.0006496266310591777,0.0003528498569190474,0.0,0.0,0.0,0.0,0.0,0.0,0.0,-2.4701210490474246e-05,-6.932866739209342e-06,-3.6197256566561364e-06,0.0,-3.2074235649867666e-06,1.0934927145989093e-06,-1.987543692627547e-06,-0.00022316874738200932,-0.0008956567167167544,0.00025453203855628964,-0.00038253406688569655,-0.00034479848559526165,0.0006496266310591777,-0.0003528498569190474,-0.13260537385940552,18.205713272094727,-1.1164276599884033,-17.948335647583008,-0.4864402413368225,-2.2488436698913574,0.15964071452617645,0
23,0.10999894142150879,0.13260537385940552,-18.205713272094727,1.1164276599884033,17.948335647583008,0.4864402413368225,2.2488436698913574,-0.15964071452617645,0.0,0.0,0.0,0.0,0.0,0.0,0.0,0.1706894181403241,0.5132215712178468,0.3293619357449591,0.3517309321055939,0.0696659627602556,0.047918620805058584,-0.14202010226472414,-0.6090604736052061,-0.057525034318829174,-0.6665994773569593,-2.5945565370258534,-0.05561823199197501,2.5079749337310844,0.8763128362483341,-0.6090851748156966,-0.05753196718556838,-0.666603097082616,-2.5945565370258534,-0.05562143941554,2.507976027223799,0.8763108487046415,0.00022316874738200932,0.0008956567167167544,-0.00025453203855628964,0.00038253406688569655,0.00034479848559526165,-0.0006496266310591777,0.0003528498569190474,0.0,0.0,0.0,0.0,0.0,0.0,0.0,-2.4701210490474246e-05,-6.932866739209342e-06,-3.6197256566561364e-06,0.0,-3.2074235649867666e-06,1.0934927145989093e-06,-1.987543692627547e-06,-0.00022316874738200932,-0.0008956567167167544,0.00025453203855628964,-0.00038253406688569655,-0.00034479848559526165,0.0006496266310591777,-0.0003528498569190474,-0.13260537385940552,18.205713272094727,-1.1164276599884033,-17.948335647583008,-0.4864402413368225,-2.2488436698913574,0.15964071452617645,0
24,0.11499738693237305,0.21195107698440552,-18.130334854125977,1.1441986560821533,17.972139358520508,0.4928489327430725,2.2296175956726074,-0.17337362468242645,0.0,0.0,0.0,0.0,0.0,0.0,0.0,0.17255944366055148,0.5168343951078375,0.32656639088213935,0.35322848724810435,0.06926664795951293,0.04897638076748151,-0.1425722328505731,-0.6090660417247237,-0.05753317312493141,-0.6666014256173846,-2.5945582074617084,-0.05561854737486943,2.507973891011275,0.8763143259439825,-0.6090851748156966,-0.05753196718556838,-0.666603097082616,-2.5945565370258534,-0.05562143941554,2.507976027223799,0.8763108487046415,-0.0014126279235955673,0.0004897381528319896,-0.0004046555656320968,0.00046354316542696056,-0.0002198625255639906,6.692635645176963e-05,0.0013680483611741557,0.0,0.0,0.0,0.0,0.0,0.0,0.0,-1.913309097290039e-05,1.205939363028985e-06,-1.671465231445346e-06,1.6704358549723963e-06,-2.8920406705684742e-06,2.136212523762282e-06,-3.4772393410209546e-06,0.0014126279235955673,-0.0004897381528319896,0.0004046555656320968,-0.00046354316542696056,0.0002198625255639906,-6.692635645176963e-05,-0.0013680483611741557,-0.21195107698440552,18.130334854125977,-1.1441986560821533,-17.972139358520508,-0.4928489327430725,-2.2296175956726074,0.17337362468242645,0
25,0.12001395225524902,0.21195107698440552,-18.130334854125977,1.1441986560821533,17.972139358520508,0.4928489327430725,2.2296175956726074,-0.17337362468242645,0.0,0.0,0.0,0.0,0.0,0.0,0.0,0.17255944366055148,0.5168343951078375,0.32656639088213935,0.35322848724810435,0.06926664795951293,0.04897638076748151,-0.1425722328505731,-0.6090660417247237,-0.05753317312493141,-0.6666014256173846,-2.5945582074617084,-0.05561854737486943,2.507973891011275,0.8763143259439825,-0.6090851748156966,-0.05753196718556838,-0.666603097082616,-2.5945565370258534,-0.05562143941554,2.507976027223799,0.8763108487046415,-0.0014126279235955673,0.0004897381528319896,-0.0004046555656320968,0.00046354316542696056,-0.0002198625255639906,6.692635645176963e-05,0.0013680483611741557,0.0,0.0,0.0,0.0,0.0,0.0,0.0,-1.913309097290039e-05,1.205939363028985e-06,-1.671465231445346e-06,1.6704358549723963e-06,-2.8920406705684742e-06,2.136212523762282e-06,-3.4772393410209546e-06,0.0014126279235955673,-0.0004897381528319896,0.0004046555656320968,-0.00046354316542696056,0.0002198625255639906,-6.692635645176963e-05,-0.0013680483611741557,-0.21195107698440552,18.130334854125977,-1.1441986560821533,-17.972139358520508,-0.4928489327430725,-2.2296175956726074,0.17337362468242645,0
26,0.12501311302185059,0.16037636995315552,-18.106531143188477,1.1680023670196533,17.948335647583008,0.4983420968055725,2.2360262870788574,-0.13858358561992645,0.0,0.0,0.0,0.0,0.0,0.0,0.0,0.1743642370476957,0.5146776539047135,0.32724252537091486,0.3555220808786037,0.06877695173790033,0.0494658953575406,-0.1440162572851363,-0.6090602766798253,-0.05753412441093101,-0.6666030851879483,-2.5945565370258534,-0.05562365656407026,2.5079731803700573,0.8763115602907371,-0.6090851748156966,-0.05753196718556838,-0.666603097082616,-2.5945565370258534,-0.05562143941554,2.507976027223799,0.8763108487046415,0.000813230284066033,-0.0004905550885677615,-3.087382458825483e-05,0.0009849874766966042,-0.00017240149160349438,6.336038042318371e-05,-0.0007562248684653066,0.0,0.0,0.0,0.0,0.0,0.0,0.0,-2.4898135871254112e-05,2.1572253626270244e-06,-1.189466769524472e-08,0.0,2.21714853026328e-06,2.846853741633737e-06,-7.115860956030673e-07,-0.000813230284066033,0.0004905550885677615,3.087382458825483e-05,-0.0009849874766966042,0.00017240149160349438,-6.336038042318371e-05,0.0007562248684653066,-0.16037636995315552,18.106531143188477,-1.1680023670196533,-17.948335647583008,-0.4983420968055725,-2.2360262870788574,0.13858358561992645,0
27,0.13001441955566406,0.16037636995315552,-18.106531143188477,1.1680023670196533,17.948335647583008,0.4983420968055725,2.2360262870788574,-0.13858358561992645,0.0,0.0,0.0,0.0,0.0,0.0,0.0,0.1743642370476957,0.5146776539047135,0.32724252537091486,0.3555220808786037,0.06877695173790033,0.0494658953575406,-0.1440162572851363,-0.6090602766798253,-0.05753412441093101,-0.6666030851879483,-2.5945565370258534,-0.05562365656407026,2.5079731803700573,0.8763115602907371,-0.6090851748156966,-0.05753196718556838,-0.666603097082616,-2.5945565370258534,-0.05562143941554,2.507976027223799,0.8763108487046415,0.000813230284066033,-0.0004905550885677615,-3.087382458825483e-05,0.0009849874766966042,-0.00017240149160349438,6.336038042318371e-05,-0.0007562248684653066,0.0,0.0,0.0,0.0,0.0,0.0,0.0,-2.4898135871254112e-05,2.1572253626270244e-06,-1.189466769524472e-08,0.0,2.21714853026328e-06,2.846853741633737e-06,-7.115860956030673e-07,-0.000813230284066033,0.0004905550885677615,3.087382458825483e-05,-0.0009849874766966042,0.00017240149160349438,-6.336038042318371e-05,0.0007562248684653066,-0.16037636995315552,18.106531143188477,-1.1680023670196533,-17.948335647583008,-0.4983420968055725,-2.2360262870788574,0.13858358561992645,0
28,0.13500308990478516,0.21195107698440552,-18.154138565063477,1.2156097888946533,17.972139358520508,0.4983420968055725,2.2296175956726074,-0.15964071452617645,0.0,0.0,0.0,0.0,0.0,0.0,0.0,0.17910183566882512,0.5212127965386829,0.3360573489913856,0.3528391758676341,0.06911169404872511,0.04955097184378973,-0.14594424465064154,-0.6090660417126108,-0.05752934975016997,-0.6666064379423708,-2.5945582074617084,-0.05561920837553243,2.507977069907726,0.8763137827248824,-0.6090851748156966,-0.05753196718556838,-0.666603097082616,-2.5945565370258534,-0.05562143941554,2.507976027223799,0.8763108487046415,-8.589593691960974e-05,0.0006678043793988225,-6.904257121200803e-05,-0.00015275461949844566,-0.0001910554485476269,4.076866791623161e-05,-7.723315701520882e-05,0.0,0.0,0.0,0.0,0.0,0.0,0.0,-1.9133103085766656e-05,-2.6174353984151355e-06,3.340859754841219e-06,1.6704358549723963e-06,-2.231040007572016e-06,-1.042683927199306e-06,-2.934020240874524e-06,8.589593691960974e-05,-0.0006678043793988225,6.904257121200803e-05,0.00015275461949844566,0.0001910554485476269,-4.076866791623161e-05,7.723315701520882e-05,-0.21195107698440552,18.154138565063477,-1.2156097888946533,-17.972139358520508,-0.4983420968055725,-2.2296175956726074,0.15964071452617645,0
29,0.14000368118286133,0.21195107698440552,-18.154138565063477,1.2156097888946533,17.972139358520508,0.4983420968055725,2.2296175956726074,-0.15964071452617645,0.0,0.0,0.0,0.0,0.0,0.0,0.0,0.17910183566882512,0.5212127965386829,0.3360573489913856,0.3528391758676341,0.06911169404872511,0.04955097184378973,-0.14594424465064154,-0.6090660417126108,-0.05752934975016997,-0.6666064379423708,-2.5945582074617084,-0.05561920837553243,2.507977069907726,0.8763137827248824,-0.6090851748156966,-0.05753196718556838,-0.666603097082616,-2.5945565370258534,-0.05562143941554,2.507976027223799,0.8763108487046415,-8.589593691960974e-05,0.0006678043793988225,-6.904257121200803e-05,-0.00015275461949844566,-0.0001910554485476269,4.076866791623161e-05,-7.723315701520882e-05,0.0,0.0,0.0,0.0,0.0,0.0,0.0,-1.9133103085766656e-05,-2.6174353984151355e-06,3.340859754841219e-06,1.6704358549723963e-06,-2.231040007572016e-06,-1.042683927199306e-06,-2.934020240874524e-06,8.589593691960974e-05,-0.0006678043793988225,6.904257121200803e-05,0.00015275461949844566,0.0001910554485476269,-4.076866791623161e-05,7.723315701520882e-05,-0.21195107698440552,18.154138565063477,-1.2156097888946533,-17.972139358520508,-0.4983420968055725,-2.2296175956726074,0.15964071452617645,0
30,0.1450943946838379,0.21195107698440552,-18.130334854125977,1.2156097888946533,17.999910354614258,0.4928489327430725,2.2296175956726074,-0.13858358561992645,0.0,0.0,0.0,0.0,0.0,0.0,0.0,0.18207100069509866,0.5234305746363329,0.347669679443963,0.3517343561197886,0.06897611351734416,0.04930236855017488,-0.14771131850752744,-0.6090660417247236,-0.057530534924061204,-0.6666064379424379,-2.5945601563035394,-0.055618586315949674,2.507974244223985,0.876311560780801,-0.6090851748156966,-0.05753196718556838,-0.666603097082616,-2.5945565370258534,-0.05562143941554,2.507976027223799,0.8763108487046415,3.648262987605752e-07,-0.0002630710262470339,0.00032000194991821585,-0.0009165325326530176,3.2700477626484036e-06,0.00010099584762594031,0.0002484654092505421,0.0,0.0,0.0,0.0,0.0,0.0,0.0,-1.9133090973011413e-05,-1.4322615071796219e-06,3.3408598218986896e-06,3.61927768599557e-06,-2.853099590326147e-06,1.7829998140150849e-06,-7.12076159481434e-07,-3.648262987605752e-07,0.0002630710262470339,-0.00032000194991821585,0.0009165325326530176,-3.2700477626484036e-06,-0.00010099584762594031,-0.0002484654092505421,-0.21195107698440552,18.130334854125977,-1.2156097888946533,-17.999910354614258,-0.4928489327430725,-2.2296175956726074,0.13858358561992645,0
31,0.14999747276306152,0.21195107698440552,-18.130334854125977,1.2156097888946533,17.999910354614258,0.4928489327430725,2.2296175956726074,-0.13858358561992645,0.0,0.0,0.0,0.0,0.0,0.0,0.0,0.18207100069509866,0.5234305746363329,0.347669679443963,0.3517343561197886,0.06897611351734416,0.04930236855017488,-0.14771131850752744,-0.6090660417247236,-0.057530534924061204,-0.6666064379424379,-2.5945601563035394,-0.055618586315949674,2.507974244223985,0.876311560780801,-0.6090851748156966,-0.05753196718556838,-0.666603097082616,-2.5945565370258534,-0.05562143941554,2.507976027223799,0.8763108487046415,3.648262987605752e-07,-0.0002630710262470339,0.00032000194991821585,-0.0009165325326530176,3.2700477626484036e-06,0.00010099584762594031,0.0002484654092505421,0.0,0.0,0.0,0.0,0.0,0.0,0.0,-1.9133090973011413e-05,-1.4322615071796219e-06,3.3408598218986896e-06,3.61927768599557e-06,-2.853099590326147e-06,1.7829998140150849e-06,-7.12076159481434e-07,-3.648262987605752e-07,0.0002630710262470339,-0.00032000194991821585,0.0009165325326530176,-3.2700477626484036e-06,-0.00010099584762594031,-0.0002484654092505421,-0.21195107698440552,18.130334854125977,-1.2156097888946533,-17.999910354614258,-0.4928489327430725,-2.2296175956726074,0.13858358561992645,0
32,0.1549968719482422,0.21195107698440552,-18.130334854125977,1.1441986560821533,17.999910354614258,0.4864402413368225,2.2360262870788574,-0.14590780436992645,0.0,0.0,0.0,0.0,0.0,0.0,0.0,0.1733805226661378,0.5207892115300294,0.34420262174373834,0.35455304270502264,0.0694581742092481,0.04895908081175611,-0.145131504846362,-0.6090660417247237,-0.05753056025397727,-0.6666007113791348,-2.5945601563035394,-0.055619148108962194,2.507974290884439,0.8763123745835488,-0.6090851748156966,-0.05753196718556838,-0.666603097082616,-2.5945565370258534,-0.05562143941554,2.507976027223799,0.8763108487046415,-0.0006955510260381988,-0.0005874727932127212,0.00020515479011936193,-0.00032985131083557997,0.00015610129585619093,-0.00014628281891475013,0.00017580781065254248,0.0,0.0,0.0,0.0,0.0,0.0,0.0,-1.913309097290039e-05,-1.4069315911122149e-06,-2.3857034812113653e-06,3.61927768599557e-06,-2.2913065778062958e-06,1.7363393598479604e-06,-1.5258789073380186e-06,0.0006955510260381988,0.0005874727932127212,-0.00020515479011936193,0.00032985131083557997,-0.00015610129585619093,0.00014628281891475013,-0.00017580781065254248,-0.21195107698440552,18.130334854125977,-1.1441986560821533,-17.999910354614258,-0.4864402413368225,-2.2360262870788574,0.14590780436992645,0
33,0.15999889373779297,0.21195107698440552,-18.130334854125977,1.1441986560821533,17.999910354614258,0.4864402413368225,2.2360262870788574,-0.14590780436992645,0.0,0.0,0.0,0.0,0.0,0.0,0.0,0.1733805226661378,0.5207892115300294,0.34420262174373834,0.35455304270502264,0.0694581742092481,0.04895908081175611,-0.145131504846362,-0.6090660417247237,-0.05753056025397727,-0.6666007113791348,-2.5945601563035394,-0.055619148108962194,2.507974290884439,0.8763123745835488,-0.6090851748156966,-0.05753196718556838,-0.666603097082616,-2.5945565370258534,-0.05562143941554,2.507976027223799,0.8763108487046415,-0.0006955510260381988,-0.0005874727932127212,0.00020515479011936193,-0.00032985131083557997,0.00015610129585619093,-0.00014628281891475013,0.00017580781065254248,0.0,0.0,0.0,0.0,0.0,0.0,0.0,-1.913309097290039e-05,-1.4069315911122149e-06,-2.3857034812113653e-06,3.61927768599557e-06,-2.2913065778062958e-06,1.7363393598479604e-06,-1.5258789073380186e-06,0.0006955510260381988,0.0005874727932127212,-0.00020515479011936193,0.00032985131083557997,-0.00015610129585619093,0.00014628281891475013,-0.00017580781065254248,-0.21195107698440552,18.130334854125977,-1.1441986560821533,-17.999910354614258,-0.4864402413368225,-2.2360262870788574,0.14590780436992645,0
34,0.16499733924865723,0.10880166292190552,-18.130334854125977,1.0926239490509033,17.999910354614258,0.4928489327430725,2.2360262870788574,-0.14590780436992645,0.0,0.0,0.0,0.0,0.0,0.0,0.0,0.17607075101906028,0.5208084778279857,0.34311774207048973,0.3533539755786933,0.06878484318182918,0.04820691836881181,-0.14267005162454421,-0.6090588031693509,-0.05753029675120061,-0.6665977808621948,-2.5945601563035394,-0.05561893967701766,2.5079731920047363,0.876312254907912,-0.6090851748156966,-0.05753196718556838,-0.666603097082616,-2.5945565370258534,-0.05562143941554,2.507976027223799,0.8763108487046415,0.0013273037748554625,-0.00046677056512521516,0.00029906659870144244,-0.0002306281558433827,0.00015596284576690396,4.979306866489e-05,0.00039504379202234905,0.0,0.0,0.0,0.0,0.0,0.0,0.0,-2.6371646345668687e-05,-1.6704343677731437e-06,-5.316220421214268e-06,3.61927768599557e-06,-2.499738522336592e-06,2.83521906263573e-06,-1.4062032704931227e-06,-0.0013273037748554625,0.00046677056512521516,-0.00029906659870144244,0.0002306281558433827,-0.00015596284576690396,-4.979306866489e-05,-0.00039504379202234905,-0.10880166292190552,18.130334854125977,-1.0926239490509033,-17.999910354614258,-0.4928489327430725,-2.2360262870788574,0.14590780436992645,0
35,0.16999387741088867,0.10880166292190552,-18.130334854125977,1.0926239490509033,17.999910354614258,0.4928489327430725,2.2360262870788574,-0.14590780436992645,0.0,0.0,0.0,0.0,0.0,0.0,0.0,0.17607075101906028,0.5208084778279857,0.34311774207048973,0.3533539755786933,0.06878484318182918,0.04820691836881181,-0.14267005162454421,-0.6090588031693509,-0.05753029675120061,-0.6665977808621948,-2.5945601563035394,-0.05561893967701766,2.5079731920047363,0.876312254907912,-0.6090851748156966,-0.05753196718556838,-0.666603097082616,-2.5945565370258534,-0.05562143941554,2.507976027223799,0.8763108487046415,0.0013273037748554625,-0.00046677056512521516,0.00029906659870144244,-0.0002306281558433827,0.00015596284576690396,4.979306866489e-05,0.00039504379202234905,0.0,0.0,0.0,0.0,0.0,0.0,0.0,-2.6371646345668687e-05,-1.6704343677731437e-06,-5.316220421214268e-06,3.61927768599557e-06,-2.499738522336592e-06,2.83521906263573e-06,-1.4062032704931227e-06,-0.0013273037748554625,0.00046677056512521516,-0.00029906659870144244,0.0002306281558433827,-0.00015596284576690396,-4.979306866489e-05,-0.00039504379202234905,-0.10880166292190552,18.130334854125977,-1.0926239490509033,-17.999910354614258,-0.4928489327430725,-2.2360262870788574,0.14590780436992645,0
36,0.1750321388244629,0.18418008089065552,-18.130334854125977,1.1164276599884033,17.948335647583008,0.4928489327430725,2.2296175956726074,-0.13858358561992645,0.0,0.0,0.0,0.0,0.0,0.0,0.0,0.1823897819315972,0.5236682089482851,0.34029303067027633,0.352835992186785,0.0683535732266358,0.04779278653873697,-0.1414577750037261,-0.6090640928828925,-0.05753345358830679,-0.6665987615560077,-2.5945565370258534,-0.0556219933465369,2.507974363397234,0.8763115471604859,-0.6090851748156966,-0.05753196718556838,-0.666603097082616,-2.5945565370258534,-0.05562143941554,2.507976027223799,0.8763108487046415,-6.478040123311664e-05,-0.0004834234921510777,-0.0004524570823777872,0.0007792882003902415,-3.8410508524491694e-05,-8.067040672529579e-05,-0.00031600295357122606,0.0,0.0,0.0,0.0,0.0,0.0,0.0,-2.1081932804034587e-05,1.4864027384070555e-06,-4.335526608278961e-06,0.0,5.539309968979889e-07,1.6638265649682182e-06,-6.984558443834388e-07,6.478040123311664e-05,0.0004834234921510777,0.0004524570823777872,-0.0007792882003902415,3.8410508524491694e-05,8.067040672529579e-05,0.00031600295357122606,-0.18418008089065552,18.130334854125977,-1.1164276599884033,-17.948335647583008,-0.4928489327430725,-2.2296175956726074,0.13858358561992645,0
37,0.1800076961517334,0.18418008089065552,-18.130334854125977,1.1164276599884033,17.948335647583008,0.4928489327430725,2.2296175956726074,-0.13858358561992645,0.0,0.0,0.0,0.0,0.0,0.0,0.0,0.1823897819315972,0.5236682089482851,0.34029303067027633,0.352835992186785,0.0683535732266358,0.04779278653873697,-0.1414577750037261,-0.6090640928828925,-0.05753345358830679,-0.6665987615560077,-2.5945565370258534,-0.0556219933465369,2.507974363397234,0.8763115471604859,-0.6090851748156966,-0.05753196718556838,-0.666603097082616,-2.5945565370258534,-0.05562143941554,2.507976027223799,0.8763108487046415,-6.478040123311664e-05,-0.0004834234921510777,-0.0004524570823777872,0.0007792882003902415,-3.8410508524491694e-05,-8.067040672529579e-05,-0.00031600295357122606,0.0,0.0,0.0,0.0,0.0,0.0,0.0,-2.1081932804034587e-05,1.4864027384070555e-06,-4.335526608278961e-06,0.0,5.539309968979889e-07,1.6638265649682182e-06,-6.984558443834388e-07,6.478040123311664e-05,0.0004834234921510777,0.0004524570823777872,-0.0007792882003902415,3.8410508524491694e-05,8.067040672529579e-05,0.00031600295357122606,-0.18418008089065552,18.130334854125977,-1.1164276599884033,-17.948335647583008,-0.4928489327430725,-2.2296175956726074,0.13858358561992645,0
38,0.18500185012817383,0.18418008089065552,-18.130334854125977,1.1164276599884033,17.948335647583008,0.4928489327430725,2.2296175956726074,-0.13858358561992645,0.0,0.0,0.0,0.0,0.0,0.0,0.0,0.1823897819315972,0.5236682089482851,0.34029303067027633,0.352835992186785,0.0683535732266358,0.04779278653873697,-0.1414577750037261,-0.6090640928828925,-0.05753345358830679,-0.6665987615560077,-2.5945565370258534,-0.0556219933465369,2.507974363397234,0.8763115471604859,-0.6090851748156966,-0.05753196718556838,-0.666603097082616,-2.5945565370258534,-0.05562143941554,2.507976027223799,0.8763108487046415,-6.478040123311664e-05,-0.0004834234921510777,-0.0004524570823777872,0.0007792882003902415,-3.8410508524491694e-05,-8.067040672529579e-05,-0.00031600295357122606,0.0,0.0,0.0,0.0,0.0,0.0,0.0,-2.1081932804034587e-05,1.4864027384070555e-06,-4.335526608278961e-06,0.0,5.539309968979889e-07,1.6638265649682182e-06,-6.984558443834388e-07,6.478040123311664e-05,0.0004834234921510777,0.0004524570823777872,-0.0007792882003902415,3.8410508524491694e-05,8.067040672529579e-05,0.00031600295357122606,-0.18418008089065552,18.130334854125977,-1.1164276599884033,-17.948335647583008,-0.4928489327430725,-2.2296175956726074,0.13858358561992645,0
39,0.1900017261505127,0.18418008089065552,-18.130334854125977,1.1164276599884033,17.948335647583008,0.4928489327430725,2.2296175956726074,-0.13858358561992645,0.0,0.0,0.0,0.0,0.0,0.0,0.0,0.1823897819315972,0.5236682089482851,0.34029303067027633,0.352835992186785,0.0683535732266358,0.04779278653873697,-0.1414577750037261,-0.6090640928828925,-0.05753345358830679,-0.6665987615560077,-2.5945565370258534,-0.0556219933465369,2.507974363397234,0.8763115471604859,-0.6090851748156966,-0.05753196718556838,-0.666603097082616,-2.5945565370258534,-0.05562143941554,2.507976027223799,0.8763108487046415,-6.478040123311664e-05,-0.0004834234921510777,-0.0004524570823777872,0.0007792882003902415,-3.8410508524491694e-05,-8.067040672529579e-05,-0.00031600295357122606,0.0,0.0,0.0,0.0,0.0,0.0,0.0,-2.1081932804034587e-05,1.4864027384070555e-06,-4.335526608278961e-06,0.0,5.539309968979889e-07,1.6638265649682182e-06,-6.984558443834388e-07,6.478040123311664e-05,0.0004834234921510777,0.0004524570823777872,-0.0007792882003902415,3.8410508524491694e-05,8.067040672529579e-05,0.00031600295357122606,-0.18418008089065552,18.130334854125977,-1.1164276599884033,-17.948335647583008,-0.4928489327430725,-2.2296175956726074,0.13858358561992645,0
40,0.19499850273132324,0.18418008089065552,-18.154138565063477,1.1164276599884033,17.972139358520508,0.4928489327430725,2.2296175956726074,-0.17337362468242645,0.0,0.0,0.0,0.0,0.0,0.0,0.0,0.17508750352168623,0.5204480897631606,0.3258701503293644,0.3574332546812927,0.06868996771345605,0.048236469315892976,-0.14128846065983258,-0.6090640928828925,-0.057528661407662676,-0.6665970837917427,-2.5945582074617084,-0.0556227444234494,2.5079742456622567,0.8763154263412846,-0.6090851748156966,-0.05753196718556838,-0.666603097082616,-2.5945565370258534,-0.05562143941554,2.507976027223799,0.8763108487046415,-0.0006792977807730698,0.0002469091183280336,-0.00030367015240412423,0.0006831970022649075,0.0001122532390407647,3.963010509395403e-05,0.001275270489555712,0.0,0.0,0.0,0.0,0.0,0.0,0.0,-2.1081932804034587e-05,-3.3057779057071857e-06,-6.013290873352339e-06,1.6704358549723963e-06,1.3050079094023559e-06,1.7815615422911435e-06,-4.577636643077199e-06,0.0006792977807730698,-0.0002469091183280336,0.00030367015240412423,-0.0006831970022649075,-0.0001122532390407647,-3.963010509395403e-05,-0.001275270489555712,-0.18418008089065552,18.154138565063477,-1.1164276599884033,-17.972139358520508,-0.4928489327430725,-2.2296175956726074,0.17337362468242645,0
41,0.1999969482421875,0.18418008089065552,-18.154138565063477,1.1164276599884033,17.972139358520508,0.4928489327430725,2.2296175956726074,-0.17337362468242645,0.0,0.0,0.0,0.0,0.0,0.0,0.0,0.17508750352168623,0.5204480897631606,0.3258701503293644,0.3574332546812927,0.06868996771345605,0.048236469315892976,-0.14128846065983258,-0.6090640928828925,-0.057528661407662676,-0.6665970837917427,-2.5945582074617084,-0.0556227444234494,2.5079742456622567,0.8763154263412846,-0.6090851748156966,-0.05753196718556838,-0.666603097082616,-2.5945565370258534,-0.05562143941554,2.507976027223799,0.8763108487046415,-0.0006792977807730698,0.0002469091183280336,-0.00030367015240412423,0.0006831970022649075,0.0001122532390407647,3.963010509395403e-05,0.001275270489555712,0.0,0.0,0.0,0.0,0.0,0.0,0.0,-2.1081932804034587e-05,-3.3057779057071857e-06,-6.013290873352339e-06,1.6704358549723963e-06,1.3050079094023559e-06,1.7815615422911435e-06,-4.577636643077199e-06,0.0006792977807730698,-0.0002469091183280336,0.00030367015240412423,-0.0006831970022649075,-0.0001122532390407647,-3.963010509395403e-05,-0.001275270489555712,-0.18418008089065552,18.154138565063477,-1.1164276599884033,-17.972139358520508,-0.4928489327430725,-2.2296175956726074,0.17337362468242645,0
42,0.20499587059020996,0.18418008089065552,-18.106531143188477,1.1680023670196533,17.972139358520508,0.4928489327430725,2.2296175956726074,-0.13858358561992645,0.0,0.0,0.0,0.0,0.0,0.0,0.0,0.1773008265206229,0.5203284667594958,0.32747448847727656,0.35468828556681425,0.06837909939177648,0.04758664590242484,-0.14323985728072955,-0.6090640928828925,-0.05753412435880549,-0.6666030880815403,-2.5945582074617084,-0.05562274302141303,2.5079742442080417,0.8763083818670775,-0.6090851748156966,-0.05753196718556838,-0.666603097082616,-2.5945565370258534,-0.05562143941554,2.507976027223799,0.8763108487046415,-9.300791346157241e-05,-0.0012398236993890056,-0.0003967841072766059,0.0003110761450159017,7.279089996122139e-05,0.00011891856157082301,-0.00010917226926057115,0.0,0.0,0.0,0.0,0.0,0.0,0.0,-2.1081932804034587e-05,2.1571732371078456e-06,-9.001075662595781e-09,1.6704358549723963e-06,1.3036058730334088e-06,1.7830157572618077e-06,2.4668375639969042e-06,9.300791346157241e-05,0.0012398236993890056,0.0003967841072766059,-0.0003110761450159017,-7.279089996122139e-05,-0.00011891856157082301,0.00010917226926057115,-0.18418008089065552,18.106531143188477,-1.1680023670196533,-17.972139358520508,-0.4928489327430725,-2.2296175956726074,0.13858358561992645,0
43,0.20999503135681152,0.18418008089065552,-18.106531143188477,1.1680023670196533,17.972139358520508,0.4928489327430725,2.2296175956726074,-0.13858358561992645,0.0,0.0,0.0,0.0,0.0,0.0,0.0,0.1773008265206229,0.5203284667594958,0.32747448847727656,0.35468828556681425,0.06837909939177648,0.04758664590242484,-0.14323985728072955,-0.6090640928828925,-0.05753412435880549,-0.6666030880815403,-2.5945582074617084,-0.05562274302141303,2.5079742442080417,0.8763083818670775,-0.6090851748156966,-0.05753196718556838,-0.666603097082616,-2.5945565370258534,-0.05562143941554,2.507976027223799,0.8763108487046415,-9.300791346157241e-05,-0.0012398236993890056,-0.0003967841072766059,0.0003110761450159017,7.279089996122139e-05,0.00011891856157082301,-0.00010917226926057115,0.0,0.0,0.0,0.0,0.0,0.0,0.0,-2.1081932804034587e-05,2.1571732371078456e-06,-9.001075662595781e-09,1.6704358549723963e-06,1.3036058730334088e-06,1.7830157572618077e-06,2.4668375639969042e-06,9.300791346157241e-05,0.0012398236993890056,0.0003967841072766059,-0.0003110761450159017,-7.279089996122139e-05,-0.00011891856157082301,0.00010917226926057115,-0.18418008089065552,18.106531143188477,-1.1680023670196533,-17.972139358520508,-0.4928489327430725,-2.2296175956726074,0.13858358561992645,0
44,0.21509146690368652,0.18418008089065552,-18.154138565063477,1.1441986560821533,17.972139358520508,0.4864402413368225,2.2360262870788574,-0.14590780436992645,0.0,0.0,0.0,0.0,0.0,0.0,0.0,0.1673071031283381,0.51683236243599,0.3199350018485094,0.3567721120145529,0.06939120988274919,0.04787764581034206,-0.1438976168018205,-0.6090640928828925,-0.05752886406326259,-0.6666011882162423,-2.5945582074617084,-0.05562139941838612,2.507973178918501,0.8763113149274745,-0.6090851748156966,-0.05753196718556838,-0.666603097082616,-2.5945565370258534,-0.05562143941554,2.507976027223799,0.8763108487046415,-0.000286677643872197,-4.442366932826088e-05,-1.2545861423250703e-05,0.00021304794979366186,0.0004776215222729673,-7.34598327837476e-05,-3.382741071355885e-05,0.0,0.0,0.0,0.0,0.0,0.0,0.0,-2.1081932804034587e-05,-3.103122305794792e-06,-1.9088663737454326e-06,1.6704358549723963e-06,-3.9997153880588776e-08,2.848305297842302e-06,-4.6622283300656875e-07,0.000286677643872197,4.442366932826088e-05,1.2545861423250703e-05,-0.00021304794979366186,-0.0004776215222729673,7.34598327837476e-05,3.382741071355885e-05,-0.18418008089065552,18.154138565063477,-1.1441986560821533,-17.972139358520508,-0.4864402413368225,-2.2360262870788574,0.14590780436992645,0
45,0.2199995517730713,0.18418008089065552,-18.154138565063477,1.1441986560821533,17.972139358520508,0.4864402413368225,2.2360262870788574,-0.14590780436992645,0.0,0.0,0.0,0.0,0.0,0.0,0.0,0.1673071031283381,0.51683236243599,0.3199350018485094,0.3567721120145529,0.06939120988274919,0.04787764581034206,-0.1438976168018205,-0.6090640928828925,-0.05752886406326259,-0.6666011882162423,-2.5945582074617084,-0.05562139941838612,2.507973178918501,0.8763113149274745,-0.6090851748156966,-0.05753196718556838,-0.666603097082616,-2.5945565370258534,-0.05562143941554,2.507976027223799,0.8763108487046415,-0.000286677643872197,-4.442366932826088e-05,-1.2545861423250703e-05,0.00021304794979366186,0.0004776215222729673,-7.34598327837476e-05,-3.382741071355885e-05,0.0,0.0,0.0,0.0,0.0,0.0,0.0,-2.1081932804034587e-05,-3.103122305794792e-06,-1.9088663737454326e-06,1.6704358549723963e-06,-3.9997153880588776e-08,2.848305297842302e-06,-4.6622283300656875e-07,0.000286677643872197,4.442366932826088e-05,1.2545861423250703e-05,-0.00021304794979366186,-0.0004776215222729673,7.34598327837476e-05,3.382741071355885e-05,-0.18418008089065552,18.154138565063477,-1.1441986560821533,-17.972139358520508,-0.4864402413368225,-2.2360262870788574,0.14590780436992645,0
46,0.22499942779541016,0.21195107698440552,-18.130334854125977,1.1441986560821533,17.999910354614258,0.4864402413368225,2.2360262870788574,-0.13858358561992645,0.0,0.0,0.0,0.0,0.0,0.0,0.0,0.17690839596365507,0.5206777913607415,0.33264093765843566,0.35541768795972317,0.0693712845155374,0.048425537871692466,-0.14375354584634098,-0.6090660417247237,-0.05753254453705386,-0.6666011881059309,-2.5945601563035394,-0.05561811565168164,2.5079731790780126,0.8763115607754838,-0.6090851748156966,-0.05753196718556838,-0.666603097082616,-2.5945565370258534,-0.05562143941554,2.507976027223799,0.8763108487046415,-0.0006990612661662682,8.293890184024948e-05,0.0007636573600011344,-0.00039025868392292805,0.00023589794931528404,-7.860222145008494e-05,0.00013777730569364876,0.0,0.0,0.0,0.0,0.0,0.0,0.0,-1.913309097290039e-05,5.773514854742756e-07,-1.90897668506107e-06,3.61927768599557e-06,-3.323763858358031e-06,2.848145786327194e-06,-7.120708422903022e-07,0.0006990612661662682,-8.293890184024948e-05,-0.0007636573600011344,0.00039025868392292805,-0.00023589794931528404,7.860222145008494e-05,-0.00013777730569364876,-0.21195107698440552,18.130334854125977,-1.1441986560821533,-17.999910354614258,-0.4864402413368225,-2.2360262870788574,0.13858358561992645,0
47,0.22999787330627441,0.21195107698440552,-18.130334854125977,1.1441986560821533,17.999910354614258,0.4864402413368225,2.2360262870788574,-0.13858358561992645,0.0,0.0,0.0,0.0,0.0,0.0,0.0,0.17690839596365507,0.5206777913607415,0.33264093765843566,0.35541768795972317,0.0693712845155374,0.048425537871692466,-0.14375354584634098,-0.6090660417247237,-0.05753254453705386,-0.6666011881059309,-2.5945601563035394,-0.05561811565168164,2.5079731790780126,0.8763115607754838,-0.6090851748156966,-0.05753196718556838,-0.666603097082616,-2.5945565370258534,-0.05562143941554,2.507976027223799,0.8763108487046415,-0.0006990612661662682,8.293890184024948e-05,0.0007636573600011344,-0.00039025868392292805,0.00023589794931528404,-7.860222145008494e-05,0.00013777730569364876,0.0,0.0,0.0,0.0,0.0,0.0,0.0,-1.913309097290039e-05,5.773514854742756e-07,-1.90897668506107e-06,3.61927768599557e-06,-3.323763858358031e-06,2.848145786327194e-06,-7.120708422903022e-07,0.0006990612661662682,-8.293890184024948e-05,-0.0007636573600011344,0.00039025868392292805,-0.00023589794931528404,7.860222145008494e-05,-0.00013777730569364876,-0.21195107698440552,18.130334854125977,-1.1441986560821533,-17.999910354614258,-0.4864402413368225,-2.2360262870788574,0.13858358561992645,0
48,0.2350022792816162,0.21195107698440552,-18.154138565063477,1.1918060779571533,17.999910354614258,0.4983420968055725,2.2296175956726074,-0.12485067546367645,0.0,0.0,0.0,0.0,0.0,0.0,0.0,0.17878731489304195,0.521871892653692,0.337349500820797,0.35563274146136464,0.06930362691447363,0.048969034425778664,-0.14122639418736463,-0.6090660417247237,-0.05752934054864826,-0.6666047675052361,-2.5945601563035394,-0.055622276413721944,2.507973890993331,0.8763100300573918,-0.6090851748156966,-0.05753196718556838,-0.666603097082616,-2.5945565370258534,-0.05562143941554,2.507976027223799,0.8763108487046415,-0.0004311325242745232,0.0006844677123503013,-4.088450583789193e-05,-0.00035497764903349435,-0.0002723823939214337,2.6863347502365134e-05,-0.00079748222496313,0.0,0.0,0.0,0.0,0.0,0.0,0.0,-1.913309097290039e-05,-2.6266369201263795e-06,1.670422620114742e-06,3.61927768599557e-06,8.369981819439376e-07,2.1362304680749844e-06,8.186472496563013e-07,0.0004311325242745232,-0.0006844677123503013,4.088450583789193e-05,0.00035497764903349435,0.0002723823939214337,-2.6863347502365134e-05,0.00079748222496313,-0.21195107698440552,18.154138565063477,-1.1918060779571533,-17.999910354614258,-0.4983420968055725,-2.2296175956726074,0.12485067546367645,0
49,0.24009275436401367,0.21195107698440552,-18.154138565063477,1.1918060779571533,17.999910354614258,0.4983420968055725,2.2296175956726074,-0.12485067546367645,0.0,0.0,0.0,0.0,0.0,0.0,0.0,0.17878731489304195,0.521871892653692,0.337349500820797,0.35563274146136464,0.06930362691447363,0.048969034425778664,-0.14122639418736463,-0.6090660417247237,-0.05752934054864826,-0.6666047675052361,-2.5945601563035394,-0.055622276413721944,2.507973890993331,0.8763100300573918,-0.6090851748156966,-0.05753196718556838,-0.666603097082616,-2.5945565370258534,-0.05562143941554,2.507976027223799,0.8763108487046415,-0.0004311325242745232,0.0006844677123503013,-4.088450583789193e-05,-0.00035497764903349435,-0.0002723823939214337,2.6863347502365134e-05,-0.00079748222496313,0.0,0.0,0.0,0.0,0.0,0.0,0.0,-1.913309097290039e-05,-2.6266369201263795e-06,1.670422620114742e-06,3.61927768599557e-06,8.369981819439376e-07,2.1362304680749844e-06,8.186472496563013e-07,0.0004311325242745232,-0.0006844677123503013,4.088450583789193e-05,0.00035497764903349435,0.0002723823939214337,-2.6863347502365134e-05,0.00079748222496313,-0.21195107698440552,18.154138565063477,-1.1918060779571533,-17.999910354614258,-0.4983420968055725,-2.2296175956726074,0.12485067546367645,0
50,0.24513626098632812,0.16037636995315552,-18.130334854125977,1.1441986560821533,18.023714065551758,0.5102439522743225,2.2360262870788574,-0.13858358561992645,0.0,0.0,0.0,0.0,0.0,0.0,0.0,0.1833106944734523,0.5258833014701849,0.34400198281849126,0.3556470934383938,0.06938777858454687,0.04826345166933944,-0.14043557076782567,-0.6090602766798253,-0.05753345370059787,-0.6666014236914329,-2.594561826739395,-0.055624031558504,2.5079731833309933,0.8763083817055446,-0.6090851748156966,-0.05753196718556838,-0.666603097082616,-2.5945565370258534,-0.05562143941554,2.507976027223799,0.8763108487046415,0.0012690490776869582,5.227026220060915e-05,0.0011447783141993093,-0.0011476999792604046,-0.000595541159971139,-0.00032555400694169573,0.00016484799456009986,0.0,0.0,0.0,0.0,0.0,0.0,0.0,-2.4898135871254112e-05,1.4865150294862683e-06,-1.6733911830657533e-06,5.2897135414120555e-06,2.592142963997457e-06,2.8438928056928603e-06,2.466999096895073e-06,-0.0012690490776869582,-5.227026220060915e-05,-0.0011447783141993093,0.0011476999792604046,0.000595541159971139,0.00032555400694169573,-0.00016484799456009986,-0.16037636995315552,18.130334854125977,-1.1441986560821533,-18.023714065551758,-0.5102439522743225,-2.2360262870788574,0.13858358561992645,0
51,0.2500014305114746,0.16037636995315552,-18.130334854125977,1.1441986560821533,18.023714065551758,0.5102439522743225,2.2360262870788574,-0.13858358561992645,0.0,0.0,0.0,0.0,0.0,0.0,0.0,0.1833106944734523,0.5258833014701849,0.34400198281849126,0.3556470934383938,0.06938777858454687,0.04826345166933944,-0.14043557076782567,-0.6090602766798253,-0.05753345370059787,-0.6666014236914329,-2.594561826739395,-0.055624031558504,2.5079731833309933,0.8763083817055446,-0.6090851748156966,-0.05753196718556838,-0.666603097082616,-2.5945565370258534,-0.05562143941554,2.507976027223799,0.8763108487046415,0.0012690490776869582,5.227026220060915e-05,0.0011447783141993093,-0.0011476999792604046,-0.000595541159971139,-0.00032555400694169573,0.00016484799456009986,0.0,0.0,0.0,0.0,0.0,0.0,0.0,-2.4898135871254112e-05,1.4865150294862683e-06,-1.6733911830657533e-06,5.2897135414120555e-06,2.592142963997457e-06,2.8438928056928603e-06,2.466999096895073e-06,-0.0012690490776869582,-5.227026220060915e-05,-0.0011447783141993093,0.0011476999792604046,0.000595541159971139,0.00032555400694169573,-0.00016484799456009986,-0.16037636995315552,18.130334854125977,-1.1441986560821533,-18.023714065551758,-0.5102439522743225,-2.2360262870788574,0.13858358561992645,0
52,0.2550063133239746,0.21195107698440552,-18.177942276000977,1.1680023670196533,17.999910354614258,0.5047507882118225,2.2296175956726074,-0.13217489421367645,0.0,0.0,0.0,0.0,0.0,0.0,0.0,0.1824107864016712,0.5322066591361031,0.3461009891989093,0.3532497169443195,0.06978110195393894,0.04809350488044446,-0.13945451391818653,-0.6090660417126108,-0.05752933229376501,-0.6666030970707107,-2.5945601563035394,-0.05562440262792033,2.507975303844194,0.8763108441645403,-0.6090851748156966,-0.05753196718556838,-0.666603097082616,-2.5945565370258534,-0.05562143941554,2.507976027223799,0.8763108487046415,-0.0005509100332025157,0.0015544707045929444,0.0001619782506528546,-0.0007768210993337545,-0.00039912340781535525,0.0002775063474048746,-0.0001032654761409032,0.0,0.0,0.0,0.0,0.0,0.0,0.0,-1.9133103085766656e-05,-2.634891803375561e-06,-1.1905254559962941e-11,3.61927768599557e-06,2.96321238033026e-06,7.233796051053787e-07,4.54010118389192e-09,0.0005509100332025157,-0.0015544707045929444,-0.0001619782506528546,0.0007768210993337545,0.00039912340781535525,-0.0002775063474048746,0.0001032654761409032,-0.21195107698440552,18.177942276000977,-1.1680023670196533,-17.999910354614258,-0.5047507882118225,-2.2296175956726074,0.13217489421367645,0
53,0.25999999046325684,0.21195107698440552,-18.177942276000977,1.1680023670196533,17.999910354614258,0.5047507882118225,2.2296175956726074,-0.13217489421367645,0.0,0.0,0.0,0.0,0.0,0.0,0.0,0.1824107864016712,0.5322066591361031,0.3461009891989093,0.3532497169443195,0.06978110195393894,0.04809350488044446,-0.13945451391818653,-0.6090660417126108,-0.05752933229376501,-0.6666030970707107,-2.5945601563035394,-0.05562440262792033,2.507975303844194,0.8763108441645403,-0.6090851748156966,-0.05753196718556838,-0.666603097082616,-2.5945565370258534,-0.05562143941554,2.507976027223799,0.8763108487046415,-0.0005509100332025157,0.0015544707045929444,0.0001619782506528546,-0.0007768210993337545,-0.00039912340781535525,0.0002775063474048746,-0.0001032654761409032,0.0,0.0,0.0,0.0,0.0,0.0,0.0,-1.9133103085766656e-05,-2.634891803375561e-06,-1.1905254559962941e-11,3.61927768599557e-06,2.96321238033026e-06,7.233796051053787e-07,4.54010118389192e-09,0.0005509100332025157,-0.0015544707045929444,-0.0001619782506528546,0.0007768210993337545,0.00039912340781535525,-0.0002775063474048746,0.0001032654761409032,-0.21195107698440552,18.177942276000977,-1.1680023670196533,-17.999910354614258,-0.5047507882118225,-2.2296175956726074,0.13217489421367645,0
54,0.2649986743927002,0.13260537385940552,-18.177942276000977,1.1441986560821533,18.023714065551758,0.4928489327430725,2.2232089042663574,-0.15231649577617645,0.0,0.0,0.0,0.0,0.0,0.0,0.0,0.17867644274976044,0.5262564944969672,0.3444521336148841,0.3581483034644403,0.06962757039004652,0.04908696666542061,-0.13881579189713106,-0.609060473605206,-0.057526958814416225,-0.6666014264895171,-2.594561826739395,-0.05561997996098176,2.5079746035626456,0.8763129688689411,-0.6090851748156966,-0.05753196718556838,-0.666603097082616,-2.5945565370258534,-0.05562143941554,2.507976027223799,0.8763108487046415,0.0005196330297342826,0.000696916165770851,-3.7312315417190296e-05,-0.0009545540745919014,-0.000191453694080032,0.00029225242936631123,0.0004875251979268918,0.0,0.0,0.0,0.0,0.0,0.0,0.0,-2.4701210490585268e-05,-5.0083711521584084e-06,-1.6705930988569762e-06,5.2897135414120555e-06,-1.459454558240536e-06,1.423661153410194e-06,-2.1201642995682946e-06,-0.0005196330297342826,-0.000696916165770851,3.7312315417190296e-05,0.0009545540745919014,0.000191453694080032,-0.00029225242936631123,-0.0004875251979268918,-0.13260537385940552,18.177942276000977,-1.1441986560821533,-18.023714065551758,-0.4928489327430725,-2.2232089042663574,0.15231649577617645,0
55,0.2700009346008301,0.13260537385940552,-18.177942276000977,1.1441986560821533,18.023714065551758,0.4928489327430725,2.2232089042663574,-0.15231649577617645,0.0,0.0,0.0,0.0,0.0,0.0,0.0,0.17867644274976044,0.5262564944969672,0.3444521336148841,0.3581483034644403,0.06962757039004652,0.04908696666542061,-0.13881579189713106,-0.609060473605206,-0.057526958814416225,-0.6666014264895171,-2.594561826739395,-0.05561997996098176,2.5079746035626456,0.8763129688689411,-0.6090851748156966,-0.05753196718556838,-0.666603097082616,-2.5945565370258534,-0.05562143941554,2.507976027223799,0.8763108487046415,0.0005196330297342826,0.000696916165770851,-3.7312315417190296e-05,-0.0009545540745919014,-0.000191453694080032,0.00029225242936631123,0.0004875251979268918,0.0,0.0,0.0,0.0,0.0,0.0,0.0,-2.4701210490585268e-05,-5.0083711521584084e-06,-1.6705930988569762e-06,5.2897135414120555e-06,-1.459454558240536e-06,1.423661153410194e-06,-2.1201642995682946e-06,-0.0005196330297342826,-0.000696916165770851,3.7312315417190296e-05,0.0009545540745919014,0.000191453694080032,-0.00029225242936631123,-0.0004875251979268918,-0.13260537385940552,18.177942276000977,-1.1441986560821533,-18.023714065551758,-0.4928489327430725,-2.2232089042663574,0.15231649577617645,0
56,0.27543044090270996,0.13260537385940552,-18.154138565063477,1.0926239490509033,18.023714065551758,0.4928489327430725,2.2360262870788574,-0.13858358561992645,0.0,0.0,0.0,0.0,0.0,0.0,0.0,0.17144781993761818,0.5230710433864502,0.33665198751104336,0.3590914636684529,0.06881786517615802,0.04854993310915203,-0.13881583457352986,-0.6090604647748884,-0.057528626422166794,-0.6665977278843236,-2.594561826739395,-0.055622685366016646,2.507973183277166,0.8763115607794708,-0.6090851748156966,-0.05753196718556838,-0.666603097082616,-2.5945565370258534,-0.05562143941554,2.507976027223799,0.8763108487046415,0.00019497354270175873,-0.0001439564094884287,0.00047835135061187044,-0.0008168674717891979,-7.585204189843808e-05,-0.00022278827890970742,-0.0003606465501978927,0.0,0.0,0.0,0.0,0.0,0.0,0.0,-2.4710040808173517e-05,-3.3407634015894527e-06,-5.369198292415334e-06,5.2897135414120555e-06,1.2459504766457186e-06,2.843946632857808e-06,-7.120748293232282e-07,-0.00019497354270175873,0.0001439564094884287,-0.00047835135061187044,0.0008168674717891979,7.585204189843808e-05,0.00022278827890970742,0.0003606465501978927,-0.13260537385940552,18.154138565063477,-1.0926239490509033,-18.023714065551758,-0.4928489327430725,-2.2360262870788574,0.13858358561992645,0
57,0.28009724617004395,0.13260537385940552,-18.154138565063477,1.0926239490509033,18.023714065551758,0.4928489327430725,2.2360262870788574,-0.13858358561992645,0.0,0.0,0.0,0.0,0.0,0.0,0.0,0.17144781993761818,0.5230710433864502,0.33665198751104336,0.3590914636684529,0.06881786517615802,0.04854993310915203,-0.13881583457352986,-0.6090604647748884,-0.057528626422166794,-0.6665977278843236,-2.594561826739395,-0.055622685366016646,2.507973183277166,0.8763115607794708,-0.6090851748156966,-0.05753196718556838,-0.666603097082616,-2.5945565370258534,-0.05562143941554,2.507976027223799,0.8763108487046415,0.00019497354270175873,-0.0001439564094884287,0.00047835135061187044,-0.0008168674717891979,-7.585204189843808e-05,-0.00022278827890970742,-0.0003606465501978927,0.0,0.0,0.0,0.0,0.0,0.0,0.0,-2.4710040808173517e-05,-3.3407634015894527e-06,-5.369198292415334e-06,5.2897135414120555e-06,1.2459504766457186e-06,2.843946632857808e-06,-7.120748293232282e-07,-0.00019497354270175873,0.0001439564094884287,-0.00047835135061187044,0.0008168674717891979,7.585204189843808e-05,0.00022278827890970742,0.0003606465501978927,-0.13260537385940552,18.154138565063477,-1.0926239490509033,-18.023714065551758,-0.4928489327430725,-2.2360262870788574,0.13858358561992645,0
58,0.2849998474121094,0.18418008089065552,-18.154138565063477,1.1164276599884033,18.047517776489258,0.4928489327430725,2.2424349784851074,-0.12485067546367645,0.0,0.0,0.0,0.0,0.0,0.0,0.0,0.1734077447201148,0.516850408692272,0.33331337605107125,0.3586218652679179,0.06834487713033785,0.04822205493963997,-0.13938329873462207,-0.609064092870763,-0.057528863233127,-0.6665992393743124,-2.5945634971752503,-0.055623097242426596,2.5079735264957668,0.8763100348487242,-0.6090851748156966,-0.05753196718556838,-0.666603097082616,-2.5945565370258534,-0.05562143941554,2.507976027223799,0.8763108487046415,-0.0006119626161260786,-0.000667885969449096,-0.00027451956175235983,-0.001519528838159134,-4.383423391164965e-05,-0.0003367465846054791,-0.00027921631622075275,0.0,0.0,0.0,0.0,0.0,0.0,0.0,-2.1081944933554198e-05,-3.1039524413800645e-06,-3.857708303578455e-06,6.960149396828541e-06,1.6578268865960477e-06,2.5007280322064673e-06,8.138559173254123e-07,0.0006119626161260786,0.000667885969449096,0.00027451956175235983,0.001519528838159134,4.383423391164965e-05,0.0003367465846054791,0.00027921631622075275,-0.18418008089065552,18.154138565063477,-1.1164276599884033,-18.047517776489258,-0.4928489327430725,-2.2424349784851074,0.12485067546367645,0
59,0.29000186920166016,0.18418008089065552,-18.154138565063477,1.1164276599884033,18.047517776489258,0.4928489327430725,2.2424349784851074,-0.12485067546367645,0.0,0.0,0.0,0.0,0.0,0.0,0.0,0.1734077447201148,0.516850408692272,0.33331337605107125,0.3586218652679179,0.06834487713033785,0.04822205493963997,-0.13938329873462207,-0.609064092870763,-0.057528863233127,-0.6665992393743124,-2.5945634971752503,-0.055623097242426596,2.5079735264957668,0.8763100348487242,-0.6090851748156966,-0.05753196718556838,-0.666603097082616,-2.5945565370258534,-0.05562143941554,2.507976027223799,0.8763108487046415,-0.0006119626161260786,-0.000667885969449096,-0.00027451956175235983,-0.001519528838159134,-4.383423391164965e-05,-0.0003367465846054791,-0.00027921631622075275,0.0,0.0,0.0,0.0,0.0,0.0,0.0,-2.1081944933554198e-05,-3.1039524413800645e-06,-3.857708303578455e-06,6.960149396828541e-06,1.6578268865960477e-06,2.5007280322064673e-06,8.138559173254123e-07,0.0006119626161260786,0.000667885969449096,0.00027451956175235983,0.001519528838159134,4.383423391164965e-05,0.0003367465846054791,0.00027921631622075275,-0.18418008089065552,18.154138565063477,-1.1164276599884033,-18.047517776489258,-0.4928489327430725,-2.2424349784851074,0.12485067546367645,0
60,0.29500412940979004,0.18418008089065552,-18.154138565063477,1.1164276599884033,18.047517776489258,0.4928489327430725,2.2424349784851074,-0.12485067546367645,0.0,0.0,0.0,0.0,0.0,0.0,0.0,0.1734077447201148,0.516850408692272,0.33331337605107125,0.3586218652679179,0.06834487713033785,0.04822205493963997,-0.13938329873462207,-0.609064092870763,-0.057528863233127,-0.6665992393743124,-2.5945634971752503,-0.055623097242426596,2.5079735264957668,0.8763100348487242,-0.6090851748156966,-0.05753196718556838,-0.666603097082616,-2.5945565370258534,-0.05562143941554,2.507976027223799,0.8763108487046415,-0.0006119626161260786,-0.000667885969449096,-0.00027451956175235983,-0.001519528838159134,-4.383423391164965e-05,-0.0003367465846054791,-0.00027921631622075275,0.0,0.0,0.0,0.0,0.0,0.0,0.0,-2.1081944933554198e-05,-3.1039524413800645e-06,-3.857708303578455e-06,6.960149396828541e-06,1.6578268865960477e-06,2.5007280322064673e-06,8.138559173254123e-07,0.0006119626161260786,0.000667885969449096,0.00027451956175235983,0.001519528838159134,4.383423391164965e-05,0.0003367465846054791,0.00027921631622075275,-0.18418008089065552,18.154138565063477,-1.1164276599884033,-18.047517776489258,-0.4928489327430725,-2.2424349784851074,0.12485067546367645,0
61,0.3000020980834961,0.18418008089065552,-18.154138565063477,1.1164276599884033,18.047517776489258,0.4928489327430725,2.2424349784851074,-0.12485067546367645,0.0,0.0,0.0,0.0,0.0,0.0,0.0,0.1734077447201148,0.516850408692272,0.33331337605107125,0.3586218652679179,0.06834487713033785,0.04822205493963997,-0.13938329873462207,-0.609064092870763,-0.057528863233127,-0.6665992393743124,-2.5945634971752503,-0.055623097242426596,2.5079735264957668,0.8763100348487242,-0.6090851748156966,-0.05753196718556838,-0.666603097082616,-2.5945565370258534,-0.05562143941554,2.507976027223799,0.8763108487046415,-0.0006119626161260786,-0.000667885969449096,-0.00027451956175235983,-0.001519528838159134,-4.383423391164965e-05,-0.0003367465846054791,-0.00027921631622075275,0.0,0.0,0.0,0.0,0.0,0.0,0.0,-2.1081944933554198e-05,-3.1039524413800645e-06,-3.857708303578455e-06,6.960149396828541e-06,1.6578268865960477e-06,2.5007280322064673e-06,8.138559173254123e-07,0.0006119626161260786,0.000667885969449096,0.00027451956175235983,0.001519528838159134,4.383423391164965e-05,0.0003367465846054791,0.00027921631622075275,-0.18418008089065552,18.154138565063477,-1.1164276599884033,-18.047517776489258,-0.4928489327430725,-2.2424349784851074,0.12485067546367645,0
62,0.30500102043151855,0.16037636995315552,-18.177942276000977,1.1680023670196533,17.972139358520508,0.4809470772743225,2.2296175956726074,-0.16604940593242645,0.0,0.0,0.0,0.0,0.0,0.0,0.0,0.1763130458756133,0.515868498282242,0.3300862377702844,0.355203721928398,0.06792702831175422,0.04778613654321333,-0.139448740109413,-0.6090624224470372,-0.05753013934880797,-0.6666030705672126,-2.5945582074617084,-0.055620657618508484,2.5079771091555685,0.876314612539278,-0.6090851748156966,-0.05753196718556838,-0.666603097082616,-2.5945565370258534,-0.05562143941554,2.507976027223799,0.8763108487046415,0.0006015130448969831,0.0004467373608755147,-0.0005423504281314056,-0.0002033243078382087,0.0004619884666270417,6.150932545335804e-05,0.0005677390233802597,0.0,0.0,0.0,0.0,0.0,0.0,0.0,-2.275236865934005e-05,-1.8278367604138146e-06,-2.6515403428462037e-08,1.6704358549723963e-06,-7.817970315154854e-07,-1.0819317695087705e-06,-3.7638346365165276e-06,-0.0006015130448969831,-0.0004467373608755147,0.0005423504281314056,0.0002033243078382087,-0.0004619884666270417,-6.150932545335804e-05,-0.0005677390233802597,-0.16037636995315552,18.177942276000977,-1.1680023670196533,-17.972139358520508,-0.4809470772743225,-2.2296175956726074,0.16604940593242645,0
63,0.310011625289917,0.16037636995315552,-18.177942276000977,1.1680023670196533,17.972139358520508,0.4809470772743225,2.2296175956726074,-0.16604940593242645,0.0,0.0,0.0,0.0,0.0,0.0,0.0,0.1763130458756133,0.515868498282242,0.3300862377702844,0.355203721928398,0.06792702831175422,0.04778613654321333,-0.139448740109413,-0.6090624224470372,-0.05753013934880797,-0.6666030705672126,-2.5945582074617084,-0.055620657618508484,2.5079771091555685,0.876314612539278,-0.6090851748156966,-0.05753196718556838,-0.666603097082616,-2.5945565370258534,-0.05562143941554,2.507976027223799,0.8763108487046415,0.0006015130448969831,0.0004467373608755147,-0.0005423504281314056,-0.0002033243078382087,0.0004619884666270417,6.150932545335804e-05,0.0005677390233802597,0.0,0.0,0.0,0.0,0.0,0.0,0.0,-2.275236865934005e-05,-1.8278367604138146e-06,-2.6515403428462037e-08,1.6704358549723963e-06,-7.817970315154854e-07,-1.0819317695087705e-06,-3.7638346365165276e-06,-0.0006015130448969831,-0.0004467373608755147,0.0005423504281314056,0.0002033243078382087,-0.0004619884666270417,-6.150932545335804e-05,-0.0005677390233802597,-0.16037636995315552,18.177942276000977,-1.1680023670196533,-17.972139358520508,-0.4809470772743225,-2.2296175956726074,0.16604940593242645,0
64,0.3150050640106201,0.16037636995315552,-18.177942276000977,1.1680023670196533,17.972139358520508,0.4809470772743225,2.2360262870788574,-0.13858358561992645,0.0,0.0,0.0,0.0,0.0,0.0,0.0,0.1738681736889348,0.5095927438095751,0.33094210768623533,0.3605436408247215,0.06793817426269759,0.048538492098853143,-0.141037631955003,-0.6090624224470372,-0.05752695622075101,-0.6666027762356996,-2.5945582074617084,-0.0556206728283786,2.507973571554746,0.8763115559362982,-0.6090851748156966,-0.05753196718556838,-0.666603097082616,-2.5945565370258534,-0.05562143941554,2.507976027223799,0.8763108487046415,0.0007923834308586138,0.0007729653180354192,0.0003560833936413501,0.0009295307286942555,0.00047618223158953733,-0.00018165438987707868,-0.00014952224403739402,0.0,0.0,0.0,0.0,0.0,0.0,0.0,-2.275236865934005e-05,-5.010964817371566e-06,-3.2084691636846685e-07,1.6704358549723963e-06,-7.665871614020991e-07,2.4556690529919933e-06,-7.072316566825165e-07,-0.0007923834308586138,-0.0007729653180354192,-0.0003560833936413501,-0.0009295307286942555,-0.00047618223158953733,0.00018165438987707868,0.00014952224403739402,-0.16037636995315552,18.177942276000977,-1.1680023670196533,-17.972139358520508,-0.4809470772743225,-2.2360262870788574,0.13858358561992645,0
65,0.32000279426574707,0.16037636995315552,-18.177942276000977,1.1680023670196533,17.972139358520508,0.4809470772743225,2.2360262870788574,-0.13858358561992645,0.0,0.0,0.0,0.0,0.0,0.0,0.0,0.1738681736889348,0.5095927438095751,0.33094210768623533,0.3605436408247215,0.06793817426269759,0.048538492098853143,-0.141037631955003,-0.6090624224470372,-0.05752695622075101,-0.6666027762356996,-2.5945582074617084,-0.0556206728283786,2.507973571554746,0.8763115559362982,-0.6090851748156966,-0.05753196718556838,-0.666603097082616,-2.5945565370258534,-0.05562143941554,2.507976027223799,0.8763108487046415,0.0007923834308586138,0.0007729653180354192,0.0003560833936413501,0.0009295307286942555,0.00047618223158953733,-0.00018165438987707868,-0.00014952224403739402,0.0,0.0,0.0,0.0,0.0,0.0,0.0,-2.275236865934005e-05,-5.010964817371566e-06,-3.2084691636846685e-07,1.6704358549723963e-06,-7.665871614020991e-07,2.4556690529919933e-06,-7.072316566825165e-07,-0.0007923834308586138,-0.0007729653180354192,-0.0003560833936413501,-0.0009295307286942555,-0.00047618223158953733,0.00018165438987707868,0.00014952224403739402,-0.16037636995315552,18.177942276000977,-1.1680023670196533,-17.972139358520508,-0.4809470772743225,-2.2360262870788574,0.13858358561992645,0
66,0.32500243186950684,0.18418008089065552,-18.130334854125977,1.1680023670196533,17.972139358520508,0.4864402413368225,2.2360262870788574,-0.17337362468242645,0.0,0.0,0.0,0.0,0.0,0.0,0.0,0.17718382088101778,0.5164481060215139,0.3405856684410463,0.35621881258902544,0.06757611528409482,0.04748308586904516,-0.14424618958677995,-0.6090640928828925,-0.05753242794054341,-0.666603070577963,-2.5945582074617084,-0.055618111269934184,2.5079731794032405,0.8763154262874989,-0.6090851748156966,-0.05753196718556838,-0.666603097082616,-2.5945565370258534,-0.05562143941554,2.507976027223799,0.8763108487046415,0.00029999031264669866,-0.0002604125206658894,0.0006830427268498455,0.0007318402276878462,0.00014448436714625636,8.549305298824609e-05,0.0002483107247717348,0.0,0.0,0.0,0.0,0.0,0.0,0.0,-2.1081932804034587e-05,4.6075497502767737e-07,-2.650465302789229e-08,1.6704358549723963e-06,-3.3281456058159575e-06,2.847820558482539e-06,-4.577582857434592e-06,-0.00029999031264669866,0.0002604125206658894,-0.0006830427268498455,-0.0007318402276878462,-0.00014448436714625636,-8.549305298824609e-05,-0.0002483107247717348,-0.18418008089065552,18.130334854125977,-1.1680023670196533,-17.972139358520508,-0.4864402413368225,-2.2360262870788574,0.17337362468242645,0
67,0.3311011791229248,0.18418008089065552,-18.130334854125977,1.1680023670196533,17.972139358520508,0.4864402413368225,2.2360262870788574,-0.17337362468242645,0.0,0.0,0.0,0.0,0.0,0.0,0.0,0.17718382088101778,0.5164481060215139,0.3405856684410463,0.35621881258902544,0.06757611528409482,0.04748308586904516,-0.14424618958677995,-0.6090640928828925,-0.05753242794054341,-0.666603070577963,-2.5945582074617084,-0.055618111269934184,2.5079731794032405,0.8763154262874989,-0.6090851748156966,-0.05753196718556838,-0.666603097082616,-2.5945565370258534,-0.05562143941554,2.507976027223799,0.8763108487046415,0.00029999031264669866,-0.0002604125206658894,0.0006830427268498455,0.0007318402276878462,0.00014448436714625636,8.549305298824609e-05,0.0002483107247717348,0.0,0.0,0.0,0.0,0.0,0.0,0.0,-2.1081932804034587e-05,4.6075497502767737e-07,-2.650465302789229e-08,1.6704358549723963e-06,-3.3281456058159575e-06,2.847820558482539e-06,-4.577582857434592e-06,-0.00029999031264669866,0.0002604125206658894,-0.0006830427268498455,-0.0007318402276878462,-0.00014448436714625636,-8.549305298824609e-05,-0.0002483107247717348,-0.18418008089065552,18.130334854125977,-1.1680023670196533,-17.972139358520508,-0.4864402413368225,-2.2360262870788574,0.17337362468242645,0
68,0.33508944511413574,0.18418008089065552,-18.106531143188477,1.1918060779571533,17.999910354614258,0.4983420968055725,2.2296175956726074,-0.16604940593242645,0.0,0.0,0.0,0.0,0.0,0.0,0.0,0.1694095257731338,0.5182585087756447,0.33798748081513186,0.35689689825387155,0.06809937824749392,0.048376945370260944,-0.149020825952892,-0.6090640928828925,-0.05753410827610198,-0.666604767506433,-2.5945601563035394,-0.055623814825789986,2.5079738909933327,0.8763141372283473,-0.6090851748156966,-0.05753196718556838,-0.666603097082616,-2.5945565370258534,-0.05562143941554,2.507976027223799,0.8763108487046415,-0.00045629370429510713,-0.0003082675650668805,-0.0005042658444013992,-0.0005079497570337318,-0.00010690960138590813,0.00017948694118984475,0.00037748443213980493,0.0,0.0,0.0,0.0,0.0,0.0,0.0,-2.1081932804034587e-05,2.141090533598622e-06,1.670423817046185e-06,3.61927768599557e-06,2.3754102499856655e-06,2.1362304662986276e-06,-3.2885237057911354e-06,0.00045629370429510713,0.0003082675650668805,0.0005042658444013992,0.0005079497570337318,0.00010690960138590813,-0.00017948694118984475,-0.00037748443213980493,-0.18418008089065552,18.106531143188477,-1.1918060779571533,-17.999910354614258,-0.4983420968055725,-2.2296175956726074,0.16604940593242645,0
69,0.34000062942504883,0.18418008089065552,-18.106531143188477,1.1918060779571533,17.999910354614258,0.4983420968055725,2.2296175956726074,-0.16604940593242645,0.0,0.0,0.0,0.0,0.0,0.0,0.0,0.1694095257731338,0.5182585087756447,0.33798748081513186,0.35689689825387155,0.06809937824749392,0.048376945370260944,-0.149020825952892,-0.6090640928828925,-0.05753410827610198,-0.666604767506433,-2.5945601563035394,-0.055623814825789986,2.5079738909933327,0.8763141372283473,-0.6090851748156966,-0.05753196718556838,-0.666603097082616,-2.5945565370258534,-0.05562143941554,2.507976027223799,0.8763108487046415,-0.00045629370429510713,-0.0003082675650668805,-0.0005042658444013992,-0.0005079497570337318,-0.00010690960138590813,0.00017948694118984475,0.00037748443213980493,0.0,0.0,0.0,0.0,0.0,0.0,0.0,-2.1081932804034587e-05,2.141090533598622e-06,1.670423817046185e-06,3.61927768599557e-06,2.3754102499856655e-06,2.1362304662986276e-06,-3.2885237057911354e-06,0.00045629370429510713,0.0003082675650668805,0.0005042658444013992,0.0005079497570337318,0.00010690960138590813,-0.00017948694118984475,-0.00037748443213980493,-0.18418008089065552,18.106531143188477,-1.1918060779571533,-17.999910354614258,-0.4983420968055725,-2.2296175956726074,0.16604940593242645,0
70,0.3450024127960205,0.16037636995315552,-18.130334854125977,1.1680023670196533,17.999910354614258,0.4928489327430725,2.2424349784851074,-0.18710653483867645,0.0,0.0,0.0,0.0,0.0,0.0,0.0,0.16930186762272306,0.5198070821925176,0.3397368247136021,0.3577107160854011,0.06882784616866697,0.049069765626517416,-0.15352302826547148,-0.609062395956084,-0.0575306212507415,-0.6666030970707273,-2.5945601563035394,-0.055619629474380226,2.5079735264778136,0.8763169522175845,-0.6090851748156966,-0.05753196718556838,-0.666603097082616,-2.5945565370258534,-0.05562143941554,2.507976027223799,0.8763108487046415,0.00023611777091588881,0.00012389681723277916,-0.0008080298030916777,-0.0007651250096166256,9.050263250005172e-05,-0.0002669108452503163,0.00023599153589510307,0.0,0.0,0.0,0.0,0.0,0.0,0.0,-2.2778859612548885e-05,-1.345934826882389e-06,-1.1888712236896026e-11,3.61927768599557e-06,-1.8099411597735648e-06,2.500745985400954e-06,-6.103512943056444e-06,-0.00023611777091588881,-0.00012389681723277916,0.0008080298030916777,0.0007651250096166256,-9.050263250005172e-05,0.0002669108452503163,-0.00023599153589510307,-0.16037636995315552,18.130334854125977,-1.1680023670196533,-17.999910354614258,-0.4928489327430725,-2.2424349784851074,0.18710653483867645,0
71,0.34999775886535645,0.16037636995315552,-18.130334854125977,1.1680023670196533,17.999910354614258,0.4928489327430725,2.2424349784851074,-0.18710653483867645,0.0,0.0,0.0,0.0,0.0,0.0,0.0,0.16930186762272306,0.5198070821925176,0.3397368247136021,0.3577107160854011,0.06882784616866697,0.049069765626517416,-0.15352302826547148,-0.609062395956084,-0.0575306212507415,-0.6666030970707273,-2.5945601563035394,-0.055619629474380226,2.5079735264778136,0.8763169522175845,-0.6090851748156966,-0.05753196718556838,-0.666603097082616,-2.5945565370258534,-0.05562143941554,2.507976027223799,0.8763108487046415,0.00023611777091588881,0.00012389681723277916,-0.0008080298030916777,-0.0007651250096166256,9.050263250005172e-05,-0.0002669108452503163,0.00023599153589510307,0.0,0.0,0.0,0.0,0.0,0.0,0.0,-2.2778859612548885e-05,-1.345934826882389e-06,-1.1888712236896026e-11,3.61927768599557e-06,-1.8099411597735648e-06,2.500745985400954e-06,-6.103512943056444e-06,-0.00023611777091588881,-0.00012389681723277916,0.0008080298030916777,0.0007651250096166256,-9.050263250005172e-05,0.0002669108452503163,-0.00023599153589510307,-0.16037636995315552,18.130334854125977,-1.1680023670196533,-17.999910354614258,-0.4928489327430725,-2.2424349784851074,0.18710653483867645,0
72,0.355010986328125,0.16037636995315552,-18.130334854125977,1.1680023670196533,17.999910354614258,0.4928489327430725,2.2424349784851074,-0.18710653483867645,0.0,0.0,0.0,0.0,0.0,0.0,0.0,0.16930186762272306,0.5198070821925176,0.3397368247136021,0.3577107160854011,0.06882784616866697,0.049069765626517416,-0.15352302826547148,-0.609062395956084,-0.0575306212507415,-0.6666030970707273,-2.5945601563035394,-0.055619629474380226,2.5079735264778136,0.8763169522175845,-0.6090851748156966,-0.05753196718556838,-0.666603097082616,-2.5945565370258534,-0.05562143941554,2.507976027223799,0.8763108487046415,0.00023611777091588881,0.00012389681723277916,-0.0008080298030916777,-0.0007651250096166256,9.050263250005172e-05,-0.0002669108452503163,0.00023599153589510307,0.0,0.0,0.0,0.0,0.0,0.0,0.0,-2.2778859612548885e-05,-1.345934826882389e-06,-1.1888712236896026e-11,3.61927768599557e-06,-1.8099411597735648e-06,2.500745985400954e-06,-6.103512943056444e-06,-0.00023611777091588881,-0.00012389681723277916,0.0008080298030916777,0.0007651250096166256,-9.050263250005172e-05,0.0002669108452503163,-0.00023599153589510307,-0.16037636995315552,18.130334854125977,-1.1680023670196533,-17.999910354614258,-0.4928489327430725,-2.2424349784851074,0.18710653483867645,0
73,0.35999345779418945,0.16037636995315552,-18.154138565063477,1.1441986560821533,17.972139358520508,0.4928489327430725,2.2296175956726074,-0.17978231608867645,0.0,0.0,0.0,0.0,0.0,0.0,0.0,0.17608496509505325,0.5190650462391974,0.34478187882104216,0.36185773707920954,0.0687424560619766,0.05048819201218783,-0.15893072548909343,-0.6090624224468877,-0.05753155811947001,-0.6665992805406115,-2.5945582074617084,-0.05562305406131053,2.50797707136725,0.8763161369646341,-0.6090851748156966,-0.05753196718556838,-0.666603097082616,-2.5945565370258534,-0.05562143941554,2.507976027223799,0.8763108487046415,0.00037057762816587226,0.00036830269813522756,-1.7083398950604945e-05,0.0005345777816685665,-0.00015535139691567537,0.00012609918047623263,-0.00021021099398620542,0.0,0.0,0.0,0.0,0.0,0.0,0.0,-2.275236880888709e-05,-4.0906609837659813e-07,-3.816542004542178e-06,1.6704358549723963e-06,1.6146457705312756e-06,-1.0441434508123848e-06,-5.288259992575206e-06,-0.00037057762816587226,-0.00036830269813522756,1.7083398950604945e-05,-0.0005345777816685665,0.00015535139691567537,-0.00012609918047623263,0.00021021099398620542,-0.16037636995315552,18.154138565063477,-1.1441986560821533,-17.972139358520508,-0.4928489327430725,-2.2296175956726074,0.17978231608867645,0
74,0.36499714851379395,0.16037636995315552,-18.154138565063477,1.1441986560821533,17.972139358520508,0.4928489327430725,2.2296175956726074,-0.17978231608867645,0.0,0.0,0.0,0.0,0.0,0.0,0.0,0.17608496509505325,0.5190650462391974,0.34478187882104216,0.36185773707920954,0.0687424560619766,0.05048819201218783,-0.15893072548909343,-0.6090624224468877,-0.05753155811947001,-0.6665992805406115,-2.5945582074617084,-0.05562305406131053,2.50797707136725,0.8763161369646341,-0.6090851748156966,-0.05753196718556838,-0.666603097082616,-2.5945565370258534,-0.05562143941554,2.507976027223799,0.8763108487046415,0.00037057762816587226,0.00036830269813522756,-1.7083398950604945e-05,0.0005345777816685665,-0.00015535139691567537,0.00012609918047623263,-0.00021021099398620542,0.0,0.0,0.0,0.0,0.0,0.0,0.0,-2.275236880888709e-05,-4.0906609837659813e-07,-3.816542004542178e-06,1.6704358549723963e-06,1.6146457705312756e-06,-1.0441434508123848e-06,-5.288259992575206e-06,-0.00037057762816587226,-0.00036830269813522756,1.7083398950604945e-05,-0.0005345777816685665,0.00015535139691567537,-0.00012609918047623263,0.00021021099398620542,-0.16037636995315552,18.154138565063477,-1.1441986560821533,-17.972139358520508,-0.4928489327430725,-2.2296175956726074,0.17978231608867645,0
75,0.3721046447753906,0.18418008089065552,-18.154138565063477,1.1680023670196533,17.972139358520508,0.4983420968055725,2.2360262870788574,-0.19351522624492645,0.0,0.0,0.0,0.0,0.0,0.0,0.0,0.17579811336314158,0.5155243202374714,0.34115316487468095,0.3552894841584317,0.0682704202310839,0.04958933825863064,-0.16529132499482987,-0.6090640928828925,-0.05752933672735077,-0.6666030617010028,-2.5945582074617084,-0.055623335850358294,2.5079731789344604,0.8763176642970825,-0.6090851748156966,-0.05753196718556838,-0.666603097082616,-2.5945565370258534,-0.05562143941554,2.507976027223799,0.8763108487046415,-0.0003569754219292629,-0.0010012973383113687,-0.00025875875940527704,-3.473031245915524e-05,9.023373666657041e-05,-0.00022586794834115692,0.00047474193906839855,0.0,0.0,0.0,0.0,0.0,0.0,0.0,-2.1081932804034587e-05,-2.630458217613152e-06,-3.538161319482924e-08,1.6704358549723963e-06,1.896434818293713e-06,2.8482893386083674e-06,-6.815592440978513e-06,0.0003569754219292629,0.0010012973383113687,0.00025875875940527704,3.473031245915524e-05,-9.023373666657041e-05,0.00022586794834115692,-0.00047474193906839855,-0.18418008089065552,18.154138565063477,-1.1680023670196533,-17.972139358520508,-0.4983420968055725,-2.2360262870788574,0.19351522624492645,0
76,0.3749969005584717,0.18418008089065552,-18.154138565063477,1.1680023670196533,17.972139358520508,0.4983420968055725,2.2360262870788574,-0.19351522624492645,0.0,0.0,0.0,0.0,0.0,0.0,0.0,0.17579811336314158,0.5155243202374714,0.34115316487468095,0.3552894841584317,0.0682704202310839,0.04958933825863064,-0.16529132499482987,-0.6090640928828925,-0.05752933672735077,-0.6666030617010028,-2.5945582074617084,-0.055623335850358294,2.5079731789344604,0.8763176642970825,-0.6090851748156966,-0.05753196718556838,-0.666603097082616,-2.5945565370258534,-0.05562143941554,2.507976027223799,0.8763108487046415,-0.0003569754219292629,-0.0010012973383113687,-0.00025875875940527704,-3.473031245915524e-05,9.023373666657041e-05,-0.00022586794834115692,0.00047474193906839855,0.0,0.0,0.0,0.0,0.0,0.0,0.0,-2.1081932804034587e-05,-2.630458217613152e-06,-3.538161319482924e-08,1.6704358549723963e-06,1.896434818293713e-06,2.8482893386083674e-06,-6.815592440978513e-06,0.0003569754219292629,0.0010012973383113687,0.00025875875940527704,3.473031245915524e-05,-9.023373666657041e-05,0.00022586794834115692,-0.00047474193906839855,-0.18418008089065552,18.154138565063477,-1.1680023670196533,-17.972139358520508,-0.4983420968055725,-2.2360262870788574,0.19351522624492645,0
77,0.3800044059753418,0.13260537385940552,-18.177942276000977,1.1441986560821533,17.999910354614258,0.4864402413368225,2.2232089042663574,-0.19351522624492645,0.0,0.0,0.0,0.0,0.0,0.0,0.0,0.1718915770867501,0.509309141226737,0.3383132595423768,0.3537143114373201,0.0690005480647211,0.04957417998899802,-0.16941170413765688,-0.6090604736052061,-0.05752790293091746,-0.666601399162706,-2.5945601563035394,-0.05561783530321573,2.5079746074308042,0.8763175465595207,-0.6090851748156966,-0.05753196718556838,-0.666603097082616,-2.5945565370258534,-0.05562143941554,2.507976027223799,0.8763108487046415,0.0009303967493227103,-0.00010014057964267202,-0.00011200074879624269,-0.00023845877688731445,0.00042988398767057173,0.0004237277422684873,0.0003280186782637858,0.0,0.0,0.0,0.0,0.0,0.0,0.0,-2.4701210490474246e-05,-4.064254650923416e-06,-1.6979199100042308e-06,3.61927768599557e-06,-3.604112324272213e-06,1.419792994727942e-06,-6.697854879167409e-06,-0.0009303967493227103,0.00010014057964267202,0.00011200074879624269,0.00023845877688731445,-0.00042988398767057173,-0.0004237277422684873,-0.0003280186782637858,-0.13260537385940552,18.177942276000977,-1.1441986560821533,-17.999910354614258,-0.4864402413368225,-2.2232089042663574,0.19351522624492645,0
78,0.3849964141845703,0.13260537385940552,-18.177942276000977,1.1441986560821533,17.999910354614258,0.4864402413368225,2.2232089042663574,-0.19351522624492645,0.0,0.0,0.0,0.0,0.0,0.0,0.0,0.1718915770867501,0.509309141226737,0.3383132595423768,0.3537143114373201,0.0690005480647211,0.04957417998899802,-0.16941170413765688,-0.6090604736052061,-0.05752790293091746,-0.666601399162706,-2.5945601563035394,-0.05561783530321573,2.5079746074308042,0.8763175465595207,-0.6090851748156966,-0.05753196718556838,-0.666603097082616,-2.5945565370258534,-0.05562143941554,2.507976027223799,0.8763108487046415,0.0009303967493227103,-0.00010014057964267202,-0.00011200074879624269,-0.00023845877688731445,0.00042988398767057173,0.0004237277422684873,0.0003280186782637858,0.0,0.0,0.0,0.0,0.0,0.0,0.0,-2.4701210490474246e-05,-4.064254650923416e-06,-1.6979199100042308e-06,3.61927768599557e-06,-3.604112324272213e-06,1.419792994727942e-06,-6.697854879167409e-06,-0.0009303967493227103,0.00010014057964267202,0.00011200074879624269,0.00023845877688731445,-0.00042988398767057173,-0.0004237277422684873,-0.0003280186782637858,-0.13260537385940552,18.177942276000977,-1.1441986560821533,-17.999910354614258,-0.4864402413368225,-2.2232089042663574,0.19351522624492645,0
79,0.38999319076538086,0.18418008089065552,-18.130334854125977,1.1441986560821533,17.972139358520508,0.4928489327430725,2.2296175956726074,-0.17337362468242645,0.0,0.0,0.0,0.0,0.0,0.0,0.0,0.16850481543391194,0.5064848912204274,0.33443381292481894,0.35351004869818714,0.06929645787372059,0.049444805235740893,-0.17413112313056422,-0.6090640928828925,-0.05753029675505926,-0.6665992807221501,-2.5945582074617084,-0.05561996484496831,2.5079738911548604,0.8763154261791912,-0.6090851748156966,-0.05753196718556838,-0.666603097082616,-2.5945565370258534,-0.05562143941554,2.507976027223799,0.8763108487046415,-0.0008412558154626499,-0.0007877044684150378,-0.0006836579933381327,0.0007690183532144237,-8.624903010323961e-05,5.201758389583241e-05,-0.0005837217247954097,0.0,0.0,0.0,0.0,0.0,0.0,0.0,-2.1081932804034587e-05,-1.6704305091236327e-06,-3.816360465869195e-06,1.6704358549723963e-06,-1.4745705716884272e-06,2.1360689386185072e-06,-4.577474549738447e-06,0.0008412558154626499,0.0007877044684150378,0.0006836579933381327,-0.0007690183532144237,8.624903010323961e-05,-5.201758389583241e-05,0.0005837217247954097,-0.18418008089065552,18.130334854125977,-1.1441986560821533,-17.972139358520508,-0.4928489327430725,-2.2296175956726074,0.17337362468242645,0
