rezayati/contactInterpretation/dataset/franka_main/labeled_data/link1/g1_7.csv
index,time,tau_J0,tau_J1,tau_J2,tau_J3,tau_J4,tau_J5,tau_J6,tau_J_d0,tau_J_d1,tau_J_d2,tau_J_d3,tau_J_d4,tau_J_d5,tau_J_d6,tau_ext0,tau_ext1,tau_ext2,tau_ext3,tau_ext4,tau_ext5,tau_ext6,q0,q1,q2,q3,q4,q5,q6,q_d0,q_d1,q_d2,q_d3,q_d4,q_d5,q_d6,dq0,dq1,dq2,dq3,dq4,dq5,dq6,dq_d0,dq_d1,dq_d2,dq_d3,dq_d4,dq_d5,dq_d6,e0,e1,e2,e3,e4,e5,e6,de0,de1,de2,de3,de4,de5,de6,etau_J0,etau_J1,etau_J2,etau_J3,etau_J4,etau_J5,etau_J6,label
1,0.0,-0.09352988004684448,-12.024682998657227,1.2671844959259033,21.693452835083008,0.4031272530555725,2.5143465995788574,-0.22098104655742645,0.0,0.0,0.0,0.0,0.0,0.0,0.0,-0.11374202751114501,0.3257638618282851,0.10434091665011087,0.42299051169081925,-0.13439083357962192,0.12178996923245766,-0.20314687098679518,0.1728766183413957,-0.4875181470879337,-0.11146872877455716,-1.94637684547692,0.13360334553897815,2.5955517839325797,0.9452491365985738,0.1728802376190821,-0.48752024683155326,-0.11147110072896137,-1.9463801863486305,0.1336059019074957,2.595550359778934,0.9452445589611904,-0.000582602084883878,-0.00026137553468170727,0.0006909637584423421,0.00041956382248674497,-0.00017148974856287847,0.00033488337232176637,0.0012101353953292242,0.0,0.0,0.0,0.0,0.0,0.0,0.0,3.6192776864119036e-06,-2.0997436195879793e-06,-2.371954404209453e-06,-3.3408717106109265e-06,2.5563685175367112e-06,-1.4241536456793824e-06,-4.5776373833739115e-06,0.000582602084883878,0.00026137553468170727,-0.0006909637584423421,-0.00041956382248674497,0.00017148974856287847,-0.00033488337232176637,-0.0012101353953292242,0.09352988004684448,12.024682998657227,-1.2671844959259033,-21.693452835083008,-0.4031272530555725,-2.5143465995788574,0.22098104655742645,0
2,0.004997730255126953,-0.09352988004684448,-12.024682998657227,1.2671844959259033,21.693452835083008,0.4031272530555725,2.5143465995788574,-0.22098104655742645,0.0,0.0,0.0,0.0,0.0,0.0,0.0,-0.11374202751114501,0.3257638618282851,0.10434091665011087,0.42299051169081925,-0.13439083357962192,0.12178996923245766,-0.20314687098679518,0.1728766183413957,-0.4875181470879337,-0.11146872877455716,-1.94637684547692,0.13360334553897815,2.5955517839325797,0.9452491365985738,0.1728802376190821,-0.48752024683155326,-0.11147110072896137,-1.9463801863486305,0.1336059019074957,2.595550359778934,0.9452445589611904,-0.000582602084883878,-0.00026137553468170727,0.0006909637584423421,0.00041956382248674497,-0.00017148974856287847,0.00033488337232176637,0.0012101353953292242,0.0,0.0,0.0,0.0,0.0,0.0,0.0,3.6192776864119036e-06,-2.0997436195879793e-06,-2.371954404209453e-06,-3.3408717106109265e-06,2.5563685175367112e-06,-1.4241536456793824e-06,-4.5776373833739115e-06,0.000582602084883878,0.00026137553468170727,-0.0006909637584423421,-0.00041956382248674497,0.00017148974856287847,-0.00033488337232176637,-0.0012101353953292242,0.09352988004684448,12.024682998657227,-1.2671844959259033,-21.693452835083008,-0.4031272530555725,-2.5143465995788574,0.22098104655742645,0
3,0.009998559951782227,-0.12130087614059448,-11.949304580688477,1.2433807849884033,21.693452835083008,0.4031272530555725,2.5143465995788574,-0.21457235515117645,0.0,0.0,0.0,0.0,0.0,0.0,0.0,-0.11641032401275428,0.33889059504441843,0.10103424672904283,0.41570820475601916,-0.13452538376354065,0.12074075131999637,-0.20395108191736053,0.17287856718322683,-0.48752343680147536,-0.11146704956841817,-1.94637684547692,0.13360333165102659,2.5955517839325797,0.9452484245217508,0.1728802376190821,-0.48752024683155326,-0.11147110072896137,-1.9463801863486305,0.1336059019074957,2.595550359778934,0.9452445589611904,-0.0002792557711894595,0.00013136345007411292,0.000946031893213875,5.032983250287648e-05,-0.00023581109711381715,7.66722805712698e-05,0.0008939804668269698,0.0,0.0,0.0,0.0,0.0,0.0,0.0,1.6704358552777077e-06,3.189969922101632e-06,-4.051160543194765e-06,-3.3408717106109265e-06,2.5702564691032492e-06,-1.4241536456793824e-06,-3.865560560423198e-06,0.0002792557711894595,-0.00013136345007411292,-0.000946031893213875,-5.032983250287648e-05,0.00023581109711381715,-7.66722805712698e-05,-0.0008939804668269698,0.12130087614059448,11.949304580688477,-1.2433807849884033,-21.693452835083008,-0.4031272530555725,-2.5143465995788574,0.21457235515117645,0
4,0.014994144439697266,-0.12130087614059448,-11.949304580688477,1.2433807849884033,21.693452835083008,0.4031272530555725,2.5143465995788574,-0.21457235515117645,0.0,0.0,0.0,0.0,0.0,0.0,0.0,-0.11641032401275428,0.33889059504441843,0.10103424672904283,0.41570820475601916,-0.13452538376354065,0.12074075131999637,-0.20395108191736053,0.17287856718322683,-0.48752343680147536,-0.11146704956841817,-1.94637684547692,0.13360333165102659,2.5955517839325797,0.9452484245217508,0.1728802376190821,-0.48752024683155326,-0.11147110072896137,-1.9463801863486305,0.1336059019074957,2.595550359778934,0.9452445589611904,-0.0002792557711894595,0.00013136345007411292,0.000946031893213875,5.032983250287648e-05,-0.00023581109711381715,7.66722805712698e-05,0.0008939804668269698,0.0,0.0,0.0,0.0,0.0,0.0,0.0,1.6704358552777077e-06,3.189969922101632e-06,-4.051160543194765e-06,-3.3408717106109265e-06,2.5702564691032492e-06,-1.4241536456793824e-06,-3.865560560423198e-06,0.0002792557711894595,-0.00013136345007411292,-0.000946031893213875,-5.032983250287648e-05,0.00023581109711381715,-7.66722805712698e-05,-0.0008939804668269698,0.12130087614059448,11.949304580688477,-1.2433807849884033,-21.693452835083008,-0.4031272530555725,-2.5143465995788574,0.21457235515117645,0
5,0.019997358322143555,-0.12130087614059448,-11.873926162719727,1.3147919178009033,21.717256546020508,0.3912253975868225,2.5143465995788574,-0.17978231608867645,0.0,0.0,0.0,0.0,0.0,0.0,0.0,-0.11708771139427722,0.3385654512713181,0.09988625460010601,0.4229637366140099,-0.13429887787603473,0.1204834557873961,-0.20377226469630083,0.17287856718322683,-0.4875294417707543,-0.1114721397968993,-1.946378515912775,0.1336078691676075,2.5955517839325797,0.945244558961855,0.1728802376190821,-0.48752024683155326,-0.11147110072896137,-1.9463801863486305,0.1336059019074957,2.595550359778934,0.9452445589611904,-0.00012343777824231147,-0.00045971422966652013,-0.0009604215401288823,4.2968182731707504e-05,0.0004621824620653237,-6.574143241056143e-06,-0.0008808234213070643,0.0,0.0,0.0,0.0,0.0,0.0,0.0,1.6704358552777077e-06,9.19493920104042e-06,1.039067937927407e-06,-1.6704358554164855e-06,-1.9672601118125854e-06,-1.4241536456793824e-06,-6.645795025406187e-13,0.00012343777824231147,0.00045971422966652013,0.0009604215401288823,-4.2968182731707504e-05,-0.0004621824620653237,6.574143241056143e-06,0.0008808234213070643,0.12130087614059448,11.873926162719727,-1.3147919178009033,-21.717256546020508,-0.3912253975868225,-2.5143465995788574,0.17978231608867645,0
6,0.025006771087646484,-0.12130087614059448,-11.873926162719727,1.3147919178009033,21.717256546020508,0.3912253975868225,2.5143465995788574,-0.17978231608867645,0.0,0.0,0.0,0.0,0.0,0.0,0.0,-0.11708771139427722,0.3385654512713181,0.09988625460010601,0.4229637366140099,-0.13429887787603473,0.1204834557873961,-0.20377226469630083,0.17287856718322683,-0.4875294417707543,-0.1114721397968993,-1.946378515912775,0.1336078691676075,2.5955517839325797,0.945244558961855,0.1728802376190821,-0.48752024683155326,-0.11147110072896137,-1.9463801863486305,0.1336059019074957,2.595550359778934,0.9452445589611904,-0.00012343777824231147,-0.00045971422966652013,-0.0009604215401288823,4.2968182731707504e-05,0.0004621824620653237,-6.574143241056143e-06,-0.0008808234213070643,0.0,0.0,0.0,0.0,0.0,0.0,0.0,1.6704358552777077e-06,9.19493920104042e-06,1.039067937927407e-06,-1.6704358554164855e-06,-1.9672601118125854e-06,-1.4241536456793824e-06,-6.645795025406187e-13,0.00012343777824231147,0.00045971422966652013,0.0009604215401288823,-4.2968182731707504e-05,-0.0004621824620653237,6.574143241056143e-06,0.0008808234213070643,0.12130087614059448,11.873926162719727,-1.3147919178009033,-21.717256546020508,-0.3912253975868225,-2.5143465995788574,0.17978231608867645,0
7,0.03000187873840332,-0.09352988004684448,-11.873926162719727,1.2909882068634033,21.717256546020508,0.4095359444618225,2.5143465995788574,-0.15231649577617645,0.0,0.0,0.0,0.0,0.0,0.0,0.0,-0.11782804305281838,0.3445320591392427,0.09909960060160054,0.43271995730761514,-0.13443131591200677,0.12097216112066793,-0.20244909776519313,0.1728766183413957,-0.48752872651905466,-0.11147039044052469,-1.946378515912775,0.13360696703084646,2.5955517839325797,0.9452415072040425,0.1728802376190821,-0.48752024683155326,-0.11147110072896137,-1.9463801863486305,0.1336059019074957,2.595550359778934,0.9452445589611904,-0.00057595891979706,-0.00048719392953842027,-0.00019318074392149045,0.0002641311706079239,-0.00045452525553008597,9.888887497304865e-05,-0.0014267160939023089,0.0,0.0,0.0,0.0,0.0,0.0,0.0,3.6192776864119036e-06,8.479687501394828e-06,-7.10288436678308e-07,-1.6704358554164855e-06,-1.065123350768582e-06,-1.4241536456793824e-06,3.0517571478760885e-06,0.00057595891979706,0.00048719392953842027,0.00019318074392149045,-0.0002641311706079239,0.00045452525553008597,-9.888887497304865e-05,0.0014267160939023089,0.09352988004684448,11.873926162719727,-1.2909882068634033,-21.717256546020508,-0.4095359444618225,-2.5143465995788574,0.15231649577617645,0
8,0.0350039005279541,-0.09352988004684448,-11.873926162719727,1.2909882068634033,21.717256546020508,0.4095359444618225,2.5143465995788574,-0.15231649577617645,0.0,0.0,0.0,0.0,0.0,0.0,0.0,-0.11782804305281838,0.3445320591392427,0.09909960060160054,0.43271995730761514,-0.13443131591200677,0.12097216112066793,-0.20244909776519313,0.1728766183413957,-0.48752872651905466,-0.11147039044052469,-1.946378515912775,0.13360696703084646,2.5955517839325797,0.9452415072040425,0.1728802376190821,-0.48752024683155326,-0.11147110072896137,-1.9463801863486305,0.1336059019074957,2.595550359778934,0.9452445589611904,-0.00057595891979706,-0.00048719392953842027,-0.00019318074392149045,0.0002641311706079239,-0.00045452525553008597,9.888887497304865e-05,-0.0014267160939023089,0.0,0.0,0.0,0.0,0.0,0.0,0.0,3.6192776864119036e-06,8.479687501394828e-06,-7.10288436678308e-07,-1.6704358554164855e-06,-1.065123350768582e-06,-1.4241536456793824e-06,3.0517571478760885e-06,0.00057595891979706,0.00048719392953842027,0.00019318074392149045,-0.0002641311706079239,0.00045452525553008597,-9.888887497304865e-05,0.0014267160939023089,0.09352988004684448,11.873926162719727,-1.2909882068634033,-21.717256546020508,-0.4095359444618225,-2.5143465995788574,0.15231649577617645,0
9,0.04000234603881836,-0.12130087614059448,-11.949304580688477,1.3425629138946533,21.669649124145508,0.4095359444618225,2.5271639823913574,-0.20724813640117645,0.0,0.0,0.0,0.0,0.0,0.0,0.0,-0.11839573181834684,0.3475592595257274,0.09736069885180472,0.4377013439481899,-0.13472418925627513,0.12139766006023262,-0.2013926154870464,0.17287856718322683,-0.4875234368014754,-0.1114740097177656,-1.9463751750410647,0.13360732267421457,2.595550359778934,0.9452476107196676,0.1728802376190821,-0.48752024683155326,-0.11147110072896137,-1.9463801863486305,0.1336059019074957,2.595550359778934,0.9452445589611904,-8.12341296923991e-06,4.105378443729332e-05,-0.0009750771714862137,0.0008736280608921717,-0.0003184389367372307,-0.00042208635874233327,0.0004334249449345377,0.0,0.0,0.0,0.0,0.0,0.0,0.0,1.6704358552777077e-06,3.189969922157143e-06,2.9089888042288514e-06,-5.011307565805367e-06,-1.4207667188848028e-06,0.0,-3.051758477146116e-06,8.12341296923991e-06,-4.105378443729332e-05,0.0009750771714862137,-0.0008736280608921717,0.0003184389367372307,0.00042208635874233327,-0.0004334249449345377,0.12130087614059448,11.949304580688477,-1.3425629138946533,-21.669649124145508,-0.4095359444618225,-2.5271639823913574,0.20724813640117645,0
10,0.04500102996826172,-0.12130087614059448,-11.949304580688477,1.3425629138946533,21.669649124145508,0.4095359444618225,2.5271639823913574,-0.20724813640117645,0.0,0.0,0.0,0.0,0.0,0.0,0.0,-0.11839573181834684,0.3475592595257274,0.09736069885180472,0.4377013439481899,-0.13472418925627513,0.12139766006023262,-0.2013926154870464,0.17287856718322683,-0.4875234368014754,-0.1114740097177656,-1.9463751750410647,0.13360732267421457,2.595550359778934,0.9452476107196676,0.1728802376190821,-0.48752024683155326,-0.11147110072896137,-1.9463801863486305,0.1336059019074957,2.595550359778934,0.9452445589611904,-8.12341296923991e-06,4.105378443729332e-05,-0.0009750771714862137,0.0008736280608921717,-0.0003184389367372307,-0.00042208635874233327,0.0004334249449345377,0.0,0.0,0.0,0.0,0.0,0.0,0.0,1.6704358552777077e-06,3.189969922157143e-06,2.9089888042288514e-06,-5.011307565805367e-06,-1.4207667188848028e-06,0.0,-3.051758477146116e-06,8.12341296923991e-06,-4.105378443729332e-05,0.0009750771714862137,-0.0008736280608921717,0.0003184389367372307,0.00042208635874233327,-0.0004334249449345377,0.12130087614059448,11.949304580688477,-1.3425629138946533,-21.669649124145508,-0.4095359444618225,-2.5271639823913574,0.20724813640117645,0
11,0.04999995231628418,-0.12130087614059448,-11.949304580688477,1.3147919178009033,21.717256546020508,0.4031272530555725,2.5143465995788574,-0.22098104655742645,0.0,0.0,0.0,0.0,0.0,0.0,0.0,-0.11887192017520173,0.3718388458088136,0.10061056165600095,0.4268839614470157,-0.13459057217199927,0.12004625930629043,-0.20147342214708802,0.17287856718322683,-0.4875234368014754,-0.11147214012167692,-1.946378515912775,0.1336068629657755,2.5955507242944504,0.9452491365985738,0.1728802376190821,-0.48752024683155326,-0.11147110072896137,-1.9463801863486305,0.1336059019074957,2.595550359778934,0.9452445589611904,0.00020177151643428935,8.367248451189362e-06,-3.3360291916780075e-05,-7.08818825963343e-05,-0.00017332981437638619,0.00014585477552455183,0.000606615541688798,0.0,0.0,0.0,0.0,0.0,0.0,0.0,1.6704358552777077e-06,3.189969922157143e-06,1.0393927155488702e-06,-1.6704358554164855e-06,-9.610582798191825e-07,-3.645155164377911e-07,-4.5776373833739115e-06,-0.00020177151643428935,-8.367248451189362e-06,3.3360291916780075e-05,7.08818825963343e-05,0.00017332981437638619,-0.00014585477552455183,-0.000606615541688798,0.12130087614059448,11.949304580688477,-1.3147919178009033,-21.717256546020508,-0.4031272530555725,-2.5143465995788574,0.22098104655742645,0
12,0.055004119873046875,-0.12130087614059448,-11.949304580688477,1.3147919178009033,21.717256546020508,0.4031272530555725,2.5143465995788574,-0.22098104655742645,0.0,0.0,0.0,0.0,0.0,0.0,0.0,-0.11887192017520173,0.3718388458088136,0.10061056165600095,0.4268839614470157,-0.13459057217199927,0.12004625930629043,-0.20147342214708802,0.17287856718322683,-0.4875234368014754,-0.11147214012167692,-1.946378515912775,0.1336068629657755,2.5955507242944504,0.9452491365985738,0.1728802376190821,-0.48752024683155326,-0.11147110072896137,-1.9463801863486305,0.1336059019074957,2.595550359778934,0.9452445589611904,0.00020177151643428935,8.367248451189362e-06,-3.3360291916780075e-05,-7.08818825963343e-05,-0.00017332981437638619,0.00014585477552455183,0.000606615541688798,0.0,0.0,0.0,0.0,0.0,0.0,0.0,1.6704358552777077e-06,3.189969922157143e-06,1.0393927155488702e-06,-1.6704358554164855e-06,-9.610582798191825e-07,-3.645155164377911e-07,-4.5776373833739115e-06,-0.00020177151643428935,-8.367248451189362e-06,3.3360291916780075e-05,7.08818825963343e-05,0.00017332981437638619,-0.00014585477552455183,-0.000606615541688798,0.12130087614059448,11.949304580688477,-1.3147919178009033,-21.717256546020508,-0.4031272530555725,-2.5143465995788574,0.22098104655742645,0
13,0.06000065803527832,-0.14510458707809448,-11.949304580688477,1.2909882068634033,21.768831253051758,0.4095359444618225,2.5399813652038574,-0.17337362468242645,0.0,0.0,0.0,0.0,0.0,0.0,0.0,-0.12471714989179367,0.37012395062640396,0.0964924495538353,0.4267802276694059,-0.13391834191300248,0.12064969192908376,-0.201859928308287,0.1728802376190821,-0.4875234368014754,-0.11147062720342105,-1.9463821351904615,0.13360582341462737,2.5955489356193064,0.9452438468850322,0.1728802376190821,-0.48752024683155326,-0.11147110072896137,-1.9463801863486305,0.1336059019074957,2.595550359778934,0.9452445589611904,0.00022539441838619444,-0.0002811239952507529,0.00025966546505784343,-0.001417281593479594,-0.00038716238351657996,-0.0006774049798195301,-0.0004996688240499305,0.0,0.0,0.0,0.0,0.0,0.0,0.0,0.0,3.189969922157143e-06,-4.735255403204297e-07,1.9488418310231737e-06,7.84928683161823e-08,1.424159627561039e-06,7.120761582601887e-07,-0.00022539441838619444,0.0002811239952507529,-0.00025966546505784343,0.001417281593479594,0.00038716238351657996,0.0006774049798195301,0.0004996688240499305,0.14510458707809448,11.949304580688477,-1.2909882068634033,-21.768831253051758,-0.4095359444618225,-2.5399813652038574,0.17337362468242645,0
14,0.06499814987182617,-0.14510458707809448,-11.949304580688477,1.2909882068634033,21.768831253051758,0.4095359444618225,2.5399813652038574,-0.17337362468242645,0.0,0.0,0.0,0.0,0.0,0.0,0.0,-0.12471714989179367,0.37012395062640396,0.0964924495538353,0.4267802276694059,-0.13391834191300248,0.12064969192908376,-0.201859928308287,0.1728802376190821,-0.4875234368014754,-0.11147062720342105,-1.9463821351904615,0.13360582341462737,2.5955489356193064,0.9452438468850322,0.1728802376190821,-0.48752024683155326,-0.11147110072896137,-1.9463801863486305,0.1336059019074957,2.595550359778934,0.9452445589611904,0.00022539441838619444,-0.0002811239952507529,0.00025966546505784343,-0.001417281593479594,-0.00038716238351657996,-0.0006774049798195301,-0.0004996688240499305,0.0,0.0,0.0,0.0,0.0,0.0,0.0,0.0,3.189969922157143e-06,-4.735255403204297e-07,1.9488418310231737e-06,7.84928683161823e-08,1.424159627561039e-06,7.120761582601887e-07,-0.00022539441838619444,0.0002811239952507529,-0.00025966546505784343,0.001417281593479594,0.00038716238351657996,0.0006774049798195301,0.0004996688240499305,0.14510458707809448,11.949304580688477,-1.2909882068634033,-21.768831253051758,-0.4095359444618225,-2.5399813652038574,0.17337362468242645,0
15,0.06999993324279785,-0.09352988004684448,-12.024682998657227,1.3147919178009033,21.768831253051758,0.4031272530555725,2.5271639823913574,-0.18710653483867645,0.0,0.0,0.0,0.0,0.0,0.0,0.0,-0.12192265087095905,0.3679928960459815,0.10581308687771164,0.4265451210917702,-0.1342472061751506,0.12098844953234529,-0.20040920565246698,0.1728766183413957,-0.48751814708793373,-0.11147277116595455,-1.9463821351904615,0.13360702260120672,2.595550359778934,0.9452453727639384,0.1728802376190821,-0.48752024683155326,-0.11147110072896137,-1.9463801863486305,0.1336059019074957,2.595550359778934,0.9452445589611904,-0.0005419523201333627,0.0008886542443721441,-0.0002672017462795055,-0.001266530159950994,-4.462182956771233e-05,-0.0002592875020917396,-6.578382933198791e-05,0.0,0.0,0.0,0.0,0.0,0.0,0.0,3.6192776864119036e-06,-2.099743619532468e-06,1.670436993186919e-06,1.9488418310231737e-06,-1.1206937110264104e-06,0.0,-8.138027479676069e-07,0.0005419523201333627,-0.0008886542443721441,0.0002672017462795055,0.001266530159950994,4.462182956771233e-05,0.0002592875020917396,6.578382933198791e-05,0.09352988004684448,12.024682998657227,-1.3147919178009033,-21.768831253051758,-0.4031272530555725,-2.5271639823913574,0.18710653483867645,0
16,0.07500147819519043,-0.09352988004684448,-12.024682998657227,1.3147919178009033,21.768831253051758,0.4031272530555725,2.5271639823913574,-0.18710653483867645,0.0,0.0,0.0,0.0,0.0,0.0,0.0,-0.12192265087095905,0.3679928960459815,0.10581308687771164,0.4265451210917702,-0.1342472061751506,0.12098844953234529,-0.20040920565246698,0.1728766183413957,-0.48751814708793373,-0.11147277116595455,-1.9463821351904615,0.13360702260120672,2.595550359778934,0.9452453727639384,0.1728802376190821,-0.48752024683155326,-0.11147110072896137,-1.9463801863486305,0.1336059019074957,2.595550359778934,0.9452445589611904,-0.0005419523201333627,0.0008886542443721441,-0.0002672017462795055,-0.001266530159950994,-4.462182956771233e-05,-0.0002592875020917396,-6.578382933198791e-05,0.0,0.0,0.0,0.0,0.0,0.0,0.0,3.6192776864119036e-06,-2.099743619532468e-06,1.670436993186919e-06,1.9488418310231737e-06,-1.1206937110264104e-06,0.0,-8.138027479676069e-07,0.0005419523201333627,-0.0008886542443721441,0.0002672017462795055,0.001266530159950994,4.462182956771233e-05,0.0002592875020917396,6.578382933198791e-05,0.09352988004684448,12.024682998657227,-1.3147919178009033,-21.768831253051758,-0.4031272530555725,-2.5271639823913574,0.18710653483867645,0
17,0.08000898361206055,-0.12130087614059448,-12.000879287719727,1.3425629138946533,21.717256546020508,0.3976340889930725,2.5271639823913574,-0.16604940593242645,0.0,0.0,0.0,0.0,0.0,0.0,0.0,-0.11859484997809068,0.35707948161888786,0.10857243740721673,0.42924473737310725,-0.13434480409978475,0.12109723229588853,-0.20066450675366734,0.17287856718322683,-0.487519817523789,-0.11147401112914494,-1.946378515912775,0.133608330144838,2.595550359778934,0.9452430330829488,0.1728802376190821,-0.48752024683155326,-0.11147110072896137,-1.9463801863486305,0.1336059019074957,2.595550359778934,0.9452445589611904,0.0003060227917549853,-0.0003126260738217535,-0.000853517092793393,-1.0006131284988826e-05,-1.1766998788003345e-05,-8.091940601039513e-05,-0.0010052752946774252,0.0,0.0,0.0,0.0,0.0,0.0,0.0,1.6704358552777077e-06,-4.2930776428251605e-07,2.910400183575579e-06,-1.6704358554164855e-06,-2.4282373423112347e-06,0.0,1.525878241648293e-06,-0.0003060227917549853,0.0003126260738217535,0.000853517092793393,1.0006131284988826e-05,1.1766998788003345e-05,8.091940601039513e-05,0.0010052752946774252,0.12130087614059448,12.000879287719727,-1.3425629138946533,-21.717256546020508,-0.3976340889930725,-2.5271639823913574,0.16604940593242645,0
18,0.08500504493713379,-0.12130087614059448,-12.000879287719727,1.3425629138946533,21.717256546020508,0.3976340889930725,2.5271639823913574,-0.16604940593242645,0.0,0.0,0.0,0.0,0.0,0.0,0.0,-0.11859484997809068,0.35707948161888786,0.10857243740721673,0.42924473737310725,-0.13434480409978475,0.12109723229588853,-0.20066450675366734,0.17287856718322683,-0.487519817523789,-0.11147401112914494,-1.946378515912775,0.133608330144838,2.595550359778934,0.9452430330829488,0.1728802376190821,-0.48752024683155326,-0.11147110072896137,-1.9463801863486305,0.1336059019074957,2.595550359778934,0.9452445589611904,0.0003060227917549853,-0.0003126260738217535,-0.000853517092793393,-1.0006131284988826e-05,-1.1766998788003345e-05,-8.091940601039513e-05,-0.0010052752946774252,0.0,0.0,0.0,0.0,0.0,0.0,0.0,1.6704358552777077e-06,-4.2930776428251605e-07,2.910400183575579e-06,-1.6704358554164855e-06,-2.4282373423112347e-06,0.0,1.525878241648293e-06,-0.0003060227917549853,0.0003126260738217535,0.000853517092793393,1.0006131284988826e-05,1.1766998788003345e-05,8.091940601039513e-05,0.0010052752946774252,0.12130087614059448,12.000879287719727,-1.3425629138946533,-21.717256546020508,-0.3976340889930725,-2.5271639823913574,0.16604940593242645,0
19,0.09001779556274414,-0.12130087614059448,-12.048486709594727,1.2909882068634033,21.693452835083008,0.4031272530555725,2.5143465995788574,-0.22098104655742645,0.0,0.0,0.0,0.0,0.0,0.0,0.0,-0.12423900981285463,0.35532467417866725,0.10016931687777926,0.4249077436629118,-0.13428430648828482,0.12095840408233301,-0.20061234106416065,0.17287856718322683,-0.4875164766520785,-0.11147047033544863,-1.94637684547692,0.13360769199047978,2.5955517839325797,0.9452491365985738,0.1728802376190821,-0.48752024683155326,-0.11147110072896137,-1.9463801863486305,0.1336059019074957,2.595550359778934,0.9452445589611904,-0.00015413548819662038,0.0007648359101732513,0.00020396843991089255,0.000753018620743681,-0.00019294477773460812,0.0005118291221092743,0.0012767844981450868,0.0,0.0,0.0,0.0,0.0,0.0,0.0,1.6704358552777077e-06,-3.7701794747824202e-06,-6.30393512737748e-07,-3.3408717106109265e-06,-1.790082984093333e-06,-1.4241536456793824e-06,-4.5776373833739115e-06,0.00015413548819662038,-0.0007648359101732513,-0.00020396843991089255,-0.000753018620743681,0.00019294477773460812,-0.0005118291221092743,-0.0012767844981450868,0.12130087614059448,12.048486709594727,-1.2909882068634033,-21.693452835083008,-0.4031272530555725,-2.5143465995788574,0.22098104655742645,0
20,0.09500789642333984,-0.12130087614059448,-12.048486709594727,1.2909882068634033,21.693452835083008,0.4031272530555725,2.5143465995788574,-0.22098104655742645,0.0,0.0,0.0,0.0,0.0,0.0,0.0,-0.12423900981285463,0.35532467417866725,0.10016931687777926,0.4249077436629118,-0.13428430648828482,0.12095840408233301,-0.20061234106416065,0.17287856718322683,-0.4875164766520785,-0.11147047033544863,-1.94637684547692,0.13360769199047978,2.5955517839325797,0.9452491365985738,0.1728802376190821,-0.48752024683155326,-0.11147110072896137,-1.9463801863486305,0.1336059019074957,2.595550359778934,0.9452445589611904,-0.00015413548819662038,0.0007648359101732513,0.00020396843991089255,0.000753018620743681,-0.00019294477773460812,0.0005118291221092743,0.0012767844981450868,0.0,0.0,0.0,0.0,0.0,0.0,0.0,1.6704358552777077e-06,-3.7701794747824202e-06,-6.30393512737748e-07,-3.3408717106109265e-06,-1.790082984093333e-06,-1.4241536456793824e-06,-4.5776373833739115e-06,0.00015413548819662038,-0.0007648359101732513,-0.00020396843991089255,-0.000753018620743681,0.00019294477773460812,-0.0005118291221092743,-0.0012767844981450868,0.12130087614059448,12.048486709594727,-1.2909882068634033,-21.693452835083008,-0.4031272530555725,-2.5143465995788574,0.22098104655742645,0
21,0.10000300407409668,-0.09352988004684448,-12.000879287719727,1.2909882068634033,21.693452835083008,0.4031272530555725,2.5207552909851074,-0.18710653483867645,0.0,0.0,0.0,0.0,0.0,0.0,0.0,-0.1271041361288395,0.2810276102246195,0.10329667145515013,0.4544413625672103,-0.13390265897546455,0.12626158903171217,-0.20157291259387247,0.1728766183413957,-0.487519817523789,-0.1114703904401293,-1.94637684547692,0.13360473194284617,2.595551071855757,0.9452453727639384,0.1728802376190821,-0.48752024683155326,-0.11147110072896137,-1.9463801863486305,0.1336059019074957,2.595550359778934,0.9452445589611904,-0.0008405864393667141,0.00019848860382829555,0.0002841871779522438,0.0004984443363481259,-0.00024433432105056235,0.00014326694803925427,0.00023546529917495572,0.0,0.0,0.0,0.0,0.0,0.0,0.0,3.6192776864119036e-06,-4.2930776428251605e-07,-7.102888320703604e-07,-3.3408717106109265e-06,1.1699646495222371e-06,-7.120768228396912e-07,-8.138027479676069e-07,0.0008405864393667141,-0.00019848860382829555,-0.0002841871779522438,-0.0004984443363481259,0.00024433432105056235,-0.00014326694803925427,-0.00023546529917495572,0.09352988004684448,12.000879287719727,-1.2909882068634033,-21.693452835083008,-0.4031272530555725,-2.5207552909851074,0.18710653483867645,0
22,0.10500073432922363,-0.09352988004684448,-12.000879287719727,1.2909882068634033,21.693452835083008,0.4031272530555725,2.5207552909851074,-0.18710653483867645,0.0,0.0,0.0,0.0,0.0,0.0,0.0,-0.1271041361288395,0.2810276102246195,0.10329667145515013,0.4544413625672103,-0.13390265897546455,0.12626158903171217,-0.20157291259387247,0.1728766183413957,-0.487519817523789,-0.1114703904401293,-1.94637684547692,0.13360473194284617,2.595551071855757,0.9452453727639384,0.1728802376190821,-0.48752024683155326,-0.11147110072896137,-1.9463801863486305,0.1336059019074957,2.595550359778934,0.9452445589611904,-0.0008405864393667141,0.00019848860382829555,0.0002841871779522438,0.0004984443363481259,-0.00024433432105056235,0.00014326694803925427,0.00023546529917495572,0.0,0.0,0.0,0.0,0.0,0.0,0.0,3.6192776864119036e-06,-4.2930776428251605e-07,-7.102888320703604e-07,-3.3408717106109265e-06,1.1699646495222371e-06,-7.120768228396912e-07,-8.138027479676069e-07,0.0008405864393667141,-0.00019848860382829555,-0.0002841871779522438,-0.0004984443363481259,0.00024433432105056235,-0.00014326694803925427,-0.00023546529917495572,0.09352988004684448,12.000879287719727,-1.2909882068634033,-21.693452835083008,-0.4031272530555725,-2.5207552909851074,0.18710653483867645,0
23,0.10999774932861328,-0.14510458707809448,-11.973108291625977,1.2909882068634033,21.741060256958008,0.3976340889930725,2.5207552909851074,-0.21457235515117645,0.0,0.0,0.0,0.0,0.0,0.0,0.0,-0.12367737881151504,0.3656088218029944,0.10086133477387581,0.4127772397031372,-0.13447226340915935,0.11980207726115455,-0.2023388802173761,0.1728802376190821,-0.4875217663656201,-0.11147039054833839,-1.9463801863486305,0.13360396004957958,2.595551071855757,0.9452484245217508,0.1728802376190821,-0.48752024683155326,-0.11147110072896137,-1.9463801863486305,0.1336059019074957,2.595550359778934,0.9452445589611904,0.00017176518621580777,0.000217618200634918,-0.00015436898013344025,-0.0005574804544806444,-7.453719305042153e-06,-0.0001078281072566674,0.0010347868232045158,0.0,0.0,0.0,0.0,0.0,0.0,0.0,0.0,1.51953406685168e-06,-7.101806229758978e-07,0.0,1.9418579161045724e-06,-7.120768228396912e-07,-3.865560560423198e-06,-0.00017176518621580777,-0.000217618200634918,0.00015436898013344025,0.0005574804544806444,7.453719305042153e-06,0.0001078281072566674,-0.0010347868232045158,0.14510458707809448,11.973108291625977,-1.2909882068634033,-21.741060256958008,-0.3976340889930725,-2.5207552909851074,0.21457235515117645,0
24,0.11499738693237305,-0.14510458707809448,-11.973108291625977,1.2909882068634033,21.741060256958008,0.3976340889930725,2.5207552909851074,-0.21457235515117645,0.0,0.0,0.0,0.0,0.0,0.0,0.0,-0.12367737881151504,0.3656088218029944,0.10086133477387581,0.4127772397031372,-0.13447226340915935,0.11980207726115455,-0.2023388802173761,0.1728802376190821,-0.4875217663656201,-0.11147039054833839,-1.9463801863486305,0.13360396004957958,2.595551071855757,0.9452484245217508,0.1728802376190821,-0.48752024683155326,-0.11147110072896137,-1.9463801863486305,0.1336059019074957,2.595550359778934,0.9452445589611904,0.00017176518621580777,0.000217618200634918,-0.00015436898013344025,-0.0005574804544806444,-7.453719305042153e-06,-0.0001078281072566674,0.0010347868232045158,0.0,0.0,0.0,0.0,0.0,0.0,0.0,0.0,1.51953406685168e-06,-7.101806229758978e-07,0.0,1.9418579161045724e-06,-7.120768228396912e-07,-3.865560560423198e-06,-0.00017176518621580777,-0.000217618200634918,0.00015436898013344025,0.0005574804544806444,7.453719305042153e-06,0.0001078281072566674,-0.0010347868232045158,0.14510458707809448,11.973108291625977,-1.2909882068634033,-21.741060256958008,-0.3976340889930725,-2.5207552909851074,0.21457235515117645,0
25,0.1199948787689209,-0.14510458707809448,-11.973108291625977,1.2909882068634033,21.741060256958008,0.3976340889930725,2.5207552909851074,-0.21457235515117645,0.0,0.0,0.0,0.0,0.0,0.0,0.0,-0.12367737881151504,0.3656088218029944,0.10086133477387581,0.4127772397031372,-0.13447226340915935,0.11980207726115455,-0.2023388802173761,0.1728802376190821,-0.4875217663656201,-0.11147039054833839,-1.9463801863486305,0.13360396004957958,2.595551071855757,0.9452484245217508,0.1728802376190821,-0.48752024683155326,-0.11147110072896137,-1.9463801863486305,0.1336059019074957,2.595550359778934,0.9452445589611904,0.00017176518621580777,0.000217618200634918,-0.00015436898013344025,-0.0005574804544806444,-7.453719305042153e-06,-0.0001078281072566674,0.0010347868232045158,0.0,0.0,0.0,0.0,0.0,0.0,0.0,0.0,1.51953406685168e-06,-7.101806229758978e-07,0.0,1.9418579161045724e-06,-7.120768228396912e-07,-3.865560560423198e-06,-0.00017176518621580777,-0.000217618200634918,0.00015436898013344025,0.0005574804544806444,7.453719305042153e-06,0.0001078281072566674,-0.0010347868232045158,0.14510458707809448,11.973108291625977,-1.2909882068634033,-21.741060256958008,-0.3976340889930725,-2.5207552909851074,0.21457235515117645,0
26,0.12499594688415527,-0.14510458707809448,-11.973108291625977,1.2909882068634033,21.741060256958008,0.3976340889930725,2.5207552909851074,-0.21457235515117645,0.0,0.0,0.0,0.0,0.0,0.0,0.0,-0.12367737881151504,0.3656088218029944,0.10086133477387581,0.4127772397031372,-0.13447226340915935,0.11980207726115455,-0.2023388802173761,0.1728802376190821,-0.4875217663656201,-0.11147039054833839,-1.9463801863486305,0.13360396004957958,2.595551071855757,0.9452484245217508,0.1728802376190821,-0.48752024683155326,-0.11147110072896137,-1.9463801863486305,0.1336059019074957,2.595550359778934,0.9452445589611904,0.00017176518621580777,0.000217618200634918,-0.00015436898013344025,-0.0005574804544806444,-7.453719305042153e-06,-0.0001078281072566674,0.0010347868232045158,0.0,0.0,0.0,0.0,0.0,0.0,0.0,0.0,1.51953406685168e-06,-7.101806229758978e-07,0.0,1.9418579161045724e-06,-7.120768228396912e-07,-3.865560560423198e-06,-0.00017176518621580777,-0.000217618200634918,0.00015436898013344025,0.0005574804544806444,7.453719305042153e-06,0.0001078281072566674,-0.0010347868232045158,0.14510458707809448,11.973108291625977,-1.2909882068634033,-21.741060256958008,-0.3976340889930725,-2.5207552909851074,0.21457235515117645,0
27,0.13000059127807617,-0.14510458707809448,-11.973108291625977,1.2909882068634033,21.741060256958008,0.3976340889930725,2.5207552909851074,-0.21457235515117645,0.0,0.0,0.0,0.0,0.0,0.0,0.0,-0.12367737881151504,0.3656088218029944,0.10086133477387581,0.4127772397031372,-0.13447226340915935,0.11980207726115455,-0.2023388802173761,0.1728802376190821,-0.4875217663656201,-0.11147039054833839,-1.9463801863486305,0.13360396004957958,2.595551071855757,0.9452484245217508,0.1728802376190821,-0.48752024683155326,-0.11147110072896137,-1.9463801863486305,0.1336059019074957,2.595550359778934,0.9452445589611904,0.00017176518621580777,0.000217618200634918,-0.00015436898013344025,-0.0005574804544806444,-7.453719305042153e-06,-0.0001078281072566674,0.0010347868232045158,0.0,0.0,0.0,0.0,0.0,0.0,0.0,0.0,1.51953406685168e-06,-7.101806229758978e-07,0.0,1.9418579161045724e-06,-7.120768228396912e-07,-3.865560560423198e-06,-0.00017176518621580777,-0.000217618200634918,0.00015436898013344025,0.0005574804544806444,7.453719305042153e-06,0.0001078281072566674,-0.0010347868232045158,0.14510458707809448,11.973108291625977,-1.2909882068634033,-21.741060256958008,-0.3976340889930725,-2.5207552909851074,0.21457235515117645,0
28,0.1350095272064209,-0.12130087614059448,-11.949304580688477,1.3147919178009033,21.717256546020508,0.3976340889930725,2.5143465995788574,-0.22830526530742645,0.0,0.0,0.0,0.0,0.0,0.0,0.0,-0.12062995598205815,0.38348934686774266,0.10631647310378455,0.4075033603123531,-0.1353801604038875,0.11814912399263837,-0.20178619427896366,0.17287856718322683,-0.4875234368014754,-0.1114720612007127,-1.946378515912775,0.13360441643804818,2.5955517839325797,0.9452499504006571,0.1728802376190821,-0.48752024683155326,-0.11147110072896137,-1.9463801863486305,0.1336059019074957,2.595550359778934,0.9452445589611904,-8.036657710599069e-05,0.0008361203460801312,-0.0007053221132542027,-0.00042681611083707986,-2.7339701358260233e-05,0.00022822971714454672,0.0017572955962604265,0.0,0.0,0.0,0.0,0.0,0.0,0.0,1.6704358552777077e-06,3.189969922157143e-06,9.604717513267413e-07,-1.6704358554164855e-06,1.4854694475041619e-06,-1.4241536456793824e-06,-5.3914394666509935e-06,8.036657710599069e-05,-0.0008361203460801312,0.0007053221132542027,0.00042681611083707986,2.7339701358260233e-05,-0.00022822971714454672,-0.0017572955962604265,0.12130087614059448,11.949304580688477,-1.3147919178009033,-21.717256546020508,-0.3976340889930725,-2.5143465995788574,0.22830526530742645,0
29,0.14000701904296875,-0.12130087614059448,-11.949304580688477,1.3147919178009033,21.717256546020508,0.3976340889930725,2.5143465995788574,-0.22830526530742645,0.0,0.0,0.0,0.0,0.0,0.0,0.0,-0.12062995598205815,0.38348934686774266,0.10631647310378455,0.4075033603123531,-0.1353801604038875,0.11814912399263837,-0.20178619427896366,0.17287856718322683,-0.4875234368014754,-0.1114720612007127,-1.946378515912775,0.13360441643804818,2.5955517839325797,0.9452499504006571,0.1728802376190821,-0.48752024683155326,-0.11147110072896137,-1.9463801863486305,0.1336059019074957,2.595550359778934,0.9452445589611904,-8.036657710599069e-05,0.0008361203460801312,-0.0007053221132542027,-0.00042681611083707986,-2.7339701358260233e-05,0.00022822971714454672,0.0017572955962604265,0.0,0.0,0.0,0.0,0.0,0.0,0.0,1.6704358552777077e-06,3.189969922157143e-06,9.604717513267413e-07,-1.6704358554164855e-06,1.4854694475041619e-06,-1.4241536456793824e-06,-5.3914394666509935e-06,8.036657710599069e-05,-0.0008361203460801312,0.0007053221132542027,0.00042681611083707986,2.7339701358260233e-05,-0.00022822971714454672,-0.0017572955962604265,0.12130087614059448,11.949304580688477,-1.3147919178009033,-21.717256546020508,-0.3976340889930725,-2.5143465995788574,0.22830526530742645,0
30,0.1450026035308838,-0.14510458707809448,-11.925500869750977,1.3147919178009033,21.717256546020508,0.3912253975868225,2.5207552909851074,-0.22098104655742645,0.0,0.0,0.0,0.0,0.0,0.0,0.0,-0.1211219521642112,0.3666555987873105,0.10354877885514313,0.4203896984648489,-0.13546320588094743,0.1197806562321111,-0.20085771150256201,0.1728802376190821,-0.48752510723733067,-0.11147443175265785,-1.946378515912775,0.13360925282293426,2.595551071855757,0.9452491365985738,0.1728802376190821,-0.48752024683155326,-0.11147110072896137,-1.9463801863486305,0.1336059019074957,2.595550359778934,0.9452445589611904,0.0009144503417039539,-0.0001563093941468626,-0.0005073038281791088,-0.0004465913820045209,0.0002229923111096972,-0.00011728901731898771,0.001337138763740623,0.0,0.0,0.0,0.0,0.0,0.0,0.0,0.0,4.860405777407095e-06,3.3310236964845252e-06,-1.6704358554164855e-06,-3.3509154385713558e-06,-7.120768228396912e-07,-4.5776373833739115e-06,-0.0009144503417039539,0.0001563093941468626,0.0005073038281791088,0.0004465913820045209,-0.0002229923111096972,0.00011728901731898771,-0.001337138763740623,0.14510458707809448,11.925500869750977,-1.3147919178009033,-21.717256546020508,-0.3912253975868225,-2.5207552909851074,0.22098104655742645,0
31,0.15000033378601074,-0.14510458707809448,-11.925500869750977,1.3147919178009033,21.717256546020508,0.3912253975868225,2.5207552909851074,-0.22098104655742645,0.0,0.0,0.0,0.0,0.0,0.0,0.0,-0.1211219521642112,0.3666555987873105,0.10354877885514313,0.4203896984648489,-0.13546320588094743,0.1197806562321111,-0.20085771150256201,0.1728802376190821,-0.48752510723733067,-0.11147443175265785,-1.946378515912775,0.13360925282293426,2.595551071855757,0.9452491365985738,0.1728802376190821,-0.48752024683155326,-0.11147110072896137,-1.9463801863486305,0.1336059019074957,2.595550359778934,0.9452445589611904,0.0009144503417039539,-0.0001563093941468626,-0.0005073038281791088,-0.0004465913820045209,0.0002229923111096972,-0.00011728901731898771,0.001337138763740623,0.0,0.0,0.0,0.0,0.0,0.0,0.0,0.0,4.860405777407095e-06,3.3310236964845252e-06,-1.6704358554164855e-06,-3.3509154385713558e-06,-7.120768228396912e-07,-4.5776373833739115e-06,-0.0009144503417039539,0.0001563093941468626,0.0005073038281791088,0.0004465913820045209,-0.0002229923111096972,0.00011728901731898771,-0.001337138763740623,0.14510458707809448,11.925500869750977,-1.3147919178009033,-21.717256546020508,-0.3912253975868225,-2.5207552909851074,0.22098104655742645,0
32,0.15686249732971191,-0.14510458707809448,-11.949304580688477,1.2909882068634033,21.693452835083008,0.3912253975868225,2.5207552909851074,-0.22830526530742645,0.0,0.0,0.0,0.0,0.0,0.0,0.0,-0.12357090305344487,0.3635986133216966,0.09932726219171957,0.42597143765779866,-0.1354111850041086,0.12049595459840937,-0.20081829807923102,0.1728802376190821,-0.4875234368014754,-0.11147039045346285,-1.94637684547692,0.13360798761282563,2.595551071855757,0.9452499504006571,0.1728802376190821,-0.48752024683155326,-0.11147110072896137,-1.9463801863486305,0.1336059019074957,2.595550359778934,0.9452445589611904,0.00011104028360463906,2.732173371603211e-05,0.0002905563902865222,0.0007170451239276123,0.0003707068097297992,-4.0270643195343624e-05,0.0013392491755279817,0.0,0.0,0.0,0.0,0.0,0.0,0.0,0.0,3.189969922157143e-06,-7.102754985138793e-07,-3.3408717106109265e-06,-2.0857053299461192e-06,-7.120768228396912e-07,-5.3914394666509935e-06,-0.00011104028360463906,-2.732173371603211e-05,-0.0002905563902865222,-0.0007170451239276123,-0.0003707068097297992,4.0270643195343624e-05,-0.0013392491755279817,0.14510458707809448,11.949304580688477,-1.2909882068634033,-21.693452835083008,-0.3912253975868225,-2.5207552909851074,0.22830526530742645,0
33,0.16245579719543457,-0.09352988004684448,-11.949304580688477,1.3147919178009033,21.717256546020508,0.4031272530555725,2.5207552909851074,-0.20724813640117645,0.0,0.0,0.0,0.0,0.0,0.0,0.0,-0.12145912739391747,0.37543127318556435,0.10560980491040234,0.42024153472926357,-0.13578613489303298,0.11961629605557526,-0.20181107260466832,0.1728766183413957,-0.4875234368014754,-0.11147206087593452,-1.9463785158764364,0.13360451656657846,2.5955510704022067,0.9452476107196676,0.1728802376190821,-0.48752024683155326,-0.11147110072896137,-1.9463801863486305,0.1336059019074957,2.595550359778934,0.9452445589611904,-0.00030005045352146615,-0.0003023950297483017,-0.00028354768550937945,-0.00019732394796530227,-0.00019227386714274514,-5.7267872794343017e-05,3.591347088342148e-05,0.0,0.0,0.0,0.0,0.0,0.0,0.0,3.6192776864119036e-06,3.189969922157143e-06,9.601469731501666e-07,-1.6704721941263045e-06,1.3853409172315256e-06,-7.106232726705741e-07,-3.051758477146116e-06,0.00030005045352146615,0.0003023950297483017,0.00028354768550937945,0.00019732394796530227,0.00019227386714274514,5.7267872794343017e-05,-3.591347088342148e-05,0.09352988004684448,11.949304580688477,-1.3147919178009033,-21.717256546020508,-0.4031272530555725,-2.5207552909851074,0.20724813640117645,0
34,0.16641902923583984,-0.09352988004684448,-11.949304580688477,1.3147919178009033,21.717256546020508,0.4031272530555725,2.5207552909851074,-0.20724813640117645,0.0,0.0,0.0,0.0,0.0,0.0,0.0,-0.12145912739391747,0.37543127318556435,0.10560980491040234,0.42024153472926357,-0.13578613489303298,0.11961629605557526,-0.20181107260466832,0.1728766183413957,-0.4875234368014754,-0.11147206087593452,-1.9463785158764364,0.13360451656657846,2.5955510704022067,0.9452476107196676,0.1728802376190821,-0.48752024683155326,-0.11147110072896137,-1.9463801863486305,0.1336059019074957,2.595550359778934,0.9452445589611904,-0.00030005045352146615,-0.0003023950297483017,-0.00028354768550937945,-0.00019732394796530227,-0.00019227386714274514,-5.7267872794343017e-05,3.591347088342148e-05,0.0,0.0,0.0,0.0,0.0,0.0,0.0,3.6192776864119036e-06,3.189969922157143e-06,9.601469731501666e-07,-1.6704721941263045e-06,1.3853409172315256e-06,-7.106232726705741e-07,-3.051758477146116e-06,0.00030005045352146615,0.0003023950297483017,0.00028354768550937945,0.00019732394796530227,0.00019227386714274514,5.7267872794343017e-05,-3.591347088342148e-05,0.09352988004684448,11.949304580688477,-1.3147919178009033,-21.717256546020508,-0.4031272530555725,-2.5207552909851074,0.20724813640117645,0
35,0.16995906829833984,-0.09352988004684448,-11.949304580688477,1.3147919178009033,21.717256546020508,0.4031272530555725,2.5207552909851074,-0.20724813640117645,0.0,0.0,0.0,0.0,0.0,0.0,0.0,-0.12145912739391747,0.37543127318556435,0.10560980491040234,0.42024153472926357,-0.13578613489303298,0.11961629605557526,-0.20181107260466832,0.1728766183413957,-0.4875234368014754,-0.11147206087593452,-1.9463785158764364,0.13360451656657846,2.5955510704022067,0.9452476107196676,0.1728802376190821,-0.48752024683155326,-0.11147110072896137,-1.9463801863486305,0.1336059019074957,2.595550359778934,0.9452445589611904,-0.00030005045352146615,-0.0003023950297483017,-0.00028354768550937945,-0.00019732394796530227,-0.00019227386714274514,-5.7267872794343017e-05,3.591347088342148e-05,0.0,0.0,0.0,0.0,0.0,0.0,0.0,3.6192776864119036e-06,3.189969922157143e-06,9.601469731501666e-07,-1.6704721941263045e-06,1.3853409172315256e-06,-7.106232726705741e-07,-3.051758477146116e-06,0.00030005045352146615,0.0003023950297483017,0.00028354768550937945,0.00019732394796530227,0.00019227386714274514,5.7267872794343017e-05,-3.591347088342148e-05,0.09352988004684448,11.949304580688477,-1.3147919178009033,-21.717256546020508,-0.4031272530555725,-2.5207552909851074,0.20724813640117645,0
36,0.17499852180480957,-0.09352988004684448,-12.000879287719727,1.2909882068634033,21.768831253051758,0.4095359444618225,2.5271639823913574,-0.18710653483867645,0.0,0.0,0.0,0.0,0.0,0.0,0.0,-0.12200159983288271,0.3697365517009695,0.10238049495262022,0.4234016235038439,-0.1355205521322679,0.1205111949437849,-0.20256340033547512,0.1728766183413957,-0.487519817523789,-0.11147039044007918,-1.9463821351904615,0.1336030936370481,2.595550359778926,0.9452453727639384,0.1728802376190821,-0.48752024683155326,-0.11147110072896137,-1.9463801863486305,0.1336059019074957,2.595550359778934,0.9452445589611904,-0.0004224883729627789,0.0005537072887373077,0.0002334252071945479,-0.0011680464706824217,-0.00045945853830206464,-0.00039452782164049906,-0.00039789460966689817,0.0,0.0,0.0,0.0,0.0,0.0,0.0,3.6192776864119036e-06,-4.2930776428251605e-07,-7.102888821830522e-07,1.9488418310231737e-06,2.8082704476017906e-06,7.993605777301127e-15,-8.138027479676069e-07,0.0004224883729627789,-0.0005537072887373077,-0.0002334252071945479,0.0011680464706824217,0.00045945853830206464,0.00039452782164049906,0.00039789460966689817,0.09352988004684448,12.000879287719727,-1.2909882068634033,-21.768831253051758,-0.4095359444618225,-2.5271639823913574,0.18710653483867645,0
37,0.18001341819763184,-0.09352988004684448,-12.000879287719727,1.2909882068634033,21.768831253051758,0.4095359444618225,2.5271639823913574,-0.18710653483867645,0.0,0.0,0.0,0.0,0.0,0.0,0.0,-0.12200159983288271,0.3697365517009695,0.10238049495262022,0.4234016235038439,-0.1355205521322679,0.1205111949437849,-0.20256340033547512,0.1728766183413957,-0.487519817523789,-0.11147039044007918,-1.9463821351904615,0.1336030936370481,2.595550359778926,0.9452453727639384,0.1728802376190821,-0.48752024683155326,-0.11147110072896137,-1.9463801863486305,0.1336059019074957,2.595550359778934,0.9452445589611904,-0.0004224883729627789,0.0005537072887373077,0.0002334252071945479,-0.0011680464706824217,-0.00045945853830206464,-0.00039452782164049906,-0.00039789460966689817,0.0,0.0,0.0,0.0,0.0,0.0,0.0,3.6192776864119036e-06,-4.2930776428251605e-07,-7.102888821830522e-07,1.9488418310231737e-06,2.8082704476017906e-06,7.993605777301127e-15,-8.138027479676069e-07,0.0004224883729627789,-0.0005537072887373077,-0.0002334252071945479,0.0011680464706824217,0.00045945853830206464,0.00039452782164049906,0.00039789460966689817,0.09352988004684448,12.000879287719727,-1.2909882068634033,-21.768831253051758,-0.4095359444618225,-2.5271639823913574,0.18710653483867645,0
38,0.1855146884918213,-0.17287558317184448,-12.000879287719727,1.3147919178009033,21.669649124145508,0.4031272530555725,2.5207552909851074,-0.22830526530742645,0.0,0.0,0.0,0.0,0.0,0.0,0.0,-0.1179748246360766,0.35730014714852315,0.10359363536370006,0.4279020588537521,-0.13561703456041652,0.12085995634564699,-0.20331891083073667,0.17288218646091325,-0.487519817523789,-0.11147419477324308,-1.9463751750410647,0.13360448198891486,2.595551071855757,0.9452499504006571,0.1728802376190821,-0.48752024683155326,-0.11147110072896137,-1.9463801863486305,0.1336059019074957,2.595550359778934,0.9452445589611904,0.00123877608030108,-0.00010800549196120723,-0.000138972567783475,0.0012094067029837312,-0.00010140605197845883,1.2932566482150936e-05,0.0009488467772473573,0.0,0.0,0.0,0.0,0.0,0.0,0.0,-1.948841831134196e-06,-4.2930776428251605e-07,3.094044281712338e-06,-5.011307565805367e-06,1.4199185808250192e-06,-7.120768228396912e-07,-5.3914394666509935e-06,-0.00123877608030108,0.00010800549196120723,0.000138972567783475,-0.0012094067029837312,0.00010140605197845883,-1.2932566482150936e-05,-0.0009488467772473573,0.17287558317184448,12.000879287719727,-1.3147919178009033,-21.669649124145508,-0.4031272530555725,-2.5207552909851074,0.22830526530742645,0
39,0.19000816345214844,-0.17287558317184448,-12.000879287719727,1.3147919178009033,21.669649124145508,0.4031272530555725,2.5207552909851074,-0.22830526530742645,0.0,0.0,0.0,0.0,0.0,0.0,0.0,-0.1179748246360766,0.35730014714852315,0.10359363536370006,0.4279020588537521,-0.13561703456041652,0.12085995634564699,-0.20331891083073667,0.17288218646091325,-0.487519817523789,-0.11147419477324308,-1.9463751750410647,0.13360448198891486,2.595551071855757,0.9452499504006571,0.1728802376190821,-0.48752024683155326,-0.11147110072896137,-1.9463801863486305,0.1336059019074957,2.595550359778934,0.9452445589611904,0.00123877608030108,-0.00010800549196120723,-0.000138972567783475,0.0012094067029837312,-0.00010140605197845883,1.2932566482150936e-05,0.0009488467772473573,0.0,0.0,0.0,0.0,0.0,0.0,0.0,-1.948841831134196e-06,-4.2930776428251605e-07,3.094044281712338e-06,-5.011307565805367e-06,1.4199185808250192e-06,-7.120768228396912e-07,-5.3914394666509935e-06,-0.00123877608030108,0.00010800549196120723,0.000138972567783475,-0.0012094067029837312,0.00010140605197845883,-1.2932566482150936e-05,-0.0009488467772473573,0.17287558317184448,12.000879287719727,-1.3147919178009033,-21.669649124145508,-0.4031272530555725,-2.5207552909851074,0.22830526530742645,0
40,0.19500064849853516,-0.14510458707809448,-12.024682998657227,1.2671844959259033,21.717256546020508,0.3976340889930725,2.5271639823913574,-0.15964071452617645,0.0,0.0,0.0,0.0,0.0,0.0,0.0,-0.12068524567849157,0.3531982404388402,0.09940317299715268,0.4271705542407308,-0.13507806685775353,0.12089796645435544,-0.20499339043230116,0.1728802376190821,-0.48751814708793373,-0.11146872004036165,-1.946378515912775,0.13360513910789099,2.595550359778934,0.9452423210061258,0.1728802376190821,-0.48752024683155326,-0.11147110072896137,-1.9463801863486305,0.1336059019074957,2.595550359778934,0.9452445589611904,0.0005322774868467144,0.00027784843288150454,0.000680316195388758,-0.00012638432329439026,8.1986630800675e-05,-0.0002823803518598852,-0.0019581429493468836,0.0,0.0,0.0,0.0,0.0,0.0,0.0,0.0,-2.099743619532468e-06,-2.380688599715186e-06,-1.6704358554164855e-06,7.627996047032681e-07,0.0,2.2379550645990065e-06,-0.0005322774868467144,-0.00027784843288150454,-0.000680316195388758,0.00012638432329439026,-8.1986630800675e-05,0.0002823803518598852,0.0019581429493468836,0.14510458707809448,12.024682998657227,-1.2671844959259033,-21.717256546020508,-0.3976340889930725,-2.5271639823913574,0.15964071452617645,0
41,0.1999971866607666,-0.14510458707809448,-12.024682998657227,1.2671844959259033,21.717256546020508,0.3976340889930725,2.5271639823913574,-0.15964071452617645,0.0,0.0,0.0,0.0,0.0,0.0,0.0,-0.12068524567849157,0.3531982404388402,0.09940317299715268,0.4271705542407308,-0.13507806685775353,0.12089796645435544,-0.20499339043230116,0.1728802376190821,-0.48751814708793373,-0.11146872004036165,-1.946378515912775,0.13360513910789099,2.595550359778934,0.9452423210061258,0.1728802376190821,-0.48752024683155326,-0.11147110072896137,-1.9463801863486305,0.1336059019074957,2.595550359778934,0.9452445589611904,0.0005322774868467144,0.00027784843288150454,0.000680316195388758,-0.00012638432329439026,8.1986630800675e-05,-0.0002823803518598852,-0.0019581429493468836,0.0,0.0,0.0,0.0,0.0,0.0,0.0,0.0,-2.099743619532468e-06,-2.380688599715186e-06,-1.6704358554164855e-06,7.627996047032681e-07,0.0,2.2379550645990065e-06,-0.0005322774868467144,-0.00027784843288150454,-0.000680316195388758,0.00012638432329439026,-8.1986630800675e-05,0.0002823803518598852,0.0019581429493468836,0.14510458707809448,12.024682998657227,-1.2671844959259033,-21.717256546020508,-0.3976340889930725,-2.5271639823913574,0.15964071452617645,0
42,0.20499801635742188,-0.09352988004684448,-12.000879287719727,1.2909882068634033,21.768831253051758,0.3976340889930725,2.5143465995788574,-0.22830526530742645,0.0,0.0,0.0,0.0,0.0,0.0,0.0,-0.12088834088133536,0.34267313239845587,0.10209305393658884,0.42731078816342954,-0.13433117456385293,0.12135396365011118,-0.20657260283840653,0.1728766183413957,-0.487519817523789,-0.11147039044408878,-1.9463821322470225,0.1336072378692853,2.5955517839325797,0.9452495971879473,0.1728802376190821,-0.48752024683155326,-0.11147110072896137,-1.9463801863486305,0.1336059019074957,2.595550359778934,0.9452445589611904,-0.0008470603703966137,-0.0002426122818307681,8.224937431703073e-05,-0.0011747437780994685,0.0001512713254166802,0.0004775364103592993,0.0016080344222385626,0.0,0.0,0.0,0.0,0.0,0.0,0.0,3.6192776864119036e-06,-4.2930776428251605e-07,-7.102848725848432e-07,1.9458983919751205e-06,-1.335961789611373e-06,-1.4241536456793824e-06,-5.038226756903796e-06,0.0008470603703966137,0.0002426122818307681,-8.224937431703073e-05,0.0011747437780994685,-0.0001512713254166802,-0.0004775364103592993,-0.0016080344222385626,0.09352988004684448,12.000879287719727,-1.2909882068634033,-21.768831253051758,-0.3976340889930725,-2.5143465995788574,0.22830526530742645,0
43,0.20999741554260254,-0.09352988004684448,-12.000879287719727,1.2909882068634033,21.768831253051758,0.3976340889930725,2.5143465995788574,-0.22830526530742645,0.0,0.0,0.0,0.0,0.0,0.0,0.0,-0.12088834088133536,0.34267313239845587,0.10209305393658884,0.42731078816342954,-0.13433117456385293,0.12135396365011118,-0.20657260283840653,0.1728766183413957,-0.487519817523789,-0.11147039044408878,-1.9463821322470225,0.1336072378692853,2.5955517839325797,0.9452495971879473,0.1728802376190821,-0.48752024683155326,-0.11147110072896137,-1.9463801863486305,0.1336059019074957,2.595550359778934,0.9452445589611904,-0.0008470603703966137,-0.0002426122818307681,8.224937431703073e-05,-0.0011747437780994685,0.0001512713254166802,0.0004775364103592993,0.0016080344222385626,0.0,0.0,0.0,0.0,0.0,0.0,0.0,3.6192776864119036e-06,-4.2930776428251605e-07,-7.102848725848432e-07,1.9458983919751205e-06,-1.335961789611373e-06,-1.4241536456793824e-06,-5.038226756903796e-06,0.0008470603703966137,0.0002426122818307681,-8.224937431703073e-05,0.0011747437780994685,-0.0001512713254166802,-0.0004775364103592993,-0.0016080344222385626,0.09352988004684448,12.000879287719727,-1.2909882068634033,-21.768831253051758,-0.3976340889930725,-2.5143465995788574,0.22830526530742645,0
44,0.21541833877563477,-0.09352988004684448,-11.973108291625977,1.2909882068634033,21.693452835083008,0.4031272530555725,2.5335726737976074,-0.17337362468242645,0.0,0.0,0.0,0.0,0.0,0.0,0.0,-0.1215255722162082,0.35166782402511426,0.09951803259464882,0.4222152488409299,-0.13427581990891513,0.1210778634824234,-0.20589095626878715,0.1728766183413957,-0.4875217663656201,-0.1114703992090753,-1.9463768454769035,0.13360804774630067,2.5955492944894014,0.9452438468830383,0.1728802376190821,-0.48752024683155326,-0.11147110072896137,-1.9463801863486305,0.1336059019074957,2.595550359778934,0.9452445589611904,-0.0006387495852520731,1.3153281319287809e-05,-6.168506111435183e-06,0.000885420478470307,-5.355927440248996e-05,-0.0003210994692412398,-0.00033961364740879747,0.0,0.0,0.0,0.0,0.0,0.0,0.0,3.6192776864119036e-06,1.51953406685168e-06,-7.015198860704785e-07,-3.3408717270422272e-06,-2.1458388049788724e-06,1.0652895325868883e-06,7.120781521097186e-07,0.0006387495852520731,-1.3153281319287809e-05,6.168506111435183e-06,-0.000885420478470307,5.355927440248996e-05,0.0003210994692412398,0.00033961364740879747,0.09352988004684448,11.973108291625977,-1.2909882068634033,-21.693452835083008,-0.4031272530555725,-2.5335726737976074,0.17337362468242645,0
45,0.22041964530944824,-0.09352988004684448,-11.973108291625977,1.2909882068634033,21.693452835083008,0.4031272530555725,2.5335726737976074,-0.17337362468242645,0.0,0.0,0.0,0.0,0.0,0.0,0.0,-0.1215255722162082,0.35166782402511426,0.09951803259464882,0.4222152488409299,-0.13427581990891513,0.1210778634824234,-0.20589095626878715,0.1728766183413957,-0.4875217663656201,-0.1114703992090753,-1.9463768454769035,0.13360804774630067,2.5955492944894014,0.9452438468830383,0.1728802376190821,-0.48752024683155326,-0.11147110072896137,-1.9463801863486305,0.1336059019074957,2.595550359778934,0.9452445589611904,-0.0006387495852520731,1.3153281319287809e-05,-6.168506111435183e-06,0.000885420478470307,-5.355927440248996e-05,-0.0003210994692412398,-0.00033961364740879747,0.0,0.0,0.0,0.0,0.0,0.0,0.0,3.6192776864119036e-06,1.51953406685168e-06,-7.015198860704785e-07,-3.3408717270422272e-06,-2.1458388049788724e-06,1.0652895325868883e-06,7.120781521097186e-07,0.0006387495852520731,-1.3153281319287809e-05,6.168506111435183e-06,-0.000885420478470307,5.355927440248996e-05,0.0003210994692412398,0.00033961364740879747,0.09352988004684448,11.973108291625977,-1.2909882068634033,-21.693452835083008,-0.4031272530555725,-2.5335726737976074,0.17337362468242645,0
46,0.2250044345855713,-0.14510458707809448,-11.925500869750977,1.2671844959259033,21.693452835083008,0.4031272530555725,2.5271639823913574,-0.18710653483867645,0.0,0.0,0.0,0.0,0.0,0.0,0.0,-0.12191953589297344,0.354556394740874,0.09698032823826727,0.42374796136969256,-0.1341670567073544,0.12143553566735553,-0.20486512283830333,0.1728802376190821,-0.48752510723733067,-0.11146872000427342,-1.94637684547692,0.13360696827556418,2.59555024203937,0.9452453727639384,0.1728802376190821,-0.48752024683155326,-0.11147110072896137,-1.9463801863486305,0.1336059019074957,2.595550359778934,0.9452445589611904,0.0006211839190809826,-0.00042339051157997635,0.00040494198218932116,0.0009416038124509548,-0.00019030973213170213,-0.0001196563057416405,-0.0003062538207213235,0.0,0.0,0.0,0.0,0.0,0.0,0.0,0.0,4.860405777407095e-06,-2.380724687944813e-06,-3.3408717106109265e-06,-1.0663680684863674e-06,1.1773956387628459e-07,-8.138027479676069e-07,-0.0006211839190809826,0.00042339051157997635,-0.00040494198218932116,-0.0009416038124509548,0.00019030973213170213,0.0001196563057416405,0.0003062538207213235,0.14510458707809448,11.925500869750977,-1.2671844959259033,-21.693452835083008,-0.4031272530555725,-2.5271639823913574,0.18710653483867645,0
47,0.23000121116638184,-0.14510458707809448,-11.925500869750977,1.2671844959259033,21.693452835083008,0.4031272530555725,2.5271639823913574,-0.18710653483867645,0.0,0.0,0.0,0.0,0.0,0.0,0.0,-0.12191953589297344,0.354556394740874,0.09698032823826727,0.42374796136969256,-0.1341670567073544,0.12143553566735553,-0.20486512283830333,0.1728802376190821,-0.48752510723733067,-0.11146872000427342,-1.94637684547692,0.13360696827556418,2.59555024203937,0.9452453727639384,0.1728802376190821,-0.48752024683155326,-0.11147110072896137,-1.9463801863486305,0.1336059019074957,2.595550359778934,0.9452445589611904,0.0006211839190809826,-0.00042339051157997635,0.00040494198218932116,0.0009416038124509548,-0.00019030973213170213,-0.0001196563057416405,-0.0003062538207213235,0.0,0.0,0.0,0.0,0.0,0.0,0.0,0.0,4.860405777407095e-06,-2.380724687944813e-06,-3.3408717106109265e-06,-1.0663680684863674e-06,1.1773956387628459e-07,-8.138027479676069e-07,-0.0006211839190809826,0.00042339051157997635,-0.00040494198218932116,-0.0009416038124509548,0.00019030973213170213,0.0001196563057416405,0.0003062538207213235,0.14510458707809448,11.925500869750977,-1.2671844959259033,-21.693452835083008,-0.4031272530555725,-2.5271639823913574,0.18710653483867645,0
48,0.23500394821166992,-0.14510458707809448,-11.925500869750977,1.2671844959259033,21.693452835083008,0.4031272530555725,2.5271639823913574,-0.18710653483867645,0.0,0.0,0.0,0.0,0.0,0.0,0.0,-0.12191953589297344,0.354556394740874,0.09698032823826727,0.42374796136969256,-0.1341670567073544,0.12143553566735553,-0.20486512283830333,0.1728802376190821,-0.48752510723733067,-0.11146872000427342,-1.94637684547692,0.13360696827556418,2.59555024203937,0.9452453727639384,0.1728802376190821,-0.48752024683155326,-0.11147110072896137,-1.9463801863486305,0.1336059019074957,2.595550359778934,0.9452445589611904,0.0006211839190809826,-0.00042339051157997635,0.00040494198218932116,0.0009416038124509548,-0.00019030973213170213,-0.0001196563057416405,-0.0003062538207213235,0.0,0.0,0.0,0.0,0.0,0.0,0.0,0.0,4.860405777407095e-06,-2.380724687944813e-06,-3.3408717106109265e-06,-1.0663680684863674e-06,1.1773956387628459e-07,-8.138027479676069e-07,-0.0006211839190809826,0.00042339051157997635,-0.00040494198218932116,-0.0009416038124509548,0.00019030973213170213,0.0001196563057416405,0.0003062538207213235,0.14510458707809448,11.925500869750977,-1.2671844959259033,-21.693452835083008,-0.4031272530555725,-2.5271639823913574,0.18710653483867645,0
49,0.2400050163269043,-0.14510458707809448,-11.925500869750977,1.2671844959259033,21.693452835083008,0.4031272530555725,2.5271639823913574,-0.18710653483867645,0.0,0.0,0.0,0.0,0.0,0.0,0.0,-0.12191953589297344,0.354556394740874,0.09698032823826727,0.42374796136969256,-0.1341670567073544,0.12143553566735553,-0.20486512283830333,0.1728802376190821,-0.48752510723733067,-0.11146872000427342,-1.94637684547692,0.13360696827556418,2.59555024203937,0.9452453727639384,0.1728802376190821,-0.48752024683155326,-0.11147110072896137,-1.9463801863486305,0.1336059019074957,2.595550359778934,0.9452445589611904,0.0006211839190809826,-0.00042339051157997635,0.00040494198218932116,0.0009416038124509548,-0.00019030973213170213,-0.0001196563057416405,-0.0003062538207213235,0.0,0.0,0.0,0.0,0.0,0.0,0.0,0.0,4.860405777407095e-06,-2.380724687944813e-06,-3.3408717106109265e-06,-1.0663680684863674e-06,1.1773956387628459e-07,-8.138027479676069e-07,-0.0006211839190809826,0.00042339051157997635,-0.00040494198218932116,-0.0009416038124509548,0.00019030973213170213,0.0001196563057416405,0.0003062538207213235,0.14510458707809448,11.925500869750977,-1.2671844959259033,-21.693452835083008,-0.4031272530555725,-2.5271639823913574,0.18710653483867645,0
50,0.24500393867492676,-0.12130087614059448,-11.949304580688477,1.2671844959259033,21.717256546020508,0.4031272530555725,2.5207552909851074,-0.18710653483867645,0.0,0.0,0.0,0.0,0.0,0.0,0.0,-0.12110118398113694,0.3602219737746366,0.09625724524608695,0.4249223505032826,-0.13453546932689667,0.1215113135689811,-0.20518225644533125,0.17287856718322683,-0.4875234368014754,-0.11146872000422392,-1.946378489421822,0.13360441115023078,2.595551071855092,0.9452453727639384,0.1728802376190821,-0.48752024683155326,-0.11147110072896137,-1.9463801863486305,0.1336059019074957,2.595550359778934,0.9452445589611904,-0.0003489861415822276,0.000585939336345001,0.0006908872789427932,-0.0002742387076704237,-0.00019263147917436684,0.00018382809518958527,-0.000580171526048069,0.0,0.0,0.0,0.0,0.0,0.0,0.0,1.6704358552777077e-06,3.189969922157143e-06,-2.380724737446882e-06,-1.6969268086253209e-06,1.4907572649103251e-06,-7.120761580381441e-07,-8.138027479676069e-07,0.0003489861415822276,-0.000585939336345001,-0.0006908872789427932,0.0002742387076704237,0.00019263147917436684,-0.00018382809518958527,0.000580171526048069,0.12130087614059448,11.949304580688477,-1.2671844959259033,-21.717256546020508,-0.4031272530555725,-2.5207552909851074,0.18710653483867645,0
51,0.25034451484680176,-0.12130087614059448,-11.949304580688477,1.2671844959259033,21.717256546020508,0.4031272530555725,2.5207552909851074,-0.18710653483867645,0.0,0.0,0.0,0.0,0.0,0.0,0.0,-0.12110118398113694,0.3602219737746366,0.09625724524608695,0.4249223505032826,-0.13453546932689667,0.1215113135689811,-0.20518225644533125,0.17287856718322683,-0.4875234368014754,-0.11146872000422392,-1.946378489421822,0.13360441115023078,2.595551071855092,0.9452453727639384,0.1728802376190821,-0.48752024683155326,-0.11147110072896137,-1.9463801863486305,0.1336059019074957,2.595550359778934,0.9452445589611904,-0.0003489861415822276,0.000585939336345001,0.0006908872789427932,-0.0002742387076704237,-0.00019263147917436684,0.00018382809518958527,-0.000580171526048069,0.0,0.0,0.0,0.0,0.0,0.0,0.0,1.6704358552777077e-06,3.189969922157143e-06,-2.380724737446882e-06,-1.6969268086253209e-06,1.4907572649103251e-06,-7.120761580381441e-07,-8.138027479676069e-07,0.0003489861415822276,-0.000585939336345001,-0.0006908872789427932,0.0002742387076704237,0.00019263147917436684,-0.00018382809518958527,0.000580171526048069,0.12130087614059448,11.949304580688477,-1.2671844959259033,-21.717256546020508,-0.4031272530555725,-2.5207552909851074,0.18710653483867645,0
52,0.25499939918518066,-0.12130087614059448,-11.925500869750977,1.3147919178009033,21.693452835083008,0.3976340889930725,2.5079379081726074,-0.17337362468242645,0.0,0.0,0.0,0.0,0.0,0.0,0.0,-0.12115391128772775,0.36997153102384767,0.09702062660996173,0.42580082726640556,-0.1348193437992311,0.12141823829178193,-0.20627968481112846,0.17287856718322683,-0.48752510723733067,-0.1114721397968993,-1.9463768454767705,0.1336040787378851,2.595552496009403,0.9452438468850322,0.1728802376190821,-0.48752024683155326,-0.11147110072896137,-1.9463801863486305,0.1336059019074957,2.595550359778934,0.9452445589611904,5.363087407026687e-05,0.00046561184802499923,-0.0004811290660594035,0.000686081037394346,-4.783389601235804e-05,0.00022418924364599234,-2.9114300252359674e-05,0.0,0.0,0.0,0.0,0.0,0.0,0.0,1.6704358552777077e-06,4.860405777407095e-06,1.039067937927407e-06,-3.3408718600469456e-06,1.8231696105874828e-06,-2.136230468963163e-06,7.120761582601887e-07,-5.363087407026687e-05,-0.00046561184802499923,0.0004811290660594035,-0.000686081037394346,4.783389601235804e-05,-0.00022418924364599234,2.9114300252359674e-05,0.12130087614059448,11.925500869750977,-1.3147919178009033,-21.693452835083008,-0.3976340889930725,-2.5079379081726074,0.17337362468242645,0
53,0.2599945068359375,-0.12130087614059448,-11.925500869750977,1.3147919178009033,21.693452835083008,0.3976340889930725,2.5079379081726074,-0.17337362468242645,0.0,0.0,0.0,0.0,0.0,0.0,0.0,-0.12115391128772775,0.36997153102384767,0.09702062660996173,0.42580082726640556,-0.1348193437992311,0.12141823829178193,-0.20627968481112846,0.17287856718322683,-0.48752510723733067,-0.1114721397968993,-1.9463768454767705,0.1336040787378851,2.595552496009403,0.9452438468850322,0.1728802376190821,-0.48752024683155326,-0.11147110072896137,-1.9463801863486305,0.1336059019074957,2.595550359778934,0.9452445589611904,5.363087407026687e-05,0.00046561184802499923,-0.0004811290660594035,0.000686081037394346,-4.783389601235804e-05,0.00022418924364599234,-2.9114300252359674e-05,0.0,0.0,0.0,0.0,0.0,0.0,0.0,1.6704358552777077e-06,4.860405777407095e-06,1.039067937927407e-06,-3.3408718600469456e-06,1.8231696105874828e-06,-2.136230468963163e-06,7.120761582601887e-07,-5.363087407026687e-05,-0.00046561184802499923,0.0004811290660594035,-0.000686081037394346,4.783389601235804e-05,-0.00022418924364599234,2.9114300252359674e-05,0.12130087614059448,11.925500869750977,-1.3147919178009033,-21.693452835083008,-0.3976340889930725,-2.5079379081726074,0.17337362468242645,0
54,0.2649970054626465,-0.09352988004684448,-11.949304580688477,1.3147919178009033,21.717256546020508,0.3976340889930725,2.5271639823913574,-0.15964071452617645,0.0,0.0,0.0,0.0,0.0,0.0,0.0,-0.12108749766707488,0.3692319946088644,0.0970747064252134,0.42928811064827826,-0.1345102878487995,0.12081802197858989,-0.20467237631600882,0.1728766183413957,-0.4875234368014754,-0.11147206087637995,-1.946378515912775,0.13360403485351513,2.5955503596174285,0.9452423210061258,0.1728802376190821,-0.48752024683155326,-0.11147110072896137,-1.9463801863486305,0.1336059019074957,2.595550359778934,0.9452445589611904,-0.0003826814782783144,0.0004698973944287717,-0.0003847666616473453,-0.00018415036329786508,-1.342017233403948e-06,-0.00033156132839535867,-0.001302428193425047,0.0,0.0,0.0,0.0,0.0,0.0,0.0,3.6192776864119036e-06,3.189969922157143e-06,9.601474185855219e-07,-1.6704358554164855e-06,1.8670539805587527e-06,1.6150547565985107e-10,2.2379550645990065e-06,0.0003826814782783144,-0.0004698973944287717,0.0003847666616473453,0.00018415036329786508,1.342017233403948e-06,0.00033156132839535867,0.001302428193425047,0.09352988004684448,11.949304580688477,-1.3147919178009033,-21.717256546020508,-0.3976340889930725,-2.5271639823913574,0.15964071452617645,0
55,0.26996397972106934,-0.09352988004684448,-11.949304580688477,1.3147919178009033,21.717256546020508,0.3976340889930725,2.5271639823913574,-0.15964071452617645,0.0,0.0,0.0,0.0,0.0,0.0,0.0,-0.12108749766707488,0.3692319946088644,0.0970747064252134,0.42928811064827826,-0.1345102878487995,0.12081802197858989,-0.20467237631600882,0.1728766183413957,-0.4875234368014754,-0.11147206087637995,-1.946378515912775,0.13360403485351513,2.5955503596174285,0.9452423210061258,0.1728802376190821,-0.48752024683155326,-0.11147110072896137,-1.9463801863486305,0.1336059019074957,2.595550359778934,0.9452445589611904,-0.0003826814782783144,0.0004698973944287717,-0.0003847666616473453,-0.00018415036329786508,-1.342017233403948e-06,-0.00033156132839535867,-0.001302428193425047,0.0,0.0,0.0,0.0,0.0,0.0,0.0,3.6192776864119036e-06,3.189969922157143e-06,9.601474185855219e-07,-1.6704358554164855e-06,1.8670539805587527e-06,1.6150547565985107e-10,2.2379550645990065e-06,0.0003826814782783144,-0.0004698973944287717,0.0003847666616473453,0.00018415036329786508,1.342017233403948e-06,0.00033156132839535867,0.001302428193425047,0.09352988004684448,11.949304580688477,-1.3147919178009033,-21.717256546020508,-0.3976340889930725,-2.5271639823913574,0.15964071452617645,0
56,0.27500009536743164,-0.14510458707809448,-12.000879287719727,1.2909882068634033,21.669649124145508,0.4031272530555725,2.5143465995788574,-0.15964071452617645,0.0,0.0,0.0,0.0,0.0,0.0,0.0,-0.12316309241990453,0.35666744865041483,0.09500334281313584,0.4354297410799161,-0.13409490485512154,0.1214514771472026,-0.2023851131451162,0.1728802376190821,-0.487519817523789,-0.11147039054833839,-1.9463751750410647,0.13360804789073455,2.595551783932579,0.9452423210061258,0.1728802376190821,-0.48752024683155326,-0.11147110072896137,-1.9463801863486305,0.1336059019074957,2.595550359778934,0.9452445589611904,0.0006943575706888096,0.0005564876379029063,-9.669865193931163e-05,0.001039820097179061,-9.244551907715446e-05,0.00032966478737743503,-0.001032590232617715,0.0,0.0,0.0,0.0,0.0,0.0,0.0,0.0,-4.2930776428251605e-07,-7.101806229758978e-07,-5.011307565805367e-06,-2.145983238860394e-06,-1.424153644791204e-06,2.2379550645990065e-06,-0.0006943575706888096,-0.0005564876379029063,9.669865193931163e-05,-0.001039820097179061,9.244551907715446e-05,-0.00032966478737743503,0.001032590232617715,0.14510458707809448,12.000879287719727,-1.2909882068634033,-21.669649124145508,-0.4031272530555725,-2.5143465995788574,0.15964071452617645,0
57,0.28003907203674316,-0.14510458707809448,-12.000879287719727,1.2909882068634033,21.669649124145508,0.4031272530555725,2.5143465995788574,-0.15964071452617645,0.0,0.0,0.0,0.0,0.0,0.0,0.0,-0.12316309241990453,0.35666744865041483,0.09500334281313584,0.4354297410799161,-0.13409490485512154,0.1214514771472026,-0.2023851131451162,0.1728802376190821,-0.487519817523789,-0.11147039054833839,-1.9463751750410647,0.13360804789073455,2.595551783932579,0.9452423210061258,0.1728802376190821,-0.48752024683155326,-0.11147110072896137,-1.9463801863486305,0.1336059019074957,2.595550359778934,0.9452445589611904,0.0006943575706888096,0.0005564876379029063,-9.669865193931163e-05,0.001039820097179061,-9.244551907715446e-05,0.00032966478737743503,-0.001032590232617715,0.0,0.0,0.0,0.0,0.0,0.0,0.0,0.0,-4.2930776428251605e-07,-7.101806229758978e-07,-5.011307565805367e-06,-2.145983238860394e-06,-1.424153644791204e-06,2.2379550645990065e-06,-0.0006943575706888096,-0.0005564876379029063,9.669865193931163e-05,-0.001039820097179061,9.244551907715446e-05,-0.00032966478737743503,0.001032590232617715,0.14510458707809448,12.000879287719727,-1.2909882068634033,-21.669649124145508,-0.4031272530555725,-2.5143465995788574,0.15964071452617645,0
58,0.2850046157836914,-0.09352988004684448,-12.000879287719727,1.2909882068634033,21.768831253051758,0.3912253975868225,2.5143465995788574,-0.17337362468242645,0.0,0.0,0.0,0.0,0.0,0.0,0.0,-0.11472714006816122,0.36732830741416617,0.10609741251153794,0.42548386745512967,-0.1343921317570082,0.11983904137760935,-0.20011058121030545,0.1728766183413957,-0.487519817523789,-0.11147046936104464,-1.9463821351541228,0.13360510627683853,2.595551744686723,0.9452438468850322,0.1728802376190821,-0.48752024683155326,-0.11147110072896137,-1.9463801863486305,0.1336059019074957,2.595550359778934,0.9452445589611904,-0.0005626790730037415,0.0002105432549663491,0.0007195532062929115,-0.001383054278456947,0.0002560481234708603,5.482922387061209e-05,-0.0002291264844489148,0.0,0.0,0.0,0.0,0.0,0.0,0.0,3.6192776864119036e-06,-4.2930776428251605e-07,-6.313679167258002e-07,1.9488054923133546e-06,7.956306571632599e-07,-1.3849077888927752e-06,7.120761582601887e-07,0.0005626790730037415,-0.0002105432549663491,-0.0007195532062929115,0.001383054278456947,-0.0002560481234708603,-5.482922387061209e-05,0.0002291264844489148,0.09352988004684448,12.000879287719727,-1.2909882068634033,-21.768831253051758,-0.3912253975868225,-2.5143465995788574,0.17337362468242645,0
59,0.2904222011566162,-0.09352988004684448,-12.000879287719727,1.2909882068634033,21.768831253051758,0.3912253975868225,2.5143465995788574,-0.17337362468242645,0.0,0.0,0.0,0.0,0.0,0.0,0.0,-0.11472714006816122,0.36732830741416617,0.10609741251153794,0.42548386745512967,-0.1343921317570082,0.11983904137760935,-0.20011058121030545,0.1728766183413957,-0.487519817523789,-0.11147046936104464,-1.9463821351541228,0.13360510627683853,2.595551744686723,0.9452438468850322,0.1728802376190821,-0.48752024683155326,-0.11147110072896137,-1.9463801863486305,0.1336059019074957,2.595550359778934,0.9452445589611904,-0.0005626790730037415,0.0002105432549663491,0.0007195532062929115,-0.001383054278456947,0.0002560481234708603,5.482922387061209e-05,-0.0002291264844489148,0.0,0.0,0.0,0.0,0.0,0.0,0.0,3.6192776864119036e-06,-4.2930776428251605e-07,-6.313679167258002e-07,1.9488054923133546e-06,7.956306571632599e-07,-1.3849077888927752e-06,7.120761582601887e-07,0.0005626790730037415,-0.0002105432549663491,-0.0007195532062929115,0.001383054278456947,-0.0002560481234708603,-5.482922387061209e-05,0.0002291264844489148,0.09352988004684448,12.000879287719727,-1.2909882068634033,-21.768831253051758,-0.3912253975868225,-2.5143465995788574,0.17337362468242645,0
60,0.29497194290161133,-0.14510458707809448,-11.949304580688477,1.3147919178009033,21.741060256958008,0.4031272530555725,2.5207552909851074,-0.17978231608867645,0.0,0.0,0.0,0.0,0.0,0.0,0.0,-0.11943410597367421,0.37187532441955223,0.09713364321975157,0.4188832472232311,-0.13400133811383394,0.11836733911196991,-0.19854139333379708,0.1728802376190821,-0.4875234368014754,-0.11147206087637995,-1.9463801863486305,0.13360808245428488,2.5955510674948847,0.945244558961855,0.1728802376190821,-0.48752024683155326,-0.11147110072896137,-1.9463801863486305,0.1336059019074957,2.595550359778934,0.9452445589611904,0.0008477889844018639,-0.0007204027249850676,-0.0006745017199547715,-0.0009796189744078587,-8.294758506768868e-05,-0.00024174565766138943,0.00011666019106221737,0.0,0.0,0.0,0.0,0.0,0.0,0.0,0.0,3.189969922157143e-06,9.601474185855219e-07,0.0,-2.180546789187776e-06,-7.077159507318243e-07,-6.645795025406187e-13,-0.0008477889844018639,0.0007204027249850676,0.0006745017199547715,0.0009796189744078587,8.294758506768868e-05,0.00024174565766138943,-0.00011666019106221737,0.14510458707809448,11.949304580688477,-1.3147919178009033,-21.741060256958008,-0.4031272530555725,-2.5207552909851074,0.17978231608867645,0
61,0.29999423027038574,-0.14510458707809448,-11.949304580688477,1.3147919178009033,21.741060256958008,0.4031272530555725,2.5207552909851074,-0.17978231608867645,0.0,0.0,0.0,0.0,0.0,0.0,0.0,-0.11943410597367421,0.37187532441955223,0.09713364321975157,0.4188832472232311,-0.13400133811383394,0.11836733911196991,-0.19854139333379708,0.1728802376190821,-0.4875234368014754,-0.11147206087637995,-1.9463801863486305,0.13360808245428488,2.5955510674948847,0.945244558961855,0.1728802376190821,-0.48752024683155326,-0.11147110072896137,-1.9463801863486305,0.1336059019074957,2.595550359778934,0.9452445589611904,0.0008477889844018639,-0.0007204027249850676,-0.0006745017199547715,-0.0009796189744078587,-8.294758506768868e-05,-0.00024174565766138943,0.00011666019106221737,0.0,0.0,0.0,0.0,0.0,0.0,0.0,0.0,3.189969922157143e-06,9.601474185855219e-07,0.0,-2.180546789187776e-06,-7.077159507318243e-07,-6.645795025406187e-13,-0.0008477889844018639,0.0007204027249850676,0.0006745017199547715,0.0009796189744078587,8.294758506768868e-05,0.00024174565766138943,-0.00011666019106221737,0.14510458707809448,11.949304580688477,-1.3147919178009033,-21.741060256958008,-0.4031272530555725,-2.5207552909851074,0.17978231608867645,0
62,0.30500197410583496,-0.12130087614059448,-12.000879287719727,1.2909882068634033,21.717256546020508,0.4031272530555725,2.5079379081726074,-0.20083944499492645,0.0,0.0,0.0,0.0,0.0,0.0,0.0,-0.11888045683470833,0.3565396153979324,0.09885422042673023,0.42554801445583323,-0.13354242393932075,0.11911465707843212,-0.19823076355974412,0.17287856718322683,-0.487519817523789,-0.11147047228404272,-1.9463763436182713,0.13360475790934329,2.5955524960093785,0.9452458390047153,0.1728802376190821,-0.48752024683155326,-0.11147110072896137,-1.9463801863486305,0.1336059019074957,2.595550359778934,0.9452445589611904,-0.0004948096241461511,0.00044452293935750734,-0.00016224631744157477,0.00010047578932956504,-0.00021808849992755477,0.0004367587680234324,0.00021248948146374442,0.0,0.0,0.0,0.0,0.0,0.0,0.0,1.6704358552777077e-06,-4.2930776428251605e-07,-6.284449186461094e-07,-3.842730359249202e-06,1.1439981524030696e-06,-2.1362304445382563e-06,-1.2800435248427888e-06,0.0004948096241461511,-0.00044452293935750734,0.00016224631744157477,-0.00010047578932956504,0.00021808849992755477,-0.0004367587680234324,-0.00021248948146374442,0.12130087614059448,12.000879287719727,-1.2909882068634033,-21.717256546020508,-0.4031272530555725,-2.5079379081726074,0.20083944499492645,0
63,0.31000518798828125,-0.12130087614059448,-12.000879287719727,1.2909882068634033,21.717256546020508,0.4031272530555725,2.5079379081726074,-0.20083944499492645,0.0,0.0,0.0,0.0,0.0,0.0,0.0,-0.11888045683470833,0.3565396153979324,0.09885422042673023,0.42554801445583323,-0.13354242393932075,0.11911465707843212,-0.19823076355974412,0.17287856718322683,-0.487519817523789,-0.11147047228404272,-1.9463763436182713,0.13360475790934329,2.5955524960093785,0.9452458390047153,0.1728802376190821,-0.48752024683155326,-0.11147110072896137,-1.9463801863486305,0.1336059019074957,2.595550359778934,0.9452445589611904,-0.0004948096241461511,0.00044452293935750734,-0.00016224631744157477,0.00010047578932956504,-0.00021808849992755477,0.0004367587680234324,0.00021248948146374442,0.0,0.0,0.0,0.0,0.0,0.0,0.0,1.6704358552777077e-06,-4.2930776428251605e-07,-6.284449186461094e-07,-3.842730359249202e-06,1.1439981524030696e-06,-2.1362304445382563e-06,-1.2800435248427888e-06,0.0004948096241461511,-0.00044452293935750734,0.00016224631744157477,-0.00010047578932956504,0.00021808849992755477,-0.0004367587680234324,-0.00021248948146374442,0.12130087614059448,12.000879287719727,-1.2909882068634033,-21.717256546020508,-0.4031272530555725,-2.5079379081726074,0.20083944499492645,0
64,0.3149998188018799,-0.14510458707809448,-11.949304580688477,1.2909882068634033,21.717256546020508,0.3976340889930725,2.5207552909851074,-0.17337362468242645,0.0,0.0,0.0,0.0,0.0,0.0,0.0,-0.12042846868896197,0.3539456680355838,0.09763348217789121,0.4250935673764218,-0.13397501787328558,0.11944284995478124,-0.19983696406991575,0.1728802376190821,-0.4875234368014754,-0.11147062720312771,-1.9463785159086877,0.13360747282383076,2.595551071855757,0.9452438468830383,0.1728802376190821,-0.48752024683155326,-0.11147110072896137,-1.9463801863486305,0.1336059019074957,2.595550359778934,0.9452445589611904,0.00031877497521861357,-0.0008499135449398698,-0.00016375495047116413,-0.0001246369236774182,0.00015896716439678642,-6.564118428956401e-05,-0.0010766464700271048,0.0,0.0,0.0,0.0,0.0,0.0,0.0,0.0,3.189969922157143e-06,-4.735258336552306e-07,-1.670439942813573e-06,-1.570916335069672e-06,-7.120768228396912e-07,7.120781521097186e-07,-0.00031877497521861357,0.0008499135449398698,0.00016375495047116413,0.0001246369236774182,-0.00015896716439678642,6.564118428956401e-05,0.0010766464700271048,0.14510458707809448,11.949304580688477,-1.2909882068634033,-21.717256546020508,-0.3976340889930725,-2.5207552909851074,0.17337362468242645,0
65,0.32000041007995605,-0.14510458707809448,-11.949304580688477,1.2909882068634033,21.717256546020508,0.3976340889930725,2.5207552909851074,-0.17337362468242645,0.0,0.0,0.0,0.0,0.0,0.0,0.0,-0.12042846868896197,0.3539456680355838,0.09763348217789121,0.4250935673764218,-0.13397501787328558,0.11944284995478124,-0.19983696406991575,0.1728802376190821,-0.4875234368014754,-0.11147062720312771,-1.9463785159086877,0.13360747282383076,2.595551071855757,0.9452438468830383,0.1728802376190821,-0.48752024683155326,-0.11147110072896137,-1.9463801863486305,0.1336059019074957,2.595550359778934,0.9452445589611904,0.00031877497521861357,-0.0008499135449398698,-0.00016375495047116413,-0.0001246369236774182,0.00015896716439678642,-6.564118428956401e-05,-0.0010766464700271048,0.0,0.0,0.0,0.0,0.0,0.0,0.0,0.0,3.189969922157143e-06,-4.735258336552306e-07,-1.670439942813573e-06,-1.570916335069672e-06,-7.120768228396912e-07,7.120781521097186e-07,-0.00031877497521861357,0.0008499135449398698,0.00016375495047116413,0.0001246369236774182,-0.00015896716439678642,6.564118428956401e-05,0.0010766464700271048,0.14510458707809448,11.949304580688477,-1.2909882068634033,-21.717256546020508,-0.3976340889930725,-2.5207552909851074,0.17337362468242645,0
66,0.3250083923339844,-0.09352988004684448,-12.000879287719727,1.2671844959259033,21.741060256958008,0.3976340889930725,2.5143465995788574,-0.15964071452617645,0.0,0.0,0.0,0.0,0.0,0.0,0.0,-0.12141770686218283,0.3476115549200775,0.09666608449583222,0.42710014959295567,-0.13395632169348518,0.11954930608359389,-0.20093405341645876,0.1728766183413957,-0.487519817523789,-0.11146880282385689,-1.9463801598576773,0.13360425719318497,2.5955517839325797,0.9452423210061258,0.1728802376190821,-0.48752024683155326,-0.11147110072896137,-1.9463801863486305,0.1336059019074957,2.595550359778934,0.9452445589611904,-0.0003444167954958043,0.00018104929602081877,0.00027620633770177364,-0.0007965403721182157,0.00016906974739480272,3.6503689043633104e-05,-0.0016474102101382193,0.0,0.0,0.0,0.0,0.0,0.0,0.0,3.6192776864119036e-06,-4.2930776428251605e-07,-2.297905104475806e-06,-2.6490953208835322e-08,1.6447143107167772e-06,-1.4241536456793824e-06,2.2379550645990065e-06,0.0003444167954958043,-0.00018104929602081877,-0.00027620633770177364,0.0007965403721182157,-0.00016906974739480272,-3.6503689043633104e-05,0.0016474102101382193,0.09352988004684448,12.000879287719727,-1.2671844959259033,-21.741060256958008,-0.3976340889930725,-2.5143465995788574,0.15964071452617645,0
67,0.32999610900878906,-0.09352988004684448,-12.000879287719727,1.2671844959259033,21.741060256958008,0.3976340889930725,2.5143465995788574,-0.15964071452617645,0.0,0.0,0.0,0.0,0.0,0.0,0.0,-0.12141770686218283,0.3476115549200775,0.09666608449583222,0.42710014959295567,-0.13395632169348518,0.11954930608359389,-0.20093405341645876,0.1728766183413957,-0.487519817523789,-0.11146880282385689,-1.9463801598576773,0.13360425719318497,2.5955517839325797,0.9452423210061258,0.1728802376190821,-0.48752024683155326,-0.11147110072896137,-1.9463801863486305,0.1336059019074957,2.595550359778934,0.9452445589611904,-0.0003444167954958043,0.00018104929602081877,0.00027620633770177364,-0.0007965403721182157,0.00016906974739480272,3.6503689043633104e-05,-0.0016474102101382193,0.0,0.0,0.0,0.0,0.0,0.0,0.0,3.6192776864119036e-06,-4.2930776428251605e-07,-2.297905104475806e-06,-2.6490953208835322e-08,1.6447143107167772e-06,-1.4241536456793824e-06,2.2379550645990065e-06,0.0003444167954958043,-0.00018104929602081877,-0.00027620633770177364,0.0007965403721182157,-0.00016906974739480272,-3.6503689043633104e-05,0.0016474102101382193,0.09352988004684448,12.000879287719727,-1.2671844959259033,-21.741060256958008,-0.3976340889930725,-2.5143465995788574,0.15964071452617645,0
68,0.3350076675415039,-0.09352988004684448,-11.925500869750977,1.2909882068634033,21.717256546020508,0.3912253975868225,2.5143465995788574,-0.17978231608867645,0.0,0.0,0.0,0.0,0.0,0.0,0.0,-0.12026322658221211,0.36087709208655966,0.09205902973097364,0.4235986141388239,-0.13388112771272076,0.11845215676332425,-0.2010114885381649,0.1728766183413957,-0.48752510723733067,-0.1114703992095428,-1.9463785129691864,0.13360834013783585,2.5955517839325797,0.945244558961855,0.1728802376190821,-0.48752024683155326,-0.11147110072896137,-1.9463801863486305,0.1336059019074957,2.595550359778934,0.9452445589611904,-0.000522724655009322,-0.0006402804224620779,-0.00030464743039005916,0.00011133365886908951,0.0003130531327072759,0.0002580884575010732,-0.00030220967642220954,0.0,0.0,0.0,0.0,0.0,0.0,0.0,3.6192776864119036e-06,4.860405777407095e-06,-7.015194185694407e-07,-1.6733794441226024e-06,-2.4382303401571104e-06,-1.4241536456793824e-06,-6.645795025406187e-13,0.000522724655009322,0.0006402804224620779,0.00030464743039005916,-0.00011133365886908951,-0.0003130531327072759,-0.0002580884575010732,0.00030220967642220954,0.09352988004684448,11.925500869750977,-1.2909882068634033,-21.717256546020508,-0.3912253975868225,-2.5143465995788574,0.17978231608867645,0
69,0.339998722076416,-0.09352988004684448,-11.925500869750977,1.2909882068634033,21.717256546020508,0.3912253975868225,2.5143465995788574,-0.17978231608867645,0.0,0.0,0.0,0.0,0.0,0.0,0.0,-0.12026322658221211,0.36087709208655966,0.09205902973097364,0.4235986141388239,-0.13388112771272076,0.11845215676332425,-0.2010114885381649,0.1728766183413957,-0.48752510723733067,-0.1114703992095428,-1.9463785129691864,0.13360834013783585,2.5955517839325797,0.945244558961855,0.1728802376190821,-0.48752024683155326,-0.11147110072896137,-1.9463801863486305,0.1336059019074957,2.595550359778934,0.9452445589611904,-0.000522724655009322,-0.0006402804224620779,-0.00030464743039005916,0.00011133365886908951,0.0003130531327072759,0.0002580884575010732,-0.00030220967642220954,0.0,0.0,0.0,0.0,0.0,0.0,0.0,3.6192776864119036e-06,4.860405777407095e-06,-7.015194185694407e-07,-1.6733794441226024e-06,-2.4382303401571104e-06,-1.4241536456793824e-06,-6.645795025406187e-13,0.000522724655009322,0.0006402804224620779,0.00030464743039005916,-0.00011133365886908951,-0.0003130531327072759,-0.0002580884575010732,0.00030220967642220954,0.09352988004684448,11.925500869750977,-1.2909882068634033,-21.717256546020508,-0.3912253975868225,-2.5143465995788574,0.17978231608867645,0
70,0.34501099586486816,-0.09352988004684448,-11.925500869750977,1.2909882068634033,21.717256546020508,0.3912253975868225,2.5143465995788574,-0.17978231608867645,0.0,0.0,0.0,0.0,0.0,0.0,0.0,-0.12026322658221211,0.36087709208655966,0.09205902973097364,0.4235986141388239,-0.13388112771272076,0.11845215676332425,-0.2010114885381649,0.1728766183413957,-0.48752510723733067,-0.1114703992095428,-1.9463785129691864,0.13360834013783585,2.5955517839325797,0.945244558961855,0.1728802376190821,-0.48752024683155326,-0.11147110072896137,-1.9463801863486305,0.1336059019074957,2.595550359778934,0.9452445589611904,-0.000522724655009322,-0.0006402804224620779,-0.00030464743039005916,0.00011133365886908951,0.0003130531327072759,0.0002580884575010732,-0.00030220967642220954,0.0,0.0,0.0,0.0,0.0,0.0,0.0,3.6192776864119036e-06,4.860405777407095e-06,-7.015194185694407e-07,-1.6733794441226024e-06,-2.4382303401571104e-06,-1.4241536456793824e-06,-6.645795025406187e-13,0.000522724655009322,0.0006402804224620779,0.00030464743039005916,-0.00011133365886908951,-0.0003130531327072759,-0.0002580884575010732,0.00030220967642220954,0.09352988004684448,11.925500869750977,-1.2909882068634033,-21.717256546020508,-0.3912253975868225,-2.5143465995788574,0.17978231608867645,0
71,0.3499937057495117,-0.09352988004684448,-11.925500869750977,1.2909882068634033,21.717256546020508,0.3912253975868225,2.5143465995788574,-0.17978231608867645,0.0,0.0,0.0,0.0,0.0,0.0,0.0,-0.12026322658221211,0.36087709208655966,0.09205902973097364,0.4235986141388239,-0.13388112771272076,0.11845215676332425,-0.2010114885381649,0.1728766183413957,-0.48752510723733067,-0.1114703992095428,-1.9463785129691864,0.13360834013783585,2.5955517839325797,0.945244558961855,0.1728802376190821,-0.48752024683155326,-0.11147110072896137,-1.9463801863486305,0.1336059019074957,2.595550359778934,0.9452445589611904,-0.000522724655009322,-0.0006402804224620779,-0.00030464743039005916,0.00011133365886908951,0.0003130531327072759,0.0002580884575010732,-0.00030220967642220954,0.0,0.0,0.0,0.0,0.0,0.0,0.0,3.6192776864119036e-06,4.860405777407095e-06,-7.015194185694407e-07,-1.6733794441226024e-06,-2.4382303401571104e-06,-1.4241536456793824e-06,-6.645795025406187e-13,0.000522724655009322,0.0006402804224620779,0.00030464743039005916,-0.00011133365886908951,-0.0003130531327072759,-0.0002580884575010732,0.00030220967642220954,0.09352988004684448,11.925500869750977,-1.2909882068634033,-21.717256546020508,-0.3912253975868225,-2.5143465995788574,0.17978231608867645,0
72,0.3550076484680176,-0.09352988004684448,-11.901697158813477,1.3425629138946533,21.693452835083008,0.4031272530555725,2.5271639823913574,-0.22098104655742645,0.0,0.0,0.0,0.0,0.0,0.0,0.0,-0.1184796703050826,0.3564129809355484,0.09072544075930096,0.42828721200499104,-0.13420413411690593,0.11921378193240245,-0.20056515770619593,0.1728766183413957,-0.4875267776731859,-0.1114740098260743,-1.9463768454769035,0.1336070181618524,2.595550359778934,0.9452491365985738,0.1728802376190821,-0.48752024683155326,-0.11147110072896137,-1.9463801863486305,0.1336059019074957,2.595550359778934,0.9452445589611904,-0.0005754044868288635,-0.0009549510387258943,-0.0016081813018642892,0.0005181078973317474,-0.00019412104415369533,-0.00045591259855854354,0.0015502742688886198,0.0,0.0,0.0,0.0,0.0,0.0,0.0,3.6192776864119036e-06,6.530841632657047e-06,2.909097112938075e-06,-3.3408717270422272e-06,-1.1162543566978211e-06,0.0,-4.5776373833739115e-06,0.0005754044868288635,0.0009549510387258943,0.0016081813018642892,-0.0005181078973317474,0.00019412104415369533,0.00045591259855854354,-0.0015502742688886198,0.09352988004684448,11.901697158813477,-1.3425629138946533,-21.693452835083008,-0.4031272530555725,-2.5271639823913574,0.22098104655742645,0
73,0.36002326011657715,-0.09352988004684448,-11.901697158813477,1.3425629138946533,21.693452835083008,0.4031272530555725,2.5271639823913574,-0.22098104655742645,0.0,0.0,0.0,0.0,0.0,0.0,0.0,-0.1184796703050826,0.3564129809355484,0.09072544075930096,0.42828721200499104,-0.13420413411690593,0.11921378193240245,-0.20056515770619593,0.1728766183413957,-0.4875267776731859,-0.1114740098260743,-1.9463768454769035,0.1336070181618524,2.595550359778934,0.9452491365985738,0.1728802376190821,-0.48752024683155326,-0.11147110072896137,-1.9463801863486305,0.1336059019074957,2.595550359778934,0.9452445589611904,-0.0005754044868288635,-0.0009549510387258943,-0.0016081813018642892,0.0005181078973317474,-0.00019412104415369533,-0.00045591259855854354,0.0015502742688886198,0.0,0.0,0.0,0.0,0.0,0.0,0.0,3.6192776864119036e-06,6.530841632657047e-06,2.909097112938075e-06,-3.3408717270422272e-06,-1.1162543566978211e-06,0.0,-4.5776373833739115e-06,0.0005754044868288635,0.0009549510387258943,0.0016081813018642892,-0.0005181078973317474,0.00019412104415369533,0.00045591259855854354,-0.0015502742688886198,0.09352988004684448,11.901697158813477,-1.3425629138946533,-21.693452835083008,-0.4031272530555725,-2.5271639823913574,0.22098104655742645,0
74,0.36499857902526855,-0.12130087614059448,-11.901697158813477,1.2909882068634033,21.741060256958008,0.3912253975868225,2.5207552909851074,-0.22098104655742645,0.0,0.0,0.0,0.0,0.0,0.0,0.0,-0.1178992638279644,0.35959725617269733,0.0938165577981491,0.42787950524558205,-0.13486310839049667,0.11942673936596365,-0.19927550116913068,0.17287856718322683,-0.4875267776731859,-0.11147040018340879,-1.9463801863486305,0.13360619490479067,2.595551071855757,0.9452491365985738,0.1728802376190821,-0.48752024683155326,-0.11147110072896137,-1.9463801863486305,0.1336059019074957,2.595550359778934,0.9452445589611904,-9.824568670735783e-05,-0.0009295173123874973,0.00031839237492799563,-0.0012985139260687309,0.0002992070099047937,-1.4576407429422883e-05,0.0010975064616669968,0.0,0.0,0.0,0.0,0.0,0.0,0.0,1.6704358552777077e-06,6.530841632657047e-06,-7.005455525815885e-07,0.0,-2.9299729498166727e-07,-7.120768228396912e-07,-4.5776373833739115e-06,9.824568670735783e-05,0.0009295173123874973,-0.00031839237492799563,0.0012985139260687309,-0.0002992070099047937,1.4576407429422883e-05,-0.0010975064616669968,0.12130087614059448,11.901697158813477,-1.2909882068634033,-21.741060256958008,-0.3912253975868225,-2.5207552909851074,0.22098104655742645,0
75,0.3699941635131836,-0.12130087614059448,-11.901697158813477,1.2909882068634033,21.741060256958008,0.3912253975868225,2.5207552909851074,-0.22098104655742645,0.0,0.0,0.0,0.0,0.0,0.0,0.0,-0.1178992638279644,0.35959725617269733,0.0938165577981491,0.42787950524558205,-0.13486310839049667,0.11942673936596365,-0.19927550116913068,0.17287856718322683,-0.4875267776731859,-0.11147040018340879,-1.9463801863486305,0.13360619490479067,2.595551071855757,0.9452491365985738,0.1728802376190821,-0.48752024683155326,-0.11147110072896137,-1.9463801863486305,0.1336059019074957,2.595550359778934,0.9452445589611904,-9.824568670735783e-05,-0.0009295173123874973,0.00031839237492799563,-0.0012985139260687309,0.0002992070099047937,-1.4576407429422883e-05,0.0010975064616669968,0.0,0.0,0.0,0.0,0.0,0.0,0.0,1.6704358552777077e-06,6.530841632657047e-06,-7.005455525815885e-07,0.0,-2.9299729498166727e-07,-7.120768228396912e-07,-4.5776373833739115e-06,9.824568670735783e-05,0.0009295173123874973,-0.00031839237492799563,0.0012985139260687309,-0.0002992070099047937,1.4576407429422883e-05,-0.0010975064616669968,0.12130087614059448,11.901697158813477,-1.2909882068634033,-21.741060256958008,-0.3912253975868225,-2.5207552909851074,0.22098104655742645,0
76,0.3749992847442627,-0.12130087614059448,-11.973108291625977,1.2909882068634033,21.693452835083008,0.3976340889930725,2.5143465995788574,-0.20083944499492645,0.0,0.0,0.0,0.0,0.0,0.0,0.0,-0.11821749006439383,0.35996055321732784,0.09705155269440369,0.42931940916874395,-0.13505576875625194,0.12027282243473178,-0.20023564492250773,0.17287856718322683,-0.4875217663656201,-0.11147039076491182,-1.946374699709708,0.13360868165262987,2.5955517839325797,0.9452468986428446,0.1728802376190821,-0.48752024683155326,-0.11147110072896137,-1.9463801863486305,0.1336059019074957,2.595550359778934,0.9452445589611904,9.868969618108617e-05,0.0005128545235280742,0.00031435992541340135,0.0007656834921868897,-1.7671821574892506e-05,0.00016588908166152944,0.00033607616267112823,0.0,0.0,0.0,0.0,0.0,0.0,0.0,1.6704358552777077e-06,1.51953406685168e-06,-7.099640495500381e-07,-5.486638922524989e-06,-2.7797451341848856e-06,-1.4241536456793824e-06,-2.3396816541954024e-06,-9.868969618108617e-05,-0.0005128545235280742,-0.00031435992541340135,-0.0007656834921868897,1.7671821574892506e-05,-0.00016588908166152944,-0.00033607616267112823,0.12130087614059448,11.973108291625977,-1.2909882068634033,-21.693452835083008,-0.3976340889930725,-2.5143465995788574,0.20083944499492645,0
77,0.3800208568572998,-0.12130087614059448,-11.973108291625977,1.2909882068634033,21.693452835083008,0.3976340889930725,2.5143465995788574,-0.20083944499492645,0.0,0.0,0.0,0.0,0.0,0.0,0.0,-0.11821749006439383,0.35996055321732784,0.09705155269440369,0.42931940916874395,-0.13505576875625194,0.12027282243473178,-0.20023564492250773,0.17287856718322683,-0.4875217663656201,-0.11147039076491182,-1.946374699709708,0.13360868165262987,2.5955517839325797,0.9452468986428446,0.1728802376190821,-0.48752024683155326,-0.11147110072896137,-1.9463801863486305,0.1336059019074957,2.595550359778934,0.9452445589611904,9.868969618108617e-05,0.0005128545235280742,0.00031435992541340135,0.0007656834921868897,-1.7671821574892506e-05,0.00016588908166152944,0.00033607616267112823,0.0,0.0,0.0,0.0,0.0,0.0,0.0,1.6704358552777077e-06,1.51953406685168e-06,-7.099640495500381e-07,-5.486638922524989e-06,-2.7797451341848856e-06,-1.4241536456793824e-06,-2.3396816541954024e-06,-9.868969618108617e-05,-0.0005128545235280742,-0.00031435992541340135,-0.0007656834921868897,1.7671821574892506e-05,-0.00016588908166152944,-0.00033607616267112823,0.12130087614059448,11.973108291625977,-1.2909882068634033,-21.693452835083008,-0.3976340889930725,-2.5143465995788574,0.20083944499492645,0
78,0.3849949836730957,-0.12130087614059448,-12.024682998657227,1.2909882068634033,21.717256546020508,0.3912253975868225,2.5143465995788574,-0.17337362468242645,0.0,0.0,0.0,0.0,0.0,0.0,0.0,-0.12133344377297951,0.3552896450430742,0.09543049463089542,0.4301292004625219,-0.13465314610408569,0.12020195503685287,-0.2013559803815095,0.17287856718322683,-0.48751814708793373,-0.11147039044008468,-1.9463785158764364,0.13360616847476514,2.5955517839325797,0.9452438468850322,0.1728802376190821,-0.48752024683155326,-0.11147110072896137,-1.9463801863486305,0.1336059019074957,2.595550359778934,0.9452445589611904,-0.0001665325508359553,0.000867789484185424,6.655567428731633e-05,-5.817983495732973e-05,0.0003683035496079707,0.00019758273302568897,-0.0005464486641531781,0.0,0.0,0.0,0.0,0.0,0.0,0.0,1.6704358552777077e-06,-2.099743619532468e-06,-7.102888766874482e-07,-1.6704721941263045e-06,-2.6656726945240017e-07,-1.4241536456793824e-06,7.120761582601887e-07,0.0001665325508359553,-0.000867789484185424,-6.655567428731633e-05,5.817983495732973e-05,-0.0003683035496079707,-0.00019758273302568897,0.0005464486641531781,0.12130087614059448,12.024682998657227,-1.2909882068634033,-21.717256546020508,-0.3912253975868225,-2.5143465995788574,0.17337362468242645,0
79,0.3900110721588135,-0.12130087614059448,-12.024682998657227,1.2909882068634033,21.717256546020508,0.3912253975868225,2.5143465995788574,-0.17337362468242645,0.0,0.0,0.0,0.0,0.0,0.0,0.0,-0.12133344377297951,0.3552896450430742,0.09543049463089542,0.4301292004625219,-0.13465314610408569,0.12020195503685287,-0.2013559803815095,0.17287856718322683,-0.48751814708793373,-0.11147039044008468,-1.9463785158764364,0.13360616847476514,2.5955517839325797,0.9452438468850322,0.1728802376190821,-0.48752024683155326,-0.11147110072896137,-1.9463801863486305,0.1336059019074957,2.595550359778934,0.9452445589611904,-0.0001665325508359553,0.000867789484185424,6.655567428731633e-05,-5.817983495732973e-05,0.0003683035496079707,0.00019758273302568897,-0.0005464486641531781,0.0,0.0,0.0,0.0,0.0,0.0,0.0,1.6704358552777077e-06,-2.099743619532468e-06,-7.102888766874482e-07,-1.6704721941263045e-06,-2.6656726945240017e-07,-1.4241536456793824e-06,7.120761582601887e-07,0.0001665325508359553,-0.000867789484185424,-6.655567428731633e-05,5.817983495732973e-05,-0.0003683035496079707,-0.00019758273302568897,0.0005464486641531781,0.12130087614059448,12.024682998657227,-1.2909882068634033,-21.717256546020508,-0.3912253975868225,-2.5143465995788574,0.17337362468242645,0
80,0.39501428604125977,-0.14510458707809448,-12.000879287719727,1.2671844959259033,21.717256546020508,0.3976340889930725,2.5207552909851074,-0.20724813640117645,0.0,0.0,0.0,0.0,0.0,0.0,0.0,-0.1200309167976794,0.3560646531110457,0.09927477320864866,0.42614821581789997,-0.13450131186083078,0.11977183207410283,-0.20207046212894403,0.1728802376190821,-0.487519817523789,-0.11146879993560807,-1.946378515912775,0.13360513036900507,2.595551071855757,0.9452476107196676,0.1728802376190821,-0.48752024683155326,-0.11147110072896137,-1.9463801863486305,0.1336059019074957,2.595550359778934,0.9452445589611904,0.0005202662167236036,-0.00020941743416425228,0.0008300086637008213,0.00014795556584156942,0.00016334619328946067,2.7527582278446497e-05,0.0005669539970311134,0.0,0.0,0.0,0.0,0.0,0.0,0.0,0.0,-4.2930776428251605e-07,-2.300793353296471e-06,-1.6704358554164855e-06,7.715384906237244e-07,-7.120768228396912e-07,-3.051758477146116e-06,-0.0005202662167236036,0.00020941743416425228,-0.0008300086637008213,-0.00014795556584156942,-0.00016334619328946067,-2.7527582278446497e-05,-0.0005669539970311134,0.14510458707809448,12.000879287719727,-1.2671844959259033,-21.717256546020508,-0.3976340889930725,-2.5207552909851074,0.20724813640117645,0
