rezayati/contactInterpretation/dataset/franka_main/labeled_data/link1/g1_8.csv
index,time,tau_J0,tau_J1,tau_J2,tau_J3,tau_J4,tau_J5,tau_J6,tau_J_d0,tau_J_d1,tau_J_d2,tau_J_d3,tau_J_d4,tau_J_d5,tau_J_d6,tau_ext0,tau_ext1,tau_ext2,tau_ext3,tau_ext4,tau_ext5,tau_ext6,q0,q1,q2,q3,q4,q5,q6,q_d0,q_d1,q_d2,q_d3,q_d4,q_d5,q_d6,dq0,dq1,dq2,dq3,dq4,dq5,dq6,dq_d0,dq_d1,dq_d2,dq_d3,dq_d4,dq_d5,dq_d6,e0,e1,e2,e3,e4,e5,e6,de0,de1,de2,de3,de4,de5,de6,etau_J0,etau_J1,etau_J2,etau_J3,etau_J4,etau_J5,etau_J6,label
1,0.0,-0.4029781222343445,-22.549890518188477,-0.09756157547235489,14.131807327270508,0.10558086633682251,2.1453890800476074,-0.26217979192733765,0.0,0.0,0.0,0.0,0.0,0.0,0.0,-0.3530860656518314,0.23822800102565136,-0.23751820019321304,0.28825700329542064,-0.12873591598843162,-0.03631000673580732,-0.2450630780155706,1.6755050686409596,0.05210797237888939,0.029964215287413005,-2.7523909844180943,0.034249248380128626,2.7663679543071322,0.7691623412701818,1.6754973547542302,0.052104326824870026,0.029969505109285054,-2.752394845125968,0.0342448039870148,2.7663679543071322,0.7691630533470046,0.000818568215376126,5.495797904329975e-05,-0.0014119660905923563,0.00031256640738643455,-0.00011837119315771717,0.00023870467907597369,0.00044163617299879695,0.0,0.0,0.0,0.0,0.0,0.0,0.0,-7.713886729376895e-06,-3.6455540193616742e-06,5.289821872048184e-06,-3.860707873837299e-06,-4.4443931138254955e-06,0.0,7.120768228396912e-07,-0.000818568215376126,-5.495797904329975e-05,0.0014119660905923563,-0.00031256640738643455,0.00011837119315771717,-0.00023870467907597369,-0.00044163617299879695,0.4029781222343445,22.549890518188477,0.09756157547235489,-14.131807327270508,-0.10558086633682251,-2.1453890800476074,0.26217979192733765,0
2,0.004996538162231445,-0.4029781222343445,-22.549890518188477,-0.09756157547235489,14.131807327270508,0.10558086633682251,2.1453890800476074,-0.26217979192733765,0.0,0.0,0.0,0.0,0.0,0.0,0.0,-0.3530860656518314,0.23822800102565136,-0.23751820019321304,0.28825700329542064,-0.12873591598843162,-0.03631000673580732,-0.2450630780155706,1.6755050686409596,0.05210797237888939,0.029964215287413005,-2.7523909844180943,0.034249248380128626,2.7663679543071322,0.7691623412701818,1.6754973547542302,0.052104326824870026,0.029969505109285054,-2.752394845125968,0.0342448039870148,2.7663679543071322,0.7691630533470046,0.000818568215376126,5.495797904329975e-05,-0.0014119660905923563,0.00031256640738643455,-0.00011837119315771717,0.00023870467907597369,0.00044163617299879695,0.0,0.0,0.0,0.0,0.0,0.0,0.0,-7.713886729376895e-06,-3.6455540193616742e-06,5.289821872048184e-06,-3.860707873837299e-06,-4.4443931138254955e-06,0.0,7.120768228396912e-07,-0.000818568215376126,-5.495797904329975e-05,0.0014119660905923563,-0.00031256640738643455,0.00011837119315771717,-0.00023870467907597369,-0.00044163617299879695,0.4029781222343445,22.549890518188477,0.09756157547235489,-14.131807327270508,-0.10558086633682251,-2.1453890800476074,0.26217979192733765,0
3,0.009996414184570312,-0.4267818331718445,-22.597497940063477,-0.1729399859905243,14.155611038208008,0.09367901086807251,2.1582064628601074,-0.20724813640117645,0.0,0.0,0.0,0.0,0.0,0.0,0.0,-0.35765840012773054,0.23585376989126242,-0.23976965234418032,0.29109615631267066,-0.12830700467536818,-0.03586689829949267,-0.24509810784433408,1.675504593321716,0.052111287947612606,0.029968794820600865,-2.7523926548189617,0.03425163429263772,2.7663661768869416,0.7691562377529011,1.6754973547542302,0.052104326824870026,0.029969505109285054,-2.752394845125968,0.0342448039870148,2.7663679543071322,0.7691630533470046,0.0011513370746123344,0.0009627529378958488,0.00032755390082166706,6.23603638820691e-05,0.000581789263189943,-0.0003490319346556833,-0.0014632733932535532,0.0,0.0,0.0,0.0,0.0,0.0,0.0,-7.238567485856606e-06,-6.961122742579762e-06,7.102886841886535e-07,-2.1903070064333008e-06,-6.830305622922139e-06,1.7774201905851328e-06,6.815594103537492e-06,-0.0011513370746123344,-0.0009627529378958488,-0.00032755390082166706,-6.23603638820691e-05,-0.000581789263189943,0.0003490319346556833,0.0014632733932535532,0.4267818331718445,22.597497940063477,0.1729399859905243,-14.155611038208008,-0.09367901086807251,-2.1582064628601074,0.20724813640117645,0
4,0.0160372257232666,-0.4267818331718445,-22.597497940063477,-0.1729399859905243,14.155611038208008,0.09367901086807251,2.1582064628601074,-0.20724813640117645,0.0,0.0,0.0,0.0,0.0,0.0,0.0,-0.35765840012773054,0.23585376989126242,-0.23976965234418032,0.29109615631267066,-0.12830700467536818,-0.03586689829949267,-0.24509810784433408,1.675504593321716,0.052111287947612606,0.029968794820600865,-2.7523926548189617,0.03425163429263772,2.7663661768869416,0.7691562377529011,1.6754973547542302,0.052104326824870026,0.029969505109285054,-2.752394845125968,0.0342448039870148,2.7663679543071322,0.7691630533470046,0.0011513370746123344,0.0009627529378958488,0.00032755390082166706,6.23603638820691e-05,0.000581789263189943,-0.0003490319346556833,-0.0014632733932535532,0.0,0.0,0.0,0.0,0.0,0.0,0.0,-7.238567485856606e-06,-6.961122742579762e-06,7.102886841886535e-07,-2.1903070064333008e-06,-6.830305622922139e-06,1.7774201905851328e-06,6.815594103537492e-06,-0.0011513370746123344,-0.0009627529378958488,-0.00032755390082166706,-6.23603638820691e-05,-0.000581789263189943,0.0003490319346556833,0.0014632733932535532,0.4267818331718445,22.597497940063477,0.1729399859905243,-14.155611038208008,-0.09367901086807251,-2.1582064628601074,0.20724813640117645,0
5,0.01999664306640625,-0.4029781222343445,-22.597497940063477,-0.1729399859905243,14.155611038208008,0.10558086633682251,2.1517977714538574,-0.22098104655742645,0.0,0.0,0.0,0.0,0.0,0.0,0.0,-0.35785792463537497,0.23431829971353743,-0.23933612254937306,0.2908758840906713,-0.12890695557050488,-0.035603940433246425,-0.24336556962573616,1.6755029228737477,0.052113418384517614,0.02996950510794852,-2.7523926548539546,0.034250208585176106,2.7663672407760944,0.7691577636318073,1.6754973547542302,0.052104326824870026,0.029969505109285054,-2.752394845125968,0.0342448039870148,2.7663679543071322,0.7691630533470046,0.00083659719789246,0.0007277488009928176,0.00011575592027669211,8.285247617476512e-06,-8.806769179193738e-05,-3.8910237413810784e-05,-0.001352324107603328,0.0,0.0,0.0,0.0,0.0,0.0,0.0,-5.568119517462833e-06,-9.091559647587955e-06,1.3365350493010908e-12,-2.1902720135358322e-06,-5.404598161305729e-06,7.135310378103554e-07,5.289715197309697e-06,-0.00083659719789246,-0.0007277488009928176,-0.00011575592027669211,-8.285247617476512e-06,8.806769179193738e-05,3.8910237413810784e-05,0.001352324107603328,0.4029781222343445,22.597497940063477,0.1729399859905243,-14.155611038208008,-0.10558086633682251,-2.1517977714538574,0.22098104655742645,0
6,0.02499079704284668,-0.4029781222343445,-22.597497940063477,-0.1729399859905243,14.155611038208008,0.10558086633682251,2.1517977714538574,-0.22098104655742645,0.0,0.0,0.0,0.0,0.0,0.0,0.0,-0.35785792463537497,0.23431829971353743,-0.23933612254937306,0.2908758840906713,-0.12890695557050488,-0.035603940433246425,-0.24336556962573616,1.6755029228737477,0.052113418384517614,0.02996950510794852,-2.7523926548539546,0.034250208585176106,2.7663672407760944,0.7691577636318073,1.6754973547542302,0.052104326824870026,0.029969505109285054,-2.752394845125968,0.0342448039870148,2.7663679543071322,0.7691630533470046,0.00083659719789246,0.0007277488009928176,0.00011575592027669211,8.285247617476512e-06,-8.806769179193738e-05,-3.8910237413810784e-05,-0.001352324107603328,0.0,0.0,0.0,0.0,0.0,0.0,0.0,-5.568119517462833e-06,-9.091559647587955e-06,1.3365350493010908e-12,-2.1902720135358322e-06,-5.404598161305729e-06,7.135310378103554e-07,5.289715197309697e-06,-0.00083659719789246,-0.0007277488009928176,-0.00011575592027669211,-8.285247617476512e-06,8.806769179193738e-05,3.8910237413810784e-05,0.001352324107603328,0.4029781222343445,22.597497940063477,0.1729399859905243,-14.155611038208008,-0.10558086633682251,-2.1517977714538574,0.22098104655742645,0
7,0.029990196228027344,-0.3752071261405945,-22.549890518188477,-0.2007109820842743,14.155611038208008,0.10008770227432251,2.1582064628601074,-0.22098104655742645,0.0,0.0,0.0,0.0,0.0,0.0,0.0,-0.36109021586704654,0.23478802161950574,-0.2417243087095873,0.28848710492911617,-0.1290628186747328,-0.03577358928795443,-0.24494364682266528,1.6755009740319167,0.05211010088157264,0.029971453915029783,-2.7523905856202004,0.03425365798562754,2.7663665296689617,0.7691577636318073,1.6754973547542302,0.052104326824870026,0.029969505109285054,-2.752394845125968,0.0342448039870148,2.7663679543071322,0.7691630533470046,-1.558856875357973e-05,-0.0003654064650587595,0.0007471158634476441,0.0002151580254709786,0.00013482340384458075,-0.0004320926776330448,-0.001492541603947231,0.0,0.0,0.0,0.0,0.0,0.0,0.0,-3.619277686439659e-06,-5.7740567026148826e-06,-1.948805744729498e-06,-4.259505767656435e-06,-8.85399861273728e-06,1.424638170544057e-06,5.289715197309697e-06,1.558856875357973e-05,0.0003654064650587595,-0.0007471158634476441,-0.0002151580254709786,-0.00013482340384458075,0.0004320926776330448,0.001492541603947231,0.3752071261405945,22.549890518188477,0.2007109820842743,-14.155611038208008,-0.10008770227432251,-2.1582064628601074,0.22098104655742645,0
8,0.03499269485473633,-0.3752071261405945,-22.549890518188477,-0.2007109820842743,14.155611038208008,0.10008770227432251,2.1582064628601074,-0.22098104655742645,0.0,0.0,0.0,0.0,0.0,0.0,0.0,-0.36109021586704654,0.23478802161950574,-0.2417243087095873,0.28848710492911617,-0.1290628186747328,-0.03577358928795443,-0.24494364682266528,1.6755009740319167,0.05211010088157264,0.029971453915029783,-2.7523905856202004,0.03425365798562754,2.7663665296689617,0.7691577636318073,1.6754973547542302,0.052104326824870026,0.029969505109285054,-2.752394845125968,0.0342448039870148,2.7663679543071322,0.7691630533470046,-1.558856875357973e-05,-0.0003654064650587595,0.0007471158634476441,0.0002151580254709786,0.00013482340384458075,-0.0004320926776330448,-0.001492541603947231,0.0,0.0,0.0,0.0,0.0,0.0,0.0,-3.619277686439659e-06,-5.7740567026148826e-06,-1.948805744729498e-06,-4.259505767656435e-06,-8.85399861273728e-06,1.424638170544057e-06,5.289715197309697e-06,1.558856875357973e-05,0.0003654064650587595,-0.0007471158634476441,-0.0002151580254709786,-0.00013482340384458075,0.0004320926776330448,0.001492541603947231,0.3752071261405945,22.549890518188477,0.2007109820842743,-14.155611038208008,-0.10008770227432251,-2.1582064628601074,0.22098104655742645,0
9,0.03999137878417969,-0.3752071261405945,-22.549890518188477,-0.2007109820842743,14.155611038208008,0.10008770227432251,2.1582064628601074,-0.22098104655742645,0.0,0.0,0.0,0.0,0.0,0.0,0.0,-0.36109021586704654,0.23478802161950574,-0.2417243087095873,0.28848710492911617,-0.1290628186747328,-0.03577358928795443,-0.24494364682266528,1.6755009740319167,0.05211010088157264,0.029971453915029783,-2.7523905856202004,0.03425365798562754,2.7663665296689617,0.7691577636318073,1.6754973547542302,0.052104326824870026,0.029969505109285054,-2.752394845125968,0.0342448039870148,2.7663679543071322,0.7691630533470046,-1.558856875357973e-05,-0.0003654064650587595,0.0007471158634476441,0.0002151580254709786,0.00013482340384458075,-0.0004320926776330448,-0.001492541603947231,0.0,0.0,0.0,0.0,0.0,0.0,0.0,-3.619277686439659e-06,-5.7740567026148826e-06,-1.948805744729498e-06,-4.259505767656435e-06,-8.85399861273728e-06,1.424638170544057e-06,5.289715197309697e-06,1.558856875357973e-05,0.0003654064650587595,-0.0007471158634476441,-0.0002151580254709786,-0.00013482340384458075,0.0004320926776330448,0.001492541603947231,0.3752071261405945,22.549890518188477,0.2007109820842743,-14.155611038208008,-0.10008770227432251,-2.1582064628601074,0.22098104655742645,0
10,0.04498863220214844,-0.4505855441093445,-22.549890518188477,-0.2483184039592743,14.179414749145508,0.10558086633682251,2.1582064628601074,-0.24844686686992645,0.0,0.0,0.0,0.0,0.0,0.0,0.0,-0.36823430402083024,0.23489416751044187,-0.24745664547187804,0.2887724228103263,-0.1288844018524384,-0.03616380896831662,-0.24579505668390925,1.6755062638544747,0.05210794611472022,0.029974794822826514,-2.7523922561493537,0.034248892607442585,2.7663665299919784,0.7691608153896198,1.6754973547542302,0.052104326824870026,0.029969505109285054,-2.752394845125968,0.0342448039870148,2.7663679543071322,0.7691630533470046,0.00148509956040732,-6.930797988939505e-05,0.0009529140736142193,-0.00023291456843539492,0.00011955108590711833,-0.0005174140287938289,8.450593326395645e-05,0.0,0.0,0.0,0.0,0.0,0.0,0.0,-8.909100244425261e-06,-3.6192898501957727e-06,-5.289713541460628e-06,-2.5889766144260307e-06,-4.08862042778485e-06,1.4243151538195775e-06,2.2379573848541057e-06,-0.00148509956040732,6.930797988939505e-05,-0.0009529140736142193,0.00023291456843539492,-0.00011955108590711833,0.0005174140287938289,-8.450593326395645e-05,0.4505855441093445,22.549890518188477,0.2483184039592743,-14.179414749145508,-0.10558086633682251,-2.1582064628601074,0.24844686686992645,0
11,0.05095672607421875,-0.4505855441093445,-22.549890518188477,-0.2483184039592743,14.179414749145508,0.10558086633682251,2.1582064628601074,-0.24844686686992645,0.0,0.0,0.0,0.0,0.0,0.0,0.0,-0.36823430402083024,0.23489416751044187,-0.24745664547187804,0.2887724228103263,-0.1288844018524384,-0.03616380896831662,-0.24579505668390925,1.6755062638544747,0.05210794611472022,0.029974794822826514,-2.7523922561493537,0.034248892607442585,2.7663665299919784,0.7691608153896198,1.6754973547542302,0.052104326824870026,0.029969505109285054,-2.752394845125968,0.0342448039870148,2.7663679543071322,0.7691630533470046,0.00148509956040732,-6.930797988939505e-05,0.0009529140736142193,-0.00023291456843539492,0.00011955108590711833,-0.0005174140287938289,8.450593326395645e-05,0.0,0.0,0.0,0.0,0.0,0.0,0.0,-8.909100244425261e-06,-3.6192898501957727e-06,-5.289713541460628e-06,-2.5889766144260307e-06,-4.08862042778485e-06,1.4243151538195775e-06,2.2379573848541057e-06,-0.00148509956040732,6.930797988939505e-05,-0.0009529140736142193,0.00023291456843539492,-0.00011955108590711833,0.0005174140287938289,-8.450593326395645e-05,0.4505855441093445,22.549890518188477,0.2483184039592743,-14.179414749145508,-0.10558086633682251,-2.1582064628601074,0.24844686686992645,0
12,0.05498695373535156,-0.3752071261405945,-22.549890518188477,-0.1729399859905243,14.155611038208008,0.10008770227432251,2.1453890800476074,-0.23471395671367645,0.0,0.0,0.0,0.0,0.0,0.0,0.0,-0.3681141303289837,0.23784126995237623,-0.24599288983788115,0.28678185020229313,-0.12923566103602221,-0.03698804675635866,-0.24481551935800303,1.6755009740319173,0.052110100761407804,0.029969505109285054,-2.7523925754784306,0.034250612754851716,2.766367823487609,0.7691592895107136,1.6754973547542302,0.052104326824870026,0.029969505109285054,-2.752394845125968,0.0342448039870148,2.7663679543071322,0.7691630533470046,-0.00026515001884839774,3.3881015951974316e-05,-7.461093423501982e-05,-4.382490381893898e-05,0.0003913160436390768,8.598475673051566e-05,-0.00017439673108793517,0.0,0.0,0.0,0.0,0.0,0.0,0.0,-3.619277687105793e-06,-5.773936537778468e-06,0.0,-2.2696475374672787e-06,-5.808767836915085e-06,1.3081952321414292e-07,3.763836291081901e-06,0.00026515001884839774,-3.3881015951974316e-05,7.461093423501982e-05,4.382490381893898e-05,-0.0003913160436390768,-8.598475673051566e-05,0.00017439673108793517,0.3752071261405945,22.549890518188477,0.1729399859905243,-14.155611038208008,-0.10008770227432251,-2.1453890800476074,0.23471395671367645,0
13,0.06001138687133789,-0.3752071261405945,-22.549890518188477,-0.1729399859905243,14.155611038208008,0.10008770227432251,2.1453890800476074,-0.23471395671367645,0.0,0.0,0.0,0.0,0.0,0.0,0.0,-0.3681141303289837,0.23784126995237623,-0.24599288983788115,0.28678185020229313,-0.12923566103602221,-0.03698804675635866,-0.24481551935800303,1.6755009740319173,0.052110100761407804,0.029969505109285054,-2.7523925754784306,0.034250612754851716,2.766367823487609,0.7691592895107136,1.6754973547542302,0.052104326824870026,0.029969505109285054,-2.752394845125968,0.0342448039870148,2.7663679543071322,0.7691630533470046,-0.00026515001884839774,3.3881015951974316e-05,-7.461093423501982e-05,-4.382490381893898e-05,0.0003913160436390768,8.598475673051566e-05,-0.00017439673108793517,0.0,0.0,0.0,0.0,0.0,0.0,0.0,-3.619277687105793e-06,-5.773936537778468e-06,0.0,-2.2696475374672787e-06,-5.808767836915085e-06,1.3081952321414292e-07,3.763836291081901e-06,0.00026515001884839774,-3.3881015951974316e-05,7.461093423501982e-05,4.382490381893898e-05,-0.0003913160436390768,-8.598475673051566e-05,0.00017439673108793517,0.3752071261405945,22.549890518188477,0.1729399859905243,-14.155611038208008,-0.10008770227432251,-2.1453890800476074,0.23471395671367645,0
14,0.06500029563903809,-0.2998287081718445,-22.522119522094727,-0.09756157547235489,14.179414749145508,0.10558086633682251,2.1582064628601074,-0.21457235515117645,0.0,0.0,0.0,0.0,0.0,0.0,0.0,-0.3588538408339679,0.23961758463942617,-0.24009405494895655,0.28683115413290294,-0.12884014546266967,-0.03705022136435261,-0.2426581142542866,1.6754957637912347,0.05210623376374154,0.029964215384237432,-2.7523922249822323,0.034252499566017634,2.7663665286996904,0.7691570515549844,1.6754973547542302,0.052104326824870026,0.029969505109285054,-2.752394845125968,0.0342448039870148,2.7663679543071322,0.7691630533470046,-0.0004757111056280652,-0.0005886802875906968,-0.0003281330111003491,-0.0007987554082147428,-2.7259564984330666e-05,-0.00041775398644954735,-0.0009459639651010504,0.0,0.0,0.0,0.0,0.0,0.0,0.0,1.590962995567935e-06,-1.9069388715112212e-06,5.289725047621235e-06,-2.6201437357542545e-06,-7.695579002833797e-06,1.4256074418739217e-06,6.00179202026041e-06,0.0004757111056280652,0.0005886802875906968,0.0003281330111003491,0.0007987554082147428,2.7259564984330666e-05,0.00041775398644954735,0.0009459639651010504,0.2998287081718445,22.522119522094727,0.09756157547235489,-14.179414749145508,-0.10558086633682251,-2.1582064628601074,0.21457235515117645,0
15,0.06999397277832031,-0.2998287081718445,-22.522119522094727,-0.09756157547235489,14.179414749145508,0.10558086633682251,2.1582064628601074,-0.21457235515117645,0.0,0.0,0.0,0.0,0.0,0.0,0.0,-0.3588538408339679,0.23961758463942617,-0.24009405494895655,0.28683115413290294,-0.12884014546266967,-0.03705022136435261,-0.2426581142542866,1.6754957637912347,0.05210623376374154,0.029964215384237432,-2.7523922249822323,0.034252499566017634,2.7663665286996904,0.7691570515549844,1.6754973547542302,0.052104326824870026,0.029969505109285054,-2.752394845125968,0.0342448039870148,2.7663679543071322,0.7691630533470046,-0.0004757111056280652,-0.0005886802875906968,-0.0003281330111003491,-0.0007987554082147428,-2.7259564984330666e-05,-0.00041775398644954735,-0.0009459639651010504,0.0,0.0,0.0,0.0,0.0,0.0,0.0,1.590962995567935e-06,-1.9069388715112212e-06,5.289725047621235e-06,-2.6201437357542545e-06,-7.695579002833797e-06,1.4256074418739217e-06,6.00179202026041e-06,0.0004757111056280652,0.0005886802875906968,0.0003281330111003491,0.0007987554082147428,2.7259564984330666e-05,0.00041775398644954735,0.0009459639651010504,0.2998287081718445,22.522119522094727,0.09756157547235489,-14.179414749145508,-0.10558086633682251,-2.1582064628601074,0.21457235515117645,0
16,0.07499241828918457,-0.2998287081718445,-22.597497940063477,-0.1491362750530243,14.179414749145508,0.10008770227432251,2.1517977714538574,-0.24112264811992645,0.0,0.0,0.0,0.0,0.0,0.0,0.0,-0.35754113126867776,0.23255263197457293,-0.24460803047094193,0.2926972498342263,-0.12745452659041465,-0.03622950425410173,-0.24232427617205796,1.6754956843551625,0.05211341535812587,0.0299677294454766,-2.7523943252779537,0.03425270266515245,2.7663661825921717,0.7691600015875365,1.6754973547542302,0.052104326824870026,0.029969505109285054,-2.752394845125968,0.0342448039870148,2.7663679543071322,0.7691630533470046,-1.6161507023416456e-05,0.0005643864376349855,0.0004826935109345084,-0.000351408474069321,0.00015665621911096207,-0.00016898594646547505,2.6887017388968753e-05,0.0,0.0,0.0,0.0,0.0,0.0,0.0,1.6703990677324754e-06,-9.088533255846576e-06,1.775663808455119e-06,-5.198480144130713e-07,-7.89867813764944e-06,1.7717149605189775e-06,3.0517594681311877e-06,1.6161507023416456e-05,-0.0005643864376349855,-0.0004826935109345084,0.000351408474069321,-0.00015665621911096207,0.00016898594646547505,-2.6887017388968753e-05,0.2998287081718445,22.597497940063477,0.1491362750530243,-14.179414749145508,-0.10008770227432251,-2.1517977714538574,0.24112264811992645,0
17,0.07999587059020996,-0.2998287081718445,-22.597497940063477,-0.1491362750530243,14.179414749145508,0.10008770227432251,2.1517977714538574,-0.24112264811992645,0.0,0.0,0.0,0.0,0.0,0.0,0.0,-0.35754113126867776,0.23255263197457293,-0.24460803047094193,0.2926972498342263,-0.12745452659041465,-0.03622950425410173,-0.24232427617205796,1.6754956843551625,0.05211341535812587,0.0299677294454766,-2.7523943252779537,0.03425270266515245,2.7663661825921717,0.7691600015875365,1.6754973547542302,0.052104326824870026,0.029969505109285054,-2.752394845125968,0.0342448039870148,2.7663679543071322,0.7691630533470046,-1.6161507023416456e-05,0.0005643864376349855,0.0004826935109345084,-0.000351408474069321,0.00015665621911096207,-0.00016898594646547505,2.6887017388968753e-05,0.0,0.0,0.0,0.0,0.0,0.0,0.0,1.6703990677324754e-06,-9.088533255846576e-06,1.775663808455119e-06,-5.198480144130713e-07,-7.89867813764944e-06,1.7717149605189775e-06,3.0517594681311877e-06,1.6161507023416456e-05,-0.0005643864376349855,-0.0004826935109345084,0.000351408474069321,-0.00015665621911096207,0.00016898594646547505,-2.6887017388968753e-05,0.2998287081718445,22.597497940063477,0.1491362750530243,-14.179414749145508,-0.10008770227432251,-2.1517977714538574,0.24112264811992645,0
18,0.08499550819396973,-0.3752071261405945,-22.597497940063477,-0.1729399859905243,14.179414749145508,0.10008770227432251,2.1453890800476074,-0.24844686686992645,0.0,0.0,0.0,0.0,0.0,0.0,0.0,-0.35255450119520565,0.23987009351348185,-0.24619498167784984,0.28743006330686915,-0.1273108029543305,-0.038016709233553936,-0.2440916212245265,1.675500974031917,0.052111523473228845,0.02996950500043183,-2.7523939936623214,0.03424973825500745,2.766367596189438,0.7691608153896198,1.6754973547542302,0.052104326824870026,0.029969505109285054,-2.752394845125968,0.0342448039870148,2.7663679543071322,0.7691630533470046,0.0009301480574427272,0.0008896501945451643,0.0004724334237294233,-0.00021191119057395555,0.0002506939365565726,6.637713703533861e-05,-0.000583897088977507,0.0,0.0,0.0,0.0,0.0,0.0,0.0,-3.619277686661704e-06,-7.196648358819002e-06,1.0885322504483597e-10,-8.514636467005232e-07,-4.934267992647012e-06,3.5811769416582706e-07,2.2379573848541057e-06,-0.0009301480574427272,-0.0008896501945451643,-0.0004724334237294233,0.00021191119057395555,-0.0002506939365565726,-6.637713703533861e-05,0.000583897088977507,0.3752071261405945,22.597497940063477,0.1729399859905243,-14.179414749145508,-0.10008770227432251,-2.1453890800476074,0.24844686686992645,0
19,0.08999228477478027,-0.3752071261405945,-22.597497940063477,-0.1729399859905243,14.179414749145508,0.10008770227432251,2.1453890800476074,-0.24844686686992645,0.0,0.0,0.0,0.0,0.0,0.0,0.0,-0.35255450119520565,0.23987009351348185,-0.24619498167784984,0.28743006330686915,-0.1273108029543305,-0.038016709233553936,-0.2440916212245265,1.675500974031917,0.052111523473228845,0.02996950500043183,-2.7523939936623214,0.03424973825500745,2.766367596189438,0.7691608153896198,1.6754973547542302,0.052104326824870026,0.029969505109285054,-2.752394845125968,0.0342448039870148,2.7663679543071322,0.7691630533470046,0.0009301480574427272,0.0008896501945451643,0.0004724334237294233,-0.00021191119057395555,0.0002506939365565726,6.637713703533861e-05,-0.000583897088977507,0.0,0.0,0.0,0.0,0.0,0.0,0.0,-3.619277686661704e-06,-7.196648358819002e-06,1.0885322504483597e-10,-8.514636467005232e-07,-4.934267992647012e-06,3.5811769416582706e-07,2.2379573848541057e-06,-0.0009301480574427272,-0.0008896501945451643,-0.0004724334237294233,0.00021191119057395555,-0.0002506939365565726,-6.637713703533861e-05,0.000583897088977507,0.3752071261405945,22.597497940063477,0.1729399859905243,-14.179414749145508,-0.10008770227432251,-2.1453890800476074,0.24844686686992645,0
20,0.09499263763427734,-0.4267818331718445,-22.573694229125977,-0.2007109820842743,14.155611038208008,0.10008770227432251,2.1453890800476074,-0.22830526530742645,0.0,0.0,0.0,0.0,0.0,0.0,0.0,-0.3529154526907412,0.23489131937632027,-0.2454349711366982,0.2882576549198058,-0.1276389291830642,-0.03803363796478948,-0.24698829093087954,1.675504593309603,0.05210961751294405,0.02997145395111558,-2.7523923903059377,0.034254176811795926,2.7663679412231583,0.7691585774338906,1.6754973547542302,0.052104326824870026,0.029969505109285054,-2.752394845125968,0.0342448039870148,2.7663679543071322,0.7691630533470046,0.0007850699333128806,0.0001800851385806826,0.0007483146488424396,0.00023039666748924734,0.00014320514014188045,0.0001787112238622352,-0.000792927148093407,0.0,0.0,0.0,0.0,0.0,0.0,0.0,-7.238555372879318e-06,-5.290688074026384e-06,-1.9488418305270427e-06,-2.454820030362015e-06,-9.372824781125888e-06,1.3083973904315371e-08,4.475913114032615e-06,-0.0007850699333128806,-0.0001800851385806826,-0.0007483146488424396,-0.00023039666748924734,-0.00014320514014188045,-0.0001787112238622352,0.000792927148093407,0.4267818331718445,22.573694229125977,0.2007109820842743,-14.155611038208008,-0.10008770227432251,-2.1453890800476074,0.22830526530742645,0
21,0.0999901294708252,-0.4267818331718445,-22.573694229125977,-0.2007109820842743,14.155611038208008,0.10008770227432251,2.1453890800476074,-0.22830526530742645,0.0,0.0,0.0,0.0,0.0,0.0,0.0,-0.3529154526907412,0.23489131937632027,-0.2454349711366982,0.2882576549198058,-0.1276389291830642,-0.03803363796478948,-0.24698829093087954,1.675504593309603,0.05210961751294405,0.02997145395111558,-2.7523923903059377,0.034254176811795926,2.7663679412231583,0.7691585774338906,1.6754973547542302,0.052104326824870026,0.029969505109285054,-2.752394845125968,0.0342448039870148,2.7663679543071322,0.7691630533470046,0.0007850699333128806,0.0001800851385806826,0.0007483146488424396,0.00023039666748924734,0.00014320514014188045,0.0001787112238622352,-0.000792927148093407,0.0,0.0,0.0,0.0,0.0,0.0,0.0,-7.238555372879318e-06,-5.290688074026384e-06,-1.9488418305270427e-06,-2.454820030362015e-06,-9.372824781125888e-06,1.3083973904315371e-08,4.475913114032615e-06,-0.0007850699333128806,-0.0001800851385806826,-0.0007483146488424396,-0.00023039666748924734,-0.00014320514014188045,-0.0001787112238622352,0.000792927148093407,0.4267818331718445,22.573694229125977,0.2007109820842743,-14.155611038208008,-0.10008770227432251,-2.1453890800476074,0.22830526530742645,0
22,0.1049947738647461,-0.4029781222343445,-22.549890518188477,-0.2007109820842743,14.155611038208008,0.09367901086807251,2.1517977714538574,-0.22098104655742645,0.0,0.0,0.0,0.0,0.0,0.0,0.0,-0.3569252210788852,0.23554758020127456,-0.2432297152812874,0.2920583356466145,-0.1284226261280616,-0.03738418289910365,-0.24625310365823402,1.6755029228737477,0.05210865696914367,0.029969323085065475,-2.752390358966861,0.03425045672743719,2.766367242230088,0.7691577636318073,1.6754973547542302,0.052104326824870026,0.029969505109285054,-2.752394845125968,0.0342448039870148,2.7663679543071322,0.7691630533470046,-7.58354343448614e-05,2.733831688956427e-05,0.00037612724483740103,0.0005125463861805411,0.0003485101842672518,-0.00010343081780234898,-0.0010259902879548098,0.0,0.0,0.0,0.0,0.0,0.0,0.0,-5.568119517462833e-06,-4.33014427364542e-06,1.8202421957908e-07,-4.4861591073086515e-06,-5.652740422391889e-06,7.120770444402069e-07,5.289715197309697e-06,7.58354343448614e-05,-2.733831688956427e-05,-0.00037612724483740103,-0.0005125463861805411,-0.0003485101842672518,0.00010343081780234898,0.0010259902879548098,0.4029781222343445,22.549890518188477,0.2007109820842743,-14.155611038208008,-0.09367901086807251,-2.1517977714538574,0.22098104655742645,0
23,0.10999155044555664,-0.4029781222343445,-22.549890518188477,-0.2007109820842743,14.155611038208008,0.09367901086807251,2.1517977714538574,-0.22098104655742645,0.0,0.0,0.0,0.0,0.0,0.0,0.0,-0.3569252210788852,0.23554758020127456,-0.2432297152812874,0.2920583356466145,-0.1284226261280616,-0.03738418289910365,-0.24625310365823402,1.6755029228737477,0.05210865696914367,0.029969323085065475,-2.752390358966861,0.03425045672743719,2.766367242230088,0.7691577636318073,1.6754973547542302,0.052104326824870026,0.029969505109285054,-2.752394845125968,0.0342448039870148,2.7663679543071322,0.7691630533470046,-7.58354343448614e-05,2.733831688956427e-05,0.00037612724483740103,0.0005125463861805411,0.0003485101842672518,-0.00010343081780234898,-0.0010259902879548098,0.0,0.0,0.0,0.0,0.0,0.0,0.0,-5.568119517462833e-06,-4.33014427364542e-06,1.8202421957908e-07,-4.4861591073086515e-06,-5.652740422391889e-06,7.120770444402069e-07,5.289715197309697e-06,7.58354343448614e-05,-2.733831688956427e-05,-0.00037612724483740103,-0.0005125463861805411,-0.0003485101842672518,0.00010343081780234898,0.0010259902879548098,0.4029781222343445,22.549890518188477,0.2007109820842743,-14.155611038208008,-0.09367901086807251,-2.1517977714538574,0.22098104655742645,0
24,0.1149911880493164,-0.4029781222343445,-22.549890518188477,-0.1729399859905243,14.207185745239258,0.11198955774307251,2.1517977714538574,-0.21457235515117645,0.0,0.0,0.0,0.0,0.0,0.0,0.0,-0.3650910425991435,0.23481163964989515,-0.2465065549570731,0.29535159037748715,-0.12887235454983867,-0.03705563295363154,-0.24404492069803108,1.6755029228737477,0.05210865556473533,0.029969505105275452,-2.75239555985273,0.03424948125963184,2.766367242212364,0.7691570515549844,1.6754973547542302,0.052104326824870026,0.029969505109285054,-2.752394845125968,0.0342448039870148,2.7663679543071322,0.7691630533470046,-8.56211575082954e-05,0.00010393224330806419,-0.000346295485157673,-0.0007064408684324179,-0.00034675207999008766,-0.00012547470180530719,-0.0014899044884664648,0.0,0.0,0.0,0.0,0.0,0.0,0.0,-5.568119517462833e-06,-4.328739865305797e-06,4.0096016784563204e-12,7.147267617746422e-07,-4.677272617041595e-06,7.12094768040572e-07,6.00179202026041e-06,8.56211575082954e-05,-0.00010393224330806419,0.000346295485157673,0.0007064408684324179,0.00034675207999008766,0.00012547470180530719,0.0014899044884664648,0.4029781222343445,22.549890518188477,0.1729399859905243,-14.207185745239258,-0.11198955774307251,-2.1517977714538574,0.21457235515117645,0
25,0.11998510360717773,-0.4029781222343445,-22.549890518188477,-0.1729399859905243,14.207185745239258,0.11198955774307251,2.1517977714538574,-0.21457235515117645,0.0,0.0,0.0,0.0,0.0,0.0,0.0,-0.3650910425991435,0.23481163964989515,-0.2465065549570731,0.29535159037748715,-0.12887235454983867,-0.03705563295363154,-0.24404492069803108,1.6755029228737477,0.05210865556473533,0.029969505105275452,-2.75239555985273,0.03424948125963184,2.766367242212364,0.7691570515549844,1.6754973547542302,0.052104326824870026,0.029969505109285054,-2.752394845125968,0.0342448039870148,2.7663679543071322,0.7691630533470046,-8.56211575082954e-05,0.00010393224330806419,-0.000346295485157673,-0.0007064408684324179,-0.00034675207999008766,-0.00012547470180530719,-0.0014899044884664648,0.0,0.0,0.0,0.0,0.0,0.0,0.0,-5.568119517462833e-06,-4.328739865305797e-06,4.0096016784563204e-12,7.147267617746422e-07,-4.677272617041595e-06,7.12094768040572e-07,6.00179202026041e-06,8.56211575082954e-05,-0.00010393224330806419,0.000346295485157673,0.0007064408684324179,0.00034675207999008766,0.00012547470180530719,0.0014899044884664648,0.4029781222343445,22.549890518188477,0.1729399859905243,-14.207185745239258,-0.11198955774307251,-2.1517977714538574,0.21457235515117645,0
26,0.12499785423278809,-0.3514034152030945,-22.522119522094727,-0.1729399859905243,14.179414749145508,0.10008770227432251,2.1517977714538574,-0.22830526530742645,0.0,0.0,0.0,0.0,0.0,0.0,0.0,-0.36844432674011146,0.23736991430003176,-0.24746258602145027,0.29688739988530094,-0.12904393336172112,-0.037101921683498934,-0.24430339064015832,1.6754993036324,0.052106026460649615,0.02996950510928503,-2.75239202642877,0.03425045297159889,2.7663668754511304,0.7691585774883988,1.6754973547542302,0.052104326824870026,0.029969505109285054,-2.752394845125968,0.0342448039870148,2.7663679543071322,0.7691630533470046,-0.0007013322354143597,-0.0006488430020835916,1.7335789975882184e-05,-0.0001721489521221128,8.34941992947776e-05,2.774442567780704e-05,-0.0012336421827944437,0.0,0.0,0.0,0.0,0.0,0.0,0.0,-1.9488781697329927e-06,-1.6996357795895367e-06,2.42861286636753e-17,-2.8186971983146236e-06,-5.6489845840917985e-06,1.0788560018681892e-06,4.475858605856864e-06,0.0007013322354143597,0.0006488430020835916,-1.7335789975882184e-05,0.0001721489521221128,-8.34941992947776e-05,-2.774442567780704e-05,0.0012336421827944437,0.3514034152030945,22.522119522094727,0.1729399859905243,-14.179414749145508,-0.10008770227432251,-2.1517977714538574,0.22830526530742645,0
27,0.1299903392791748,-0.3514034152030945,-22.522119522094727,-0.1729399859905243,14.179414749145508,0.10008770227432251,2.1517977714538574,-0.22830526530742645,0.0,0.0,0.0,0.0,0.0,0.0,0.0,-0.36844432674011146,0.23736991430003176,-0.24746258602145027,0.29688739988530094,-0.12904393336172112,-0.037101921683498934,-0.24430339064015832,1.6754993036324,0.052106026460649615,0.02996950510928503,-2.75239202642877,0.03425045297159889,2.7663668754511304,0.7691585774883988,1.6754973547542302,0.052104326824870026,0.029969505109285054,-2.752394845125968,0.0342448039870148,2.7663679543071322,0.7691630533470046,-0.0007013322354143597,-0.0006488430020835916,1.7335789975882184e-05,-0.0001721489521221128,8.34941992947776e-05,2.774442567780704e-05,-0.0012336421827944437,0.0,0.0,0.0,0.0,0.0,0.0,0.0,-1.9488781697329927e-06,-1.6996357795895367e-06,2.42861286636753e-17,-2.8186971983146236e-06,-5.6489845840917985e-06,1.0788560018681892e-06,4.475858605856864e-06,0.0007013322354143597,0.0006488430020835916,-1.7335789975882184e-05,0.0001721489521221128,-8.34941992947776e-05,-2.774442567780704e-05,0.0012336421827944437,0.3514034152030945,22.522119522094727,0.1729399859905243,-14.179414749145508,-0.10008770227432251,-2.1517977714538574,0.22830526530742645,0
28,0.13500261306762695,-0.3514034152030945,-22.573694229125977,-0.1491362750530243,14.179414749145508,0.10008770227432251,2.1582064628601074,-0.22098104655742645,0.0,0.0,0.0,0.0,0.0,0.0,0.0,-0.3703982821496385,0.23786061328171662,-0.24957826834725239,0.3006426520499877,-0.12874537047844953,-0.03641752357724577,-0.24534711799798456,1.6754993035960615,0.052109856053248596,0.02996783467342979,-2.752394322337431,0.03424950786670679,2.766366529505394,0.7691577636318077,1.6754973547542302,0.052104326824870026,0.029969505109285054,-2.752394845125968,0.0342448039870148,2.7663679543071322,0.7691630533470046,9.873306707962722e-05,0.0005693864095074841,-0.0003321856411020251,-0.00012756499031022576,0.00015382736931786334,-0.00035003179971890915,-0.001046026775471771,0.0,0.0,0.0,0.0,0.0,0.0,0.0,-1.9488418312452183e-06,-5.529228378570172e-06,1.6704358552638299e-06,-5.227885369052387e-07,-4.703879691987656e-06,1.4248017383700073e-06,5.28971519697663e-06,-9.873306707962722e-05,-0.0005693864095074841,0.0003321856411020251,0.00012756499031022576,-0.00015382736931786334,0.00035003179971890915,0.001046026775471771,0.3514034152030945,22.573694229125977,0.1491362750530243,-14.179414749145508,-0.10008770227432251,-2.1582064628601074,0.22098104655742645,0
29,0.14000248908996582,-0.3514034152030945,-22.573694229125977,-0.1491362750530243,14.179414749145508,0.10008770227432251,2.1582064628601074,-0.22098104655742645,0.0,0.0,0.0,0.0,0.0,0.0,0.0,-0.3703982821496385,0.23786061328171662,-0.24957826834725239,0.3006426520499877,-0.12874537047844953,-0.03641752357724577,-0.24534711799798456,1.6754993035960615,0.052109856053248596,0.02996783467342979,-2.752394322337431,0.03424950786670679,2.766366529505394,0.7691577636318077,1.6754973547542302,0.052104326824870026,0.029969505109285054,-2.752394845125968,0.0342448039870148,2.7663679543071322,0.7691630533470046,9.873306707962722e-05,0.0005693864095074841,-0.0003321856411020251,-0.00012756499031022576,0.00015382736931786334,-0.00035003179971890915,-0.001046026775471771,0.0,0.0,0.0,0.0,0.0,0.0,0.0,-1.9488418312452183e-06,-5.529228378570172e-06,1.6704358552638299e-06,-5.227885369052387e-07,-4.703879691987656e-06,1.4248017383700073e-06,5.28971519697663e-06,-9.873306707962722e-05,-0.0005693864095074841,0.0003321856411020251,0.00012756499031022576,-0.00015382736931786334,0.00035003179971890915,0.001046026775471771,0.3514034152030945,22.573694229125977,0.1491362750530243,-14.179414749145508,-0.10008770227432251,-2.1582064628601074,0.22098104655742645,0
30,0.14499878883361816,-0.3514034152030945,-22.573694229125977,-0.1491362750530243,14.179414749145508,0.10008770227432251,2.1582064628601074,-0.22098104655742645,0.0,0.0,0.0,0.0,0.0,0.0,0.0,-0.3703982821496385,0.23786061328171662,-0.24957826834725239,0.3006426520499877,-0.12874537047844953,-0.03641752357724577,-0.24534711799798456,1.6754993035960615,0.052109856053248596,0.02996783467342979,-2.752394322337431,0.03424950786670679,2.766366529505394,0.7691577636318077,1.6754973547542302,0.052104326824870026,0.029969505109285054,-2.752394845125968,0.0342448039870148,2.7663679543071322,0.7691630533470046,9.873306707962722e-05,0.0005693864095074841,-0.0003321856411020251,-0.00012756499031022576,0.00015382736931786334,-0.00035003179971890915,-0.001046026775471771,0.0,0.0,0.0,0.0,0.0,0.0,0.0,-1.9488418312452183e-06,-5.529228378570172e-06,1.6704358552638299e-06,-5.227885369052387e-07,-4.703879691987656e-06,1.4248017383700073e-06,5.28971519697663e-06,-9.873306707962722e-05,-0.0005693864095074841,0.0003321856411020251,0.00012756499031022576,-0.00015382736931786334,0.00035003179971890915,0.001046026775471771,0.3514034152030945,22.573694229125977,0.1491362750530243,-14.179414749145508,-0.10008770227432251,-2.1582064628601074,0.22098104655742645,0
31,0.1499943733215332,-0.3514034152030945,-22.573694229125977,-0.1491362750530243,14.179414749145508,0.10008770227432251,2.1582064628601074,-0.22098104655742645,0.0,0.0,0.0,0.0,0.0,0.0,0.0,-0.3703982821496385,0.23786061328171662,-0.24957826834725239,0.3006426520499877,-0.12874537047844953,-0.03641752357724577,-0.24534711799798456,1.6754993035960615,0.052109856053248596,0.02996783467342979,-2.752394322337431,0.03424950786670679,2.766366529505394,0.7691577636318077,1.6754973547542302,0.052104326824870026,0.029969505109285054,-2.752394845125968,0.0342448039870148,2.7663679543071322,0.7691630533470046,9.873306707962722e-05,0.0005693864095074841,-0.0003321856411020251,-0.00012756499031022576,0.00015382736931786334,-0.00035003179971890915,-0.001046026775471771,0.0,0.0,0.0,0.0,0.0,0.0,0.0,-1.9488418312452183e-06,-5.529228378570172e-06,1.6704358552638299e-06,-5.227885369052387e-07,-4.703879691987656e-06,1.4248017383700073e-06,5.28971519697663e-06,-9.873306707962722e-05,-0.0005693864095074841,0.0003321856411020251,0.00012756499031022576,-0.00015382736931786334,0.00035003179971890915,0.001046026775471771,0.3514034152030945,22.573694229125977,0.1491362750530243,-14.179414749145508,-0.10008770227432251,-2.1582064628601074,0.22098104655742645,0
32,0.1557912826538086,-0.3236324191093445,-22.522119522094727,-0.1729399859905243,14.155611038208008,0.10558086633682251,2.1453890800476074,-0.20724813640117645,0.0,0.0,0.0,0.0,0.0,0.0,0.0,-0.3652237991030883,0.23570705892305138,-0.24732848441196428,0.30081778533963316,-0.12901057630178206,-0.03632619292304399,-0.24415807313711416,1.6754973547542302,0.05210599726207736,0.029969505109285054,-2.7523905885595856,0.03425343367901055,2.7663679543071287,0.7691561200153312,1.6754973547542302,0.052104326824870026,0.029969505109285054,-2.752394845125968,0.0342448039870148,2.7663679543071322,0.7691630533470046,-0.0005716396248140995,-0.0015646075751492398,0.0006669195498623023,0.000665555743035571,-0.00013534716017530365,9.605974739675151e-05,-0.0008679712389295861,0.0,0.0,0.0,0.0,0.0,0.0,0.0,0.0,-1.6704372073350626e-06,0.0,-4.256566382476734e-06,-8.629691995748479e-06,3.552713678800501e-15,6.933331673453225e-06,0.0005716396248140995,0.0015646075751492398,-0.0006669195498623023,-0.000665555743035571,0.00013534716017530365,-9.605974739675151e-05,0.0008679712389295861,0.3236324191093445,22.522119522094727,0.1729399859905243,-14.155611038208008,-0.10558086633682251,-2.1453890800476074,0.20724813640117645,0
33,0.16068792343139648,-0.3236324191093445,-22.522119522094727,-0.1729399859905243,14.155611038208008,0.10558086633682251,2.1453890800476074,-0.20724813640117645,0.0,0.0,0.0,0.0,0.0,0.0,0.0,-0.3652237991030883,0.23570705892305138,-0.24732848441196428,0.30081778533963316,-0.12901057630178206,-0.03632619292304399,-0.24415807313711416,1.6754973547542302,0.05210599726207736,0.029969505109285054,-2.7523905885595856,0.03425343367901055,2.7663679543071287,0.7691561200153312,1.6754973547542302,0.052104326824870026,0.029969505109285054,-2.752394845125968,0.0342448039870148,2.7663679543071322,0.7691630533470046,-0.0005716396248140995,-0.0015646075751492398,0.0006669195498623023,0.000665555743035571,-0.00013534716017530365,9.605974739675151e-05,-0.0008679712389295861,0.0,0.0,0.0,0.0,0.0,0.0,0.0,0.0,-1.6704372073350626e-06,0.0,-4.256566382476734e-06,-8.629691995748479e-06,3.552713678800501e-15,6.933331673453225e-06,0.0005716396248140995,0.0015646075751492398,-0.0006669195498623023,-0.000665555743035571,0.00013534716017530365,-9.605974739675151e-05,0.0008679712389295861,0.3236324191093445,22.522119522094727,0.1729399859905243,-14.155611038208008,-0.10558086633682251,-2.1453890800476074,0.20724813640117645,0
34,0.1649916172027588,-0.3236324191093445,-22.549890518188477,-0.1729399859905243,14.131807327270508,0.09367901086807251,2.1517977714538574,-0.22098104655742645,0.0,0.0,0.0,0.0,0.0,0.0,0.0,-0.36204433243610573,0.24283262023529392,-0.24660369891106976,0.29270667534095685,-0.12979041669480695,-0.037840618993758623,-0.24272812775167038,1.6754973547542302,0.05211007772907133,0.029969505109285054,-2.7523909840565066,0.03425045250458664,2.7663672378696584,0.7691574104184329,1.6754973547542302,0.052104326824870026,0.029969505109285054,-2.752394845125968,0.0342448039870148,2.7663679543071322,0.7691630533470046,-0.0009937149018409677,-7.612801234596336e-05,0.0006902950176579462,0.0005162643180163635,0.0002565840497467766,-0.000333665688705556,-0.0014405300081947812,0.0,0.0,0.0,0.0,0.0,0.0,0.0,0.0,-5.75090420130292e-06,0.0,-3.861069461486011e-06,-5.648517571836542e-06,7.164374737911317e-07,5.642928571747419e-06,0.0009937149018409677,7.612801234596336e-05,-0.0006902950176579462,-0.0005162643180163635,-0.0002565840497467766,0.000333665688705556,0.0014405300081947812,0.3236324191093445,22.549890518188477,0.1729399859905243,-14.131807327270508,-0.09367901086807251,-2.1517977714538574,0.22098104655742645,0
35,0.16999006271362305,-0.3236324191093445,-22.549890518188477,-0.1729399859905243,14.131807327270508,0.09367901086807251,2.1517977714538574,-0.22098104655742645,0.0,0.0,0.0,0.0,0.0,0.0,0.0,-0.36204433243610573,0.24283262023529392,-0.24660369891106976,0.29270667534095685,-0.12979041669480695,-0.037840618993758623,-0.24272812775167038,1.6754973547542302,0.05211007772907133,0.029969505109285054,-2.7523909840565066,0.03425045250458664,2.7663672378696584,0.7691574104184329,1.6754973547542302,0.052104326824870026,0.029969505109285054,-2.752394845125968,0.0342448039870148,2.7663679543071322,0.7691630533470046,-0.0009937149018409677,-7.612801234596336e-05,0.0006902950176579462,0.0005162643180163635,0.0002565840497467766,-0.000333665688705556,-0.0014405300081947812,0.0,0.0,0.0,0.0,0.0,0.0,0.0,0.0,-5.75090420130292e-06,0.0,-3.861069461486011e-06,-5.648517571836542e-06,7.164374737911317e-07,5.642928571747419e-06,0.0009937149018409677,7.612801234596336e-05,-0.0006902950176579462,-0.0005162643180163635,-0.0002565840497467766,0.000333665688705556,0.0014405300081947812,0.3236324191093445,22.549890518188477,0.1729399859905243,-14.131807327270508,-0.09367901086807251,-2.1517977714538574,0.22098104655742645,0
36,0.1749897003173828,-0.3236324191093445,-22.573694229125977,-0.1491362750530243,14.131807327270508,0.11198955774307251,2.1453890800476074,-0.24844686686992645,0.0,0.0,0.0,0.0,0.0,0.0,0.0,-0.35399504996059306,0.23646668382893052,-0.2385117210328299,0.2953598830167204,-0.13058463051741054,-0.0375317625738575,-0.24411116979410669,1.6754973547542302,0.05210961665857782,0.02996783467342979,-2.7523908820639345,0.03425271716487279,2.766367954253272,0.7691608153876259,1.6754973547542302,0.052104326824870026,0.029969505109285054,-2.752394845125968,0.0342448039870148,2.7663679543071322,0.7691630533470046,-0.00035621627072264815,0.00025284372520156286,0.0006769723499383189,0.0010164838360163645,-0.00016699664681717877,1.1915765565637697e-05,-0.0004097283226596043,0.0,0.0,0.0,0.0,0.0,0.0,0.0,0.0,-5.2898337077958435e-06,1.6704358552638299e-06,-3.96306203365171e-06,-7.913177857990505e-06,5.3860027549035294e-11,2.2379593787036356e-06,0.00035621627072264815,-0.00025284372520156286,-0.0006769723499383189,-0.0010164838360163645,0.00016699664681717877,-1.1915765565637697e-05,0.0004097283226596043,0.3236324191093445,22.573694229125977,0.1491362750530243,-14.131807327270508,-0.11198955774307251,-2.1453890800476074,0.24844686686992645,0
37,0.17998933792114258,-0.3236324191093445,-22.573694229125977,-0.1491362750530243,14.131807327270508,0.11198955774307251,2.1453890800476074,-0.24844686686992645,0.0,0.0,0.0,0.0,0.0,0.0,0.0,-0.35399504996059306,0.23646668382893052,-0.2385117210328299,0.2953598830167204,-0.13058463051741054,-0.0375317625738575,-0.24411116979410669,1.6754973547542302,0.05210961665857782,0.02996783467342979,-2.7523908820639345,0.03425271716487279,2.766367954253272,0.7691608153876259,1.6754973547542302,0.052104326824870026,0.029969505109285054,-2.752394845125968,0.0342448039870148,2.7663679543071322,0.7691630533470046,-0.00035621627072264815,0.00025284372520156286,0.0006769723499383189,0.0010164838360163645,-0.00016699664681717877,1.1915765565637697e-05,-0.0004097283226596043,0.0,0.0,0.0,0.0,0.0,0.0,0.0,0.0,-5.2898337077958435e-06,1.6704358552638299e-06,-3.96306203365171e-06,-7.913177857990505e-06,5.3860027549035294e-11,2.2379593787036356e-06,0.00035621627072264815,-0.00025284372520156286,-0.0006769723499383189,-0.0010164838360163645,0.00016699664681717877,-1.1915765565637697e-05,0.0004097283226596043,0.3236324191093445,22.573694229125977,0.1491362750530243,-14.131807327270508,-0.11198955774307251,-2.1453890800476074,0.24844686686992645,0
38,0.18532228469848633,-0.2998287081718445,-22.549890518188477,-0.09756157547235489,14.131807327270508,0.10008770227432251,2.1655306816101074,-0.22098104655742645,0.0,0.0,0.0,0.0,0.0,0.0,0.0,-0.3577946899054898,0.2350198105697925,-0.24137956731684354,0.293568802155792,-0.1294519867562595,-0.03800454975043657,-0.24609471545243342,1.675495684318375,0.052107946426956216,0.029964215396266234,-2.752390984417522,0.03424975190321503,2.766365711936917,0.7691577636318073,1.6754973547542302,0.052104326824870026,0.029969505109285054,-2.752394845125968,0.0342448039870148,2.7663679543071322,0.7691630533470046,-0.0012032769947807448,-0.0005896083698169218,-0.0013449758392442494,0.0007015971749995673,8.132755804281239e-05,-0.0005461530812150756,-0.0013554522380935647,0.0,0.0,0.0,0.0,0.0,0.0,0.0,1.670435855194441e-06,-3.619602086189777e-06,5.2897130188196695e-06,-3.8607084462682906e-06,-4.947916200231939e-06,2.2423702152885028e-06,5.289715197309697e-06,0.0012032769947807448,0.0005896083698169218,0.0013449758392442494,-0.0007015971749995673,-8.132755804281239e-05,0.0005461530812150756,0.0013554522380935647,0.2998287081718445,22.549890518188477,0.09756157547235489,-14.131807327270508,-0.10008770227432251,-2.1655306816101074,0.22098104655742645,0
39,0.18999028205871582,-0.2998287081718445,-22.549890518188477,-0.09756157547235489,14.131807327270508,0.10008770227432251,2.1655306816101074,-0.22098104655742645,0.0,0.0,0.0,0.0,0.0,0.0,0.0,-0.3577946899054898,0.2350198105697925,-0.24137956731684354,0.293568802155792,-0.1294519867562595,-0.03800454975043657,-0.24609471545243342,1.675495684318375,0.052107946426956216,0.029964215396266234,-2.752390984417522,0.03424975190321503,2.766365711936917,0.7691577636318073,1.6754973547542302,0.052104326824870026,0.029969505109285054,-2.752394845125968,0.0342448039870148,2.7663679543071322,0.7691630533470046,-0.0012032769947807448,-0.0005896083698169218,-0.0013449758392442494,0.0007015971749995673,8.132755804281239e-05,-0.0005461530812150756,-0.0013554522380935647,0.0,0.0,0.0,0.0,0.0,0.0,0.0,1.670435855194441e-06,-3.619602086189777e-06,5.2897130188196695e-06,-3.8607084462682906e-06,-4.947916200231939e-06,2.2423702152885028e-06,5.289715197309697e-06,0.0012032769947807448,0.0005896083698169218,0.0013449758392442494,-0.0007015971749995673,-8.132755804281239e-05,0.0005461530812150756,0.0013554522380935647,0.2998287081718445,22.549890518188477,0.09756157547235489,-14.131807327270508,-0.10008770227432251,-2.1655306816101074,0.22098104655742645,0
40,0.194990873336792,-0.3752071261405945,-22.621301651000977,-0.1729399859905243,14.155611038208008,0.10558086633682251,2.1389803886413574,-0.21457235515117645,0.0,0.0,0.0,0.0,0.0,0.0,0.0,-0.36018809361977727,0.2407841656654482,-0.24402418346141375,0.28918126958969315,-0.12929140647006762,-0.038194306539460446,-0.2448933922039196,1.6755009740319167,0.052115086225178825,0.02996950507319865,-2.7523905118902103,0.03425001119034585,2.7663686663839466,0.7691570515549844,1.6754973547542302,0.052104326824870026,0.029969505109285054,-2.752394845125968,0.0342448039870148,2.7663679543071322,0.7691630533470046,-0.00027229398801609223,0.0019483920826728557,-0.0002036857377178091,-0.00015838258612547708,-0.00022509567993479125,0.00041174266268978146,-0.0005826686667217397,0.0,0.0,0.0,0.0,0.0,0.0,0.0,-3.619277686439659e-06,-1.0759400308799072e-05,3.608640469776603e-11,-4.333235757769671e-06,-5.207203331046573e-06,-7.120768144019962e-07,6.00179202026041e-06,0.00027229398801609223,-0.0019483920826728557,0.0002036857377178091,0.00015838258612547708,0.00022509567993479125,-0.00041174266268978146,0.0005826686667217397,0.3752071261405945,22.621301651000977,0.1729399859905243,-14.155611038208008,-0.10558086633682251,-2.1389803886413574,0.21457235515117645,0
41,0.19999480247497559,-0.3752071261405945,-22.621301651000977,-0.1729399859905243,14.155611038208008,0.10558086633682251,2.1389803886413574,-0.21457235515117645,0.0,0.0,0.0,0.0,0.0,0.0,0.0,-0.36018809361977727,0.2407841656654482,-0.24402418346141375,0.28918126958969315,-0.12929140647006762,-0.038194306539460446,-0.2448933922039196,1.6755009740319167,0.052115086225178825,0.02996950507319865,-2.7523905118902103,0.03425001119034585,2.7663686663839466,0.7691570515549844,1.6754973547542302,0.052104326824870026,0.029969505109285054,-2.752394845125968,0.0342448039870148,2.7663679543071322,0.7691630533470046,-0.00027229398801609223,0.0019483920826728557,-0.0002036857377178091,-0.00015838258612547708,-0.00022509567993479125,0.00041174266268978146,-0.0005826686667217397,0.0,0.0,0.0,0.0,0.0,0.0,0.0,-3.619277686439659e-06,-1.0759400308799072e-05,3.608640469776603e-11,-4.333235757769671e-06,-5.207203331046573e-06,-7.120768144019962e-07,6.00179202026041e-06,0.00027229398801609223,-0.0019483920826728557,0.0002036857377178091,0.00015838258612547708,0.00022509567993479125,-0.00041174266268978146,0.0005826686667217397,0.3752071261405945,22.621301651000977,0.1729399859905243,-14.155611038208008,-0.10558086633682251,-2.1389803886413574,0.21457235515117645,0
42,0.2050187587738037,-0.4505855441093445,-22.522119522094727,-0.2007109820842743,14.155611038208008,0.10008770227432251,2.1453890800476074,-0.22830526530742645,0.0,0.0,0.0,0.0,0.0,0.0,0.0,-0.36371653482197164,0.23618181271645772,-0.24416315715491463,0.29108835132899324,-0.12983366362253035,-0.03784267099517306,-0.2422391602786108,1.6755062637454583,0.052105998245939825,0.029971217188221468,-2.7523926194640596,0.0342525927680063,2.766364771032093,0.7691585774338906,1.6754973547542302,0.052104326824870026,0.029969505109285054,-2.752394845125968,0.0342448039870148,2.7663679543071322,0.7691630533470046,0.0010135264368434079,-0.0010893775909610033,0.0006011103762440381,-0.00032534381535534554,0.00020765927041021376,2.4685790808687633e-05,-0.0004105653264648219,0.0,0.0,0.0,0.0,0.0,0.0,0.0,-8.90899122807376e-06,-1.6714210697987841e-06,-1.7120789364138966e-06,-2.225661908550336e-06,-7.788780991502264e-06,3.1832750391203035e-06,4.475913114032615e-06,-0.0010135264368434079,0.0010893775909610033,-0.0006011103762440381,0.00032534381535534554,-0.00020765927041021376,-2.4685790808687633e-05,0.0004105653264648219,0.4505855441093445,22.522119522094727,0.2007109820842743,-14.155611038208008,-0.10008770227432251,-2.1453890800476074,0.22830526530742645,0
43,0.2104017734527588,-0.4505855441093445,-22.522119522094727,-0.2007109820842743,14.155611038208008,0.10008770227432251,2.1453890800476074,-0.22830526530742645,0.0,0.0,0.0,0.0,0.0,0.0,0.0,-0.36371653482197164,0.23618181271645772,-0.24416315715491463,0.29108835132899324,-0.12983366362253035,-0.03784267099517306,-0.2422391602786108,1.6755062637454583,0.052105998245939825,0.029971217188221468,-2.7523926194640596,0.0342525927680063,2.766364771032093,0.7691585774338906,1.6754973547542302,0.052104326824870026,0.029969505109285054,-2.752394845125968,0.0342448039870148,2.7663679543071322,0.7691630533470046,0.0010135264368434079,-0.0010893775909610033,0.0006011103762440381,-0.00032534381535534554,0.00020765927041021376,2.4685790808687633e-05,-0.0004105653264648219,0.0,0.0,0.0,0.0,0.0,0.0,0.0,-8.90899122807376e-06,-1.6714210697987841e-06,-1.7120789364138966e-06,-2.225661908550336e-06,-7.788780991502264e-06,3.1832750391203035e-06,4.475913114032615e-06,-0.0010135264368434079,0.0010893775909610033,-0.0006011103762440381,0.00032534381535534554,-0.00020765927041021376,-2.4685790808687633e-05,0.0004105653264648219,0.4505855441093445,22.522119522094727,0.2007109820842743,-14.155611038208008,-0.10008770227432251,-2.1453890800476074,0.22830526530742645,0
44,0.21501851081848145,-0.3514034152030945,-22.522119522094727,-0.1491362750530243,14.155611038208008,0.10558086633682251,2.1453890800476074,-0.22098104655742645,0.0,0.0,0.0,0.0,0.0,0.0,0.0,-0.3698184620699545,0.23457352015073624,-0.24465488223682563,0.292508595677524,-0.13016175497878996,-0.03747794590922274,-0.24264500249657023,1.6754993300870145,0.05210611144921559,0.029967833697760356,-2.7523923477912655,0.034252008572170894,2.7663679542353274,0.7691577636318073,1.6754973547542302,0.052104326824870026,0.029969505109285054,-2.752394845125968,0.0342448039870148,2.7663679543071322,0.7691630533470046,-0.0010616418589659401,-0.0009874592114175419,-0.0008619292190493839,0.00024637926580025655,-6.21945892843225e-05,0.00032889886435884437,-0.0016422063239408193,0.0,0.0,0.0,0.0,0.0,0.0,0.0,-1.975332784232009e-06,-1.7846243455660327e-06,1.6714115246979633e-06,-2.4973347025891712e-06,-7.204585156093957e-06,7.180478434065662e-11,5.289715197309697e-06,0.0010616418589659401,0.0009874592114175419,0.0008619292190493839,-0.00024637926580025655,6.21945892843225e-05,-0.00032889886435884437,0.0016422063239408193,0.3514034152030945,22.522119522094727,0.1491362750530243,-14.155611038208008,-0.10558086633682251,-2.1453890800476074,0.22098104655742645,0
45,0.21999144554138184,-0.3514034152030945,-22.522119522094727,-0.1491362750530243,14.155611038208008,0.10558086633682251,2.1453890800476074,-0.22098104655742645,0.0,0.0,0.0,0.0,0.0,0.0,0.0,-0.3698184620699545,0.23457352015073624,-0.24465488223682563,0.292508595677524,-0.13016175497878996,-0.03747794590922274,-0.24264500249657023,1.6754993300870145,0.05210611144921559,0.029967833697760356,-2.7523923477912655,0.034252008572170894,2.7663679542353274,0.7691577636318073,1.6754973547542302,0.052104326824870026,0.029969505109285054,-2.752394845125968,0.0342448039870148,2.7663679543071322,0.7691630533470046,-0.0010616418589659401,-0.0009874592114175419,-0.0008619292190493839,0.00024637926580025655,-6.21945892843225e-05,0.00032889886435884437,-0.0016422063239408193,0.0,0.0,0.0,0.0,0.0,0.0,0.0,-1.975332784232009e-06,-1.7846243455660327e-06,1.6714115246979633e-06,-2.4973347025891712e-06,-7.204585156093957e-06,7.180478434065662e-11,5.289715197309697e-06,0.0010616418589659401,0.0009874592114175419,0.0008619292190493839,-0.00024637926580025655,6.21945892843225e-05,-0.00032889886435884437,0.0016422063239408193,0.3514034152030945,22.522119522094727,0.1491362750530243,-14.155611038208008,-0.10558086633682251,-2.1453890800476074,0.22098104655742645,0
46,0.2249443531036377,-0.3236324191093445,-22.549890518188477,-0.1253325641155243,14.131807327270508,0.10008770227432251,2.1453890800476074,-0.22098104655742645,0.0,0.0,0.0,0.0,0.0,0.0,0.0,-0.36861757742322265,0.24126161157231354,-0.2419075469256184,0.28651305732280247,-0.1305074489267347,-0.037846069407872863,-0.24501982664049324,1.675497357697819,0.052108270177906306,0.02996616423756902,-2.7523901936123547,0.03425405308777917,2.766367954307132,0.7691577636318073,1.6754973547542302,0.052104326824870026,0.029969505109285054,-2.752394845125968,0.0342448039870148,2.7663679543071322,0.7691630533470046,-0.0008694281210780165,0.00010081262608120508,-0.0005392421533221062,0.0007254243281199466,0.00011603356832472865,0.00010999010189241749,-0.0010778537841570738,0.0,0.0,0.0,0.0,0.0,0.0,0.0,-2.943588706116884e-09,-3.943353036280073e-06,3.340871716033672e-06,-4.651513613396219e-06,-9.24910076437191e-06,4.440892098500626e-16,5.289715197309697e-06,0.0008694281210780165,-0.00010081262608120508,0.0005392421533221062,-0.0007254243281199466,-0.00011603356832472865,-0.00010999010189241749,0.0010778537841570738,0.3236324191093445,22.549890518188477,0.1253325641155243,-14.131807327270508,-0.10008770227432251,-2.1453890800476074,0.22098104655742645,0
47,0.23012065887451172,-0.3236324191093445,-22.549890518188477,-0.1253325641155243,14.131807327270508,0.10008770227432251,2.1453890800476074,-0.22098104655742645,0.0,0.0,0.0,0.0,0.0,0.0,0.0,-0.36861757742322265,0.24126161157231354,-0.2419075469256184,0.28651305732280247,-0.1305074489267347,-0.037846069407872863,-0.24501982664049324,1.675497357697819,0.052108270177906306,0.02996616423756902,-2.7523901936123547,0.03425405308777917,2.766367954307132,0.7691577636318073,1.6754973547542302,0.052104326824870026,0.029969505109285054,-2.752394845125968,0.0342448039870148,2.7663679543071322,0.7691630533470046,-0.0008694281210780165,0.00010081262608120508,-0.0005392421533221062,0.0007254243281199466,0.00011603356832472865,0.00010999010189241749,-0.0010778537841570738,0.0,0.0,0.0,0.0,0.0,0.0,0.0,-2.943588706116884e-09,-3.943353036280073e-06,3.340871716033672e-06,-4.651513613396219e-06,-9.24910076437191e-06,4.440892098500626e-16,5.289715197309697e-06,0.0008694281210780165,-0.00010081262608120508,0.0005392421533221062,-0.0007254243281199466,-0.00011603356832472865,-0.00010999010189241749,0.0010778537841570738,0.3236324191093445,22.549890518188477,0.1253325641155243,-14.131807327270508,-0.10008770227432251,-2.1453890800476074,0.22098104655742645,0
48,0.2350006103515625,-0.24825400114059448,-22.573694229125977,-0.1491362750530243,14.155611038208008,0.10008770227432251,2.1453890800476074,-0.22098104655742645,0.0,0.0,0.0,0.0,0.0,0.0,0.0,-0.36469154918900065,0.23552624121497792,-0.23899681109828538,0.2887730548759074,-0.1303810059458095,-0.03718540159651049,-0.24531798179872766,1.6754920650407052,0.05210995824063106,0.02996783467342979,-2.752391880737081,0.034249874182070074,2.7663678976186725,0.7691577636318073,1.6754973547542302,0.052104326824870026,0.029969505109285054,-2.752394845125968,0.0342448039870148,2.7663679543071322,0.7691630533470046,-0.001586863387183041,1.0821467899562401e-05,0.0005566771131640839,-4.936058840195955e-05,0.0001009529417453671,0.0002304866376616751,-0.0009339802947838385,0.0,0.0,0.0,0.0,0.0,0.0,0.0,5.289713524980755e-06,-5.631415761035707e-06,1.6704358552638299e-06,-2.9643888872499247e-06,-5.0701950552733965e-06,5.6688459704190564e-08,5.289715197309697e-06,0.001586863387183041,-1.0821467899562401e-05,-0.0005566771131640839,4.936058840195955e-05,-0.0001009529417453671,-0.0002304866376616751,0.0009339802947838385,0.24825400114059448,22.573694229125977,0.1491362750530243,-14.155611038208008,-0.10008770227432251,-2.1453890800476074,0.22098104655742645,0
49,0.2399883270263672,-0.24825400114059448,-22.573694229125977,-0.1491362750530243,14.155611038208008,0.10008770227432251,2.1453890800476074,-0.22098104655742645,0.0,0.0,0.0,0.0,0.0,0.0,0.0,-0.36469154918900065,0.23552624121497792,-0.23899681109828538,0.2887730548759074,-0.1303810059458095,-0.03718540159651049,-0.24531798179872766,1.6754920650407052,0.05210995824063106,0.02996783467342979,-2.752391880737081,0.034249874182070074,2.7663678976186725,0.7691577636318073,1.6754973547542302,0.052104326824870026,0.029969505109285054,-2.752394845125968,0.0342448039870148,2.7663679543071322,0.7691630533470046,-0.001586863387183041,1.0821467899562401e-05,0.0005566771131640839,-4.936058840195955e-05,0.0001009529417453671,0.0002304866376616751,-0.0009339802947838385,0.0,0.0,0.0,0.0,0.0,0.0,0.0,5.289713524980755e-06,-5.631415761035707e-06,1.6704358552638299e-06,-2.9643888872499247e-06,-5.0701950552733965e-06,5.6688459704190564e-08,5.289715197309697e-06,0.001586863387183041,-1.0821467899562401e-05,-0.0005566771131640839,4.936058840195955e-05,-0.0001009529417453671,-0.0002304866376616751,0.0009339802947838385,0.24825400114059448,22.573694229125977,0.1491362750530243,-14.155611038208008,-0.10008770227432251,-2.1453890800476074,0.22098104655742645,0
50,0.24500131607055664,-0.24825400114059448,-22.573694229125977,-0.1491362750530243,14.155611038208008,0.10008770227432251,2.1453890800476074,-0.22098104655742645,0.0,0.0,0.0,0.0,0.0,0.0,0.0,-0.36469154918900065,0.23552624121497792,-0.23899681109828538,0.2887730548759074,-0.1303810059458095,-0.03718540159651049,-0.24531798179872766,1.6754920650407052,0.05210995824063106,0.02996783467342979,-2.752391880737081,0.034249874182070074,2.7663678976186725,0.7691577636318073,1.6754973547542302,0.052104326824870026,0.029969505109285054,-2.752394845125968,0.0342448039870148,2.7663679543071322,0.7691630533470046,-0.001586863387183041,1.0821467899562401e-05,0.0005566771131640839,-4.936058840195955e-05,0.0001009529417453671,0.0002304866376616751,-0.0009339802947838385,0.0,0.0,0.0,0.0,0.0,0.0,0.0,5.289713524980755e-06,-5.631415761035707e-06,1.6704358552638299e-06,-2.9643888872499247e-06,-5.0701950552733965e-06,5.6688459704190564e-08,5.289715197309697e-06,0.001586863387183041,-1.0821467899562401e-05,-0.0005566771131640839,4.936058840195955e-05,-0.0001009529417453671,-0.0002304866376616751,0.0009339802947838385,0.24825400114059448,22.573694229125977,0.1491362750530243,-14.155611038208008,-0.10008770227432251,-2.1453890800476074,0.22098104655742645,0
51,0.24999165534973145,-0.24825400114059448,-22.573694229125977,-0.1491362750530243,14.155611038208008,0.10008770227432251,2.1453890800476074,-0.22098104655742645,0.0,0.0,0.0,0.0,0.0,0.0,0.0,-0.36469154918900065,0.23552624121497792,-0.23899681109828538,0.2887730548759074,-0.1303810059458095,-0.03718540159651049,-0.24531798179872766,1.6754920650407052,0.05210995824063106,0.02996783467342979,-2.752391880737081,0.034249874182070074,2.7663678976186725,0.7691577636318073,1.6754973547542302,0.052104326824870026,0.029969505109285054,-2.752394845125968,0.0342448039870148,2.7663679543071322,0.7691630533470046,-0.001586863387183041,1.0821467899562401e-05,0.0005566771131640839,-4.936058840195955e-05,0.0001009529417453671,0.0002304866376616751,-0.0009339802947838385,0.0,0.0,0.0,0.0,0.0,0.0,0.0,5.289713524980755e-06,-5.631415761035707e-06,1.6704358552638299e-06,-2.9643888872499247e-06,-5.0701950552733965e-06,5.6688459704190564e-08,5.289715197309697e-06,0.001586863387183041,-1.0821467899562401e-05,-0.0005566771131640839,4.936058840195955e-05,-0.0001009529417453671,-0.0002304866376616751,0.0009339802947838385,0.24825400114059448,22.573694229125977,0.1491362750530243,-14.155611038208008,-0.10008770227432251,-2.1453890800476074,0.22098104655742645,0
52,0.25500988960266113,-0.3514034152030945,-22.573694229125977,-0.1729399859905243,14.179414749145508,0.10558086633682251,2.1453890800476074,-0.22830526530742645,0.0,0.0,0.0,0.0,0.0,0.0,0.0,-0.3562328985309297,0.23526586384274914,-0.23742192308349483,0.2885330691655495,-0.12969331428325362,-0.03696332783806335,-0.24385533465787726,1.6754993035960613,0.052109696450653324,0.029969505109285054,-2.7523942884029484,0.0342520085568244,2.766364775392424,0.7691585774338906,1.6754973547542302,0.052104326824870026,0.029969505109285054,-2.752394845125968,0.0342448039870148,2.7663679543071322,0.7691630533470046,0.0011685575982384314,0.00013398855056859043,0.0007565179924121539,-0.000240635639927655,-9.89749560498794e-05,0.00022694753535419424,-0.000568834367153296,0.0,0.0,0.0,0.0,0.0,0.0,0.0,-1.9488418310231737e-06,-5.369625783298304e-06,0.0,-5.567230196845685e-07,-7.2045698095990485e-06,3.1789147083571834e-06,4.475913114032615e-06,-0.0011685575982384314,-0.00013398855056859043,-0.0007565179924121539,0.000240635639927655,9.89749560498794e-05,-0.00022694753535419424,0.000568834367153296,0.3514034152030945,22.573694229125977,0.1729399859905243,-14.179414749145508,-0.10558086633682251,-2.1453890800476074,0.22830526530742645,0
53,0.2600085735321045,-0.3514034152030945,-22.573694229125977,-0.1729399859905243,14.179414749145508,0.10558086633682251,2.1453890800476074,-0.22830526530742645,0.0,0.0,0.0,0.0,0.0,0.0,0.0,-0.3562328985309297,0.23526586384274914,-0.23742192308349483,0.2885330691655495,-0.12969331428325362,-0.03696332783806335,-0.24385533465787726,1.6754993035960613,0.052109696450653324,0.029969505109285054,-2.7523942884029484,0.0342520085568244,2.766364775392424,0.7691585774338906,1.6754973547542302,0.052104326824870026,0.029969505109285054,-2.752394845125968,0.0342448039870148,2.7663679543071322,0.7691630533470046,0.0011685575982384314,0.00013398855056859043,0.0007565179924121539,-0.000240635639927655,-9.89749560498794e-05,0.00022694753535419424,-0.000568834367153296,0.0,0.0,0.0,0.0,0.0,0.0,0.0,-1.9488418310231737e-06,-5.369625783298304e-06,0.0,-5.567230196845685e-07,-7.2045698095990485e-06,3.1789147083571834e-06,4.475913114032615e-06,-0.0011685575982384314,-0.00013398855056859043,-0.0007565179924121539,0.000240635639927655,9.89749560498794e-05,-0.00022694753535419424,0.000568834367153296,0.3514034152030945,22.573694229125977,0.1729399859905243,-14.179414749145508,-0.10558086633682251,-2.1453890800476074,0.22830526530742645,0
54,0.2650337219238281,-0.3752071261405945,-22.549890518188477,-0.1491362750530243,14.179414749145508,0.10558086633682251,2.1517977714538574,-0.22830526530742645,0.0,0.0,0.0,0.0,0.0,0.0,0.0,-0.3487335641431312,0.2385342428661587,-0.23764015507650305,0.2903706071034181,-0.12911662010218436,-0.03685401617352619,-0.24262739533727332,1.6755009740319167,0.0521079461027068,0.02996783466140099,-2.7523922504921194,0.03425210206001286,2.7663640632381594,0.7691585774338906,1.6754973547542302,0.052104326824870026,0.029969505109285054,-2.752394845125968,0.0342448039870148,2.7663679543071322,0.7691630533470046,0.000981289742660704,0.00020708542017449432,0.0001287337824397533,-0.00017902853079600962,2.324291087853016e-06,-4.9110691383352136e-05,0.00018361582447851382,0.0,0.0,0.0,0.0,0.0,0.0,0.0,-3.619277686439659e-06,-3.6192778367707956e-06,1.6704478840653958e-06,-2.594633848662653e-06,-7.298072998061789e-06,3.891068972805556e-06,4.475913114032615e-06,-0.000981289742660704,-0.00020708542017449432,-0.0001287337824397533,0.00017902853079600962,-2.324291087853016e-06,4.9110691383352136e-05,-0.00018361582447851382,0.3752071261405945,22.549890518188477,0.1491362750530243,-14.179414749145508,-0.10558086633682251,-2.1517977714538574,0.22830526530742645,0
55,0.2700045108795166,-0.3752071261405945,-22.549890518188477,-0.1491362750530243,14.179414749145508,0.10558086633682251,2.1517977714538574,-0.22830526530742645,0.0,0.0,0.0,0.0,0.0,0.0,0.0,-0.3487335641431312,0.2385342428661587,-0.23764015507650305,0.2903706071034181,-0.12911662010218436,-0.03685401617352619,-0.24262739533727332,1.6755009740319167,0.0521079461027068,0.02996783466140099,-2.7523922504921194,0.03425210206001286,2.7663640632381594,0.7691585774338906,1.6754973547542302,0.052104326824870026,0.029969505109285054,-2.752394845125968,0.0342448039870148,2.7663679543071322,0.7691630533470046,0.000981289742660704,0.00020708542017449432,0.0001287337824397533,-0.00017902853079600962,2.324291087853016e-06,-4.9110691383352136e-05,0.00018361582447851382,0.0,0.0,0.0,0.0,0.0,0.0,0.0,-3.619277686439659e-06,-3.6192778367707956e-06,1.6704478840653958e-06,-2.594633848662653e-06,-7.298072998061789e-06,3.891068972805556e-06,4.475913114032615e-06,-0.000981289742660704,-0.00020708542017449432,-0.0001287337824397533,0.00017902853079600962,-2.324291087853016e-06,4.9110691383352136e-05,-0.00018361582447851382,0.3752071261405945,22.549890518188477,0.1491362750530243,-14.179414749145508,-0.10558086633682251,-2.1517977714538574,0.22830526530742645,0
56,0.2750587463378906,-0.3514034152030945,-22.522119522094727,-0.1491362750530243,14.179414749145508,0.10008770227432251,2.1517977714538574,-0.23471395671367645,0.0,0.0,0.0,0.0,0.0,0.0,0.0,-0.34971738642855577,0.24042270890163842,-0.24045144025014115,0.2887585526675549,-0.1289806203952237,-0.03724024456309899,-0.24175571694322517,1.6754993035960613,0.05210602357309709,0.02996783467342972,-2.7523920280307617,0.034249751949852664,2.766366888515137,0.7691592895107136,1.6754973547542302,0.052104326824870026,0.029969505109285054,-2.752394845125968,0.0342448039870148,2.7663679543071322,0.7691630533470046,-0.0004401253742562312,-0.0006550904473329054,-0.00037907389603139704,-0.0006182979873919263,0.0001987088858389384,-0.00012494515713300594,-0.00081545133643833,0.0,0.0,0.0,0.0,0.0,0.0,0.0,-1.9488418310231737e-06,-1.6967482270660583e-06,1.6704358553332188e-06,-2.817095206442133e-06,-4.947962837863196e-06,1.065791995102927e-06,3.763836291081901e-06,0.0004401253742562312,0.0006550904473329054,0.00037907389603139704,0.0006182979873919263,-0.0001987088858389384,0.00012494515713300594,0.00081545133643833,0.3514034152030945,22.522119522094727,0.1491362750530243,-14.179414749145508,-0.10008770227432251,-2.1517977714538574,0.23471395671367645,0
57,0.2800314426422119,-0.3514034152030945,-22.522119522094727,-0.1491362750530243,14.179414749145508,0.10008770227432251,2.1517977714538574,-0.23471395671367645,0.0,0.0,0.0,0.0,0.0,0.0,0.0,-0.34971738642855577,0.24042270890163842,-0.24045144025014115,0.2887585526675549,-0.1289806203952237,-0.03724024456309899,-0.24175571694322517,1.6754993035960613,0.05210602357309709,0.02996783467342972,-2.7523920280307617,0.034249751949852664,2.766366888515137,0.7691592895107136,1.6754973547542302,0.052104326824870026,0.029969505109285054,-2.752394845125968,0.0342448039870148,2.7663679543071322,0.7691630533470046,-0.0004401253742562312,-0.0006550904473329054,-0.00037907389603139704,-0.0006182979873919263,0.0001987088858389384,-0.00012494515713300594,-0.00081545133643833,0.0,0.0,0.0,0.0,0.0,0.0,0.0,-1.9488418310231737e-06,-1.6967482270660583e-06,1.6704358553332188e-06,-2.817095206442133e-06,-4.947962837863196e-06,1.065791995102927e-06,3.763836291081901e-06,0.0004401253742562312,0.0006550904473329054,0.00037907389603139704,0.0006182979873919263,-0.0001987088858389384,0.00012494515713300594,0.00081545133643833,0.3514034152030945,22.522119522094727,0.1491362750530243,-14.179414749145508,-0.10008770227432251,-2.1517977714538574,0.23471395671367645,0
58,0.285045862197876,-0.3752071261405945,-22.573694229125977,-0.1491362750530243,14.179414749145508,0.10558086633682251,2.1389803886413574,-0.20724813640117645,0.0,0.0,0.0,0.0,0.0,0.0,0.0,-0.35423759591000625,0.23693122079074816,-0.2423652152167518,0.2943975753969297,-0.1288116473529354,-0.03615164765764912,-0.2429654910777888,1.6755009740319167,0.052110355519720014,0.02996783467342979,-2.752394296897619,0.03425000240469478,2.7663686663819584,0.7691562377529011,1.6754973547542302,0.052104326824870026,0.029969505109285054,-2.752394845125968,0.0342448039870148,2.7663679543071322,0.7691630533470046,-0.00012417860869530351,4.182532810397088e-05,-0.0006551279837011659,-0.00020889571599594652,-0.00012966699632008645,0.00019496179987650285,-0.001706726647459664,0.0,0.0,0.0,0.0,0.0,0.0,0.0,-3.619277686439659e-06,-6.0286948499882476e-06,1.6704358552638299e-06,-5.48228348939972e-07,-5.198417679978806e-06,-7.120748262146037e-07,6.815594103537492e-06,0.00012417860869530351,-4.182532810397088e-05,0.0006551279837011659,0.00020889571599594652,0.00012966699632008645,-0.00019496179987650285,0.001706726647459664,0.3752071261405945,22.573694229125977,0.1491362750530243,-14.179414749145508,-0.10558086633682251,-2.1389803886413574,0.20724813640117645,0
59,0.29001426696777344,-0.3752071261405945,-22.573694229125977,-0.1491362750530243,14.179414749145508,0.10558086633682251,2.1389803886413574,-0.20724813640117645,0.0,0.0,0.0,0.0,0.0,0.0,0.0,-0.35423759591000625,0.23693122079074816,-0.2423652152167518,0.2943975753969297,-0.1288116473529354,-0.03615164765764912,-0.2429654910777888,1.6755009740319167,0.052110355519720014,0.02996783467342979,-2.752394296897619,0.03425000240469478,2.7663686663819584,0.7691562377529011,1.6754973547542302,0.052104326824870026,0.029969505109285054,-2.752394845125968,0.0342448039870148,2.7663679543071322,0.7691630533470046,-0.00012417860869530351,4.182532810397088e-05,-0.0006551279837011659,-0.00020889571599594652,-0.00012966699632008645,0.00019496179987650285,-0.001706726647459664,0.0,0.0,0.0,0.0,0.0,0.0,0.0,-3.619277686439659e-06,-6.0286948499882476e-06,1.6704358552638299e-06,-5.48228348939972e-07,-5.198417679978806e-06,-7.120748262146037e-07,6.815594103537492e-06,0.00012417860869530351,-4.182532810397088e-05,0.0006551279837011659,0.00020889571599594652,0.00012966699632008645,-0.00019496179987650285,0.001706726647459664,0.3752071261405945,22.573694229125977,0.1491362750530243,-14.179414749145508,-0.10558086633682251,-2.1389803886413574,0.20724813640117645,0
60,0.29500699043273926,-0.3752071261405945,-22.573694229125977,-0.1491362750530243,14.179414749145508,0.10558086633682251,2.1389803886413574,-0.20724813640117645,0.0,0.0,0.0,0.0,0.0,0.0,0.0,-0.35423759591000625,0.23693122079074816,-0.2423652152167518,0.2943975753969297,-0.1288116473529354,-0.03615164765764912,-0.2429654910777888,1.6755009740319167,0.052110355519720014,0.02996783467342979,-2.752394296897619,0.03425000240469478,2.7663686663819584,0.7691562377529011,1.6754973547542302,0.052104326824870026,0.029969505109285054,-2.752394845125968,0.0342448039870148,2.7663679543071322,0.7691630533470046,-0.00012417860869530351,4.182532810397088e-05,-0.0006551279837011659,-0.00020889571599594652,-0.00012966699632008645,0.00019496179987650285,-0.001706726647459664,0.0,0.0,0.0,0.0,0.0,0.0,0.0,-3.619277686439659e-06,-6.0286948499882476e-06,1.6704358552638299e-06,-5.48228348939972e-07,-5.198417679978806e-06,-7.120748262146037e-07,6.815594103537492e-06,0.00012417860869530351,-4.182532810397088e-05,0.0006551279837011659,0.00020889571599594652,0.00012966699632008645,-0.00019496179987650285,0.001706726647459664,0.3752071261405945,22.573694229125977,0.1491362750530243,-14.179414749145508,-0.10558086633682251,-2.1389803886413574,0.20724813640117645,0
61,0.29999804496765137,-0.3514034152030945,-22.597497940063477,-0.1491362750530243,14.155611038208008,0.10558086633682251,2.1453890800476074,-0.19351522624492645,0.0,0.0,0.0,0.0,0.0,0.0,0.0,-0.3583672225537797,0.2428780060019678,-0.2421245978896042,0.29018055937563897,-0.12920050912513414,-0.037522771956167295,-0.2429362914412415,1.6754993035960613,0.05211128989803047,0.02996783467342979,-2.7523924163073565,0.034249142723159265,2.7663679541456268,0.7691547118739949,1.6754973547542302,0.052104326824870026,0.029969505109285054,-2.752394845125968,0.0342448039870148,2.7663679543071322,0.7691630533470046,-0.0007151131087305829,0.001022526595880876,-0.00039387880005411195,0.0003063119978038358,-0.00011235651482611076,0.00021126601256213766,-0.002137654326602159,0.0,0.0,0.0,0.0,0.0,0.0,0.0,-1.9488418310231737e-06,-6.963073160441702e-06,1.6704358552638299e-06,-2.428818611566186e-06,-4.338736144464395e-06,1.6150547565985107e-10,8.341473009765288e-06,0.0007151131087305829,-0.001022526595880876,0.00039387880005411195,-0.0003063119978038358,0.00011235651482611076,-0.00021126601256213766,0.002137654326602159,0.3514034152030945,22.597497940063477,0.1491362750530243,-14.155611038208008,-0.10558086633682251,-2.1453890800476074,0.19351522624492645,0
62,0.30499935150146484,-0.3514034152030945,-22.597497940063477,-0.1491362750530243,14.155611038208008,0.10558086633682251,2.1453890800476074,-0.19351522624492645,0.0,0.0,0.0,0.0,0.0,0.0,0.0,-0.3583672225537797,0.2428780060019678,-0.2421245978896042,0.29018055937563897,-0.12920050912513414,-0.037522771956167295,-0.2429362914412415,1.6754993035960613,0.05211128989803047,0.02996783467342979,-2.7523924163073565,0.034249142723159265,2.7663679541456268,0.7691547118739949,1.6754973547542302,0.052104326824870026,0.029969505109285054,-2.752394845125968,0.0342448039870148,2.7663679543071322,0.7691630533470046,-0.0007151131087305829,0.001022526595880876,-0.00039387880005411195,0.0003063119978038358,-0.00011235651482611076,0.00021126601256213766,-0.002137654326602159,0.0,0.0,0.0,0.0,0.0,0.0,0.0,-1.9488418310231737e-06,-6.963073160441702e-06,1.6704358552638299e-06,-2.428818611566186e-06,-4.338736144464395e-06,1.6150547565985107e-10,8.341473009765288e-06,0.0007151131087305829,-0.001022526595880876,0.00039387880005411195,-0.0003063119978038358,0.00011235651482611076,-0.00021126601256213766,0.002137654326602159,0.3514034152030945,22.597497940063477,0.1491362750530243,-14.155611038208008,-0.10558086633682251,-2.1453890800476074,0.19351522624492645,0
63,0.3100399971008301,-0.3752071261405945,-22.522119522094727,-0.1491362750530243,14.155611038208008,0.10008770227432251,2.1517977714538574,-0.20724813640117645,0.0,0.0,0.0,0.0,0.0,0.0,0.0,-0.3595360724876027,0.24394685428598914,-0.24154034860933407,0.2884250970973902,-0.1295553027656148,-0.03783548098227898,-0.24151239454005163,1.6755009740319167,0.0521059975851409,0.02996783467342979,-2.752391733210232,0.03424973872552337,2.7663672422303085,0.7691562377529011,1.6754973547542302,0.052104326824870026,0.029969505109285054,-2.752394845125968,0.0342448039870148,2.7663679543071322,0.7691630533470046,0.0003203719056433335,-0.0004402552755884223,-0.00018674723113573497,0.00010211893739336994,0.00033803504078169474,-0.0002106249022367478,-0.0015331332444021091,0.0,0.0,0.0,0.0,0.0,0.0,0.0,-3.619277686439659e-06,-1.6707602708762592e-06,1.6704358552638299e-06,-3.11191573620917e-06,-4.934738508571845e-06,7.120768237278696e-07,6.815594103537492e-06,-0.0003203719056433335,0.0004402552755884223,0.00018674723113573497,-0.00010211893739336994,-0.00033803504078169474,0.0002106249022367478,0.0015331332444021091,0.3752071261405945,22.522119522094727,0.1491362750530243,-14.155611038208008,-0.10008770227432251,-2.1517977714538574,0.20724813640117645,0
64,0.31501197814941406,-0.3752071261405945,-22.522119522094727,-0.1491362750530243,14.155611038208008,0.10008770227432251,2.1517977714538574,-0.20724813640117645,0.0,0.0,0.0,0.0,0.0,0.0,0.0,-0.3595360724876027,0.24394685428598914,-0.24154034860933407,0.2884250970973902,-0.1295553027656148,-0.03783548098227898,-0.24151239454005163,1.6755009740319167,0.0521059975851409,0.02996783467342979,-2.752391733210232,0.03424973872552337,2.7663672422303085,0.7691562377529011,1.6754973547542302,0.052104326824870026,0.029969505109285054,-2.752394845125968,0.0342448039870148,2.7663679543071322,0.7691630533470046,0.0003203719056433335,-0.0004402552755884223,-0.00018674723113573497,0.00010211893739336994,0.00033803504078169474,-0.0002106249022367478,-0.0015331332444021091,0.0,0.0,0.0,0.0,0.0,0.0,0.0,-3.619277686439659e-06,-1.6707602708762592e-06,1.6704358552638299e-06,-3.11191573620917e-06,-4.934738508571845e-06,7.120768237278696e-07,6.815594103537492e-06,-0.0003203719056433335,0.0004402552755884223,0.00018674723113573497,-0.00010211893739336994,-0.00033803504078169474,0.0002106249022367478,0.0015331332444021091,0.3752071261405945,22.522119522094727,0.1491362750530243,-14.155611038208008,-0.10008770227432251,-2.1517977714538574,0.20724813640117645,0
65,0.3201000690460205,-0.3514034152030945,-22.498315811157227,-0.1491362750530243,14.179414749145508,0.10558086633682251,2.1517977714538574,-0.27591270208358765,0.0,0.0,0.0,0.0,0.0,0.0,0.0,-0.36436877927624733,0.23833648060780702,-0.24569834356259354,0.2923474506619702,-0.12884682021421448,-0.037326767242727175,-0.24012623432128358,1.6754993035960613,0.052104329852600495,0.02996783467342979,-2.752394316770933,0.0342535084914437,2.7663672422303094,0.769163867149088,1.6754973547542302,0.052104326824870026,0.029969505109285054,-2.752394845125968,0.0342448039870148,2.7663679543071322,0.7691630533470046,-9.272017019433759e-05,-0.001504729843291364,-0.0007809449182822756,-0.0005027913109888883,-0.00012264299469525952,-0.00022807210239580004,0.001288327280287944,0.0,0.0,0.0,0.0,0.0,0.0,0.0,-1.9488418310231737e-06,-3.027730469118417e-09,1.6704358552638299e-06,-5.283550352785937e-07,-8.704504428899695e-06,7.120768228396912e-07,-8.138020833881043e-07,9.272017019433759e-05,0.001504729843291364,0.0007809449182822756,0.0005027913109888883,0.00012264299469525952,0.00022807210239580004,-0.001288327280287944,0.3514034152030945,22.498315811157227,0.1491362750530243,-14.179414749145508,-0.10558086633682251,-2.1517977714538574,0.27591270208358765,0
66,0.3250136375427246,-0.3514034152030945,-22.498315811157227,-0.1491362750530243,14.179414749145508,0.10558086633682251,2.1517977714538574,-0.27591270208358765,0.0,0.0,0.0,0.0,0.0,0.0,0.0,-0.36436877927624733,0.23833648060780702,-0.24569834356259354,0.2923474506619702,-0.12884682021421448,-0.037326767242727175,-0.24012623432128358,1.6754993035960613,0.052104329852600495,0.02996783467342979,-2.752394316770933,0.0342535084914437,2.7663672422303094,0.769163867149088,1.6754973547542302,0.052104326824870026,0.029969505109285054,-2.752394845125968,0.0342448039870148,2.7663679543071322,0.7691630533470046,-9.272017019433759e-05,-0.001504729843291364,-0.0007809449182822756,-0.0005027913109888883,-0.00012264299469525952,-0.00022807210239580004,0.001288327280287944,0.0,0.0,0.0,0.0,0.0,0.0,0.0,-1.9488418310231737e-06,-3.027730469118417e-09,1.6704358552638299e-06,-5.283550352785937e-07,-8.704504428899695e-06,7.120768228396912e-07,-8.138020833881043e-07,9.272017019433759e-05,0.001504729843291364,0.0007809449182822756,0.0005027913109888883,0.00012264299469525952,0.00022807210239580004,-0.001288327280287944,0.3514034152030945,22.498315811157227,0.1491362750530243,-14.179414749145508,-0.10558086633682251,-2.1517977714538574,0.27591270208358765,0
67,0.3299994468688965,-0.3752071261405945,-22.549890518188477,-0.1491362750530243,14.155611038208008,0.10558086633682251,2.1517977714538574,-0.25485557317733765,0.0,0.0,0.0,0.0,0.0,0.0,0.0,-0.3648264397854376,0.24504713359757715,-0.24698996301944756,0.2919088887536315,-0.1283800018100043,-0.03827962821364988,-0.24066757295180874,1.675501689287654,0.05210797248702262,0.02996783467342979,-2.752392578324518,0.03425250007782461,2.7663672422303094,0.7691615274680984,1.6754973547542302,0.052104326824870026,0.029969505109285054,-2.752394845125968,0.0342448039870148,2.7663679543071322,0.7691630533470046,0.0002178145844678897,0.00011282792766162632,-0.0004976845920834159,0.00040504408392381014,-9.842207822207476e-05,-5.805231242872496e-05,0.0003607153350756197,0.0,0.0,0.0,0.0,0.0,0.0,0.0,-4.334533423744347e-06,-3.64566215259321e-06,1.6704358552638299e-06,-2.2668014501014966e-06,-7.696090809812539e-06,7.120768228396912e-07,1.5258789062277955e-06,-0.0002178145844678897,-0.00011282792766162632,0.0004976845920834159,-0.00040504408392381014,9.842207822207476e-05,5.805231242872496e-05,-0.0003607153350756197,0.3752071261405945,22.549890518188477,0.1491362750530243,-14.155611038208008,-0.10558086633682251,-2.1517977714538574,0.25485557317733765,0
68,0.3350040912628174,-0.3752071261405945,-22.549890518188477,-0.1491362750530243,14.155611038208008,0.10558086633682251,2.1517977714538574,-0.25485557317733765,0.0,0.0,0.0,0.0,0.0,0.0,0.0,-0.3648264397854376,0.24504713359757715,-0.24698996301944756,0.2919088887536315,-0.1283800018100043,-0.03827962821364988,-0.24066757295180874,1.675501689287654,0.05210797248702262,0.02996783467342979,-2.752392578324518,0.03425250007782461,2.7663672422303094,0.7691615274680984,1.6754973547542302,0.052104326824870026,0.029969505109285054,-2.752394845125968,0.0342448039870148,2.7663679543071322,0.7691630533470046,0.0002178145844678897,0.00011282792766162632,-0.0004976845920834159,0.00040504408392381014,-9.842207822207476e-05,-5.805231242872496e-05,0.0003607153350756197,0.0,0.0,0.0,0.0,0.0,0.0,0.0,-4.334533423744347e-06,-3.64566215259321e-06,1.6704358552638299e-06,-2.2668014501014966e-06,-7.696090809812539e-06,7.120768228396912e-07,1.5258789062277955e-06,-0.0002178145844678897,-0.00011282792766162632,0.0004976845920834159,-0.00040504408392381014,9.842207822207476e-05,5.805231242872496e-05,-0.0003607153350756197,0.3752071261405945,22.549890518188477,0.1491362750530243,-14.155611038208008,-0.10558086633682251,-2.1517977714538574,0.25485557317733765,0
69,0.33998870849609375,-0.3236324191093445,-22.573694229125977,-0.1253325641155243,14.155611038208008,0.09367901086807251,2.1453890800476074,-0.24112264811992645,0.0,0.0,0.0,0.0,0.0,0.0,0.0,-0.3584180917100414,0.24390928122769928,-0.24196538919232483,0.29203956175433876,-0.128611636025691,-0.037719166286537056,-0.24226253735619785,1.6754973547582679,0.052109695367543,0.029966164237574526,-2.7523926463502537,0.03425010899283983,2.7663679543071322,0.7691632202383544,1.6754973547542302,0.052104326824870026,0.029969505109285054,-2.752394845125968,0.0342448039870148,2.7663679543071322,0.7691630533470046,-0.0001811150263702151,0.0006276506653231257,-0.000632439468630691,7.367011014006001e-05,0.00030070616913612674,0.00021259259966846118,-0.0005575296346554836,0.0,0.0,0.0,0.0,0.0,0.0,0.0,-4.037659095956769e-12,-5.368542672974652e-06,3.3408717105276597e-06,-2.198775714390422e-06,-5.3050058250320165e-06,0.0,-1.6689134973990605e-07,0.0001811150263702151,-0.0006276506653231257,0.000632439468630691,-7.367011014006001e-05,-0.00030070616913612674,-0.00021259259966846118,0.0005575296346554836,0.3236324191093445,22.573694229125977,0.1253325641155243,-14.155611038208008,-0.09367901086807251,-2.1453890800476074,0.24112264811992645,0
70,0.3451356887817383,-0.3236324191093445,-22.573694229125977,-0.1253325641155243,14.155611038208008,0.09367901086807251,2.1453890800476074,-0.24112264811992645,0.0,0.0,0.0,0.0,0.0,0.0,0.0,-0.3584180917100414,0.24390928122769928,-0.24196538919232483,0.29203956175433876,-0.128611636025691,-0.037719166286537056,-0.24226253735619785,1.6754973547582679,0.052109695367543,0.029966164237574526,-2.7523926463502537,0.03425010899283983,2.7663679543071322,0.7691632202383544,1.6754973547542302,0.052104326824870026,0.029969505109285054,-2.752394845125968,0.0342448039870148,2.7663679543071322,0.7691630533470046,-0.0001811150263702151,0.0006276506653231257,-0.000632439468630691,7.367011014006001e-05,0.00030070616913612674,0.00021259259966846118,-0.0005575296346554836,0.0,0.0,0.0,0.0,0.0,0.0,0.0,-4.037659095956769e-12,-5.368542672974652e-06,3.3408717105276597e-06,-2.198775714390422e-06,-5.3050058250320165e-06,0.0,-1.6689134973990605e-07,0.0001811150263702151,-0.0006276506653231257,0.000632439468630691,-7.367011014006001e-05,-0.00030070616913612674,-0.00021259259966846118,0.0005575296346554836,0.3236324191093445,22.573694229125977,0.1253325641155243,-14.155611038208008,-0.09367901086807251,-2.1453890800476074,0.24112264811992645,0
71,0.3499891757965088,-0.3236324191093445,-22.549890518188477,-0.1729399859905243,14.155611038208008,0.10558086633682251,2.1582064628601074,-0.24844686686992645,0.0,0.0,0.0,0.0,0.0,0.0,0.0,-0.3504233844092861,0.23993442065984216,-0.23862788780642144,0.291921847357139,-0.1287600710791595,-0.03684466403375607,-0.2428109762187171,1.6754973547542302,0.05210891865151636,0.029969505109285054,-2.7523923487362247,0.034253040805707395,2.766363351185263,0.7691608154077891,1.6754973547542302,0.052104326824870026,0.029969505109285054,-2.752394845125968,0.0342448039870148,2.7663679543071322,0.7691630533470046,-1.3263305867812772e-05,-0.0007418830008907846,0.0008529938484825486,-0.00031402348159088514,-0.0001809494109528671,-0.0002934439844944796,1.2884287170066946e-05,0.0,0.0,0.0,0.0,0.0,0.0,0.0,0.0,-4.591826646332953e-06,0.0,-2.496389743367189e-06,-8.236818692594627e-06,4.603121869006799e-06,2.237939215499196e-06,1.3263305867812772e-05,0.0007418830008907846,-0.0008529938484825486,0.00031402348159088514,0.0001809494109528671,0.0002934439844944796,-1.2884287170066946e-05,0.3236324191093445,22.549890518188477,0.1729399859905243,-14.155611038208008,-0.10558086633682251,-2.1582064628601074,0.24844686686992645,0
72,0.3550455570220947,-0.3236324191093445,-22.549890518188477,-0.1729399859905243,14.155611038208008,0.10558086633682251,2.1582064628601074,-0.24844686686992645,0.0,0.0,0.0,0.0,0.0,0.0,0.0,-0.3504233844092861,0.23993442065984216,-0.23862788780642144,0.291921847357139,-0.1287600710791595,-0.03684466403375607,-0.2428109762187171,1.6754973547542302,0.05210891865151636,0.029969505109285054,-2.7523923487362247,0.034253040805707395,2.766363351185263,0.7691608154077891,1.6754973547542302,0.052104326824870026,0.029969505109285054,-2.752394845125968,0.0342448039870148,2.7663679543071322,0.7691630533470046,-1.3263305867812772e-05,-0.0007418830008907846,0.0008529938484825486,-0.00031402348159088514,-0.0001809494109528671,-0.0002934439844944796,1.2884287170066946e-05,0.0,0.0,0.0,0.0,0.0,0.0,0.0,0.0,-4.591826646332953e-06,0.0,-2.496389743367189e-06,-8.236818692594627e-06,4.603121869006799e-06,2.237939215499196e-06,1.3263305867812772e-05,0.0007418830008907846,-0.0008529938484825486,0.00031402348159088514,0.0001809494109528671,0.0002934439844944796,-1.2884287170066946e-05,0.3236324191093445,22.549890518188477,0.1729399859905243,-14.155611038208008,-0.10558086633682251,-2.1582064628601074,0.24844686686992645,0
73,0.3600325584411621,-0.3236324191093445,-22.549890518188477,-0.1729399859905243,14.155611038208008,0.10558086633682251,2.1582064628601074,-0.24844686686992645,0.0,0.0,0.0,0.0,0.0,0.0,0.0,-0.3504233844092861,0.23993442065984216,-0.23862788780642144,0.291921847357139,-0.1287600710791595,-0.03684466403375607,-0.2428109762187171,1.6754973547542302,0.05210891865151636,0.029969505109285054,-2.7523923487362247,0.034253040805707395,2.766363351185263,0.7691608154077891,1.6754973547542302,0.052104326824870026,0.029969505109285054,-2.752394845125968,0.0342448039870148,2.7663679543071322,0.7691630533470046,-1.3263305867812772e-05,-0.0007418830008907846,0.0008529938484825486,-0.00031402348159088514,-0.0001809494109528671,-0.0002934439844944796,1.2884287170066946e-05,0.0,0.0,0.0,0.0,0.0,0.0,0.0,0.0,-4.591826646332953e-06,0.0,-2.496389743367189e-06,-8.236818692594627e-06,4.603121869006799e-06,2.237939215499196e-06,1.3263305867812772e-05,0.0007418830008907846,-0.0008529938484825486,0.00031402348159088514,0.0001809494109528671,0.0002934439844944796,-1.2884287170066946e-05,0.3236324191093445,22.549890518188477,0.1729399859905243,-14.155611038208008,-0.10558086633682251,-2.1582064628601074,0.24844686686992645,0
74,0.36506128311157227,-0.3236324191093445,-22.549890518188477,-0.1729399859905243,14.155611038208008,0.10558086633682251,2.1582064628601074,-0.24844686686992645,0.0,0.0,0.0,0.0,0.0,0.0,0.0,-0.3504233844092861,0.23993442065984216,-0.23862788780642144,0.291921847357139,-0.1287600710791595,-0.03684466403375607,-0.2428109762187171,1.6754973547542302,0.05210891865151636,0.029969505109285054,-2.7523923487362247,0.034253040805707395,2.766363351185263,0.7691608154077891,1.6754973547542302,0.052104326824870026,0.029969505109285054,-2.752394845125968,0.0342448039870148,2.7663679543071322,0.7691630533470046,-1.3263305867812772e-05,-0.0007418830008907846,0.0008529938484825486,-0.00031402348159088514,-0.0001809494109528671,-0.0002934439844944796,1.2884287170066946e-05,0.0,0.0,0.0,0.0,0.0,0.0,0.0,0.0,-4.591826646332953e-06,0.0,-2.496389743367189e-06,-8.236818692594627e-06,4.603121869006799e-06,2.237939215499196e-06,1.3263305867812772e-05,0.0007418830008907846,-0.0008529938484825486,0.00031402348159088514,0.0001809494109528671,0.0002934439844944796,-1.2884287170066946e-05,0.3236324191093445,22.549890518188477,0.1729399859905243,-14.155611038208008,-0.10558086633682251,-2.1582064628601074,0.24844686686992645,0
75,0.3700110912322998,-0.3514034152030945,-22.573694229125977,-0.1729399859905243,14.179414749145508,0.11198955774307251,2.1453890800476074,-0.21457235515117645,0.0,0.0,0.0,0.0,0.0,0.0,0.0,-0.3516431010779416,0.24251969322221043,-0.24279024223191528,0.2917298661316933,-0.1281026462435282,-0.036189799162061574,-0.24178138445046007,1.6754993035960613,0.052110352277410454,0.02996942618832021,-2.752394299662784,0.034248060888090695,2.7663679543011503,0.7691538726405964,1.6754973547542302,0.052104326824870026,0.029969505109285054,-2.752394845125968,0.0342448039870148,2.7663679543071322,0.7691630533470046,6.548828127491593e-06,0.0003359018429998361,0.00046839816820030885,-0.00039947914274792617,-9.938866667617781e-05,0.00024921003105516845,-0.001209488445895676,0.0,0.0,0.0,0.0,0.0,0.0,0.0,-1.9488418310231737e-06,-6.025452540428522e-06,7.892096484315991e-08,-5.45463183954098e-07,-3.256901075894547e-06,5.9818816566803434e-12,9.180706408207229e-06,-6.548828127491593e-06,-0.0003359018429998361,-0.00046839816820030885,0.00039947914274792617,9.938866667617781e-05,-0.00024921003105516845,0.001209488445895676,0.3514034152030945,22.573694229125977,0.1729399859905243,-14.179414749145508,-0.11198955774307251,-2.1453890800476074,0.21457235515117645,0
76,0.37499117851257324,-0.3514034152030945,-22.573694229125977,-0.1729399859905243,14.179414749145508,0.11198955774307251,2.1453890800476074,-0.21457235515117645,0.0,0.0,0.0,0.0,0.0,0.0,0.0,-0.3516431010779416,0.24251969322221043,-0.24279024223191528,0.2917298661316933,-0.1281026462435282,-0.036189799162061574,-0.24178138445046007,1.6754993035960613,0.052110352277410454,0.02996942618832021,-2.752394299662784,0.034248060888090695,2.7663679543011503,0.7691538726405964,1.6754973547542302,0.052104326824870026,0.029969505109285054,-2.752394845125968,0.0342448039870148,2.7663679543071322,0.7691630533470046,6.548828127491593e-06,0.0003359018429998361,0.00046839816820030885,-0.00039947914274792617,-9.938866667617781e-05,0.00024921003105516845,-0.001209488445895676,0.0,0.0,0.0,0.0,0.0,0.0,0.0,-1.9488418310231737e-06,-6.025452540428522e-06,7.892096484315991e-08,-5.45463183954098e-07,-3.256901075894547e-06,5.9818816566803434e-12,9.180706408207229e-06,-6.548828127491593e-06,-0.0003359018429998361,-0.00046839816820030885,0.00039947914274792617,9.938866667617781e-05,-0.00024921003105516845,0.001209488445895676,0.3514034152030945,22.573694229125977,0.1729399859905243,-14.179414749145508,-0.11198955774307251,-2.1453890800476074,0.21457235515117645,0
77,0.38001394271850586,-0.4029781222343445,-22.573694229125977,-0.1491362750530243,14.131807327270508,0.10008770227432251,2.1517977714538574,-0.21457235515117645,0.0,0.0,0.0,0.0,0.0,0.0,0.0,-0.3482117734967939,0.24263794707690653,-0.23966696677398405,0.29070928076440317,-0.12818521314595513,-0.0366205937401847,-0.24153943421725468,1.6755029228737477,0.052109619570289936,0.029967124384300704,-2.7523902077860583,0.03425044906624925,2.7663672421764742,0.7691570515370393,1.6754973547542302,0.052104326824870026,0.029969505109285054,-2.752394845125968,0.0342448039870148,2.7663679543071322,0.7691630533470046,0.0005122900892477558,0.000643596169359029,-0.00018062261350113089,0.0007351478150739342,0.00019370393416626508,-0.00023552293940492134,-0.0015781836711118071,0.0,0.0,0.0,0.0,0.0,0.0,0.0,-5.568119517462833e-06,-5.292745419910316e-06,2.3807249843500744e-06,-4.637339909852045e-06,-5.6450792344509004e-06,7.121306579982445e-07,6.001809965350269e-06,-0.0005122900892477558,-0.000643596169359029,0.00018062261350113089,-0.0007351478150739342,-0.00019370393416626508,0.00023552293940492134,0.0015781836711118071,0.4029781222343445,22.573694229125977,0.1491362750530243,-14.131807327270508,-0.10008770227432251,-2.1517977714538574,0.21457235515117645,0
78,0.3849945068359375,-0.4029781222343445,-22.573694229125977,-0.1491362750530243,14.131807327270508,0.10008770227432251,2.1517977714538574,-0.21457235515117645,0.0,0.0,0.0,0.0,0.0,0.0,0.0,-0.3482117734967939,0.24263794707690653,-0.23966696677398405,0.29070928076440317,-0.12818521314595513,-0.0366205937401847,-0.24153943421725468,1.6755029228737477,0.052109619570289936,0.029967124384300704,-2.7523902077860583,0.03425044906624925,2.7663672421764742,0.7691570515370393,1.6754973547542302,0.052104326824870026,0.029969505109285054,-2.752394845125968,0.0342448039870148,2.7663679543071322,0.7691630533470046,0.0005122900892477558,0.000643596169359029,-0.00018062261350113089,0.0007351478150739342,0.00019370393416626508,-0.00023552293940492134,-0.0015781836711118071,0.0,0.0,0.0,0.0,0.0,0.0,0.0,-5.568119517462833e-06,-5.292745419910316e-06,2.3807249843500744e-06,-4.637339909852045e-06,-5.6450792344509004e-06,7.121306579982445e-07,6.001809965350269e-06,-0.0005122900892477558,-0.000643596169359029,0.00018062261350113089,-0.0007351478150739342,-0.00019370393416626508,0.00023552293940492134,0.0015781836711118071,0.4029781222343445,22.573694229125977,0.1491362750530243,-14.131807327270508,-0.10008770227432251,-2.1517977714538574,0.21457235515117645,0
79,0.38999032974243164,-0.3752071261405945,-22.549890518188477,-0.2007109820842743,14.179414749145508,0.10558086633682251,2.1517977714538574,-0.26858848333358765,0.0,0.0,0.0,0.0,0.0,0.0,0.0,-0.3574720372285188,0.24268489632830542,-0.2420693759750342,0.29020576026985373,-0.1283440544162088,-0.03702529875838657,-0.24228566820698832,1.6755009740319167,0.05210866432222488,0.029971453939087386,-2.752394095688396,0.03424918506362165,2.7663661825921793,0.7691630533470043,1.6754973547542302,0.052104326824870026,0.029969505109285054,-2.752394845125968,0.0342448039870148,2.7663679543071322,0.7691630533470046,-0.0006461615335595243,-1.8033282954968475e-05,0.0004950083391607611,-0.0005348977350912591,-2.3763478999030364e-05,-0.00018821447440371932,0.0009602814689870951,0.0,0.0,0.0,0.0,0.0,0.0,0.0,-3.619277686439659e-06,-4.337497354851838e-06,-1.94882980233263e-06,-7.49437572000744e-07,-4.3810766068505536e-06,1.771714952969461e-06,3.3306690738754696e-16,0.0006461615335595243,1.8033282954968475e-05,-0.0004950083391607611,0.0005348977350912591,2.3763478999030364e-05,0.00018821447440371932,-0.0009602814689870951,0.3752071261405945,22.549890518188477,0.2007109820842743,-14.179414749145508,-0.10558086633682251,-2.1517977714538574,0.26858848333358765,0
