rezayati/contactInterpretation/dataset/franka_main/labeled_data/link1/g2_3.csv
index,time,tau_J0,tau_J1,tau_J2,tau_J3,tau_J4,tau_J5,tau_J6,tau_J_d0,tau_J_d1,tau_J_d2,tau_J_d3,tau_J_d4,tau_J_d5,tau_J_d6,tau_ext0,tau_ext1,tau_ext2,tau_ext3,tau_ext4,tau_ext5,tau_ext6,q0,q1,q2,q3,q4,q5,q6,q_d0,q_d1,q_d2,q_d3,q_d4,q_d5,q_d6,dq0,dq1,dq2,dq3,dq4,dq5,dq6,dq_d0,dq_d1,dq_d2,dq_d3,dq_d4,dq_d5,dq_d6,e0,e1,e2,e3,e4,e5,e6,de0,de1,de2,de3,de4,de5,de6,etau_J0,etau_J1,etau_J2,etau_J3,etau_J4,etau_J5,etau_J6,label
1,0.0,-0.4505855441093445,-34.03915023803711,-3.7990386486053467,19.459871292114258,0.2667136788368225,1.777347207069397,-0.06991903483867645,0.0,0.0,0.0,0.0,0.0,0.0,0.0,-0.41599611313611967,0.0717541020943939,-0.24652121687743805,0.45343577461822376,0.2066981217012027,-0.11574554047241419,-0.10248297406075439,1.0546690521365718,0.3243073786642228,-0.3925156120642977,-2.1535024076762954,0.8647472744901683,2.4659930353085624,0.5444847096439038,1.0544104758940245,0.3238615046091247,-0.39250456234122666,-2.153291787532338,0.8647539153680389,2.46587817577521,0.5445020185570556,0.0009755971188192728,0.00147285503764977,-0.0003870181252851593,0.00030694082635908317,-0.0003010250827090544,0.00047649203877689843,-0.0014015889053449017,0.0,0.0,0.0,0.0,0.0,0.0,0.0,-0.0002585762425473259,-0.0004458740550981055,1.1049723071032691e-05,0.0002106201439575628,6.640877870611739e-06,-0.00011485953335244048,1.7308913151770078e-05,-0.0009755971188192728,-0.00147285503764977,0.0003870181252851593,-0.00030694082635908317,0.0003010250827090544,-0.00047649203877689843,0.0014015889053449017,0.4505855441093445,34.03915023803711,3.7990386486053467,-19.459871292114258,-0.2667136788368225,-1.777347207069397,0.06991903483867645,0
2,0.0022363662719726562,-0.4505855441093445,-34.03915023803711,-3.7990386486053467,19.459871292114258,0.2667136788368225,1.777347207069397,-0.06991903483867645,0.0,0.0,0.0,0.0,0.0,0.0,0.0,-0.41599611313611967,0.0717541020943939,-0.24652121687743805,0.45343577461822376,0.2066981217012027,-0.11574554047241419,-0.10248297406075439,1.0546690521365718,0.3243073786642228,-0.3925156120642977,-2.1535024076762954,0.8647472744901683,2.4659930353085624,0.5444847096439038,1.0544104758940245,0.3238615046091247,-0.39250456234122666,-2.153291787532338,0.8647539153680389,2.46587817577521,0.5445020185570556,0.0009755971188192728,0.00147285503764977,-0.0003870181252851593,0.00030694082635908317,-0.0003010250827090544,0.00047649203877689843,-0.0014015889053449017,0.0,0.0,0.0,0.0,0.0,0.0,0.0,-0.0002585762425473259,-0.0004458740550981055,1.1049723071032691e-05,0.0002106201439575628,6.640877870611739e-06,-0.00011485953335244048,1.7308913151770078e-05,-0.0009755971188192728,-0.00147285503764977,0.0003870181252851593,-0.00030694082635908317,0.0003010250827090544,-0.00047649203877689843,0.0014015889053449017,0.4505855441093445,34.03915023803711,3.7990386486053467,-19.459871292114258,-0.2667136788368225,-1.777347207069397,0.06991903483867645,0
3,0.0072209835052490234,-0.4505855441093445,-34.03915023803711,-3.7990386486053467,19.459871292114258,0.2667136788368225,1.777347207069397,-0.06991903483867645,0.0,0.0,0.0,0.0,0.0,0.0,0.0,-0.41599611313611967,0.0717541020943939,-0.24652121687743805,0.45343577461822376,0.2066981217012027,-0.11574554047241419,-0.10248297406075439,1.0546690521365718,0.3243073786642228,-0.3925156120642977,-2.1535024076762954,0.8647472744901683,2.4659930353085624,0.5444847096439038,1.0544104758940245,0.3238615046091247,-0.39250456234122666,-2.153291787532338,0.8647539153680389,2.46587817577521,0.5445020185570556,0.0009755971188192728,0.00147285503764977,-0.0003870181252851593,0.00030694082635908317,-0.0003010250827090544,0.00047649203877689843,-0.0014015889053449017,0.0,0.0,0.0,0.0,0.0,0.0,0.0,-0.0002585762425473259,-0.0004458740550981055,1.1049723071032691e-05,0.0002106201439575628,6.640877870611739e-06,-0.00011485953335244048,1.7308913151770078e-05,-0.0009755971188192728,-0.00147285503764977,0.0003870181252851593,-0.00030694082635908317,0.0003010250827090544,-0.00047649203877689843,0.0014015889053449017,0.4505855441093445,34.03915023803711,3.7990386486053467,-19.459871292114258,-0.2667136788368225,-1.777347207069397,0.06991903483867645,0
4,0.012219905853271484,-0.4267818331718445,-33.99154281616211,-3.8228423595428467,19.459871292114258,0.2548118233680725,1.783755898475647,-0.13858358561992645,0.0,0.0,0.0,0.0,0.0,0.0,0.0,-0.41177941017994835,0.0660378585119324,-0.2415218470386107,0.45831111018906756,0.20633232240410823,-0.11626114526245482,-0.1025588108923658,1.0546673817007166,0.324304037788458,-0.39251370545344483,-2.1535024076762954,0.8647482437138203,2.4659923682097276,0.5444923245030138,1.0544104758940245,0.3238615046091247,-0.39250456234122666,-2.153291787532338,0.8647539153680389,2.46587817577521,0.5445020185570556,1.3079962673356795e-05,-0.00026894557099730205,0.0003223765262440096,0.00013330066093395035,0.00017692258402677452,0.00021782899784852933,0.0014657432873913876,0.0,0.0,0.0,0.0,0.0,0.0,0.0,-0.0002569058066921315,-0.00044253317933329317,9.143112218168437e-06,0.0002106201439575628,5.671654218608602e-06,-0.00011419243451760153,9.694054041831102e-06,-1.3079962673356795e-05,0.00026894557099730205,-0.0003223765262440096,-0.00013330066093395035,-0.00017692258402677452,-0.00021782899784852933,-0.0014657432873913876,0.4267818331718445,33.99154281616211,3.8228423595428467,-19.459871292114258,-0.2548118233680725,-1.783755898475647,0.13858358561992645,0
5,0.017221927642822266,-0.4267818331718445,-33.99154281616211,-3.8228423595428467,19.459871292114258,0.2548118233680725,1.783755898475647,-0.13858358561992645,0.0,0.0,0.0,0.0,0.0,0.0,0.0,-0.41177941017994835,0.0660378585119324,-0.2415218470386107,0.45831111018906756,0.20633232240410823,-0.11626114526245482,-0.1025588108923658,1.0546673817007166,0.324304037788458,-0.39251370545344483,-2.1535024076762954,0.8647482437138203,2.4659923682097276,0.5444923245030138,1.0544104758940245,0.3238615046091247,-0.39250456234122666,-2.153291787532338,0.8647539153680389,2.46587817577521,0.5445020185570556,1.3079962673356795e-05,-0.00026894557099730205,0.0003223765262440096,0.00013330066093395035,0.00017692258402677452,0.00021782899784852933,0.0014657432873913876,0.0,0.0,0.0,0.0,0.0,0.0,0.0,-0.0002569058066921315,-0.00044253317933329317,9.143112218168437e-06,0.0002106201439575628,5.671654218608602e-06,-0.00011419243451760153,9.694054041831102e-06,-1.3079962673356795e-05,0.00026894557099730205,-0.0003223765262440096,-0.00013330066093395035,-0.00017692258402677452,-0.00021782899784852933,-0.0014657432873913876,0.4267818331718445,33.99154281616211,3.8228423595428467,-19.459871292114258,-0.2548118233680725,-1.783755898475647,0.13858358561992645,0
6,0.022219419479370117,-0.4505855441093445,-33.96377182006836,-3.7990386486053467,19.459871292114258,0.2603049874305725,1.790164589881897,-0.07724325358867645,0.0,0.0,0.0,0.0,0.0,0.0,0.0,-0.4114317518846781,0.07290476805985842,-0.2407201195231955,0.4558306672270559,0.20586782604836376,-0.11705676389841707,-0.10339397217637016,1.0546690521365718,0.3243020889466269,-0.39251561209896657,-2.1535024076762954,0.8647479851194235,2.465988320343014,0.5444865687101186,1.0544104758940245,0.3238615046091247,-0.39250456234122666,-2.153291787532338,0.8647539153680389,2.46587817577521,0.5445020185570556,0.0008848119922482617,-0.0006122998510325986,-0.00040748472433922,0.00023554123024363912,6.41244190118433e-05,-2.9136768857925667e-05,-0.0012754161573646319,0.0,0.0,0.0,0.0,0.0,0.0,0.0,-0.0002585762425473259,-0.000440584337502159,1.104975773991157e-05,0.0002106201439575628,5.930248615393374e-06,-0.00011014456780422677,1.5449846937021228e-05,-0.0008848119922482617,0.0006122998510325986,0.00040748472433922,-0.00023554123024363912,-6.41244190118433e-05,2.9136768857925667e-05,0.0012754161573646319,0.4505855441093445,33.96377182006836,3.7990386486053467,-19.459871292114258,-0.2603049874305725,-1.790164589881897,0.07724325358867645,0
7,0.027227163314819336,-0.4505855441093445,-33.96377182006836,-3.7990386486053467,19.459871292114258,0.2603049874305725,1.790164589881897,-0.07724325358867645,0.0,0.0,0.0,0.0,0.0,0.0,0.0,-0.4114317518846781,0.07290476805985842,-0.2407201195231955,0.4558306672270559,0.20586782604836376,-0.11705676389841707,-0.10339397217637016,1.0546690521365718,0.3243020889466269,-0.39251561209896657,-2.1535024076762954,0.8647479851194235,2.465988320343014,0.5444865687101186,1.0544104758940245,0.3238615046091247,-0.39250456234122666,-2.153291787532338,0.8647539153680389,2.46587817577521,0.5445020185570556,0.0008848119922482617,-0.0006122998510325986,-0.00040748472433922,0.00023554123024363912,6.41244190118433e-05,-2.9136768857925667e-05,-0.0012754161573646319,0.0,0.0,0.0,0.0,0.0,0.0,0.0,-0.0002585762425473259,-0.000440584337502159,1.104975773991157e-05,0.0002106201439575628,5.930248615393374e-06,-0.00011014456780422677,1.5449846937021228e-05,-0.0008848119922482617,0.0006122998510325986,0.00040748472433922,-0.00023554123024363912,-6.41244190118433e-05,2.9136768857925667e-05,0.0012754161573646319,0.4505855441093445,33.96377182006836,3.7990386486053467,-19.459871292114258,-0.2603049874305725,-1.790164589881897,0.07724325358867645,0
8,0.032235145568847656,-0.3752071261405945,-34.01534652709961,-3.8228423595428467,19.459871292114258,0.2603049874305725,1.790164589881897,-0.12485067546367645,0.0,0.0,0.0,0.0,0.0,0.0,0.0,-0.40963592663300313,0.06868326893519312,-0.23886119239684392,0.4597441487586644,0.20618021607749235,-0.11699373766080778,-0.10395137590150447,1.0546637624230302,0.32430785399152523,-0.39251157080589255,-2.1535024076762954,0.8647476333622497,2.4659905569073306,0.5444908117119602,1.0544104758940245,0.3238615046091247,-0.39250456234122666,-2.153291787532338,0.8647539153680389,2.46587817577521,0.5445020185570556,-0.0010698108428380058,-6.262264726112505e-05,0.00043343818015182815,0.000866619761630173,-0.0001704557226602953,-3.234969782344247e-05,0.0008818925391431536,0.0,0.0,0.0,0.0,0.0,0.0,0.0,-0.0002532865290056918,-0.0004463493824005127,7.008464665891889e-06,0.0002106201439575628,6.282005789226552e-06,-0.00011238113212064249,1.12068450953684e-05,0.0010698108428380058,6.262264726112505e-05,-0.00043343818015182815,-0.000866619761630173,0.0001704557226602953,3.234969782344247e-05,-0.0008818925391431536,0.3752071261405945,34.01534652709961,3.8228423595428467,-19.459871292114258,-0.2603049874305725,-1.790164589881897,0.12485067546367645,0
9,0.03722357749938965,-0.3752071261405945,-34.01534652709961,-3.8228423595428467,19.459871292114258,0.2603049874305725,1.790164589881897,-0.12485067546367645,0.0,0.0,0.0,0.0,0.0,0.0,0.0,-0.40963592663300313,0.06868326893519312,-0.23886119239684392,0.4597441487586644,0.20618021607749235,-0.11699373766080778,-0.10395137590150447,1.0546637624230302,0.32430785399152523,-0.39251157080589255,-2.1535024076762954,0.8647476333622497,2.4659905569073306,0.5444908117119602,1.0544104758940245,0.3238615046091247,-0.39250456234122666,-2.153291787532338,0.8647539153680389,2.46587817577521,0.5445020185570556,-0.0010698108428380058,-6.262264726112505e-05,0.00043343818015182815,0.000866619761630173,-0.0001704557226602953,-3.234969782344247e-05,0.0008818925391431536,0.0,0.0,0.0,0.0,0.0,0.0,0.0,-0.0002532865290056918,-0.0004463493824005127,7.008464665891889e-06,0.0002106201439575628,6.282005789226552e-06,-0.00011238113212064249,1.12068450953684e-05,0.0010698108428380058,6.262264726112505e-05,-0.00043343818015182815,-0.000866619761630173,0.0001704557226602953,3.234969782344247e-05,-0.0008818925391431536,0.3752071261405945,34.01534652709961,3.8228423595428467,-19.459871292114258,-0.2603049874305725,-1.790164589881897,0.12485067546367645,0
10,0.04222512245178223,-0.3752071261405945,-34.01534652709961,-3.8228423595428467,19.459871292114258,0.2603049874305725,1.790164589881897,-0.12485067546367645,0.0,0.0,0.0,0.0,0.0,0.0,0.0,-0.40963592663300313,0.06868326893519312,-0.23886119239684392,0.4597441487586644,0.20618021607749235,-0.11699373766080778,-0.10395137590150447,1.0546637624230302,0.32430785399152523,-0.39251157080589255,-2.1535024076762954,0.8647476333622497,2.4659905569073306,0.5444908117119602,1.0544104758940245,0.3238615046091247,-0.39250456234122666,-2.153291787532338,0.8647539153680389,2.46587817577521,0.5445020185570556,-0.0010698108428380058,-6.262264726112505e-05,0.00043343818015182815,0.000866619761630173,-0.0001704557226602953,-3.234969782344247e-05,0.0008818925391431536,0.0,0.0,0.0,0.0,0.0,0.0,0.0,-0.0002532865290056918,-0.0004463493824005127,7.008464665891889e-06,0.0002106201439575628,6.282005789226552e-06,-0.00011238113212064249,1.12068450953684e-05,0.0010698108428380058,6.262264726112505e-05,-0.00043343818015182815,-0.000866619761630173,0.0001704557226602953,3.234969782344247e-05,-0.0008818925391431536,0.3752071261405945,34.01534652709961,3.8228423595428467,-19.459871292114258,-0.2603049874305725,-1.790164589881897,0.12485067546367645,0
11,0.0472261905670166,-0.3752071261405945,-34.01534652709961,-3.8228423595428467,19.459871292114258,0.2603049874305725,1.790164589881897,-0.12485067546367645,0.0,0.0,0.0,0.0,0.0,0.0,0.0,-0.40963592663300313,0.06868326893519312,-0.23886119239684392,0.4597441487586644,0.20618021607749235,-0.11699373766080778,-0.10395137590150447,1.0546637624230302,0.32430785399152523,-0.39251157080589255,-2.1535024076762954,0.8647476333622497,2.4659905569073306,0.5444908117119602,1.0544104758940245,0.3238615046091247,-0.39250456234122666,-2.153291787532338,0.8647539153680389,2.46587817577521,0.5445020185570556,-0.0010698108428380058,-6.262264726112505e-05,0.00043343818015182815,0.000866619761630173,-0.0001704557226602953,-3.234969782344247e-05,0.0008818925391431536,0.0,0.0,0.0,0.0,0.0,0.0,0.0,-0.0002532865290056918,-0.0004463493824005127,7.008464665891889e-06,0.0002106201439575628,6.282005789226552e-06,-0.00011238113212064249,1.12068450953684e-05,0.0010698108428380058,6.262264726112505e-05,-0.00043343818015182815,-0.000866619761630173,0.0001704557226602953,3.234969782344247e-05,-0.0008818925391431536,0.3752071261405945,34.01534652709961,3.8228423595428467,-19.459871292114258,-0.2603049874305725,-1.790164589881897,0.12485067546367645,0
12,0.05218076705932617,-0.4029781222343445,-34.03915023803711,-3.8506133556365967,19.511445999145508,0.2667136788368225,1.796573281288147,-0.13858358561992645,0.0,0.0,0.0,0.0,0.0,0.0,0.0,-0.41771900693654634,0.070385994479143,-0.24533929474447314,0.45690248500497577,0.20614353315559314,-0.11683456495110581,-0.10491220732626705,1.0546657112648612,0.32430737867228143,-0.39251199280923,-2.153506026953982,0.8647458093175029,2.4659898969556013,0.5444926907976675,1.0544104758940245,0.3238615046091247,-0.39250456234122666,-2.153291787532338,0.8647539153680389,2.46587817577521,0.5445020185570556,-9.928441743887572e-05,0.0003110582732805538,0.0004721845979342216,-0.0005188308603747649,-0.0003704078011758829,-0.00013925846042967793,0.0012721040163875116,0.0,0.0,0.0,0.0,0.0,0.0,0.0,-0.000255235370836715,-0.00044587406315671485,7.430468003333246e-06,0.00021423942164400245,8.106050536027531e-06,-0.00011172118039137757,9.327759388111367e-06,9.928441743887572e-05,-0.0003110582732805538,-0.0004721845979342216,0.0005188308603747649,0.0003704078011758829,0.00013925846042967793,-0.0012721040163875116,0.4029781222343445,34.03915023803711,3.8506133556365967,-19.511445999145508,-0.2667136788368225,-1.796573281288147,0.13858358561992645,0
13,0.05722236633300781,-0.4029781222343445,-34.03915023803711,-3.8506133556365967,19.511445999145508,0.2667136788368225,1.796573281288147,-0.13858358561992645,0.0,0.0,0.0,0.0,0.0,0.0,0.0,-0.41771900693654634,0.070385994479143,-0.24533929474447314,0.45690248500497577,0.20614353315559314,-0.11683456495110581,-0.10491220732626705,1.0546657112648612,0.32430737867228143,-0.39251199280923,-2.153506026953982,0.8647458093175029,2.4659898969556013,0.5444926907976675,1.0544104758940245,0.3238615046091247,-0.39250456234122666,-2.153291787532338,0.8647539153680389,2.46587817577521,0.5445020185570556,-9.928441743887572e-05,0.0003110582732805538,0.0004721845979342216,-0.0005188308603747649,-0.0003704078011758829,-0.00013925846042967793,0.0012721040163875116,0.0,0.0,0.0,0.0,0.0,0.0,0.0,-0.000255235370836715,-0.00044587406315671485,7.430468003333246e-06,0.00021423942164400245,8.106050536027531e-06,-0.00011172118039137757,9.327759388111367e-06,9.928441743887572e-05,-0.0003110582732805538,-0.0004721845979342216,0.0005188308603747649,0.0003704078011758829,0.00013925846042967793,-0.0012721040163875116,0.4029781222343445,34.03915023803711,3.8506133556365967,-19.511445999145508,-0.2667136788368225,-1.796573281288147,0.13858358561992645,0
14,0.0622403621673584,-0.4267818331718445,-33.96377182006836,-3.8228423595428467,19.487642288208008,0.2548118233680725,1.783755898475647,-0.08365194499492645,0.0,0.0,0.0,0.0,0.0,0.0,0.0,-0.40890098981236017,0.074104191925244,-0.2388444211160019,0.45628739771894783,0.20629993864978363,-0.11756316497867586,-0.10689831075628489,1.0546673817007166,0.3243020899277733,-0.39251393194382733,-2.1535043565181264,0.8647485925576084,2.4659923770868772,0.5444904987877484,1.0544104758940245,0.3238615046091247,-0.39250456234122666,-2.153291787532338,0.8647539153680389,2.46587817577521,0.5445020185570556,0.00046013695912872337,-0.0011552099651232208,0.0005322468521106516,9.242856980467827e-05,0.00016015881638768533,0.00020811357139491037,-0.0010836454179192212,0.0,0.0,0.0,0.0,0.0,0.0,0.0,-0.0002569058066921315,-0.00044058531864860084,9.369602600672877e-06,0.00021256898578858596,5.322810430530289e-06,-0.00011420131166728353,1.151976930724441e-05,-0.00046013695912872337,0.0011552099651232208,-0.0005322468521106516,-9.242856980467827e-05,-0.00016015881638768533,-0.00020811357139491037,0.0010836454179192212,0.4267818331718445,33.96377182006836,3.8228423595428467,-19.487642288208008,-0.2548118233680725,-1.783755898475647,0.08365194499492645,0
15,0.06722331047058105,-0.4267818331718445,-33.96377182006836,-3.8228423595428467,19.487642288208008,0.2548118233680725,1.783755898475647,-0.08365194499492645,0.0,0.0,0.0,0.0,0.0,0.0,0.0,-0.40890098981236017,0.074104191925244,-0.2388444211160019,0.45628739771894783,0.20629993864978363,-0.11756316497867586,-0.10689831075628489,1.0546673817007166,0.3243020899277733,-0.39251393194382733,-2.1535043565181264,0.8647485925576084,2.4659923770868772,0.5444904987877484,1.0544104758940245,0.3238615046091247,-0.39250456234122666,-2.153291787532338,0.8647539153680389,2.46587817577521,0.5445020185570556,0.00046013695912872337,-0.0011552099651232208,0.0005322468521106516,9.242856980467827e-05,0.00016015881638768533,0.00020811357139491037,-0.0010836454179192212,0.0,0.0,0.0,0.0,0.0,0.0,0.0,-0.0002569058066921315,-0.00044058531864860084,9.369602600672877e-06,0.00021256898578858596,5.322810430530289e-06,-0.00011420131166728353,1.151976930724441e-05,-0.00046013695912872337,0.0011552099651232208,-0.0005322468521106516,-9.242856980467827e-05,-0.00016015881638768533,-0.00020811357139491037,0.0010836454179192212,0.4267818331718445,33.96377182006836,3.8228423595428467,-19.487642288208008,-0.2548118233680725,-1.783755898475647,0.08365194499492645,0
16,0.07222914695739746,-0.4029781222343445,-34.01534652709961,-3.7752349376678467,19.459871292114258,0.2548118233680725,1.790164589881897,-0.12485067546367645,0.0,0.0,0.0,0.0,0.0,0.0,0.0,-0.4091385956450621,0.06944251005578077,-0.23771868079322578,0.45656865363822113,0.2061463004657454,-0.1176441412633487,-0.10749304953294327,1.0546657112648612,0.3243064234800561,-0.3925151566371034,-2.1535024076762954,0.8647453002207123,2.4659884855632757,0.5444907986481737,1.0544104758940245,0.3238615046091247,-0.39250456234122666,-2.153291787532338,0.8647539153680389,2.46587817577521,0.5445020185570556,-3.3462043313813016e-06,0.00017799752742259897,-0.00032458255366660103,4.976018592235367e-05,0.00020067660020981577,-1.537712335160378e-05,0.0005446326215200592,0.0,0.0,0.0,0.0,0.0,0.0,0.0,-0.000255235370836715,-0.0004449188709313989,1.0594295876742432e-05,0.0002106201439575628,8.615147326640482e-06,-0.00011030978806569891,1.1219908881865415e-05,3.3462043313813016e-06,-0.00017799752742259897,0.00032458255366660103,-4.976018592235367e-05,-0.00020067660020981577,1.537712335160378e-05,-0.0005446326215200592,0.4029781222343445,34.01534652709961,3.7752349376678467,-19.459871292114258,-0.2548118233680725,-1.790164589881897,0.12485067546367645,0
17,0.07723402976989746,-0.4029781222343445,-34.01534652709961,-3.7752349376678467,19.459871292114258,0.2548118233680725,1.790164589881897,-0.12485067546367645,0.0,0.0,0.0,0.0,0.0,0.0,0.0,-0.4091385956450621,0.06944251005578077,-0.23771868079322578,0.45656865363822113,0.2061463004657454,-0.1176441412633487,-0.10749304953294327,1.0546657112648612,0.3243064234800561,-0.3925151566371034,-2.1535024076762954,0.8647453002207123,2.4659884855632757,0.5444907986481737,1.0544104758940245,0.3238615046091247,-0.39250456234122666,-2.153291787532338,0.8647539153680389,2.46587817577521,0.5445020185570556,-3.3462043313813016e-06,0.00017799752742259897,-0.00032458255366660103,4.976018592235367e-05,0.00020067660020981577,-1.537712335160378e-05,0.0005446326215200592,0.0,0.0,0.0,0.0,0.0,0.0,0.0,-0.000255235370836715,-0.0004449188709313989,1.0594295876742432e-05,0.0002106201439575628,8.615147326640482e-06,-0.00011030978806569891,1.1219908881865415e-05,3.3462043313813016e-06,-0.00017799752742259897,0.00032458255366660103,-4.976018592235367e-05,-0.00020067660020981577,1.537712335160378e-05,-0.0005446326215200592,0.4029781222343445,34.01534652709961,3.7752349376678467,-19.459871292114258,-0.2548118233680725,-1.790164589881897,0.12485067546367645,0
18,0.0822293758392334,-0.4267818331718445,-33.96377182006836,-3.8228423595428467,19.487642288208008,0.2667136788368225,1.790164589881897,-0.08365194499492645,0.0,0.0,0.0,0.0,0.0,0.0,0.0,-0.4174631025872249,0.06518856114413793,-0.24417943392037353,0.45846228571239694,0.20624589580628921,-0.11616203885062526,-0.10748202443484059,1.0546673817007166,0.32430216842352416,-0.3925139416524439,-2.1535043565181264,0.8647472308730274,2.465987430752366,0.5444862734766213,1.0544104758940245,0.3238615046091247,-0.39250456234122666,-2.153291787532338,0.8647539153680389,2.46587817577521,0.5445020185570556,0.000335302001560001,-0.000929927258360008,0.00039316542852972533,2.080504091099605e-05,-0.00024908372740406205,-0.00013349898295935675,-0.0007922973476858312,0.0,0.0,0.0,0.0,0.0,0.0,0.0,-0.0002569058066921315,-0.0004406638143994446,9.379311217250219e-06,0.00021256898578858596,6.684495011510805e-06,-0.00010925497715597032,1.574508043433731e-05,-0.000335302001560001,0.000929927258360008,-0.00039316542852972533,-2.080504091099605e-05,0.00024908372740406205,0.00013349898295935675,0.0007922973476858312,0.4267818331718445,33.96377182006836,3.8228423595428467,-19.487642288208008,-0.2667136788368225,-1.790164589881897,0.08365194499492645,0
19,0.08722591400146484,-0.4267818331718445,-33.96377182006836,-3.8228423595428467,19.487642288208008,0.2667136788368225,1.790164589881897,-0.08365194499492645,0.0,0.0,0.0,0.0,0.0,0.0,0.0,-0.4174631025872249,0.06518856114413793,-0.24417943392037353,0.45846228571239694,0.20624589580628921,-0.11616203885062526,-0.10748202443484059,1.0546673817007166,0.32430216842352416,-0.3925139416524439,-2.1535043565181264,0.8647472308730274,2.465987430752366,0.5444862734766213,1.0544104758940245,0.3238615046091247,-0.39250456234122666,-2.153291787532338,0.8647539153680389,2.46587817577521,0.5445020185570556,0.000335302001560001,-0.000929927258360008,0.00039316542852972533,2.080504091099605e-05,-0.00024908372740406205,-0.00013349898295935675,-0.0007922973476858312,0.0,0.0,0.0,0.0,0.0,0.0,0.0,-0.0002569058066921315,-0.0004406638143994446,9.379311217250219e-06,0.00021256898578858596,6.684495011510805e-06,-0.00010925497715597032,1.574508043433731e-05,-0.000335302001560001,0.000929927258360008,-0.00039316542852972533,-2.080504091099605e-05,0.00024908372740406205,0.00013349898295935675,0.0007922973476858312,0.4267818331718445,33.96377182006836,3.8228423595428467,-19.487642288208008,-0.2667136788368225,-1.790164589881897,0.08365194499492645,0
20,0.0921926498413086,-0.3752071261405945,-33.99154281616211,-3.7752349376678467,19.487642288208008,0.2667136788368225,1.777347207069397,-0.11111776530742645,0.0,0.0,0.0,0.0,0.0,0.0,0.0,-0.41140221573484875,0.06364001459681931,-0.23715194415283633,0.4597762088541614,0.2061285059686205,-0.11700529562031625,-0.10704893419284783,1.0546637624230302,0.3243040378979229,-0.39251515663715825,-2.153504357535611,0.8647468035476188,2.4659930935064094,0.5444896260119604,1.0544104758940245,0.3238615046091247,-0.39250456234122666,-2.153291787532338,0.8647539153680389,2.46587817577521,0.5445020185570556,-0.0011339864096012206,-0.0003896189019844322,-0.00032310697818873626,9.655506753963442e-05,-0.00013698815555121934,0.00013156477951623078,0.0002756614313101774,0.0,0.0,0.0,0.0,0.0,0.0,0.0,-0.0002532865290056918,-0.0004425332887981748,1.059429593158745e-05,0.00021257000327334907,7.111820420124815e-06,-0.0001149177311994265,1.2392545095218921e-05,0.0011339864096012206,0.0003896189019844322,0.00032310697818873626,-9.655506753963442e-05,0.00013698815555121934,-0.00013156477951623078,-0.0002756614313101774,0.3752071261405945,33.99154281616211,3.7752349376678467,-19.487642288208008,-0.2667136788368225,-1.777347207069397,0.11111776530742645,0
21,0.09718060493469238,-0.3752071261405945,-33.99154281616211,-3.7752349376678467,19.487642288208008,0.2667136788368225,1.777347207069397,-0.11111776530742645,0.0,0.0,0.0,0.0,0.0,0.0,0.0,-0.41140221573484875,0.06364001459681931,-0.23715194415283633,0.4597762088541614,0.2061285059686205,-0.11700529562031625,-0.10704893419284783,1.0546637624230302,0.3243040378979229,-0.39251515663715825,-2.153504357535611,0.8647468035476188,2.4659930935064094,0.5444896260119604,1.0544104758940245,0.3238615046091247,-0.39250456234122666,-2.153291787532338,0.8647539153680389,2.46587817577521,0.5445020185570556,-0.0011339864096012206,-0.0003896189019844322,-0.00032310697818873626,9.655506753963442e-05,-0.00013698815555121934,0.00013156477951623078,0.0002756614313101774,0.0,0.0,0.0,0.0,0.0,0.0,0.0,-0.0002532865290056918,-0.0004425332887981748,1.059429593158745e-05,0.00021257000327334907,7.111820420124815e-06,-0.0001149177311994265,1.2392545095218921e-05,0.0011339864096012206,0.0003896189019844322,0.00032310697818873626,-9.655506753963442e-05,0.00013698815555121934,-0.00013156477951623078,-0.0002756614313101774,0.3752071261405945,33.99154281616211,3.7752349376678467,-19.487642288208008,-0.2667136788368225,-1.777347207069397,0.11111776530742645,0
22,0.1021721363067627,-0.4029781222343445,-34.03915023803711,-3.7990386486053467,19.487642288208008,0.2548118233680725,1.790164589881897,-0.12485067546367645,0.0,0.0,0.0,0.0,0.0,0.0,0.0,-0.4181728706907543,0.06340620614243445,-0.23865884789857947,0.4610418539695302,0.20660532326659564,-0.11700216061149607,-0.10690616877982324,1.0546657112648612,0.3243073787691854,-0.3925156120882992,-2.1535043565181318,0.8647485969238716,2.465991316163981,0.544491858802501,1.0544104758940245,0.3238615046091247,-0.39250456234122666,-2.153291787532338,0.8647539153680389,2.46587817577521,0.5445020185570556,-0.0006405249936188845,0.0005674893113241758,6.046167426657547e-05,0.00012692678938532536,0.00017808628532867395,3.534273262584223e-05,0.0014363119570370956,0.0,0.0,0.0,0.0,0.0,0.0,0.0,-0.000255235370836715,-0.0004458741600606997,1.1049747072555682e-05,0.00021256898579391503,5.318444167290437e-06,-0.00011314038877108246,1.0159754554650569e-05,0.0006405249936188845,-0.0005674893113241758,-6.046167426657547e-05,-0.00012692678938532536,-0.00017808628532867395,-3.534273262584223e-05,-0.0014363119570370956,0.4029781222343445,34.03915023803711,3.7990386486053467,-19.487642288208008,-0.2548118233680725,-1.790164589881897,0.12485067546367645,0
23,0.10725736618041992,-0.4029781222343445,-34.03915023803711,-3.7990386486053467,19.487642288208008,0.2548118233680725,1.790164589881897,-0.12485067546367645,0.0,0.0,0.0,0.0,0.0,0.0,0.0,-0.4181728706907543,0.06340620614243445,-0.23865884789857947,0.4610418539695302,0.20660532326659564,-0.11700216061149607,-0.10690616877982324,1.0546657112648612,0.3243073787691854,-0.3925156120882992,-2.1535043565181318,0.8647485969238716,2.465991316163981,0.544491858802501,1.0544104758940245,0.3238615046091247,-0.39250456234122666,-2.153291787532338,0.8647539153680389,2.46587817577521,0.5445020185570556,-0.0006405249936188845,0.0005674893113241758,6.046167426657547e-05,0.00012692678938532536,0.00017808628532867395,3.534273262584223e-05,0.0014363119570370956,0.0,0.0,0.0,0.0,0.0,0.0,0.0,-0.000255235370836715,-0.0004458741600606997,1.1049747072555682e-05,0.00021256898579391503,5.318444167290437e-06,-0.00011314038877108246,1.0159754554650569e-05,0.0006405249936188845,-0.0005674893113241758,-6.046167426657547e-05,-0.00012692678938532536,-0.00017808628532867395,-3.534273262584223e-05,-0.0014363119570370956,0.4029781222343445,34.03915023803711,3.7990386486053467,-19.487642288208008,-0.2548118233680725,-1.790164589881897,0.12485067546367645,0
24,0.1121816635131836,-0.3752071261405945,-34.03915023803711,-3.7990386486053467,19.511445999145508,0.2603049874305725,1.790164589881897,-0.06351034343242645,0.0,0.0,0.0,0.0,0.0,0.0,0.0,-0.4223289312447593,0.07150112792750904,-0.23946310611530203,0.45688872830810784,0.20658105979586258,-0.11682295672419425,-0.10513075412717919,1.0546637624230302,0.3243095244273811,-0.3925149033592941,-2.153506026953982,0.8647479865749677,2.465988473017706,0.5444839831990678,1.0544104758940245,0.3238615046091247,-0.39250456234122666,-2.153291787532338,0.8647539153680389,2.46587817577521,0.5445020185570556,-0.0011610406417362832,0.0008635313352631399,-0.0006914238491966273,-0.000581030940532495,0.00011469242192224189,-0.00010687302867339098,-0.001680442612639567,0.0,0.0,0.0,0.0,0.0,0.0,0.0,-0.0002532865290056918,-0.00044801981825637327,1.0341018067461238e-05,0.00021423942164400245,5.928793071263705e-06,-0.00011029724249622674,1.80353579878334e-05,0.0011610406417362832,-0.0008635313352631399,0.0006914238491966273,0.000581030940532495,-0.00011469242192224189,0.00010687302867339098,0.001680442612639567,0.3752071261405945,34.03915023803711,3.7990386486053467,-19.511445999145508,-0.2603049874305725,-1.790164589881897,0.06351034343242645,0
25,0.11721992492675781,-0.3752071261405945,-34.03915023803711,-3.7990386486053467,19.511445999145508,0.2603049874305725,1.790164589881897,-0.06351034343242645,0.0,0.0,0.0,0.0,0.0,0.0,0.0,-0.4223289312447593,0.07150112792750904,-0.23946310611530203,0.45688872830810784,0.20658105979586258,-0.11682295672419425,-0.10513075412717919,1.0546637624230302,0.3243095244273811,-0.3925149033592941,-2.153506026953982,0.8647479865749677,2.465988473017706,0.5444839831990678,1.0544104758940245,0.3238615046091247,-0.39250456234122666,-2.153291787532338,0.8647539153680389,2.46587817577521,0.5445020185570556,-0.0011610406417362832,0.0008635313352631399,-0.0006914238491966273,-0.000581030940532495,0.00011469242192224189,-0.00010687302867339098,-0.001680442612639567,0.0,0.0,0.0,0.0,0.0,0.0,0.0,-0.0002532865290056918,-0.00044801981825637327,1.0341018067461238e-05,0.00021423942164400245,5.928793071263705e-06,-0.00011029724249622674,1.80353579878334e-05,0.0011610406417362832,-0.0008635313352631399,0.0006914238491966273,0.000581030940532495,-0.00011469242192224189,0.00010687302867339098,0.001680442612639567,0.3752071261405945,34.03915023803711,3.7990386486053467,-19.511445999145508,-0.2603049874305725,-1.790164589881897,0.06351034343242645,0
26,0.12224173545837402,-0.3752071261405945,-33.99154281616211,-3.7990386486053467,19.487642288208008,0.2548118233680725,1.790164589881897,-0.11111776530742645,0.0,0.0,0.0,0.0,0.0,0.0,0.0,-0.41488305915378426,0.06587196150997744,-0.23665353349677917,0.46169458272300146,0.2065446424167979,-0.1168337607373661,-0.10314145431444807,1.0546637624230302,0.3243040378005709,-0.39251553335929923,-2.1535050982648167,0.8647485925658794,2.465988488452357,0.5444893120448119,1.0544104758940245,0.3238615046091247,-0.39250456234122666,-2.153291787532338,0.8647539153680389,2.46587817577521,0.5445020185570556,-0.001110147196455694,-0.0007412965124213641,-0.0003542317949313694,-0.0001540541651776294,1.5584966279434588e-05,-2.8320262807361133e-05,0.0002363317491419649,0.0,0.0,0.0,0.0,0.0,0.0,0.0,-0.0002532865290056918,-0.00044253319144615944,1.0971018072569727e-05,0.00021331073247887744,5.322802159479778e-06,-0.00011031267714711745,1.270651224372088e-05,0.001110147196455694,0.0007412965124213641,0.0003542317949313694,0.0001540541651776294,-1.5584966279434588e-05,2.8320262807361133e-05,-0.0002363317491419649,0.3752071261405945,33.99154281616211,3.7990386486053467,-19.487642288208008,-0.2548118233680725,-1.790164589881897,0.11111776530742645,0
27,0.12722444534301758,-0.3752071261405945,-33.99154281616211,-3.7990386486053467,19.487642288208008,0.2548118233680725,1.790164589881897,-0.11111776530742645,0.0,0.0,0.0,0.0,0.0,0.0,0.0,-0.41488305915378426,0.06587196150997744,-0.23665353349677917,0.46169458272300146,0.2065446424167979,-0.1168337607373661,-0.10314145431444807,1.0546637624230302,0.3243040378005709,-0.39251553335929923,-2.1535050982648167,0.8647485925658794,2.465988488452357,0.5444893120448119,1.0544104758940245,0.3238615046091247,-0.39250456234122666,-2.153291787532338,0.8647539153680389,2.46587817577521,0.5445020185570556,-0.001110147196455694,-0.0007412965124213641,-0.0003542317949313694,-0.0001540541651776294,1.5584966279434588e-05,-2.8320262807361133e-05,0.0002363317491419649,0.0,0.0,0.0,0.0,0.0,0.0,0.0,-0.0002532865290056918,-0.00044253319144615944,1.0971018072569727e-05,0.00021331073247887744,5.322802159479778e-06,-0.00011031267714711745,1.270651224372088e-05,0.001110147196455694,0.0007412965124213641,0.0003542317949313694,0.0001540541651776294,-1.5584966279434588e-05,2.8320262807361133e-05,-0.0002363317491419649,0.3752071261405945,33.99154281616211,3.7990386486053467,-19.487642288208008,-0.2548118233680725,-1.790164589881897,0.11111776530742645,0
28,0.13262081146240234,-0.4505855441093445,-33.99154281616211,-3.7752349376678467,19.487642288208008,0.2548118233680725,1.777347207069397,-0.09097616374492645,0.0,0.0,0.0,0.0,0.0,0.0,0.0,-0.41316526733420345,0.07936898789288532,-0.2361443000549995,0.45297168325231735,0.20614616557509888,-0.11872326998554475,-0.10386454555296573,1.0546690521365718,0.32430427620703717,-0.3925172824277039,-2.1535043565223133,0.8647475329277254,2.4659929711988187,0.5444873880023215,1.0544104758940245,0.3238615046091247,-0.39250456234122666,-2.153291787532338,0.8647539153680389,2.46587817577521,0.5445020185570556,0.0007116902948898469,0.0001576606051305844,-0.000841995946547179,-0.00044428664504743507,0.00020595982478536349,0.0003914159367978977,-0.0002624418424146386,0.0,0.0,0.0,0.0,0.0,0.0,0.0,-0.0002585762425473259,-0.00044277159791245024,1.2720086477235881e-05,0.00021256898997545903,6.382440313479343e-06,-0.00011479542360870454,1.4630554734051948e-05,-0.0007116902948898469,-0.0001576606051305844,0.000841995946547179,0.00044428664504743507,-0.00020595982478536349,-0.0003914159367978977,0.0002624418424146386,0.4505855441093445,33.99154281616211,3.7752349376678467,-19.487642288208008,-0.2548118233680725,-1.777347207069397,0.09097616374492645,0
29,0.1372230052947998,-0.4505855441093445,-33.99154281616211,-3.7752349376678467,19.487642288208008,0.2548118233680725,1.777347207069397,-0.09097616374492645,0.0,0.0,0.0,0.0,0.0,0.0,0.0,-0.41316526733420345,0.07936898789288532,-0.2361443000549995,0.45297168325231735,0.20614616557509888,-0.11872326998554475,-0.10386454555296573,1.0546690521365718,0.32430427620703717,-0.3925172824277039,-2.1535043565223133,0.8647475329277254,2.4659929711988187,0.5444873880023215,1.0544104758940245,0.3238615046091247,-0.39250456234122666,-2.153291787532338,0.8647539153680389,2.46587817577521,0.5445020185570556,0.0007116902948898469,0.0001576606051305844,-0.000841995946547179,-0.00044428664504743507,0.00020595982478536349,0.0003914159367978977,-0.0002624418424146386,0.0,0.0,0.0,0.0,0.0,0.0,0.0,-0.0002585762425473259,-0.00044277159791245024,1.2720086477235881e-05,0.00021256898997545903,6.382440313479343e-06,-0.00011479542360870454,1.4630554734051948e-05,-0.0007116902948898469,-0.0001576606051305844,0.000841995946547179,0.00044428664504743507,-0.00020595982478536349,-0.0003914159367978977,0.0002624418424146386,0.4505855441093445,33.99154281616211,3.7752349376678467,-19.487642288208008,-0.2548118233680725,-1.777347207069397,0.09097616374492645,0
30,0.1425459384918213,-0.3752071261405945,-33.99154281616211,-3.7990386486053467,19.487642288208008,0.2548118233680725,1.790164589881897,-0.06991903483867645,0.0,0.0,0.0,0.0,0.0,0.0,0.0,-0.4149375876535235,0.07033131601814288,-0.2386773977739469,0.4607935355979606,0.20603341067524994,-0.11777593881046156,-0.10490567104076216,1.0546637624230302,0.3243040377898039,-0.3925156121002994,-2.1535043565181264,0.8647485969205239,2.465991630130144,0.5444850483231041,1.0544104758940245,0.3238615046091247,-0.39250456234122666,-2.153291787532338,0.8647539153680389,2.46587817577521,0.5445020185570556,-0.0007690165165882515,-3.968349959981959e-05,-0.0004208910513733817,-0.0004256410617887207,0.00010638036466573899,-8.828957872605091e-05,-0.0012172385228398153,0.0,0.0,0.0,0.0,0.0,0.0,0.0,-0.0002532865290056918,-0.00044253318067916103,1.1049759072734311e-05,0.00021256898578858596,5.3184475150569455e-06,-0.00011345435493392841,1.6970233951529856e-05,0.0007690165165882515,3.968349959981959e-05,0.0004208910513733817,0.0004256410617887207,-0.00010638036466573899,8.828957872605091e-05,0.0012172385228398153,0.3752071261405945,33.99154281616211,3.7990386486053467,-19.487642288208008,-0.2548118233680725,-1.790164589881897,0.06991903483867645,0
31,0.14722204208374023,-0.3752071261405945,-33.99154281616211,-3.7990386486053467,19.487642288208008,0.2548118233680725,1.790164589881897,-0.06991903483867645,0.0,0.0,0.0,0.0,0.0,0.0,0.0,-0.4149375876535235,0.07033131601814288,-0.2386773977739469,0.4607935355979606,0.20603341067524994,-0.11777593881046156,-0.10490567104076216,1.0546637624230302,0.3243040377898039,-0.3925156121002994,-2.1535043565181264,0.8647485969205239,2.465991630130144,0.5444850483231041,1.0544104758940245,0.3238615046091247,-0.39250456234122666,-2.153291787532338,0.8647539153680389,2.46587817577521,0.5445020185570556,-0.0007690165165882515,-3.968349959981959e-05,-0.0004208910513733817,-0.0004256410617887207,0.00010638036466573899,-8.828957872605091e-05,-0.0012172385228398153,0.0,0.0,0.0,0.0,0.0,0.0,0.0,-0.0002532865290056918,-0.00044253318067916103,1.1049759072734311e-05,0.00021256898578858596,5.3184475150569455e-06,-0.00011345435493392841,1.6970233951529856e-05,0.0007690165165882515,3.968349959981959e-05,0.0004208910513733817,0.0004256410617887207,-0.00010638036466573899,8.828957872605091e-05,0.0012172385228398153,0.3752071261405945,33.99154281616211,3.7990386486053467,-19.487642288208008,-0.2548118233680725,-1.790164589881897,0.06991903483867645,0
32,0.1522216796875,-0.3752071261405945,-33.99154281616211,-3.7990386486053467,19.487642288208008,0.2548118233680725,1.790164589881897,-0.06991903483867645,0.0,0.0,0.0,0.0,0.0,0.0,0.0,-0.4149375876535235,0.07033131601814288,-0.2386773977739469,0.4607935355979606,0.20603341067524994,-0.11777593881046156,-0.10490567104076216,1.0546637624230302,0.3243040377898039,-0.3925156121002994,-2.1535043565181264,0.8647485969205239,2.465991630130144,0.5444850483231041,1.0544104758940245,0.3238615046091247,-0.39250456234122666,-2.153291787532338,0.8647539153680389,2.46587817577521,0.5445020185570556,-0.0007690165165882515,-3.968349959981959e-05,-0.0004208910513733817,-0.0004256410617887207,0.00010638036466573899,-8.828957872605091e-05,-0.0012172385228398153,0.0,0.0,0.0,0.0,0.0,0.0,0.0,-0.0002532865290056918,-0.00044253318067916103,1.1049759072734311e-05,0.00021256898578858596,5.3184475150569455e-06,-0.00011345435493392841,1.6970233951529856e-05,0.0007690165165882515,3.968349959981959e-05,0.0004208910513733817,0.0004256410617887207,-0.00010638036466573899,8.828957872605091e-05,0.0012172385228398153,0.3752071261405945,33.99154281616211,3.7990386486053467,-19.487642288208008,-0.2548118233680725,-1.790164589881897,0.06991903483867645,0
33,0.15722322463989258,-0.3752071261405945,-33.99154281616211,-3.7990386486053467,19.487642288208008,0.2548118233680725,1.790164589881897,-0.06991903483867645,0.0,0.0,0.0,0.0,0.0,0.0,0.0,-0.4149375876535235,0.07033131601814288,-0.2386773977739469,0.4607935355979606,0.20603341067524994,-0.11777593881046156,-0.10490567104076216,1.0546637624230302,0.3243040377898039,-0.3925156121002994,-2.1535043565181264,0.8647485969205239,2.465991630130144,0.5444850483231041,1.0544104758940245,0.3238615046091247,-0.39250456234122666,-2.153291787532338,0.8647539153680389,2.46587817577521,0.5445020185570556,-0.0007690165165882515,-3.968349959981959e-05,-0.0004208910513733817,-0.0004256410617887207,0.00010638036466573899,-8.828957872605091e-05,-0.0012172385228398153,0.0,0.0,0.0,0.0,0.0,0.0,0.0,-0.0002532865290056918,-0.00044253318067916103,1.1049759072734311e-05,0.00021256898578858596,5.3184475150569455e-06,-0.00011345435493392841,1.6970233951529856e-05,0.0007690165165882515,3.968349959981959e-05,0.0004208910513733817,0.0004256410617887207,-0.00010638036466573899,8.828957872605091e-05,0.0012172385228398153,0.3752071261405945,33.99154281616211,3.7990386486053467,-19.487642288208008,-0.2548118233680725,-1.790164589881897,0.06991903483867645,0
34,0.16265344619750977,-0.3752071261405945,-33.99154281616211,-3.7990386486053467,19.487642288208008,0.2603049874305725,1.770938515663147,-0.09738485515117645,0.0,0.0,0.0,0.0,0.0,0.0,0.0,-0.41952208454548323,0.06427514222277982,-0.24744479411235382,0.46232673075677966,0.20652058315674224,-0.11675154250193565,-0.10597427233371408,1.0546637624230302,0.324304037788458,-0.3925156120642977,-2.1535043565181264,0.8647468876909816,2.4659927459689563,0.5444888065050069,1.0544104758940245,0.3238615046091247,-0.39250456234122666,-2.153291787532338,0.8647539153680389,2.46587817577521,0.5445020185570556,-0.0007844402721835542,-0.0008204850471516278,-0.00048431059507752757,-0.00016124621572515444,-3.66164616732619e-05,0.0006886649720898709,-0.0008820967880890311,0.0,0.0,0.0,0.0,0.0,0.0,0.0,-0.0002532865290056918,-0.00044253317933329317,1.1049723071032691e-05,0.00021256898578858596,7.027677057291903e-06,-0.00011457019374638833,1.3212052048738876e-05,0.0007844402721835542,0.0008204850471516278,0.00048431059507752757,0.00016124621572515444,3.66164616732619e-05,-0.0006886649720898709,0.0008820967880890311,0.3752071261405945,33.99154281616211,3.7990386486053467,-19.487642288208008,-0.2603049874305725,-1.770938515663147,0.09738485515117645,0
35,0.16721892356872559,-0.3752071261405945,-33.99154281616211,-3.7990386486053467,19.487642288208008,0.2603049874305725,1.770938515663147,-0.09738485515117645,0.0,0.0,0.0,0.0,0.0,0.0,0.0,-0.41952208454548323,0.06427514222277982,-0.24744479411235382,0.46232673075677966,0.20652058315674224,-0.11675154250193565,-0.10597427233371408,1.0546637624230302,0.324304037788458,-0.3925156120642977,-2.1535043565181264,0.8647468876909816,2.4659927459689563,0.5444888065050069,1.0544104758940245,0.3238615046091247,-0.39250456234122666,-2.153291787532338,0.8647539153680389,2.46587817577521,0.5445020185570556,-0.0007844402721835542,-0.0008204850471516278,-0.00048431059507752757,-0.00016124621572515444,-3.66164616732619e-05,0.0006886649720898709,-0.0008820967880890311,0.0,0.0,0.0,0.0,0.0,0.0,0.0,-0.0002532865290056918,-0.00044253317933329317,1.1049723071032691e-05,0.00021256898578858596,7.027677057291903e-06,-0.00011457019374638833,1.3212052048738876e-05,0.0007844402721835542,0.0008204850471516278,0.00048431059507752757,0.00016124621572515444,3.66164616732619e-05,-0.0006886649720898709,0.0008820967880890311,0.3752071261405945,33.99154281616211,3.7990386486053467,-19.487642288208008,-0.2603049874305725,-1.770938515663147,0.09738485515117645,0
36,0.17221617698669434,-0.4029781222343445,-33.99154281616211,-3.8506133556365967,19.487642288208008,0.2603049874305725,1.783755898475647,-0.09738485515117645,0.0,0.0,0.0,0.0,0.0,0.0,0.0,-0.4184455296375159,0.0692983476794566,-0.24736429685881647,0.46008108579187823,0.2065244365789536,-0.11714499002957349,-0.10766764794069922,1.0546657112648612,0.32430621004662313,-0.39251199282261334,-2.1535043565181264,0.8647479821542785,2.465989187997642,0.5444877468721946,1.0544104758940245,0.3238615046091247,-0.39250456234122666,-2.153291787532338,0.8647539153680389,2.46587817577521,0.5445020185570556,0.00018859716013576455,-0.000555242891833791,0.00043464337909167105,-7.583984789098651e-05,0.00015018371895224162,0.00022700688227312896,-0.0003075152170474126,0.0,0.0,0.0,0.0,0.0,0.0,0.0,-0.000255235370836715,-0.00044470543749841607,7.43048138668323e-06,0.00021256898578858596,5.933213760411782e-06,-0.00011101222243192765,1.427168486101138e-05,-0.00018859716013576455,0.000555242891833791,-0.00043464337909167105,7.583984789098651e-05,-0.00015018371895224162,-0.00022700688227312896,0.0003075152170474126,0.4029781222343445,33.99154281616211,3.8506133556365967,-19.487642288208008,-0.2603049874305725,-1.783755898475647,0.09738485515117645,0
37,0.17726588249206543,-0.4029781222343445,-33.99154281616211,-3.8506133556365967,19.487642288208008,0.2603049874305725,1.783755898475647,-0.09738485515117645,0.0,0.0,0.0,0.0,0.0,0.0,0.0,-0.4184455296375159,0.0692983476794566,-0.24736429685881647,0.46008108579187823,0.2065244365789536,-0.11714499002957349,-0.10766764794069922,1.0546657112648612,0.32430621004662313,-0.39251199282261334,-2.1535043565181264,0.8647479821542785,2.465989187997642,0.5444877468721946,1.0544104758940245,0.3238615046091247,-0.39250456234122666,-2.153291787532338,0.8647539153680389,2.46587817577521,0.5445020185570556,0.00018859716013576455,-0.000555242891833791,0.00043464337909167105,-7.583984789098651e-05,0.00015018371895224162,0.00022700688227312896,-0.0003075152170474126,0.0,0.0,0.0,0.0,0.0,0.0,0.0,-0.000255235370836715,-0.00044470543749841607,7.43048138668323e-06,0.00021256898578858596,5.933213760411782e-06,-0.00011101222243192765,1.427168486101138e-05,-0.00018859716013576455,0.000555242891833791,-0.00043464337909167105,7.583984789098651e-05,-0.00015018371895224162,-0.00022700688227312896,0.0003075152170474126,0.4029781222343445,33.99154281616211,3.8506133556365967,-19.487642288208008,-0.2603049874305725,-1.783755898475647,0.09738485515117645,0
38,0.1822664737701416,-0.4029781222343445,-33.96377182006836,-3.8506133556365967,19.511445999145508,0.2667136788368225,1.777347207069397,-0.11111776530742645,0.0,0.0,0.0,0.0,0.0,0.0,0.0,-0.4031873711813423,0.07295443751786197,-0.2374088618357137,0.4602249201575364,0.20621136057243197,-0.11814019532035609,-0.10791374037127198,1.0546657112648612,0.3243020889588893,-0.392511984074058,-2.153506026953982,0.8647462148599905,2.4659930935123096,0.5444892727451192,1.0544104758940245,0.3238615046091247,-0.39250456234122666,-2.153291787532338,0.8647539153680389,2.46587817577521,0.5445020185570556,0.00023587876507587846,-0.0011143334189513915,0.001283722868304341,-0.0004878715403227067,-7.321035287984917e-05,0.00031936429919930876,0.0002715670585864508,0.0,0.0,0.0,0.0,0.0,0.0,0.0,-0.000255235370836715,-0.0004405843497645723,7.421732831358607e-06,0.00021423942164400245,7.700508048436028e-06,-0.00011491773709959574,1.2745811936443197e-05,-0.00023587876507587846,0.0011143334189513915,-0.001283722868304341,0.0004878715403227067,7.321035287984917e-05,-0.00031936429919930876,-0.0002715670585864508,0.4029781222343445,33.96377182006836,3.8506133556365967,-19.511445999145508,-0.2667136788368225,-1.777347207069397,0.11111776530742645,0
39,0.18726778030395508,-0.4029781222343445,-33.96377182006836,-3.8506133556365967,19.511445999145508,0.2667136788368225,1.777347207069397,-0.11111776530742645,0.0,0.0,0.0,0.0,0.0,0.0,0.0,-0.4031873711813423,0.07295443751786197,-0.2374088618357137,0.4602249201575364,0.20621136057243197,-0.11814019532035609,-0.10791374037127198,1.0546657112648612,0.3243020889588893,-0.392511984074058,-2.153506026953982,0.8647462148599905,2.4659930935123096,0.5444892727451192,1.0544104758940245,0.3238615046091247,-0.39250456234122666,-2.153291787532338,0.8647539153680389,2.46587817577521,0.5445020185570556,0.00023587876507587846,-0.0011143334189513915,0.001283722868304341,-0.0004878715403227067,-7.321035287984917e-05,0.00031936429919930876,0.0002715670585864508,0.0,0.0,0.0,0.0,0.0,0.0,0.0,-0.000255235370836715,-0.0004405843497645723,7.421732831358607e-06,0.00021423942164400245,7.700508048436028e-06,-0.00011491773709959574,1.2745811936443197e-05,-0.00023587876507587846,0.0011143334189513915,-0.001283722868304341,0.0004878715403227067,7.321035287984917e-05,-0.00031936429919930876,-0.0002715670585864508,0.4029781222343445,33.96377182006836,3.8506133556365967,-19.511445999145508,-0.2667136788368225,-1.777347207069397,0.11111776530742645,0
40,0.1922464370727539,-0.4267818331718445,-33.99154281616211,-3.8228423595428467,19.459871292114258,0.2603049874305725,1.777347207069397,-0.11111776530742645,0.0,0.0,0.0,0.0,0.0,0.0,0.0,-0.4084459653932549,0.06898333474261631,-0.2427766714158579,0.4613621755442004,0.2067081964758012,-0.11764319221511041,-0.10776064133583113,1.0546673817007166,0.32430403778845807,-0.39251386292739543,-2.15350240869378,0.8647476331947705,2.46599309304582,0.5444893904826891,1.0544104758940245,0.3238615046091247,-0.39250456234122666,-2.153291787532338,0.8647539153680389,2.46587817577521,0.5445020185570556,0.000768995257968481,-0.0004759576827957987,0.0007383726170057969,0.0009691900273368724,0.000116967988454151,0.00033154650045154224,0.0004277571502677723,0.0,0.0,0.0,0.0,0.0,0.0,0.0,-0.0002569058066921315,-0.0004425331793333487,9.300586168770053e-06,0.0002106211614423259,6.2821732683682185e-06,-0.00011491727061008206,1.2628074366527464e-05,-0.000768995257968481,0.0004759576827957987,-0.0007383726170057969,-0.0009691900273368724,-0.000116967988454151,-0.00033154650045154224,-0.0004277571502677723,0.4267818331718445,33.99154281616211,3.8228423595428467,-19.459871292114258,-0.2603049874305725,-1.777347207069397,0.11111776530742645,0
41,0.19717931747436523,-0.4267818331718445,-33.99154281616211,-3.8228423595428467,19.459871292114258,0.2603049874305725,1.777347207069397,-0.11111776530742645,0.0,0.0,0.0,0.0,0.0,0.0,0.0,-0.4084459653932549,0.06898333474261631,-0.2427766714158579,0.4613621755442004,0.2067081964758012,-0.11764319221511041,-0.10776064133583113,1.0546673817007166,0.32430403778845807,-0.39251386292739543,-2.15350240869378,0.8647476331947705,2.46599309304582,0.5444893904826891,1.0544104758940245,0.3238615046091247,-0.39250456234122666,-2.153291787532338,0.8647539153680389,2.46587817577521,0.5445020185570556,0.000768995257968481,-0.0004759576827957987,0.0007383726170057969,0.0009691900273368724,0.000116967988454151,0.00033154650045154224,0.0004277571502677723,0.0,0.0,0.0,0.0,0.0,0.0,0.0,-0.0002569058066921315,-0.0004425331793333487,9.300586168770053e-06,0.0002106211614423259,6.2821732683682185e-06,-0.00011491727061008206,1.2628074366527464e-05,-0.000768995257968481,0.0004759576827957987,-0.0007383726170057969,-0.0009691900273368724,-0.000116967988454151,-0.00033154650045154224,-0.0004277571502677723,0.4267818331718445,33.99154281616211,3.8228423595428467,-19.459871292114258,-0.2603049874305725,-1.777347207069397,0.11111776530742645,0
42,0.20216679573059082,-0.4029781222343445,-33.99154281616211,-3.8228423595428467,19.459871292114258,0.2603049874305725,1.783755898475647,-0.09097616374492645,0.0,0.0,0.0,0.0,0.0,0.0,0.0,-0.4128451524143207,0.07871267181317085,-0.24309965583638699,0.4544954893701184,0.20731876354457537,-0.11868219206037194,-0.1073655816520741,1.0546657112648612,0.324304037788458,-0.39251393874811136,-2.153502407676297,0.8647479851207525,2.465991315947347,0.5444870478715637,1.0544104758940245,0.3238615046091247,-0.39250456234122666,-2.153291787532338,0.8647539153680389,2.46587817577521,0.5445020185570556,-0.0004522885211486675,0.00026099125726167574,0.0004919061295277328,0.0003883532056339578,3.691701854844871e-05,-5.462213076987551e-05,-0.0008267210411743008,0.0,0.0,0.0,0.0,0.0,0.0,0.0,-0.000255235370836715,-0.00044253317933329317,9.376406884697985e-06,0.00021062014395933915,5.930247286456414e-06,-0.00011314017213726046,1.4970685491944025e-05,0.0004522885211486675,-0.00026099125726167574,-0.0004919061295277328,-0.0003883532056339578,-3.691701854844871e-05,5.462213076987551e-05,0.0008267210411743008,0.4029781222343445,33.99154281616211,3.8228423595428467,-19.459871292114258,-0.2603049874305725,-1.783755898475647,0.09097616374492645,0
43,0.2072300910949707,-0.4029781222343445,-33.99154281616211,-3.8228423595428467,19.459871292114258,0.2603049874305725,1.783755898475647,-0.09097616374492645,0.0,0.0,0.0,0.0,0.0,0.0,0.0,-0.4128451524143207,0.07871267181317085,-0.24309965583638699,0.4544954893701184,0.20731876354457537,-0.11868219206037194,-0.1073655816520741,1.0546657112648612,0.324304037788458,-0.39251393874811136,-2.153502407676297,0.8647479851207525,2.465991315947347,0.5444870478715637,1.0544104758940245,0.3238615046091247,-0.39250456234122666,-2.153291787532338,0.8647539153680389,2.46587817577521,0.5445020185570556,-0.0004522885211486675,0.00026099125726167574,0.0004919061295277328,0.0003883532056339578,3.691701854844871e-05,-5.462213076987551e-05,-0.0008267210411743008,0.0,0.0,0.0,0.0,0.0,0.0,0.0,-0.000255235370836715,-0.00044253317933329317,9.376406884697985e-06,0.00021062014395933915,5.930247286456414e-06,-0.00011314017213726046,1.4970685491944025e-05,0.0004522885211486675,-0.00026099125726167574,-0.0004919061295277328,-0.0003883532056339578,-3.691701854844871e-05,5.462213076987551e-05,0.0008267210411743008,0.4029781222343445,33.99154281616211,3.8228423595428467,-19.459871292114258,-0.2603049874305725,-1.783755898475647,0.09097616374492645,0
44,0.21222996711730957,-0.4029781222343445,-34.01534652709961,-3.8228423595428467,19.511445999145508,0.2667136788368225,1.783755898475647,-0.06351034343242645,0.0,0.0,0.0,0.0,0.0,0.0,0.0,-0.4165413674222032,0.0677225473402254,-0.24556660953800782,0.46338468790413034,0.20749197778914988,-0.11790574745919627,-0.10637240291806027,1.0546657112648612,0.3243057082243133,-0.3925139416643953,-2.153506026953982,0.8647471562760335,2.4659923421896126,0.5444882231993722,1.0544104758940245,0.3238615046091247,-0.39250456234122666,-2.153291787532338,0.8647539153680389,2.46587817577521,0.5445020185570556,-0.0009899801092090052,0.000416300349822122,0.00020160267894134452,-0.00044482345596188083,-0.0002658569346333154,2.4437139499927695e-05,-0.0016467902486364783,0.0,0.0,0.0,0.0,0.0,0.0,0.0,-0.000255235370836715,-0.00044420361518859863,9.379323168634546e-06,0.00021423942164400245,6.759092005426126e-06,-0.00011416641440264996,1.379535768342155e-05,0.0009899801092090052,-0.000416300349822122,-0.00020160267894134452,0.00044482345596188083,0.0002658569346333154,-2.4437139499927695e-05,0.0016467902486364783,0.4029781222343445,34.01534652709961,3.8228423595428467,-19.511445999145508,-0.2667136788368225,-1.783755898475647,0.06351034343242645,0
45,0.21724486351013184,-0.4029781222343445,-34.01534652709961,-3.8228423595428467,19.511445999145508,0.2667136788368225,1.783755898475647,-0.06351034343242645,0.0,0.0,0.0,0.0,0.0,0.0,0.0,-0.4165413674222032,0.0677225473402254,-0.24556660953800782,0.46338468790413034,0.20749197778914988,-0.11790574745919627,-0.10637240291806027,1.0546657112648612,0.3243057082243133,-0.3925139416643953,-2.153506026953982,0.8647471562760335,2.4659923421896126,0.5444882231993722,1.0544104758940245,0.3238615046091247,-0.39250456234122666,-2.153291787532338,0.8647539153680389,2.46587817577521,0.5445020185570556,-0.0009899801092090052,0.000416300349822122,0.00020160267894134452,-0.00044482345596188083,-0.0002658569346333154,2.4437139499927695e-05,-0.0016467902486364783,0.0,0.0,0.0,0.0,0.0,0.0,0.0,-0.000255235370836715,-0.00044420361518859863,9.379323168634546e-06,0.00021423942164400245,6.759092005426126e-06,-0.00011416641440264996,1.379535768342155e-05,0.0009899801092090052,-0.000416300349822122,-0.00020160267894134452,0.00044482345596188083,0.0002658569346333154,-2.4437139499927695e-05,0.0016467902486364783,0.4029781222343445,34.01534652709961,3.8228423595428467,-19.511445999145508,-0.2667136788368225,-1.783755898475647,0.06351034343242645,0
46,0.22221803665161133,-0.4505855441093445,-33.99154281616211,-3.7990386486053467,19.487642288208008,0.2603049874305725,1.783755898475647,-0.06351034343242645,0.0,0.0,0.0,0.0,0.0,0.0,0.0,-0.4129753797954376,0.07404912208309,-0.23886917809838482,0.4594325705408837,0.20757586353705984,-0.11905689139646712,-0.10496502277186197,1.0546690521365718,0.32430618649910914,-0.3925156111282383,-2.1535043565181264,0.8647479865743003,2.4659923754237503,0.5444841443995907,1.0544104758940245,0.3238615046091247,-0.39250456234122666,-2.153291787532338,0.8647539153680389,2.46587817577521,0.5445020185570556,0.0003038826270630604,-0.0003976921503918903,-0.00017385302168969815,-0.00020383810708627122,-2.2495592699518107e-05,0.00033777606910520184,-0.0007997695290352709,0.0,0.0,0.0,0.0,0.0,0.0,0.0,-0.0002585762425473259,-0.0004446818899844218,1.104878701163603e-05,0.00021256898578858596,5.928793738618765e-06,-0.00011419964854031406,1.7874157464903284e-05,-0.0003038826270630604,0.0003976921503918903,0.00017385302168969815,0.00020383810708627122,2.2495592699518107e-05,-0.00033777606910520184,0.0007997695290352709,0.4505855441093445,33.99154281616211,3.7990386486053467,-19.487642288208008,-0.2603049874305725,-1.783755898475647,0.06351034343242645,0
47,0.22722172737121582,-0.4505855441093445,-33.99154281616211,-3.7990386486053467,19.487642288208008,0.2603049874305725,1.783755898475647,-0.06351034343242645,0.0,0.0,0.0,0.0,0.0,0.0,0.0,-0.4129753797954376,0.07404912208309,-0.23886917809838482,0.4594325705408837,0.20757586353705984,-0.11905689139646712,-0.10496502277186197,1.0546690521365718,0.32430618649910914,-0.3925156111282383,-2.1535043565181264,0.8647479865743003,2.4659923754237503,0.5444841443995907,1.0544104758940245,0.3238615046091247,-0.39250456234122666,-2.153291787532338,0.8647539153680389,2.46587817577521,0.5445020185570556,0.0003038826270630604,-0.0003976921503918903,-0.00017385302168969815,-0.00020383810708627122,-2.2495592699518107e-05,0.00033777606910520184,-0.0007997695290352709,0.0,0.0,0.0,0.0,0.0,0.0,0.0,-0.0002585762425473259,-0.0004446818899844218,1.104878701163603e-05,0.00021256898578858596,5.928793738618765e-06,-0.00011419964854031406,1.7874157464903284e-05,-0.0003038826270630604,0.0003976921503918903,0.00017385302168969815,0.00020383810708627122,2.2495592699518107e-05,-0.00033777606910520184,0.0007997695290352709,0.4505855441093445,33.99154281616211,3.7990386486053467,-19.487642288208008,-0.2603049874305725,-1.783755898475647,0.06351034343242645,0
48,0.23221659660339355,-0.3752071261405945,-33.99154281616211,-3.7990386486053467,19.459871292114258,0.2548118233680725,1.783755898475647,-0.08365194499492645,0.0,0.0,0.0,0.0,0.0,0.0,0.0,-0.41486879686236977,0.07152726225095353,-0.23919040707421207,0.4606265368379068,0.2070966685082749,-0.11794830921090789,-0.1025661528444355,1.0546637624230302,0.324304356120005,-0.3925156121002982,-2.1535024076762954,0.8647485969265302,2.465992342189701,0.5444862210055553,1.0544104758940245,0.3238615046091247,-0.39250456234122666,-2.153291787532338,0.8647539153680389,2.46587817577521,0.5445020185570556,-0.001038310356307272,-0.0004799450243789352,-0.00027601020468690234,0.0005051835544353632,0.00011111128686696225,0.00023246958765794071,-0.0004476088659355557,0.0,0.0,0.0,0.0,0.0,0.0,0.0,-0.0002532865290056918,-0.0004428515108803044,1.1049759071513066e-05,0.0002106201439575628,5.318441508750382e-06,-0.00011416641449102372,1.5797551500273954e-05,0.001038310356307272,0.0004799450243789352,0.00027601020468690234,-0.0005051835544353632,-0.00011111128686696225,-0.00023246958765794071,0.0004476088659355557,0.3752071261405945,33.99154281616211,3.7990386486053467,-19.459871292114258,-0.2548118233680725,-1.783755898475647,0.08365194499492645,0
49,0.2372143268585205,-0.3752071261405945,-33.99154281616211,-3.7990386486053467,19.459871292114258,0.2548118233680725,1.783755898475647,-0.08365194499492645,0.0,0.0,0.0,0.0,0.0,0.0,0.0,-0.41486879686236977,0.07152726225095353,-0.23919040707421207,0.4606265368379068,0.2070966685082749,-0.11794830921090789,-0.1025661528444355,1.0546637624230302,0.324304356120005,-0.3925156121002982,-2.1535024076762954,0.8647485969265302,2.465992342189701,0.5444862210055553,1.0544104758940245,0.3238615046091247,-0.39250456234122666,-2.153291787532338,0.8647539153680389,2.46587817577521,0.5445020185570556,-0.001038310356307272,-0.0004799450243789352,-0.00027601020468690234,0.0005051835544353632,0.00011111128686696225,0.00023246958765794071,-0.0004476088659355557,0.0,0.0,0.0,0.0,0.0,0.0,0.0,-0.0002532865290056918,-0.0004428515108803044,1.1049759071513066e-05,0.0002106201439575628,5.318441508750382e-06,-0.00011416641449102372,1.5797551500273954e-05,0.001038310356307272,0.0004799450243789352,0.00027601020468690234,-0.0005051835544353632,-0.00011111128686696225,-0.00023246958765794071,0.0004476088659355557,0.3752071261405945,33.99154281616211,3.7990386486053467,-19.459871292114258,-0.2548118233680725,-1.783755898475647,0.08365194499492645,0
50,0.2422323226928711,-0.4267818331718445,-34.03915023803711,-3.7752349376678467,19.511445999145508,0.2548118233680725,1.790164589881897,-0.07724325358867645,0.0,0.0,0.0,0.0,0.0,0.0,0.0,-0.416590661541617,0.06557551043760725,-0.23960901070530782,0.4641851100825762,0.20673487165755916,-0.11688845220456606,-0.10212736029249242,1.0546673817007166,0.32430737866555953,-0.39251728253615525,-2.153506026953982,0.8647485969265302,2.4659916687300036,0.544485508910484,1.0544104758940245,0.3238615046091247,-0.39250456234122666,-2.153291787532338,0.8647539153680389,2.46587817577521,0.5445020185570556,0.0005907116212419872,0.0006477549941624604,-0.0006682195486330159,-0.0005313560842490437,0.00013870441046916012,-3.231469942774818e-05,-0.0007876042039471332,0.0,0.0,0.0,0.0,0.0,0.0,0.0,-0.0002569058066921315,-0.00044587405643481404,1.2720194928594886e-05,0.00021423942164400245,5.318441508750382e-06,-0.00011349295479368138,1.6509646571627457e-05,-0.0005907116212419872,-0.0006477549941624604,0.0006682195486330159,0.0005313560842490437,-0.00013870441046916012,3.231469942774818e-05,0.0007876042039471332,0.4267818331718445,34.03915023803711,3.7752349376678467,-19.511445999145508,-0.2548118233680725,-1.790164589881897,0.07724325358867645,0
51,0.2472231388092041,-0.4267818331718445,-34.03915023803711,-3.7752349376678467,19.511445999145508,0.2548118233680725,1.790164589881897,-0.07724325358867645,0.0,0.0,0.0,0.0,0.0,0.0,0.0,-0.416590661541617,0.06557551043760725,-0.23960901070530782,0.4641851100825762,0.20673487165755916,-0.11688845220456606,-0.10212736029249242,1.0546673817007166,0.32430737866555953,-0.39251728253615525,-2.153506026953982,0.8647485969265302,2.4659916687300036,0.544485508910484,1.0544104758940245,0.3238615046091247,-0.39250456234122666,-2.153291787532338,0.8647539153680389,2.46587817577521,0.5445020185570556,0.0005907116212419872,0.0006477549941624604,-0.0006682195486330159,-0.0005313560842490437,0.00013870441046916012,-3.231469942774818e-05,-0.0007876042039471332,0.0,0.0,0.0,0.0,0.0,0.0,0.0,-0.0002569058066921315,-0.00044587405643481404,1.2720194928594886e-05,0.00021423942164400245,5.318441508750382e-06,-0.00011349295479368138,1.6509646571627457e-05,-0.0005907116212419872,-0.0006477549941624604,0.0006682195486330159,0.0005313560842490437,-0.00013870441046916012,3.231469942774818e-05,0.0007876042039471332,0.4267818331718445,34.03915023803711,3.7752349376678467,-19.511445999145508,-0.2548118233680725,-1.790164589881897,0.07724325358867645,0
52,0.25221991539001465,-0.4029781222343445,-33.96377182006836,-3.7990386486053467,19.511445999145508,0.2667136788368225,1.777347207069397,-0.13858358561992645,0.0,0.0,0.0,0.0,0.0,0.0,0.0,-0.4202114615188401,0.07403970440498367,-0.23942308277246313,0.4584552104583796,0.2071105036428152,-0.11671461653897619,-0.10233999567070812,1.0546657112648612,0.3243020919385178,-0.39251553336330014,-2.153506026953982,0.8647472744981448,2.4659926211085605,0.5444928477810203,1.0544104758940245,0.3238615046091247,-0.39250456234122666,-2.153291787532338,0.8647539153680389,2.46587817577521,0.5445020185570556,-0.0002843761325584389,-0.0006356271480843493,0.0001368856150662646,-0.0008354785450428492,-0.0001275881706462939,0.00042930487376685155,0.0009561181932284252,0.0,0.0,0.0,0.0,0.0,0.0,0.0,-0.000255235370836715,-0.00044058732939306067,1.0971022073480441e-05,0.00021423942164400245,6.640869894103396e-06,-0.00011444533335058793,9.170776035349881e-06,0.0002843761325584389,0.0006356271480843493,-0.0001368856150662646,0.0008354785450428492,0.0001275881706462939,-0.00042930487376685155,-0.0009561181932284252,0.4029781222343445,33.96377182006836,3.7990386486053467,-19.511445999145508,-0.2667136788368225,-1.777347207069397,0.13858358561992645,0
53,0.2572345733642578,-0.4029781222343445,-33.96377182006836,-3.7990386486053467,19.511445999145508,0.2667136788368225,1.777347207069397,-0.13858358561992645,0.0,0.0,0.0,0.0,0.0,0.0,0.0,-0.4202114615188401,0.07403970440498367,-0.23942308277246313,0.4584552104583796,0.2071105036428152,-0.11671461653897619,-0.10233999567070812,1.0546657112648612,0.3243020919385178,-0.39251553336330014,-2.153506026953982,0.8647472744981448,2.4659926211085605,0.5444928477810203,1.0544104758940245,0.3238615046091247,-0.39250456234122666,-2.153291787532338,0.8647539153680389,2.46587817577521,0.5445020185570556,-0.0002843761325584389,-0.0006356271480843493,0.0001368856150662646,-0.0008354785450428492,-0.0001275881706462939,0.00042930487376685155,0.0009561181932284252,0.0,0.0,0.0,0.0,0.0,0.0,0.0,-0.000255235370836715,-0.00044058732939306067,1.0971022073480441e-05,0.00021423942164400245,6.640869894103396e-06,-0.00011444533335058793,9.170776035349881e-06,0.0002843761325584389,0.0006356271480843493,-0.0001368856150662646,0.0008354785450428492,0.0001275881706462939,-0.00042930487376685155,-0.0009561181932284252,0.4029781222343445,33.96377182006836,3.7990386486053467,-19.511445999145508,-0.2667136788368225,-1.777347207069397,0.13858358561992645,0
54,0.2622241973876953,-0.4029781222343445,-33.96377182006836,-3.7990386486053467,19.511445999145508,0.2667136788368225,1.777347207069397,-0.13858358561992645,0.0,0.0,0.0,0.0,0.0,0.0,0.0,-0.4202114615188401,0.07403970440498367,-0.23942308277246313,0.4584552104583796,0.2071105036428152,-0.11671461653897619,-0.10233999567070812,1.0546657112648612,0.3243020919385178,-0.39251553336330014,-2.153506026953982,0.8647472744981448,2.4659926211085605,0.5444928477810203,1.0544104758940245,0.3238615046091247,-0.39250456234122666,-2.153291787532338,0.8647539153680389,2.46587817577521,0.5445020185570556,-0.0002843761325584389,-0.0006356271480843493,0.0001368856150662646,-0.0008354785450428492,-0.0001275881706462939,0.00042930487376685155,0.0009561181932284252,0.0,0.0,0.0,0.0,0.0,0.0,0.0,-0.000255235370836715,-0.00044058732939306067,1.0971022073480441e-05,0.00021423942164400245,6.640869894103396e-06,-0.00011444533335058793,9.170776035349881e-06,0.0002843761325584389,0.0006356271480843493,-0.0001368856150662646,0.0008354785450428492,0.0001275881706462939,-0.00042930487376685155,-0.0009561181932284252,0.4029781222343445,33.96377182006836,3.7990386486053467,-19.511445999145508,-0.2667136788368225,-1.777347207069397,0.13858358561992645,0
55,0.2676215171813965,-0.4029781222343445,-33.96377182006836,-3.7990386486053467,19.511445999145508,0.2667136788368225,1.777347207069397,-0.13858358561992645,0.0,0.0,0.0,0.0,0.0,0.0,0.0,-0.4202114615188401,0.07403970440498367,-0.23942308277246313,0.4584552104583796,0.2071105036428152,-0.11671461653897619,-0.10233999567070812,1.0546657112648612,0.3243020919385178,-0.39251553336330014,-2.153506026953982,0.8647472744981448,2.4659926211085605,0.5444928477810203,1.0544104758940245,0.3238615046091247,-0.39250456234122666,-2.153291787532338,0.8647539153680389,2.46587817577521,0.5445020185570556,-0.0002843761325584389,-0.0006356271480843493,0.0001368856150662646,-0.0008354785450428492,-0.0001275881706462939,0.00042930487376685155,0.0009561181932284252,0.0,0.0,0.0,0.0,0.0,0.0,0.0,-0.000255235370836715,-0.00044058732939306067,1.0971022073480441e-05,0.00021423942164400245,6.640869894103396e-06,-0.00011444533335058793,9.170776035349881e-06,0.0002843761325584389,0.0006356271480843493,-0.0001368856150662646,0.0008354785450428492,0.0001275881706462939,-0.00042930487376685155,-0.0009561181932284252,0.4029781222343445,33.96377182006836,3.7990386486053467,-19.511445999145508,-0.2667136788368225,-1.777347207069397,0.13858358561992645,0
56,0.2722187042236328,-0.4267818331718445,-34.03915023803711,-3.8228423595428467,19.436067581176758,0.2484031319618225,1.777347207069397,-0.11111776530742645,0.0,0.0,0.0,0.0,0.0,0.0,0.0,-0.41172470652226717,0.06526400780059839,-0.232448489215461,0.4659426493467191,0.20768327275734977,-0.11658496849651419,-0.10382079263518111,1.0546673817007166,0.32430952442739736,-0.39251394133997963,-2.15350073724044,0.8647493090033531,2.465989914613282,0.5444935113005904,1.0544104758940245,0.3238615046091247,-0.39250456234122666,-2.153291787532338,0.8647539153680389,2.46587817577521,0.5445020185570556,0.0008477469313502327,0.0009999607116430262,0.0006748790703605238,0.0012866001322366925,0.0005247253570845926,0.0003641148670620042,0.0004856418047366885,0.0,0.0,0.0,0.0,0.0,0.0,0.0,-0.0002569058066921315,-0.00044801981827263804,9.378998752973544e-06,0.0002089497081021463,4.606364685799669e-06,-0.00011173883807202856,8.507256465173363e-06,-0.0008477469313502327,-0.0009999607116430262,-0.0006748790703605238,-0.0012866001322366925,-0.0005247253570845926,-0.0003641148670620042,-0.0004856418047366885,0.4267818331718445,34.03915023803711,3.8228423595428467,-19.436067581176758,-0.2484031319618225,-1.777347207069397,0.11111776530742645,0
57,0.27723073959350586,-0.4267818331718445,-34.03915023803711,-3.8228423595428467,19.436067581176758,0.2484031319618225,1.777347207069397,-0.11111776530742645,0.0,0.0,0.0,0.0,0.0,0.0,0.0,-0.41172470652226717,0.06526400780059839,-0.232448489215461,0.4659426493467191,0.20768327275734977,-0.11658496849651419,-0.10382079263518111,1.0546673817007166,0.32430952442739736,-0.39251394133997963,-2.15350073724044,0.8647493090033531,2.465989914613282,0.5444935113005904,1.0544104758940245,0.3238615046091247,-0.39250456234122666,-2.153291787532338,0.8647539153680389,2.46587817577521,0.5445020185570556,0.0008477469313502327,0.0009999607116430262,0.0006748790703605238,0.0012866001322366925,0.0005247253570845926,0.0003641148670620042,0.0004856418047366885,0.0,0.0,0.0,0.0,0.0,0.0,0.0,-0.0002569058066921315,-0.00044801981827263804,9.378998752973544e-06,0.0002089497081021463,4.606364685799669e-06,-0.00011173883807202856,8.507256465173363e-06,-0.0008477469313502327,-0.0009999607116430262,-0.0006748790703605238,-0.0012866001322366925,-0.0005247253570845926,-0.0003641148670620042,-0.0004856418047366885,0.4267818331718445,34.03915023803711,3.8228423595428467,-19.436067581176758,-0.2484031319618225,-1.777347207069397,0.11111776530742645,0
58,0.2822532653808594,-0.4267818331718445,-34.06295394897461,-3.7752349376678467,19.511445999145508,0.2548118233680725,1.783755898475647,-0.05710165575146675,0.0,0.0,0.0,0.0,0.0,0.0,0.0,-0.4125281579651668,0.06464796139289355,-0.23268864692406188,0.46822505384863145,0.20771776535544104,-0.11688819500727834,-0.10363321063676334,1.0546673817007166,0.32430915509617547,-0.3925172796199646,-2.153506026953982,0.8647485445987213,2.4659923290718697,0.5444832710269488,1.0544104758940245,0.3238615046091247,-0.39250456234122666,-2.153291787532338,0.8647539153680389,2.46587817577521,0.5445020185570556,0.0007085025559443718,0.001210654802812719,-0.00048049649067172186,-0.00024146424479694936,0.00027267320630127166,8.49395334262758e-05,-0.0012053661921040534,0.0,0.0,0.0,0.0,0.0,0.0,0.0,-0.0002569058066921315,-0.0004476504870507547,1.271727873791706e-05,0.00021423942164400245,5.370769317614155e-06,-0.00011415329665975804,1.8747530106777432e-05,-0.0007085025559443718,-0.001210654802812719,0.00048049649067172186,0.00024146424479694936,-0.00027267320630127166,-8.49395334262758e-05,0.0012053661921040534,0.4267818331718445,34.06295394897461,3.7752349376678467,-19.511445999145508,-0.2548118233680725,-1.783755898475647,0.05710165575146675,0
59,0.28722381591796875,-0.4267818331718445,-34.06295394897461,-3.7752349376678467,19.511445999145508,0.2548118233680725,1.783755898475647,-0.05710165575146675,0.0,0.0,0.0,0.0,0.0,0.0,0.0,-0.4125281579651668,0.06464796139289355,-0.23268864692406188,0.46822505384863145,0.20771776535544104,-0.11688819500727834,-0.10363321063676334,1.0546673817007166,0.32430915509617547,-0.3925172796199646,-2.153506026953982,0.8647485445987213,2.4659923290718697,0.5444832710269488,1.0544104758940245,0.3238615046091247,-0.39250456234122666,-2.153291787532338,0.8647539153680389,2.46587817577521,0.5445020185570556,0.0007085025559443718,0.001210654802812719,-0.00048049649067172186,-0.00024146424479694936,0.00027267320630127166,8.49395334262758e-05,-0.0012053661921040534,0.0,0.0,0.0,0.0,0.0,0.0,0.0,-0.0002569058066921315,-0.0004476504870507547,1.271727873791706e-05,0.00021423942164400245,5.370769317614155e-06,-0.00011415329665975804,1.8747530106777432e-05,-0.0007085025559443718,-0.001210654802812719,0.00048049649067172186,0.00024146424479694936,-0.00027267320630127166,-8.49395334262758e-05,0.0012053661921040534,0.4267818331718445,34.06295394897461,3.7752349376678467,-19.511445999145508,-0.2548118233680725,-1.783755898475647,0.05710165575146675,0
60,0.2922060489654541,-0.4267818331718445,-34.01534652709961,-3.8228423595428467,19.487642288208008,0.2667136788368225,1.783755898475647,-0.09097616374492645,0.0,0.0,0.0,0.0,0.0,0.0,0.0,-0.41636069379508767,0.07741210814892667,-0.2352255380130142,0.46064172275715864,0.20764576218014424,-0.11804945122102001,-0.10211956167542238,1.0546673817007166,0.32430570822451277,-0.3925139406923775,-2.1535043565181264,0.8647472744442112,2.465991984634198,0.5444870348432252,1.0544104758940245,0.3238615046091247,-0.39250456234122666,-2.153291787532338,0.8647539153680389,2.46587817577521,0.5445020185570556,0.0005117045069574555,0.00044361389507914344,0.0003693654009295346,-0.00010486593195028163,-0.00011968137484944705,8.415348622419717e-06,-0.0007850293898668039,0.0,0.0,0.0,0.0,0.0,0.0,0.0,-0.0002569058066921315,-0.0004442036153880502,9.378351150834963e-06,0.00021256898578858596,6.640923827738732e-06,-0.00011380885898804038,1.498371383035213e-05,-0.0005117045069574555,-0.00044361389507914344,-0.0003693654009295346,0.00010486593195028163,0.00011968137484944705,-8.415348622419717e-06,0.0007850293898668039,0.4267818331718445,34.01534652709961,3.8228423595428467,-19.487642288208008,-0.2667136788368225,-1.783755898475647,0.09097616374492645,0
61,0.29723358154296875,-0.4267818331718445,-34.01534652709961,-3.8228423595428467,19.487642288208008,0.2667136788368225,1.783755898475647,-0.09097616374492645,0.0,0.0,0.0,0.0,0.0,0.0,0.0,-0.41636069379508767,0.07741210814892667,-0.2352255380130142,0.46064172275715864,0.20764576218014424,-0.11804945122102001,-0.10211956167542238,1.0546673817007166,0.32430570822451277,-0.3925139406923775,-2.1535043565181264,0.8647472744442112,2.465991984634198,0.5444870348432252,1.0544104758940245,0.3238615046091247,-0.39250456234122666,-2.153291787532338,0.8647539153680389,2.46587817577521,0.5445020185570556,0.0005117045069574555,0.00044361389507914344,0.0003693654009295346,-0.00010486593195028163,-0.00011968137484944705,8.415348622419717e-06,-0.0007850293898668039,0.0,0.0,0.0,0.0,0.0,0.0,0.0,-0.0002569058066921315,-0.0004442036153880502,9.378351150834963e-06,0.00021256898578858596,6.640923827738732e-06,-0.00011380885898804038,1.498371383035213e-05,-0.0005117045069574555,-0.00044361389507914344,-0.0003693654009295346,0.00010486593195028163,0.00011968137484944705,-8.415348622419717e-06,0.0007850293898668039,0.4267818331718445,34.01534652709961,3.8228423595428467,-19.487642288208008,-0.2667136788368225,-1.783755898475647,0.09097616374492645,0
62,0.3023676872253418,-0.4267818331718445,-34.01534652709961,-3.7990386486053467,19.459871292114258,0.2484031319618225,1.783755898475647,-0.13217489421367645,0.0,0.0,0.0,0.0,0.0,0.0,0.0,-0.41104317509124383,0.0712664347152779,-0.23306083696042465,0.4646498659863694,0.2075001863743049,-0.11816857598714033,-0.10280160879237468,1.0546673817007166,0.3243057082243133,-0.3925156119922767,-2.1535024076762954,0.8647493090033522,2.4659891894504535,0.5444926722257446,1.0544104758940245,0.3238615046091247,-0.39250456234122666,-2.153291787532338,0.8647539153680389,2.46587817577521,0.5445020185570556,1.5521648818968427e-05,0.0002828315425638117,-0.00011956545738175069,0.00039006867497575636,0.0003898843790400416,0.00023176475223542776,0.0013325815056639992,0.0,0.0,0.0,0.0,0.0,0.0,0.0,-0.0002569058066921315,-0.00044420361518859863,1.1049651050032416e-05,0.0002106201439575628,4.606364686687847e-06,-0.00011101367524357642,9.346331310999823e-06,-1.5521648818968427e-05,-0.0002828315425638117,0.00011956545738175069,-0.00039006867497575636,-0.0003898843790400416,-0.00023176475223542776,-0.0013325815056639992,0.4267818331718445,34.01534652709961,3.7990386486053467,-19.459871292114258,-0.2484031319618225,-1.783755898475647,0.13217489421367645,0
63,0.3072214126586914,-0.4267818331718445,-34.01534652709961,-3.7990386486053467,19.459871292114258,0.2484031319618225,1.783755898475647,-0.13217489421367645,0.0,0.0,0.0,0.0,0.0,0.0,0.0,-0.41104317509124383,0.0712664347152779,-0.23306083696042465,0.4646498659863694,0.2075001863743049,-0.11816857598714033,-0.10280160879237468,1.0546673817007166,0.3243057082243133,-0.3925156119922767,-2.1535024076762954,0.8647493090033522,2.4659891894504535,0.5444926722257446,1.0544104758940245,0.3238615046091247,-0.39250456234122666,-2.153291787532338,0.8647539153680389,2.46587817577521,0.5445020185570556,1.5521648818968427e-05,0.0002828315425638117,-0.00011956545738175069,0.00039006867497575636,0.0003898843790400416,0.00023176475223542776,0.0013325815056639992,0.0,0.0,0.0,0.0,0.0,0.0,0.0,-0.0002569058066921315,-0.00044420361518859863,1.1049651050032416e-05,0.0002106201439575628,4.606364686687847e-06,-0.00011101367524357642,9.346331310999823e-06,-1.5521648818968427e-05,-0.0002828315425638117,0.00011956545738175069,-0.00039006867497575636,-0.0003898843790400416,-0.00023176475223542776,-0.0013325815056639992,0.4267818331718445,34.01534652709961,3.7990386486053467,-19.459871292114258,-0.2484031319618225,-1.783755898475647,0.13217489421367645,0
64,0.31221938133239746,-0.4783565402030945,-33.96377182006836,-3.8506133556365967,19.487642288208008,0.2548118233680725,1.796573281288147,-0.08365194499492645,0.0,0.0,0.0,0.0,0.0,0.0,0.0,-0.4140140412889089,0.07375448114937751,-0.23548526617775922,0.4614211293238677,0.20747832376511574,-0.11752505866983622,-0.10311039901697898,1.0546710009784028,0.3243020889466269,-0.39251199282261334,-2.1535043565181264,0.8647485924043739,2.46599095675551,0.5444863780265626,1.0544104758940245,0.3238615046091247,-0.39250456234122666,-2.153291787532338,0.8647539153680389,2.46587817577521,0.5445020185570556,0.0015121073492345943,-0.0007390212004970189,0.000671188435148403,-0.00030285717764926283,0.0002361078241994919,-0.0002790550250758863,-0.0012748980209667917,0.0,0.0,0.0,0.0,0.0,0.0,0.0,-0.0002605250843783491,-0.000440584337502159,7.43048138668323e-06,0.00021256898578858596,5.32296366506646e-06,-0.00011278098030009787,1.564053049296632e-05,-0.0015121073492345943,0.0007390212004970189,-0.000671188435148403,0.00030285717764926283,-0.0002361078241994919,0.0002790550250758863,0.0012748980209667917,0.4783565402030945,33.96377182006836,3.8506133556365967,-19.487642288208008,-0.2548118233680725,-1.796573281288147,0.08365194499492645,0
65,0.3172416687011719,-0.4783565402030945,-33.96377182006836,-3.8506133556365967,19.487642288208008,0.2548118233680725,1.796573281288147,-0.08365194499492645,0.0,0.0,0.0,0.0,0.0,0.0,0.0,-0.4140140412889089,0.07375448114937751,-0.23548526617775922,0.4614211293238677,0.20747832376511574,-0.11752505866983622,-0.10311039901697898,1.0546710009784028,0.3243020889466269,-0.39251199282261334,-2.1535043565181264,0.8647485924043739,2.46599095675551,0.5444863780265626,1.0544104758940245,0.3238615046091247,-0.39250456234122666,-2.153291787532338,0.8647539153680389,2.46587817577521,0.5445020185570556,0.0015121073492345943,-0.0007390212004970189,0.000671188435148403,-0.00030285717764926283,0.0002361078241994919,-0.0002790550250758863,-0.0012748980209667917,0.0,0.0,0.0,0.0,0.0,0.0,0.0,-0.0002605250843783491,-0.000440584337502159,7.43048138668323e-06,0.00021256898578858596,5.32296366506646e-06,-0.00011278098030009787,1.564053049296632e-05,-0.0015121073492345943,0.0007390212004970189,-0.000671188435148403,0.00030285717764926283,-0.0002361078241994919,0.0002790550250758863,0.0012748980209667917,0.4783565402030945,33.96377182006836,3.8506133556365967,-19.487642288208008,-0.2548118233680725,-1.796573281288147,0.08365194499492645,0
66,0.32227230072021484,-0.4267818331718445,-33.99154281616211,-3.8506133556365967,19.511445999145508,0.2548118233680725,1.783755898475647,-0.09097616374492645,0.0,0.0,0.0,0.0,0.0,0.0,0.0,-0.41102876834820534,0.06826159158012084,-0.23427558337674603,0.4623001654517343,0.2074014274393267,-0.11712882199878767,-0.10492877656419569,1.0546673817007166,0.3243040407318972,-0.3925098669236166,-2.153506026953982,0.8647484394585784,2.4659887300814596,0.5444903314416434,1.0544104758940245,0.3238615046091247,-0.39250456234122666,-2.153291787532338,0.8647539153680389,2.46587817577521,0.5445020185570556,0.00010809041335885279,-0.00042440629296713,0.0009300513533585165,-0.0009928733098386884,0.00015118931577267489,1.755644846511184e-05,-0.0004945564476850535,0.0,0.0,0.0,0.0,0.0,0.0,0.0,-0.0002569058066921315,-0.00044253612277250776,5.3045823899533495e-06,0.00021423942164400245,5.475909460539441e-06,-0.0001105543062496217,1.1687115412217786e-05,-0.00010809041335885279,0.00042440629296713,-0.0009300513533585165,0.0009928733098386884,-0.00015118931577267489,-1.755644846511184e-05,0.0004945564476850535,0.4267818331718445,33.99154281616211,3.8506133556365967,-19.511445999145508,-0.2548118233680725,-1.783755898475647,0.09097616374492645,0
67,0.3271782398223877,-0.4267818331718445,-33.99154281616211,-3.8506133556365967,19.511445999145508,0.2548118233680725,1.783755898475647,-0.09097616374492645,0.0,0.0,0.0,0.0,0.0,0.0,0.0,-0.41102876834820534,0.06826159158012084,-0.23427558337674603,0.4623001654517343,0.2074014274393267,-0.11712882199878767,-0.10492877656419569,1.0546673817007166,0.3243040407318972,-0.3925098669236166,-2.153506026953982,0.8647484394585784,2.4659887300814596,0.5444903314416434,1.0544104758940245,0.3238615046091247,-0.39250456234122666,-2.153291787532338,0.8647539153680389,2.46587817577521,0.5445020185570556,0.00010809041335885279,-0.00042440629296713,0.0009300513533585165,-0.0009928733098386884,0.00015118931577267489,1.755644846511184e-05,-0.0004945564476850535,0.0,0.0,0.0,0.0,0.0,0.0,0.0,-0.0002569058066921315,-0.00044253612277250776,5.3045823899533495e-06,0.00021423942164400245,5.475909460539441e-06,-0.0001105543062496217,1.1687115412217786e-05,-0.00010809041335885279,0.00042440629296713,-0.0009300513533585165,0.0009928733098386884,-0.00015118931577267489,-1.755644846511184e-05,0.0004945564476850535,0.4267818331718445,33.99154281616211,3.8506133556365967,-19.511445999145508,-0.2548118233680725,-1.783755898475647,0.09097616374492645,0
68,0.33217477798461914,-0.4267818331718445,-33.99154281616211,-3.7990386486053467,19.436067581176758,0.2548118233680725,1.790164589881897,-0.08365194499492645,0.0,0.0,0.0,0.0,0.0,0.0,0.0,-0.4141739897923035,0.07270189831926513,-0.23568891819240345,0.4575933982243667,0.20735551745556002,-0.11747279248593966,-0.10539585865243223,1.0546673817007166,0.3243040377884746,-0.3925156119802924,-2.153500654824141,0.8647485969256412,2.465991656274127,0.5444863387434863,1.0544104758940245,0.3238615046091247,-0.39250456234122666,-2.153291787532338,0.8647539153680389,2.46587817577521,0.5445020185570556,0.0003433105263776974,-0.00043872747517730205,-0.0004165966738183334,0.0009602399042402036,0.000172466625395942,6.343678474802642e-05,-0.0005755713119748212,0.0,0.0,0.0,0.0,0.0,0.0,0.0,-0.0002569058066921315,-0.000442533179349891,1.1049639065729977e-05,0.00020886729180302765,5.318442397705958e-06,-0.00011348049891690692,1.5679813569313694e-05,-0.0003433105263776974,0.00043872747517730205,0.0004165966738183334,-0.0009602399042402036,-0.000172466625395942,-6.343678474802642e-05,0.0005755713119748212,0.4267818331718445,33.99154281616211,3.7990386486053467,-19.436067581176758,-0.2548118233680725,-1.790164589881897,0.08365194499492645,0
69,0.33717942237854004,-0.4267818331718445,-33.99154281616211,-3.7990386486053467,19.436067581176758,0.2548118233680725,1.790164589881897,-0.08365194499492645,0.0,0.0,0.0,0.0,0.0,0.0,0.0,-0.4141739897923035,0.07270189831926513,-0.23568891819240345,0.4575933982243667,0.20735551745556002,-0.11747279248593966,-0.10539585865243223,1.0546673817007166,0.3243040377884746,-0.3925156119802924,-2.153500654824141,0.8647485969256412,2.465991656274127,0.5444863387434863,1.0544104758940245,0.3238615046091247,-0.39250456234122666,-2.153291787532338,0.8647539153680389,2.46587817577521,0.5445020185570556,0.0003433105263776974,-0.00043872747517730205,-0.0004165966738183334,0.0009602399042402036,0.000172466625395942,6.343678474802642e-05,-0.0005755713119748212,0.0,0.0,0.0,0.0,0.0,0.0,0.0,-0.0002569058066921315,-0.000442533179349891,1.1049639065729977e-05,0.00020886729180302765,5.318442397705958e-06,-0.00011348049891690692,1.5679813569313694e-05,-0.0003433105263776974,0.00043872747517730205,0.0004165966738183334,-0.0009602399042402036,-0.000172466625395942,-6.343678474802642e-05,0.0005755713119748212,0.4267818331718445,33.99154281616211,3.7990386486053467,-19.436067581176758,-0.2548118233680725,-1.790164589881897,0.08365194499492645,0
70,0.3422279357910156,-0.4029781222343445,-33.99154281616211,-3.7752349376678467,19.487642288208008,0.2667136788368225,1.783755898475647,-0.13217489421367645,0.0,0.0,0.0,0.0,0.0,0.0,0.0,-0.4073359836442171,0.07474516500861832,-0.23316174469272988,0.4580639082212273,0.20676189597850075,-0.11755080800206194,-0.10497263289358422,1.0546657112648612,0.324304037788458,-0.3925172825361546,-2.153504356517661,0.8647430359456274,2.465989150157408,0.5444916260470776,1.0544104758940245,0.3238615046091247,-0.39250456234122666,-2.153291787532338,0.8647539153680389,2.46587817577521,0.5445020185570556,0.00047649396198177774,0.00019631709648874744,-0.0007846962545090767,0.00010387034083536779,-9.688370388329528e-05,8.463245769378328e-05,0.000934486071492723,0.0,0.0,0.0,0.0,0.0,0.0,0.0,-0.000255235370836715,-0.00044253317933329317,1.2720194927928752e-05,0.00021256898532318047,1.087942241151385e-05,-0.00011097438219787037,1.0392509978029985e-05,-0.00047649396198177774,-0.00019631709648874744,0.0007846962545090767,-0.00010387034083536779,9.688370388329528e-05,-8.463245769378328e-05,-0.000934486071492723,0.4029781222343445,33.99154281616211,3.7752349376678467,-19.487642288208008,-0.2667136788368225,-1.783755898475647,0.13217489421367645,0
71,0.34723329544067383,-0.4029781222343445,-33.99154281616211,-3.7752349376678467,19.487642288208008,0.2667136788368225,1.783755898475647,-0.13217489421367645,0.0,0.0,0.0,0.0,0.0,0.0,0.0,-0.4073359836442171,0.07474516500861832,-0.23316174469272988,0.4580639082212273,0.20676189597850075,-0.11755080800206194,-0.10497263289358422,1.0546657112648612,0.324304037788458,-0.3925172825361546,-2.153504356517661,0.8647430359456274,2.465989150157408,0.5444916260470776,1.0544104758940245,0.3238615046091247,-0.39250456234122666,-2.153291787532338,0.8647539153680389,2.46587817577521,0.5445020185570556,0.00047649396198177774,0.00019631709648874744,-0.0007846962545090767,0.00010387034083536779,-9.688370388329528e-05,8.463245769378328e-05,0.000934486071492723,0.0,0.0,0.0,0.0,0.0,0.0,0.0,-0.000255235370836715,-0.00044253317933329317,1.2720194927928752e-05,0.00021256898532318047,1.087942241151385e-05,-0.00011097438219787037,1.0392509978029985e-05,-0.00047649396198177774,-0.00019631709648874744,0.0007846962545090767,-0.00010387034083536779,9.688370388329528e-05,-8.463245769378328e-05,-0.000934486071492723,0.4029781222343445,33.99154281616211,3.7752349376678467,-19.487642288208008,-0.2667136788368225,-1.783755898475647,0.13217489421367645,0
72,0.3522481918334961,-0.4029781222343445,-33.99154281616211,-3.7514312267303467,19.459871292114258,0.2603049874305725,1.783755898475647,-0.12485067546367645,0.0,0.0,0.0,0.0,0.0,0.0,0.0,-0.4114905775401493,0.07322451698615978,-0.24204444823227753,0.45714106283882916,0.20745742837058875,-0.11706779737983858,-0.10527318272395418,1.0546657112648612,0.324304037788458,-0.3925189500558253,-2.1535024107287506,0.8647479864972057,2.4659923682994855,0.5444918582622317,1.0544104758940245,0.3238615046091247,-0.39250456234122666,-2.153291787532338,0.8647539153680389,2.46587817577521,0.5445020185570556,-5.9213281988607666e-05,-0.00016270226351120808,-0.0009480490727405717,0.0005121516508515112,-4.663794655139792e-05,0.000242968066576138,0.0003959173353038625,0.0,0.0,0.0,0.0,0.0,0.0,0.0,-0.000255235370836715,-0.00044253317933329317,1.4387714598662615e-05,0.0002106231964127403,5.928870833171729e-06,-0.00011419252427558035,1.0160294823924332e-05,5.9213281988607666e-05,0.00016270226351120808,0.0009480490727405717,-0.0005121516508515112,4.663794655139792e-05,-0.000242968066576138,-0.0003959173353038625,0.4029781222343445,33.99154281616211,3.7514312267303467,-19.459871292114258,-0.2603049874305725,-1.783755898475647,0.12485067546367645,0
73,0.357219934463501,-0.4029781222343445,-33.99154281616211,-3.7514312267303467,19.459871292114258,0.2603049874305725,1.783755898475647,-0.12485067546367645,0.0,0.0,0.0,0.0,0.0,0.0,0.0,-0.4114905775401493,0.07322451698615978,-0.24204444823227753,0.45714106283882916,0.20745742837058875,-0.11706779737983858,-0.10527318272395418,1.0546657112648612,0.324304037788458,-0.3925189500558253,-2.1535024107287506,0.8647479864972057,2.4659923682994855,0.5444918582622317,1.0544104758940245,0.3238615046091247,-0.39250456234122666,-2.153291787532338,0.8647539153680389,2.46587817577521,0.5445020185570556,-5.9213281988607666e-05,-0.00016270226351120808,-0.0009480490727405717,0.0005121516508515112,-4.663794655139792e-05,0.000242968066576138,0.0003959173353038625,0.0,0.0,0.0,0.0,0.0,0.0,0.0,-0.000255235370836715,-0.00044253317933329317,1.4387714598662615e-05,0.0002106231964127403,5.928870833171729e-06,-0.00011419252427558035,1.0160294823924332e-05,5.9213281988607666e-05,0.00016270226351120808,0.0009480490727405717,-0.0005121516508515112,4.663794655139792e-05,-0.000242968066576138,-0.0003959173353038625,0.4029781222343445,33.99154281616211,3.7514312267303467,-19.459871292114258,-0.2603049874305725,-1.783755898475647,0.12485067546367645,0
74,0.36221933364868164,-0.3752071261405945,-33.99154281616211,-3.8228423595428467,19.487642288208008,0.2667136788368225,1.796573281288147,-0.10470907390117645,0.0,0.0,0.0,0.0,0.0,0.0,0.0,-0.41051718739446474,0.07080297430339612,-0.2407170944622621,0.4586661538063146,0.2077194083448465,-0.11659088647242397,-0.10503619237736037,1.0546637624230302,0.32430475315321156,-0.3925139416644282,-2.1535043565181433,0.8647430357841214,2.4659909435179843,0.5444885650349287,1.0544104758940245,0.3238615046091247,-0.39250456234122666,-2.153291787532338,0.8647539153680389,2.46587817577521,0.5445020185570556,-0.0006312175940625256,-0.0001807663557832798,0.0006269246049216886,5.519410848981727e-05,-0.00020181734530329902,-0.00020154427070788423,0.0005386217586981701,0.0,0.0,0.0,0.0,0.0,0.0,0.0,-0.0002532865290056918,-0.00044324854408683834,9.379323201552658e-06,0.00021256898580546135,1.0879583917544622e-05,-0.00011276774277435564,1.345352212689388e-05,0.0006312175940625256,0.0001807663557832798,-0.0006269246049216886,-5.519410848981727e-05,0.00020181734530329902,0.00020154427070788423,-0.0005386217586981701,0.3752071261405945,33.99154281616211,3.8228423595428467,-19.487642288208008,-0.2667136788368225,-1.796573281288147,0.10470907390117645,0
75,0.36722278594970703,-0.3752071261405945,-33.99154281616211,-3.8228423595428467,19.487642288208008,0.2667136788368225,1.796573281288147,-0.10470907390117645,0.0,0.0,0.0,0.0,0.0,0.0,0.0,-0.41051718739446474,0.07080297430339612,-0.2407170944622621,0.4586661538063146,0.2077194083448465,-0.11659088647242397,-0.10503619237736037,1.0546637624230302,0.32430475315321156,-0.3925139416644282,-2.1535043565181433,0.8647430357841214,2.4659909435179843,0.5444885650349287,1.0544104758940245,0.3238615046091247,-0.39250456234122666,-2.153291787532338,0.8647539153680389,2.46587817577521,0.5445020185570556,-0.0006312175940625256,-0.0001807663557832798,0.0006269246049216886,5.519410848981727e-05,-0.00020181734530329902,-0.00020154427070788423,0.0005386217586981701,0.0,0.0,0.0,0.0,0.0,0.0,0.0,-0.0002532865290056918,-0.00044324854408683834,9.379323201552658e-06,0.00021256898580546135,1.0879583917544622e-05,-0.00011276774277435564,1.345352212689388e-05,0.0006312175940625256,0.0001807663557832798,-0.0006269246049216886,-5.519410848981727e-05,0.00020181734530329902,0.00020154427070788423,-0.0005386217586981701,0.3752071261405945,33.99154281616211,3.8228423595428467,-19.487642288208008,-0.2667136788368225,-1.796573281288147,0.10470907390117645,0
76,0.37223243713378906,-0.3752071261405945,-33.99154281616211,-3.8228423595428467,19.487642288208008,0.2667136788368225,1.796573281288147,-0.10470907390117645,0.0,0.0,0.0,0.0,0.0,0.0,0.0,-0.41051718739446474,0.07080297430339612,-0.2407170944622621,0.4586661538063146,0.2077194083448465,-0.11659088647242397,-0.10503619237736037,1.0546637624230302,0.32430475315321156,-0.3925139416644282,-2.1535043565181433,0.8647430357841214,2.4659909435179843,0.5444885650349287,1.0544104758940245,0.3238615046091247,-0.39250456234122666,-2.153291787532338,0.8647539153680389,2.46587817577521,0.5445020185570556,-0.0006312175940625256,-0.0001807663557832798,0.0006269246049216886,5.519410848981727e-05,-0.00020181734530329902,-0.00020154427070788423,0.0005386217586981701,0.0,0.0,0.0,0.0,0.0,0.0,0.0,-0.0002532865290056918,-0.00044324854408683834,9.379323201552658e-06,0.00021256898580546135,1.0879583917544622e-05,-0.00011276774277435564,1.345352212689388e-05,0.0006312175940625256,0.0001807663557832798,-0.0006269246049216886,-5.519410848981727e-05,0.00020181734530329902,0.00020154427070788423,-0.0005386217586981701,0.3752071261405945,33.99154281616211,3.8228423595428467,-19.487642288208008,-0.2667136788368225,-1.796573281288147,0.10470907390117645,0
77,0.37721920013427734,-0.3752071261405945,-33.99154281616211,-3.8228423595428467,19.487642288208008,0.2667136788368225,1.796573281288147,-0.10470907390117645,0.0,0.0,0.0,0.0,0.0,0.0,0.0,-0.41051718739446474,0.07080297430339612,-0.2407170944622621,0.4586661538063146,0.2077194083448465,-0.11659088647242397,-0.10503619237736037,1.0546637624230302,0.32430475315321156,-0.3925139416644282,-2.1535043565181433,0.8647430357841214,2.4659909435179843,0.5444885650349287,1.0544104758940245,0.3238615046091247,-0.39250456234122666,-2.153291787532338,0.8647539153680389,2.46587817577521,0.5445020185570556,-0.0006312175940625256,-0.0001807663557832798,0.0006269246049216886,5.519410848981727e-05,-0.00020181734530329902,-0.00020154427070788423,0.0005386217586981701,0.0,0.0,0.0,0.0,0.0,0.0,0.0,-0.0002532865290056918,-0.00044324854408683834,9.379323201552658e-06,0.00021256898580546135,1.0879583917544622e-05,-0.00011276774277435564,1.345352212689388e-05,0.0006312175940625256,0.0001807663557832798,-0.0006269246049216886,-5.519410848981727e-05,0.00020181734530329902,0.00020154427070788423,-0.0005386217586981701,0.3752071261405945,33.99154281616211,3.8228423595428467,-19.487642288208008,-0.2667136788368225,-1.796573281288147,0.10470907390117645,0
78,0.38222694396972656,-0.3752071261405945,-33.99154281616211,-3.7752349376678467,19.459871292114258,0.2548118233680725,1.796573281288147,-0.06351034343242645,0.0,0.0,0.0,0.0,0.0,0.0,0.0,-0.40467594348045693,0.07732541696500263,-0.2356791974827781,0.4539401636839863,0.2080223519302354,-0.11710457197888802,-0.1035278212701658,1.0546637624230302,0.324304040744012,-0.39251728253615525,-2.1535024076762954,0.8647485968547471,2.4659905995647686,0.5444839830316515,1.0544104758940245,0.3238615046091247,-0.39250456234122666,-2.153291787532338,0.8647539153680389,2.46587817577521,0.5445020185570556,-0.0003292727172965601,-4.6530057245605544e-05,-0.000615955340234064,0.0002933803147038702,0.00035056003886643305,-0.00018407986174841159,-0.0017363117326522847,0.0,0.0,0.0,0.0,0.0,0.0,0.0,-0.0002532865290056918,-0.0004425361348872614,1.2720194928594886e-05,0.0002106201439575628,5.318513291774352e-06,-0.00011242378955866883,1.8035525404136443e-05,0.0003292727172965601,4.6530057245605544e-05,0.000615955340234064,-0.0002933803147038702,-0.00035056003886643305,0.00018407986174841159,0.0017363117326522847,0.3752071261405945,33.99154281616211,3.7752349376678467,-19.459871292114258,-0.2548118233680725,-1.796573281288147,0.06351034343242645,0
79,0.3872213363647461,-0.3752071261405945,-33.99154281616211,-3.7752349376678467,19.459871292114258,0.2548118233680725,1.796573281288147,-0.06351034343242645,0.0,0.0,0.0,0.0,0.0,0.0,0.0,-0.40467594348045693,0.07732541696500263,-0.2356791974827781,0.4539401636839863,0.2080223519302354,-0.11710457197888802,-0.1035278212701658,1.0546637624230302,0.324304040744012,-0.39251728253615525,-2.1535024076762954,0.8647485968547471,2.4659905995647686,0.5444839830316515,1.0544104758940245,0.3238615046091247,-0.39250456234122666,-2.153291787532338,0.8647539153680389,2.46587817577521,0.5445020185570556,-0.0003292727172965601,-4.6530057245605544e-05,-0.000615955340234064,0.0002933803147038702,0.00035056003886643305,-0.00018407986174841159,-0.0017363117326522847,0.0,0.0,0.0,0.0,0.0,0.0,0.0,-0.0002532865290056918,-0.0004425361348872614,1.2720194928594886e-05,0.0002106201439575628,5.318513291774352e-06,-0.00011242378955866883,1.8035525404136443e-05,0.0003292727172965601,4.6530057245605544e-05,0.000615955340234064,-0.0002933803147038702,-0.00035056003886643305,0.00018407986174841159,0.0017363117326522847,0.3752071261405945,33.99154281616211,3.7752349376678467,-19.459871292114258,-0.2548118233680725,-1.796573281288147,0.06351034343242645,0
80,0.39221692085266113,-0.4029781222343445,-34.03915023803711,-3.7752349376678467,19.487642288208008,0.2603049874305725,1.783755898475647,-0.10470907390117645,0.0,0.0,0.0,0.0,0.0,0.0,0.0,-0.40432481803319503,0.06639607804766544,-0.23712421565672068,0.4613361643104213,0.20787466725240153,-0.11549422189069534,-0.10328742082274776,1.0546657112648612,0.3243073796413205,-0.39251728253615525,-2.153504603767023,0.8647469268830029,2.465988731103656,0.5444922107483048,1.0544104758940245,0.3238615046091247,-0.39250456234122666,-2.153291787532338,0.8647539153680389,2.46587817577521,0.5445020185570556,-0.00011242059100114539,0.0008938203445781904,-0.0005475342864771763,0.0001239436028117476,-0.00011537338438492188,0.0001318287460283443,-0.00014450995939267015,0.0,0.0,0.0,0.0,0.0,0.0,0.0,-0.000255235370836715,-0.00044587503219578606,1.2720194928594886e-05,0.00021281623468505373,6.988485035996916e-06,-0.00011055532844617133,9.807808750816882e-06,0.00011242059100114539,-0.0008938203445781904,0.0005475342864771763,-0.0001239436028117476,0.00011537338438492188,-0.0001318287460283443,0.00014450995939267015,0.4029781222343445,34.03915023803711,3.7752349376678467,-19.487642288208008,-0.2603049874305725,-1.783755898475647,0.10470907390117645,0
