rezayati/contactInterpretation/dataset/franka_main/labeled_data/link1/g2_4.csv
index,time,tau_J0,tau_J1,tau_J2,tau_J3,tau_J4,tau_J5,tau_J6,tau_J_d0,tau_J_d1,tau_J_d2,tau_J_d3,tau_J_d4,tau_J_d5,tau_J_d6,tau_ext0,tau_ext1,tau_ext2,tau_ext3,tau_ext4,tau_ext5,tau_ext6,q0,q1,q2,q3,q4,q5,q6,q_d0,q_d1,q_d2,q_d3,q_d4,q_d5,q_d6,dq0,dq1,dq2,dq3,dq4,dq5,dq6,dq_d0,dq_d1,dq_d2,dq_d3,dq_d4,dq_d5,dq_d6,e0,e1,e2,e3,e4,e5,e6,de0,de1,de2,de3,de4,de5,de6,etau_J0,etau_J1,etau_J2,etau_J3,etau_J4,etau_J5,etau_J6,label
1,0.0,-0.3514034152030945,-19.693445205688477,-0.5220611095428467,20.007356643676758,0.6594749093055725,2.4694857597351074,-0.22098104655742645,0.0,0.0,0.0,0.0,0.0,0.0,0.0,-0.36178455432662754,0.048531263970118074,-0.31780161846786004,0.20772026942795355,0.06732810347293104,0.09442895423729138,-0.23894858750644551,1.213623856060926,-0.22023988974094388,-0.007508553851942287,-2.6038536805604635,-0.1088852495153745,2.468183549933963,0.8264723221711417,1.2134413937687574,-0.2202432315892585,-0.0075118285948192216,-2.6038483821997875,-0.10888392708698907,2.4681821257803174,0.826474908251239,-0.0004594019559438166,-0.0006982898575084777,9.644423950500989e-05,-0.0005598541044973416,-0.0003898302990288863,-0.0001577153498979393,-0.000605029784018986,0.0,0.0,0.0,0.0,0.0,0.0,0.0,-0.0001824622921686725,-3.3418483146030464e-06,-3.2747428769346054e-06,5.298360675975999e-06,1.3224283854224028e-06,-1.4241536456793824e-06,2.5860800972887787e-06,0.0004594019559438166,0.0006982898575084777,-9.644423950500989e-05,0.0005598541044973416,0.0003898302990288863,0.0001577153498979393,0.000605029784018986,0.3514034152030945,19.693445205688477,0.5220611095428467,-20.007356643676758,-0.6594749093055725,-2.4694857597351074,0.22098104655742645,0
2,0.004994630813598633,-0.3514034152030945,-19.693445205688477,-0.5220611095428467,20.007356643676758,0.6594749093055725,2.4694857597351074,-0.22098104655742645,0.0,0.0,0.0,0.0,0.0,0.0,0.0,-0.36178455432662754,0.048531263970118074,-0.31780161846786004,0.20772026942795355,0.06732810347293104,0.09442895423729138,-0.23894858750644551,1.213623856060926,-0.22023988974094388,-0.007508553851942287,-2.6038536805604635,-0.1088852495153745,2.468183549933963,0.8264723221711417,1.2134413937687574,-0.2202432315892585,-0.0075118285948192216,-2.6038483821997875,-0.10888392708698907,2.4681821257803174,0.826474908251239,-0.0004594019559438166,-0.0006982898575084777,9.644423950500989e-05,-0.0005598541044973416,-0.0003898302990288863,-0.0001577153498979393,-0.000605029784018986,0.0,0.0,0.0,0.0,0.0,0.0,0.0,-0.0001824622921686725,-3.3418483146030464e-06,-3.2747428769346054e-06,5.298360675975999e-06,1.3224283854224028e-06,-1.4241536456793824e-06,2.5860800972887787e-06,0.0004594019559438166,0.0006982898575084777,-9.644423950500989e-05,0.0005598541044973416,0.0003898302990288863,0.0001577153498979393,0.000605029784018986,0.3514034152030945,19.693445205688477,0.5220611095428467,-20.007356643676758,-0.6594749093055725,-2.4694857597351074,0.22098104655742645,0
3,0.009996175765991211,-0.3514034152030945,-19.693445205688477,-0.5220611095428467,20.007356643676758,0.6594749093055725,2.4694857597351074,-0.22098104655742645,0.0,0.0,0.0,0.0,0.0,0.0,0.0,-0.36178455432662754,0.048531263970118074,-0.31780161846786004,0.20772026942795355,0.06732810347293104,0.09442895423729138,-0.23894858750644551,1.213623856060926,-0.22023988974094388,-0.007508553851942287,-2.6038536805604635,-0.1088852495153745,2.468183549933963,0.8264723221711417,1.2134413937687574,-0.2202432315892585,-0.0075118285948192216,-2.6038483821997875,-0.10888392708698907,2.4681821257803174,0.826474908251239,-0.0004594019559438166,-0.0006982898575084777,9.644423950500989e-05,-0.0005598541044973416,-0.0003898302990288863,-0.0001577153498979393,-0.000605029784018986,0.0,0.0,0.0,0.0,0.0,0.0,0.0,-0.0001824622921686725,-3.3418483146030464e-06,-3.2747428769346054e-06,5.298360675975999e-06,1.3224283854224028e-06,-1.4241536456793824e-06,2.5860800972887787e-06,0.0004594019559438166,0.0006982898575084777,-9.644423950500989e-05,0.0005598541044973416,0.0003898302990288863,0.0001577153498979393,0.000605029784018986,0.3514034152030945,19.693445205688477,0.5220611095428467,-20.007356643676758,-0.6594749093055725,-2.4694857597351074,0.22098104655742645,0
4,0.014993429183959961,-0.3752071261405945,-19.693445205688477,-0.4982573688030243,19.931978225708008,0.6539817452430725,2.4758944511413574,-0.27591270208358765,0.0,0.0,0.0,0.0,0.0,0.0,0.0,-0.361850470299586,0.0576912514850341,-0.31524875755232346,0.2016701597228767,0.066945146991224,0.09336540376107764,-0.23804416422544994,1.213625433428967,-0.22023988974094388,-0.007510303198911138,-2.6038483908469217,-0.10888463932607463,2.46818283785714,0.826480526559329,1.2134413937687574,-0.2202432315892585,-0.0075118285948192216,-2.6038483821997875,-0.10888392708698907,2.4681821257803174,0.826474908251239,0.0005333266998967943,7.181513058427244e-05,-0.0003485434492058585,0.0018138053718344156,-3.09762109714285e-05,-0.0003000730019372163,0.0015494335872697567,0.0,0.0,0.0,0.0,0.0,0.0,0.0,-0.0001840396602095229,-3.3418483146030464e-06,-1.5253959080837112e-06,8.647134119854627e-09,7.122390855568428e-07,-7.120768228396912e-07,-5.618308089982982e-06,-0.0005333266998967943,-7.181513058427244e-05,0.0003485434492058585,-0.0018138053718344156,3.09762109714285e-05,0.0003000730019372163,-0.0015494335872697567,0.3752071261405945,19.693445205688477,0.4982573688030243,-19.931978225708008,-0.6539817452430725,-2.4758944511413574,0.27591270208358765,0
5,0.01999378204345703,-0.3752071261405945,-19.693445205688477,-0.4982573688030243,19.931978225708008,0.6539817452430725,2.4758944511413574,-0.27591270208358765,0.0,0.0,0.0,0.0,0.0,0.0,0.0,-0.361850470299586,0.0576912514850341,-0.31524875755232346,0.2016701597228767,0.066945146991224,0.09336540376107764,-0.23804416422544994,1.213625433428967,-0.22023988974094388,-0.007510303198911138,-2.6038483908469217,-0.10888463932607463,2.46818283785714,0.826480526559329,1.2134413937687574,-0.2202432315892585,-0.0075118285948192216,-2.6038483821997875,-0.10888392708698907,2.4681821257803174,0.826474908251239,0.0005333266998967943,7.181513058427244e-05,-0.0003485434492058585,0.0018138053718344156,-3.09762109714285e-05,-0.0003000730019372163,0.0015494335872697567,0.0,0.0,0.0,0.0,0.0,0.0,0.0,-0.0001840396602095229,-3.3418483146030464e-06,-1.5253959080837112e-06,8.647134119854627e-09,7.122390855568428e-07,-7.120768228396912e-07,-5.618308089982982e-06,-0.0005333266998967943,-7.181513058427244e-05,0.0003485434492058585,-0.0018138053718344156,3.09762109714285e-05,0.0003000730019372163,-0.0015494335872697567,0.3752071261405945,19.693445205688477,0.4982573688030243,-19.931978225708008,-0.6539817452430725,-2.4758944511413574,0.27591270208358765,0
6,0.02499675750732422,-0.3514034152030945,-19.669641494750977,-0.5220611095428467,20.007356643676758,0.6539817452430725,2.4694857597351074,-0.22098104655742645,0.0,0.0,0.0,0.0,0.0,0.0,0.0,-0.36553460066668564,0.06422816440783609,-0.320124669978495,0.19657524046313873,0.06753201962649115,0.09217954282584444,-0.23851239269816546,1.2136208021107349,-0.22024156017679913,-0.007506502205800066,-2.6038536805604635,-0.10888463916381291,2.46818358917982,0.826471557837197,1.2134413937687574,-0.2202432315892585,-0.0075118285948192216,-2.6038483821997875,-0.10888392708698907,2.4681821257803174,0.826474908251239,-0.00045265470334878224,2.3668890971249627e-05,0.00040041845572904265,-0.0002946569726492674,-0.00010579952151648902,0.004440183504045539,-0.0009172002407343211,0.0,0.0,0.0,0.0,0.0,0.0,0.0,-0.0001794083419774939,-1.6714124593530943e-06,-5.3263890191553726e-06,5.298360675975999e-06,7.120768238388919e-07,-1.4633995024659896e-06,3.350414042091465e-06,0.00045265470334878224,-2.3668890971249627e-05,-0.00040041845572904265,0.0002946569726492674,0.00010579952151648902,-0.004440183504045539,0.0009172002407343211,0.3514034152030945,19.669641494750977,0.5220611095428467,-20.007356643676758,-0.6539817452430725,-2.4694857597351074,0.22098104655742645,0
7,0.03000473976135254,-0.3514034152030945,-19.669641494750977,-0.5220611095428467,20.007356643676758,0.6539817452430725,2.4694857597351074,-0.22098104655742645,0.0,0.0,0.0,0.0,0.0,0.0,0.0,-0.36553460066668564,0.06422816440783609,-0.320124669978495,0.19657524046313873,0.06753201962649115,0.09217954282584444,-0.23851239269816546,1.2136208021107349,-0.22024156017679913,-0.007506502205800066,-2.6038536805604635,-0.10888463916381291,2.46818358917982,0.826471557837197,1.2134413937687574,-0.2202432315892585,-0.0075118285948192216,-2.6038483821997875,-0.10888392708698907,2.4681821257803174,0.826474908251239,-0.00045265470334878224,2.3668890971249627e-05,0.00040041845572904265,-0.0002946569726492674,-0.00010579952151648902,0.004440183504045539,-0.0009172002407343211,0.0,0.0,0.0,0.0,0.0,0.0,0.0,-0.0001794083419774939,-1.6714124593530943e-06,-5.3263890191553726e-06,5.298360675975999e-06,7.120768238388919e-07,-1.4633995024659896e-06,3.350414042091465e-06,0.00045265470334878224,-2.3668890971249627e-05,-0.00040041845572904265,0.0002946569726492674,0.00010579952151648902,-0.004440183504045539,0.0009172002407343211,0.3514034152030945,19.669641494750977,0.5220611095428467,-20.007356643676758,-0.6539817452430725,-2.4694857597351074,0.22098104655742645,0
8,0.03502488136291504,-0.3752071261405945,-19.693445205688477,-0.5220611095428467,20.007356643676758,0.6475730538368225,2.4630770683288574,-0.23471395671367645,0.0,0.0,0.0,0.0,0.0,0.0,0.0,-0.3642849589040958,0.06381566344724529,-0.3195190626939281,0.20253356352653182,0.06721718675025687,0.0940845536880775,-0.23937665035583372,1.2136232888921459,-0.22023988974094388,-0.007508632749382882,-2.6038536805604635,-0.10888392708698909,2.4681842620110075,0.8264769035761402,1.2134413937687574,-0.2202432315892585,-0.0075118285948192216,-2.6038483821997875,-0.10888392708698907,2.4681821257803174,0.826474908251239,-4.353048518840735e-06,0.000609872821012529,0.00046447653341814496,-0.0004569259989662104,0.00016272875920238748,1.8375762257889756e-05,-0.00029925816651119784,0.0,0.0,0.0,0.0,0.0,0.0,0.0,-0.0001818951233885091,-3.3418483146030464e-06,-3.195845436339967e-06,5.298360675975999e-06,1.3877787807814457e-17,-2.1362306901195893e-06,-1.995324901193918e-06,4.353048518840735e-06,-0.000609872821012529,-0.00046447653341814496,0.0004569259989662104,-0.00016272875920238748,-1.8375762257889756e-05,0.00029925816651119784,0.3752071261405945,19.693445205688477,0.5220611095428467,-20.007356643676758,-0.6475730538368225,-2.4630770683288574,0.23471395671367645,0
9,0.03994560241699219,-0.3752071261405945,-19.693445205688477,-0.5220611095428467,20.007356643676758,0.6475730538368225,2.4630770683288574,-0.23471395671367645,0.0,0.0,0.0,0.0,0.0,0.0,0.0,-0.3642849589040958,0.06381566344724529,-0.3195190626939281,0.20253356352653182,0.06721718675025687,0.0940845536880775,-0.23937665035583372,1.2136232888921459,-0.22023988974094388,-0.007508632749382882,-2.6038536805604635,-0.10888392708698909,2.4681842620110075,0.8264769035761402,1.2134413937687574,-0.2202432315892585,-0.0075118285948192216,-2.6038483821997875,-0.10888392708698907,2.4681821257803174,0.826474908251239,-4.353048518840735e-06,0.000609872821012529,0.00046447653341814496,-0.0004569259989662104,0.00016272875920238748,1.8375762257889756e-05,-0.00029925816651119784,0.0,0.0,0.0,0.0,0.0,0.0,0.0,-0.0001818951233885091,-3.3418483146030464e-06,-3.195845436339967e-06,5.298360675975999e-06,1.3877787807814457e-17,-2.1362306901195893e-06,-1.995324901193918e-06,4.353048518840735e-06,-0.000609872821012529,-0.00046447653341814496,0.0004569259989662104,-0.00016272875920238748,-1.8375762257889756e-05,0.00029925816651119784,0.3752071261405945,19.693445205688477,0.5220611095428467,-20.007356643676758,-0.6475730538368225,-2.4630770683288574,0.23471395671367645,0
10,0.044996023178100586,-0.3752071261405945,-19.669641494750977,-0.5458648204803467,19.983552932739258,0.6475730538368225,2.4630770683288574,-0.23471395671367645,0.0,0.0,0.0,0.0,0.0,0.0,0.0,-0.36447129643373477,0.04850416527466625,-0.31991387554316353,0.22132056376239323,0.06686224159199054,0.09846786704320898,-0.23954448767096767,1.2136255162848502,-0.22024156017679913,-0.0075069623255546,-2.603852010124608,-0.10888392708698909,2.4681842620107863,0.8264731363723122,1.2134413937687574,-0.2202432315892585,-0.0075118285948192216,-2.6038483821997875,-0.10888392708698907,2.4681821257803174,0.826474908251239,0.0005160443572346204,-0.0008381437553195147,0.00018680590604270523,0.0001023381709553967,0.00019709545530734206,-0.0004966510756141196,-0.0004883470921717927,0.0,0.0,0.0,0.0,0.0,0.0,0.0,-0.0001841225160927884,-1.6714124593530943e-06,-4.866269264621956e-06,3.627924820559514e-06,1.3877787807814457e-17,-2.136230468963163e-06,1.7718789268039714e-06,-0.0005160443572346204,0.0008381437553195147,-0.00018680590604270523,-0.0001023381709553967,-0.00019709545530734206,0.0004966510756141196,0.0004883470921717927,0.3752071261405945,19.669641494750977,0.5458648204803467,-19.983552932739258,-0.6475730538368225,-2.4630770683288574,0.23471395671367645,0
11,0.049993276596069336,-0.3752071261405945,-19.669641494750977,-0.5458648204803467,19.983552932739258,0.6475730538368225,2.4630770683288574,-0.23471395671367645,0.0,0.0,0.0,0.0,0.0,0.0,0.0,-0.36447129643373477,0.04850416527466625,-0.31991387554316353,0.22132056376239323,0.06686224159199054,0.09846786704320898,-0.23954448767096767,1.2136255162848502,-0.22024156017679913,-0.0075069623255546,-2.603852010124608,-0.10888392708698909,2.4681842620107863,0.8264731363723122,1.2134413937687574,-0.2202432315892585,-0.0075118285948192216,-2.6038483821997875,-0.10888392708698907,2.4681821257803174,0.826474908251239,0.0005160443572346204,-0.0008381437553195147,0.00018680590604270523,0.0001023381709553967,0.00019709545530734206,-0.0004966510756141196,-0.0004883470921717927,0.0,0.0,0.0,0.0,0.0,0.0,0.0,-0.0001841225160927884,-1.6714124593530943e-06,-4.866269264621956e-06,3.627924820559514e-06,1.3877787807814457e-17,-2.136230468963163e-06,1.7718789268039714e-06,-0.0005160443572346204,0.0008381437553195147,-0.00018680590604270523,-0.0001023381709553967,-0.00019709545530734206,0.0004966510756141196,0.0004883470921717927,0.3752071261405945,19.669641494750977,0.5458648204803467,-19.983552932739258,-0.6475730538368225,-2.4630770683288574,0.23471395671367645,0
12,0.05501079559326172,-0.4029781222343445,-19.594263076782227,-0.4982573688030243,19.983552932739258,0.6539817452430725,2.4694857597351074,-0.22098104655742645,0.0,0.0,0.0,0.0,0.0,0.0,0.0,-0.36231481203870364,0.061903568758112204,-0.32118275226261,0.2068885900999024,0.06695219470438622,0.09517415243867712,-0.24032460837260122,1.2136277221107878,-0.22024684989034082,-0.007510224289889553,-2.603852010124608,-0.108884639163812,2.4681835499339635,0.8264712059006549,1.2134413937687574,-0.2202432315892585,-0.0075118285948192216,-2.6038483821997875,-0.10888392708698907,2.4681821257803174,0.826474908251239,0.0007943326645265953,-0.002025378482558974,-0.0010357728652851026,-0.00013471240130517786,3.3436998417954245e-05,0.0003170098015240172,-0.0010605436200877456,0.0,0.0,0.0,0.0,0.0,0.0,0.0,-0.00018632834203047288,3.618301082336517e-06,-1.6043049296688566e-06,3.627924820559514e-06,7.120768229229579e-07,-1.4241536461234716e-06,3.7023505841116133e-06,-0.0007943326645265953,0.002025378482558974,0.0010357728652851026,0.00013471240130517786,-3.3436998417954245e-05,-0.0003170098015240172,0.0010605436200877456,0.4029781222343445,19.594263076782227,0.4982573688030243,-19.983552932739258,-0.6539817452430725,-2.4694857597351074,0.22098104655742645,0
13,0.06000208854675293,-0.4029781222343445,-19.594263076782227,-0.4982573688030243,19.983552932739258,0.6539817452430725,2.4694857597351074,-0.22098104655742645,0.0,0.0,0.0,0.0,0.0,0.0,0.0,-0.36231481203870364,0.061903568758112204,-0.32118275226261,0.2068885900999024,0.06695219470438622,0.09517415243867712,-0.24032460837260122,1.2136277221107878,-0.22024684989034082,-0.007510224289889553,-2.603852010124608,-0.108884639163812,2.4681835499339635,0.8264712059006549,1.2134413937687574,-0.2202432315892585,-0.0075118285948192216,-2.6038483821997875,-0.10888392708698907,2.4681821257803174,0.826474908251239,0.0007943326645265953,-0.002025378482558974,-0.0010357728652851026,-0.00013471240130517786,3.3436998417954245e-05,0.0003170098015240172,-0.0010605436200877456,0.0,0.0,0.0,0.0,0.0,0.0,0.0,-0.00018632834203047288,3.618301082336517e-06,-1.6043049296688566e-06,3.627924820559514e-06,7.120768229229579e-07,-1.4241536461234716e-06,3.7023505841116133e-06,-0.0007943326645265953,0.002025378482558974,0.0010357728652851026,0.00013471240130517786,-3.3436998417954245e-05,-0.0003170098015240172,0.0010605436200877456,0.4029781222343445,19.594263076782227,0.4982573688030243,-19.983552932739258,-0.6539817452430725,-2.4694857597351074,0.22098104655742645,0
14,0.06502056121826172,-0.3514034152030945,-19.669641494750977,-0.5220611095428467,19.955781936645508,0.6594749093055725,2.4694857597351074,-0.26217979192733765,0.0,0.0,0.0,0.0,0.0,0.0,0.0,-0.3584981672533805,0.05279449080668733,-0.3154578975960291,0.21118031730582887,0.06718880364227844,0.09643816371906372,-0.239888011117932,1.2136240085475927,-0.22024156017679913,-0.007508632760964484,-2.603850061282777,-0.10888524967763713,2.4681835499339635,0.8264772391327289,1.2134413937687574,-0.2202432315892585,-0.0075118285948192216,-2.6038483821997875,-0.10888392708698907,2.4681821257803174,0.826474908251239,-4.638254323337996e-05,-0.0007816386289027335,0.0007297770239700963,0.001110571889752218,-5.8342319471947436e-05,5.431832185146617e-06,0.0006139364412531382,0.0,0.0,0.0,0.0,0.0,0.0,0.0,-0.00018261477883529942,-1.6714124593530943e-06,-3.19583385473797e-06,1.6790829895363402e-06,1.3225906480562877e-06,-1.4241536461234716e-06,-2.3308814898204133e-06,4.638254323337996e-05,0.0007816386289027335,-0.0007297770239700963,-0.001110571889752218,5.8342319471947436e-05,-5.431832185146617e-06,-0.0006139364412531382,0.3514034152030945,19.669641494750977,0.5220611095428467,-19.955781936645508,-0.6594749093055725,-2.4694857597351074,0.26217979192733765,0
15,0.07002091407775879,-0.3514034152030945,-19.669641494750977,-0.5220611095428467,19.955781936645508,0.6594749093055725,2.4694857597351074,-0.26217979192733765,0.0,0.0,0.0,0.0,0.0,0.0,0.0,-0.3584981672533805,0.05279449080668733,-0.3154578975960291,0.21118031730582887,0.06718880364227844,0.09643816371906372,-0.239888011117932,1.2136240085475927,-0.22024156017679913,-0.007508632760964484,-2.603850061282777,-0.10888524967763713,2.4681835499339635,0.8264772391327289,1.2134413937687574,-0.2202432315892585,-0.0075118285948192216,-2.6038483821997875,-0.10888392708698907,2.4681821257803174,0.826474908251239,-4.638254323337996e-05,-0.0007816386289027335,0.0007297770239700963,0.001110571889752218,-5.8342319471947436e-05,5.431832185146617e-06,0.0006139364412531382,0.0,0.0,0.0,0.0,0.0,0.0,0.0,-0.00018261477883529942,-1.6714124593530943e-06,-3.19583385473797e-06,1.6790829895363402e-06,1.3225906480562877e-06,-1.4241536461234716e-06,-2.3308814898204133e-06,4.638254323337996e-05,0.0007816386289027335,-0.0007297770239700963,-0.001110571889752218,5.8342319471947436e-05,-5.431832185146617e-06,-0.0006139364412531382,0.3514034152030945,19.669641494750977,0.5220611095428467,-19.955781936645508,-0.6594749093055725,-2.4694857597351074,0.26217979192733765,0
16,0.07500600814819336,-0.4029781222343445,-19.693445205688477,-0.5696685314178467,19.955781936645508,0.6475730538368225,2.4566683769226074,-0.23471395671367645,0.0,0.0,0.0,0.0,0.0,0.0,0.0,-0.3659556111388998,0.06800592991666098,-0.3201713288084807,0.19503330516585643,0.0686186445753163,0.09270918956759439,-0.23882518189840088,1.2136274722625695,-0.2202398897049416,-0.007505291889699401,-2.603850061282777,-0.10888392708699,2.468184974087609,0.8264773283958886,1.2134413937687574,-0.2202432315892585,-0.0075118285948192216,-2.6038483821997875,-0.10888392708698907,2.4681821257803174,0.826474908251239,0.0007619287334377794,0.0005597416496230269,0.0014768616038495364,0.00030543538527395207,0.0002747498027532799,0.00477305799864377,-0.0005161260763942313,0.0,0.0,0.0,0.0,0.0,0.0,0.0,-0.00018607849381213626,-3.3418843168875334e-06,-6.5367051198207335e-06,1.6790829895363402e-06,9.298117831235686e-16,-2.848307291802854e-06,-2.420144649573075e-06,-0.0007619287334377794,-0.0005597416496230269,-0.0014768616038495364,-0.00030543538527395207,-0.0002747498027532799,-0.00477305799864377,0.0005161260763942313,0.4029781222343445,19.693445205688477,0.5696685314178467,-19.955781936645508,-0.6475730538368225,-2.4566683769226074,0.23471395671367645,0
17,0.0800025463104248,-0.4029781222343445,-19.693445205688477,-0.5696685314178467,19.955781936645508,0.6475730538368225,2.4566683769226074,-0.23471395671367645,0.0,0.0,0.0,0.0,0.0,0.0,0.0,-0.3659556111388998,0.06800592991666098,-0.3201713288084807,0.19503330516585643,0.0686186445753163,0.09270918956759439,-0.23882518189840088,1.2136274722625695,-0.2202398897049416,-0.007505291889699401,-2.603850061282777,-0.10888392708699,2.468184974087609,0.8264773283958886,1.2134413937687574,-0.2202432315892585,-0.0075118285948192216,-2.6038483821997875,-0.10888392708698907,2.4681821257803174,0.826474908251239,0.0007619287334377794,0.0005597416496230269,0.0014768616038495364,0.00030543538527395207,0.0002747498027532799,0.00477305799864377,-0.0005161260763942313,0.0,0.0,0.0,0.0,0.0,0.0,0.0,-0.00018607849381213626,-3.3418843168875334e-06,-6.5367051198207335e-06,1.6790829895363402e-06,9.298117831235686e-16,-2.848307291802854e-06,-2.420144649573075e-06,-0.0007619287334377794,-0.0005597416496230269,-0.0014768616038495364,-0.00030543538527395207,-0.0002747498027532799,-0.00477305799864377,0.0005161260763942313,0.4029781222343445,19.693445205688477,0.5696685314178467,-19.955781936645508,-0.6475730538368225,-2.4566683769226074,0.23471395671367645,0
18,0.0850064754486084,-0.3752071261405945,-19.669641494750977,-0.5696685314178467,20.007356643676758,0.6475730538368225,2.4630770683288574,-0.27591270208358765,0.0,0.0,0.0,0.0,0.0,0.0,0.0,-0.3660666284321225,0.06061493143445005,-0.31518047609239386,0.2031405382403646,0.06917877156144901,0.09487044808052726,-0.23915244851759154,1.2136254131169306,-0.22024156017679894,-0.007505212980232372,-2.6038536805604635,-0.10888392708698909,2.4681842620107863,0.8264818997532766,1.2134413937687574,-0.2202432315892585,-0.0075118285948192216,-2.6038483821997875,-0.10888392708698907,2.4681821257803174,0.826474908251239,7.403676985152214e-05,5.023423316626466e-05,0.0018091859381125935,-0.00044479886341566047,0.00014841024747270457,0.0005101356287043125,0.001432897435642157,0.0,0.0,0.0,0.0,0.0,0.0,0.0,-0.00018401934817324772,-1.6714124595473834e-06,-6.615614586849908e-06,5.298360675975999e-06,1.3877787807814457e-17,-2.136230468963163e-06,-6.991502037534403e-06,-7.403676985152214e-05,-5.023423316626466e-05,-0.0018091859381125935,0.00044479886341566047,-0.00014841024747270457,-0.0005101356287043125,-0.001432897435642157,0.3752071261405945,19.669641494750977,0.5696685314178467,-20.007356643676758,-0.6475730538368225,-2.4630770683288574,0.27591270208358765,0
19,0.08999156951904297,-0.3752071261405945,-19.669641494750977,-0.5696685314178467,20.007356643676758,0.6475730538368225,2.4630770683288574,-0.27591270208358765,0.0,0.0,0.0,0.0,0.0,0.0,0.0,-0.3660666284321225,0.06061493143445005,-0.31518047609239386,0.2031405382403646,0.06917877156144901,0.09487044808052726,-0.23915244851759154,1.2136254131169306,-0.22024156017679894,-0.007505212980232372,-2.6038536805604635,-0.10888392708698909,2.4681842620107863,0.8264818997532766,1.2134413937687574,-0.2202432315892585,-0.0075118285948192216,-2.6038483821997875,-0.10888392708698907,2.4681821257803174,0.826474908251239,7.403676985152214e-05,5.023423316626466e-05,0.0018091859381125935,-0.00044479886341566047,0.00014841024747270457,0.0005101356287043125,0.001432897435642157,0.0,0.0,0.0,0.0,0.0,0.0,0.0,-0.00018401934817324772,-1.6714124595473834e-06,-6.615614586849908e-06,5.298360675975999e-06,1.3877787807814457e-17,-2.136230468963163e-06,-6.991502037534403e-06,-7.403676985152214e-05,-5.023423316626466e-05,-0.0018091859381125935,0.00044479886341566047,-0.00014841024747270457,-0.0005101356287043125,-0.001432897435642157,0.3752071261405945,19.669641494750977,0.5696685314178467,-20.007356643676758,-0.6475730538368225,-2.4630770683288574,0.27591270208358765,0
20,0.09501004219055176,-0.3514034152030945,-19.669641494750977,-0.4704863727092743,19.983552932739258,0.6539817452430725,2.4694857597351074,-0.20724813640117645,0.0,0.0,0.0,0.0,0.0,0.0,0.0,-0.37041850361001205,0.059405064364392475,-0.31676021696138457,0.2083343773701891,0.06925537462764811,0.09609840676879754,-0.2397445306173228,1.213623082407945,-0.22024156017679913,-0.007512252040742278,-2.603852010124608,-0.108884639163812,2.4681835499339635,0.8264741981102234,1.2134413937687574,-0.2202432315892585,-0.0075118285948192216,-2.6038483821997875,-0.10888392708698907,2.4681821257803174,0.826474908251239,-0.0004305886908446352,4.5399929604172296e-05,-0.0012575875489591502,1.136900489588031e-05,5.590355276003496e-05,-8.279640712893756e-05,-0.001560427348518061,0.0,0.0,0.0,0.0,0.0,0.0,0.0,-0.00018168863918766043,-1.6714124593530943e-06,4.2344592305655626e-07,3.627924820559514e-06,7.120768229229579e-07,-1.4241536461234716e-06,7.10141015658472e-07,0.0004305886908446352,-4.5399929604172296e-05,0.0012575875489591502,-1.136900489588031e-05,-5.590355276003496e-05,8.279640712893756e-05,0.001560427348518061,0.3514034152030945,19.669641494750977,0.4704863727092743,-19.983552932739258,-0.6539817452430725,-2.4694857597351074,0.20724813640117645,0
21,0.10000252723693848,-0.3514034152030945,-19.669641494750977,-0.4704863727092743,19.983552932739258,0.6539817452430725,2.4694857597351074,-0.20724813640117645,0.0,0.0,0.0,0.0,0.0,0.0,0.0,-0.37041850361001205,0.059405064364392475,-0.31676021696138457,0.2083343773701891,0.06925537462764811,0.09609840676879754,-0.2397445306173228,1.213623082407945,-0.22024156017679913,-0.007512252040742278,-2.603852010124608,-0.108884639163812,2.4681835499339635,0.8264741981102234,1.2134413937687574,-0.2202432315892585,-0.0075118285948192216,-2.6038483821997875,-0.10888392708698907,2.4681821257803174,0.826474908251239,-0.0004305886908446352,4.5399929604172296e-05,-0.0012575875489591502,1.136900489588031e-05,5.590355276003496e-05,-8.279640712893756e-05,-0.001560427348518061,0.0,0.0,0.0,0.0,0.0,0.0,0.0,-0.00018168863918766043,-1.6714124593530943e-06,4.2344592305655626e-07,3.627924820559514e-06,7.120768229229579e-07,-1.4241536461234716e-06,7.10141015658472e-07,0.0004305886908446352,-4.5399929604172296e-05,0.0012575875489591502,-1.136900489588031e-05,-5.590355276003496e-05,8.279640712893756e-05,0.001560427348518061,0.3514034152030945,19.669641494750977,0.4704863727092743,-19.983552932739258,-0.6539817452430725,-2.4694857597351074,0.20724813640117645,0
22,0.10501575469970703,-0.3514034152030945,-19.669641494750977,-0.4704863727092743,19.983552932739258,0.6539817452430725,2.4694857597351074,-0.20724813640117645,0.0,0.0,0.0,0.0,0.0,0.0,0.0,-0.37041850361001205,0.059405064364392475,-0.31676021696138457,0.2083343773701891,0.06925537462764811,0.09609840676879754,-0.2397445306173228,1.213623082407945,-0.22024156017679913,-0.007512252040742278,-2.603852010124608,-0.108884639163812,2.4681835499339635,0.8264741981102234,1.2134413937687574,-0.2202432315892585,-0.0075118285948192216,-2.6038483821997875,-0.10888392708698907,2.4681821257803174,0.826474908251239,-0.0004305886908446352,4.5399929604172296e-05,-0.0012575875489591502,1.136900489588031e-05,5.590355276003496e-05,-8.279640712893756e-05,-0.001560427348518061,0.0,0.0,0.0,0.0,0.0,0.0,0.0,-0.00018168863918766043,-1.6714124593530943e-06,4.2344592305655626e-07,3.627924820559514e-06,7.120768229229579e-07,-1.4241536461234716e-06,7.10141015658472e-07,0.0004305886908446352,-4.5399929604172296e-05,0.0012575875489591502,-1.136900489588031e-05,-5.590355276003496e-05,8.279640712893756e-05,0.001560427348518061,0.3514034152030945,19.669641494750977,0.4704863727092743,-19.983552932739258,-0.6539817452430725,-2.4694857597351074,0.20724813640117645,0
23,0.11001896858215332,-0.3514034152030945,-19.669641494750977,-0.4704863727092743,19.983552932739258,0.6539817452430725,2.4694857597351074,-0.20724813640117645,0.0,0.0,0.0,0.0,0.0,0.0,0.0,-0.37041850361001205,0.059405064364392475,-0.31676021696138457,0.2083343773701891,0.06925537462764811,0.09609840676879754,-0.2397445306173228,1.213623082407945,-0.22024156017679913,-0.007512252040742278,-2.603852010124608,-0.108884639163812,2.4681835499339635,0.8264741981102234,1.2134413937687574,-0.2202432315892585,-0.0075118285948192216,-2.6038483821997875,-0.10888392708698907,2.4681821257803174,0.826474908251239,-0.0004305886908446352,4.5399929604172296e-05,-0.0012575875489591502,1.136900489588031e-05,5.590355276003496e-05,-8.279640712893756e-05,-0.001560427348518061,0.0,0.0,0.0,0.0,0.0,0.0,0.0,-0.00018168863918766043,-1.6714124593530943e-06,4.2344592305655626e-07,3.627924820559514e-06,7.120768229229579e-07,-1.4241536461234716e-06,7.10141015658472e-07,0.0004305886908446352,-4.5399929604172296e-05,0.0012575875489591502,-1.136900489588031e-05,-5.590355276003496e-05,8.279640712893756e-05,0.001560427348518061,0.3514034152030945,19.669641494750977,0.4704863727092743,-19.983552932739258,-0.6539817452430725,-2.4694857597351074,0.20724813640117645,0
24,0.11501026153564453,-0.3752071261405945,-19.669641494750977,-0.4982573688030243,19.983552932739258,0.6594749093055725,2.4823031425476074,-0.26858848333358765,0.0,0.0,0.0,0.0,0.0,0.0,0.0,-0.3670376428318902,0.06142734512738245,-0.3123478341673361,0.20771029781274553,0.06953029343190187,0.09563859599330714,-0.24001986446494042,1.2136246744183457,-0.22024156017679913,-0.007510303199356582,-2.603852010124608,-0.1088852495153745,2.4681821257803174,0.8264779593103355,1.2134413937687574,-0.2202432315892585,-0.0075118285948192216,-2.6038483821997875,-0.10888392708698907,2.4681821257803174,0.826474908251239,0.0005150723805474604,-0.00016391895896687416,-0.00032529382402543783,-6.72843402326954e-05,-2.254561249355273e-05,-0.0008493454452984843,0.0016918924269995117,0.0,0.0,0.0,0.0,0.0,0.0,0.0,-0.00018328064958827994,-1.6714124593530943e-06,-1.5253954626396823e-06,3.627924820559514e-06,1.3224283854224028e-06,0.0,-3.051059096481623e-06,-0.0005150723805474604,0.00016391895896687416,0.00032529382402543783,6.72843402326954e-05,2.254561249355273e-05,0.0008493454452984843,-0.0016918924269995117,0.3752071261405945,19.669641494750977,0.4982573688030243,-19.983552932739258,-0.6594749093055725,-2.4823031425476074,0.26858848333358765,0
25,0.1200249195098877,-0.3752071261405945,-19.669641494750977,-0.4982573688030243,19.983552932739258,0.6594749093055725,2.4823031425476074,-0.26858848333358765,0.0,0.0,0.0,0.0,0.0,0.0,0.0,-0.3670376428318902,0.06142734512738245,-0.3123478341673361,0.20771029781274553,0.06953029343190187,0.09563859599330714,-0.24001986446494042,1.2136246744183457,-0.22024156017679913,-0.007510303199356582,-2.603852010124608,-0.1088852495153745,2.4681821257803174,0.8264779593103355,1.2134413937687574,-0.2202432315892585,-0.0075118285948192216,-2.6038483821997875,-0.10888392708698907,2.4681821257803174,0.826474908251239,0.0005150723805474604,-0.00016391895896687416,-0.00032529382402543783,-6.72843402326954e-05,-2.254561249355273e-05,-0.0008493454452984843,0.0016918924269995117,0.0,0.0,0.0,0.0,0.0,0.0,0.0,-0.00018328064958827994,-1.6714124593530943e-06,-1.5253954626396823e-06,3.627924820559514e-06,1.3224283854224028e-06,0.0,-3.051059096481623e-06,-0.0005150723805474604,0.00016391895896687416,0.00032529382402543783,6.72843402326954e-05,2.254561249355273e-05,0.0008493454452984843,-0.0016918924269995117,0.3752071261405945,19.669641494750977,0.4982573688030243,-19.983552932739258,-0.6594749093055725,-2.4823031425476074,0.26858848333358765,0
26,0.1250011920928955,-0.3236324191093445,-19.693445205688477,-0.5458648204803467,19.983552932739258,0.6539817452430725,2.4823031425476074,-0.23471395671367645,0.0,0.0,0.0,0.0,0.0,0.0,0.0,-0.36417912266837127,0.058080682152339635,-0.30882125105903335,0.20714582746425206,0.06863411343300822,0.09538755957721776,-0.23887190650165388,1.2136213018114321,-0.22023988974094388,-0.007506962325554667,-2.603852010124608,-0.108884639163812,2.4681821257803174,0.8264758481613035,1.2134413937687574,-0.2202432315892585,-0.0075118285948192216,-2.6038483821997875,-0.10888392708698907,2.4681821257803174,0.826474908251239,-0.001189648275837694,0.00018706130302629173,0.0011118305217056614,-9.691085905834884e-05,0.0011098364173837121,-0.0008255636837503105,-0.0002044204791886618,0.0,0.0,0.0,0.0,0.0,0.0,0.0,-0.00017990804267475902,-3.3418483146030464e-06,-4.8662692645543015e-06,3.627924820559514e-06,7.120768229229579e-07,0.0,-9.399100644458258e-07,0.001189648275837694,-0.00018706130302629173,-0.0011118305217056614,9.691085905834884e-05,-0.0011098364173837121,0.0008255636837503105,0.0002044204791886618,0.3236324191093445,19.693445205688477,0.5458648204803467,-19.983552932739258,-0.6539817452430725,-2.4823031425476074,0.23471395671367645,0
27,0.13000845909118652,-0.3236324191093445,-19.693445205688477,-0.5458648204803467,19.983552932739258,0.6539817452430725,2.4823031425476074,-0.23471395671367645,0.0,0.0,0.0,0.0,0.0,0.0,0.0,-0.36417912266837127,0.058080682152339635,-0.30882125105903335,0.20714582746425206,0.06863411343300822,0.09538755957721776,-0.23887190650165388,1.2136213018114321,-0.22023988974094388,-0.007506962325554667,-2.603852010124608,-0.108884639163812,2.4681821257803174,0.8264758481613035,1.2134413937687574,-0.2202432315892585,-0.0075118285948192216,-2.6038483821997875,-0.10888392708698907,2.4681821257803174,0.826474908251239,-0.001189648275837694,0.00018706130302629173,0.0011118305217056614,-9.691085905834884e-05,0.0011098364173837121,-0.0008255636837503105,-0.0002044204791886618,0.0,0.0,0.0,0.0,0.0,0.0,0.0,-0.00017990804267475902,-3.3418483146030464e-06,-4.8662692645543015e-06,3.627924820559514e-06,7.120768229229579e-07,0.0,-9.399100644458258e-07,0.001189648275837694,-0.00018706130302629173,-0.0011118305217056614,9.691085905834884e-05,-0.0011098364173837121,0.0008255636837503105,0.0002044204791886618,0.3236324191093445,19.693445205688477,0.5458648204803467,-19.983552932739258,-0.6539817452430725,-2.4823031425476074,0.23471395671367645,0
28,0.13500571250915527,-0.3752071261405945,-19.669641494750977,-0.4982573688030243,19.955781936645508,0.6539817452430725,2.4694857597351074,-0.25485557317733765,0.0,0.0,0.0,0.0,0.0,0.0,0.0,-0.36926636250016426,0.05906864086212106,-0.3153954425739722,0.2079164122826865,0.06910223046153312,0.09500269834435256,-0.23848850882029873,1.2136257642496162,-0.22024156017679913,-0.0075103031993565845,-2.603850061282777,-0.108884639163812,2.4681835494494466,0.8264783826222197,1.2134413937687574,-0.2202432315892585,-0.0075118285948192216,-2.6038483821997875,-0.10888392708698907,2.4681821257803174,0.826474908251239,0.00011746291079368631,-0.0003073890252915664,-0.00046181387212832365,0.0009642650235549839,-2.376618860865604e-05,-0.00022492798885593077,0.0004889434265096957,0.0,0.0,0.0,0.0,0.0,0.0,0.0,-0.000184370480858842,-1.6714124593530943e-06,-1.5253954626370803e-06,1.6790829895363402e-06,7.120768229229579e-07,-1.4236691292524029e-06,-3.4743709806939194e-06,-0.00011746291079368631,0.0003073890252915664,0.00046181387212832365,-0.0009642650235549839,2.376618860865604e-05,0.00022492798885593077,-0.0004889434265096957,0.3752071261405945,19.669641494750977,0.4982573688030243,-19.955781936645508,-0.6539817452430725,-2.4694857597351074,0.25485557317733765,0
29,0.14000225067138672,-0.3752071261405945,-19.669641494750977,-0.4982573688030243,19.955781936645508,0.6539817452430725,2.4694857597351074,-0.25485557317733765,0.0,0.0,0.0,0.0,0.0,0.0,0.0,-0.36926636250016426,0.05906864086212106,-0.3153954425739722,0.2079164122826865,0.06910223046153312,0.09500269834435256,-0.23848850882029873,1.2136257642496162,-0.22024156017679913,-0.0075103031993565845,-2.603850061282777,-0.108884639163812,2.4681835494494466,0.8264783826222197,1.2134413937687574,-0.2202432315892585,-0.0075118285948192216,-2.6038483821997875,-0.10888392708698907,2.4681821257803174,0.826474908251239,0.00011746291079368631,-0.0003073890252915664,-0.00046181387212832365,0.0009642650235549839,-2.376618860865604e-05,-0.00022492798885593077,0.0004889434265096957,0.0,0.0,0.0,0.0,0.0,0.0,0.0,-0.000184370480858842,-1.6714124593530943e-06,-1.5253954626370803e-06,1.6790829895363402e-06,7.120768229229579e-07,-1.4236691292524029e-06,-3.4743709806939194e-06,-0.00011746291079368631,0.0003073890252915664,0.00046181387212832365,-0.0009642650235549839,2.376618860865604e-05,0.00022492798885593077,-0.0004889434265096957,0.3752071261405945,19.669641494750977,0.4982573688030243,-19.955781936645508,-0.6539817452430725,-2.4694857597351074,0.25485557317733765,0
30,0.14500117301940918,-0.3752071261405945,-19.693445205688477,-0.5220611095428467,19.931978225708008,0.6475730538368225,2.4630770683288574,-0.24112264811992645,0.0,0.0,0.0,0.0,0.0,0.0,0.0,-0.367948800911352,0.05945971496868661,-0.31565416522502054,0.20518383650611374,0.0686190784960348,0.09403582353547393,-0.2398032038493282,1.2136247803178823,-0.22023988974094388,-0.00750863276140993,-2.6038483908469217,-0.10888392708698909,2.4681842620107832,0.8264743857739254,1.2134413937687574,-0.2202432315892585,-0.0075118285948192216,-2.6038483821997875,-0.10888392708698907,2.4681821257803174,0.826474908251239,0.000299061764680286,0.00023752493890306223,0.00013112710724602183,0.0011202345529461495,7.47516194386123e-05,3.0312879736648425e-05,0.00017559255060222136,0.0,0.0,0.0,0.0,0.0,0.0,0.0,-0.00018338654912497532,-3.3418483146030464e-06,-3.195833409291339e-06,8.647134119854627e-09,1.3877787807814457e-17,-2.1362304658545384e-06,5.224773136358607e-07,-0.000299061764680286,-0.00023752493890306223,-0.00013112710724602183,-0.0011202345529461495,-7.47516194386123e-05,-3.0312879736648425e-05,-0.00017559255060222136,0.3752071261405945,19.693445205688477,0.5220611095428467,-19.931978225708008,-0.6475730538368225,-2.4630770683288574,0.24112264811992645,0
31,0.14999723434448242,-0.3752071261405945,-19.693445205688477,-0.5220611095428467,19.931978225708008,0.6475730538368225,2.4630770683288574,-0.24112264811992645,0.0,0.0,0.0,0.0,0.0,0.0,0.0,-0.367948800911352,0.05945971496868661,-0.31565416522502054,0.20518383650611374,0.0686190784960348,0.09403582353547393,-0.2398032038493282,1.2136247803178823,-0.22023988974094388,-0.00750863276140993,-2.6038483908469217,-0.10888392708698909,2.4681842620107832,0.8264743857739254,1.2134413937687574,-0.2202432315892585,-0.0075118285948192216,-2.6038483821997875,-0.10888392708698907,2.4681821257803174,0.826474908251239,0.000299061764680286,0.00023752493890306223,0.00013112710724602183,0.0011202345529461495,7.47516194386123e-05,3.0312879736648425e-05,0.00017559255060222136,0.0,0.0,0.0,0.0,0.0,0.0,0.0,-0.00018338654912497532,-3.3418483146030464e-06,-3.195833409291339e-06,8.647134119854627e-09,1.3877787807814457e-17,-2.1362304658545384e-06,5.224773136358607e-07,-0.000299061764680286,-0.00023752493890306223,-0.00013112710724602183,-0.0011202345529461495,-7.47516194386123e-05,-3.0312879736648425e-05,-0.00017559255060222136,0.3752071261405945,19.693445205688477,0.5220611095428467,-19.931978225708008,-0.6475730538368225,-2.4630770683288574,0.24112264811992645,0
32,0.15499377250671387,-0.4029781222343445,-19.669641494750977,-0.5220611095428467,19.983552932739258,0.6475730538368225,2.4630770683288574,-0.22098104655742645,0.0,0.0,0.0,0.0,0.0,0.0,0.0,-0.3674385389058067,0.04875126850249406,-0.31608370167502353,0.21562086418395546,0.06835122939806937,0.09615289585857215,-0.2403989964379467,1.2136274738402513,-0.22024156017679913,-0.00750863276140993,-2.603852010124608,-0.10888392708698909,2.468184262010786,0.8264710887583053,1.2134413937687574,-0.2202432315892585,-0.0075118285948192216,-2.6038483821997875,-0.10888392708698907,2.4681821257803174,0.826474908251239,0.0004345249040715632,-0.0007995859602818427,1.2238904085280687e-06,-0.00028596128761722745,0.00039253991245066956,-0.004418805701031948,-0.0009779327561667383,0.0,0.0,0.0,0.0,0.0,0.0,0.0,-0.00018608007149389927,-1.6714124593530943e-06,-3.195833409291339e-06,3.627924820559514e-06,1.3877787807814457e-17,-2.1362304685190736e-06,3.819492933709867e-06,-0.0004345249040715632,0.0007995859602818427,-1.2238904085280687e-06,0.00028596128761722745,-0.00039253991245066956,0.004418805701031948,0.0009779327561667383,0.4029781222343445,19.669641494750977,0.5220611095428467,-19.983552932739258,-0.6475730538368225,-2.4630770683288574,0.22098104655742645,0
33,0.15999221801757812,-0.4029781222343445,-19.669641494750977,-0.5220611095428467,19.983552932739258,0.6475730538368225,2.4630770683288574,-0.22098104655742645,0.0,0.0,0.0,0.0,0.0,0.0,0.0,-0.3674385389058067,0.04875126850249406,-0.31608370167502353,0.21562086418395546,0.06835122939806937,0.09615289585857215,-0.2403989964379467,1.2136274738402513,-0.22024156017679913,-0.00750863276140993,-2.603852010124608,-0.10888392708698909,2.468184262010786,0.8264710887583053,1.2134413937687574,-0.2202432315892585,-0.0075118285948192216,-2.6038483821997875,-0.10888392708698907,2.4681821257803174,0.826474908251239,0.0004345249040715632,-0.0007995859602818427,1.2238904085280687e-06,-0.00028596128761722745,0.00039253991245066956,-0.004418805701031948,-0.0009779327561667383,0.0,0.0,0.0,0.0,0.0,0.0,0.0,-0.00018608007149389927,-1.6714124593530943e-06,-3.195833409291339e-06,3.627924820559514e-06,1.3877787807814457e-17,-2.1362304685190736e-06,3.819492933709867e-06,-0.0004345249040715632,0.0007995859602818427,-1.2238904085280687e-06,0.00028596128761722745,-0.00039253991245066956,0.004418805701031948,0.0009779327561667383,0.4029781222343445,19.669641494750977,0.5220611095428467,-19.983552932739258,-0.6475730538368225,-2.4630770683288574,0.22098104655742645,0
34,0.16500186920166016,-0.3752071261405945,-19.717248916625977,-0.5696685314178467,19.983552932739258,0.6594749093055725,2.4758944511413574,-0.24112264811992645,0.0,0.0,0.0,0.0,0.0,0.0,0.0,-0.3666278309917368,0.051982376108992735,-0.31507083903570166,0.2074175960765408,0.06859976356788818,0.09381640964982828,-0.24105360548161842,1.2136234354649265,-0.2202382193050886,-0.007505291889699403,-2.603852010124608,-0.1088852495153745,2.46818283785714,0.8264776823521209,1.2134413937687574,-0.2202432315892585,-0.0075118285948192216,-2.6038483821997875,-0.10888392708698907,2.4681821257803174,0.826474908251239,-0.0007710609831058807,0.0003782489602063356,0.0014363873286944284,-0.0002286465723397165,-0.00018544074916318942,-0.000630939122684575,-0.0003964257319881951,0.0,0.0,0.0,0.0,0.0,0.0,0.0,-0.0001820416961690885,-5.012284169880754e-06,-6.536705119818131e-06,3.627924820559514e-06,1.3224283854224028e-06,-7.120768228396912e-07,-2.7741008818971125e-06,0.0007710609831058807,-0.0003782489602063356,-0.0014363873286944284,0.0002286465723397165,0.00018544074916318942,0.000630939122684575,0.0003964257319881951,0.3752071261405945,19.717248916625977,0.5696685314178467,-19.983552932739258,-0.6594749093055725,-2.4758944511413574,0.24112264811992645,0
35,0.16999316215515137,-0.3752071261405945,-19.717248916625977,-0.5696685314178467,19.983552932739258,0.6594749093055725,2.4758944511413574,-0.24112264811992645,0.0,0.0,0.0,0.0,0.0,0.0,0.0,-0.3666278309917368,0.051982376108992735,-0.31507083903570166,0.2074175960765408,0.06859976356788818,0.09381640964982828,-0.24105360548161842,1.2136234354649265,-0.2202382193050886,-0.007505291889699403,-2.603852010124608,-0.1088852495153745,2.46818283785714,0.8264776823521209,1.2134413937687574,-0.2202432315892585,-0.0075118285948192216,-2.6038483821997875,-0.10888392708698907,2.4681821257803174,0.826474908251239,-0.0007710609831058807,0.0003782489602063356,0.0014363873286944284,-0.0002286465723397165,-0.00018544074916318942,-0.000630939122684575,-0.0003964257319881951,0.0,0.0,0.0,0.0,0.0,0.0,0.0,-0.0001820416961690885,-5.012284169880754e-06,-6.536705119818131e-06,3.627924820559514e-06,1.3224283854224028e-06,-7.120768228396912e-07,-2.7741008818971125e-06,0.0007710609831058807,-0.0003782489602063356,-0.0014363873286944284,0.0002286465723397165,0.00018544074916318942,0.000630939122684575,0.0003964257319881951,0.3752071261405945,19.717248916625977,0.5696685314178467,-19.983552932739258,-0.6594749093055725,-2.4758944511413574,0.24112264811992645,0
36,0.17500090599060059,-0.3514034152030945,-19.645837783813477,-0.5220611095428467,20.007356643676758,0.6475730538368225,2.4694857597351074,-0.20724813640117645,0.0,0.0,0.0,0.0,0.0,0.0,0.0,-0.37126182500624677,0.05639713641042862,-0.3183732565498284,0.2016697629043038,0.06912772881906375,0.09239954889439257,-0.2418680222347974,1.2136215897460334,-0.2202432306126544,-0.007508632436679613,-2.6038536805604635,-0.10888392708698909,2.468183549933963,0.8264706379330033,1.2134413937687574,-0.2202432315892585,-0.0075118285948192216,-2.6038483821997875,-0.10888392708698907,2.4681821257803174,0.826474908251239,-0.0006996980876023096,-0.0010403955875585489,-0.00040597462041318196,-0.0005128853952953929,0.0003193864036798443,-8.39434031823151e-05,-0.0015371223068971944,0.0,0.0,0.0,0.0,0.0,0.0,0.0,-0.00018019597727603198,-9.76604075386689e-10,-3.1961581396086278e-06,5.298360675975999e-06,1.3877787807814457e-17,-1.4241536456793824e-06,4.270318235688464e-06,0.0006996980876023096,0.0010403955875585489,0.00040597462041318196,0.0005128853952953929,-0.0003193864036798443,8.39434031823151e-05,0.0015371223068971944,0.3514034152030945,19.645837783813477,0.5220611095428467,-20.007356643676758,-0.6475730538368225,-2.4694857597351074,0.20724813640117645,0
37,0.1799931526184082,-0.3514034152030945,-19.645837783813477,-0.5220611095428467,20.007356643676758,0.6475730538368225,2.4694857597351074,-0.20724813640117645,0.0,0.0,0.0,0.0,0.0,0.0,0.0,-0.37126182500624677,0.05639713641042862,-0.3183732565498284,0.2016697629043038,0.06912772881906375,0.09239954889439257,-0.2418680222347974,1.2136215897460334,-0.2202432306126544,-0.007508632436679613,-2.6038536805604635,-0.10888392708698909,2.468183549933963,0.8264706379330033,1.2134413937687574,-0.2202432315892585,-0.0075118285948192216,-2.6038483821997875,-0.10888392708698907,2.4681821257803174,0.826474908251239,-0.0006996980876023096,-0.0010403955875585489,-0.00040597462041318196,-0.0005128853952953929,0.0003193864036798443,-8.39434031823151e-05,-0.0015371223068971944,0.0,0.0,0.0,0.0,0.0,0.0,0.0,-0.00018019597727603198,-9.76604075386689e-10,-3.1961581396086278e-06,5.298360675975999e-06,1.3877787807814457e-17,-1.4241536456793824e-06,4.270318235688464e-06,0.0006996980876023096,0.0010403955875585489,0.00040597462041318196,0.0005128853952953929,-0.0003193864036798443,8.39434031823151e-05,0.0015371223068971944,0.3514034152030945,19.645837783813477,0.5220611095428467,-20.007356643676758,-0.6475730538368225,-2.4694857597351074,0.20724813640117645,0
38,0.18500113487243652,-0.3236324191093445,-19.669641494750977,-0.4982573688030243,20.007356643676758,0.6594749093055725,2.4694857597351074,-0.26217979192733765,0.0,0.0,0.0,0.0,0.0,0.0,0.0,-0.3720923326116705,0.056982277915189616,-0.3205838632277916,0.2046545099051339,0.06922654742045171,0.09342706350724239,-0.2423428580889726,1.2136218786168993,-0.22024156017679913,-0.007510300276781899,-2.6038536805604635,-0.1088852495153745,2.468183549933963,0.826478849725644,1.2134413937687574,-0.2202432315892585,-0.0075118285948192216,-2.6038483821997875,-0.10888392708698907,2.4681821257803174,0.826474908251239,-0.0016836453838062176,-5.144382851404789e-06,-0.0005994603898432094,-0.0001966663400787177,-0.0003883638733650701,-0.00019155383153440905,0.0008375201074736832,0.0,0.0,0.0,0.0,0.0,0.0,0.0,-0.00018048484814192634,-1.6714124593530943e-06,-1.5283180373228122e-06,5.298360675975999e-06,1.3224283854224028e-06,-1.4241536456793824e-06,-3.94147440496706e-06,0.0016836453838062176,5.144382851404789e-06,0.0005994603898432094,0.0001966663400787177,0.0003883638733650701,0.00019155383153440905,-0.0008375201074736832,0.3236324191093445,19.669641494750977,0.4982573688030243,-20.007356643676758,-0.6594749093055725,-2.4694857597351074,0.26217979192733765,0
39,0.18999171257019043,-0.3236324191093445,-19.669641494750977,-0.4982573688030243,20.007356643676758,0.6594749093055725,2.4694857597351074,-0.26217979192733765,0.0,0.0,0.0,0.0,0.0,0.0,0.0,-0.3720923326116705,0.056982277915189616,-0.3205838632277916,0.2046545099051339,0.06922654742045171,0.09342706350724239,-0.2423428580889726,1.2136218786168993,-0.22024156017679913,-0.007510300276781899,-2.6038536805604635,-0.1088852495153745,2.468183549933963,0.826478849725644,1.2134413937687574,-0.2202432315892585,-0.0075118285948192216,-2.6038483821997875,-0.10888392708698907,2.4681821257803174,0.826474908251239,-0.0016836453838062176,-5.144382851404789e-06,-0.0005994603898432094,-0.0001966663400787177,-0.0003883638733650701,-0.00019155383153440905,0.0008375201074736832,0.0,0.0,0.0,0.0,0.0,0.0,0.0,-0.00018048484814192634,-1.6714124593530943e-06,-1.5283180373228122e-06,5.298360675975999e-06,1.3224283854224028e-06,-1.4241536456793824e-06,-3.94147440496706e-06,0.0016836453838062176,5.144382851404789e-06,0.0005994603898432094,0.0001966663400787177,0.0003883638733650701,0.00019155383153440905,-0.0008375201074736832,0.3236324191093445,19.669641494750977,0.4982573688030243,-20.007356643676758,-0.6594749093055725,-2.4694857597351074,0.26217979192733765,0
40,0.19500470161437988,-0.3752071261405945,-19.693445205688477,-0.5220611095428467,20.007356643676758,0.6658836007118225,2.4694857597351074,-0.22098104655742645,0.0,0.0,0.0,0.0,0.0,0.0,0.0,-0.3687795158764392,0.05795913804587817,-0.316529149784932,0.2059636508515205,0.06883457611135974,0.09292187397746851,-0.24248619913339936,1.2136224400251132,-0.22023988974094388,-0.007508632761393432,-2.6038536805604635,-0.10888596159219742,2.468183549933963,0.8264753312527834,1.2134413937687574,-0.2202432315892585,-0.0075118285948192216,-2.6038483821997875,-0.10888392708698907,2.4681821257803174,0.826474908251239,0.00048454120183760035,0.0002679314428722996,-3.1136142565083384e-05,-0.0006907645208598616,-0.0003477086266314963,-0.0003109607240875686,-0.001000004671438525,0.0,0.0,0.0,0.0,0.0,0.0,0.0,-0.00018104625635584348,-3.3418483146030464e-06,-3.1958334257894266e-06,5.298360675975999e-06,2.0345052083453607e-06,-1.4241536456793824e-06,-4.230015443473789e-07,-0.00048454120183760035,-0.0002679314428722996,3.1136142565083384e-05,0.0006907645208598616,0.0003477086266314963,0.0003109607240875686,0.001000004671438525,0.3752071261405945,19.693445205688477,0.5220611095428467,-20.007356643676758,-0.6658836007118225,-2.4694857597351074,0.22098104655742645,0
41,0.2000119686126709,-0.3752071261405945,-19.693445205688477,-0.5220611095428467,20.007356643676758,0.6658836007118225,2.4694857597351074,-0.22098104655742645,0.0,0.0,0.0,0.0,0.0,0.0,0.0,-0.3687795158764392,0.05795913804587817,-0.316529149784932,0.2059636508515205,0.06883457611135974,0.09292187397746851,-0.24248619913339936,1.2136224400251132,-0.22023988974094388,-0.007508632761393432,-2.6038536805604635,-0.10888596159219742,2.468183549933963,0.8264753312527834,1.2134413937687574,-0.2202432315892585,-0.0075118285948192216,-2.6038483821997875,-0.10888392708698907,2.4681821257803174,0.826474908251239,0.00048454120183760035,0.0002679314428722996,-3.1136142565083384e-05,-0.0006907645208598616,-0.0003477086266314963,-0.0003109607240875686,-0.001000004671438525,0.0,0.0,0.0,0.0,0.0,0.0,0.0,-0.00018104625635584348,-3.3418483146030464e-06,-3.1958334257894266e-06,5.298360675975999e-06,2.0345052083453607e-06,-1.4241536456793824e-06,-4.230015443473789e-07,-0.00048454120183760035,-0.0002679314428722996,3.1136142565083384e-05,0.0006907645208598616,0.0003477086266314963,0.0003109607240875686,0.001000004671438525,0.3752071261405945,19.693445205688477,0.5220611095428467,-20.007356643676758,-0.6658836007118225,-2.4694857597351074,0.22098104655742645,0
42,0.20500612258911133,-0.4029781222343445,-19.669641494750977,-0.5458648204803467,19.955781936645508,0.6475730538368225,2.4694857597351074,-0.26858848333358765,0.0,0.0,0.0,0.0,0.0,0.0,0.0,-0.36869095750740954,0.06431690673631521,-0.3194574387362169,0.20311351993195417,0.06970267801278468,0.09176209504132048,-0.242542515713966,1.2136276035375573,-0.22024156017679913,-0.007506959402981814,-2.603850061282777,-0.10888392708698909,2.468183549880128,0.8264779074648264,1.2134413937687574,-0.2202432315892585,-0.0075118285948192216,-2.6038483821997875,-0.10888392708698907,2.4681821257803174,0.826474908251239,0.0011370948983722867,-0.00032608241560048496,0.0006651949714680678,3.572681487311227e-05,0.00034867444638895866,7.246521042492003e-05,0.0006438607724232936,0.0,0.0,0.0,0.0,0.0,0.0,0.0,-0.00018620976879990536,-1.6714124593530943e-06,-4.869191837407298e-06,1.6790829895363402e-06,1.3877787807814457e-17,-1.4240998105208291e-06,-2.9992135873735393e-06,-0.0011370948983722867,0.00032608241560048496,-0.0006651949714680678,-3.572681487311227e-05,-0.00034867444638895866,-7.246521042492003e-05,-0.0006438607724232936,0.4029781222343445,19.669641494750977,0.5458648204803467,-19.955781936645508,-0.6475730538368225,-2.4694857597351074,0.26858848333358765,0
43,0.2099928855895996,-0.4029781222343445,-19.669641494750977,-0.5458648204803467,19.955781936645508,0.6475730538368225,2.4694857597351074,-0.26858848333358765,0.0,0.0,0.0,0.0,0.0,0.0,0.0,-0.36869095750740954,0.06431690673631521,-0.3194574387362169,0.20311351993195417,0.06970267801278468,0.09176209504132048,-0.242542515713966,1.2136276035375573,-0.22024156017679913,-0.007506959402981814,-2.603850061282777,-0.10888392708698909,2.468183549880128,0.8264779074648264,1.2134413937687574,-0.2202432315892585,-0.0075118285948192216,-2.6038483821997875,-0.10888392708698907,2.4681821257803174,0.826474908251239,0.0011370948983722867,-0.00032608241560048496,0.0006651949714680678,3.572681487311227e-05,0.00034867444638895866,7.246521042492003e-05,0.0006438607724232936,0.0,0.0,0.0,0.0,0.0,0.0,0.0,-0.00018620976879990536,-1.6714124593530943e-06,-4.869191837407298e-06,1.6790829895363402e-06,1.3877787807814457e-17,-1.4240998105208291e-06,-2.9992135873735393e-06,-0.0011370948983722867,0.00032608241560048496,-0.0006651949714680678,-3.572681487311227e-05,-0.00034867444638895866,-7.246521042492003e-05,-0.0006438607724232936,0.4029781222343445,19.669641494750977,0.5458648204803467,-19.955781936645508,-0.6475730538368225,-2.4694857597351074,0.26858848333358765,0
44,0.21500205993652344,-0.3514034152030945,-19.717248916625977,-0.5220611095428467,19.983552932739258,0.6539817452430725,2.4694857597351074,-0.24844686686992645,0.0,0.0,0.0,0.0,0.0,0.0,0.0,-0.3680715117113337,0.06241994057018945,-0.3194815428981041,0.20231288131491684,0.0701523908044082,0.09334090779046077,-0.24293295567067627,1.2136233215183243,-0.2202382193050886,-0.007508629838820579,-2.603852010124608,-0.108884639163812,2.468183549933963,0.826474184125278,1.2134413937687574,-0.2202432315892585,-0.0075118285948192216,-2.6038483821997875,-0.10888392708698907,2.4681821257803174,0.826474908251239,-0.00021882049865736068,0.0009217323552485711,-2.8679662728914154e-05,-0.0005823131886896933,-2.6128735660705955e-05,4.46753789473534e-06,0.00040742389936116775,0.0,0.0,0.0,0.0,0.0,0.0,0.0,-0.0001819277495669347,-5.012284169880754e-06,-3.1987559986424233e-06,3.627924820559514e-06,7.120768229229579e-07,-1.4241536456793824e-06,7.241259610824002e-07,0.00021882049865736068,-0.0009217323552485711,2.8679662728914154e-05,0.0005823131886896933,2.6128735660705955e-05,-4.46753789473534e-06,-0.00040742389936116775,0.3514034152030945,19.717248916625977,0.5220611095428467,-19.983552932739258,-0.6539817452430725,-2.4694857597351074,0.24844686686992645,0
45,0.2200019359588623,-0.3514034152030945,-19.717248916625977,-0.5220611095428467,19.983552932739258,0.6539817452430725,2.4694857597351074,-0.24844686686992645,0.0,0.0,0.0,0.0,0.0,0.0,0.0,-0.3680715117113337,0.06241994057018945,-0.3194815428981041,0.20231288131491684,0.0701523908044082,0.09334090779046077,-0.24293295567067627,1.2136233215183243,-0.2202382193050886,-0.007508629838820579,-2.603852010124608,-0.108884639163812,2.468183549933963,0.826474184125278,1.2134413937687574,-0.2202432315892585,-0.0075118285948192216,-2.6038483821997875,-0.10888392708698907,2.4681821257803174,0.826474908251239,-0.00021882049865736068,0.0009217323552485711,-2.8679662728914154e-05,-0.0005823131886896933,-2.6128735660705955e-05,4.46753789473534e-06,0.00040742389936116775,0.0,0.0,0.0,0.0,0.0,0.0,0.0,-0.0001819277495669347,-5.012284169880754e-06,-3.1987559986424233e-06,3.627924820559514e-06,7.120768229229579e-07,-1.4241536456793824e-06,7.241259610824002e-07,0.00021882049865736068,-0.0009217323552485711,2.8679662728914154e-05,0.0005823131886896933,2.6128735660705955e-05,-4.46753789473534e-06,-0.00040742389936116775,0.3514034152030945,19.717248916625977,0.5220611095428467,-19.983552932739258,-0.6539817452430725,-2.4694857597351074,0.24844686686992645,0
46,0.22500109672546387,-0.3514034152030945,-19.645837783813477,-0.5458648204803467,20.007356643676758,0.6539817452430725,2.4630770683288574,-0.26217979192733765,0.0,0.0,0.0,0.0,0.0,0.0,0.0,-0.36976798979267506,0.05578898790617439,-0.32196535989601677,0.20415882018743994,0.0701813194758153,0.0951330436136949,-0.24190520875670413,1.213621099213913,-0.2202432306126544,-0.007506883416071137,-2.6038536796156557,-0.108884639163812,2.468184262010786,0.8264788432057629,1.2134413937687574,-0.2202432315892585,-0.0075118285948192216,-2.6038483821997875,-0.10888392708698907,2.4681821257803174,0.826474908251239,-0.0005493132972424714,-0.0013366912726711258,0.000356694220548024,-0.0005823845454153132,-0.00013291237087792725,0.0004708463086400986,0.001194055004497681,0.0,0.0,0.0,0.0,0.0,0.0,0.0,-0.00017970544515555353,-9.76604075386689e-10,-4.9451787480841655e-06,5.2974158681884376e-06,7.120768229229579e-07,-2.1362304685190736e-06,-3.9349545238875905e-06,0.0005493132972424714,0.0013366912726711258,-0.000356694220548024,0.0005823845454153132,0.00013291237087792725,-0.0004708463086400986,-0.001194055004497681,0.3514034152030945,19.645837783813477,0.5458648204803467,-20.007356643676758,-0.6539817452430725,-2.4630770683288574,0.26217979192733765,0
47,0.22999215126037598,-0.3514034152030945,-19.645837783813477,-0.5458648204803467,20.007356643676758,0.6539817452430725,2.4630770683288574,-0.26217979192733765,0.0,0.0,0.0,0.0,0.0,0.0,0.0,-0.36976798979267506,0.05578898790617439,-0.32196535989601677,0.20415882018743994,0.0701813194758153,0.0951330436136949,-0.24190520875670413,1.213621099213913,-0.2202432306126544,-0.007506883416071137,-2.6038536796156557,-0.108884639163812,2.468184262010786,0.8264788432057629,1.2134413937687574,-0.2202432315892585,-0.0075118285948192216,-2.6038483821997875,-0.10888392708698907,2.4681821257803174,0.826474908251239,-0.0005493132972424714,-0.0013366912726711258,0.000356694220548024,-0.0005823845454153132,-0.00013291237087792725,0.0004708463086400986,0.001194055004497681,0.0,0.0,0.0,0.0,0.0,0.0,0.0,-0.00017970544515555353,-9.76604075386689e-10,-4.9451787480841655e-06,5.2974158681884376e-06,7.120768229229579e-07,-2.1362304685190736e-06,-3.9349545238875905e-06,0.0005493132972424714,0.0013366912726711258,-0.000356694220548024,0.0005823845454153132,0.00013291237087792725,-0.0004708463086400986,-0.001194055004497681,0.3514034152030945,19.645837783813477,0.5458648204803467,-20.007356643676758,-0.6539817452430725,-2.4630770683288574,0.26217979192733765,0
48,0.23500275611877441,-0.3514034152030945,-19.645837783813477,-0.5458648204803467,20.007356643676758,0.6539817452430725,2.4630770683288574,-0.26217979192733765,0.0,0.0,0.0,0.0,0.0,0.0,0.0,-0.36976798979267506,0.05578898790617439,-0.32196535989601677,0.20415882018743994,0.0701813194758153,0.0951330436136949,-0.24190520875670413,1.213621099213913,-0.2202432306126544,-0.007506883416071137,-2.6038536796156557,-0.108884639163812,2.468184262010786,0.8264788432057629,1.2134413937687574,-0.2202432315892585,-0.0075118285948192216,-2.6038483821997875,-0.10888392708698907,2.4681821257803174,0.826474908251239,-0.0005493132972424714,-0.0013366912726711258,0.000356694220548024,-0.0005823845454153132,-0.00013291237087792725,0.0004708463086400986,0.001194055004497681,0.0,0.0,0.0,0.0,0.0,0.0,0.0,-0.00017970544515555353,-9.76604075386689e-10,-4.9451787480841655e-06,5.2974158681884376e-06,7.120768229229579e-07,-2.1362304685190736e-06,-3.9349545238875905e-06,0.0005493132972424714,0.0013366912726711258,-0.000356694220548024,0.0005823845454153132,0.00013291237087792725,-0.0004708463086400986,-0.001194055004497681,0.3514034152030945,19.645837783813477,0.5458648204803467,-20.007356643676758,-0.6539817452430725,-2.4630770683288574,0.26217979192733765,0
49,0.23999381065368652,-0.3514034152030945,-19.645837783813477,-0.5458648204803467,20.007356643676758,0.6539817452430725,2.4630770683288574,-0.26217979192733765,0.0,0.0,0.0,0.0,0.0,0.0,0.0,-0.36976798979267506,0.05578898790617439,-0.32196535989601677,0.20415882018743994,0.0701813194758153,0.0951330436136949,-0.24190520875670413,1.213621099213913,-0.2202432306126544,-0.007506883416071137,-2.6038536796156557,-0.108884639163812,2.468184262010786,0.8264788432057629,1.2134413937687574,-0.2202432315892585,-0.0075118285948192216,-2.6038483821997875,-0.10888392708698907,2.4681821257803174,0.826474908251239,-0.0005493132972424714,-0.0013366912726711258,0.000356694220548024,-0.0005823845454153132,-0.00013291237087792725,0.0004708463086400986,0.001194055004497681,0.0,0.0,0.0,0.0,0.0,0.0,0.0,-0.00017970544515555353,-9.76604075386689e-10,-4.9451787480841655e-06,5.2974158681884376e-06,7.120768229229579e-07,-2.1362304685190736e-06,-3.9349545238875905e-06,0.0005493132972424714,0.0013366912726711258,-0.000356694220548024,0.0005823845454153132,0.00013291237087792725,-0.0004708463086400986,-0.001194055004497681,0.3514034152030945,19.645837783813477,0.5458648204803467,-20.007356643676758,-0.6539817452430725,-2.4630770683288574,0.26217979192733765,0
50,0.24500155448913574,-0.3752071261405945,-19.669641494750977,-0.5220611095428467,20.007356643676758,0.6539817452430725,2.4493441581726074,-0.22830526530742645,0.0,0.0,0.0,0.0,0.0,0.0,0.0,-0.36766905828964264,0.05904111236894358,-0.3217472837114183,0.20079165814730904,0.06985168172992227,0.09522296135137329,-0.24102094925785153,1.2136227657180212,-0.22024156017679913,-0.007508396032563388,-2.6038536805604577,-0.108884639163812,2.4681857878896922,0.8264761528070979,1.2134413937687574,-0.2202432315892585,-0.0075118285948192216,-2.6038483821997875,-0.10888392708698907,2.4681821257803174,0.826474908251239,0.0004071682271113972,-0.00027120473388134045,-0.0001337848862119564,-0.0005794433166715691,-1.094096499179581e-05,0.00048741517133683594,-0.0006050661728357503,0.0,0.0,0.0,0.0,0.0,0.0,0.0,-0.00018137194926381994,-1.6714124593530943e-06,-3.432562255833299e-06,5.29836067020284e-06,7.120768229229579e-07,-3.6621093748578915e-06,-1.2445558588147776e-06,-0.0004071682271113972,0.00027120473388134045,0.0001337848862119564,0.0005794433166715691,1.094096499179581e-05,-0.00048741517133683594,0.0006050661728357503,0.3752071261405945,19.669641494750977,0.5220611095428467,-20.007356643676758,-0.6539817452430725,-2.4493441581726074,0.22830526530742645,0
51,0.24999237060546875,-0.3752071261405945,-19.669641494750977,-0.5220611095428467,20.007356643676758,0.6539817452430725,2.4493441581726074,-0.22830526530742645,0.0,0.0,0.0,0.0,0.0,0.0,0.0,-0.36766905828964264,0.05904111236894358,-0.3217472837114183,0.20079165814730904,0.06985168172992227,0.09522296135137329,-0.24102094925785153,1.2136227657180212,-0.22024156017679913,-0.007508396032563388,-2.6038536805604577,-0.108884639163812,2.4681857878896922,0.8264761528070979,1.2134413937687574,-0.2202432315892585,-0.0075118285948192216,-2.6038483821997875,-0.10888392708698907,2.4681821257803174,0.826474908251239,0.0004071682271113972,-0.00027120473388134045,-0.0001337848862119564,-0.0005794433166715691,-1.094096499179581e-05,0.00048741517133683594,-0.0006050661728357503,0.0,0.0,0.0,0.0,0.0,0.0,0.0,-0.00018137194926381994,-1.6714124593530943e-06,-3.432562255833299e-06,5.29836067020284e-06,7.120768229229579e-07,-3.6621093748578915e-06,-1.2445558588147776e-06,-0.0004071682271113972,0.00027120473388134045,0.0001337848862119564,0.0005794433166715691,1.094096499179581e-05,-0.00048741517133683594,0.0006050661728357503,0.3752071261405945,19.669641494750977,0.5220611095428467,-20.007356643676758,-0.6539817452430725,-2.4493441581726074,0.22830526530742645,0
52,0.25501251220703125,-0.3514034152030945,-19.693445205688477,-0.5220611095428467,19.931978225708008,0.6475730538368225,2.4630770683288574,-0.24844686686992645,0.0,0.0,0.0,0.0,0.0,0.0,0.0,-0.35971007747557215,0.05655646128640029,-0.31502848408851253,0.20385361482309577,0.06900901886447376,0.09509772588540316,-0.24168150009835113,1.2136207654662092,-0.22023988974094388,-0.007508396031672493,-2.603848390846921,-0.10888392708698909,2.468184262010786,0.8264741384883948,1.2134413937687574,-0.2202432315892585,-0.0075118285948192216,-2.6038483821997875,-0.10888392708698907,2.4681821257803174,0.826474908251239,0.0003986878750296315,0.00035811484428267245,0.00037253758799983593,0.001064967678731966,0.00011266613916543026,0.0001122442057586793,0.00021866342684965964,0.0,0.0,0.0,0.0,0.0,0.0,0.0,-0.00017937169745185777,-3.3418483146030464e-06,-3.4325631467282958e-06,8.647133675765417e-09,1.3877787807814457e-17,-2.1362304685190736e-06,7.697628442437932e-07,-0.0003986878750296315,-0.00035811484428267245,-0.00037253758799983593,-0.001064967678731966,-0.00011266613916543026,-0.0001122442057586793,-0.00021866342684965964,0.3514034152030945,19.693445205688477,0.5220611095428467,-19.931978225708008,-0.6475730538368225,-2.4630770683288574,0.24844686686992645,0
53,0.259993314743042,-0.3514034152030945,-19.693445205688477,-0.5220611095428467,19.931978225708008,0.6475730538368225,2.4630770683288574,-0.24844686686992645,0.0,0.0,0.0,0.0,0.0,0.0,0.0,-0.35971007747557215,0.05655646128640029,-0.31502848408851253,0.20385361482309577,0.06900901886447376,0.09509772588540316,-0.24168150009835113,1.2136207654662092,-0.22023988974094388,-0.007508396031672493,-2.603848390846921,-0.10888392708698909,2.468184262010786,0.8264741384883948,1.2134413937687574,-0.2202432315892585,-0.0075118285948192216,-2.6038483821997875,-0.10888392708698907,2.4681821257803174,0.826474908251239,0.0003986878750296315,0.00035811484428267245,0.00037253758799983593,0.001064967678731966,0.00011266613916543026,0.0001122442057586793,0.00021866342684965964,0.0,0.0,0.0,0.0,0.0,0.0,0.0,-0.00017937169745185777,-3.3418483146030464e-06,-3.4325631467282958e-06,8.647133675765417e-09,1.3877787807814457e-17,-2.1362304685190736e-06,7.697628442437932e-07,-0.0003986878750296315,-0.00035811484428267245,-0.00037253758799983593,-0.001064967678731966,-0.00011266613916543026,-0.0001122442057586793,-0.00021866342684965964,0.3514034152030945,19.693445205688477,0.5220611095428467,-19.931978225708008,-0.6475730538368225,-2.4630770683288574,0.24844686686992645,0
54,0.2650010585784912,-0.4267818331718445,-19.669641494750977,-0.4982573688030243,20.007356643676758,0.6475730538368225,2.4758944511413574,-0.23471395671367645,0.0,0.0,0.0,0.0,0.0,0.0,0.0,-0.3677010400475689,0.060212417504260145,-0.3244051661910389,0.206623267207904,0.06940402729470238,0.09501051340144623,-0.24115567064542048,1.2136291425670636,-0.22024156017679913,-0.0075103031980202385,-2.603853680560463,-0.10888392708698909,2.46818283785714,0.8264772188862138,1.2134413937687574,-0.2202432315892585,-0.0075118285948192216,-2.6038483821997875,-0.10888392708698907,2.4681821257803174,0.826474908251239,0.0015732189178326703,-2.6506219854213434e-05,-0.0005295631122327826,-0.0006796048543506236,-0.0011346595157943108,-0.00048481203867733975,-0.0001106568863051977,0.0,0.0,0.0,0.0,0.0,0.0,0.0,-0.00018774879830618652,-1.6714124593530943e-06,-1.5253967989830447e-06,5.29836067553191e-06,1.3877787807814457e-17,-7.120768228396912e-07,-2.3106349748003296e-06,-0.0015732189178326703,2.6506219854213434e-05,0.0005295631122327826,0.0006796048543506236,0.0011346595157943108,0.00048481203867733975,0.0001106568863051977,0.4267818331718445,19.669641494750977,0.4982573688030243,-20.007356643676758,-0.6475730538368225,-2.4758944511413574,0.23471395671367645,0
55,0.2699923515319824,-0.4267818331718445,-19.669641494750977,-0.4982573688030243,20.007356643676758,0.6475730538368225,2.4758944511413574,-0.23471395671367645,0.0,0.0,0.0,0.0,0.0,0.0,0.0,-0.3677010400475689,0.060212417504260145,-0.3244051661910389,0.206623267207904,0.06940402729470238,0.09501051340144623,-0.24115567064542048,1.2136291425670636,-0.22024156017679913,-0.0075103031980202385,-2.603853680560463,-0.10888392708698909,2.46818283785714,0.8264772188862138,1.2134413937687574,-0.2202432315892585,-0.0075118285948192216,-2.6038483821997875,-0.10888392708698907,2.4681821257803174,0.826474908251239,0.0015732189178326703,-2.6506219854213434e-05,-0.0005295631122327826,-0.0006796048543506236,-0.0011346595157943108,-0.00048481203867733975,-0.0001106568863051977,0.0,0.0,0.0,0.0,0.0,0.0,0.0,-0.00018774879830618652,-1.6714124593530943e-06,-1.5253967989830447e-06,5.29836067553191e-06,1.3877787807814457e-17,-7.120768228396912e-07,-2.3106349748003296e-06,-0.0015732189178326703,2.6506219854213434e-05,0.0005295631122327826,0.0006796048543506236,0.0011346595157943108,0.00048481203867733975,0.0001106568863051977,0.4267818331718445,19.669641494750977,0.4982573688030243,-20.007356643676758,-0.6475730538368225,-2.4758944511413574,0.23471395671367645,0
56,0.27500033378601074,-0.3752071261405945,-19.693445205688477,-0.5220611095428467,19.983552932739258,0.6475730538368225,2.4566683769226074,-0.24844686686992645,0.0,0.0,0.0,0.0,0.0,0.0,0.0,-0.36424176075042725,0.06070392324994984,-0.3179074262033209,0.20701494315210667,0.06764039065998521,0.09514133139779599,-0.24022298544933976,1.2136224676104101,-0.22023988974094388,-0.007508632761409922,-2.6038520101246077,-0.10888392708698909,2.4681849740876087,0.8264753164582795,1.2134413937687574,-0.2202432315892585,-0.0075118285948192216,-2.6038483821997875,-0.10888392708698907,2.4681821257803174,0.826474908251239,0.00011283350563654839,0.0004029812298240066,0.00015439896749654076,-4.184141737697222e-05,0.0001355768622027873,0.0005680898981539511,7.634696474626292e-05,0.0,0.0,0.0,0.0,0.0,0.0,0.0,-0.00018107384165277907,-3.3418483146030464e-06,-3.1958334092991453e-06,3.6279248201154246e-06,1.3877787807814457e-17,-2.848307291358765e-06,-4.0820704050315015e-07,-0.00011283350563654839,-0.0004029812298240066,-0.00015439896749654076,4.184141737697222e-05,-0.0001355768622027873,-0.0005680898981539511,-7.634696474626292e-05,0.3752071261405945,19.693445205688477,0.5220611095428467,-19.983552932739258,-0.6475730538368225,-2.4566683769226074,0.24844686686992645,0
57,0.27999210357666016,-0.3752071261405945,-19.693445205688477,-0.5220611095428467,19.983552932739258,0.6475730538368225,2.4566683769226074,-0.24844686686992645,0.0,0.0,0.0,0.0,0.0,0.0,0.0,-0.36424176075042725,0.06070392324994984,-0.3179074262033209,0.20701494315210667,0.06764039065998521,0.09514133139779599,-0.24022298544933976,1.2136224676104101,-0.22023988974094388,-0.007508632761409922,-2.6038520101246077,-0.10888392708698909,2.4681849740876087,0.8264753164582795,1.2134413937687574,-0.2202432315892585,-0.0075118285948192216,-2.6038483821997875,-0.10888392708698907,2.4681821257803174,0.826474908251239,0.00011283350563654839,0.0004029812298240066,0.00015439896749654076,-4.184141737697222e-05,0.0001355768622027873,0.0005680898981539511,7.634696474626292e-05,0.0,0.0,0.0,0.0,0.0,0.0,0.0,-0.00018107384165277907,-3.3418483146030464e-06,-3.1958334092991453e-06,3.6279248201154246e-06,1.3877787807814457e-17,-2.848307291358765e-06,-4.0820704050315015e-07,-0.00011283350563654839,-0.0004029812298240066,-0.00015439896749654076,4.184141737697222e-05,-0.0001355768622027873,-0.0005680898981539511,-7.634696474626292e-05,0.3752071261405945,19.693445205688477,0.5220611095428467,-19.983552932739258,-0.6475730538368225,-2.4566683769226074,0.24844686686992645,0
58,0.28541040420532227,-0.3752071261405945,-19.669641494750977,-0.4982573688030243,19.983552932739258,0.6475730538368225,2.4694857597351074,-0.28232139348983765,0.0,0.0,0.0,0.0,0.0,0.0,0.0,-0.36488902027807846,0.0578768436278142,-0.3194712859576809,0.21071896464176082,0.06777284005438049,0.0961210332940234,-0.23998379758421837,1.2136235165826887,-0.22024156017679913,-0.0075103022251656335,-2.6038520101246077,-0.10888392708698909,2.4681836676715334,0.8264780771640425,1.2134413937687574,-0.2202432315892585,-0.0075118285948192216,-2.6038483821997875,-0.10888392708698907,2.4681821257803174,0.826474908251239,-3.023773993526065e-05,-0.00044699351725324113,-0.00029719694162687517,0.00014271507660439228,0.00029344268474650644,0.0001827187513492943,0.002073912550589145,0.0,0.0,0.0,0.0,0.0,0.0,0.0,-0.00018212281393137353,-1.6714124593530943e-06,-1.5263696535880791e-06,3.6279248201154246e-06,1.3877787807814457e-17,-1.541891216039204e-06,-3.1689128034972924e-06,3.023773993526065e-05,0.00044699351725324113,0.00029719694162687517,-0.00014271507660439228,-0.00029344268474650644,-0.0001827187513492943,-0.002073912550589145,0.3752071261405945,19.669641494750977,0.4982573688030243,-19.983552932739258,-0.6475730538368225,-2.4694857597351074,0.28232139348983765,0
59,0.2900264263153076,-0.3752071261405945,-19.669641494750977,-0.4982573688030243,19.983552932739258,0.6475730538368225,2.4694857597351074,-0.28232139348983765,0.0,0.0,0.0,0.0,0.0,0.0,0.0,-0.36488902027807846,0.0578768436278142,-0.3194712859576809,0.21071896464176082,0.06777284005438049,0.0961210332940234,-0.23998379758421837,1.2136235165826887,-0.22024156017679913,-0.0075103022251656335,-2.6038520101246077,-0.10888392708698909,2.4681836676715334,0.8264780771640425,1.2134413937687574,-0.2202432315892585,-0.0075118285948192216,-2.6038483821997875,-0.10888392708698907,2.4681821257803174,0.826474908251239,-3.023773993526065e-05,-0.00044699351725324113,-0.00029719694162687517,0.00014271507660439228,0.00029344268474650644,0.0001827187513492943,0.002073912550589145,0.0,0.0,0.0,0.0,0.0,0.0,0.0,-0.00018212281393137353,-1.6714124593530943e-06,-1.5263696535880791e-06,3.6279248201154246e-06,1.3877787807814457e-17,-1.541891216039204e-06,-3.1689128034972924e-06,3.023773993526065e-05,0.00044699351725324113,0.00029719694162687517,-0.00014271507660439228,-0.00029344268474650644,-0.0001827187513492943,-0.002073912550589145,0.3752071261405945,19.669641494750977,0.4982573688030243,-19.983552932739258,-0.6475730538368225,-2.4694857597351074,0.28232139348983765,0
60,0.295025110244751,-0.3752071261405945,-19.669641494750977,-0.4704863727092743,20.007356643676758,0.6475730538368225,2.4566683769226074,-0.23471395671367645,0.0,0.0,0.0,0.0,0.0,0.0,0.0,-0.36344349892492384,0.07067268627765037,-0.3186123344085969,0.19411969873181073,0.06836500284863223,0.09275702980592754,-0.23979706711686477,1.2136250309579093,-0.22024156017679913,-0.00751154185596794,-2.603853680560463,-0.10888392708698909,2.4681849740896027,0.8264727304336865,1.2134413937687574,-0.2202432315892585,-0.0075118285948192216,-2.6038483821997875,-0.10888392708698907,2.4681821257803174,0.826474908251239,0.0005574191421982007,-0.0003204013350613175,-0.0009854662886353577,-0.0007380786801912297,0.00010129105067668914,0.002246104788739714,0.0002724879640447317,0.0,0.0,0.0,0.0,0.0,0.0,0.0,-0.0001836371891519306,-1.6714124593530943e-06,-2.867388512817551e-07,5.29836067553191e-06,1.3877787807814457e-17,-2.848309285319317e-06,2.17781755251778e-06,-0.0005574191421982007,0.0003204013350613175,0.0009854662886353577,0.0007380786801912297,-0.00010129105067668914,-0.002246104788739714,-0.0002724879640447317,0.3752071261405945,19.669641494750977,0.4704863727092743,-20.007356643676758,-0.6475730538368225,-2.4566683769226074,0.23471395671367645,0
61,0.30001187324523926,-0.3752071261405945,-19.669641494750977,-0.4704863727092743,20.007356643676758,0.6475730538368225,2.4566683769226074,-0.23471395671367645,0.0,0.0,0.0,0.0,0.0,0.0,0.0,-0.36344349892492384,0.07067268627765037,-0.3186123344085969,0.19411969873181073,0.06836500284863223,0.09275702980592754,-0.23979706711686477,1.2136250309579093,-0.22024156017679913,-0.00751154185596794,-2.603853680560463,-0.10888392708698909,2.4681849740896027,0.8264727304336865,1.2134413937687574,-0.2202432315892585,-0.0075118285948192216,-2.6038483821997875,-0.10888392708698907,2.4681821257803174,0.826474908251239,0.0005574191421982007,-0.0003204013350613175,-0.0009854662886353577,-0.0007380786801912297,0.00010129105067668914,0.002246104788739714,0.0002724879640447317,0.0,0.0,0.0,0.0,0.0,0.0,0.0,-0.0001836371891519306,-1.6714124593530943e-06,-2.867388512817551e-07,5.29836067553191e-06,1.3877787807814457e-17,-2.848309285319317e-06,2.17781755251778e-06,-0.0005574191421982007,0.0003204013350613175,0.0009854662886353577,0.0007380786801912297,-0.00010129105067668914,-0.002246104788739714,-0.0002724879640447317,0.3752071261405945,19.669641494750977,0.4704863727092743,-20.007356643676758,-0.6475730538368225,-2.4566683769226074,0.23471395671367645,0
62,0.3050200939178467,-0.3752071261405945,-19.669641494750977,-0.4982573688030243,19.955781936645508,0.6539817452430725,2.4630770683288574,-0.24844686686992645,0.0,0.0,0.0,0.0,0.0,0.0,0.0,-0.36287634250740514,0.06591934439389377,-0.3204145494377876,0.20350702940437002,0.06821170243548597,0.09544357642505516,-0.23893838368997436,1.213622476604493,-0.22024156017679913,-0.0075103031980202455,-2.6038500612827766,-0.10888464354490328,2.4681842620107863,0.826477322403618,1.2134413937687574,-0.2202432315892585,-0.0075118285948192216,-2.6038483821997875,-0.10888392708698907,2.4681821257803174,0.826474908251239,0.000539426244360411,-4.984405245161262e-05,-0.00023641774083440649,0.0005465923722348812,-1.841333272197486e-05,0.00021429309834698025,0.00021650552368817228,0.0,0.0,0.0,0.0,0.0,0.0,0.0,-0.00018108283573559092,-1.6714124593530943e-06,-1.5253967989761058e-06,1.679082989092251e-06,7.164579142043825e-07,-2.136230468963163e-06,-2.4141523790044417e-06,-0.000539426244360411,4.984405245161262e-05,0.00023641774083440649,-0.0005465923722348812,1.841333272197486e-05,-0.00021429309834698025,-0.00021650552368817228,0.3752071261405945,19.669641494750977,0.4982573688030243,-19.955781936645508,-0.6539817452430725,-2.4630770683288574,0.24844686686992645,0
63,0.3100123405456543,-0.3752071261405945,-19.669641494750977,-0.4982573688030243,19.955781936645508,0.6539817452430725,2.4630770683288574,-0.24844686686992645,0.0,0.0,0.0,0.0,0.0,0.0,0.0,-0.36287634250740514,0.06591934439389377,-0.3204145494377876,0.20350702940437002,0.06821170243548597,0.09544357642505516,-0.23893838368997436,1.213622476604493,-0.22024156017679913,-0.0075103031980202455,-2.6038500612827766,-0.10888464354490328,2.4681842620107863,0.826477322403618,1.2134413937687574,-0.2202432315892585,-0.0075118285948192216,-2.6038483821997875,-0.10888392708698907,2.4681821257803174,0.826474908251239,0.000539426244360411,-4.984405245161262e-05,-0.00023641774083440649,0.0005465923722348812,-1.841333272197486e-05,0.00021429309834698025,0.00021650552368817228,0.0,0.0,0.0,0.0,0.0,0.0,0.0,-0.00018108283573559092,-1.6714124593530943e-06,-1.5253967989761058e-06,1.679082989092251e-06,7.164579142043825e-07,-2.136230468963163e-06,-2.4141523790044417e-06,-0.000539426244360411,4.984405245161262e-05,0.00023641774083440649,-0.0005465923722348812,1.841333272197486e-05,-0.00021429309834698025,-0.00021650552368817228,0.3752071261405945,19.669641494750977,0.4982573688030243,-19.955781936645508,-0.6539817452430725,-2.4630770683288574,0.24844686686992645,0
64,0.3150153160095215,-0.3752071261405945,-19.745019912719727,-0.5220611095428467,19.983552932739258,0.6594749093055725,2.4566683769226074,-0.22098104655742645,0.0,0.0,0.0,0.0,0.0,0.0,0.0,-0.36423317228458046,0.05720910698983785,-0.32045863893979704,0.21140674605726079,0.06855441152228309,0.0970173089290373,-0.2400992883609483,1.2136227116389144,-0.22023627046325747,-0.007508632761409922,-2.6038520101246077,-0.10888524951539923,2.468184974087609,0.826471441552317,1.2134413937687574,-0.2202432315892585,-0.0075118285948192216,-2.6038483821997875,-0.10888392708698907,2.4681821257803174,0.826474908251239,0.00016355446681996953,0.00151253045665884,7.430725727415416e-05,6.0137374137160865e-05,-0.00013548375967871402,0.00044621705896553325,-0.001360683743606273,0.0,0.0,0.0,0.0,0.0,0.0,0.0,-0.00018131787015707168,-6.96112600101495e-06,-3.1958334092991453e-06,3.6279248201154246e-06,1.3224284101526207e-06,-2.848307291802854e-06,3.46669892203888e-06,-0.00016355446681996953,-0.00151253045665884,-7.430725727415416e-05,-6.0137374137160865e-05,0.00013548375967871402,-0.00044621705896553325,0.001360683743606273,0.3752071261405945,19.745019912719727,0.5220611095428467,-19.983552932739258,-0.6594749093055725,-2.4566683769226074,0.22098104655742645,0
65,0.3200232982635498,-0.3752071261405945,-19.745019912719727,-0.5220611095428467,19.983552932739258,0.6594749093055725,2.4566683769226074,-0.22098104655742645,0.0,0.0,0.0,0.0,0.0,0.0,0.0,-0.36423317228458046,0.05720910698983785,-0.32045863893979704,0.21140674605726079,0.06855441152228309,0.0970173089290373,-0.2400992883609483,1.2136227116389144,-0.22023627046325747,-0.007508632761409922,-2.6038520101246077,-0.10888524951539923,2.468184974087609,0.826471441552317,1.2134413937687574,-0.2202432315892585,-0.0075118285948192216,-2.6038483821997875,-0.10888392708698907,2.4681821257803174,0.826474908251239,0.00016355446681996953,0.00151253045665884,7.430725727415416e-05,6.0137374137160865e-05,-0.00013548375967871402,0.00044621705896553325,-0.001360683743606273,0.0,0.0,0.0,0.0,0.0,0.0,0.0,-0.00018131787015707168,-6.96112600101495e-06,-3.1958334092991453e-06,3.6279248201154246e-06,1.3224284101526207e-06,-2.848307291802854e-06,3.46669892203888e-06,-0.00016355446681996953,-0.00151253045665884,-7.430725727415416e-05,-6.0137374137160865e-05,0.00013548375967871402,-0.00044621705896553325,0.001360683743606273,0.3752071261405945,19.745019912719727,0.5220611095428467,-19.983552932739258,-0.6594749093055725,-2.4566683769226074,0.22098104655742645,0
66,0.32505178451538086,-0.3752071261405945,-19.693445205688477,-0.4982573688030243,19.955781936645508,0.6475730538368225,2.4694857597351074,-0.22830526530742645,0.0,0.0,0.0,0.0,0.0,0.0,0.0,-0.36336093927222474,0.06158292557133185,-0.3162109995449872,0.2072385211344482,0.06867956087100911,0.0953149717027392,-0.24251669097023115,1.2136256777592191,-0.22023988974094388,-0.0075103031993565845,-2.6038500612827766,-0.10888392708698909,2.4681835499339635,0.826473488234824,1.2134413937687574,-0.2202432315892585,-0.0075118285948192216,-2.6038483821997875,-0.10888392708698907,2.4681821257803174,0.826474908251239,8.988050902994699e-05,0.00048355756179283596,-0.00017475489136283074,0.00034882445069043974,0.00021738425244564177,-0.0001883210137162945,-0.0008738559071619986,0.0,0.0,0.0,0.0,0.0,0.0,0.0,-0.00018428399046177546,-3.3418483146030464e-06,-1.5253954626370803e-06,1.679082989092251e-06,1.3877787807814457e-17,-1.4241536461234716e-06,1.4200164150102168e-06,-8.988050902994699e-05,-0.00048355756179283596,0.00017475489136283074,-0.00034882445069043974,-0.00021738425244564177,0.0001883210137162945,0.0008738559071619986,0.3752071261405945,19.693445205688477,0.4982573688030243,-19.955781936645508,-0.6475730538368225,-2.4694857597351074,0.22830526530742645,0
67,0.32999324798583984,-0.3752071261405945,-19.693445205688477,-0.4982573688030243,19.955781936645508,0.6475730538368225,2.4694857597351074,-0.22830526530742645,0.0,0.0,0.0,0.0,0.0,0.0,0.0,-0.36336093927222474,0.06158292557133185,-0.3162109995449872,0.2072385211344482,0.06867956087100911,0.0953149717027392,-0.24251669097023115,1.2136256777592191,-0.22023988974094388,-0.0075103031993565845,-2.6038500612827766,-0.10888392708698909,2.4681835499339635,0.826473488234824,1.2134413937687574,-0.2202432315892585,-0.0075118285948192216,-2.6038483821997875,-0.10888392708698907,2.4681821257803174,0.826474908251239,8.988050902994699e-05,0.00048355756179283596,-0.00017475489136283074,0.00034882445069043974,0.00021738425244564177,-0.0001883210137162945,-0.0008738559071619986,0.0,0.0,0.0,0.0,0.0,0.0,0.0,-0.00018428399046177546,-3.3418483146030464e-06,-1.5253954626370803e-06,1.679082989092251e-06,1.3877787807814457e-17,-1.4241536461234716e-06,1.4200164150102168e-06,-8.988050902994699e-05,-0.00048355756179283596,0.00017475489136283074,-0.00034882445069043974,-0.00021738425244564177,0.0001883210137162945,0.0008738559071619986,0.3752071261405945,19.693445205688477,0.4982573688030243,-19.955781936645508,-0.6475730538368225,-2.4694857597351074,0.22830526530742645,0
68,0.3350217342376709,-0.4267818331718445,-19.669641494750977,-0.4982573688030243,19.955781936645508,0.6475730538368225,2.4694857597351074,-0.27591270208358765,0.0,0.0,0.0,0.0,0.0,0.0,0.0,-0.37039085879277184,0.05579659760186126,-0.3209392964338869,0.21145966413535103,0.06902475680159653,0.09570359333453644,-0.24328559428511307,1.2136290602067497,-0.22024156017679913,-0.0075103031993565845,-2.6038500612827766,-0.1088871209025383,2.4681835499339635,0.8264804931296619,1.2134413937687574,-0.2202432315892585,-0.0075118285948192216,-2.6038483821997875,-0.10888392708698907,2.4681821257803174,0.826474908251239,0.0014846938459004057,-0.0007826112277670944,-0.0009265894889497436,0.0009189596040898506,-0.005050545926798022,-2.531616914006231e-05,0.0018516370599310976,0.0,0.0,0.0,0.0,0.0,0.0,0.0,-0.00018766643799228433,-1.6714124593530943e-06,-1.5253954626370803e-06,1.679082989092251e-06,3.193815549223933e-06,-1.4241536461234716e-06,-5.5848784228373916e-06,-0.0014846938459004057,0.0007826112277670944,0.0009265894889497436,-0.0009189596040898506,0.005050545926798022,2.531616914006231e-05,-0.0018516370599310976,0.4267818331718445,19.669641494750977,0.4982573688030243,-19.955781936645508,-0.6475730538368225,-2.4694857597351074,0.27591270208358765,0
69,0.3400235176086426,-0.4267818331718445,-19.669641494750977,-0.4982573688030243,19.955781936645508,0.6475730538368225,2.4694857597351074,-0.27591270208358765,0.0,0.0,0.0,0.0,0.0,0.0,0.0,-0.37039085879277184,0.05579659760186126,-0.3209392964338869,0.21145966413535103,0.06902475680159653,0.09570359333453644,-0.24328559428511307,1.2136290602067497,-0.22024156017679913,-0.0075103031993565845,-2.6038500612827766,-0.1088871209025383,2.4681835499339635,0.8264804931296619,1.2134413937687574,-0.2202432315892585,-0.0075118285948192216,-2.6038483821997875,-0.10888392708698907,2.4681821257803174,0.826474908251239,0.0014846938459004057,-0.0007826112277670944,-0.0009265894889497436,0.0009189596040898506,-0.005050545926798022,-2.531616914006231e-05,0.0018516370599310976,0.0,0.0,0.0,0.0,0.0,0.0,0.0,-0.00018766643799228433,-1.6714124593530943e-06,-1.5253954626370803e-06,1.679082989092251e-06,3.193815549223933e-06,-1.4241536461234716e-06,-5.5848784228373916e-06,-0.0014846938459004057,0.0007826112277670944,0.0009265894889497436,-0.0009189596040898506,0.005050545926798022,2.531616914006231e-05,-0.0018516370599310976,0.4267818331718445,19.669641494750977,0.4982573688030243,-19.955781936645508,-0.6475730538368225,-2.4694857597351074,0.27591270208358765,0
70,0.34502124786376953,-0.4267818331718445,-19.669641494750977,-0.4982573688030243,19.955781936645508,0.6475730538368225,2.4694857597351074,-0.27591270208358765,0.0,0.0,0.0,0.0,0.0,0.0,0.0,-0.37039085879277184,0.05579659760186126,-0.3209392964338869,0.21145966413535103,0.06902475680159653,0.09570359333453644,-0.24328559428511307,1.2136290602067497,-0.22024156017679913,-0.0075103031993565845,-2.6038500612827766,-0.1088871209025383,2.4681835499339635,0.8264804931296619,1.2134413937687574,-0.2202432315892585,-0.0075118285948192216,-2.6038483821997875,-0.10888392708698907,2.4681821257803174,0.826474908251239,0.0014846938459004057,-0.0007826112277670944,-0.0009265894889497436,0.0009189596040898506,-0.005050545926798022,-2.531616914006231e-05,0.0018516370599310976,0.0,0.0,0.0,0.0,0.0,0.0,0.0,-0.00018766643799228433,-1.6714124593530943e-06,-1.5253954626370803e-06,1.679082989092251e-06,3.193815549223933e-06,-1.4241536461234716e-06,-5.5848784228373916e-06,-0.0014846938459004057,0.0007826112277670944,0.0009265894889497436,-0.0009189596040898506,0.005050545926798022,2.531616914006231e-05,-0.0018516370599310976,0.4267818331718445,19.669641494750977,0.4982573688030243,-19.955781936645508,-0.6475730538368225,-2.4694857597351074,0.27591270208358765,0
71,0.3500227928161621,-0.4267818331718445,-19.669641494750977,-0.4982573688030243,19.955781936645508,0.6475730538368225,2.4694857597351074,-0.27591270208358765,0.0,0.0,0.0,0.0,0.0,0.0,0.0,-0.37039085879277184,0.05579659760186126,-0.3209392964338869,0.21145966413535103,0.06902475680159653,0.09570359333453644,-0.24328559428511307,1.2136290602067497,-0.22024156017679913,-0.0075103031993565845,-2.6038500612827766,-0.1088871209025383,2.4681835499339635,0.8264804931296619,1.2134413937687574,-0.2202432315892585,-0.0075118285948192216,-2.6038483821997875,-0.10888392708698907,2.4681821257803174,0.826474908251239,0.0014846938459004057,-0.0007826112277670944,-0.0009265894889497436,0.0009189596040898506,-0.005050545926798022,-2.531616914006231e-05,0.0018516370599310976,0.0,0.0,0.0,0.0,0.0,0.0,0.0,-0.00018766643799228433,-1.6714124593530943e-06,-1.5253954626370803e-06,1.679082989092251e-06,3.193815549223933e-06,-1.4241536461234716e-06,-5.5848784228373916e-06,-0.0014846938459004057,0.0007826112277670944,0.0009265894889497436,-0.0009189596040898506,0.005050545926798022,2.531616914006231e-05,-0.0018516370599310976,0.4267818331718445,19.669641494750977,0.4982573688030243,-19.955781936645508,-0.6475730538368225,-2.4694857597351074,0.27591270208358765,0
72,0.355055570602417,-0.4029781222343445,-19.693445205688477,-0.4982573688030243,19.983552932739258,0.6539817452430725,2.4758944511413574,-0.24112264811992645,0.0,0.0,0.0,0.0,0.0,0.0,0.0,-0.366716123683338,0.06273618073479177,-0.3172015373450851,0.20374744481457704,0.06855446099739455,0.09543449993289509,-0.24249554534918727,1.2136269432066207,-0.22023988974094388,-0.0075103031993565845,-2.6038520101246077,-0.10888463918184117,2.4681828378571407,0.8264737976769693,1.2134413937687574,-0.2202432315892585,-0.0075118285948192216,-2.6038483821997875,-0.10888392708698907,2.4681821257803174,0.826474908251239,0.0012457155945584397,0.00038230193607944,-0.0003766965700213104,-0.0005352887269078779,-0.00020288567132628493,-0.00022896496071903816,8.258692667665885e-05,0.0,0.0,0.0,0.0,0.0,0.0,0.0,-0.00018554943786330824,-3.3418483146030464e-06,-1.5253954626370803e-06,3.6279248201154246e-06,7.120948520983328e-07,-7.120768232837804e-07,1.1105742697692378e-06,-0.0012457155945584397,-0.00038230193607944,0.0003766965700213104,0.0005352887269078779,0.00020288567132628493,0.00022896496071903816,-8.258692667665885e-05,0.4029781222343445,19.693445205688477,0.4982573688030243,-19.983552932739258,-0.6539817452430725,-2.4758944511413574,0.24112264811992645,0
73,0.36002278327941895,-0.4029781222343445,-19.693445205688477,-0.4982573688030243,19.983552932739258,0.6539817452430725,2.4758944511413574,-0.24112264811992645,0.0,0.0,0.0,0.0,0.0,0.0,0.0,-0.366716123683338,0.06273618073479177,-0.3172015373450851,0.20374744481457704,0.06855446099739455,0.09543449993289509,-0.24249554534918727,1.2136269432066207,-0.22023988974094388,-0.0075103031993565845,-2.6038520101246077,-0.10888463918184117,2.4681828378571407,0.8264737976769693,1.2134413937687574,-0.2202432315892585,-0.0075118285948192216,-2.6038483821997875,-0.10888392708698907,2.4681821257803174,0.826474908251239,0.0012457155945584397,0.00038230193607944,-0.0003766965700213104,-0.0005352887269078779,-0.00020288567132628493,-0.00022896496071903816,8.258692667665885e-05,0.0,0.0,0.0,0.0,0.0,0.0,0.0,-0.00018554943786330824,-3.3418483146030464e-06,-1.5253954626370803e-06,3.6279248201154246e-06,7.120948520983328e-07,-7.120768232837804e-07,1.1105742697692378e-06,-0.0012457155945584397,-0.00038230193607944,0.0003766965700213104,0.0005352887269078779,0.00020288567132628493,0.00022896496071903816,-8.258692667665885e-05,0.4029781222343445,19.693445205688477,0.4982573688030243,-19.983552932739258,-0.6539817452430725,-2.4758944511413574,0.24112264811992645,0
74,0.365023136138916,-0.3752071261405945,-19.693445205688477,-0.4982573688030243,20.031160354614258,0.6594749093055725,2.4694857597351074,-0.20724813640117645,0.0,0.0,0.0,0.0,0.0,0.0,0.0,-0.3656710539240937,0.059749138369498404,-0.31558887160518767,0.20685780459029873,0.068174098631904,0.09654914766520242,-0.2428234356558475,1.2136232173432577,-0.22023988974094388,-0.007510302874626267,-2.603855350996318,-0.10888536731805146,2.4681835499339635,0.8264700450240794,1.2134413937687574,-0.2202432315892585,-0.0075118285948192216,-2.6038483821997875,-0.10888392708698907,2.4681821257803174,0.826474908251239,0.0005130358399525138,0.0002930428120317331,-0.00028254914320103674,-0.00101559579261973,-0.0003710354102149423,-0.00011403279900715422,-0.0012423530319061156,0.0,0.0,0.0,0.0,0.0,0.0,0.0,-0.00018182357450036157,-3.3418483146030464e-06,-1.525720192954369e-06,6.9687965305043065e-06,1.4402310623828907e-06,-1.4241536461234716e-06,4.863227159646044e-06,-0.0005130358399525138,-0.0002930428120317331,0.00028254914320103674,0.00101559579261973,0.0003710354102149423,0.00011403279900715422,0.0012423530319061156,0.3752071261405945,19.693445205688477,0.4982573688030243,-20.031160354614258,-0.6594749093055725,-2.4694857597351074,0.20724813640117645,0
75,0.3700225353240967,-0.3752071261405945,-19.693445205688477,-0.4982573688030243,20.031160354614258,0.6594749093055725,2.4694857597351074,-0.20724813640117645,0.0,0.0,0.0,0.0,0.0,0.0,0.0,-0.3656710539240937,0.059749138369498404,-0.31558887160518767,0.20685780459029873,0.068174098631904,0.09654914766520242,-0.2428234356558475,1.2136232173432577,-0.22023988974094388,-0.007510302874626267,-2.603855350996318,-0.10888536731805146,2.4681835499339635,0.8264700450240794,1.2134413937687574,-0.2202432315892585,-0.0075118285948192216,-2.6038483821997875,-0.10888392708698907,2.4681821257803174,0.826474908251239,0.0005130358399525138,0.0002930428120317331,-0.00028254914320103674,-0.00101559579261973,-0.0003710354102149423,-0.00011403279900715422,-0.0012423530319061156,0.0,0.0,0.0,0.0,0.0,0.0,0.0,-0.00018182357450036157,-3.3418483146030464e-06,-1.525720192954369e-06,6.9687965305043065e-06,1.4402310623828907e-06,-1.4241536461234716e-06,4.863227159646044e-06,-0.0005130358399525138,-0.0002930428120317331,0.00028254914320103674,0.00101559579261973,0.0003710354102149423,0.00011403279900715422,0.0012423530319061156,0.3752071261405945,19.693445205688477,0.4982573688030243,-20.031160354614258,-0.6594749093055725,-2.4694857597351074,0.20724813640117645,0
76,0.3750176429748535,-0.4029781222343445,-19.693445205688477,-0.4982573688030243,19.983552932739258,0.6420798897743225,2.4630770683288574,-0.28232139348983765,0.0,0.0,0.0,0.0,0.0,0.0,0.0,-0.36479980916527177,0.06148182893496425,-0.31555231776081344,0.2044718367968752,0.06768562682447801,0.09588501725658224,-0.24168191838496575,1.2136267049894842,-0.22023988974094388,-0.007510303199354752,-2.6038520101246077,-0.10888331673609158,2.4681842620107863,0.8264812168286573,1.2134413937687574,-0.2202432315892585,-0.0075118285948192216,-2.6038483821997875,-0.10888392708698907,2.4681821257803174,0.826474908251239,0.0008283955310117056,0.00034576937316348,-0.00040509311809185474,-0.00012612623369054552,0.00023338105788716932,0.00011227823149827057,0.002126881285758543,0.0,0.0,0.0,0.0,0.0,0.0,0.0,-0.00018531122072684703,-3.3418483146030464e-06,-1.5253954644698156e-06,3.6279248201154246e-06,-6.103508974897309e-07,-2.136230468963163e-06,-6.308577418234762e-06,-0.0008283955310117056,-0.00034576937316348,0.00040509311809185474,0.00012612623369054552,-0.00023338105788716932,-0.00011227823149827057,-0.002126881285758543,0.4029781222343445,19.693445205688477,0.4982573688030243,-19.983552932739258,-0.6420798897743225,-2.4630770683288574,0.28232139348983765,0
77,0.3800208568572998,-0.4029781222343445,-19.693445205688477,-0.4982573688030243,19.983552932739258,0.6420798897743225,2.4630770683288574,-0.28232139348983765,0.0,0.0,0.0,0.0,0.0,0.0,0.0,-0.36479980916527177,0.06148182893496425,-0.31555231776081344,0.2044718367968752,0.06768562682447801,0.09588501725658224,-0.24168191838496575,1.2136267049894842,-0.22023988974094388,-0.007510303199354752,-2.6038520101246077,-0.10888331673609158,2.4681842620107863,0.8264812168286573,1.2134413937687574,-0.2202432315892585,-0.0075118285948192216,-2.6038483821997875,-0.10888392708698907,2.4681821257803174,0.826474908251239,0.0008283955310117056,0.00034576937316348,-0.00040509311809185474,-0.00012612623369054552,0.00023338105788716932,0.00011227823149827057,0.002126881285758543,0.0,0.0,0.0,0.0,0.0,0.0,0.0,-0.00018531122072684703,-3.3418483146030464e-06,-1.5253954644698156e-06,3.6279248201154246e-06,-6.103508974897309e-07,-2.136230468963163e-06,-6.308577418234762e-06,-0.0008283955310117056,-0.00034576937316348,0.00040509311809185474,0.00012612623369054552,-0.00023338105788716932,-0.00011227823149827057,-0.002126881285758543,0.4029781222343445,19.693445205688477,0.4982573688030243,-19.983552932739258,-0.6420798897743225,-2.4630770683288574,0.28232139348983765,0
78,0.3850209712982178,-0.4029781222343445,-19.717248916625977,-0.5220611095428467,19.983552932739258,0.6475730538368225,2.4694857597351074,-0.20083944499492645,0.0,0.0,0.0,0.0,0.0,0.0,0.0,-0.3664689958115893,0.05665931825377985,-0.31601957901748295,0.2042082873740428,0.06702520212728198,0.09589593605940305,-0.2406833303621202,1.2136247461131064,-0.2202382193050886,-0.00750863276140993,-2.6038520101246077,-0.10888392708698909,2.4681835499339635,0.8264730873220767,1.2134413937687574,-0.2202432315892585,-0.0075118285948192216,-2.6038483821997875,-0.10888392708698907,2.4681821257803174,0.826474908251239,0.0008172352739853388,0.00023159170338120534,-3.29722004467502e-05,-0.0005059496350550943,0.005534825611958128,-8.379888184212713e-05,-0.0018515451973746045,0.0,0.0,0.0,0.0,0.0,0.0,0.0,-0.00018335234434907477,-5.012284169880754e-06,-3.195833409291339e-06,3.6279248201154246e-06,1.3877787807814457e-17,-1.4241536461234716e-06,1.8209291623438872e-06,-0.0008172352739853388,-0.00023159170338120534,3.29722004467502e-05,0.0005059496350550943,-0.005534825611958128,8.379888184212713e-05,0.0018515451973746045,0.4029781222343445,19.717248916625977,0.5220611095428467,-19.983552932739258,-0.6475730538368225,-2.4694857597351074,0.20083944499492645,0
79,0.39000868797302246,-0.4029781222343445,-19.717248916625977,-0.5220611095428467,19.983552932739258,0.6475730538368225,2.4694857597351074,-0.20083944499492645,0.0,0.0,0.0,0.0,0.0,0.0,0.0,-0.3664689958115893,0.05665931825377985,-0.31601957901748295,0.2042082873740428,0.06702520212728198,0.09589593605940305,-0.2406833303621202,1.2136247461131064,-0.2202382193050886,-0.00750863276140993,-2.6038520101246077,-0.10888392708698909,2.4681835499339635,0.8264730873220767,1.2134413937687574,-0.2202432315892585,-0.0075118285948192216,-2.6038483821997875,-0.10888392708698907,2.4681821257803174,0.826474908251239,0.0008172352739853388,0.00023159170338120534,-3.29722004467502e-05,-0.0005059496350550943,0.005534825611958128,-8.379888184212713e-05,-0.0018515451973746045,0.0,0.0,0.0,0.0,0.0,0.0,0.0,-0.00018335234434907477,-5.012284169880754e-06,-3.195833409291339e-06,3.6279248201154246e-06,1.3877787807814457e-17,-1.4241536461234716e-06,1.8209291623438872e-06,-0.0008172352739853388,-0.00023159170338120534,3.29722004467502e-05,0.0005059496350550943,-0.005534825611958128,8.379888184212713e-05,0.0018515451973746045,0.4029781222343445,19.717248916625977,0.5220611095428467,-19.983552932739258,-0.6475730538368225,-2.4694857597351074,0.20083944499492645,0
