rezayati/contactInterpretation/dataset/franka_main/labeled_data/link1/g2_5.csv
index,time,tau_J0,tau_J1,tau_J2,tau_J3,tau_J4,tau_J5,tau_J6,tau_J_d0,tau_J_d1,tau_J_d2,tau_J_d3,tau_J_d4,tau_J_d5,tau_J_d6,tau_ext0,tau_ext1,tau_ext2,tau_ext3,tau_ext4,tau_ext5,tau_ext6,q0,q1,q2,q3,q4,q5,q6,q_d0,q_d1,q_d2,q_d3,q_d4,q_d5,q_d6,dq0,dq1,dq2,dq3,dq4,dq5,dq6,dq_d0,dq_d1,dq_d2,dq_d3,dq_d4,dq_d5,dq_d6,e0,e1,e2,e3,e4,e5,e6,de0,de1,de2,de3,de4,de5,de6,etau_J0,etau_J1,etau_J2,etau_J3,etau_J4,etau_J5,etau_J6,label
1,0.0,-0.6053096652030945,-46.57577133178711,-5.612087726593018,19.535249710083008,0.7730002999305725,2.3724398612976074,-0.18710653483867645,0.0,0.0,0.0,0.0,0.0,0.0,0.0,-0.6355985066142241,-0.225485178237995,-0.3955292045638783,0.31389905543641583,0.1897839118396561,0.10381807220065918,-0.1860916014882432,0.8780260479696042,0.7554243371751689,-0.28249464136257507,-1.66905747632813,0.14140503551696582,2.4035718388833147,1.0273468966401293,0.878092876070424,0.7554597494309409,-0.2825552651693207,-1.6690993614607135,0.1414185955172306,2.4034451173676383,1.0273381002308042,0.0005796242413835766,0.0001609703886437122,0.0012823703970251878,-3.180156757921641e-05,0.00017954605659178968,-3.924117870577121e-05,0.00037541451248672143,0.0,0.0,0.0,0.0,0.0,0.0,0.0,6.682810081981572e-05,3.54122557719716e-05,-6.0623806745652153e-05,-4.188513258340798e-05,1.3560000264783989e-05,-0.0001267215156763868,-8.796409325162458e-06,-0.0005796242413835766,-0.0001609703886437122,-0.0012823703970251878,3.180156757921641e-05,-0.00017954605659178968,3.924117870577121e-05,-0.00037541451248672143,0.6053096652030945,46.57577133178711,5.612087726593018,-19.535249710083008,-0.7730002999305725,-2.3724398612976074,0.18710653483867645,0
2,0.005003929138183594,-0.6806880831718445,-46.54800033569336,-5.588284015655518,19.559053421020508,0.7730002999305725,2.3596224784851074,-0.15964071452617645,0.0,0.0,0.0,0.0,0.0,0.0,0.0,-0.6544099119228672,-0.21556916936141568,-0.4099657134762428,0.30800721750254245,0.19042596776826842,0.10289238257132556,-0.1856585449685266,0.878030532816551,0.7554221283191167,-0.28249632046522366,-1.6690591467639855,0.14140575576272904,2.403572203871291,1.027343858291317,0.878092876070424,0.7554597494309409,-0.2825552651693207,-1.6690993614607135,0.1414185955172306,2.4034451173676383,1.0273381002308042,0.0005500285863760687,0.00020608225646117796,0.00012393924066627897,-0.0005669118205295736,9.872584452104041e-05,0.00044078819803650685,-0.0010301649583266894,0.0,0.0,0.0,0.0,0.0,0.0,0.0,6.234325387299844e-05,3.7621111824148734e-05,-5.894470409706365e-05,-4.0214696727991495e-05,1.2839754501559053e-05,-0.0001270865036526736,-5.758060512839336e-06,-0.0005500285863760687,-0.00020608225646117796,-0.00012393924066627897,0.0005669118205295736,-9.872584452104041e-05,-0.00044078819803650685,0.0010301649583266894,0.6806880831718445,46.54800033569336,5.588284015655518,-19.559053421020508,-0.7730002999305725,-2.3596224784851074,0.15964071452617645,0
3,0.010001659393310547,-0.6806880831718445,-46.54800033569336,-5.588284015655518,19.559053421020508,0.7730002999305725,2.3596224784851074,-0.15964071452617645,0.0,0.0,0.0,0.0,0.0,0.0,0.0,-0.6544099119228672,-0.21556916936141568,-0.4099657134762428,0.30800721750254245,0.19042596776826842,0.10289238257132556,-0.1856585449685266,0.878030532816551,0.7554221283191167,-0.28249632046522366,-1.6690591467639855,0.14140575576272904,2.403572203871291,1.027343858291317,0.878092876070424,0.7554597494309409,-0.2825552651693207,-1.6690993614607135,0.1414185955172306,2.4034451173676383,1.0273381002308042,0.0005500285863760687,0.00020608225646117796,0.00012393924066627897,-0.0005669118205295736,9.872584452104041e-05,0.00044078819803650685,-0.0010301649583266894,0.0,0.0,0.0,0.0,0.0,0.0,0.0,6.234325387299844e-05,3.7621111824148734e-05,-5.894470409706365e-05,-4.0214696727991495e-05,1.2839754501559053e-05,-0.0001270865036526736,-5.758060512839336e-06,-0.0005500285863760687,-0.00020608225646117796,-0.00012393924066627897,0.0005669118205295736,-9.872584452104041e-05,-0.00044078819803650685,0.0010301649583266894,0.6806880831718445,46.54800033569336,5.588284015655518,-19.559053421020508,-0.7730002999305725,-2.3596224784851074,0.15964071452617645,0
4,0.014992713928222656,-0.7322627902030945,-46.54800033569336,-5.564480304718018,19.487642288208008,0.7730002999305725,2.3724398612976074,-0.21457235515117645,0.0,0.0,0.0,0.0,0.0,0.0,0.0,-0.6439722216219216,-0.21669359544466374,-0.39951333405200434,0.31420528133960957,0.1900857485675956,0.10307118503296832,-0.18645999944445102,0.8780348774476054,0.75542213120658,-0.2824986842445952,-1.6690541354564197,0.14140504664776501,2.4035711067604715,1.0273499483980169,0.878092876070424,0.7554597494309409,-0.2825552651693207,-1.6690993614607135,0.1414185955172306,2.4034451173676383,1.0273381002308042,0.0007424742431098774,0.0003155509359479823,-0.00021300701801134047,0.0008674275726577455,7.339740388020058e-06,-0.00021740216922953577,0.0013091082892579037,0.0,0.0,0.0,0.0,0.0,0.0,0.0,5.799862281852253e-05,3.761822436088025e-05,-5.6580924725546655e-05,-4.522600429379686e-05,1.3548869465584978e-05,-0.00012598939283314792,-1.1848167212669125e-05,-0.0007424742431098774,-0.0003155509359479823,0.00021300701801134047,-0.0008674275726577455,-7.339740388020058e-06,0.00021740216922953577,-0.0013091082892579037,0.7322627902030945,46.54800033569336,5.564480304718018,-19.487642288208008,-0.7730002999305725,-2.3724398612976074,0.21457235515117645,0
5,0.019994020462036133,-0.7322627902030945,-46.54800033569336,-5.564480304718018,19.487642288208008,0.7730002999305725,2.3724398612976074,-0.21457235515117645,0.0,0.0,0.0,0.0,0.0,0.0,0.0,-0.6439722216219216,-0.21669359544466374,-0.39951333405200434,0.31420528133960957,0.1900857485675956,0.10307118503296832,-0.18645999944445102,0.8780348774476054,0.75542213120658,-0.2824986842445952,-1.6690541354564197,0.14140504664776501,2.4035711067604715,1.0273499483980169,0.878092876070424,0.7554597494309409,-0.2825552651693207,-1.6690993614607135,0.1414185955172306,2.4034451173676383,1.0273381002308042,0.0007424742431098774,0.0003155509359479823,-0.00021300701801134047,0.0008674275726577455,7.339740388020058e-06,-0.00021740216922953577,0.0013091082892579037,0.0,0.0,0.0,0.0,0.0,0.0,0.0,5.799862281852253e-05,3.761822436088025e-05,-5.6580924725546655e-05,-4.522600429379686e-05,1.3548869465584978e-05,-0.00012598939283314792,-1.1848167212669125e-05,-0.0007424742431098774,-0.0003155509359479823,0.00021300701801134047,-0.0008674275726577455,-7.339740388020058e-06,0.00021740216922953577,-0.0013091082892579037,0.7322627902030945,46.54800033569336,5.564480304718018,-19.487642288208008,-0.7730002999305725,-2.3724398612976074,0.21457235515117645,0
6,0.024995803833007812,-0.7084590792655945,-46.52419662475586,-5.612087726593018,19.511445999145508,0.7849021553993225,2.3724398612976074,-0.17978231608867645,0.0,0.0,0.0,0.0,0.0,0.0,0.0,-0.6473948464184018,-0.2035995488789035,-0.39297788205893824,0.31043023162774175,0.18968531407911654,0.1019067186409129,-0.186343956308851,0.8780332776583867,0.75542045788181,-0.282494642329515,-1.6690558058922749,0.14140455165592003,2.403572166615788,1.0273460828380452,0.878092876070424,0.7554597494309409,-0.2825552651693207,-1.6690993614607135,0.1414185955172306,2.4034451173676383,1.0273381002308042,-0.00019759259774926007,0.0006597826437802645,0.000721103468356905,-0.00025441701925276984,-0.00031470718411102976,-0.00011115654547834803,0.00013697329028877487,0.0,0.0,0.0,0.0,0.0,0.0,0.0,5.959841203728722e-05,3.929154913084876e-05,-6.062283980573513e-05,-4.355556843860242e-05,1.4043861310569783e-05,-0.00012704924814954666,-7.982607240997197e-06,0.00019759259774926007,-0.0006597826437802645,-0.000721103468356905,0.00025441701925276984,0.00031470718411102976,0.00011115654547834803,-0.00013697329028877487,0.7084590792655945,46.52419662475586,5.612087726593018,-19.511445999145508,-0.7849021553993225,-2.3724398612976074,0.17978231608867645,0
7,0.02999258041381836,-0.7084590792655945,-46.52419662475586,-5.612087726593018,19.511445999145508,0.7849021553993225,2.3724398612976074,-0.17978231608867645,0.0,0.0,0.0,0.0,0.0,0.0,0.0,-0.6473948464184018,-0.2035995488789035,-0.39297788205893824,0.31043023162774175,0.18968531407911654,0.1019067186409129,-0.186343956308851,0.8780332776583867,0.75542045788181,-0.282494642329515,-1.6690558058922749,0.14140455165592003,2.403572166615788,1.0273460828380452,0.878092876070424,0.7554597494309409,-0.2825552651693207,-1.6690993614607135,0.1414185955172306,2.4034451173676383,1.0273381002308042,-0.00019759259774926007,0.0006597826437802645,0.000721103468356905,-0.00025441701925276984,-0.00031470718411102976,-0.00011115654547834803,0.00013697329028877487,0.0,0.0,0.0,0.0,0.0,0.0,0.0,5.959841203728722e-05,3.929154913084876e-05,-6.062283980573513e-05,-4.355556843860242e-05,1.4043861310569783e-05,-0.00012704924814954666,-7.982607240997197e-06,0.00019759259774926007,-0.0006597826437802645,-0.000721103468356905,0.00025441701925276984,0.00031470718411102976,0.00011115654547834803,-0.00013697329028877487,0.7084590792655945,46.52419662475586,5.612087726593018,-19.511445999145508,-0.7849021553993225,-2.3724398612976074,0.17978231608867645,0
8,0.03584766387939453,-0.7084590792655945,-46.52419662475586,-5.612087726593018,19.511445999145508,0.7849021553993225,2.3724398612976074,-0.17978231608867645,0.0,0.0,0.0,0.0,0.0,0.0,0.0,-0.6473948464184018,-0.2035995488789035,-0.39297788205893824,0.31043023162774175,0.18968531407911654,0.1019067186409129,-0.186343956308851,0.8780332776583867,0.75542045788181,-0.282494642329515,-1.6690558058922749,0.14140455165592003,2.403572166615788,1.0273460828380452,0.878092876070424,0.7554597494309409,-0.2825552651693207,-1.6690993614607135,0.1414185955172306,2.4034451173676383,1.0273381002308042,-0.00019759259774926007,0.0006597826437802645,0.000721103468356905,-0.00025441701925276984,-0.00031470718411102976,-0.00011115654547834803,0.00013697329028877487,0.0,0.0,0.0,0.0,0.0,0.0,0.0,5.959841203728722e-05,3.929154913084876e-05,-6.062283980573513e-05,-4.355556843860242e-05,1.4043861310569783e-05,-0.00012704924814954666,-7.982607240997197e-06,0.00019759259774926007,-0.0006597826437802645,-0.000721103468356905,0.00025441701925276984,0.00031470718411102976,0.00011115654547834803,-0.00013697329028877487,0.7084590792655945,46.52419662475586,5.612087726593018,-19.511445999145508,-0.7849021553993225,-2.3724398612976074,0.17978231608867645,0
9,0.039994239807128906,-0.7084590792655945,-46.52419662475586,-5.612087726593018,19.511445999145508,0.7849021553993225,2.3724398612976074,-0.17978231608867645,0.0,0.0,0.0,0.0,0.0,0.0,0.0,-0.6473948464184018,-0.2035995488789035,-0.39297788205893824,0.31043023162774175,0.18968531407911654,0.1019067186409129,-0.186343956308851,0.8780332776583867,0.75542045788181,-0.282494642329515,-1.6690558058922749,0.14140455165592003,2.403572166615788,1.0273460828380452,0.878092876070424,0.7554597494309409,-0.2825552651693207,-1.6690993614607135,0.1414185955172306,2.4034451173676383,1.0273381002308042,-0.00019759259774926007,0.0006597826437802645,0.000721103468356905,-0.00025441701925276984,-0.00031470718411102976,-0.00011115654547834803,0.00013697329028877487,0.0,0.0,0.0,0.0,0.0,0.0,0.0,5.959841203728722e-05,3.929154913084876e-05,-6.062283980573513e-05,-4.355556843860242e-05,1.4043861310569783e-05,-0.00012704924814954666,-7.982607240997197e-06,0.00019759259774926007,-0.0006597826437802645,-0.000721103468356905,0.00025441701925276984,0.00031470718411102976,0.00011115654547834803,-0.00013697329028877487,0.7084590792655945,46.52419662475586,5.612087726593018,-19.511445999145508,-0.7849021553993225,-2.3724398612976074,0.17978231608867645,0
10,0.04495549201965332,-0.7084590792655945,-46.52419662475586,-5.612087726593018,19.511445999145508,0.7849021553993225,2.3724398612976074,-0.17978231608867645,0.0,0.0,0.0,0.0,0.0,0.0,0.0,-0.6473948464184018,-0.2035995488789035,-0.39297788205893824,0.31043023162774175,0.18968531407911654,0.1019067186409129,-0.186343956308851,0.8780332776583867,0.75542045788181,-0.282494642329515,-1.6690558058922749,0.14140455165592003,2.403572166615788,1.0273460828380452,0.878092876070424,0.7554597494309409,-0.2825552651693207,-1.6690993614607135,0.1414185955172306,2.4034451173676383,1.0273381002308042,-0.00019759259774926007,0.0006597826437802645,0.000721103468356905,-0.00025441701925276984,-0.00031470718411102976,-0.00011115654547834803,0.00013697329028877487,0.0,0.0,0.0,0.0,0.0,0.0,0.0,5.959841203728722e-05,3.929154913084876e-05,-6.062283980573513e-05,-4.355556843860242e-05,1.4043861310569783e-05,-0.00012704924814954666,-7.982607240997197e-06,0.00019759259774926007,-0.0006597826437802645,-0.000721103468356905,0.00025441701925276984,0.00031470718411102976,0.00011115654547834803,-0.00013697329028877487,0.7084590792655945,46.52419662475586,5.612087726593018,-19.511445999145508,-0.7849021553993225,-2.3724398612976074,0.17978231608867645,0
11,0.04994916915893555,-0.7322627902030945,-46.59957504272461,-5.612087726593018,19.559053421020508,0.7665916085243225,2.3724398612976074,-0.20724813640117645,0.0,0.0,0.0,0.0,0.0,0.0,0.0,-0.6672979678568525,-0.22289353819111535,-0.4037976012647144,0.3245643455933422,0.1903163666524172,0.10407227134574104,-0.18611837408214446,0.8780328111941188,0.7554257475953353,-0.2824949533671372,-1.6690591467639855,0.14140871288833562,2.4035719745862583,1.0273491748228607,0.878092876070424,0.7554597494309409,-0.2825552651693207,-1.6690993614607135,0.1414185955172306,2.4034451173676383,1.0273381002308042,-0.0006634698049745909,0.0021472350202386852,0.00011573707681742539,-0.0004811824520522072,0.00016467352614935534,-2.926256321230888e-05,0.0001916876070902075,0.0,0.0,0.0,0.0,0.0,0.0,0.0,6.006487630516588e-05,3.4001835605534936e-05,-6.031180218352139e-05,-4.0214696727991495e-05,9.882628894980483e-06,-0.0001268572186199357,-1.1074592056514732e-05,0.0006634698049745909,-0.0021472350202386852,-0.00011573707681742539,0.0004811824520522072,-0.00016467352614935534,2.926256321230888e-05,-0.0001916876070902075,0.7322627902030945,46.59957504272461,5.612087726593018,-19.559053421020508,-0.7665916085243225,-2.3724398612976074,0.20724813640117645,0
12,0.05540299415588379,-0.7322627902030945,-46.59957504272461,-5.612087726593018,19.559053421020508,0.7665916085243225,2.3724398612976074,-0.20724813640117645,0.0,0.0,0.0,0.0,0.0,0.0,0.0,-0.6672979678568525,-0.22289353819111535,-0.4037976012647144,0.3245643455933422,0.1903163666524172,0.10407227134574104,-0.18611837408214446,0.8780328111941188,0.7554257475953353,-0.2824949533671372,-1.6690591467639855,0.14140871288833562,2.4035719745862583,1.0273491748228607,0.878092876070424,0.7554597494309409,-0.2825552651693207,-1.6690993614607135,0.1414185955172306,2.4034451173676383,1.0273381002308042,-0.0006634698049745909,0.0021472350202386852,0.00011573707681742539,-0.0004811824520522072,0.00016467352614935534,-2.926256321230888e-05,0.0001916876070902075,0.0,0.0,0.0,0.0,0.0,0.0,0.0,6.006487630516588e-05,3.4001835605534936e-05,-6.031180218352139e-05,-4.0214696727991495e-05,9.882628894980483e-06,-0.0001268572186199357,-1.1074592056514732e-05,0.0006634698049745909,-0.0021472350202386852,-0.00011573707681742539,0.0004811824520522072,-0.00016467352614935534,2.926256321230888e-05,-0.0001916876070902075,0.7322627902030945,46.59957504272461,5.612087726593018,-19.559053421020508,-0.7665916085243225,-2.3724398612976074,0.20724813640117645,0
13,0.0599973201751709,-0.6806880831718445,-46.52419662475586,-5.564480304718018,19.511445999145508,0.7784934639930725,2.3724398612976074,-0.15231649577617645,0.0,0.0,0.0,0.0,0.0,0.0,0.0,-0.636079921088803,-0.2616752368187688,-0.3830628116129353,0.36302640523692215,0.19002616787738494,0.10944079411088588,-0.18725765068346126,0.8780284765395825,0.7554205358829338,-0.282497985124978,-1.6690558058922749,0.14140407778010888,2.4035753845655905,1.0273430310804599,0.878092876070424,0.7554597494309409,-0.2825552651693207,-1.6690993614607135,0.1414185955172306,2.4034451173676383,1.0273381002308042,5.713966069216947e-05,-0.0002521122937437444,-0.0004382255294177717,-0.00013479095295471576,4.4018707516989946e-05,-2.686828882627879e-05,-0.0007877468936871172,0.0,0.0,0.0,0.0,0.0,0.0,0.0,6.439953084147465e-05,3.9213548007066557e-05,-5.7280044342744585e-05,-4.355556843860242e-05,1.4517737121716445e-05,-0.0001302671979521719,-4.930849655693237e-06,-5.713966069216947e-05,0.0002521122937437444,0.0004382255294177717,0.00013479095295471576,-4.4018707516989946e-05,2.686828882627879e-05,0.0007877468936871172,0.6806880831718445,46.52419662475586,5.564480304718018,-19.511445999145508,-0.7784934639930725,-2.3724398612976074,0.15231649577617645,0
14,0.06499147415161133,-0.6806880831718445,-46.52419662475586,-5.564480304718018,19.511445999145508,0.7784934639930725,2.3724398612976074,-0.15231649577617645,0.0,0.0,0.0,0.0,0.0,0.0,0.0,-0.636079921088803,-0.2616752368187688,-0.3830628116129353,0.36302640523692215,0.19002616787738494,0.10944079411088588,-0.18725765068346126,0.8780284765395825,0.7554205358829338,-0.282497985124978,-1.6690558058922749,0.14140407778010888,2.4035753845655905,1.0273430310804599,0.878092876070424,0.7554597494309409,-0.2825552651693207,-1.6690993614607135,0.1414185955172306,2.4034451173676383,1.0273381002308042,5.713966069216947e-05,-0.0002521122937437444,-0.0004382255294177717,-0.00013479095295471576,4.4018707516989946e-05,-2.686828882627879e-05,-0.0007877468936871172,0.0,0.0,0.0,0.0,0.0,0.0,0.0,6.439953084147465e-05,3.9213548007066557e-05,-5.7280044342744585e-05,-4.355556843860242e-05,1.4517737121716445e-05,-0.0001302671979521719,-4.930849655693237e-06,-5.713966069216947e-05,0.0002521122937437444,0.0004382255294177717,0.00013479095295471576,-4.4018707516989946e-05,2.686828882627879e-05,0.0007877468936871172,0.6806880831718445,46.52419662475586,5.564480304718018,-19.511445999145508,-0.7784934639930725,-2.3724398612976074,0.15231649577617645,0
15,0.06999611854553223,-0.6053096652030945,-46.57577133178711,-5.612087726593018,19.535249710083008,0.7784934639930725,2.3788485527038574,-0.13858358561992645,0.0,0.0,0.0,0.0,0.0,0.0,0.0,-0.6625413693359297,-0.21635783082846005,-0.3961754285344236,0.32253999167407055,0.19026390227202264,0.10312843122644012,-0.18605556136011486,0.8780260096892578,0.7554240784438897,-0.2824946413625914,-1.66905747632813,0.14140772790719708,2.4035746188881633,1.0273415052013264,0.878092876070424,0.7554597494309409,-0.2825552651693207,-1.6690993614607135,0.1414185955172306,2.4034451173676383,1.0273381002308042,-0.0006782843061960127,1.5573743403117675e-05,0.0007879585830272526,-0.00040310047618244286,-0.0002323347744006684,-0.00022165912257190575,-0.001970866805895965,0.0,0.0,0.0,0.0,0.0,0.0,0.0,6.686638116615296e-05,3.567098705115068e-05,-6.0623806729331875e-05,-4.188513258340798e-05,1.0867610033521435e-05,-0.0001295015205249328,-3.404970522202788e-06,0.0006782843061960127,-1.5573743403117675e-05,-0.0007879585830272526,0.00040310047618244286,0.0002323347744006684,0.00022165912257190575,0.001970866805895965,0.6053096652030945,46.57577133178711,5.612087726593018,-19.535249710083008,-0.7784934639930725,-2.3788485527038574,0.13858358561992645,0
16,0.0749964714050293,-0.6053096652030945,-46.57577133178711,-5.612087726593018,19.535249710083008,0.7784934639930725,2.3788485527038574,-0.13858358561992645,0.0,0.0,0.0,0.0,0.0,0.0,0.0,-0.6625413693359297,-0.21635783082846005,-0.3961754285344236,0.32253999167407055,0.19026390227202264,0.10312843122644012,-0.18605556136011486,0.8780260096892578,0.7554240784438897,-0.2824946413625914,-1.66905747632813,0.14140772790719708,2.4035746188881633,1.0273415052013264,0.878092876070424,0.7554597494309409,-0.2825552651693207,-1.6690993614607135,0.1414185955172306,2.4034451173676383,1.0273381002308042,-0.0006782843061960127,1.5573743403117675e-05,0.0007879585830272526,-0.00040310047618244286,-0.0002323347744006684,-0.00022165912257190575,-0.001970866805895965,0.0,0.0,0.0,0.0,0.0,0.0,0.0,6.686638116615296e-05,3.567098705115068e-05,-6.0623806729331875e-05,-4.188513258340798e-05,1.0867610033521435e-05,-0.0001295015205249328,-3.404970522202788e-06,0.0006782843061960127,-1.5573743403117675e-05,-0.0007879585830272526,0.00040310047618244286,0.0002323347744006684,0.00022165912257190575,0.001970866805895965,0.6053096652030945,46.57577133178711,5.612087726593018,-19.535249710083008,-0.7784934639930725,-2.3788485527038574,0.13858358561992645,0
17,0.07999467849731445,-0.5815059542655945,-46.64718246459961,-5.512905597686768,19.559053421020508,0.7784934639930725,2.3660311698913574,-0.21457235515117645,0.0,0.0,0.0,0.0,0.0,0.0,0.0,-0.6698602386513579,-0.21811758521235625,-0.40801429140492557,0.3179239334686275,0.19051801335566107,0.10346356687159772,-0.1856483396927193,0.8780236582447086,0.7554291144674331,-0.282501601511972,-1.6690589083454064,0.1414041958875136,2.4035725625961954,1.0273499483979411,0.878092876070424,0.7554597494309409,-0.2825552651693207,-1.6690993614607135,0.1414185955172306,2.4034451173676383,1.0273381002308042,-0.0010851613736117163,0.0011093374365804389,-0.0012672372142524414,-0.00029444758977536107,-0.00020539233006788187,0.0001980925048876182,0.0012115613119507507,0.0,0.0,0.0,0.0,0.0,0.0,0.0,6.921782571533974e-05,3.0634963507747415e-05,-5.366365734871259e-05,-4.045311530709306e-05,1.439962971699904e-05,-0.00012744522855712148,-1.1848167136951915e-05,0.0010851613736117163,-0.0011093374365804389,0.0012672372142524414,0.00029444758977536107,0.00020539233006788187,-0.0001980925048876182,-0.0012115613119507507,0.5815059542655945,46.64718246459961,5.512905597686768,-19.559053421020508,-0.7784934639930725,-2.3660311698913574,0.21457235515117645,0
18,0.08494853973388672,-0.5815059542655945,-46.64718246459961,-5.512905597686768,19.559053421020508,0.7784934639930725,2.3660311698913574,-0.21457235515117645,0.0,0.0,0.0,0.0,0.0,0.0,0.0,-0.6698602386513579,-0.21811758521235625,-0.40801429140492557,0.3179239334686275,0.19051801335566107,0.10346356687159772,-0.1856483396927193,0.8780236582447086,0.7554291144674331,-0.282501601511972,-1.6690589083454064,0.1414041958875136,2.4035725625961954,1.0273499483979411,0.878092876070424,0.7554597494309409,-0.2825552651693207,-1.6690993614607135,0.1414185955172306,2.4034451173676383,1.0273381002308042,-0.0010851613736117163,0.0011093374365804389,-0.0012672372142524414,-0.00029444758977536107,-0.00020539233006788187,0.0001980925048876182,0.0012115613119507507,0.0,0.0,0.0,0.0,0.0,0.0,0.0,6.921782571533974e-05,3.0634963507747415e-05,-5.366365734871259e-05,-4.045311530709306e-05,1.439962971699904e-05,-0.00012744522855712148,-1.1848167136951915e-05,0.0010851613736117163,-0.0011093374365804389,0.0012672372142524414,0.00029444758977536107,0.00020539233006788187,-0.0001980925048876182,-0.0012115613119507507,0.5815059542655945,46.64718246459961,5.512905597686768,-19.559053421020508,-0.7784934639930725,-2.3660311698913574,0.21457235515117645,0
19,0.0899956226348877,-0.6053096652030945,-46.59957504272461,-5.536709308624268,19.511445999145508,0.7730002999305725,2.3596224784851074,-0.18710653483867645,0.0,0.0,0.0,0.0,0.0,0.0,0.0,-0.6434114490410963,-0.21123584414849758,-0.38874642667109405,0.3099539581004262,0.189478307179036,0.10217424593159728,-0.18656668176929742,0.8780258007171621,0.7554257475954821,-0.2824999310761167,-1.669055805890929,0.14140503065738985,2.403573750179642,1.0273468966401285,0.878092876070424,0.7554597494309409,-0.2825552651693207,-1.6690993614607135,0.1414185955172306,2.4034451173676383,1.0273381002308042,0.000663763736897039,-0.00010165099162152334,0.00026165417875651464,0.00014866158065787992,-9.844285703280435e-06,0.0004466874776742588,-0.00044481482840286993,0.0,0.0,0.0,0.0,0.0,0.0,0.0,6.707535326189173e-05,3.400183545876345e-05,-5.533409320401805e-05,-4.355556978441477e-05,1.3564859840747845e-05,-0.00012863281200381493,-8.796409324274279e-06,-0.000663763736897039,0.00010165099162152334,-0.00026165417875651464,-0.00014866158065787992,9.844285703280435e-06,-0.0004466874776742588,0.00044481482840286993,0.6053096652030945,46.59957504272461,5.536709308624268,-19.511445999145508,-0.7730002999305725,-2.3596224784851074,0.18710653483867645,0
20,0.09501814842224121,-0.6053096652030945,-46.59957504272461,-5.536709308624268,19.511445999145508,0.7730002999305725,2.3596224784851074,-0.18710653483867645,0.0,0.0,0.0,0.0,0.0,0.0,0.0,-0.6434114490410963,-0.21123584414849758,-0.38874642667109405,0.3099539581004262,0.189478307179036,0.10217424593159728,-0.18656668176929742,0.8780258007171621,0.7554257475954821,-0.2824999310761167,-1.669055805890929,0.14140503065738985,2.403573750179642,1.0273468966401285,0.878092876070424,0.7554597494309409,-0.2825552651693207,-1.6690993614607135,0.1414185955172306,2.4034451173676383,1.0273381002308042,0.000663763736897039,-0.00010165099162152334,0.00026165417875651464,0.00014866158065787992,-9.844285703280435e-06,0.0004466874776742588,-0.00044481482840286993,0.0,0.0,0.0,0.0,0.0,0.0,0.0,6.707535326189173e-05,3.400183545876345e-05,-5.533409320401805e-05,-4.355556978441477e-05,1.3564859840747845e-05,-0.00012863281200381493,-8.796409324274279e-06,-0.000663763736897039,0.00010165099162152334,-0.00026165417875651464,-0.00014866158065787992,9.844285703280435e-06,-0.0004466874776742588,0.00044481482840286993,0.6053096652030945,46.59957504272461,5.536709308624268,-19.511445999145508,-0.7730002999305725,-2.3596224784851074,0.18710653483867645,0
21,0.10043478012084961,-0.6291133761405945,-46.47658920288086,-5.564480304718018,19.559053421020508,0.7784934639930725,2.3724398612976074,-0.21457235515117645,0.0,0.0,0.0,0.0,0.0,0.0,0.0,-0.6487878525129054,-0.20547803063411638,-0.3921615682787336,0.30250463758644347,0.18953185975272796,0.10143648138121115,-0.18758208718742836,0.8780248533480276,0.7554171170457489,-0.28249798223428557,-1.6690591467639855,0.14140764766003475,2.403572310362639,1.0273499483979411,0.878092876070424,0.7554597494309409,-0.2825552651693207,-1.6690993614607135,0.1414185955172306,2.4034451173676383,1.0273381002308042,0.0012103639645771353,-0.0012691154670250743,0.0013334226154079877,-0.0006745304045855082,-9.319270751442484e-05,-8.624369026203162e-05,0.0015522502238440726,0.0,0.0,0.0,0.0,0.0,0.0,0.0,6.802272239636586e-05,4.263238519197632e-05,-5.728293503515225e-05,-4.0214696727991495e-05,1.0947857195853228e-05,-0.00012719299500085768,-1.1848167136951915e-05,-0.0012103639645771353,0.0012691154670250743,-0.0013334226154079877,0.0006745304045855082,9.319270751442484e-05,8.624369026203162e-05,-0.0015522502238440726,0.6291133761405945,46.47658920288086,5.564480304718018,-19.559053421020508,-0.7784934639930725,-2.3724398612976074,0.21457235515117645,0
22,0.10499238967895508,-0.6291133761405945,-46.47658920288086,-5.564480304718018,19.559053421020508,0.7784934639930725,2.3724398612976074,-0.21457235515117645,0.0,0.0,0.0,0.0,0.0,0.0,0.0,-0.6487878525129054,-0.20547803063411638,-0.3921615682787336,0.30250463758644347,0.18953185975272796,0.10143648138121115,-0.18758208718742836,0.8780248533480276,0.7554171170457489,-0.28249798223428557,-1.6690591467639855,0.14140764766003475,2.403572310362639,1.0273499483979411,0.878092876070424,0.7554597494309409,-0.2825552651693207,-1.6690993614607135,0.1414185955172306,2.4034451173676383,1.0273381002308042,0.0012103639645771353,-0.0012691154670250743,0.0013334226154079877,-0.0006745304045855082,-9.319270751442484e-05,-8.624369026203162e-05,0.0015522502238440726,0.0,0.0,0.0,0.0,0.0,0.0,0.0,6.802272239636586e-05,4.263238519197632e-05,-5.728293503515225e-05,-4.0214696727991495e-05,1.0947857195853228e-05,-0.00012719299500085768,-1.1848167136951915e-05,-0.0012103639645771353,0.0012691154670250743,-0.0013334226154079877,0.0006745304045855082,9.319270751442484e-05,8.624369026203162e-05,-0.0015522502238440726,0.6291133761405945,46.47658920288086,5.564480304718018,-19.559053421020508,-0.7784934639930725,-2.3724398612976074,0.21457235515117645,0
23,0.10999608039855957,-0.6568843722343445,-46.52419662475586,-5.536709308624268,19.535249710083008,0.7784934639930725,2.3660311698913574,-0.15231649577617645,0.0,0.0,0.0,0.0,0.0,0.0,0.0,-0.6550875468210859,-0.23035857163315754,-0.40014835718673686,0.3160528508793495,0.19022077622386419,0.10299807035916944,-0.18753741200080265,0.878029401886035,0.7554204578817939,-0.2824999339650478,-1.66905747632813,0.14140560035424585,2.403574792809738,1.0273430310802327,0.878092876070424,0.7554597494309409,-0.2825552651693207,-1.6690993614607135,0.1414185955172306,2.4034451173676383,1.0273381002308042,0.0006599105592033586,-0.00028137132308690086,0.0004299246887726773,-0.00012256668784270882,-0.0003164425353345901,-0.00016075063534981058,-0.0013007352858557832,0.0,0.0,0.0,0.0,0.0,0.0,0.0,6.347418438901187e-05,3.929154914694699e-05,-5.5331204272923706e-05,-4.188513258340798e-05,1.299516298475245e-05,-0.0001296754420998525,-4.930849428541606e-06,-0.0006599105592033586,0.00028137132308690086,-0.0004299246887726773,0.00012256668784270882,0.0003164425353345901,0.00016075063534981058,0.0013007352858557832,0.6568843722343445,46.52419662475586,5.536709308624268,-19.535249710083008,-0.7784934639930725,-2.3660311698913574,0.15231649577617645,0
24,0.11494326591491699,-0.6568843722343445,-46.52419662475586,-5.536709308624268,19.535249710083008,0.7784934639930725,2.3660311698913574,-0.15231649577617645,0.0,0.0,0.0,0.0,0.0,0.0,0.0,-0.6550875468210859,-0.23035857163315754,-0.40014835718673686,0.3160528508793495,0.19022077622386419,0.10299807035916944,-0.18753741200080265,0.878029401886035,0.7554204578817939,-0.2824999339650478,-1.66905747632813,0.14140560035424585,2.403574792809738,1.0273430310802327,0.878092876070424,0.7554597494309409,-0.2825552651693207,-1.6690993614607135,0.1414185955172306,2.4034451173676383,1.0273381002308042,0.0006599105592033586,-0.00028137132308690086,0.0004299246887726773,-0.00012256668784270882,-0.0003164425353345901,-0.00016075063534981058,-0.0013007352858557832,0.0,0.0,0.0,0.0,0.0,0.0,0.0,6.347418438901187e-05,3.929154914694699e-05,-5.5331204272923706e-05,-4.188513258340798e-05,1.299516298475245e-05,-0.0001296754420998525,-4.930849428541606e-06,-0.0006599105592033586,0.00028137132308690086,-0.0004299246887726773,0.00012256668784270882,0.0003164425353345901,0.00016075063534981058,0.0013007352858557832,0.6568843722343445,46.52419662475586,5.536709308624268,-19.535249710083008,-0.7784934639930725,-2.3660311698913574,0.15231649577617645,0
25,0.12036919593811035,-0.6291133761405945,-46.52419662475586,-5.536709308624268,19.535249710083008,0.7730002999305725,2.3724398612976074,-0.18710653483867645,0.0,0.0,0.0,0.0,0.0,0.0,0.0,-0.6453059388456108,-0.2224686470447795,-0.3875000009379457,0.31852773687737,0.18985914150355712,0.10247141702048145,-0.1869665151826123,0.8780269226957318,0.7554204578817937,-0.28250000911292805,-1.66905747632813,0.14140468089732774,2.4035739181480444,1.027346897136758,0.878092876070424,0.7554597494309409,-0.2825552651693207,-1.6690993614607135,0.1414185955172306,2.4034451173676383,1.0273381002308042,-0.0007105333038797261,8.390949469267403e-05,-0.0007096865348985938,0.0001672474525919004,6.010579150211547e-05,-9.963572281796316e-05,0.00039281076431446014,0.0,0.0,0.0,0.0,0.0,0.0,0.0,6.595337469217366e-05,3.9291549147169036e-05,-5.525605639267184e-05,-4.188513258340798e-05,1.391461990285503e-05,-0.0001288007804061131,-8.796905953900591e-06,0.0007105333038797261,-8.390949469267403e-05,0.0007096865348985938,-0.0001672474525919004,-6.010579150211547e-05,9.963572281796316e-05,-0.00039281076431446014,0.6291133761405945,46.52419662475586,5.536709308624268,-19.535249710083008,-0.7730002999305725,-2.3724398612976074,0.18710653483867645,0
26,0.12500762939453125,-0.6291133761405945,-46.52419662475586,-5.536709308624268,19.535249710083008,0.7730002999305725,2.3724398612976074,-0.18710653483867645,0.0,0.0,0.0,0.0,0.0,0.0,0.0,-0.6453059388456108,-0.2224686470447795,-0.3875000009379457,0.31852773687737,0.18985914150355712,0.10247141702048145,-0.1869665151826123,0.8780269226957318,0.7554204578817937,-0.28250000911292805,-1.66905747632813,0.14140468089732774,2.4035739181480444,1.027346897136758,0.878092876070424,0.7554597494309409,-0.2825552651693207,-1.6690993614607135,0.1414185955172306,2.4034451173676383,1.0273381002308042,-0.0007105333038797261,8.390949469267403e-05,-0.0007096865348985938,0.0001672474525919004,6.010579150211547e-05,-9.963572281796316e-05,0.00039281076431446014,0.0,0.0,0.0,0.0,0.0,0.0,0.0,6.595337469217366e-05,3.9291549147169036e-05,-5.525605639267184e-05,-4.188513258340798e-05,1.391461990285503e-05,-0.0001288007804061131,-8.796905953900591e-06,0.0007105333038797261,-8.390949469267403e-05,0.0007096865348985938,-0.0001672474525919004,-6.010579150211547e-05,9.963572281796316e-05,-0.00039281076431446014,0.6291133761405945,46.52419662475586,5.536709308624268,-19.535249710083008,-0.7730002999305725,-2.3724398612976074,0.18710653483867645,0
27,0.12997961044311523,-0.6291133761405945,-46.57577133178711,-5.536709308624268,19.535249710083008,0.7665916085243225,2.3660311698913574,-0.19351522624492645,0.0,0.0,0.0,0.0,0.0,0.0,0.0,-0.6488163924391627,-0.21709423958983537,-0.38758192712947215,0.31870450088978913,0.18984797592976133,0.10208670274692906,-0.18623061329822463,0.878026998894111,0.755424078122457,-0.28249993118355465,-1.66905747632813,0.14140684564554137,2.4035757023105866,1.0273476489439575,0.878092876070424,0.7554597494309409,-0.2825552651693207,-1.6690993614607135,0.1414185955172306,2.4034451173676383,1.0273381002308042,-0.0014671462301763362,0.0011320435673771697,-0.0012140396703358412,-0.0003645501574544394,0.00034488696887805095,4.861996681300264e-05,0.0003518159091493305,0.0,0.0,0.0,0.0,0.0,0.0,0.0,6.587717631301171e-05,3.567130848380895e-05,-5.5333985766070626e-05,-4.188513258340798e-05,1.1749871689226143e-05,-0.00013058494294826417,-9.548713153284538e-06,0.0014671462301763362,-0.0011320435673771697,0.0012140396703358412,0.0003645501574544394,-0.00034488696887805095,-4.861996681300264e-05,-0.0003518159091493305,0.6291133761405945,46.57577133178711,5.536709308624268,-19.535249710083008,-0.7665916085243225,-2.3660311698913574,0.19351522624492645,0
28,0.1349928379058838,-0.6291133761405945,-46.57577133178711,-5.536709308624268,19.535249710083008,0.7665916085243225,2.3660311698913574,-0.19351522624492645,0.0,0.0,0.0,0.0,0.0,0.0,0.0,-0.6488163924391627,-0.21709423958983537,-0.38758192712947215,0.31870450088978913,0.18984797592976133,0.10208670274692906,-0.18623061329822463,0.878026998894111,0.755424078122457,-0.28249993118355465,-1.66905747632813,0.14140684564554137,2.4035757023105866,1.0273476489439575,0.878092876070424,0.7554597494309409,-0.2825552651693207,-1.6690993614607135,0.1414185955172306,2.4034451173676383,1.0273381002308042,-0.0014671462301763362,0.0011320435673771697,-0.0012140396703358412,-0.0003645501574544394,0.00034488696887805095,4.861996681300264e-05,0.0003518159091493305,0.0,0.0,0.0,0.0,0.0,0.0,0.0,6.587717631301171e-05,3.567130848380895e-05,-5.5333985766070626e-05,-4.188513258340798e-05,1.1749871689226143e-05,-0.00013058494294826417,-9.548713153284538e-06,0.0014671462301763362,-0.0011320435673771697,0.0012140396703358412,0.0003645501574544394,-0.00034488696887805095,-4.861996681300264e-05,-0.0003518159091493305,0.6291133761405945,46.57577133178711,5.536709308624268,-19.535249710083008,-0.7665916085243225,-2.3660311698913574,0.19351522624492645,0
29,0.13999509811401367,-0.7084590792655945,-46.54800033569336,-5.663662433624268,19.511445999145508,0.7784934639930725,2.3788485527038574,-0.21457235515117645,0.0,0.0,0.0,0.0,0.0,0.0,0.0,-0.6617330742490432,-0.23131783199736267,-0.3986012623464776,0.3267439676481461,0.1896998698322546,0.10313419588389988,-0.18598836323117235,0.8780311319157774,0.7554221283176652,-0.28249102208489046,-1.6690558058922749,0.1414076125264975,2.403570536880332,1.0273499483986224,0.878092876070424,0.7554597494309409,-0.2825552651693207,-1.6690993614607135,0.1414185955172306,2.4034451173676383,1.0273381002308042,5.852855578709612e-05,-0.0005148841549599023,0.0014033768834640044,0.0004013788918462316,-0.00021389412490251954,-0.00031357334007163094,0.0007955041380283775,0.0,0.0,0.0,0.0,0.0,0.0,0.0,6.174415464654803e-05,3.7621113275654317e-05,-6.424308443025994e-05,-4.355556843860242e-05,1.0982990733099385e-05,-0.00012541951269362528,-1.1848167818184763e-05,-5.852855578709612e-05,0.0005148841549599023,-0.0014033768834640044,-0.0004013788918462316,0.00021389412490251954,0.00031357334007163094,-0.0007955041380283775,0.7084590792655945,46.54800033569336,5.663662433624268,-19.511445999145508,-0.7784934639930725,-2.3788485527038574,0.21457235515117645,0
30,0.14500164985656738,-0.7084590792655945,-46.54800033569336,-5.663662433624268,19.511445999145508,0.7784934639930725,2.3788485527038574,-0.21457235515117645,0.0,0.0,0.0,0.0,0.0,0.0,0.0,-0.6617330742490432,-0.23131783199736267,-0.3986012623464776,0.3267439676481461,0.1896998698322546,0.10313419588389988,-0.18598836323117235,0.8780311319157774,0.7554221283176652,-0.28249102208489046,-1.6690558058922749,0.1414076125264975,2.403570536880332,1.0273499483986224,0.878092876070424,0.7554597494309409,-0.2825552651693207,-1.6690993614607135,0.1414185955172306,2.4034451173676383,1.0273381002308042,5.852855578709612e-05,-0.0005148841549599023,0.0014033768834640044,0.0004013788918462316,-0.00021389412490251954,-0.00031357334007163094,0.0007955041380283775,0.0,0.0,0.0,0.0,0.0,0.0,0.0,6.174415464654803e-05,3.7621113275654317e-05,-6.424308443025994e-05,-4.355556843860242e-05,1.0982990733099385e-05,-0.00012541951269362528,-1.1848167818184763e-05,-5.852855578709612e-05,0.0005148841549599023,-0.0014033768834640044,-0.0004013788918462316,0.00021389412490251954,0.00031357334007163094,-0.0007955041380283775,0.7084590792655945,46.54800033569336,5.663662433624268,-19.511445999145508,-0.7784934639930725,-2.3788485527038574,0.21457235515117645,0
31,0.1499955654144287,-0.7084590792655945,-46.54800033569336,-5.663662433624268,19.511445999145508,0.7784934639930725,2.3788485527038574,-0.21457235515117645,0.0,0.0,0.0,0.0,0.0,0.0,0.0,-0.6617330742490432,-0.23131783199736267,-0.3986012623464776,0.3267439676481461,0.1896998698322546,0.10313419588389988,-0.18598836323117235,0.8780311319157774,0.7554221283176652,-0.28249102208489046,-1.6690558058922749,0.1414076125264975,2.403570536880332,1.0273499483986224,0.878092876070424,0.7554597494309409,-0.2825552651693207,-1.6690993614607135,0.1414185955172306,2.4034451173676383,1.0273381002308042,5.852855578709612e-05,-0.0005148841549599023,0.0014033768834640044,0.0004013788918462316,-0.00021389412490251954,-0.00031357334007163094,0.0007955041380283775,0.0,0.0,0.0,0.0,0.0,0.0,0.0,6.174415464654803e-05,3.7621113275654317e-05,-6.424308443025994e-05,-4.355556843860242e-05,1.0982990733099385e-05,-0.00012541951269362528,-1.1848167818184763e-05,-5.852855578709612e-05,0.0005148841549599023,-0.0014033768834640044,-0.0004013788918462316,0.00021389412490251954,0.00031357334007163094,-0.0007955041380283775,0.7084590792655945,46.54800033569336,5.663662433624268,-19.511445999145508,-0.7784934639930725,-2.3788485527038574,0.21457235515117645,0
32,0.15502548217773438,-0.7084590792655945,-46.54800033569336,-5.663662433624268,19.511445999145508,0.7784934639930725,2.3788485527038574,-0.21457235515117645,0.0,0.0,0.0,0.0,0.0,0.0,0.0,-0.6617330742490432,-0.23131783199736267,-0.3986012623464776,0.3267439676481461,0.1896998698322546,0.10313419588389988,-0.18598836323117235,0.8780311319157774,0.7554221283176652,-0.28249102208489046,-1.6690558058922749,0.1414076125264975,2.403570536880332,1.0273499483986224,0.878092876070424,0.7554597494309409,-0.2825552651693207,-1.6690993614607135,0.1414185955172306,2.4034451173676383,1.0273381002308042,5.852855578709612e-05,-0.0005148841549599023,0.0014033768834640044,0.0004013788918462316,-0.00021389412490251954,-0.00031357334007163094,0.0007955041380283775,0.0,0.0,0.0,0.0,0.0,0.0,0.0,6.174415464654803e-05,3.7621113275654317e-05,-6.424308443025994e-05,-4.355556843860242e-05,1.0982990733099385e-05,-0.00012541951269362528,-1.1848167818184763e-05,-5.852855578709612e-05,0.0005148841549599023,-0.0014033768834640044,-0.0004013788918462316,0.00021389412490251954,0.00031357334007163094,-0.0007955041380283775,0.7084590792655945,46.54800033569336,5.663662433624268,-19.511445999145508,-0.7784934639930725,-2.3788485527038574,0.21457235515117645,0
33,0.16005420684814453,-0.6806880831718445,-46.62337875366211,-5.564480304718018,19.535249710083008,0.7784934639930725,2.3660311698913574,-0.22830526530742645,0.0,0.0,0.0,0.0,0.0,0.0,0.0,-0.6460951205644689,-0.22196369592896203,-0.38535767957738637,0.32080302824624674,0.18877300623135895,0.10242978035588568,-0.18619099438921843,0.8780310992610275,0.7554274180311906,-0.28249798223428557,-1.66905747632813,0.1414052469962572,2.403574982732391,1.0273514742768473,0.878092876070424,0.7554597494309409,-0.2825552651693207,-1.6690993614607135,0.1414185955172306,2.4034451173676383,1.0273381002308042,-8.848944661029608e-05,0.0008754363965652852,-0.00047234476186267053,-0.00043858853194386787,-0.0001849707438707462,7.703990866167006e-05,0.0012014830949482352,0.0,0.0,0.0,0.0,0.0,0.0,0.0,6.177680939645214e-05,3.233139975022947e-05,-5.728293503515225e-05,-4.188513258340798e-05,1.3348520973399669e-05,-0.00012986536475256827,-1.3374046043068688e-05,8.848944661029608e-05,-0.0008754363965652852,0.00047234476186267053,0.00043858853194386787,0.0001849707438707462,-7.703990866167006e-05,-0.0012014830949482352,0.6806880831718445,46.62337875366211,5.564480304718018,-19.535249710083008,-0.7784934639930725,-2.3660311698913574,0.22830526530742645,0
34,0.16499042510986328,-0.6806880831718445,-46.62337875366211,-5.564480304718018,19.535249710083008,0.7784934639930725,2.3660311698913574,-0.22830526530742645,0.0,0.0,0.0,0.0,0.0,0.0,0.0,-0.6460951205644689,-0.22196369592896203,-0.38535767957738637,0.32080302824624674,0.18877300623135895,0.10242978035588568,-0.18619099438921843,0.8780310992610275,0.7554274180311906,-0.28249798223428557,-1.66905747632813,0.1414052469962572,2.403574982732391,1.0273514742768473,0.878092876070424,0.7554597494309409,-0.2825552651693207,-1.6690993614607135,0.1414185955172306,2.4034451173676383,1.0273381002308042,-8.848944661029608e-05,0.0008754363965652852,-0.00047234476186267053,-0.00043858853194386787,-0.0001849707438707462,7.703990866167006e-05,0.0012014830949482352,0.0,0.0,0.0,0.0,0.0,0.0,0.0,6.177680939645214e-05,3.233139975022947e-05,-5.728293503515225e-05,-4.188513258340798e-05,1.3348520973399669e-05,-0.00012986536475256827,-1.3374046043068688e-05,8.848944661029608e-05,-0.0008754363965652852,0.00047234476186267053,0.00043858853194386787,0.0001849707438707462,-7.703990866167006e-05,-0.0012014830949482352,0.6806880831718445,46.62337875366211,5.564480304718018,-19.535249710083008,-0.7784934639930725,-2.3660311698913574,0.22830526530742645,0
35,0.169999361038208,-0.7322627902030945,-46.52419662475586,-5.612087726593018,19.535249710083008,0.7665916085243225,2.3660311698913574,-0.20083944499492645,0.0,0.0,0.0,0.0,0.0,0.0,0.0,-0.6705468759789532,-0.2132835483886296,-0.4007289844596887,0.31185609384472535,0.18911670691654986,0.10097696080672852,-0.1874241746297639,0.8780349559788551,0.7554204578817937,-0.28249464136257507,-1.66905747632813,0.14140896998508,2.4035716082537206,1.0273484225190348,0.878092876070424,0.7554597494309409,-0.2825552651693207,-1.6690993614607135,0.1414185955172306,2.4034451173676383,1.0273381002308042,0.0007709894647250044,-0.0011048466923181182,0.0002379187192108664,-0.00030912046509693706,0.0002767071832829315,0.00011602619545620743,0.0009373652240563032,0.0,0.0,0.0,0.0,0.0,0.0,0.0,5.7920091568908205e-05,3.9291549147169036e-05,-6.0623806745652153e-05,-4.188513258340798e-05,9.625532150586702e-06,-0.00012649088608229775,-1.0322288230613097e-05,-0.0007709894647250044,0.0011048466923181182,-0.0002379187192108664,0.00030912046509693706,-0.0002767071832829315,-0.00011602619545620743,-0.0009373652240563032,0.7322627902030945,46.52419662475586,5.612087726593018,-19.535249710083008,-0.7665916085243225,-2.3660311698913574,0.20083944499492645,0
36,0.17499780654907227,-0.7322627902030945,-46.52419662475586,-5.612087726593018,19.535249710083008,0.7665916085243225,2.3660311698913574,-0.20083944499492645,0.0,0.0,0.0,0.0,0.0,0.0,0.0,-0.6705468759789532,-0.2132835483886296,-0.4007289844596887,0.31185609384472535,0.18911670691654986,0.10097696080672852,-0.1874241746297639,0.8780349559788551,0.7554204578817937,-0.28249464136257507,-1.66905747632813,0.14140896998508,2.4035716082537206,1.0273484225190348,0.878092876070424,0.7554597494309409,-0.2825552651693207,-1.6690993614607135,0.1414185955172306,2.4034451173676383,1.0273381002308042,0.0007709894647250044,-0.0011048466923181182,0.0002379187192108664,-0.00030912046509693706,0.0002767071832829315,0.00011602619545620743,0.0009373652240563032,0.0,0.0,0.0,0.0,0.0,0.0,0.0,5.7920091568908205e-05,3.9291549147169036e-05,-6.0623806745652153e-05,-4.188513258340798e-05,9.625532150586702e-06,-0.00012649088608229775,-1.0322288230613097e-05,-0.0007709894647250044,0.0011048466923181182,-0.0002379187192108664,0.00030912046509693706,-0.0002767071832829315,-0.00011602619545620743,-0.0009373652240563032,0.7322627902030945,46.52419662475586,5.612087726593018,-19.535249710083008,-0.7665916085243225,-2.3660311698913574,0.20083944499492645,0
37,0.18002891540527344,-0.6806880831718445,-46.52419662475586,-5.612087726593018,19.511445999145508,0.7784934639930725,2.3660311698913574,-0.17337362468242645,0.0,0.0,0.0,0.0,0.0,0.0,0.0,-0.6595667384932729,-0.22388877575357305,-0.39552252361971124,0.31745274863934003,0.1886534303038465,0.1014349586719909,-0.1873439566247305,0.8780291879918578,0.7554204578817937,-0.2824947193637152,-1.6690558058922749,0.1414051711889928,2.4035718052714827,1.0273453707612223,0.878092876070424,0.7554597494309409,-0.2825552651693207,-1.6690993614607135,0.1414185955172306,2.4034451173676383,1.0273381002308042,0.0002566777225738866,-0.0005805989484566436,0.000797020215197632,0.00028643542377855595,-0.00017135334551243164,8.592379298608959e-05,-0.00036630175124118534,0.0,0.0,0.0,0.0,0.0,0.0,0.0,6.368807856615977e-05,3.9291549147169036e-05,-6.0545805605549674e-05,-4.355556843860242e-05,1.3424328237809924e-05,-0.00012668790384440243,-7.270530418157506e-06,-0.0002566777225738866,0.0005805989484566436,-0.000797020215197632,-0.00028643542377855595,0.00017135334551243164,-8.592379298608959e-05,0.00036630175124118534,0.6806880831718445,46.52419662475586,5.612087726593018,-19.511445999145508,-0.7784934639930725,-2.3660311698913574,0.17337362468242645,0
38,0.1850416660308838,-0.6806880831718445,-46.52419662475586,-5.612087726593018,19.511445999145508,0.7784934639930725,2.3660311698913574,-0.17337362468242645,0.0,0.0,0.0,0.0,0.0,0.0,0.0,-0.6595667384932729,-0.22388877575357305,-0.39552252361971124,0.31745274863934003,0.1886534303038465,0.1014349586719909,-0.1873439566247305,0.8780291879918578,0.7554204578817937,-0.2824947193637152,-1.6690558058922749,0.1414051711889928,2.4035718052714827,1.0273453707612223,0.878092876070424,0.7554597494309409,-0.2825552651693207,-1.6690993614607135,0.1414185955172306,2.4034451173676383,1.0273381002308042,0.0002566777225738866,-0.0005805989484566436,0.000797020215197632,0.00028643542377855595,-0.00017135334551243164,8.592379298608959e-05,-0.00036630175124118534,0.0,0.0,0.0,0.0,0.0,0.0,0.0,6.368807856615977e-05,3.9291549147169036e-05,-6.0545805605549674e-05,-4.355556843860242e-05,1.3424328237809924e-05,-0.00012668790384440243,-7.270530418157506e-06,-0.0002566777225738866,0.0005805989484566436,-0.000797020215197632,-0.00028643542377855595,0.00017135334551243164,-8.592379298608959e-05,0.00036630175124118534,0.6806880831718445,46.52419662475586,5.612087726593018,-19.511445999145508,-0.7784934639930725,-2.3660311698913574,0.17337362468242645,0
39,0.19003510475158691,-0.6291133761405945,-46.52419662475586,-5.564480304718018,19.459871292114258,0.7730002999305725,2.3660311698913574,-0.16604940593242645,0.0,0.0,0.0,0.0,0.0,0.0,0.0,-0.6384352315604034,-0.23538967094598395,-0.38264275035958106,0.32489251796460805,0.18880756600043178,0.10199278694354448,-0.18628191696320956,0.8780270001946628,0.7554204578817937,-0.28249821912707723,-1.6690521866145884,0.14140621625418184,2.403572645962989,1.027344556959139,0.878092876070424,0.7554597494309409,-0.2825552651693207,-1.6690993614607135,0.1414185955172306,2.4034451173676383,1.0273381002308042,0.0006658992221286345,-0.0007600949454559726,0.0007467818857882015,0.0013407624970291387,0.00021402013612491154,-0.00011206398679096028,-0.0005692614575693743,0.0,0.0,0.0,0.0,0.0,0.0,0.0,6.58758757611233e-05,3.9291549147169036e-05,-5.7046042243491524e-05,-4.717484612504208e-05,1.237926304875625e-05,-0.00012752859535059002,-6.456728334880424e-06,-0.0006658992221286345,0.0007600949454559726,-0.0007467818857882015,-0.0013407624970291387,-0.00021402013612491154,0.00011206398679096028,0.0005692614575693743,0.6291133761405945,46.52419662475586,5.564480304718018,-19.459871292114258,-0.7730002999305725,-2.3660311698913574,0.16604940593242645,0
40,0.19499468803405762,-0.6291133761405945,-46.52419662475586,-5.564480304718018,19.459871292114258,0.7730002999305725,2.3660311698913574,-0.16604940593242645,0.0,0.0,0.0,0.0,0.0,0.0,0.0,-0.6384352315604034,-0.23538967094598395,-0.38264275035958106,0.32489251796460805,0.18880756600043178,0.10199278694354448,-0.18628191696320956,0.8780270001946628,0.7554204578817937,-0.28249821912707723,-1.6690521866145884,0.14140621625418184,2.403572645962989,1.027344556959139,0.878092876070424,0.7554597494309409,-0.2825552651693207,-1.6690993614607135,0.1414185955172306,2.4034451173676383,1.0273381002308042,0.0006658992221286345,-0.0007600949454559726,0.0007467818857882015,0.0013407624970291387,0.00021402013612491154,-0.00011206398679096028,-0.0005692614575693743,0.0,0.0,0.0,0.0,0.0,0.0,0.0,6.58758757611233e-05,3.9291549147169036e-05,-5.7046042243491524e-05,-4.717484612504208e-05,1.237926304875625e-05,-0.00012752859535059002,-6.456728334880424e-06,-0.0006658992221286345,0.0007600949454559726,-0.0007467818857882015,-0.0013407624970291387,-0.00021402013612491154,0.00011206398679096028,0.0005692614575693743,0.6291133761405945,46.52419662475586,5.564480304718018,-19.459871292114258,-0.7730002999305725,-2.3660311698913574,0.16604940593242645,0
41,0.1999530792236328,-0.5299312472343445,-46.52419662475586,-5.536709308624268,19.586824417114258,0.7730002999305725,2.3724398612976074,-0.17978231608867645,0.0,0.0,0.0,0.0,0.0,0.0,0.0,-0.6396187634195034,-0.2326456585127148,-0.3868431611104375,0.3218725919506602,0.18998977434154174,0.10167817305260068,-0.18439104962035457,0.878020042996786,0.7554204579174595,-0.282499932040431,-1.6690610956058165,0.1414078687075683,2.4035708971327403,1.0273460828380452,0.878092876070424,0.7554597494309409,-0.2825552651693207,-1.6690993614607135,0.1414185955172306,2.4034451173676383,1.0273381002308042,-0.0010220218925174756,-0.0006038084040444058,0.000274713399843105,-0.0013733577886746579,0.00014394456804255122,-0.0001754769763844315,-0.0005663415047351683,0.0,0.0,0.0,0.0,0.0,0.0,0.0,7.283307363792346e-05,3.929151348136539e-05,-5.533312888972297e-05,-3.826585489696832e-05,1.0726809662298109e-05,-0.0001257797651019743,-7.982607240997197e-06,0.0010220218925174756,0.0006038084040444058,-0.000274713399843105,0.0013733577886746579,-0.00014394456804255122,0.0001754769763844315,0.0005663415047351683,0.5299312472343445,46.52419662475586,5.536709308624268,-19.586824417114258,-0.7730002999305725,-2.3724398612976074,0.17978231608867645,0
42,0.2050187587738037,-0.5299312472343445,-46.52419662475586,-5.536709308624268,19.586824417114258,0.7730002999305725,2.3724398612976074,-0.17978231608867645,0.0,0.0,0.0,0.0,0.0,0.0,0.0,-0.6396187634195034,-0.2326456585127148,-0.3868431611104375,0.3218725919506602,0.18998977434154174,0.10167817305260068,-0.18439104962035457,0.878020042996786,0.7554204579174595,-0.282499932040431,-1.6690610956058165,0.1414078687075683,2.4035708971327403,1.0273460828380452,0.878092876070424,0.7554597494309409,-0.2825552651693207,-1.6690993614607135,0.1414185955172306,2.4034451173676383,1.0273381002308042,-0.0010220218925174756,-0.0006038084040444058,0.000274713399843105,-0.0013733577886746579,0.00014394456804255122,-0.0001754769763844315,-0.0005663415047351683,0.0,0.0,0.0,0.0,0.0,0.0,0.0,7.283307363792346e-05,3.929151348136539e-05,-5.533312888972297e-05,-3.826585489696832e-05,1.0726809662298109e-05,-0.0001257797651019743,-7.982607240997197e-06,0.0010220218925174756,0.0006038084040444058,-0.000274713399843105,0.0013733577886746579,-0.00014394456804255122,0.0001754769763844315,0.0005663415047351683,0.5299312472343445,46.52419662475586,5.536709308624268,-19.586824417114258,-0.7730002999305725,-2.3724398612976074,0.17978231608867645,0
43,0.210005521774292,-0.6053096652030945,-46.52419662475586,-5.536709308624268,19.559053421020508,0.7730002999305725,2.3660311698913574,-0.18710653483867645,0.0,0.0,0.0,0.0,0.0,0.0,0.0,-0.6429000106124763,-0.22950714338046024,-0.39609774074185977,0.319603691711345,0.19054953153652926,0.10192529267160533,-0.18370400650986796,0.8780260204939819,0.7554204578817939,-0.28249993107612215,-1.6690591467639855,0.14140622382644405,2.403571626969325,1.0273468966401285,0.878092876070424,0.7554597494309409,-0.2825552651693207,-1.6690993614607135,0.1414185955172306,2.4034451173676383,1.0273381002308042,0.0009154216423866113,-0.0007482320137509349,-7.215758101925907e-05,-0.0006772391443710268,3.8904892907544655e-05,0.0001484646498418927,0.000428881902397034,0.0,0.0,0.0,0.0,0.0,0.0,0.0,6.685557644203755e-05,3.929154914694699e-05,-5.533409319857796e-05,-4.0214696727991495e-05,1.2371690786550094e-05,-0.0001265096016864753,-8.796409324274279e-06,-0.0009154216423866113,0.0007482320137509349,7.215758101925907e-05,0.0006772391443710268,-3.8904892907544655e-05,-0.0001484646498418927,-0.000428881902397034,0.6053096652030945,46.52419662475586,5.536709308624268,-19.559053421020508,-0.7730002999305725,-2.3660311698913574,0.18710653483867645,0
44,0.21500945091247559,-0.6053096652030945,-46.52419662475586,-5.536709308624268,19.559053421020508,0.7730002999305725,2.3660311698913574,-0.18710653483867645,0.0,0.0,0.0,0.0,0.0,0.0,0.0,-0.6429000106124763,-0.22950714338046024,-0.39609774074185977,0.319603691711345,0.19054953153652926,0.10192529267160533,-0.18370400650986796,0.8780260204939819,0.7554204578817939,-0.28249993107612215,-1.6690591467639855,0.14140622382644405,2.403571626969325,1.0273468966401285,0.878092876070424,0.7554597494309409,-0.2825552651693207,-1.6690993614607135,0.1414185955172306,2.4034451173676383,1.0273381002308042,0.0009154216423866113,-0.0007482320137509349,-7.215758101925907e-05,-0.0006772391443710268,3.8904892907544655e-05,0.0001484646498418927,0.000428881902397034,0.0,0.0,0.0,0.0,0.0,0.0,0.0,6.685557644203755e-05,3.929154914694699e-05,-5.533409319857796e-05,-4.0214696727991495e-05,1.2371690786550094e-05,-0.0001265096016864753,-8.796409324274279e-06,-0.0009154216423866113,0.0007482320137509349,7.215758101925907e-05,0.0006772391443710268,-3.8904892907544655e-05,-0.0001484646498418927,-0.000428881902397034,0.6053096652030945,46.52419662475586,5.536709308624268,-19.559053421020508,-0.7730002999305725,-2.3660311698913574,0.18710653483867645,0
45,0.2200019359588623,-0.6053096652030945,-46.54800033569336,-5.536709308624268,19.511445999145508,0.7784934639930725,2.3724398612976074,-0.17337362468242645,0.0,0.0,0.0,0.0,0.0,0.0,0.0,-0.6281628405593405,-0.23289448204859253,-0.39009895005491074,0.3223841986252604,0.19018313633828737,0.1020575029339014,-0.1835140385198623,0.878023634313442,0.7554221292806259,-0.2824999310761167,-1.6690558058922749,0.14140445865626444,2.4035750948724277,1.0273453707612223,0.878092876070424,0.7554597494309409,-0.2825552651693207,-1.6690993614607135,0.1414185955172306,2.4034451173676383,1.0273381002308042,0.000383274775430153,-0.0005759370568557053,0.000360868656032881,0.0005833912032697003,-8.607701524106353e-05,-0.000157752917722986,-0.0005220265089138849,0.0,0.0,0.0,0.0,0.0,0.0,0.0,6.924175698197477e-05,3.7620150314943146e-05,-5.533409320401805e-05,-4.355556843860242e-05,1.4136860966157405e-05,-0.0001299775047893803,-7.270530418157506e-06,-0.000383274775430153,0.0005759370568557053,-0.000360868656032881,-0.0005833912032697003,8.607701524106353e-05,0.000157752917722986,0.0005220265089138849,0.6053096652030945,46.54800033569336,5.536709308624268,-19.511445999145508,-0.7784934639930725,-2.3724398612976074,0.17337362468242645,0
46,0.2249588966369629,-0.6053096652030945,-46.54800033569336,-5.536709308624268,19.511445999145508,0.7784934639930725,2.3724398612976074,-0.17337362468242645,0.0,0.0,0.0,0.0,0.0,0.0,0.0,-0.6281628405593405,-0.23289448204859253,-0.39009895005491074,0.3223841986252604,0.19018313633828737,0.1020575029339014,-0.1835140385198623,0.878023634313442,0.7554221292806259,-0.2824999310761167,-1.6690558058922749,0.14140445865626444,2.4035750948724277,1.0273453707612223,0.878092876070424,0.7554597494309409,-0.2825552651693207,-1.6690993614607135,0.1414185955172306,2.4034451173676383,1.0273381002308042,0.000383274775430153,-0.0005759370568557053,0.000360868656032881,0.0005833912032697003,-8.607701524106353e-05,-0.000157752917722986,-0.0005220265089138849,0.0,0.0,0.0,0.0,0.0,0.0,0.0,6.924175698197477e-05,3.7620150314943146e-05,-5.533409320401805e-05,-4.355556843860242e-05,1.4136860966157405e-05,-0.0001299775047893803,-7.270530418157506e-06,-0.000383274775430153,0.0005759370568557053,-0.000360868656032881,-0.0005833912032697003,8.607701524106353e-05,0.000157752917722986,0.0005220265089138849,0.6053096652030945,46.54800033569336,5.536709308624268,-19.511445999145508,-0.7784934639930725,-2.3724398612976074,0.17337362468242645,0
47,0.22995209693908691,-0.6291133761405945,-46.52419662475586,-5.512905597686768,19.535249710083008,0.7784934639930725,2.3724398612976074,-0.17978231608867645,0.0,0.0,0.0,0.0,0.0,0.0,0.0,-0.6400131918687838,-0.21804579633219476,-0.3947726776813025,0.31447660627136526,0.1906039846692329,0.10083419787764608,-0.1847474665972861,0.8780267516360807,0.7554204578817991,-0.2825016016189695,-1.66905747632813,0.14140412199236732,2.403575453061572,1.0273460828380452,0.878092876070424,0.7554597494309409,-0.2825552651693207,-1.6690993614607135,0.1414185955172306,2.4034451173676383,1.0273381002308042,-0.00015164395851076913,-0.0002051716072947353,-0.0011809522853892301,-0.0002286479876635668,-3.091889248774296e-05,-1.7585006791833462e-05,-0.00019958115244769303,0.0,0.0,0.0,0.0,0.0,0.0,0.0,6.61244343432843e-05,3.929154914172894e-05,-5.366355035124615e-05,-4.188513258340798e-05,1.4473524863278797e-05,-0.0001303356939335032,-7.982607240997197e-06,0.00015164395851076913,0.0002051716072947353,0.0011809522853892301,0.0002286479876635668,3.091889248774296e-05,1.7585006791833462e-05,0.00019958115244769303,0.6291133761405945,46.52419662475586,5.512905597686768,-19.535249710083008,-0.7784934639930725,-2.3724398612976074,0.17978231608867645,0
48,0.23499369621276855,-0.6291133761405945,-46.52419662475586,-5.512905597686768,19.535249710083008,0.7784934639930725,2.3724398612976074,-0.17978231608867645,0.0,0.0,0.0,0.0,0.0,0.0,0.0,-0.6400131918687838,-0.21804579633219476,-0.3947726776813025,0.31447660627136526,0.1906039846692329,0.10083419787764608,-0.1847474665972861,0.8780267516360807,0.7554204578817991,-0.2825016016189695,-1.66905747632813,0.14140412199236732,2.403575453061572,1.0273460828380452,0.878092876070424,0.7554597494309409,-0.2825552651693207,-1.6690993614607135,0.1414185955172306,2.4034451173676383,1.0273381002308042,-0.00015164395851076913,-0.0002051716072947353,-0.0011809522853892301,-0.0002286479876635668,-3.091889248774296e-05,-1.7585006791833462e-05,-0.00019958115244769303,0.0,0.0,0.0,0.0,0.0,0.0,0.0,6.61244343432843e-05,3.929154914172894e-05,-5.366355035124615e-05,-4.188513258340798e-05,1.4473524863278797e-05,-0.0001303356939335032,-7.982607240997197e-06,0.00015164395851076913,0.0002051716072947353,0.0011809522853892301,0.0002286479876635668,3.091889248774296e-05,1.7585006791833462e-05,0.00019958115244769303,0.6291133761405945,46.52419662475586,5.512905597686768,-19.535249710083008,-0.7784934639930725,-2.3724398612976074,0.17978231608867645,0
49,0.23999691009521484,-0.6568843722343445,-46.57577133178711,-5.588284015655518,19.511445999145508,0.7610984444618225,2.3724398612976074,-0.16604940593242645,0.0,0.0,0.0,0.0,0.0,0.0,0.0,-0.6318386036009156,-0.22663338744731096,-0.38769777847019177,0.3204898834813488,0.19096155574476636,0.1018203537738557,-0.18606604924108308,0.878027280113118,0.75542407715948,-0.28249631179843093,-1.6690558058922749,0.14140931020513856,2.403572288577038,1.027344556959139,0.878092876070424,0.7554597494309409,-0.2825552651693207,-1.6690993614607135,0.1414185955172306,2.4034451173676383,1.0273381002308042,-0.0003646724561440115,0.0005577183369256854,0.0008161680063704827,0.00044153126752121574,0.000493250120986547,-0.00030706563083115817,-0.0008289288250436335,0.0,0.0,0.0,0.0,0.0,0.0,0.0,6.55959573059306e-05,3.56722714608404e-05,-5.895337088979158e-05,-4.355556843860242e-05,9.285312092044418e-06,-0.00012717120939953475,-6.456728334880424e-06,0.0003646724561440115,-0.0005577183369256854,-0.0008161680063704827,-0.00044153126752121574,-0.000493250120986547,0.00030706563083115817,0.0008289288250436335,0.6568843722343445,46.57577133178711,5.588284015655518,-19.511445999145508,-0.7610984444618225,-2.3724398612976074,0.16604940593242645,0
50,0.2449932098388672,-0.6568843722343445,-46.57577133178711,-5.588284015655518,19.511445999145508,0.7610984444618225,2.3724398612976074,-0.16604940593242645,0.0,0.0,0.0,0.0,0.0,0.0,0.0,-0.6318386036009156,-0.22663338744731096,-0.38769777847019177,0.3204898834813488,0.19096155574476636,0.1018203537738557,-0.18606604924108308,0.878027280113118,0.75542407715948,-0.28249631179843093,-1.6690558058922749,0.14140931020513856,2.403572288577038,1.027344556959139,0.878092876070424,0.7554597494309409,-0.2825552651693207,-1.6690993614607135,0.1414185955172306,2.4034451173676383,1.0273381002308042,-0.0003646724561440115,0.0005577183369256854,0.0008161680063704827,0.00044153126752121574,0.000493250120986547,-0.00030706563083115817,-0.0008289288250436335,0.0,0.0,0.0,0.0,0.0,0.0,0.0,6.55959573059306e-05,3.56722714608404e-05,-5.895337088979158e-05,-4.355556843860242e-05,9.285312092044418e-06,-0.00012717120939953475,-6.456728334880424e-06,0.0003646724561440115,-0.0005577183369256854,-0.0008161680063704827,-0.00044153126752121574,-0.000493250120986547,0.00030706563083115817,0.0008289288250436335,0.6568843722343445,46.57577133178711,5.588284015655518,-19.511445999145508,-0.7610984444618225,-2.3724398612976074,0.16604940593242645,0
51,0.24999308586120605,-0.7084590792655945,-46.54800033569336,-5.588284015655518,19.559053421020508,0.7784934639930725,2.3788485527038574,-0.20724813640117645,0.0,0.0,0.0,0.0,0.0,0.0,0.0,-0.6427263861783566,-0.22584708760908073,-0.3896278459366397,0.32025947840852614,0.19061078395539338,0.10129661786987439,-0.1856288299180962,0.8780311397636583,0.7554221283176489,-0.2824963117984303,-1.6690591467639855,0.141405168811317,2.4035743885637255,1.0273491345958576,0.878092876070424,0.7554597494309409,-0.2825552651693207,-1.6690993614607135,0.1414185955172306,2.4034451173676383,1.0273381002308042,0.00014259909486661818,2.838118033817075e-05,0.0002697414794582251,-0.0007768970936063847,-0.0001054397816774979,-0.0003058178112769957,0.0006066611719695732,0.0,0.0,0.0,0.0,0.0,0.0,0.0,6.173630676564734e-05,3.7621113291974595e-05,-5.89533708904022e-05,-4.0214696727991495e-05,1.342670591358841e-05,-0.0001292711960871884,-1.1034365053452788e-05,-0.00014259909486661818,-2.838118033817075e-05,-0.0002697414794582251,0.0007768970936063847,0.0001054397816774979,0.0003058178112769957,-0.0006066611719695732,0.7084590792655945,46.54800033569336,5.588284015655518,-19.559053421020508,-0.7784934639930725,-2.3788485527038574,0.20724813640117645,0
52,0.2550044059753418,-0.7084590792655945,-46.54800033569336,-5.588284015655518,19.559053421020508,0.7784934639930725,2.3788485527038574,-0.20724813640117645,0.0,0.0,0.0,0.0,0.0,0.0,0.0,-0.6427263861783566,-0.22584708760908073,-0.3896278459366397,0.32025947840852614,0.19061078395539338,0.10129661786987439,-0.1856288299180962,0.8780311397636583,0.7554221283176489,-0.2824963117984303,-1.6690591467639855,0.141405168811317,2.4035743885637255,1.0273491345958576,0.878092876070424,0.7554597494309409,-0.2825552651693207,-1.6690993614607135,0.1414185955172306,2.4034451173676383,1.0273381002308042,0.00014259909486661818,2.838118033817075e-05,0.0002697414794582251,-0.0007768970936063847,-0.0001054397816774979,-0.0003058178112769957,0.0006066611719695732,0.0,0.0,0.0,0.0,0.0,0.0,0.0,6.173630676564734e-05,3.7621113291974595e-05,-5.89533708904022e-05,-4.0214696727991495e-05,1.342670591358841e-05,-0.0001292711960871884,-1.1034365053452788e-05,-0.00014259909486661818,-2.838118033817075e-05,-0.0002697414794582251,0.0007768970936063847,0.0001054397816774979,0.0003058178112769957,-0.0006066611719695732,0.7084590792655945,46.54800033569336,5.588284015655518,-19.559053421020508,-0.7784934639930725,-2.3788485527038574,0.20724813640117645,0
53,0.25995659828186035,-0.7084590792655945,-46.54800033569336,-5.588284015655518,19.559053421020508,0.7784934639930725,2.3788485527038574,-0.20724813640117645,0.0,0.0,0.0,0.0,0.0,0.0,0.0,-0.6427263861783566,-0.22584708760908073,-0.3896278459366397,0.32025947840852614,0.19061078395539338,0.10129661786987439,-0.1856288299180962,0.8780311397636583,0.7554221283176489,-0.2824963117984303,-1.6690591467639855,0.141405168811317,2.4035743885637255,1.0273491345958576,0.878092876070424,0.7554597494309409,-0.2825552651693207,-1.6690993614607135,0.1414185955172306,2.4034451173676383,1.0273381002308042,0.00014259909486661818,2.838118033817075e-05,0.0002697414794582251,-0.0007768970936063847,-0.0001054397816774979,-0.0003058178112769957,0.0006066611719695732,0.0,0.0,0.0,0.0,0.0,0.0,0.0,6.173630676564734e-05,3.7621113291974595e-05,-5.89533708904022e-05,-4.0214696727991495e-05,1.342670591358841e-05,-0.0001292711960871884,-1.1034365053452788e-05,-0.00014259909486661818,-2.838118033817075e-05,-0.0002697414794582251,0.0007768970936063847,0.0001054397816774979,0.0003058178112769957,-0.0006066611719695732,0.7084590792655945,46.54800033569336,5.588284015655518,-19.559053421020508,-0.7784934639930725,-2.3788485527038574,0.20724813640117645,0
54,0.2650008201599121,-0.7084590792655945,-46.54800033569336,-5.588284015655518,19.559053421020508,0.7784934639930725,2.3788485527038574,-0.20724813640117645,0.0,0.0,0.0,0.0,0.0,0.0,0.0,-0.6427263861783566,-0.22584708760908073,-0.3896278459366397,0.32025947840852614,0.19061078395539338,0.10129661786987439,-0.1856288299180962,0.8780311397636583,0.7554221283176489,-0.2824963117984303,-1.6690591467639855,0.141405168811317,2.4035743885637255,1.0273491345958576,0.878092876070424,0.7554597494309409,-0.2825552651693207,-1.6690993614607135,0.1414185955172306,2.4034451173676383,1.0273381002308042,0.00014259909486661818,2.838118033817075e-05,0.0002697414794582251,-0.0007768970936063847,-0.0001054397816774979,-0.0003058178112769957,0.0006066611719695732,0.0,0.0,0.0,0.0,0.0,0.0,0.0,6.173630676564734e-05,3.7621113291974595e-05,-5.89533708904022e-05,-4.0214696727991495e-05,1.342670591358841e-05,-0.0001292711960871884,-1.1034365053452788e-05,-0.00014259909486661818,-2.838118033817075e-05,-0.0002697414794582251,0.0007768970936063847,0.0001054397816774979,0.0003058178112769957,-0.0006066611719695732,0.7084590792655945,46.54800033569336,5.588284015655518,-19.559053421020508,-0.7784934639930725,-2.3788485527038574,0.20724813640117645,0
55,0.2699882984161377,-0.7322627902030945,-46.57577133178711,-5.564480304718018,19.535249710083008,0.7784934639930725,2.3660311698913574,-0.15964071452617645,0.0,0.0,0.0,0.0,0.0,0.0,0.0,-0.6519584296721072,-0.22292910205118457,-0.38912827144653417,0.31841934722721815,0.19067464731406372,0.1014228444136601,-0.18561082239073154,0.878034238649115,0.7554240774804724,-0.28249798223428557,-1.66905747632813,0.14140725791735498,2.40357569112107,1.027343844882316,0.878092876070424,0.7554597494309409,-0.2825552651693207,-1.6690993614607135,0.1414185955172306,2.4034451173676383,1.0273381002308042,0.0002952478527245931,0.0004618723363059212,-0.0007086815783342284,-0.00020446642727227267,-0.0001369727300679132,0.00012363358096922065,-0.0010463748304747299,0.0,0.0,0.0,0.0,0.0,0.0,0.0,5.8637421308960214e-05,3.567195046849658e-05,-5.728293503515225e-05,-4.188513258340798e-05,1.1337599875621551e-05,-0.00013057375343183963,-5.744651511818688e-06,-0.0002952478527245931,-0.0004618723363059212,0.0007086815783342284,0.00020446642727227267,0.0001369727300679132,-0.00012363358096922065,0.0010463748304747299,0.7322627902030945,46.57577133178711,5.564480304718018,-19.535249710083008,-0.7784934639930725,-2.3660311698913574,0.15964071452617645,0
56,0.27501416206359863,-0.7322627902030945,-46.57577133178711,-5.564480304718018,19.535249710083008,0.7784934639930725,2.3660311698913574,-0.15964071452617645,0.0,0.0,0.0,0.0,0.0,0.0,0.0,-0.6519584296721072,-0.22292910205118457,-0.38912827144653417,0.31841934722721815,0.19067464731406372,0.1014228444136601,-0.18561082239073154,0.878034238649115,0.7554240774804724,-0.28249798223428557,-1.66905747632813,0.14140725791735498,2.40357569112107,1.027343844882316,0.878092876070424,0.7554597494309409,-0.2825552651693207,-1.6690993614607135,0.1414185955172306,2.4034451173676383,1.0273381002308042,0.0002952478527245931,0.0004618723363059212,-0.0007086815783342284,-0.00020446642727227267,-0.0001369727300679132,0.00012363358096922065,-0.0010463748304747299,0.0,0.0,0.0,0.0,0.0,0.0,0.0,5.8637421308960214e-05,3.567195046849658e-05,-5.728293503515225e-05,-4.188513258340798e-05,1.1337599875621551e-05,-0.00013057375343183963,-5.744651511818688e-06,-0.0002952478527245931,-0.0004618723363059212,0.0007086815783342284,0.00020446642727227267,0.0001369727300679132,-0.00012363358096922065,0.0010463748304747299,0.7322627902030945,46.57577133178711,5.564480304718018,-19.535249710083008,-0.7784934639930725,-2.3660311698913574,0.15964071452617645,0
57,0.2800266742706299,-0.7084590792655945,-46.57577133178711,-5.588284015655518,19.511445999145508,0.7730002999305725,2.3724398612976074,-0.18710653483867645,0.0,0.0,0.0,0.0,0.0,0.0,0.0,-0.642638801923995,-0.2290607780221838,-0.3804477441630632,0.32272218309707107,0.19036599934792547,0.10204878678186523,-0.18564318277187736,0.8780332865214372,0.7554240771594818,-0.2824963117984303,-1.6690558058922749,0.1414046880229163,2.403571136016687,1.0273468966401285,0.878092876070424,0.7554597494309409,-0.2825552651693207,-1.6690993614607135,0.1414185955172306,2.4034451173676383,1.0273381002308042,0.0009576147349390154,0.0003967680158776606,-0.0004434284363153472,0.00034077203166927715,-3.4945860392028035e-05,1.6257210841135543e-06,-0.00017759429981967516,0.0,0.0,0.0,0.0,0.0,0.0,0.0,5.958954898677149e-05,3.567227145906404e-05,-5.89533708904022e-05,-4.355556843860242e-05,1.3907494314291391e-05,-0.0001260186490488202,-8.796409324274279e-06,-0.0009576147349390154,-0.0003967680158776606,0.0004434284363153472,-0.00034077203166927715,3.4945860392028035e-05,-1.6257210841135543e-06,0.00017759429981967516,0.7084590792655945,46.57577133178711,5.588284015655518,-19.511445999145508,-0.7730002999305725,-2.3724398612976074,0.18710653483867645,0
58,0.28504514694213867,-0.7084590792655945,-46.57577133178711,-5.588284015655518,19.511445999145508,0.7730002999305725,2.3724398612976074,-0.18710653483867645,0.0,0.0,0.0,0.0,0.0,0.0,0.0,-0.642638801923995,-0.2290607780221838,-0.3804477441630632,0.32272218309707107,0.19036599934792547,0.10204878678186523,-0.18564318277187736,0.8780332865214372,0.7554240771594818,-0.2824963117984303,-1.6690558058922749,0.1414046880229163,2.403571136016687,1.0273468966401285,0.878092876070424,0.7554597494309409,-0.2825552651693207,-1.6690993614607135,0.1414185955172306,2.4034451173676383,1.0273381002308042,0.0009576147349390154,0.0003967680158776606,-0.0004434284363153472,0.00034077203166927715,-3.4945860392028035e-05,1.6257210841135543e-06,-0.00017759429981967516,0.0,0.0,0.0,0.0,0.0,0.0,0.0,5.958954898677149e-05,3.567227145906404e-05,-5.89533708904022e-05,-4.355556843860242e-05,1.3907494314291391e-05,-0.0001260186490488202,-8.796409324274279e-06,-0.0009576147349390154,-0.0003967680158776606,0.0004434284363153472,-0.00034077203166927715,3.4945860392028035e-05,-1.6257210841135543e-06,0.00017759429981967516,0.7084590792655945,46.57577133178711,5.588284015655518,-19.511445999145508,-0.7730002999305725,-2.3724398612976074,0.18710653483867645,0
59,0.2899973392486572,-0.6806880831718445,-46.54800033569336,-5.536709308624268,19.487642288208008,0.7665916085243225,2.3596224784851074,-0.21457235515117645,0.0,0.0,0.0,0.0,0.0,0.0,0.0,-0.6462183784860629,-0.2254784199047818,-0.38606886886407366,0.32068526564059013,0.19026349036774945,0.10270798230049058,-0.18651799086227114,0.8780291918801102,0.7554221283176489,-0.2824999310761167,-1.6690541354564197,0.1414055620920745,2.4035757521988144,1.0273499483979411,0.878092876070424,0.7554597494309409,-0.2825552651693207,-1.6690993614607135,0.1414185955172306,2.4034451173676383,1.0273381002308042,0.0006217011636241535,-0.00019971595535693022,-0.0008123666134970354,0.0009796736678815555,0.00014947317113282821,0.00043530347381993636,0.0013186972788386936,0.0,0.0,0.0,0.0,0.0,0.0,0.0,6.368419031377304e-05,3.7621113291974595e-05,-5.533409320401805e-05,-4.522600429379686e-05,1.3033425156100398e-05,-0.00013063483117603525,-1.1848167136951915e-05,-0.0006217011636241535,0.00019971595535693022,0.0008123666134970354,-0.0009796736678815555,-0.00014947317113282821,-0.00043530347381993636,-0.0013186972788386936,0.6806880831718445,46.54800033569336,5.536709308624268,-19.487642288208008,-0.7665916085243225,-2.3596224784851074,0.21457235515117645,0
60,0.29499101638793945,-0.6806880831718445,-46.54800033569336,-5.536709308624268,19.487642288208008,0.7665916085243225,2.3596224784851074,-0.21457235515117645,0.0,0.0,0.0,0.0,0.0,0.0,0.0,-0.6462183784860629,-0.2254784199047818,-0.38606886886407366,0.32068526564059013,0.19026349036774945,0.10270798230049058,-0.18651799086227114,0.8780291918801102,0.7554221283176489,-0.2824999310761167,-1.6690541354564197,0.1414055620920745,2.4035757521988144,1.0273499483979411,0.878092876070424,0.7554597494309409,-0.2825552651693207,-1.6690993614607135,0.1414185955172306,2.4034451173676383,1.0273381002308042,0.0006217011636241535,-0.00019971595535693022,-0.0008123666134970354,0.0009796736678815555,0.00014947317113282821,0.00043530347381993636,0.0013186972788386936,0.0,0.0,0.0,0.0,0.0,0.0,0.0,6.368419031377304e-05,3.7621113291974595e-05,-5.533409320401805e-05,-4.522600429379686e-05,1.3033425156100398e-05,-0.00013063483117603525,-1.1848167136951915e-05,-0.0006217011636241535,0.00019971595535693022,0.0008123666134970354,-0.0009796736678815555,-0.00014947317113282821,-0.00043530347381993636,-0.0013186972788386936,0.6806880831718445,46.54800033569336,5.536709308624268,-19.487642288208008,-0.7665916085243225,-2.3596224784851074,0.21457235515117645,0
61,0.2999908924102783,-0.6291133761405945,-46.57577133178711,-5.588284015655518,19.535249710083008,0.7784934639930725,2.3788485527038574,-0.15231649577617645,0.0,0.0,0.0,0.0,0.0,0.0,0.0,-0.6441219137600876,-0.22924148311679932,-0.3882129378894105,0.3231495076152554,0.189936097599729,0.10342328203135853,-0.1861716188713648,0.8780267284171276,0.75542407715948,-0.28249633779881034,-1.6690577059163914,0.14140872362333995,2.403573730170812,1.0273430310802327,0.878092876070424,0.7554597494309409,-0.2825552651693207,-1.6690993614607135,0.1414185955172306,2.4034451173676383,1.0273381002308042,0.0005430184593731533,0.0008815283308174405,0.0003262726521104446,-6.441299665053461e-05,-0.00012666557419296762,-0.0003707445691948407,-0.0009689646555324982,0.0,0.0,0.0,0.0,0.0,0.0,0.0,6.614765329637784e-05,3.56722714608404e-05,-5.8927370510386545e-05,-4.165554432211671e-05,9.871893890650574e-06,-0.00012861280317366663,-4.930849428541606e-06,-0.0005430184593731533,-0.0008815283308174405,-0.0003262726521104446,6.441299665053461e-05,0.00012666557419296762,0.0003707445691948407,0.0009689646555324982,0.6291133761405945,46.57577133178711,5.588284015655518,-19.535249710083008,-0.7784934639930725,-2.3788485527038574,0.15231649577617645,0
62,0.3049890995025635,-0.6291133761405945,-46.57577133178711,-5.588284015655518,19.535249710083008,0.7784934639930725,2.3788485527038574,-0.15231649577617645,0.0,0.0,0.0,0.0,0.0,0.0,0.0,-0.6441219137600876,-0.22924148311679932,-0.3882129378894105,0.3231495076152554,0.189936097599729,0.10342328203135853,-0.1861716188713648,0.8780267284171276,0.75542407715948,-0.28249633779881034,-1.6690577059163914,0.14140872362333995,2.403573730170812,1.0273430310802327,0.878092876070424,0.7554597494309409,-0.2825552651693207,-1.6690993614607135,0.1414185955172306,2.4034451173676383,1.0273381002308042,0.0005430184593731533,0.0008815283308174405,0.0003262726521104446,-6.441299665053461e-05,-0.00012666557419296762,-0.0003707445691948407,-0.0009689646555324982,0.0,0.0,0.0,0.0,0.0,0.0,0.0,6.614765329637784e-05,3.56722714608404e-05,-5.8927370510386545e-05,-4.165554432211671e-05,9.871893890650574e-06,-0.00012861280317366663,-4.930849428541606e-06,-0.0005430184593731533,-0.0008815283308174405,-0.0003262726521104446,6.441299665053461e-05,0.00012666557419296762,0.0003707445691948407,0.0009689646555324982,0.6291133761405945,46.57577133178711,5.588284015655518,-19.535249710083008,-0.7784934639930725,-2.3788485527038574,0.15231649577617645,0
63,0.31000256538391113,-0.6291133761405945,-46.50039291381836,-5.489101886749268,19.559053421020508,0.7784934639930725,2.3660311698913574,-0.18710653483867645,0.0,0.0,0.0,0.0,0.0,0.0,0.0,-0.6347381713167264,-0.28021797625430866,-0.3934956577942167,0.3659224983721352,0.19090573029492977,0.11001698236991564,-0.18483108398198353,0.8780276389275262,0.7554194894918649,-0.2825032722689664,-1.6690591467652816,0.14140514062912626,2.4035748017045795,1.0273468966401285,0.878092876070424,0.7554597494309409,-0.2825552651693207,-1.6690993614607135,0.1414185955172306,2.4034451173676383,1.0273381002308042,0.0006833179550138342,-0.0008492906459957277,-0.0017177364169805953,-0.0019828359019044128,-6.658228576648978e-05,-7.367013225217261e-05,-0.00025014492031570385,0.0,0.0,0.0,0.0,0.0,0.0,0.0,6.523714289774496e-05,4.0259939075970586e-05,-5.199290035434734e-05,-4.0214695431917136e-05,1.3454888104336149e-05,-0.00012968433694116044,-8.796409324274279e-06,-0.0006833179550138342,0.0008492906459957277,0.0017177364169805953,0.0019828359019044128,6.658228576648978e-05,7.367013225217261e-05,0.00025014492031570385,0.6291133761405945,46.50039291381836,5.489101886749268,-19.559053421020508,-0.7784934639930725,-2.3660311698913574,0.18710653483867645,0
64,0.3150143623352051,-0.6291133761405945,-46.50039291381836,-5.489101886749268,19.559053421020508,0.7784934639930725,2.3660311698913574,-0.18710653483867645,0.0,0.0,0.0,0.0,0.0,0.0,0.0,-0.6347381713167264,-0.28021797625430866,-0.3934956577942167,0.3659224983721352,0.19090573029492977,0.11001698236991564,-0.18483108398198353,0.8780276389275262,0.7554194894918649,-0.2825032722689664,-1.6690591467652816,0.14140514062912626,2.4035748017045795,1.0273468966401285,0.878092876070424,0.7554597494309409,-0.2825552651693207,-1.6690993614607135,0.1414185955172306,2.4034451173676383,1.0273381002308042,0.0006833179550138342,-0.0008492906459957277,-0.0017177364169805953,-0.0019828359019044128,-6.658228576648978e-05,-7.367013225217261e-05,-0.00025014492031570385,0.0,0.0,0.0,0.0,0.0,0.0,0.0,6.523714289774496e-05,4.0259939075970586e-05,-5.199290035434734e-05,-4.0214695431917136e-05,1.3454888104336149e-05,-0.00012968433694116044,-8.796409324274279e-06,-0.0006833179550138342,0.0008492906459957277,0.0017177364169805953,0.0019828359019044128,6.658228576648978e-05,7.367013225217261e-05,0.00025014492031570385,0.6291133761405945,46.50039291381836,5.489101886749268,-19.559053421020508,-0.7784934639930725,-2.3660311698913574,0.18710653483867645,0
65,0.3199918270111084,-0.6053096652030945,-46.57577133178711,-5.536709308624268,19.535249710083008,0.7730002999305725,2.3660311698913574,-0.20724813640117645,0.0,0.0,0.0,0.0,0.0,0.0,0.0,-0.6494127048046936,-0.22802569539991274,-0.4015554141965685,0.32308627156043135,0.19035262362362643,0.10356030425154943,-0.18467526101997997,0.8780231866196726,0.7554241031638231,-0.28249993107611854,-1.66905747632813,0.1414047142566308,2.4035725555367775,1.0273491345958576,0.878092876070424,0.7554597494309409,-0.2825552651693207,-1.6690993614607135,0.1414185955172306,2.4034451173676383,1.0273381002308042,-3.9210725335604905e-05,0.0007612115707089351,-0.00025121861901589973,-0.00030431377153905515,0.00011945700661679884,0.000190389284019661,0.0007250793388286853,0.0,0.0,0.0,0.0,0.0,0.0,0.0,6.968945075136457e-05,3.564626711771712e-05,-5.5334093202186185e-05,-4.188513258340798e-05,1.3881260599812872e-05,-0.00012743816913918238,-1.1034365053452788e-05,3.9210725335604905e-05,-0.0007612115707089351,0.00025121861901589973,0.00030431377153905515,-0.00011945700661679884,-0.000190389284019661,-0.0007250793388286853,0.6053096652030945,46.57577133178711,5.536709308624268,-19.535249710083008,-0.7730002999305725,-2.3660311698913574,0.20724813640117645,0
66,0.3249983787536621,-0.6053096652030945,-46.57577133178711,-5.536709308624268,19.535249710083008,0.7730002999305725,2.3660311698913574,-0.20724813640117645,0.0,0.0,0.0,0.0,0.0,0.0,0.0,-0.6494127048046936,-0.22802569539991274,-0.4015554141965685,0.32308627156043135,0.19035262362362643,0.10356030425154943,-0.18467526101997997,0.8780231866196726,0.7554241031638231,-0.28249993107611854,-1.66905747632813,0.1414047142566308,2.4035725555367775,1.0273491345958576,0.878092876070424,0.7554597494309409,-0.2825552651693207,-1.6690993614607135,0.1414185955172306,2.4034451173676383,1.0273381002308042,-3.9210725335604905e-05,0.0007612115707089351,-0.00025121861901589973,-0.00030431377153905515,0.00011945700661679884,0.000190389284019661,0.0007250793388286853,0.0,0.0,0.0,0.0,0.0,0.0,0.0,6.968945075136457e-05,3.564626711771712e-05,-5.5334093202186185e-05,-4.188513258340798e-05,1.3881260599812872e-05,-0.00012743816913918238,-1.1034365053452788e-05,3.9210725335604905e-05,-0.0007612115707089351,0.00025121861901589973,0.00030431377153905515,-0.00011945700661679884,-0.000190389284019661,-0.0007250793388286853,0.6053096652030945,46.57577133178711,5.536709308624268,-19.535249710083008,-0.7730002999305725,-2.3660311698913574,0.20724813640117645,0
67,0.32999372482299805,-0.6053096652030945,-46.57577133178711,-5.536709308624268,19.535249710083008,0.7665916085243225,2.3788485527038574,-0.16604940593242645,0.0,0.0,0.0,0.0,0.0,0.0,0.0,-0.6485650460694941,-0.21330099863584628,-0.40143246049914033,0.31140171992358967,0.19021407590811892,0.10233417023632722,-0.1851942755746235,0.8780235548245849,0.7554240771596268,-0.2824999310761167,-1.66905747632813,0.14140555771794483,2.4035714393077634,1.027344556959139,0.878092876070424,0.7554597494309409,-0.2825552651693207,-1.6690993614607135,0.1414185955172306,2.4034451173676383,1.0273381002308042,-0.00032378690356938436,0.0005630600394554891,-0.0005343693710321449,5.739088072209668e-05,0.00044033857595768603,-0.0001954030679835851,-0.0011946987018241779,0.0,0.0,0.0,0.0,0.0,0.0,0.0,6.932124583902688e-05,3.5672271314068915e-05,-5.533409320401805e-05,-4.188513258340798e-05,1.303779928576998e-05,-0.0001263219401250737,-6.456728334880424e-06,0.00032378690356938436,-0.0005630600394554891,0.0005343693710321449,-5.739088072209668e-05,-0.00044033857595768603,0.0001954030679835851,0.0011946987018241779,0.6053096652030945,46.57577133178711,5.536709308624268,-19.535249710083008,-0.7665916085243225,-2.3788485527038574,0.16604940593242645,0
68,0.334991455078125,-0.6053096652030945,-46.57577133178711,-5.536709308624268,19.535249710083008,0.7665916085243225,2.3788485527038574,-0.16604940593242645,0.0,0.0,0.0,0.0,0.0,0.0,0.0,-0.6485650460694941,-0.21330099863584628,-0.40143246049914033,0.31140171992358967,0.19021407590811892,0.10233417023632722,-0.1851942755746235,0.8780235548245849,0.7554240771596268,-0.2824999310761167,-1.66905747632813,0.14140555771794483,2.4035714393077634,1.027344556959139,0.878092876070424,0.7554597494309409,-0.2825552651693207,-1.6690993614607135,0.1414185955172306,2.4034451173676383,1.0273381002308042,-0.00032378690356938436,0.0005630600394554891,-0.0005343693710321449,5.739088072209668e-05,0.00044033857595768603,-0.0001954030679835851,-0.0011946987018241779,0.0,0.0,0.0,0.0,0.0,0.0,0.0,6.932124583902688e-05,3.5672271314068915e-05,-5.533409320401805e-05,-4.188513258340798e-05,1.303779928576998e-05,-0.0001263219401250737,-6.456728334880424e-06,0.00032378690356938436,-0.0005630600394554891,0.0005343693710321449,-5.739088072209668e-05,-0.00044033857595768603,0.0001954030679835851,0.0011946987018241779,0.6053096652030945,46.57577133178711,5.536709308624268,-19.535249710083008,-0.7665916085243225,-2.3788485527038574,0.16604940593242645,0
69,0.3399930000305176,-0.6053096652030945,-46.59957504272461,-5.536709308624268,19.535249710083008,0.7665916085243225,2.3724398612976074,-0.22830526530742645,0.0,0.0,0.0,0.0,0.0,0.0,0.0,-0.6481500961091302,-0.22267375282590723,-0.40352034875390297,0.3156684793818608,0.1909674980254835,0.10335408374680237,-0.1853161209122949,0.8780257270848286,0.755426449605596,-0.2824999310761167,-1.66905747632813,0.14140905309064655,2.4035711370235937,1.0273514787465143,0.878092876070424,0.7554597494309409,-0.2825552651693207,-1.6690993614607135,0.1414185955172306,2.4034451173676383,1.0273381002308042,-0.0008820783516111037,0.0006118653861546273,-0.0010510391112702297,8.547984474683722e-05,0.00035607842836839416,-1.1496230819905529e-06,0.001909694577169182,0.0,0.0,0.0,0.0,0.0,0.0,0.0,6.714898559534443e-05,3.3299825344834666e-05,-5.533409320401805e-05,-4.188513258340798e-05,9.542426584047137e-06,-0.00012601965595537834,-1.3378515710149586e-05,0.0008820783516111037,-0.0006118653861546273,0.0010510391112702297,-8.547984474683722e-05,-0.00035607842836839416,1.1496230819905529e-06,-0.001909694577169182,0.6053096652030945,46.59957504272461,5.536709308624268,-19.535249710083008,-0.7665916085243225,-2.3724398612976074,0.22830526530742645,0
70,0.3449978828430176,-0.6053096652030945,-46.59957504272461,-5.536709308624268,19.535249710083008,0.7665916085243225,2.3724398612976074,-0.22830526530742645,0.0,0.0,0.0,0.0,0.0,0.0,0.0,-0.6481500961091302,-0.22267375282590723,-0.40352034875390297,0.3156684793818608,0.1909674980254835,0.10335408374680237,-0.1853161209122949,0.8780257270848286,0.755426449605596,-0.2824999310761167,-1.66905747632813,0.14140905309064655,2.4035711370235937,1.0273514787465143,0.878092876070424,0.7554597494309409,-0.2825552651693207,-1.6690993614607135,0.1414185955172306,2.4034451173676383,1.0273381002308042,-0.0008820783516111037,0.0006118653861546273,-0.0010510391112702297,8.547984474683722e-05,0.00035607842836839416,-1.1496230819905529e-06,0.001909694577169182,0.0,0.0,0.0,0.0,0.0,0.0,0.0,6.714898559534443e-05,3.3299825344834666e-05,-5.533409320401805e-05,-4.188513258340798e-05,9.542426584047137e-06,-0.00012601965595537834,-1.3378515710149586e-05,0.0008820783516111037,-0.0006118653861546273,0.0010510391112702297,-8.547984474683722e-05,-0.00035607842836839416,1.1496230819905529e-06,-0.001909694577169182,0.6053096652030945,46.59957504272461,5.536709308624268,-19.535249710083008,-0.7665916085243225,-2.3724398612976074,0.22830526530742645,0
71,0.34995293617248535,-0.6291133761405945,-46.59957504272461,-5.588284015655518,19.535249710083008,0.7610984444618225,2.3660311698913574,-0.18710653483867645,0.0,0.0,0.0,0.0,0.0,0.0,0.0,-0.6360552104731861,-0.2136043368410596,-0.39102389148019917,0.3122606277147106,0.1902869420372951,0.10271185227642055,-0.18553036131336856,0.8780277170959678,0.7554257475992981,-0.2824963117984303,-1.66905747632813,0.14140706044264587,2.4035749827875152,1.0273468966401538,0.878092876070424,0.7554597494309409,-0.2825552651693207,-1.6690993614607135,0.1414185955172306,2.4034451173676383,1.0273381002308042,-0.0003659159062481633,0.001117442887374166,0.0006469412387883537,-3.341369769181948e-05,0.00040778354012631774,0.000174003304107964,0.0004969612807547122,0.0,0.0,0.0,0.0,0.0,0.0,0.0,6.51589744561365e-05,3.400183164270487e-05,-5.89533708904022e-05,-4.188513258340798e-05,1.153507458473424e-05,-0.0001298654198769178,-8.796409349587364e-06,0.0003659159062481633,-0.001117442887374166,-0.0006469412387883537,3.341369769181948e-05,-0.00040778354012631774,-0.000174003304107964,-0.0004969612807547122,0.6291133761405945,46.59957504272461,5.588284015655518,-19.535249710083008,-0.7610984444618225,-2.3660311698913574,0.18710653483867645,0
72,0.3549957275390625,-0.6291133761405945,-46.59957504272461,-5.588284015655518,19.535249710083008,0.7610984444618225,2.3660311698913574,-0.18710653483867645,0.0,0.0,0.0,0.0,0.0,0.0,0.0,-0.6360552104731861,-0.2136043368410596,-0.39102389148019917,0.3122606277147106,0.1902869420372951,0.10271185227642055,-0.18553036131336856,0.8780277170959678,0.7554257475992981,-0.2824963117984303,-1.66905747632813,0.14140706044264587,2.4035749827875152,1.0273468966401538,0.878092876070424,0.7554597494309409,-0.2825552651693207,-1.6690993614607135,0.1414185955172306,2.4034451173676383,1.0273381002308042,-0.0003659159062481633,0.001117442887374166,0.0006469412387883537,-3.341369769181948e-05,0.00040778354012631774,0.000174003304107964,0.0004969612807547122,0.0,0.0,0.0,0.0,0.0,0.0,0.0,6.51589744561365e-05,3.400183164270487e-05,-5.89533708904022e-05,-4.188513258340798e-05,1.153507458473424e-05,-0.0001298654198769178,-8.796409349587364e-06,0.0003659159062481633,-0.001117442887374166,-0.0006469412387883537,3.341369769181948e-05,-0.00040778354012631774,-0.000174003304107964,-0.0004969612807547122,0.6291133761405945,46.59957504272461,5.588284015655518,-19.535249710083008,-0.7610984444618225,-2.3660311698913574,0.18710653483867645,0
73,0.36000800132751465,-0.6806880831718445,-46.52419662475586,-5.564480304718018,19.535249710083008,0.7784934639930725,2.3660311698913574,-0.13858358561992645,0.0,0.0,0.0,0.0,0.0,0.0,0.0,-0.6508794314969452,-0.21457354593478034,-0.3974988979199633,0.31055913128093315,0.18981725857005846,0.10269395366168951,-0.18574594246006101,0.8780303839729984,0.7554204578817937,-0.28249798223428557,-1.66905747632813,0.14140776706560992,2.403571821925607,1.0273415052013264,0.878092876070424,0.7554597494309409,-0.2825552651693207,-1.6690993614607135,0.1414185955172306,2.4034451173676383,1.0273381002308042,0.0002519954845137996,-0.0006589538749739649,-0.00029050736284064936,-0.00040296684779500395,-0.00011917603653279743,0.00023658092865312533,-0.001934170100631372,0.0,0.0,0.0,0.0,0.0,0.0,0.0,6.24920974255927e-05,3.9291549147169036e-05,-5.728293503515225e-05,-4.188513258340798e-05,1.0828451620675805e-05,-0.00012670455796870428,-3.404970522202788e-06,-0.0002519954845137996,0.0006589538749739649,0.00029050736284064936,0.00040296684779500395,0.00011917603653279743,-0.00023658092865312533,0.001934170100631372,0.6806880831718445,46.52419662475586,5.564480304718018,-19.535249710083008,-0.7784934639930725,-2.3660311698913574,0.13858358561992645,0
74,0.3649940490722656,-0.6806880831718445,-46.52419662475586,-5.564480304718018,19.535249710083008,0.7784934639930725,2.3660311698913574,-0.13858358561992645,0.0,0.0,0.0,0.0,0.0,0.0,0.0,-0.6508794314969452,-0.21457354593478034,-0.3974988979199633,0.31055913128093315,0.18981725857005846,0.10269395366168951,-0.18574594246006101,0.8780303839729984,0.7554204578817937,-0.28249798223428557,-1.66905747632813,0.14140776706560992,2.403571821925607,1.0273415052013264,0.878092876070424,0.7554597494309409,-0.2825552651693207,-1.6690993614607135,0.1414185955172306,2.4034451173676383,1.0273381002308042,0.0002519954845137996,-0.0006589538749739649,-0.00029050736284064936,-0.00040296684779500395,-0.00011917603653279743,0.00023658092865312533,-0.001934170100631372,0.0,0.0,0.0,0.0,0.0,0.0,0.0,6.24920974255927e-05,3.9291549147169036e-05,-5.728293503515225e-05,-4.188513258340798e-05,1.0828451620675805e-05,-0.00012670455796870428,-3.404970522202788e-06,-0.0002519954845137996,0.0006589538749739649,0.00029050736284064936,0.00040296684779500395,0.00011917603653279743,-0.00023658092865312533,0.001934170100631372,0.6806880831718445,46.52419662475586,5.564480304718018,-19.535249710083008,-0.7784934639930725,-2.3660311698913574,0.13858358561992645,0
75,0.3700268268585205,-0.7084590792655945,-46.52419662475586,-5.564480304718018,19.535249710083008,0.7730002999305725,2.3660311698913574,-0.19351522624492645,0.0,0.0,0.0,0.0,0.0,0.0,0.0,-0.6525630598497076,-0.21857653394103949,-0.3969284766776315,0.31391327523941265,0.18987753556661116,0.10329826091733689,-0.1854971766671938,0.8780325413992806,0.7554204578817937,-0.28249798223428557,-1.66905747632813,0.14140799659788028,2.403574686376966,1.0273476087169515,0.878092876070424,0.7554597494309409,-0.2825552651693207,-1.6690993614607135,0.1414185955172306,2.4034451173676383,1.0273381002308042,0.0007962458655362844,-0.0002577783202822101,-0.0007044248798264496,-0.00030848301540696614,0.00011526266652894464,0.00016492272734381958,0.00046500820272463096,0.0,0.0,0.0,0.0,0.0,0.0,0.0,6.033467114341384e-05,3.9291549147169036e-05,-5.728293503515225e-05,-4.188513258340798e-05,1.0598919350318647e-05,-0.00012956900932747928,-9.508486147336015e-06,-0.0007962458655362844,0.0002577783202822101,0.0007044248798264496,0.00030848301540696614,-0.00011526266652894464,-0.00016492272734381958,-0.00046500820272463096,0.7084590792655945,46.52419662475586,5.564480304718018,-19.535249710083008,-0.7730002999305725,-2.3660311698913574,0.19351522624492645,0
76,0.3749997615814209,-0.7084590792655945,-46.52419662475586,-5.564480304718018,19.535249710083008,0.7730002999305725,2.3660311698913574,-0.19351522624492645,0.0,0.0,0.0,0.0,0.0,0.0,0.0,-0.6525630598497076,-0.21857653394103949,-0.3969284766776315,0.31391327523941265,0.18987753556661116,0.10329826091733689,-0.1854971766671938,0.8780325413992806,0.7554204578817937,-0.28249798223428557,-1.66905747632813,0.14140799659788028,2.403574686376966,1.0273476087169515,0.878092876070424,0.7554597494309409,-0.2825552651693207,-1.6690993614607135,0.1414185955172306,2.4034451173676383,1.0273381002308042,0.0007962458655362844,-0.0002577783202822101,-0.0007044248798264496,-0.00030848301540696614,0.00011526266652894464,0.00016492272734381958,0.00046500820272463096,0.0,0.0,0.0,0.0,0.0,0.0,0.0,6.033467114341384e-05,3.9291549147169036e-05,-5.728293503515225e-05,-4.188513258340798e-05,1.0598919350318647e-05,-0.00012956900932747928,-9.508486147336015e-06,-0.0007962458655362844,0.0002577783202822101,0.0007044248798264496,0.00030848301540696614,-0.00011526266652894464,-0.00016492272734381958,-0.00046500820272463096,0.7084590792655945,46.52419662475586,5.564480304718018,-19.535249710083008,-0.7730002999305725,-2.3660311698913574,0.19351522624492645,0
77,0.37999773025512695,-0.7084590792655945,-46.52419662475586,-5.564480304718018,19.535249710083008,0.7730002999305725,2.3660311698913574,-0.19351522624492645,0.0,0.0,0.0,0.0,0.0,0.0,0.0,-0.6525630598497076,-0.21857653394103949,-0.3969284766776315,0.31391327523941265,0.18987753556661116,0.10329826091733689,-0.1854971766671938,0.8780325413992806,0.7554204578817937,-0.28249798223428557,-1.66905747632813,0.14140799659788028,2.403574686376966,1.0273476087169515,0.878092876070424,0.7554597494309409,-0.2825552651693207,-1.6690993614607135,0.1414185955172306,2.4034451173676383,1.0273381002308042,0.0007962458655362844,-0.0002577783202822101,-0.0007044248798264496,-0.00030848301540696614,0.00011526266652894464,0.00016492272734381958,0.00046500820272463096,0.0,0.0,0.0,0.0,0.0,0.0,0.0,6.033467114341384e-05,3.9291549147169036e-05,-5.728293503515225e-05,-4.188513258340798e-05,1.0598919350318647e-05,-0.00012956900932747928,-9.508486147336015e-06,-0.0007962458655362844,0.0002577783202822101,0.0007044248798264496,0.00030848301540696614,-0.00011526266652894464,-0.00016492272734381958,-0.00046500820272463096,0.7084590792655945,46.52419662475586,5.564480304718018,-19.535249710083008,-0.7730002999305725,-2.3660311698913574,0.19351522624492645,0
78,0.38498973846435547,-0.7084590792655945,-46.52419662475586,-5.564480304718018,19.535249710083008,0.7730002999305725,2.3660311698913574,-0.19351522624492645,0.0,0.0,0.0,0.0,0.0,0.0,0.0,-0.6525630598497076,-0.21857653394103949,-0.3969284766776315,0.31391327523941265,0.18987753556661116,0.10329826091733689,-0.1854971766671938,0.8780325413992806,0.7554204578817937,-0.28249798223428557,-1.66905747632813,0.14140799659788028,2.403574686376966,1.0273476087169515,0.878092876070424,0.7554597494309409,-0.2825552651693207,-1.6690993614607135,0.1414185955172306,2.4034451173676383,1.0273381002308042,0.0007962458655362844,-0.0002577783202822101,-0.0007044248798264496,-0.00030848301540696614,0.00011526266652894464,0.00016492272734381958,0.00046500820272463096,0.0,0.0,0.0,0.0,0.0,0.0,0.0,6.033467114341384e-05,3.9291549147169036e-05,-5.728293503515225e-05,-4.188513258340798e-05,1.0598919350318647e-05,-0.00012956900932747928,-9.508486147336015e-06,-0.0007962458655362844,0.0002577783202822101,0.0007044248798264496,0.00030848301540696614,-0.00011526266652894464,-0.00016492272734381958,-0.00046500820272463096,0.7084590792655945,46.52419662475586,5.564480304718018,-19.535249710083008,-0.7730002999305725,-2.3660311698913574,0.19351522624492645,0
79,0.38999509811401367,-0.6806880831718445,-46.54800033569336,-5.588284015655518,19.535249710083008,0.7784934639930725,2.3596224784851074,-0.15964071452617645,0.0,0.0,0.0,0.0,0.0,0.0,0.0,-0.6535649462646376,-0.21284086213650036,-0.39123069375110936,0.314233499411732,0.19000058562062705,0.10220508788156078,-0.18474811697426372,0.878029153179283,0.7554221283176489,-0.2824963117984303,-1.6690595426224824,0.14140726797814746,2.4035755030116266,1.0273439655633252,0.878092876070424,0.7554597494309409,-0.2825552651693207,-1.6690993614607135,0.1414185955172306,2.4034451173676383,1.0273381002308042,-0.0006092125676467933,0.0005160971246666458,0.0007045351541713281,-0.00020551061629949638,-0.00012160543799393371,0.00033041141152172617,-0.0005353535583543884,0.0,0.0,0.0,0.0,0.0,0.0,0.0,6.372289114098262e-05,3.7621113291974595e-05,-5.89533708904022e-05,-3.9818838231120424e-05,1.1327539083144655e-05,-0.00013038564398826225,-5.865332521004518e-06,0.0006092125676467933,-0.0005160971246666458,-0.0007045351541713281,0.00020551061629949638,0.00012160543799393371,-0.00033041141152172617,0.0005353535583543884,0.6806880831718445,46.54800033569336,5.588284015655518,-19.535249710083008,-0.7784934639930725,-2.3596224784851074,0.15964071452617645,0
80,0.3949918746948242,-0.6806880831718445,-46.54800033569336,-5.588284015655518,19.535249710083008,0.7784934639930725,2.3596224784851074,-0.15964071452617645,0.0,0.0,0.0,0.0,0.0,0.0,0.0,-0.6535649462646376,-0.21284086213650036,-0.39123069375110936,0.314233499411732,0.19000058562062705,0.10220508788156078,-0.18474811697426372,0.878029153179283,0.7554221283176489,-0.2824963117984303,-1.6690595426224824,0.14140726797814746,2.4035755030116266,1.0273439655633252,0.878092876070424,0.7554597494309409,-0.2825552651693207,-1.6690993614607135,0.1414185955172306,2.4034451173676383,1.0273381002308042,-0.0006092125676467933,0.0005160971246666458,0.0007045351541713281,-0.00020551061629949638,-0.00012160543799393371,0.00033041141152172617,-0.0005353535583543884,0.0,0.0,0.0,0.0,0.0,0.0,0.0,6.372289114098262e-05,3.7621113291974595e-05,-5.89533708904022e-05,-3.9818838231120424e-05,1.1327539083144655e-05,-0.00013038564398826225,-5.865332521004518e-06,0.0006092125676467933,-0.0005160971246666458,-0.0007045351541713281,0.00020551061629949638,0.00012160543799393371,-0.00033041141152172617,0.0005353535583543884,0.6806880831718445,46.54800033569336,5.588284015655518,-19.535249710083008,-0.7784934639930725,-2.3596224784851074,0.15964071452617645,0
