rezayati/contactInterpretation/dataset/franka_main/labeled_data/link1/g2_6.csv
index,time,tau_J0,tau_J1,tau_J2,tau_J3,tau_J4,tau_J5,tau_J6,tau_J_d0,tau_J_d1,tau_J_d2,tau_J_d3,tau_J_d4,tau_J_d5,tau_J_d6,tau_ext0,tau_ext1,tau_ext2,tau_ext3,tau_ext4,tau_ext5,tau_ext6,q0,q1,q2,q3,q4,q5,q6,q_d0,q_d1,q_d2,q_d3,q_d4,q_d5,q_d6,dq0,dq1,dq2,dq3,dq4,dq5,dq6,dq_d0,dq_d1,dq_d2,dq_d3,dq_d4,dq_d5,dq_d6,e0,e1,e2,e3,e4,e5,e6,de0,de1,de2,de3,de4,de5,de6,etau_J0,etau_J1,etau_J2,etau_J3,etau_J4,etau_J5,etau_J6,label
1,0.0,0.10880166292190552,-18.154138565063477,1.0926239490509033,18.023714065551758,0.4864402413368225,2.2296175956726074,-0.17337362468242645,0.0,0.0,0.0,0.0,0.0,0.0,0.0,0.13045100562391362,0.5065044289885271,0.3187577929006985,0.35017088890231723,0.05738546356213009,0.05545602319415616,-0.1781490653035647,-0.609055584519879,-0.057531822612933936,-0.6665945622139186,-2.594561826739395,-0.05562140085441011,2.5079742446905566,0.8763122474269652,-0.6090851748156966,-0.05753196718556838,-0.666603097082616,-2.5945565370258534,-0.05562143941554,2.507976027223799,0.8763108487046415,0.0009506254397059144,9.678900681518396e-06,0.000576315639101214,-0.0013014650688565033,-0.0002193139379860084,0.00024572865341100425,-0.0005798490560645924,0.0,0.0,0.0,0.0,0.0,0.0,0.0,-2.9590295817616408e-05,-1.4457263444733748e-07,-8.534868697451792e-06,5.2897135414120555e-06,-3.856112989336635e-08,1.782533242344897e-06,-1.398722323742163e-06,-0.0009506254397059144,-9.678900681518396e-06,-0.000576315639101214,0.0013014650688565033,0.0002193139379860084,-0.00024572865341100425,0.0005798490560645924,-0.10880166292190552,18.154138565063477,-1.0926239490509033,-18.023714065551758,-0.4864402413368225,-2.2296175956726074,0.17337362468242645,0
2,0.005002260208129883,0.10880166292190552,-18.177942276000977,1.1441986560821533,17.972139358520508,0.4745383858680725,2.2424349784851074,-0.20083944499492645,0.0,0.0,0.0,0.0,0.0,0.0,0.0,0.13297101241983506,0.5041324905811971,0.317213686567491,0.3537555308941791,0.05717101068478262,0.05527506297228229,-0.17877376531091982,-0.6090555874619723,-0.05753015250185631,-0.6665972157178293,-2.5945582074617084,-0.055619639526365554,2.5079725191694897,0.8763184775967121,-0.6090851748156966,-0.05753196718556838,-0.666603097082616,-2.5945565370258534,-0.05562143941554,2.507976027223799,0.8763108487046415,5.814888324126883e-06,0.0006451100234519975,-0.0001343671878295229,0.0007088136741710489,0.00029519122027453704,-0.00017054462902279892,0.0013887602911476918,0.0,0.0,0.0,0.0,0.0,0.0,0.0,-2.9587353724269683e-05,-1.8146837120758263e-06,-5.881364786741727e-06,1.6704358549723963e-06,-1.7998891744461232e-06,3.5080543092647076e-06,-7.62889207062134e-06,-5.814888324126883e-06,-0.0006451100234519975,0.0001343671878295229,-0.0007088136741710489,-0.00029519122027453704,0.00017054462902279892,-0.0013887602911476918,-0.10880166292190552,18.177942276000977,-1.1441986560821533,-17.972139358520508,-0.4745383858680725,-2.2424349784851074,0.20083944499492645,0
3,0.010002613067626953,0.10880166292190552,-18.177942276000977,1.1441986560821533,17.972139358520508,0.4745383858680725,2.2424349784851074,-0.20083944499492645,0.0,0.0,0.0,0.0,0.0,0.0,0.0,0.13297101241983506,0.5041324905811971,0.317213686567491,0.3537555308941791,0.05717101068478262,0.05527506297228229,-0.17877376531091982,-0.6090555874619723,-0.05753015250185631,-0.6665972157178293,-2.5945582074617084,-0.055619639526365554,2.5079725191694897,0.8763184775967121,-0.6090851748156966,-0.05753196718556838,-0.666603097082616,-2.5945565370258534,-0.05562143941554,2.507976027223799,0.8763108487046415,5.814888324126883e-06,0.0006451100234519975,-0.0001343671878295229,0.0007088136741710489,0.00029519122027453704,-0.00017054462902279892,0.0013887602911476918,0.0,0.0,0.0,0.0,0.0,0.0,0.0,-2.9587353724269683e-05,-1.8146837120758263e-06,-5.881364786741727e-06,1.6704358549723963e-06,-1.7998891744461232e-06,3.5080543092647076e-06,-7.62889207062134e-06,-5.814888324126883e-06,-0.0006451100234519975,0.0001343671878295229,-0.0007088136741710489,-0.00029519122027453704,0.00017054462902279892,-0.0013887602911476918,-0.10880166292190552,18.177942276000977,-1.1441986560821533,-17.972139358520508,-0.4745383858680725,-2.2424349784851074,0.20083944499492645,0
4,0.01500248908996582,0.10880166292190552,-18.177942276000977,1.1441986560821533,17.972139358520508,0.4745383858680725,2.2424349784851074,-0.20083944499492645,0.0,0.0,0.0,0.0,0.0,0.0,0.0,0.13297101241983506,0.5041324905811971,0.317213686567491,0.3537555308941791,0.05717101068478262,0.05527506297228229,-0.17877376531091982,-0.6090555874619723,-0.05753015250185631,-0.6665972157178293,-2.5945582074617084,-0.055619639526365554,2.5079725191694897,0.8763184775967121,-0.6090851748156966,-0.05753196718556838,-0.666603097082616,-2.5945565370258534,-0.05562143941554,2.507976027223799,0.8763108487046415,5.814888324126883e-06,0.0006451100234519975,-0.0001343671878295229,0.0007088136741710489,0.00029519122027453704,-0.00017054462902279892,0.0013887602911476918,0.0,0.0,0.0,0.0,0.0,0.0,0.0,-2.9587353724269683e-05,-1.8146837120758263e-06,-5.881364786741727e-06,1.6704358549723963e-06,-1.7998891744461232e-06,3.5080543092647076e-06,-7.62889207062134e-06,-5.814888324126883e-06,-0.0006451100234519975,0.0001343671878295229,-0.0007088136741710489,-0.00029519122027453704,0.00017054462902279892,-0.0013887602911476918,-0.10880166292190552,18.177942276000977,-1.1441986560821533,-17.972139358520508,-0.4745383858680725,-2.2424349784851074,0.20083944499492645,0
5,0.02003026008605957,0.10880166292190552,-18.177942276000977,1.1441986560821533,17.972139358520508,0.4745383858680725,2.2424349784851074,-0.20083944499492645,0.0,0.0,0.0,0.0,0.0,0.0,0.0,0.13297101241983506,0.5041324905811971,0.317213686567491,0.3537555308941791,0.05717101068478262,0.05527506297228229,-0.17877376531091982,-0.6090555874619723,-0.05753015250185631,-0.6665972157178293,-2.5945582074617084,-0.055619639526365554,2.5079725191694897,0.8763184775967121,-0.6090851748156966,-0.05753196718556838,-0.666603097082616,-2.5945565370258534,-0.05562143941554,2.507976027223799,0.8763108487046415,5.814888324126883e-06,0.0006451100234519975,-0.0001343671878295229,0.0007088136741710489,0.00029519122027453704,-0.00017054462902279892,0.0013887602911476918,0.0,0.0,0.0,0.0,0.0,0.0,0.0,-2.9587353724269683e-05,-1.8146837120758263e-06,-5.881364786741727e-06,1.6704358549723963e-06,-1.7998891744461232e-06,3.5080543092647076e-06,-7.62889207062134e-06,-5.814888324126883e-06,-0.0006451100234519975,0.0001343671878295229,-0.0007088136741710489,-0.00029519122027453704,0.00017054462902279892,-0.0013887602911476918,-0.10880166292190552,18.177942276000977,-1.1441986560821533,-17.972139358520508,-0.4745383858680725,-2.2424349784851074,0.20083944499492645,0
6,0.025031566619873047,0.13260537385940552,-18.130334854125977,1.0926239490509033,17.948335647583008,0.4864402413368225,2.2424349784851074,-0.15231649577617645,0.0,0.0,0.0,0.0,0.0,0.0,0.0,0.13340902756549872,0.507708430589756,0.3179991736050866,0.3497887055913286,0.05646122923298587,0.05418530278347538,-0.1772440765057684,-0.6090572552814536,-0.05753349304879103,-0.6665924336671717,-2.5945565370258534,-0.05561883647394795,2.5079725075393866,0.8763129689227991,-0.6090851748156966,-0.05753196718556838,-0.666603097082616,-2.5945565370258534,-0.05562143941554,2.507976027223799,0.8763108487046415,0.00037778637361985523,-0.0006846977217790683,0.0007076999738009642,0.0009518096134795134,-0.00013400801030031225,-9.269617489129288e-05,-0.0015459553062703597,0.0,0.0,0.0,0.0,0.0,0.0,0.0,-2.7919534242970556e-05,1.5258632226483604e-06,-1.066341544431193e-05,0.0,-2.6029415920517107e-06,3.5196844123674964e-06,-2.120218157597442e-06,-0.00037778637361985523,0.0006846977217790683,-0.0007076999738009642,-0.0009518096134795134,0.00013400801030031225,9.269617489129288e-05,0.0015459553062703597,-0.13260537385940552,18.130334854125977,-1.0926239490509033,-17.948335647583008,-0.4864402413368225,-2.2424349784851074,0.15231649577617645,0
7,0.03000664710998535,0.13260537385940552,-18.130334854125977,1.0926239490509033,17.948335647583008,0.4864402413368225,2.2424349784851074,-0.15231649577617645,0.0,0.0,0.0,0.0,0.0,0.0,0.0,0.13340902756549872,0.507708430589756,0.3179991736050866,0.3497887055913286,0.05646122923298587,0.05418530278347538,-0.1772440765057684,-0.6090572552814536,-0.05753349304879103,-0.6665924336671717,-2.5945565370258534,-0.05561883647394795,2.5079725075393866,0.8763129689227991,-0.6090851748156966,-0.05753196718556838,-0.666603097082616,-2.5945565370258534,-0.05562143941554,2.507976027223799,0.8763108487046415,0.00037778637361985523,-0.0006846977217790683,0.0007076999738009642,0.0009518096134795134,-0.00013400801030031225,-9.269617489129288e-05,-0.0015459553062703597,0.0,0.0,0.0,0.0,0.0,0.0,0.0,-2.7919534242970556e-05,1.5258632226483604e-06,-1.066341544431193e-05,0.0,-2.6029415920517107e-06,3.5196844123674964e-06,-2.120218157597442e-06,-0.00037778637361985523,0.0006846977217790683,-0.0007076999738009642,-0.0009518096134795134,0.00013400801030031225,9.269617489129288e-05,0.0015459553062703597,-0.13260537385940552,18.130334854125977,-1.0926239490509033,-17.948335647583008,-0.4864402413368225,-2.2424349784851074,0.15231649577617645,0
8,0.035002708435058594,0.10880166292190552,-18.177942276000977,1.1441986560821533,18.023714065551758,0.4690452218055725,2.2424349784851074,-0.20083944499492645,0.0,0.0,0.0,0.0,0.0,0.0,0.0,0.13947006990593372,0.5021022599461071,0.32192581286555033,0.3538578343118976,0.05651666431485783,0.05506940655888203,-0.17728818830756013,-0.6090555845185349,-0.05753015217707867,-0.6665981284626906,-2.594561826739395,-0.05561701775263777,2.507972484282517,0.8763184780985093,-0.6090851748156966,-0.05753196718556838,-0.666603097082616,-2.5945565370258534,-0.05562143941554,2.507976027223799,0.8763108487046415,0.0011557054216620483,0.00019796194738695556,0.00032769002264886054,-0.0007755334215930793,0.0006269345609014497,-0.00015772317697766708,0.0012489649129762757,0.0,0.0,0.0,0.0,0.0,0.0,0.0,-2.95902971616524e-05,-1.8150084897111673e-06,-4.968619925382889e-06,5.2897135414120555e-06,-4.421662902230616e-06,3.5429412821308404e-06,-7.6293938677807205e-06,-0.0011557054216620483,-0.00019796194738695556,-0.00032769002264886054,0.0007755334215930793,-0.0006269345609014497,0.00015772317697766708,-0.0012489649129762757,-0.10880166292190552,18.177942276000977,-1.1441986560821533,-18.023714065551758,-0.4690452218055725,-2.2424349784851074,0.20083944499492645,0
9,0.03999805450439453,0.10880166292190552,-18.177942276000977,1.1441986560821533,18.023714065551758,0.4690452218055725,2.2424349784851074,-0.20083944499492645,0.0,0.0,0.0,0.0,0.0,0.0,0.0,0.13947006990593372,0.5021022599461071,0.32192581286555033,0.3538578343118976,0.05651666431485783,0.05506940655888203,-0.17728818830756013,-0.6090555845185349,-0.05753015217707867,-0.6665981284626906,-2.594561826739395,-0.05561701775263777,2.507972484282517,0.8763184780985093,-0.6090851748156966,-0.05753196718556838,-0.666603097082616,-2.5945565370258534,-0.05562143941554,2.507976027223799,0.8763108487046415,0.0011557054216620483,0.00019796194738695556,0.00032769002264886054,-0.0007755334215930793,0.0006269345609014497,-0.00015772317697766708,0.0012489649129762757,0.0,0.0,0.0,0.0,0.0,0.0,0.0,-2.95902971616524e-05,-1.8150084897111673e-06,-4.968619925382889e-06,5.2897135414120555e-06,-4.421662902230616e-06,3.5429412821308404e-06,-7.6293938677807205e-06,-0.0011557054216620483,-0.00019796194738695556,-0.00032769002264886054,0.0007755334215930793,-0.0006269345609014497,0.00015772317697766708,-0.0012489649129762757,-0.10880166292190552,18.177942276000977,-1.1441986560821533,-18.023714065551758,-0.4690452218055725,-2.2424349784851074,0.20083944499492645,0
10,0.044998884201049805,0.13260537385940552,-18.154138565063477,1.1680023670196533,17.972139358520508,0.4809470772743225,2.2424349784851074,-0.19351522624492645,0.0,0.0,0.0,0.0,0.0,0.0,0.0,0.1378719645342121,0.506569741292416,0.32574304910696233,0.3504972702183064,0.05697730436054436,0.0542216068089583,-0.1772966976828308,-0.6090572549543882,-0.057531822612933936,-0.6665998486216805,-2.5945582074617084,-0.05561830215812167,2.507973880175139,0.8763144853827025,-0.6090851748156966,-0.05753196718556838,-0.666603097082616,-2.5945565370258534,-0.05562143941554,2.507976027223799,0.8763108487046415,0.000511497030215714,-5.06777542423223e-05,1.0464629668643457e-05,0.0003790503781767313,0.00014523263056245378,-0.00017164347465218536,0.00034196114552729275,0.0,0.0,0.0,0.0,0.0,0.0,0.0,-2.791986130834534e-05,-1.4457263444733748e-07,-3.248460935467712e-06,1.6704358549723963e-06,-3.137257418329986e-06,2.1470486601948835e-06,-3.6366780610253002e-06,-0.000511497030215714,5.06777542423223e-05,-1.0464629668643457e-05,-0.0003790503781767313,-0.00014523263056245378,0.00017164347465218536,-0.00034196114552729275,-0.13260537385940552,18.154138565063477,-1.1680023670196533,-17.972139358520508,-0.4809470772743225,-2.2424349784851074,0.19351522624492645,0
11,0.04999828338623047,0.13260537385940552,-18.154138565063477,1.1680023670196533,17.972139358520508,0.4809470772743225,2.2424349784851074,-0.19351522624492645,0.0,0.0,0.0,0.0,0.0,0.0,0.0,0.1378719645342121,0.506569741292416,0.32574304910696233,0.3504972702183064,0.05697730436054436,0.0542216068089583,-0.1772966976828308,-0.6090572549543882,-0.057531822612933936,-0.6665998486216805,-2.5945582074617084,-0.05561830215812167,2.507973880175139,0.8763144853827025,-0.6090851748156966,-0.05753196718556838,-0.666603097082616,-2.5945565370258534,-0.05562143941554,2.507976027223799,0.8763108487046415,0.000511497030215714,-5.06777542423223e-05,1.0464629668643457e-05,0.0003790503781767313,0.00014523263056245378,-0.00017164347465218536,0.00034196114552729275,0.0,0.0,0.0,0.0,0.0,0.0,0.0,-2.791986130834534e-05,-1.4457263444733748e-07,-3.248460935467712e-06,1.6704358549723963e-06,-3.137257418329986e-06,2.1470486601948835e-06,-3.6366780610253002e-06,-0.000511497030215714,5.06777542423223e-05,-1.0464629668643457e-05,-0.0003790503781767313,-0.00014523263056245378,0.00017164347465218536,-0.00034196114552729275,-0.13260537385940552,18.154138565063477,-1.1680023670196533,-17.972139358520508,-0.4809470772743225,-2.2424349784851074,0.19351522624492645,0
12,0.05499863624572754,0.16037636995315552,-18.130334854125977,1.1164276599884033,17.948335647583008,0.4864402413368225,2.2296175956726074,-0.19351522624492645,0.0,0.0,0.0,0.0,0.0,0.0,0.0,0.13255190193159047,0.5072154700401876,0.32693351561369854,0.3504633393632788,0.05746967330216573,0.054752986550162336,-0.17786575454019957,-0.6090592037962194,-0.0575334930487892,-0.6665962198961983,-2.5945565370258534,-0.05561917391458307,2.5079742572959702,0.8763176250332889,-0.6090851748156966,-0.05753196718556838,-0.666603097082616,-2.5945565370258534,-0.05562143941554,2.507976027223799,0.8763108487046415,-0.0006110974693308518,-0.000110818603694754,0.0007708494695002904,0.0006915010509342289,-0.000151083135755567,0.00036160905365145094,0.0008163922522767009,0.0,0.0,0.0,0.0,0.0,0.0,0.0,-2.5971019477211144e-05,1.5258632208164924e-06,-6.877186417675318e-06,0.0,-2.265500956930011e-06,1.7699278287430786e-06,-6.77632864742872e-06,0.0006110974693308518,0.000110818603694754,-0.0007708494695002904,-0.0006915010509342289,0.000151083135755567,-0.00036160905365145094,-0.0008163922522767009,-0.16037636995315552,18.130334854125977,-1.1164276599884033,-17.948335647583008,-0.4864402413368225,-2.2296175956726074,0.19351522624492645,0
13,0.059999942779541016,0.16037636995315552,-18.130334854125977,1.1164276599884033,17.948335647583008,0.4864402413368225,2.2296175956726074,-0.19351522624492645,0.0,0.0,0.0,0.0,0.0,0.0,0.0,0.13255190193159047,0.5072154700401876,0.32693351561369854,0.3504633393632788,0.05746967330216573,0.054752986550162336,-0.17786575454019957,-0.6090592037962194,-0.0575334930487892,-0.6665962198961983,-2.5945565370258534,-0.05561917391458307,2.5079742572959702,0.8763176250332889,-0.6090851748156966,-0.05753196718556838,-0.666603097082616,-2.5945565370258534,-0.05562143941554,2.507976027223799,0.8763108487046415,-0.0006110974693308518,-0.000110818603694754,0.0007708494695002904,0.0006915010509342289,-0.000151083135755567,0.00036160905365145094,0.0008163922522767009,0.0,0.0,0.0,0.0,0.0,0.0,0.0,-2.5971019477211144e-05,1.5258632208164924e-06,-6.877186417675318e-06,0.0,-2.265500956930011e-06,1.7699278287430786e-06,-6.77632864742872e-06,0.0006110974693308518,0.000110818603694754,-0.0007708494695002904,-0.0006915010509342289,0.000151083135755567,-0.00036160905365145094,-0.0008163922522767009,-0.16037636995315552,18.130334854125977,-1.1164276599884033,-17.948335647583008,-0.4864402413368225,-2.2296175956726074,0.19351522624492645,0
14,0.06500005722045898,0.10880166292190552,-18.130334854125977,1.0926239490509033,17.924531936645508,0.4864402413368225,2.2360262870788574,-0.14590780436992645,0.0,0.0,0.0,0.0,0.0,0.0,0.0,0.1291303269786216,0.5062763837464366,0.32489112421479127,0.35045848939598073,0.0577560716654036,0.05483286715149435,-0.17842808207559432,-0.6090562997742703,-0.0575334930487892,-0.6665924398501402,-2.594554866589998,-0.05561818995540787,2.5079742400102547,0.8763123745833272,-0.6090851748156966,-0.05753196718556838,-0.666603097082616,-2.5945565370258534,-0.05562143941554,2.507976027223799,0.8763108487046415,0.0004333913324538421,-0.0004232678592313075,0.0004972581449183827,0.0008998547768523006,-2.257960329378228e-05,0.0001331605071426852,-0.0015434236398839654,0.0,0.0,0.0,0.0,0.0,0.0,0.0,-2.8875041426235093e-05,1.5258632208164924e-06,-1.0657232475841383e-05,-1.6704358554164855e-06,-3.2494601321306216e-06,1.7872135442686954e-06,-1.5258786857375028e-06,-0.0004333913324538421,0.0004232678592313075,-0.0004972581449183827,-0.0008998547768523006,2.257960329378228e-05,-0.0001331605071426852,0.0015434236398839654,-0.10880166292190552,18.130334854125977,-1.0926239490509033,-17.924531936645508,-0.4864402413368225,-2.2360262870788574,0.14590780436992645,0
15,0.07000112533569336,0.10880166292190552,-18.130334854125977,1.0926239490509033,17.924531936645508,0.4864402413368225,2.2360262870788574,-0.14590780436992645,0.0,0.0,0.0,0.0,0.0,0.0,0.0,0.1291303269786216,0.5062763837464366,0.32489112421479127,0.35045848939598073,0.0577560716654036,0.05483286715149435,-0.17842808207559432,-0.6090562997742703,-0.0575334930487892,-0.6665924398501402,-2.594554866589998,-0.05561818995540787,2.5079742400102547,0.8763123745833272,-0.6090851748156966,-0.05753196718556838,-0.666603097082616,-2.5945565370258534,-0.05562143941554,2.507976027223799,0.8763108487046415,0.0004333913324538421,-0.0004232678592313075,0.0004972581449183827,0.0008998547768523006,-2.257960329378228e-05,0.0001331605071426852,-0.0015434236398839654,0.0,0.0,0.0,0.0,0.0,0.0,0.0,-2.8875041426235093e-05,1.5258632208164924e-06,-1.0657232475841383e-05,-1.6704358554164855e-06,-3.2494601321306216e-06,1.7872135442686954e-06,-1.5258786857375028e-06,-0.0004333913324538421,0.0004232678592313075,-0.0004972581449183827,-0.0008998547768523006,2.257960329378228e-05,-0.0001331605071426852,0.0015434236398839654,-0.10880166292190552,18.130334854125977,-1.0926239490509033,-17.924531936645508,-0.4864402413368225,-2.2360262870788574,0.14590780436992645,0
16,0.07500267028808594,0.08103066682815552,-18.177942276000977,1.1164276599884033,17.999910354614258,0.4864402413368225,2.2360262870788574,-0.16604940593242645,0.0,0.0,0.0,0.0,0.0,0.0,0.0,0.12824988291089529,0.5005318625255643,0.32001543758616685,0.35650617249415906,0.058157696493117354,0.05649753857266716,-0.17852097426194558,-0.6090536356807396,-0.05753015217707867,-0.6665955406038674,-2.5945601563035394,-0.0556192722957518,2.5079742385606263,0.8763144817197559,-0.6090851748156966,-0.05753196718556838,-0.666603097082616,-2.5945565370258534,-0.05562143941554,2.507976027223799,0.8763108487046415,0.0007559633663929353,0.0001987495139887067,-0.00042606357679934143,3.5855953509698945e-06,-0.000201609838091998,0.00022439535446804707,0.00013626521927144155,0.0,0.0,0.0,0.0,0.0,0.0,0.0,-3.153913495701488e-05,-1.8150084897111673e-06,-7.55647874861598e-06,3.61927768599557e-06,-2.167119788197558e-06,1.7886631726860003e-06,-3.6330151144126077e-06,-0.0007559633663929353,-0.0001987495139887067,0.00042606357679934143,-3.5855953509698945e-06,0.000201609838091998,-0.00022439535446804707,-0.00013626521927144155,-0.08103066682815552,18.177942276000977,-1.1164276599884033,-17.999910354614258,-0.4864402413368225,-2.2360262870788574,0.16604940593242645,0
17,0.08001923561096191,0.08103066682815552,-18.177942276000977,1.1164276599884033,17.999910354614258,0.4864402413368225,2.2360262870788574,-0.16604940593242645,0.0,0.0,0.0,0.0,0.0,0.0,0.0,0.12824988291089529,0.5005318625255643,0.32001543758616685,0.35650617249415906,0.058157696493117354,0.05649753857266716,-0.17852097426194558,-0.6090536356807396,-0.05753015217707867,-0.6665955406038674,-2.5945601563035394,-0.0556192722957518,2.5079742385606263,0.8763144817197559,-0.6090851748156966,-0.05753196718556838,-0.666603097082616,-2.5945565370258534,-0.05562143941554,2.507976027223799,0.8763108487046415,0.0007559633663929353,0.0001987495139887067,-0.00042606357679934143,3.5855953509698945e-06,-0.000201609838091998,0.00022439535446804707,0.00013626521927144155,0.0,0.0,0.0,0.0,0.0,0.0,0.0,-3.153913495701488e-05,-1.8150084897111673e-06,-7.55647874861598e-06,3.61927768599557e-06,-2.167119788197558e-06,1.7886631726860003e-06,-3.6330151144126077e-06,-0.0007559633663929353,-0.0001987495139887067,0.00042606357679934143,-3.5855953509698945e-06,0.000201609838091998,-0.00022439535446804707,-0.00013626521927144155,-0.08103066682815552,18.177942276000977,-1.1164276599884033,-17.999910354614258,-0.4864402413368225,-2.2360262870788574,0.16604940593242645,0
18,0.08501911163330078,0.13260537385940552,-18.177942276000977,1.1441986560821533,17.948335647583008,0.4745383858680725,2.2552523612976074,-0.17978231608867645,0.0,0.0,0.0,0.0,0.0,0.0,0.0,0.1346805607533343,0.5038566617561845,0.3226561951132332,0.3498032468316946,0.05777974690915099,0.05594293466512692,-0.17770673048929286,-0.6090572549543882,-0.05753015217707867,-0.6665981991496803,-2.5945565370258534,-0.055619719347568805,2.5079721023301498,0.8763129594492226,-0.6090851748156966,-0.05753196718556838,-0.666603097082616,-2.5945565370258534,-0.05562143941554,2.507976027223799,0.8763108487046415,1.1623611690332848e-05,-0.0002328355222739623,8.543869552237303e-05,0.0006508733945118471,0.00023461294859474102,-0.0003277563145399575,0.00015992950731363636,0.0,0.0,0.0,0.0,0.0,0.0,0.0,-2.791986130834534e-05,-1.8150084897111673e-06,-4.897932935676863e-06,0.0,-1.7200679711948386e-06,3.92489364919868e-06,-2.1107445811185954e-06,-1.1623611690332848e-05,0.0002328355222739623,-8.543869552237303e-05,-0.0006508733945118471,-0.00023461294859474102,0.0003277563145399575,-0.00015992950731363636,-0.13260537385940552,18.177942276000977,-1.1441986560821533,-17.948335647583008,-0.4745383858680725,-2.2552523612976074,0.17978231608867645,0
19,0.09001851081848145,0.13260537385940552,-18.177942276000977,1.1441986560821533,17.948335647583008,0.4745383858680725,2.2552523612976074,-0.17978231608867645,0.0,0.0,0.0,0.0,0.0,0.0,0.0,0.1346805607533343,0.5038566617561845,0.3226561951132332,0.3498032468316946,0.05777974690915099,0.05594293466512692,-0.17770673048929286,-0.6090572549543882,-0.05753015217707867,-0.6665981991496803,-2.5945565370258534,-0.055619719347568805,2.5079721023301498,0.8763129594492226,-0.6090851748156966,-0.05753196718556838,-0.666603097082616,-2.5945565370258534,-0.05562143941554,2.507976027223799,0.8763108487046415,1.1623611690332848e-05,-0.0002328355222739623,8.543869552237303e-05,0.0006508733945118471,0.00023461294859474102,-0.0003277563145399575,0.00015992950731363636,0.0,0.0,0.0,0.0,0.0,0.0,0.0,-2.791986130834534e-05,-1.8150084897111673e-06,-4.897932935676863e-06,0.0,-1.7200679711948386e-06,3.92489364919868e-06,-2.1107445811185954e-06,-1.1623611690332848e-05,0.0002328355222739623,-8.543869552237303e-05,-0.0006508733945118471,-0.00023461294859474102,0.0003277563145399575,-0.00015992950731363636,-0.13260537385940552,18.177942276000977,-1.1441986560821533,-17.948335647583008,-0.4745383858680725,-2.2552523612976074,0.17978231608867645,0
20,0.09518814086914062,0.13260537385940552,-18.130334854125977,1.1918060779571533,17.948335647583008,0.4745383858680725,2.2424349784851074,-0.14590780436992645,0.0,0.0,0.0,0.0,0.0,0.0,0.0,0.13241262141952528,0.501839210360591,0.32178842878731106,0.3517390048950708,0.058212509019173436,0.05696373442179679,-0.17673206007934253,-0.6090572549543882,-0.0575334930487892,-0.6666015399163809,-2.5945565370258534,-0.055621124065234735,2.507972820112211,0.8763123745656035,-0.6090851748156966,-0.05753196718556838,-0.666603097082616,-2.5945565370258534,-0.05562143941554,2.507976027223799,0.8763108487046415,-0.0001602641238140331,-0.0011023692535270216,-0.0005402401096953724,0.0013519348602373555,0.0006121715552971376,2.721068675255863e-05,-0.0008980969111311909,0.0,0.0,0.0,0.0,0.0,0.0,0.0,-2.791986130834534e-05,1.5258632208164924e-06,-1.5571662350666315e-06,0.0,-3.1535030526469443e-07,3.207111587855138e-06,-1.5258609620261154e-06,0.0001602641238140331,0.0011023692535270216,0.0005402401096953724,-0.0013519348602373555,-0.0006121715552971376,-2.721068675255863e-05,0.0008980969111311909,-0.13260537385940552,18.130334854125977,-1.1918060779571533,-17.948335647583008,-0.4745383858680725,-2.2424349784851074,0.14590780436992645,0
21,0.10010027885437012,0.13260537385940552,-18.130334854125977,1.1918060779571533,17.948335647583008,0.4745383858680725,2.2424349784851074,-0.14590780436992645,0.0,0.0,0.0,0.0,0.0,0.0,0.0,0.13241262141952528,0.501839210360591,0.32178842878731106,0.3517390048950708,0.058212509019173436,0.05696373442179679,-0.17673206007934253,-0.6090572549543882,-0.0575334930487892,-0.6666015399163809,-2.5945565370258534,-0.055621124065234735,2.507972820112211,0.8763123745656035,-0.6090851748156966,-0.05753196718556838,-0.666603097082616,-2.5945565370258534,-0.05562143941554,2.507976027223799,0.8763108487046415,-0.0001602641238140331,-0.0011023692535270216,-0.0005402401096953724,0.0013519348602373555,0.0006121715552971376,2.721068675255863e-05,-0.0008980969111311909,0.0,0.0,0.0,0.0,0.0,0.0,0.0,-2.791986130834534e-05,1.5258632208164924e-06,-1.5571662350666315e-06,0.0,-3.1535030526469443e-07,3.207111587855138e-06,-1.5258609620261154e-06,0.0001602641238140331,0.0011023692535270216,0.0005402401096953724,-0.0013519348602373555,-0.0006121715552971376,-2.721068675255863e-05,0.0008980969111311909,-0.13260537385940552,18.130334854125977,-1.1918060779571533,-17.948335647583008,-0.4745383858680725,-2.2424349784851074,0.14590780436992645,0
22,0.10499906539916992,0.13260537385940552,-18.130334854125977,1.1164276599884033,17.999910354614258,0.4809470772743225,2.2360262870788574,-0.17978231608867645,0.0,0.0,0.0,0.0,0.0,0.0,0.0,0.12696102711533103,0.5034157237954423,0.3226428670485249,0.3483899250504796,0.058745356690367845,0.056545905838217426,-0.1771250627586352,-0.6090572549543882,-0.0575334930487892,-0.6665959940872853,-2.5945601563035394,-0.055620418569474035,2.507973218164358,0.8763161384181842,-0.6090851748156966,-0.05753196718556838,-0.666603097082616,-2.5945565370258534,-0.05562143941554,2.507976027223799,0.8763108487046415,0.00010218775749800463,-0.0005078864928857756,0.0008691142605708844,-0.000573219473329634,0.00014434357832753661,9.558134311952355e-05,-0.0002668204758900025,0.0,0.0,0.0,0.0,0.0,0.0,0.0,-2.791986130834534e-05,1.5258632208164924e-06,-7.102995330687811e-06,3.61927768599557e-06,-1.0208460659646978e-06,2.8090594410556946e-06,-5.289713542744323e-06,-0.00010218775749800463,0.0005078864928857756,-0.0008691142605708844,0.000573219473329634,-0.00014434357832753661,-9.558134311952355e-05,0.0002668204758900025,-0.13260537385940552,18.130334854125977,-1.1164276599884033,-17.999910354614258,-0.4809470772743225,-2.2360262870788574,0.17978231608867645,0
23,0.1100001335144043,0.13260537385940552,-18.130334854125977,1.1164276599884033,17.999910354614258,0.4809470772743225,2.2360262870788574,-0.17978231608867645,0.0,0.0,0.0,0.0,0.0,0.0,0.0,0.12696102711533103,0.5034157237954423,0.3226428670485249,0.3483899250504796,0.058745356690367845,0.056545905838217426,-0.1771250627586352,-0.6090572549543882,-0.0575334930487892,-0.6665959940872853,-2.5945601563035394,-0.055620418569474035,2.507973218164358,0.8763161384181842,-0.6090851748156966,-0.05753196718556838,-0.666603097082616,-2.5945565370258534,-0.05562143941554,2.507976027223799,0.8763108487046415,0.00010218775749800463,-0.0005078864928857756,0.0008691142605708844,-0.000573219473329634,0.00014434357832753661,9.558134311952355e-05,-0.0002668204758900025,0.0,0.0,0.0,0.0,0.0,0.0,0.0,-2.791986130834534e-05,1.5258632208164924e-06,-7.102995330687811e-06,3.61927768599557e-06,-1.0208460659646978e-06,2.8090594410556946e-06,-5.289713542744323e-06,-0.00010218775749800463,0.0005078864928857756,-0.0008691142605708844,0.000573219473329634,-0.00014434357832753661,-9.558134311952355e-05,0.0002668204758900025,-0.13260537385940552,18.130334854125977,-1.1164276599884033,-17.999910354614258,-0.4809470772743225,-2.2360262870788574,0.17978231608867645,0
24,0.11500048637390137,0.13260537385940552,-18.106531143188477,1.1441986560821533,17.972139358520508,0.4809470772743225,2.2488436698913574,-0.15231649577617645,0.0,0.0,0.0,0.0,0.0,0.0,0.0,0.1256432954342541,0.5061557669366776,0.32291357730517267,0.3505447261974688,0.058487977553705627,0.05613720986473664,-0.1773321618140626,-0.6090594007216001,-0.057535163484644464,-0.6665978900911192,-2.5945582074617084,-0.05561868673231177,2.5079721084603097,0.8763130866603718,-0.6090851748156966,-0.05753196718556838,-0.666603097082616,-2.5945565370258534,-0.05562143941554,2.507976027223799,0.8763108487046415,-0.0002025275350635014,-0.0007062030521090933,-0.00020056987950999434,0.00014281423875556136,3.969966296516337e-05,-0.00015966668370712579,-0.0008882323579898087,0.0,0.0,0.0,0.0,0.0,0.0,0.0,-2.5774094096431277e-05,3.1962990760803223e-06,-5.20699149675341e-06,1.6704358549723963e-06,-2.752683228232633e-06,3.918763489263455e-06,-2.237955730288732e-06,0.0002025275350635014,0.0007062030521090933,0.00020056987950999434,-0.00014281423875556136,-3.969966296516337e-05,0.00015966668370712579,0.0008882323579898087,-0.13260537385940552,18.106531143188477,-1.1441986560821533,-17.972139358520508,-0.4809470772743225,-2.2488436698913574,0.15231649577617645,0
25,0.12054586410522461,0.13260537385940552,-18.106531143188477,1.1441986560821533,17.972139358520508,0.4809470772743225,2.2488436698913574,-0.15231649577617645,0.0,0.0,0.0,0.0,0.0,0.0,0.0,0.1256432954342541,0.5061557669366776,0.32291357730517267,0.3505447261974688,0.058487977553705627,0.05613720986473664,-0.1773321618140626,-0.6090594007216001,-0.057535163484644464,-0.6665978900911192,-2.5945582074617084,-0.05561868673231177,2.5079721084603097,0.8763130866603718,-0.6090851748156966,-0.05753196718556838,-0.666603097082616,-2.5945565370258534,-0.05562143941554,2.507976027223799,0.8763108487046415,-0.0002025275350635014,-0.0007062030521090933,-0.00020056987950999434,0.00014281423875556136,3.969966296516337e-05,-0.00015966668370712579,-0.0008882323579898087,0.0,0.0,0.0,0.0,0.0,0.0,0.0,-2.5774094096431277e-05,3.1962990760803223e-06,-5.20699149675341e-06,1.6704358549723963e-06,-2.752683228232633e-06,3.918763489263455e-06,-2.237955730288732e-06,0.0002025275350635014,0.0007062030521090933,0.00020056987950999434,-0.00014281423875556136,-3.969966296516337e-05,0.00015966668370712579,0.0008882323579898087,-0.13260537385940552,18.106531143188477,-1.1441986560821533,-17.972139358520508,-0.4809470772743225,-2.2488436698913574,0.15231649577617645,0
26,0.12499785423278809,0.13260537385940552,-18.130334854125977,1.1441986560821533,17.972139358520508,0.4809470772743225,2.2488436698913574,-0.19351522624492645,0.0,0.0,0.0,0.0,0.0,0.0,0.0,0.12681708786788096,0.49250315405974954,0.32350727865570916,0.39126774094058914,0.05902022898301161,0.06256962838688905,-0.17674576358717548,-0.6090572549665011,-0.0575334930487892,-0.6665972451505768,-2.5945582074617084,-0.055618221894158555,2.507971754764858,0.8763176638125739,-0.6090851748156966,-0.05753196718556838,-0.666603097082616,-2.5945565370258534,-0.05562143941554,2.507976027223799,0.8763108487046415,-2.7186112438854407e-06,-8.546877447637718e-05,-0.00045769432747734377,-0.002027410757592293,0.00010536265888324474,-0.000518766564293196,0.00039962224813263253,0.0,0.0,0.0,0.0,0.0,0.0,0.0,-2.7919849195479074e-05,1.5258632208164924e-06,-5.8519320391692276e-06,1.6704358549723963e-06,-3.2175213814447656e-06,4.272458940857149e-06,-6.815107932434117e-06,2.7186112438854407e-06,8.546877447637718e-05,0.00045769432747734377,0.002027410757592293,-0.00010536265888324474,0.000518766564293196,-0.00039962224813263253,-0.13260537385940552,18.130334854125977,-1.1441986560821533,-17.972139358520508,-0.4809470772743225,-2.2488436698913574,0.19351522624492645,0
27,0.13000106811523438,0.13260537385940552,-18.130334854125977,1.1441986560821533,17.972139358520508,0.4809470772743225,2.2488436698913574,-0.19351522624492645,0.0,0.0,0.0,0.0,0.0,0.0,0.0,0.12681708786788096,0.49250315405974954,0.32350727865570916,0.39126774094058914,0.05902022898301161,0.06256962838688905,-0.17674576358717548,-0.6090572549665011,-0.0575334930487892,-0.6665972451505768,-2.5945582074617084,-0.055618221894158555,2.507971754764858,0.8763176638125739,-0.6090851748156966,-0.05753196718556838,-0.666603097082616,-2.5945565370258534,-0.05562143941554,2.507976027223799,0.8763108487046415,-2.7186112438854407e-06,-8.546877447637718e-05,-0.00045769432747734377,-0.002027410757592293,0.00010536265888324474,-0.000518766564293196,0.00039962224813263253,0.0,0.0,0.0,0.0,0.0,0.0,0.0,-2.7919849195479074e-05,1.5258632208164924e-06,-5.8519320391692276e-06,1.6704358549723963e-06,-3.2175213814447656e-06,4.272458940857149e-06,-6.815107932434117e-06,2.7186112438854407e-06,8.546877447637718e-05,0.00045769432747734377,0.002027410757592293,-0.00010536265888324474,0.000518766564293196,-0.00039962224813263253,-0.13260537385940552,18.130334854125977,-1.1441986560821533,-17.972139358520508,-0.4809470772743225,-2.2488436698913574,0.19351522624492645,0
28,0.13500547409057617,0.13260537385940552,-18.130334854125977,1.1441986560821533,17.972139358520508,0.4809470772743225,2.2360262870788574,-0.14590780436992645,0.0,0.0,0.0,0.0,0.0,0.0,0.0,0.12640940393140634,0.5075597512721689,0.32118869762352426,0.37019194334912475,0.058659054566086326,0.0587094596373806,-0.17577590733602066,-0.609057971191272,-0.0575334930487892,-0.6665960529086856,-2.5945582074617084,-0.05561751842890124,2.507976357830895,0.8763123745835462,-0.6090851748156966,-0.05753196718556838,-0.666603097082616,-2.5945565370258534,-0.05562143941554,2.507976027223799,0.8763108487046415,-8.739408007411297e-05,-0.00026090723503418797,-0.000393048433148458,-5.620005070600688e-05,9.336557669017569e-05,0.0003165910530183174,-0.0010710645654729391,0.0,0.0,0.0,0.0,0.0,0.0,0.0,-2.720362442454327e-05,1.5258632208164924e-06,-7.044173930381703e-06,1.6704358549723963e-06,-3.920986638761281e-06,-3.3060709592191984e-07,-1.5258789046734833e-06,8.739408007411297e-05,0.00026090723503418797,0.000393048433148458,5.620005070600688e-05,-9.336557669017569e-05,-0.0003165910530183174,0.0010710645654729391,-0.13260537385940552,18.130334854125977,-1.1441986560821533,-17.972139358520508,-0.4809470772743225,-2.2360262870788574,0.14590780436992645,0
29,0.1400158405303955,0.13260537385940552,-18.130334854125977,1.1441986560821533,17.972139358520508,0.4809470772743225,2.2360262870788574,-0.14590780436992645,0.0,0.0,0.0,0.0,0.0,0.0,0.0,0.12640940393140634,0.5075597512721689,0.32118869762352426,0.37019194334912475,0.058659054566086326,0.0587094596373806,-0.17577590733602066,-0.609057971191272,-0.0575334930487892,-0.6665960529086856,-2.5945582074617084,-0.05561751842890124,2.507976357830895,0.8763123745835462,-0.6090851748156966,-0.05753196718556838,-0.666603097082616,-2.5945565370258534,-0.05562143941554,2.507976027223799,0.8763108487046415,-8.739408007411297e-05,-0.00026090723503418797,-0.000393048433148458,-5.620005070600688e-05,9.336557669017569e-05,0.0003165910530183174,-0.0010710645654729391,0.0,0.0,0.0,0.0,0.0,0.0,0.0,-2.720362442454327e-05,1.5258632208164924e-06,-7.044173930381703e-06,1.6704358549723963e-06,-3.920986638761281e-06,-3.3060709592191984e-07,-1.5258789046734833e-06,8.739408007411297e-05,0.00026090723503418797,0.000393048433148458,5.620005070600688e-05,-9.336557669017569e-05,-0.0003165910530183174,0.0010710645654729391,-0.13260537385940552,18.130334854125977,-1.1441986560821533,-17.972139358520508,-0.4809470772743225,-2.2360262870788574,0.14590780436992645,0
30,0.1450042724609375,0.13260537385940552,-18.130334854125977,1.1441986560821533,17.972139358520508,0.4809470772743225,2.2360262870788574,-0.14590780436992645,0.0,0.0,0.0,0.0,0.0,0.0,0.0,0.12640940393140634,0.5075597512721689,0.32118869762352426,0.37019194334912475,0.058659054566086326,0.0587094596373806,-0.17577590733602066,-0.609057971191272,-0.0575334930487892,-0.6665960529086856,-2.5945582074617084,-0.05561751842890124,2.507976357830895,0.8763123745835462,-0.6090851748156966,-0.05753196718556838,-0.666603097082616,-2.5945565370258534,-0.05562143941554,2.507976027223799,0.8763108487046415,-8.739408007411297e-05,-0.00026090723503418797,-0.000393048433148458,-5.620005070600688e-05,9.336557669017569e-05,0.0003165910530183174,-0.0010710645654729391,0.0,0.0,0.0,0.0,0.0,0.0,0.0,-2.720362442454327e-05,1.5258632208164924e-06,-7.044173930381703e-06,1.6704358549723963e-06,-3.920986638761281e-06,-3.3060709592191984e-07,-1.5258789046734833e-06,8.739408007411297e-05,0.00026090723503418797,0.000393048433148458,5.620005070600688e-05,-9.336557669017569e-05,-0.0003165910530183174,0.0010710645654729391,-0.13260537385940552,18.130334854125977,-1.1441986560821533,-17.972139358520508,-0.4809470772743225,-2.2360262870788574,0.14590780436992645,0
31,0.14999842643737793,0.13260537385940552,-18.130334854125977,1.1441986560821533,17.972139358520508,0.4809470772743225,2.2360262870788574,-0.14590780436992645,0.0,0.0,0.0,0.0,0.0,0.0,0.0,0.12640940393140634,0.5075597512721689,0.32118869762352426,0.37019194334912475,0.058659054566086326,0.0587094596373806,-0.17577590733602066,-0.609057971191272,-0.0575334930487892,-0.6665960529086856,-2.5945582074617084,-0.05561751842890124,2.507976357830895,0.8763123745835462,-0.6090851748156966,-0.05753196718556838,-0.666603097082616,-2.5945565370258534,-0.05562143941554,2.507976027223799,0.8763108487046415,-8.739408007411297e-05,-0.00026090723503418797,-0.000393048433148458,-5.620005070600688e-05,9.336557669017569e-05,0.0003165910530183174,-0.0010710645654729391,0.0,0.0,0.0,0.0,0.0,0.0,0.0,-2.720362442454327e-05,1.5258632208164924e-06,-7.044173930381703e-06,1.6704358549723963e-06,-3.920986638761281e-06,-3.3060709592191984e-07,-1.5258789046734833e-06,8.739408007411297e-05,0.00026090723503418797,0.000393048433148458,5.620005070600688e-05,-9.336557669017569e-05,-0.0003165910530183174,0.0010710645654729391,-0.13260537385940552,18.130334854125977,-1.1441986560821533,-17.972139358520508,-0.4809470772743225,-2.2360262870788574,0.14590780436992645,0
32,0.15500640869140625,0.13260537385940552,-18.130334854125977,1.1441986560821533,17.972139358520508,0.4809470772743225,2.2360262870788574,-0.14590780436992645,0.0,0.0,0.0,0.0,0.0,0.0,0.0,0.12640940393140634,0.5075597512721689,0.32118869762352426,0.37019194334912475,0.058659054566086326,0.0587094596373806,-0.17577590733602066,-0.609057971191272,-0.0575334930487892,-0.6665960529086856,-2.5945582074617084,-0.05561751842890124,2.507976357830895,0.8763123745835462,-0.6090851748156966,-0.05753196718556838,-0.666603097082616,-2.5945565370258534,-0.05562143941554,2.507976027223799,0.8763108487046415,-8.739408007411297e-05,-0.00026090723503418797,-0.000393048433148458,-5.620005070600688e-05,9.336557669017569e-05,0.0003165910530183174,-0.0010710645654729391,0.0,0.0,0.0,0.0,0.0,0.0,0.0,-2.720362442454327e-05,1.5258632208164924e-06,-7.044173930381703e-06,1.6704358549723963e-06,-3.920986638761281e-06,-3.3060709592191984e-07,-1.5258789046734833e-06,8.739408007411297e-05,0.00026090723503418797,0.000393048433148458,5.620005070600688e-05,-9.336557669017569e-05,-0.0003165910530183174,0.0010710645654729391,-0.13260537385940552,18.130334854125977,-1.1441986560821533,-17.972139358520508,-0.4809470772743225,-2.2360262870788574,0.14590780436992645,0
33,0.16000676155090332,0.13260537385940552,-18.177942276000977,1.1441986560821533,18.047517776489258,0.4809470772743225,2.2424349784851074,-0.15964071452617645,0.0,0.0,0.0,0.0,0.0,0.0,0.0,0.13388264514579437,0.513433662963823,0.327266581167768,0.35210444220949494,0.05788292075093151,0.056195001195284394,-0.175470651094266,-0.6090572549584314,-0.05753015217707867,-0.6665974913716175,-2.5945634971752503,-0.055617595175159025,2.5079724843002325,0.8763128276885384,-0.6090851748156966,-0.05753196718556838,-0.666603097082616,-2.5945565370258534,-0.05562143941554,2.507976027223799,0.8763108487046415,9.185292004177192e-05,-0.00028338841358809056,0.0004908776857447841,-0.0014099525862488872,-9.675020090265772e-05,1.7069816354956696e-05,-0.0006664718829964488,0.0,0.0,0.0,0.0,0.0,0.0,0.0,-2.791985726513513e-05,-1.8150084897111673e-06,-5.605710998501934e-06,6.960149396828541e-06,-3.844240380974917e-06,3.542923566524081e-06,-1.9789838968664597e-06,-9.185292004177192e-05,0.00028338841358809056,-0.0004908776857447841,0.0014099525862488872,9.675020090265772e-05,-1.7069816354956696e-05,0.0006664718829964488,-0.13260537385940552,18.177942276000977,-1.1441986560821533,-18.047517776489258,-0.4809470772743225,-2.2424349784851074,0.15964071452617645,0
34,0.16510248184204102,0.13260537385940552,-18.177942276000977,1.1441986560821533,18.047517776489258,0.4809470772743225,2.2424349784851074,-0.15964071452617645,0.0,0.0,0.0,0.0,0.0,0.0,0.0,0.13388264514579437,0.513433662963823,0.327266581167768,0.35210444220949494,0.05788292075093151,0.056195001195284394,-0.175470651094266,-0.6090572549584314,-0.05753015217707867,-0.6665974913716175,-2.5945634971752503,-0.055617595175159025,2.5079724843002325,0.8763128276885384,-0.6090851748156966,-0.05753196718556838,-0.666603097082616,-2.5945565370258534,-0.05562143941554,2.507976027223799,0.8763108487046415,9.185292004177192e-05,-0.00028338841358809056,0.0004908776857447841,-0.0014099525862488872,-9.675020090265772e-05,1.7069816354956696e-05,-0.0006664718829964488,0.0,0.0,0.0,0.0,0.0,0.0,0.0,-2.791985726513513e-05,-1.8150084897111673e-06,-5.605710998501934e-06,6.960149396828541e-06,-3.844240380974917e-06,3.542923566524081e-06,-1.9789838968664597e-06,-9.185292004177192e-05,0.00028338841358809056,-0.0004908776857447841,0.0014099525862488872,9.675020090265772e-05,-1.7069816354956696e-05,0.0006664718829964488,-0.13260537385940552,18.177942276000977,-1.1441986560821533,-18.047517776489258,-0.4809470772743225,-2.2424349784851074,0.15964071452617645,0
35,0.17000269889831543,0.10880166292190552,-18.177942276000977,1.1164276599884033,17.972139358520508,0.4809470772743225,2.2424349784851074,-0.18710653483867645,0.0,0.0,0.0,0.0,0.0,0.0,0.0,0.12606551484812323,0.5135006511976786,0.3206503977645767,0.3490473307765011,0.05776882867435093,0.0554333102775182,-0.17543020883362417,-0.609055584518533,-0.05753015217707867,-0.6665960207195988,-2.5945582074617084,-0.05562137822087599,2.507972466839783,0.8763169522142118,-0.6090851748156966,-0.05753196718556838,-0.666603097082616,-2.5945565370258534,-0.05562143941554,2.507976027223799,0.8763108487046415,0.0004228285712007785,-8.667216591291852e-05,0.00041336165153674806,0.0006967667601368799,-8.469403772247882e-06,-9.155620234043414e-05,0.0014486876495361102,0.0,0.0,0.0,0.0,0.0,0.0,0.0,-2.959029716353978e-05,-1.8150084897111673e-06,-7.0763630172221426e-06,1.6704358549723963e-06,-6.119466400972273e-08,3.5603840160547406e-06,-6.103509570309917e-06,-0.0004228285712007785,8.667216591291852e-05,-0.00041336165153674806,-0.0006967667601368799,8.469403772247882e-06,9.155620234043414e-05,-0.0014486876495361102,-0.10880166292190552,18.177942276000977,-1.1164276599884033,-17.972139358520508,-0.4809470772743225,-2.2424349784851074,0.18710653483867645,0
36,0.1750011444091797,0.10880166292190552,-18.177942276000977,1.1164276599884033,17.972139358520508,0.4809470772743225,2.2424349784851074,-0.18710653483867645,0.0,0.0,0.0,0.0,0.0,0.0,0.0,0.12606551484812323,0.5135006511976786,0.3206503977645767,0.3490473307765011,0.05776882867435093,0.0554333102775182,-0.17543020883362417,-0.609055584518533,-0.05753015217707867,-0.6665960207195988,-2.5945582074617084,-0.05562137822087599,2.507972466839783,0.8763169522142118,-0.6090851748156966,-0.05753196718556838,-0.666603097082616,-2.5945565370258534,-0.05562143941554,2.507976027223799,0.8763108487046415,0.0004228285712007785,-8.667216591291852e-05,0.00041336165153674806,0.0006967667601368799,-8.469403772247882e-06,-9.155620234043414e-05,0.0014486876495361102,0.0,0.0,0.0,0.0,0.0,0.0,0.0,-2.959029716353978e-05,-1.8150084897111673e-06,-7.0763630172221426e-06,1.6704358549723963e-06,-6.119466400972273e-08,3.5603840160547406e-06,-6.103509570309917e-06,-0.0004228285712007785,8.667216591291852e-05,-0.00041336165153674806,-0.0006967667601368799,8.469403772247882e-06,9.155620234043414e-05,-0.0014486876495361102,-0.10880166292190552,18.177942276000977,-1.1164276599884033,-17.972139358520508,-0.4809470772743225,-2.2424349784851074,0.18710653483867645,0
37,0.17999863624572754,0.10880166292190552,-18.205713272094727,1.1164276599884033,18.047517776489258,0.4864402413368225,2.2360262870788574,-0.15964071452617645,0.0,0.0,0.0,0.0,0.0,0.0,0.0,0.12666465461024248,0.5151116167798525,0.3187568555691735,0.34711233153506743,0.05748697315491984,0.05456294795938498,-0.17464832748127887,-0.609055584518533,-0.05752820333524754,-0.666593132118233,-2.5945634971752503,-0.055618818901290536,2.507973180531563,0.876313900462455,-0.6090851748156966,-0.05753196718556838,-0.666603097082616,-2.5945565370258534,-0.05562143941554,2.507976027223799,0.8763108487046415,0.0004726088602726949,0.0015762043667773204,-0.00034849387355829727,-0.0017004558188094252,-0.00036782243970061204,7.33983182808188e-05,-0.0007293362801253458,0.0,0.0,0.0,0.0,0.0,0.0,0.0,-2.959029716353978e-05,-3.7638503208453633e-06,-9.964964382991326e-06,6.960149396828541e-06,-2.6205142494642453e-06,2.846692236158077e-06,-3.051757813565814e-06,-0.0004726088602726949,-0.0015762043667773204,0.00034849387355829727,0.0017004558188094252,0.00036782243970061204,-7.33983182808188e-05,0.0007293362801253458,-0.10880166292190552,18.205713272094727,-1.1164276599884033,-18.047517776489258,-0.4864402413368225,-2.2360262870788574,0.15964071452617645,0
38,0.1849992275238037,0.10880166292190552,-18.205713272094727,1.1164276599884033,18.047517776489258,0.4864402413368225,2.2360262870788574,-0.15964071452617645,0.0,0.0,0.0,0.0,0.0,0.0,0.0,0.12666465461024248,0.5151116167798525,0.3187568555691735,0.34711233153506743,0.05748697315491984,0.05456294795938498,-0.17464832748127887,-0.609055584518533,-0.05752820333524754,-0.666593132118233,-2.5945634971752503,-0.055618818901290536,2.507973180531563,0.876313900462455,-0.6090851748156966,-0.05753196718556838,-0.666603097082616,-2.5945565370258534,-0.05562143941554,2.507976027223799,0.8763108487046415,0.0004726088602726949,0.0015762043667773204,-0.00034849387355829727,-0.0017004558188094252,-0.00036782243970061204,7.33983182808188e-05,-0.0007293362801253458,0.0,0.0,0.0,0.0,0.0,0.0,0.0,-2.959029716353978e-05,-3.7638503208453633e-06,-9.964964382991326e-06,6.960149396828541e-06,-2.6205142494642453e-06,2.846692236158077e-06,-3.051757813565814e-06,-0.0004726088602726949,-0.0015762043667773204,0.00034849387355829727,0.0017004558188094252,0.00036782243970061204,-7.33983182808188e-05,0.0007293362801253458,-0.10880166292190552,18.205713272094727,-1.1164276599884033,-18.047517776489258,-0.4864402413368225,-2.2360262870788574,0.15964071452617645,0
39,0.1900026798248291,0.10880166292190552,-18.130334854125977,1.1164276599884033,17.999910354614258,0.4809470772743225,2.2488436698913574,-0.18710653483867645,0.0,0.0,0.0,0.0,0.0,0.0,0.0,0.12783479520941846,0.507195737468683,0.31402421743807996,0.3561230080602244,0.057097073410243386,0.05562951950380968,-0.1752850499571675,-0.609055584518533,-0.0575334930487892,-0.6665941122671964,-2.5945601563035394,-0.0556171226702462,2.5079749336772585,0.8763169522202676,-0.6090851748156966,-0.05753196718556838,-0.666603097082616,-2.5945565370258534,-0.05562143941554,2.507976027223799,0.8763108487046415,-0.00014648883265211266,-0.0004776235310676793,-3.781855709894624e-05,0.00010035829515127387,-0.00013538976768909074,-0.0004936703376668015,-6.241292306336017e-05,0.0,0.0,0.0,0.0,0.0,0.0,0.0,-2.959029716353978e-05,1.5258632208164924e-06,-8.98481541955487e-06,3.61927768599557e-06,-4.316745293803104e-06,1.0935465404315892e-06,-6.1035156261324275e-06,0.00014648883265211266,0.0004776235310676793,3.781855709894624e-05,-0.00010035829515127387,0.00013538976768909074,0.0004936703376668015,6.241292306336017e-05,-0.10880166292190552,18.130334854125977,-1.1164276599884033,-17.999910354614258,-0.4809470772743225,-2.2488436698913574,0.18710653483867645,0
40,0.1950061321258545,0.10880166292190552,-18.130334854125977,1.1164276599884033,17.999910354614258,0.4809470772743225,2.2488436698913574,-0.18710653483867645,0.0,0.0,0.0,0.0,0.0,0.0,0.0,0.12783479520941846,0.507195737468683,0.31402421743807996,0.3561230080602244,0.057097073410243386,0.05562951950380968,-0.1752850499571675,-0.609055584518533,-0.0575334930487892,-0.6665941122671964,-2.5945601563035394,-0.0556171226702462,2.5079749336772585,0.8763169522202676,-0.6090851748156966,-0.05753196718556838,-0.666603097082616,-2.5945565370258534,-0.05562143941554,2.507976027223799,0.8763108487046415,-0.00014648883265211266,-0.0004776235310676793,-3.781855709894624e-05,0.00010035829515127387,-0.00013538976768909074,-0.0004936703376668015,-6.241292306336017e-05,0.0,0.0,0.0,0.0,0.0,0.0,0.0,-2.959029716353978e-05,1.5258632208164924e-06,-8.98481541955487e-06,3.61927768599557e-06,-4.316745293803104e-06,1.0935465404315892e-06,-6.1035156261324275e-06,0.00014648883265211266,0.0004776235310676793,3.781855709894624e-05,-0.00010035829515127387,0.00013538976768909074,0.0004936703376668015,6.241292306336017e-05,-0.10880166292190552,18.130334854125977,-1.1164276599884033,-17.999910354614258,-0.4809470772743225,-2.2488436698913574,0.18710653483867645,0
41,0.20000386238098145,0.10880166292190552,-18.106531143188477,1.1441986560821533,17.972139358520508,0.4809470772743225,2.2424349784851074,-0.13858358561992645,0.0,0.0,0.0,0.0,0.0,0.0,0.0,0.13625408941329367,0.5134133800166575,0.31862561214236795,0.3528980836909586,0.056029228357805445,0.05479728782560835,-0.17621309658454715,-0.609055584518533,-0.057535163484644464,-0.6665981960528231,-2.5945582074617084,-0.05561728168150388,2.5079724799395815,0.8763115607814655,-0.6090851748156966,-0.05753196718556838,-0.666603097082616,-2.5945565370258534,-0.05562143941554,2.507976027223799,0.8763108487046415,0.0012349921118320303,-0.0007607526578237745,-0.0002166970273814621,0.0003645714444154179,0.00013742315893863237,-0.00013853009823015363,-0.0014875290326855804,0.0,0.0,0.0,0.0,0.0,0.0,0.0,-2.959029716353978e-05,3.1962990760803223e-06,-4.9010297928919755e-06,1.6704358549723963e-06,-4.157734036121241e-06,3.5472842174755215e-06,-7.120768240609365e-07,-0.0012349921118320303,0.0007607526578237745,0.0002166970273814621,-0.0003645714444154179,-0.00013742315893863237,0.00013853009823015363,0.0014875290326855804,-0.10880166292190552,18.106531143188477,-1.1441986560821533,-17.972139358520508,-0.4809470772743225,-2.2424349784851074,0.13858358561992645,0
42,0.20500397682189941,0.10880166292190552,-18.106531143188477,1.1441986560821533,17.972139358520508,0.4809470772743225,2.2424349784851074,-0.13858358561992645,0.0,0.0,0.0,0.0,0.0,0.0,0.0,0.13625408941329367,0.5134133800166575,0.31862561214236795,0.3528980836909586,0.056029228357805445,0.05479728782560835,-0.17621309658454715,-0.609055584518533,-0.057535163484644464,-0.6665981960528231,-2.5945582074617084,-0.05561728168150388,2.5079724799395815,0.8763115607814655,-0.6090851748156966,-0.05753196718556838,-0.666603097082616,-2.5945565370258534,-0.05562143941554,2.507976027223799,0.8763108487046415,0.0012349921118320303,-0.0007607526578237745,-0.0002166970273814621,0.0003645714444154179,0.00013742315893863237,-0.00013853009823015363,-0.0014875290326855804,0.0,0.0,0.0,0.0,0.0,0.0,0.0,-2.959029716353978e-05,3.1962990760803223e-06,-4.9010297928919755e-06,1.6704358549723963e-06,-4.157734036121241e-06,3.5472842174755215e-06,-7.120768240609365e-07,-0.0012349921118320303,0.0007607526578237745,0.0002166970273814621,-0.0003645714444154179,-0.00013742315893863237,0.00013853009823015363,0.0014875290326855804,-0.10880166292190552,18.106531143188477,-1.1441986560821533,-17.972139358520508,-0.4809470772743225,-2.2424349784851074,0.13858358561992645,0
43,0.20995664596557617,0.13260537385940552,-18.130334854125977,1.1441986560821533,18.023714065551758,0.4809470772743225,2.2488436698913574,-0.15964071452617645,0.0,0.0,0.0,0.0,0.0,0.0,0.0,0.12961017341239503,0.5108629198580413,0.30922407724613515,0.3565376111101132,0.056766592122084375,0.05505973324381622,-0.17675752120550964,-0.6090572549543882,-0.0575334930487892,-0.6665973866554653,-2.594561826739395,-0.055621483202367754,2.507971759123537,0.8763138961018043,-0.6090851748156966,-0.05753196718556838,-0.666603097082616,-2.5945565370258534,-0.05562143941554,2.507976027223799,0.8763108487046415,5.825229066123581e-06,-0.00024297845386399048,-3.220549138302128e-05,-0.0009101571620061456,-7.810775833388191e-05,-0.0005482298557420741,-0.0009732744339430534,0.0,0.0,0.0,0.0,0.0,0.0,0.0,-2.791986130834534e-05,1.5258632208164924e-06,-5.710427150695807e-06,5.2897135414120555e-06,4.378682775391107e-08,4.2681002621058894e-06,-3.0473971628364183e-06,-5.825229066123581e-06,0.00024297845386399048,3.220549138302128e-05,0.0009101571620061456,7.810775833388191e-05,0.0005482298557420741,0.0009732744339430534,-0.13260537385940552,18.130334854125977,-1.1441986560821533,-18.023714065551758,-0.4809470772743225,-2.2488436698913574,0.15964071452617645,0
44,0.21495842933654785,0.13260537385940552,-18.130334854125977,1.1441986560821533,18.023714065551758,0.4809470772743225,2.2488436698913574,-0.15964071452617645,0.0,0.0,0.0,0.0,0.0,0.0,0.0,0.12961017341239503,0.5108629198580413,0.30922407724613515,0.3565376111101132,0.056766592122084375,0.05505973324381622,-0.17675752120550964,-0.6090572549543882,-0.0575334930487892,-0.6665973866554653,-2.594561826739395,-0.055621483202367754,2.507971759123537,0.8763138961018043,-0.6090851748156966,-0.05753196718556838,-0.666603097082616,-2.5945565370258534,-0.05562143941554,2.507976027223799,0.8763108487046415,5.825229066123581e-06,-0.00024297845386399048,-3.220549138302128e-05,-0.0009101571620061456,-7.810775833388191e-05,-0.0005482298557420741,-0.0009732744339430534,0.0,0.0,0.0,0.0,0.0,0.0,0.0,-2.791986130834534e-05,1.5258632208164924e-06,-5.710427150695807e-06,5.2897135414120555e-06,4.378682775391107e-08,4.2681002621058894e-06,-3.0473971628364183e-06,-5.825229066123581e-06,0.00024297845386399048,3.220549138302128e-05,0.0009101571620061456,7.810775833388191e-05,0.0005482298557420741,0.0009732744339430534,-0.13260537385940552,18.130334854125977,-1.1441986560821533,-18.023714065551758,-0.4809470772743225,-2.2488436698913574,0.15964071452617645,0
45,0.22000741958618164,0.16037636995315552,-18.130334854125977,1.1164276599884033,17.948335647583008,0.4809470772743225,2.2296175956726074,-0.18710653483867645,0.0,0.0,0.0,0.0,0.0,0.0,0.0,0.1313014274540883,0.5117922840898812,0.3163633019020679,0.35803390612647795,0.05637110145264897,0.05538973985986392,-0.17755919991810623,-0.6090592037962194,-0.0575334930487892,-0.6665962323195846,-2.5945565370258534,-0.05562176329206947,2.5079738909933544,0.8763169522202431,-0.6090851748156966,-0.05753196718556838,-0.666603097082616,-2.5945565370258534,-0.05562143941554,2.507976027223799,0.8763108487046415,-0.0007111002707868904,-0.0006293816499753566,0.0012544748676232994,0.00106575224953141,3.341599786885398e-05,0.0003919613733666615,0.0008836697703208897,0.0,0.0,0.0,0.0,0.0,0.0,0.0,-2.5971019477211144e-05,1.5258632208164924e-06,-6.864763031355636e-06,0.0,3.238765294705237e-07,2.1362304445382563e-06,-6.103515601596499e-06,0.0007111002707868904,0.0006293816499753566,-0.0012544748676232994,-0.00106575224953141,-3.341599786885398e-05,-0.0003919613733666615,-0.0008836697703208897,-0.16037636995315552,18.130334854125977,-1.1164276599884033,-17.948335647583008,-0.4809470772743225,-2.2296175956726074,0.18710653483867645,0
46,0.22500038146972656,0.16037636995315552,-18.130334854125977,1.1164276599884033,17.948335647583008,0.4809470772743225,2.2296175956726074,-0.18710653483867645,0.0,0.0,0.0,0.0,0.0,0.0,0.0,0.1313014274540883,0.5117922840898812,0.3163633019020679,0.35803390612647795,0.05637110145264897,0.05538973985986392,-0.17755919991810623,-0.6090592037962194,-0.0575334930487892,-0.6665962323195846,-2.5945565370258534,-0.05562176329206947,2.5079738909933544,0.8763169522202431,-0.6090851748156966,-0.05753196718556838,-0.666603097082616,-2.5945565370258534,-0.05562143941554,2.507976027223799,0.8763108487046415,-0.0007111002707868904,-0.0006293816499753566,0.0012544748676232994,0.00106575224953141,3.341599786885398e-05,0.0003919613733666615,0.0008836697703208897,0.0,0.0,0.0,0.0,0.0,0.0,0.0,-2.5971019477211144e-05,1.5258632208164924e-06,-6.864763031355636e-06,0.0,3.238765294705237e-07,2.1362304445382563e-06,-6.103515601596499e-06,0.0007111002707868904,0.0006293816499753566,-0.0012544748676232994,-0.00106575224953141,-3.341599786885398e-05,-0.0003919613733666615,-0.0008836697703208897,-0.16037636995315552,18.130334854125977,-1.1164276599884033,-17.948335647583008,-0.4809470772743225,-2.2296175956726074,0.18710653483867645,0
47,0.23000383377075195,0.18418008089065552,-18.154138565063477,1.1441986560821533,18.023714065551758,0.4745383858680725,2.2424349784851074,-0.16604940593242645,0.0,0.0,0.0,0.0,0.0,0.0,0.0,0.12900829497688307,0.514354792316746,0.3181742857384797,0.35549015564818875,0.05659647492001062,0.05433841743213652,-0.17754602030473648,-0.6090608742320747,-0.057531822612933936,-0.6665981192446604,-2.594561826739395,-0.055619954429554266,2.5079725845772542,0.8763146109242222,-0.6090851748156966,-0.05753196718556838,-0.666603097082616,-2.5945565370258534,-0.05562143941554,2.507976027223799,0.8763108487046415,-0.0013646068116607243,-1.6036447293428655e-05,4.870752644912844e-05,-0.000994690992499638,0.00036537860399155314,-0.00021587641597945066,-0.0005167910927434061,0.0,0.0,0.0,0.0,0.0,0.0,0.0,-2.430058362190568e-05,-1.4457263444733748e-07,-4.977837955610909e-06,5.2897135414120555e-06,-1.4849859857335446e-06,3.442646544726813e-06,-3.7622195807607284e-06,0.0013646068116607243,1.6036447293428655e-05,-4.870752644912844e-05,0.000994690992499638,-0.00036537860399155314,0.00021587641597945066,0.0005167910927434061,-0.18418008089065552,18.154138565063477,-1.1441986560821533,-18.023714065551758,-0.4745383858680725,-2.2424349784851074,0.16604940593242645,0
48,0.234999418258667,0.18418008089065552,-18.154138565063477,1.1441986560821533,18.023714065551758,0.4745383858680725,2.2424349784851074,-0.16604940593242645,0.0,0.0,0.0,0.0,0.0,0.0,0.0,0.12900829497688307,0.514354792316746,0.3181742857384797,0.35549015564818875,0.05659647492001062,0.05433841743213652,-0.17754602030473648,-0.6090608742320747,-0.057531822612933936,-0.6665981192446604,-2.594561826739395,-0.055619954429554266,2.5079725845772542,0.8763146109242222,-0.6090851748156966,-0.05753196718556838,-0.666603097082616,-2.5945565370258534,-0.05562143941554,2.507976027223799,0.8763108487046415,-0.0013646068116607243,-1.6036447293428655e-05,4.870752644912844e-05,-0.000994690992499638,0.00036537860399155314,-0.00021587641597945066,-0.0005167910927434061,0.0,0.0,0.0,0.0,0.0,0.0,0.0,-2.430058362190568e-05,-1.4457263444733748e-07,-4.977837955610909e-06,5.2897135414120555e-06,-1.4849859857335446e-06,3.442646544726813e-06,-3.7622195807607284e-06,0.0013646068116607243,1.6036447293428655e-05,-4.870752644912844e-05,0.000994690992499638,-0.00036537860399155314,0.00021587641597945066,0.0005167910927434061,-0.18418008089065552,18.154138565063477,-1.1441986560821533,-18.023714065551758,-0.4745383858680725,-2.2424349784851074,0.16604940593242645,0
49,0.24000263214111328,0.16037636995315552,-18.154138565063477,1.1441986560821533,18.023714065551758,0.4928489327430725,2.2360262870788574,-0.20724813640117645,0.0,0.0,0.0,0.0,0.0,0.0,0.0,0.1335423905179778,0.5125742394787742,0.321970741708907,0.35768411709446485,0.056302727782907,0.05451062069725585,-0.17727857481285036,-0.6090592067396586,-0.057531822612933936,-0.6665982079825514,-2.594561826739395,-0.05562315920694849,2.507976362839562,0.8763191901759695,-0.6090851748156966,-0.05753196718556838,-0.666603097082616,-2.5945565370258534,-0.05562143941554,2.507976027223799,0.8763108487046415,-0.0005864500107660031,1.7374225671150048e-05,-0.00024007841714956694,-0.0007602594678116216,-0.00037882573553641444,0.00030774250005884173,0.0011107825295550717,0.0,0.0,0.0,0.0,0.0,0.0,0.0,-2.5968076037941046e-05,-1.4457263444733748e-07,-4.889100064575658e-06,5.2897135414120555e-06,1.7197914084915444e-06,-3.356157631806411e-07,-8.34147132799945e-06,0.0005864500107660031,-1.7374225671150048e-05,0.00024007841714956694,0.0007602594678116216,0.00037882573553641444,-0.00030774250005884173,-0.0011107825295550717,-0.16037636995315552,18.154138565063477,-1.1441986560821533,-18.023714065551758,-0.4928489327430725,-2.2360262870788574,0.20724813640117645,0
50,0.24500226974487305,0.16037636995315552,-18.154138565063477,1.1441986560821533,18.023714065551758,0.4928489327430725,2.2360262870788574,-0.20724813640117645,0.0,0.0,0.0,0.0,0.0,0.0,0.0,0.1335423905179778,0.5125742394787742,0.321970741708907,0.35768411709446485,0.056302727782907,0.05451062069725585,-0.17727857481285036,-0.6090592067396586,-0.057531822612933936,-0.6665982079825514,-2.594561826739395,-0.05562315920694849,2.507976362839562,0.8763191901759695,-0.6090851748156966,-0.05753196718556838,-0.666603097082616,-2.5945565370258534,-0.05562143941554,2.507976027223799,0.8763108487046415,-0.0005864500107660031,1.7374225671150048e-05,-0.00024007841714956694,-0.0007602594678116216,-0.00037882573553641444,0.00030774250005884173,0.0011107825295550717,0.0,0.0,0.0,0.0,0.0,0.0,0.0,-2.5968076037941046e-05,-1.4457263444733748e-07,-4.889100064575658e-06,5.2897135414120555e-06,1.7197914084915444e-06,-3.356157631806411e-07,-8.34147132799945e-06,0.0005864500107660031,-1.7374225671150048e-05,0.00024007841714956694,0.0007602594678116216,0.00037882573553641444,-0.00030774250005884173,-0.0011107825295550717,-0.16037636995315552,18.154138565063477,-1.1441986560821533,-18.023714065551758,-0.4928489327430725,-2.2360262870788574,0.20724813640117645,0
51,0.25000476837158203,0.16037636995315552,-18.154138565063477,1.1164276599884033,17.972139358520508,0.4864402413368225,2.2296175956726074,-0.16604940593242645,0.0,0.0,0.0,0.0,0.0,0.0,0.0,0.133592787939435,0.5096092430104734,0.3180198668409598,0.3610050943464172,0.05696382811169798,0.055595134396606335,-0.17835159884550877,-0.6090592037962249,-0.057531822612933936,-0.6665955144036417,-2.5945582074617084,-0.0556221107082538,2.5079774236109356,0.8763146110857278,-0.6090851748156966,-0.05753196718556838,-0.666603097082616,-2.5945565370258534,-0.05562143941554,2.507976027223799,0.8763108487046415,-0.00025434517593546005,-9.576572585805368e-05,-0.0003085112697961437,0.000683922613586875,-1.594910246680108e-05,0.00032757186326653494,-0.0008767596848534707,0.0,0.0,0.0,0.0,0.0,0.0,0.0,-2.597101947166003e-05,-1.4457263444733748e-07,-7.582678974271673e-06,1.6704358549723963e-06,6.712927137983438e-07,-1.396387136587407e-06,-3.7623810863474105e-06,0.00025434517593546005,9.576572585805368e-05,0.0003085112697961437,-0.000683922613586875,1.594910246680108e-05,-0.00032757186326653494,0.0008767596848534707,-0.16037636995315552,18.154138565063477,-1.1164276599884033,-17.972139358520508,-0.4864402413368225,-2.2296175956726074,0.16604940593242645,0
52,0.25499916076660156,0.16037636995315552,-18.154138565063477,1.1164276599884033,17.972139358520508,0.4864402413368225,2.2296175956726074,-0.16604940593242645,0.0,0.0,0.0,0.0,0.0,0.0,0.0,0.133592787939435,0.5096092430104734,0.3180198668409598,0.3610050943464172,0.05696382811169798,0.055595134396606335,-0.17835159884550877,-0.6090592037962249,-0.057531822612933936,-0.6665955144036417,-2.5945582074617084,-0.0556221107082538,2.5079774236109356,0.8763146110857278,-0.6090851748156966,-0.05753196718556838,-0.666603097082616,-2.5945565370258534,-0.05562143941554,2.507976027223799,0.8763108487046415,-0.00025434517593546005,-9.576572585805368e-05,-0.0003085112697961437,0.000683922613586875,-1.594910246680108e-05,0.00032757186326653494,-0.0008767596848534707,0.0,0.0,0.0,0.0,0.0,0.0,0.0,-2.597101947166003e-05,-1.4457263444733748e-07,-7.582678974271673e-06,1.6704358549723963e-06,6.712927137983438e-07,-1.396387136587407e-06,-3.7623810863474105e-06,0.00025434517593546005,9.576572585805368e-05,0.0003085112697961437,-0.000683922613586875,1.594910246680108e-05,-0.00032757186326653494,0.0008767596848534707,-0.16037636995315552,18.154138565063477,-1.1164276599884033,-17.972139358520508,-0.4864402413368225,-2.2296175956726074,0.16604940593242645,0
53,0.26000213623046875,0.16037636995315552,-18.154138565063477,1.1164276599884033,17.972139358520508,0.4864402413368225,2.2296175956726074,-0.16604940593242645,0.0,0.0,0.0,0.0,0.0,0.0,0.0,0.133592787939435,0.5096092430104734,0.3180198668409598,0.3610050943464172,0.05696382811169798,0.055595134396606335,-0.17835159884550877,-0.6090592037962249,-0.057531822612933936,-0.6665955144036417,-2.5945582074617084,-0.0556221107082538,2.5079774236109356,0.8763146110857278,-0.6090851748156966,-0.05753196718556838,-0.666603097082616,-2.5945565370258534,-0.05562143941554,2.507976027223799,0.8763108487046415,-0.00025434517593546005,-9.576572585805368e-05,-0.0003085112697961437,0.000683922613586875,-1.594910246680108e-05,0.00032757186326653494,-0.0008767596848534707,0.0,0.0,0.0,0.0,0.0,0.0,0.0,-2.597101947166003e-05,-1.4457263444733748e-07,-7.582678974271673e-06,1.6704358549723963e-06,6.712927137983438e-07,-1.396387136587407e-06,-3.7623810863474105e-06,0.00025434517593546005,9.576572585805368e-05,0.0003085112697961437,-0.000683922613586875,1.594910246680108e-05,-0.00032757186326653494,0.0008767596848534707,-0.16037636995315552,18.154138565063477,-1.1164276599884033,-17.972139358520508,-0.4864402413368225,-2.2296175956726074,0.16604940593242645,0
54,0.26500701904296875,0.16037636995315552,-18.154138565063477,1.1164276599884033,17.972139358520508,0.4864402413368225,2.2296175956726074,-0.16604940593242645,0.0,0.0,0.0,0.0,0.0,0.0,0.0,0.133592787939435,0.5096092430104734,0.3180198668409598,0.3610050943464172,0.05696382811169798,0.055595134396606335,-0.17835159884550877,-0.6090592037962249,-0.057531822612933936,-0.6665955144036417,-2.5945582074617084,-0.0556221107082538,2.5079774236109356,0.8763146110857278,-0.6090851748156966,-0.05753196718556838,-0.666603097082616,-2.5945565370258534,-0.05562143941554,2.507976027223799,0.8763108487046415,-0.00025434517593546005,-9.576572585805368e-05,-0.0003085112697961437,0.000683922613586875,-1.594910246680108e-05,0.00032757186326653494,-0.0008767596848534707,0.0,0.0,0.0,0.0,0.0,0.0,0.0,-2.597101947166003e-05,-1.4457263444733748e-07,-7.582678974271673e-06,1.6704358549723963e-06,6.712927137983438e-07,-1.396387136587407e-06,-3.7623810863474105e-06,0.00025434517593546005,9.576572585805368e-05,0.0003085112697961437,-0.000683922613586875,1.594910246680108e-05,-0.00032757186326653494,0.0008767596848534707,-0.16037636995315552,18.154138565063477,-1.1164276599884033,-17.972139358520508,-0.4864402413368225,-2.2296175956726074,0.16604940593242645,0
55,0.2700061798095703,0.10880166292190552,-18.130334854125977,1.1680023670196533,17.999910354614258,0.4809470772743225,2.2360262870788574,-0.20724813640117645,0.0,0.0,0.0,0.0,0.0,0.0,0.0,0.13520419504109932,0.5172749084873925,0.31502045518676725,0.35387626310811343,0.05760486538851381,0.054262900590074374,-0.17815864696505063,-0.6090558229371121,-0.0575334930487892,-0.6665995604152504,-2.5945601563035394,-0.05561746446803658,2.507973296674019,0.8763191887224384,-0.6090851748156966,-0.05753196718556838,-0.666603097082616,-2.5945565370258534,-0.05562143941554,2.507976027223799,0.8763108487046415,0.00014196194152631066,-0.0002735520090589861,-0.0009450490347882279,-0.0006070813918037243,9.940074088492844e-06,7.971507439608224e-05,0.0013539987766974797,0.0,0.0,0.0,0.0,0.0,0.0,0.0,-2.9351878584438218e-05,1.5258632208164924e-06,-3.5366673656334058e-06,3.61927768599557e-06,-3.974947503419812e-06,2.7305497800611533e-06,-8.340017796926169e-06,-0.00014196194152631066,0.0002735520090589861,0.0009450490347882279,0.0006070813918037243,-9.940074088492844e-06,-7.971507439608224e-05,-0.0013539987766974797,-0.10880166292190552,18.130334854125977,-1.1680023670196533,-17.999910354614258,-0.4809470772743225,-2.2360262870788574,0.20724813640117645,0
56,0.27707338333129883,0.10880166292190552,-18.130334854125977,1.1680023670196533,17.999910354614258,0.4809470772743225,2.2360262870788574,-0.20724813640117645,0.0,0.0,0.0,0.0,0.0,0.0,0.0,0.13520419504109932,0.5172749084873925,0.31502045518676725,0.35387626310811343,0.05760486538851381,0.054262900590074374,-0.17815864696505063,-0.6090558229371121,-0.0575334930487892,-0.6665995604152504,-2.5945601563035394,-0.05561746446803658,2.507973296674019,0.8763191887224384,-0.6090851748156966,-0.05753196718556838,-0.666603097082616,-2.5945565370258534,-0.05562143941554,2.507976027223799,0.8763108487046415,0.00014196194152631066,-0.0002735520090589861,-0.0009450490347882279,-0.0006070813918037243,9.940074088492844e-06,7.971507439608224e-05,0.0013539987766974797,0.0,0.0,0.0,0.0,0.0,0.0,0.0,-2.9351878584438218e-05,1.5258632208164924e-06,-3.5366673656334058e-06,3.61927768599557e-06,-3.974947503419812e-06,2.7305497800611533e-06,-8.340017796926169e-06,-0.00014196194152631066,0.0002735520090589861,0.0009450490347882279,0.0006070813918037243,-9.940074088492844e-06,-7.971507439608224e-05,-0.0013539987766974797,-0.10880166292190552,18.130334854125977,-1.1680023670196533,-17.999910354614258,-0.4809470772743225,-2.2360262870788574,0.20724813640117645,0
57,0.2800014019012451,0.10880166292190552,-18.130334854125977,1.1680023670196533,17.999910354614258,0.4809470772743225,2.2360262870788574,-0.20724813640117645,0.0,0.0,0.0,0.0,0.0,0.0,0.0,0.13520419504109932,0.5172749084873925,0.31502045518676725,0.35387626310811343,0.05760486538851381,0.054262900590074374,-0.17815864696505063,-0.6090558229371121,-0.0575334930487892,-0.6665995604152504,-2.5945601563035394,-0.05561746446803658,2.507973296674019,0.8763191887224384,-0.6090851748156966,-0.05753196718556838,-0.666603097082616,-2.5945565370258534,-0.05562143941554,2.507976027223799,0.8763108487046415,0.00014196194152631066,-0.0002735520090589861,-0.0009450490347882279,-0.0006070813918037243,9.940074088492844e-06,7.971507439608224e-05,0.0013539987766974797,0.0,0.0,0.0,0.0,0.0,0.0,0.0,-2.9351878584438218e-05,1.5258632208164924e-06,-3.5366673656334058e-06,3.61927768599557e-06,-3.974947503419812e-06,2.7305497800611533e-06,-8.340017796926169e-06,-0.00014196194152631066,0.0002735520090589861,0.0009450490347882279,0.0006070813918037243,-9.940074088492844e-06,-7.971507439608224e-05,-0.0013539987766974797,-0.10880166292190552,18.130334854125977,-1.1680023670196533,-17.999910354614258,-0.4809470772743225,-2.2360262870788574,0.20724813640117645,0
58,0.28499603271484375,0.10880166292190552,-18.130334854125977,1.1680023670196533,17.999910354614258,0.4809470772743225,2.2360262870788574,-0.20724813640117645,0.0,0.0,0.0,0.0,0.0,0.0,0.0,0.13520419504109932,0.5172749084873925,0.31502045518676725,0.35387626310811343,0.05760486538851381,0.054262900590074374,-0.17815864696505063,-0.6090558229371121,-0.0575334930487892,-0.6665995604152504,-2.5945601563035394,-0.05561746446803658,2.507973296674019,0.8763191887224384,-0.6090851748156966,-0.05753196718556838,-0.666603097082616,-2.5945565370258534,-0.05562143941554,2.507976027223799,0.8763108487046415,0.00014196194152631066,-0.0002735520090589861,-0.0009450490347882279,-0.0006070813918037243,9.940074088492844e-06,7.971507439608224e-05,0.0013539987766974797,0.0,0.0,0.0,0.0,0.0,0.0,0.0,-2.9351878584438218e-05,1.5258632208164924e-06,-3.5366673656334058e-06,3.61927768599557e-06,-3.974947503419812e-06,2.7305497800611533e-06,-8.340017796926169e-06,-0.00014196194152631066,0.0002735520090589861,0.0009450490347882279,0.0006070813918037243,-9.940074088492844e-06,-7.971507439608224e-05,-0.0013539987766974797,-0.10880166292190552,18.130334854125977,-1.1680023670196533,-17.999910354614258,-0.4809470772743225,-2.2360262870788574,0.20724813640117645,0
59,0.28999757766723633,0.10880166292190552,-18.154138565063477,1.1680023670196533,18.023714065551758,0.4864402413368225,2.2552523612976074,-0.18710653483867645,0.0,0.0,0.0,0.0,0.0,0.0,0.0,0.12991993377449687,0.5072367864865888,0.31312389014928466,0.358562280996017,0.05830007757623695,0.05408985971051204,-0.17833169187878792,-0.609055584518533,-0.05753184891992222,-0.6665991323083625,-2.594561826739395,-0.055618784047756525,2.5079721023321437,0.876315892510358,-0.6090851748156966,-0.05753196718556838,-0.666603097082616,-2.5945565370258534,-0.05562143941554,2.507976027223799,0.8763108487046415,0.00027216480593476633,-0.0004820224870287907,-0.0007476131339299004,-0.000849260292597398,-0.00010029157520079884,-0.0008255137775993085,4.216629658601928e-05,0.0,0.0,0.0,0.0,0.0,0.0,0.0,-2.959029716353978e-05,-1.1826564616512769e-07,-3.964774253462089e-06,5.2897135414120555e-06,-2.655367783474527e-06,3.9248916552381274e-06,-5.043805716531402e-06,-0.00027216480593476633,0.0004820224870287907,0.0007476131339299004,0.000849260292597398,0.00010029157520079884,0.0008255137775993085,-4.216629658601928e-05,-0.10880166292190552,18.154138565063477,-1.1680023670196533,-18.023714065551758,-0.4864402413368225,-2.2552523612976074,0.18710653483867645,0
60,0.2949976921081543,0.10880166292190552,-18.154138565063477,1.1680023670196533,18.023714065551758,0.4864402413368225,2.2552523612976074,-0.18710653483867645,0.0,0.0,0.0,0.0,0.0,0.0,0.0,0.12991993377449687,0.5072367864865888,0.31312389014928466,0.358562280996017,0.05830007757623695,0.05408985971051204,-0.17833169187878792,-0.609055584518533,-0.05753184891992222,-0.6665991323083625,-2.594561826739395,-0.055618784047756525,2.5079721023321437,0.876315892510358,-0.6090851748156966,-0.05753196718556838,-0.666603097082616,-2.5945565370258534,-0.05562143941554,2.507976027223799,0.8763108487046415,0.00027216480593476633,-0.0004820224870287907,-0.0007476131339299004,-0.000849260292597398,-0.00010029157520079884,-0.0008255137775993085,4.216629658601928e-05,0.0,0.0,0.0,0.0,0.0,0.0,0.0,-2.959029716353978e-05,-1.1826564616512769e-07,-3.964774253462089e-06,5.2897135414120555e-06,-2.655367783474527e-06,3.9248916552381274e-06,-5.043805716531402e-06,-0.00027216480593476633,0.0004820224870287907,0.0007476131339299004,0.000849260292597398,0.00010029157520079884,0.0008255137775993085,-4.216629658601928e-05,-0.10880166292190552,18.154138565063477,-1.1680023670196533,-18.023714065551758,-0.4864402413368225,-2.2552523612976074,0.18710653483867645,0
61,0.300006628036499,0.16037636995315552,-18.154138565063477,1.1680023670196533,17.972139358520508,0.4745383858680725,2.2424349784851074,-0.13858358561992645,0.0,0.0,0.0,0.0,0.0,0.0,0.0,0.13155350167578206,0.5075777946702852,0.3173805960113357,0.3561012624404316,0.058376809632732125,0.05414715841646163,-0.17804084907397522,-0.6090592037962194,-0.05753182261308244,-0.6665990748567829,-2.5945582074617084,-0.055617590567146866,2.507972820112211,0.8763083818610955,-0.6090851748156966,-0.05753196718556838,-0.666603097082616,-2.5945565370258534,-0.05562143941554,2.507976027223799,0.8763108487046415,-0.0008374620467795428,-3.19851472733214e-05,-0.0006393082137103292,0.00028144028631702097,0.00030131162818743763,-0.0001449150331752046,-0.0016807910877871919,0.0,0.0,0.0,0.0,0.0,0.0,0.0,-2.5971019477211144e-05,-1.4457248594113015e-07,-4.022225833066884e-06,1.6704358549723963e-06,-3.848848393134263e-06,3.207111587855138e-06,2.4668435459895832e-06,0.0008374620467795428,3.19851472733214e-05,0.0006393082137103292,-0.00028144028631702097,-0.00030131162818743763,0.0001449150331752046,0.0016807910877871919,-0.16037636995315552,18.154138565063477,-1.1680023670196533,-17.972139358520508,-0.4745383858680725,-2.2424349784851074,0.13858358561992645,0
62,0.3050093650817871,0.16037636995315552,-18.154138565063477,1.1680023670196533,17.972139358520508,0.4745383858680725,2.2424349784851074,-0.13858358561992645,0.0,0.0,0.0,0.0,0.0,0.0,0.0,0.13155350167578206,0.5075777946702852,0.3173805960113357,0.3561012624404316,0.058376809632732125,0.05414715841646163,-0.17804084907397522,-0.6090592037962194,-0.05753182261308244,-0.6665990748567829,-2.5945582074617084,-0.055617590567146866,2.507972820112211,0.8763083818610955,-0.6090851748156966,-0.05753196718556838,-0.666603097082616,-2.5945565370258534,-0.05562143941554,2.507976027223799,0.8763108487046415,-0.0008374620467795428,-3.19851472733214e-05,-0.0006393082137103292,0.00028144028631702097,0.00030131162818743763,-0.0001449150331752046,-0.0016807910877871919,0.0,0.0,0.0,0.0,0.0,0.0,0.0,-2.5971019477211144e-05,-1.4457248594113015e-07,-4.022225833066884e-06,1.6704358549723963e-06,-3.848848393134263e-06,3.207111587855138e-06,2.4668435459895832e-06,0.0008374620467795428,3.19851472733214e-05,0.0006393082137103292,-0.00028144028631702097,-0.00030131162818743763,0.0001449150331752046,0.0016807910877871919,-0.16037636995315552,18.154138565063477,-1.1680023670196533,-17.972139358520508,-0.4745383858680725,-2.2424349784851074,0.13858358561992645,0
63,0.31000399589538574,0.10880166292190552,-18.130334854125977,1.1680023670196533,17.948335647583008,0.4864402413368225,2.2424349784851074,-0.18710653483867645,0.0,0.0,0.0,0.0,0.0,0.0,0.0,0.12746660864021508,0.5041954511622724,0.31706035448707337,0.35734269297538757,0.0583207162180526,0.0549502804706253,-0.1776080468160768,-0.6090555854996794,-0.05753349304878921,-0.6665991627962982,-2.5945565370258534,-0.05561820607204525,2.5079724668576326,0.8763169389768096,-0.6090851748156966,-0.05753196718556838,-0.666603097082616,-2.5945565370258534,-0.05562143941554,2.507976027223799,0.8763108487046415,0.00020503671499342275,-0.0006358064047392617,-0.0007701633777524395,0.0008383379221323556,-0.0005215697415236346,-0.00016761634039400946,0.0004568530463460876,0.0,0.0,0.0,0.0,0.0,0.0,0.0,-2.9589316017153422e-05,1.5258632208234313e-06,-3.93428631784154e-06,0.0,-3.2333434947517947e-06,3.56036616633304e-06,-6.090272168135513e-06,-0.00020503671499342275,0.0006358064047392617,0.0007701633777524395,-0.0008383379221323556,0.0005215697415236346,0.00016761634039400946,-0.0004568530463460876,-0.10880166292190552,18.130334854125977,-1.1680023670196533,-17.948335647583008,-0.4864402413368225,-2.2424349784851074,0.18710653483867645,0
64,0.315000057220459,0.10880166292190552,-18.130334854125977,1.1680023670196533,17.948335647583008,0.4864402413368225,2.2424349784851074,-0.18710653483867645,0.0,0.0,0.0,0.0,0.0,0.0,0.0,0.12746660864021508,0.5041954511622724,0.31706035448707337,0.35734269297538757,0.0583207162180526,0.0549502804706253,-0.1776080468160768,-0.6090555854996794,-0.05753349304878921,-0.6665991627962982,-2.5945565370258534,-0.05561820607204525,2.5079724668576326,0.8763169389768096,-0.6090851748156966,-0.05753196718556838,-0.666603097082616,-2.5945565370258534,-0.05562143941554,2.507976027223799,0.8763108487046415,0.00020503671499342275,-0.0006358064047392617,-0.0007701633777524395,0.0008383379221323556,-0.0005215697415236346,-0.00016761634039400946,0.0004568530463460876,0.0,0.0,0.0,0.0,0.0,0.0,0.0,-2.9589316017153422e-05,1.5258632208234313e-06,-3.93428631784154e-06,0.0,-3.2333434947517947e-06,3.56036616633304e-06,-6.090272168135513e-06,-0.00020503671499342275,0.0006358064047392617,0.0007701633777524395,-0.0008383379221323556,0.0005215697415236346,0.00016761634039400946,-0.0004568530463460876,-0.10880166292190552,18.130334854125977,-1.1680023670196533,-17.948335647583008,-0.4864402413368225,-2.2424349784851074,0.18710653483867645,0
65,0.3200249671936035,0.08103066682815552,-18.154138565063477,1.1680023670196533,17.972139358520508,0.4745383858680725,2.2232089042663574,-0.14590780436992645,0.0,0.0,0.0,0.0,0.0,0.0,0.0,0.13154548961385912,0.5106817674688731,0.3246984180405527,0.3526210691448688,0.05728647214180388,0.054703272527142424,-0.1782261192253838,-0.6090536356767026,-0.057531822612933936,-0.6665973872846727,-2.5945582074617084,-0.05562066906832851,2.5079750741819384,0.8763122568459707,-0.6090851748156966,-0.05753196718556838,-0.666603097082616,-2.5945565370258534,-0.05562143941554,2.507976027223799,0.8763108487046415,0.0014197258600089535,0.00024636025934292435,-0.0006026796991499598,6.975290195108682e-05,0.000297022542783501,0.0005626132717097454,-0.0011400645013813005,0.0,0.0,0.0,0.0,0.0,0.0,0.0,-3.153913899400784e-05,-1.4457263444733748e-07,-5.70979794334292e-06,1.6704358549723963e-06,-7.703472114928278e-07,9.530418605407931e-07,-1.4081413292066358e-06,-0.0014197258600089535,-0.00024636025934292435,0.0006026796991499598,-6.975290195108682e-05,-0.000297022542783501,-0.0005626132717097454,0.0011400645013813005,-0.08103066682815552,18.154138565063477,-1.1680023670196533,-17.972139358520508,-0.4745383858680725,-2.2232089042663574,0.14590780436992645,0
66,0.3250124454498291,0.08103066682815552,-18.154138565063477,1.1680023670196533,17.972139358520508,0.4745383858680725,2.2232089042663574,-0.14590780436992645,0.0,0.0,0.0,0.0,0.0,0.0,0.0,0.13154548961385912,0.5106817674688731,0.3246984180405527,0.3526210691448688,0.05728647214180388,0.054703272527142424,-0.1782261192253838,-0.6090536356767026,-0.057531822612933936,-0.6665973872846727,-2.5945582074617084,-0.05562066906832851,2.5079750741819384,0.8763122568459707,-0.6090851748156966,-0.05753196718556838,-0.666603097082616,-2.5945565370258534,-0.05562143941554,2.507976027223799,0.8763108487046415,0.0014197258600089535,0.00024636025934292435,-0.0006026796991499598,6.975290195108682e-05,0.000297022542783501,0.0005626132717097454,-0.0011400645013813005,0.0,0.0,0.0,0.0,0.0,0.0,0.0,-3.153913899400784e-05,-1.4457263444733748e-07,-5.70979794334292e-06,1.6704358549723963e-06,-7.703472114928278e-07,9.530418605407931e-07,-1.4081413292066358e-06,-0.0014197258600089535,-0.00024636025934292435,0.0006026796991499598,-6.975290195108682e-05,-0.000297022542783501,-0.0005626132717097454,0.0011400645013813005,-0.08103066682815552,18.154138565063477,-1.1680023670196533,-17.972139358520508,-0.4745383858680725,-2.2232089042663574,0.14590780436992645,0
67,0.33000826835632324,0.10880166292190552,-18.154138565063477,1.1441986560821533,17.972139358520508,0.4864402413368225,2.2360262870788574,-0.19351522624492645,0.0,0.0,0.0,0.0,0.0,0.0,0.0,0.13191720315644404,0.5081581275560306,0.3274256253161701,0.35689069947999175,0.05730120977040694,0.055704205483324325,-0.17826683007266092,-0.609055584518533,-0.057531822612933936,-0.6665974923590806,-2.5945582074617084,-0.055622367795796934,2.507973296823561,0.8763176642950967,-0.6090851748156966,-0.05753196718556838,-0.666603097082616,-2.5945565370258534,-0.05562143941554,2.507976027223799,0.8763108487046415,0.0006735788008660226,0.00027836417055685767,0.00042488769267413803,0.0005190535067506248,-0.0001955433335739899,0.00021185475563500133,0.0003831769223408406,0.0,0.0,0.0,0.0,0.0,0.0,0.0,-2.959029716353978e-05,-1.4457263444733748e-07,-5.604723535390654e-06,1.6704358549723963e-06,9.283802569343136e-07,2.7304002379047176e-06,-6.815590455233611e-06,-0.0006735788008660226,-0.00027836417055685767,-0.00042488769267413803,-0.0005190535067506248,0.0001955433335739899,-0.00021185475563500133,-0.0003831769223408406,-0.10880166292190552,18.154138565063477,-1.1441986560821533,-17.972139358520508,-0.4864402413368225,-2.2360262870788574,0.19351522624492645,0
68,0.33501148223876953,0.10880166292190552,-18.154138565063477,1.1441986560821533,17.972139358520508,0.4864402413368225,2.2360262870788574,-0.19351522624492645,0.0,0.0,0.0,0.0,0.0,0.0,0.0,0.13191720315644404,0.5081581275560306,0.3274256253161701,0.35689069947999175,0.05730120977040694,0.055704205483324325,-0.17826683007266092,-0.609055584518533,-0.057531822612933936,-0.6665974923590806,-2.5945582074617084,-0.055622367795796934,2.507973296823561,0.8763176642950967,-0.6090851748156966,-0.05753196718556838,-0.666603097082616,-2.5945565370258534,-0.05562143941554,2.507976027223799,0.8763108487046415,0.0006735788008660226,0.00027836417055685767,0.00042488769267413803,0.0005190535067506248,-0.0001955433335739899,0.00021185475563500133,0.0003831769223408406,0.0,0.0,0.0,0.0,0.0,0.0,0.0,-2.959029716353978e-05,-1.4457263444733748e-07,-5.604723535390654e-06,1.6704358549723963e-06,9.283802569343136e-07,2.7304002379047176e-06,-6.815590455233611e-06,-0.0006735788008660226,-0.00027836417055685767,-0.00042488769267413803,-0.0005190535067506248,0.0001955433335739899,-0.00021185475563500133,-0.0003831769223408406,-0.10880166292190552,18.154138565063477,-1.1441986560821533,-17.972139358520508,-0.4864402413368225,-2.2360262870788574,0.19351522624492645,0
69,0.3400096893310547,0.10880166292190552,-18.130334854125977,1.0926239490509033,17.999910354614258,0.4864402413368225,2.2424349784851074,-0.18710653483867645,0.0,0.0,0.0,0.0,0.0,0.0,0.0,0.1250411095259117,0.5086211222657475,0.32492997443068916,0.35642289903803126,0.05775750782887766,0.05589394214582808,-0.17867964760779434,-0.6090555854996794,-0.0575334930487892,-0.6665943401479292,-2.5945601563035394,-0.05561785084503765,2.5079725845774763,0.8763169522202676,-0.6090851748156966,-0.05753196718556838,-0.666603097082616,-2.5945565370258534,-0.05562143941554,2.507976027223799,0.8763108487046415,-3.347051191901244e-06,-0.00027656070421312615,0.0013046573213019237,-0.0004893388181291911,-4.427666981248917e-05,-0.00015055145611831062,0.0005756577210019193,0.0,0.0,0.0,0.0,0.0,0.0,0.0,-2.9589316017153422e-05,1.5258632208164924e-06,-8.75693468682659e-06,3.61927768599557e-06,-3.588570502352506e-06,3.442646322682208e-06,-6.1035156261324275e-06,3.347051191901244e-06,0.00027656070421312615,-0.0013046573213019237,0.0004893388181291911,4.427666981248917e-05,0.00015055145611831062,-0.0005756577210019193,-0.10880166292190552,18.130334854125977,-1.0926239490509033,-17.999910354614258,-0.4864402413368225,-2.2424349784851074,0.18710653483867645,0
70,0.3450140953063965,0.10880166292190552,-18.130334854125977,1.0926239490509033,17.999910354614258,0.4864402413368225,2.2424349784851074,-0.18710653483867645,0.0,0.0,0.0,0.0,0.0,0.0,0.0,0.1250411095259117,0.5086211222657475,0.32492997443068916,0.35642289903803126,0.05775750782887766,0.05589394214582808,-0.17867964760779434,-0.6090555854996794,-0.0575334930487892,-0.6665943401479292,-2.5945601563035394,-0.05561785084503765,2.5079725845774763,0.8763169522202676,-0.6090851748156966,-0.05753196718556838,-0.666603097082616,-2.5945565370258534,-0.05562143941554,2.507976027223799,0.8763108487046415,-3.347051191901244e-06,-0.00027656070421312615,0.0013046573213019237,-0.0004893388181291911,-4.427666981248917e-05,-0.00015055145611831062,0.0005756577210019193,0.0,0.0,0.0,0.0,0.0,0.0,0.0,-2.9589316017153422e-05,1.5258632208164924e-06,-8.75693468682659e-06,3.61927768599557e-06,-3.588570502352506e-06,3.442646322682208e-06,-6.1035156261324275e-06,3.347051191901244e-06,0.00027656070421312615,-0.0013046573213019237,0.0004893388181291911,4.427666981248917e-05,0.00015055145611831062,-0.0005756577210019193,-0.10880166292190552,18.130334854125977,-1.0926239490509033,-17.999910354614258,-0.4864402413368225,-2.2424349784851074,0.18710653483867645,0
71,0.3500096797943115,0.10880166292190552,-18.154138565063477,1.0926239490509033,17.972139358520508,0.4809470772743225,2.2424349784851074,-0.15231649577617645,0.0,0.0,0.0,0.0,0.0,0.0,0.0,0.12765291504935378,0.508755996485669,0.3264092741263829,0.3549791877193268,0.058312560485172214,0.05578233507602642,-0.17844714073334325,-0.6090555845185386,-0.057531822612933936,-0.6665935261233962,-2.5945582074617084,-0.05562042973965364,2.5079724847674685,0.8763098685001272,-0.6090851748156966,-0.05753196718556838,-0.666603097082616,-2.5945565370258534,-0.05562143941554,2.507976027223799,0.8763108487046415,0.0006057320474923059,-0.00023725089719676498,0.0007040832282934017,-6.0679317826376545e-05,0.00026196440576049996,-2.384080878889359e-05,-0.0015862653293365501,0.0,0.0,0.0,0.0,0.0,0.0,0.0,-2.9590297157988665e-05,-1.4457263444733748e-07,-9.570959219828978e-06,1.6704358549723963e-06,-1.009675886357031e-06,3.542456330496435e-06,9.802045143336713e-07,-0.0006057320474923059,0.00023725089719676498,-0.0007040832282934017,6.0679317826376545e-05,-0.00026196440576049996,2.384080878889359e-05,0.0015862653293365501,-0.10880166292190552,18.154138565063477,-1.0926239490509033,-17.972139358520508,-0.4809470772743225,-2.2424349784851074,0.15231649577617645,0
72,0.3550076484680176,0.10880166292190552,-18.154138565063477,1.0926239490509033,17.972139358520508,0.4809470772743225,2.2424349784851074,-0.15231649577617645,0.0,0.0,0.0,0.0,0.0,0.0,0.0,0.12765291504935378,0.508755996485669,0.3264092741263829,0.3549791877193268,0.058312560485172214,0.05578233507602642,-0.17844714073334325,-0.6090555845185386,-0.057531822612933936,-0.6665935261233962,-2.5945582074617084,-0.05562042973965364,2.5079724847674685,0.8763098685001272,-0.6090851748156966,-0.05753196718556838,-0.666603097082616,-2.5945565370258534,-0.05562143941554,2.507976027223799,0.8763108487046415,0.0006057320474923059,-0.00023725089719676498,0.0007040832282934017,-6.0679317826376545e-05,0.00026196440576049996,-2.384080878889359e-05,-0.0015862653293365501,0.0,0.0,0.0,0.0,0.0,0.0,0.0,-2.9590297157988665e-05,-1.4457263444733748e-07,-9.570959219828978e-06,1.6704358549723963e-06,-1.009675886357031e-06,3.542456330496435e-06,9.802045143336713e-07,-0.0006057320474923059,0.00023725089719676498,-0.0007040832282934017,6.0679317826376545e-05,-0.00026196440576049996,2.384080878889359e-05,0.0015862653293365501,-0.10880166292190552,18.154138565063477,-1.0926239490509033,-17.972139358520508,-0.4809470772743225,-2.2424349784851074,0.15231649577617645,0
73,0.3600029945373535,0.13260537385940552,-18.106531143188477,1.0926239490509033,17.948335647583008,0.4864402413368225,2.2360262870788574,-0.17978231608867645,0.0,0.0,0.0,0.0,0.0,0.0,0.0,0.12415203447249083,0.5105100883270979,0.31717950008689966,0.35236101725428215,0.05899131195880543,0.05634036391945414,-0.17783560498332115,-0.6090572549543882,-0.057535163484644464,-0.6665945769266125,-2.5945565370258534,-0.055618233776855375,2.507973218162465,0.8763161384000177,-0.6090851748156966,-0.05753196718556838,-0.666603097082616,-2.5945565370258534,-0.05562143941554,2.507976027223799,0.8763108487046415,-0.0006809803471061215,-0.000986944692028883,0.00037240765883904707,0.0009191758939851959,-0.00020224114399941854,0.00010131813491617797,0.0009899762554415614,0.0,0.0,0.0,0.0,0.0,0.0,0.0,-2.791986130834534e-05,3.1962990760803223e-06,-8.520156003499757e-06,0.0,-3.2056386846252005e-06,2.809061333763907e-06,-5.289695376164971e-06,0.0006809803471061215,0.000986944692028883,-0.00037240765883904707,-0.0009191758939851959,0.00020224114399941854,-0.00010131813491617797,-0.0009899762554415614,-0.13260537385940552,18.106531143188477,-1.0926239490509033,-17.948335647583008,-0.4864402413368225,-2.2360262870788574,0.17978231608867645,0
74,0.365009069442749,0.13260537385940552,-18.106531143188477,1.0926239490509033,17.948335647583008,0.4864402413368225,2.2360262870788574,-0.17978231608867645,0.0,0.0,0.0,0.0,0.0,0.0,0.0,0.12415203447249083,0.5105100883270979,0.31717950008689966,0.35236101725428215,0.05899131195880543,0.05634036391945414,-0.17783560498332115,-0.6090572549543882,-0.057535163484644464,-0.6665945769266125,-2.5945565370258534,-0.055618233776855375,2.507973218162465,0.8763161384000177,-0.6090851748156966,-0.05753196718556838,-0.666603097082616,-2.5945565370258534,-0.05562143941554,2.507976027223799,0.8763108487046415,-0.0006809803471061215,-0.000986944692028883,0.00037240765883904707,0.0009191758939851959,-0.00020224114399941854,0.00010131813491617797,0.0009899762554415614,0.0,0.0,0.0,0.0,0.0,0.0,0.0,-2.791986130834534e-05,3.1962990760803223e-06,-8.520156003499757e-06,0.0,-3.2056386846252005e-06,2.809061333763907e-06,-5.289695376164971e-06,0.0006809803471061215,0.000986944692028883,-0.00037240765883904707,-0.0009191758939851959,0.00020224114399941854,-0.00010131813491617797,-0.0009899762554415614,-0.13260537385940552,18.106531143188477,-1.0926239490509033,-17.948335647583008,-0.4864402413368225,-2.2360262870788574,0.17978231608867645,0
75,0.3699986934661865,0.13260537385940552,-18.177942276000977,1.1680023670196533,17.972139358520508,0.4864402413368225,2.2360262870788574,-0.15231649577617645,0.0,0.0,0.0,0.0,0.0,0.0,0.0,0.13430664240524184,0.5104514794462037,0.32338990897978537,0.3506183812755103,0.05827429806939309,0.05640194035780134,-0.17602362471363878,-0.6090572549543882,-0.05753015217707867,-0.666599795567479,-2.5945582074617084,-0.05562209647725377,2.5079735321294385,0.8763130822997209,-0.6090851748156966,-0.05753196718556838,-0.666603097082616,-2.5945565370258534,-0.05562143941554,2.507976027223799,0.8763108487046415,0.00012788597750653603,0.0006164323447413994,-0.0007198405584159156,5.568466617713431e-05,-0.0001815877768292622,0.00011138332498454672,-0.000708027925577295,0.0,0.0,0.0,0.0,0.0,0.0,0.0,-2.791986130834534e-05,-1.8150084897111673e-06,-3.301515137055233e-06,1.6704358549723963e-06,6.570617137671708e-07,2.4950943604551412e-06,-2.233595079448314e-06,-0.00012788597750653603,-0.0006164323447413994,0.0007198405584159156,-5.568466617713431e-05,0.0001815877768292622,-0.00011138332498454672,0.000708027925577295,-0.13260537385940552,18.177942276000977,-1.1680023670196533,-17.972139358520508,-0.4864402413368225,-2.2360262870788574,0.15231649577617645,0
76,0.3749995231628418,0.13260537385940552,-18.177942276000977,1.1680023670196533,17.972139358520508,0.4864402413368225,2.2360262870788574,-0.15231649577617645,0.0,0.0,0.0,0.0,0.0,0.0,0.0,0.13430664240524184,0.5104514794462037,0.32338990897978537,0.3506183812755103,0.05827429806939309,0.05640194035780134,-0.17602362471363878,-0.6090572549543882,-0.05753015217707867,-0.666599795567479,-2.5945582074617084,-0.05562209647725377,2.5079735321294385,0.8763130822997209,-0.6090851748156966,-0.05753196718556838,-0.666603097082616,-2.5945565370258534,-0.05562143941554,2.507976027223799,0.8763108487046415,0.00012788597750653603,0.0006164323447413994,-0.0007198405584159156,5.568466617713431e-05,-0.0001815877768292622,0.00011138332498454672,-0.000708027925577295,0.0,0.0,0.0,0.0,0.0,0.0,0.0,-2.791986130834534e-05,-1.8150084897111673e-06,-3.301515137055233e-06,1.6704358549723963e-06,6.570617137671708e-07,2.4950943604551412e-06,-2.233595079448314e-06,-0.00012788597750653603,-0.0006164323447413994,0.0007198405584159156,-5.568466617713431e-05,0.0001815877768292622,-0.00011138332498454672,0.000708027925577295,-0.13260537385940552,18.177942276000977,-1.1680023670196533,-17.972139358520508,-0.4864402413368225,-2.2360262870788574,0.15231649577617645,0
77,0.3800027370452881,0.10880166292190552,-18.154138565063477,1.1680023670196533,17.972139358520508,0.4864402413368225,2.2424349784851074,-0.16604940593242645,0.0,0.0,0.0,0.0,0.0,0.0,0.0,0.13176955276089092,0.5119431135819149,0.3189677694925423,0.3500657400560304,0.05840402215267122,0.05601871242746233,-0.17609739724908163,-0.609055584518533,-0.057531822612933936,-0.6665996385836512,-2.5945582074617084,-0.05561879764549378,2.507972820054388,0.8763114336248654,-0.6090851748156966,-0.05753196718556838,-0.666603097082616,-2.5945565370258534,-0.05562143941554,2.507976027223799,0.8763108487046415,0.0006708554303239436,0.0002851695206259201,-0.0005103037172216661,0.0003246515797676534,-0.00019302678962580325,-0.0001605250975570688,-0.0006927613207911309,0.0,0.0,0.0,0.0,0.0,0.0,0.0,-2.959029716353978e-05,-1.4457263444733748e-07,-3.458498964770129e-06,1.6704358549723963e-06,-2.6417700462189053e-06,3.207169410934796e-06,-5.84920223922758e-07,-0.0006708554303239436,-0.0002851695206259201,0.0005103037172216661,-0.0003246515797676534,0.00019302678962580325,0.0001605250975570688,0.0006927613207911309,-0.10880166292190552,18.154138565063477,-1.1680023670196533,-17.972139358520508,-0.4864402413368225,-2.2424349784851074,0.16604940593242645,0
78,0.38500189781188965,0.10880166292190552,-18.154138565063477,1.1680023670196533,17.972139358520508,0.4864402413368225,2.2424349784851074,-0.16604940593242645,0.0,0.0,0.0,0.0,0.0,0.0,0.0,0.13176955276089092,0.5119431135819149,0.3189677694925423,0.3500657400560304,0.05840402215267122,0.05601871242746233,-0.17609739724908163,-0.609055584518533,-0.057531822612933936,-0.6665996385836512,-2.5945582074617084,-0.05561879764549378,2.507972820054388,0.8763114336248654,-0.6090851748156966,-0.05753196718556838,-0.666603097082616,-2.5945565370258534,-0.05562143941554,2.507976027223799,0.8763108487046415,0.0006708554303239436,0.0002851695206259201,-0.0005103037172216661,0.0003246515797676534,-0.00019302678962580325,-0.0001605250975570688,-0.0006927613207911309,0.0,0.0,0.0,0.0,0.0,0.0,0.0,-2.959029716353978e-05,-1.4457263444733748e-07,-3.458498964770129e-06,1.6704358549723963e-06,-2.6417700462189053e-06,3.207169410934796e-06,-5.84920223922758e-07,-0.0006708554303239436,-0.0002851695206259201,0.0005103037172216661,-0.0003246515797676534,0.00019302678962580325,0.0001605250975570688,0.0006927613207911309,-0.10880166292190552,18.154138565063477,-1.1680023670196533,-17.972139358520508,-0.4864402413368225,-2.2424349784851074,0.16604940593242645,0
79,0.3899993896484375,0.10880166292190552,-18.154138565063477,1.1680023670196533,17.972139358520508,0.4864402413368225,2.2424349784851074,-0.16604940593242645,0.0,0.0,0.0,0.0,0.0,0.0,0.0,0.13176955276089092,0.5119431135819149,0.3189677694925423,0.3500657400560304,0.05840402215267122,0.05601871242746233,-0.17609739724908163,-0.609055584518533,-0.057531822612933936,-0.6665996385836512,-2.5945582074617084,-0.05561879764549378,2.507972820054388,0.8763114336248654,-0.6090851748156966,-0.05753196718556838,-0.666603097082616,-2.5945565370258534,-0.05562143941554,2.507976027223799,0.8763108487046415,0.0006708554303239436,0.0002851695206259201,-0.0005103037172216661,0.0003246515797676534,-0.00019302678962580325,-0.0001605250975570688,-0.0006927613207911309,0.0,0.0,0.0,0.0,0.0,0.0,0.0,-2.959029716353978e-05,-1.4457263444733748e-07,-3.458498964770129e-06,1.6704358549723963e-06,-2.6417700462189053e-06,3.207169410934796e-06,-5.84920223922758e-07,-0.0006708554303239436,-0.0002851695206259201,0.0005103037172216661,-0.0003246515797676534,0.00019302678962580325,0.0001605250975570688,0.0006927613207911309,-0.10880166292190552,18.154138565063477,-1.1680023670196533,-17.972139358520508,-0.4864402413368225,-2.2424349784851074,0.16604940593242645,0
