rezayati/contactInterpretation/dataset/franka_main/labeled_data/link1/g2_7.csv
index,time,tau_J0,tau_J1,tau_J2,tau_J3,tau_J4,tau_J5,tau_J6,tau_J_d0,tau_J_d1,tau_J_d2,tau_J_d3,tau_J_d4,tau_J_d5,tau_J_d6,tau_ext0,tau_ext1,tau_ext2,tau_ext3,tau_ext4,tau_ext5,tau_ext6,q0,q1,q2,q3,q4,q5,q6,q_d0,q_d1,q_d2,q_d3,q_d4,q_d5,q_d6,dq0,dq1,dq2,dq3,dq4,dq5,dq6,dq_d0,dq_d1,dq_d2,dq_d3,dq_d4,dq_d5,dq_d6,e0,e1,e2,e3,e4,e5,e6,de0,de1,de2,de3,de4,de5,de6,etau_J0,etau_J1,etau_J2,etau_J3,etau_J4,etau_J5,etau_J6,label
1,0.0,-0.19667929410934448,-11.949304580688477,1.2909882068634033,21.717256546020508,0.3912253975868225,2.5271639823913574,-0.20083944499492645,0.0,0.0,0.0,0.0,0.0,0.0,0.0,-0.1884559753477509,0.35160946049602837,0.09085908467860698,0.46463077775268324,-0.13414505749259215,0.12689770837654654,-0.20404715359197573,0.1729030495923862,-0.4875170299421717,-0.11147048105305539,-1.946384953214411,0.13360818512360434,2.595550359778934,0.9452468986428446,0.1728802376190821,-0.48752024683155326,-0.11147110072896137,-1.9463801863486305,0.1336059019074957,2.595550359778934,0.9452445589611904,0.00010139625412049074,-0.0009547570689689161,-0.0005550952341082677,0.0010185873132258108,0.0003606895377164475,9.51322662020157e-06,0.0007414252459417497,0.0,0.0,0.0,0.0,0.0,0.0,0.0,-2.2811973304087685e-05,-3.216889381540966e-06,-6.196759059773349e-07,4.7668657805477466e-06,-2.2832161086505653e-06,0.0,-2.3396816541954024e-06,-0.00010139625412049074,0.0009547570689689161,0.0005550952341082677,-0.0010185873132258108,-0.0003606895377164475,-9.51322662020157e-06,-0.0007414252459417497,0.19667929410934448,11.949304580688477,-1.2909882068634033,-21.717256546020508,-0.3912253975868225,-2.5271639823913574,0.20083944499492645,0
2,0.005007743835449219,-0.19667929410934448,-11.949304580688477,1.2909882068634033,21.717256546020508,0.3912253975868225,2.5271639823913574,-0.20083944499492645,0.0,0.0,0.0,0.0,0.0,0.0,0.0,-0.1884559753477509,0.35160946049602837,0.09085908467860698,0.46463077775268324,-0.13414505749259215,0.12689770837654654,-0.20404715359197573,0.1729030495923862,-0.4875170299421717,-0.11147048105305539,-1.946384953214411,0.13360818512360434,2.595550359778934,0.9452468986428446,0.1728802376190821,-0.48752024683155326,-0.11147110072896137,-1.9463801863486305,0.1336059019074957,2.595550359778934,0.9452445589611904,0.00010139625412049074,-0.0009547570689689161,-0.0005550952341082677,0.0010185873132258108,0.0003606895377164475,9.51322662020157e-06,0.0007414252459417497,0.0,0.0,0.0,0.0,0.0,0.0,0.0,-2.2811973304087685e-05,-3.216889381540966e-06,-6.196759059773349e-07,4.7668657805477466e-06,-2.2832161086505653e-06,0.0,-2.3396816541954024e-06,-0.00010139625412049074,0.0009547570689689161,0.0005550952341082677,-0.0010185873132258108,-0.0003606895377164475,-9.51322662020157e-06,-0.0007414252459417497,0.19667929410934448,11.949304580688477,-1.2909882068634033,-21.717256546020508,-0.3912253975868225,-2.5271639823913574,0.20083944499492645,0
3,0.010008811950683594,-0.17287558317184448,-11.949304580688477,1.2671844959259033,21.741060256958008,0.4214377999305725,2.5207552909851074,-0.22098104655742645,0.0,0.0,0.0,0.0,0.0,0.0,0.0,-0.19338591890412554,0.35412106980686336,0.0816419971024223,0.4620230784150422,-0.13401494617954157,0.126840976179666,-0.20266610423905557,0.17290137915653095,-0.48751461822132097,-0.11146872000473543,-1.9463866236502665,0.13360605414202645,2.595551071855757,0.9452491365985738,0.1728802376190821,-0.48752024683155326,-0.11147110072896137,-1.9463801863486305,0.1336059019074957,2.595550359778934,0.9452445589611904,-0.0011452904478900774,-0.000455589823354472,-0.0002028561295212214,0.0004960062007879571,-0.0008637602021478305,4.1822352506813094e-05,0.0014845276552485434,0.0,0.0,0.0,0.0,0.0,0.0,0.0,-2.1141537448837733e-05,-5.628610232288889e-06,-2.380724225939379e-06,6.437301635964232e-06,-1.522345307591877e-07,-7.120768228396912e-07,-4.5776373833739115e-06,0.0011452904478900774,0.000455589823354472,0.0002028561295212214,-0.0004960062007879571,0.0008637602021478305,-4.1822352506813094e-05,-0.0014845276552485434,0.17287558317184448,11.949304580688477,-1.2671844959259033,-21.741060256958008,-0.4214377999305725,-2.5207552909851074,0.22098104655742645,0
4,0.015001535415649414,-0.17287558317184448,-11.949304580688477,1.2671844959259033,21.741060256958008,0.4214377999305725,2.5207552909851074,-0.22098104655742645,0.0,0.0,0.0,0.0,0.0,0.0,0.0,-0.19338591890412554,0.35412106980686336,0.0816419971024223,0.4620230784150422,-0.13401494617954157,0.126840976179666,-0.20266610423905557,0.17290137915653095,-0.48751461822132097,-0.11146872000473543,-1.9463866236502665,0.13360605414202645,2.595551071855757,0.9452491365985738,0.1728802376190821,-0.48752024683155326,-0.11147110072896137,-1.9463801863486305,0.1336059019074957,2.595550359778934,0.9452445589611904,-0.0011452904478900774,-0.000455589823354472,-0.0002028561295212214,0.0004960062007879571,-0.0008637602021478305,4.1822352506813094e-05,0.0014845276552485434,0.0,0.0,0.0,0.0,0.0,0.0,0.0,-2.1141537448837733e-05,-5.628610232288889e-06,-2.380724225939379e-06,6.437301635964232e-06,-1.522345307591877e-07,-7.120768228396912e-07,-4.5776373833739115e-06,0.0011452904478900774,0.000455589823354472,0.0002028561295212214,-0.0004960062007879571,0.0008637602021478305,-4.1822352506813094e-05,-0.0014845276552485434,0.17287558317184448,11.949304580688477,-1.2671844959259033,-21.741060256958008,-0.4214377999305725,-2.5207552909851074,0.22098104655742645,0
5,0.01996588706970215,-0.24825400114059448,-11.925500869750977,1.3147919178009033,21.741060256958008,0.3912253975868225,2.5207552909851074,-0.20724813640117645,0.0,0.0,0.0,0.0,0.0,0.0,0.0,-0.1806698455072888,0.36628942815320154,0.10069049411433113,0.4556098531185227,-0.13480378813756447,0.12484604161368497,-0.2020727902023781,0.1729066688700726,-0.4875165764098355,-0.11147277993361412,-1.9463866236502665,0.1336090114581735,2.5955510718019217,0.9452476107196676,0.1728802376190821,-0.48752024683155326,-0.11147110072896137,-1.9463801863486305,0.1336059019074957,2.595550359778934,0.9452445589611904,0.0016264120067825993,-0.0003536018406385812,-6.404348453118759e-05,0.00029148130321853146,0.0004838002152800194,-1.210617414599766e-05,0.0006502277872651378,0.0,0.0,0.0,0.0,0.0,0.0,0.0,-2.643125099049959e-05,-3.670421717782979e-06,1.6792046527575044e-06,6.437301635964232e-06,-3.109550677810047e-06,-7.120229876811379e-07,-3.051758477146116e-06,-0.0016264120067825993,0.0003536018406385812,6.404348453118759e-05,-0.00029148130321853146,-0.0004838002152800194,1.210617414599766e-05,-0.0006502277872651378,0.24825400114059448,11.925500869750977,-1.3147919178009033,-21.741060256958008,-0.3912253975868225,-2.5207552909851074,0.20724813640117645,0
6,0.025003671646118164,-0.24825400114059448,-11.925500869750977,1.3147919178009033,21.741060256958008,0.3912253975868225,2.5207552909851074,-0.20724813640117645,0.0,0.0,0.0,0.0,0.0,0.0,0.0,-0.1806698455072888,0.36628942815320154,0.10069049411433113,0.4556098531185227,-0.13480378813756447,0.12484604161368497,-0.2020727902023781,0.1729066688700726,-0.4875165764098355,-0.11147277993361412,-1.9463866236502665,0.1336090114581735,2.5955510718019217,0.9452476107196676,0.1728802376190821,-0.48752024683155326,-0.11147110072896137,-1.9463801863486305,0.1336059019074957,2.595550359778934,0.9452445589611904,0.0016264120067825993,-0.0003536018406385812,-6.404348453118759e-05,0.00029148130321853146,0.0004838002152800194,-1.210617414599766e-05,0.0006502277872651378,0.0,0.0,0.0,0.0,0.0,0.0,0.0,-2.643125099049959e-05,-3.670421717782979e-06,1.6792046527575044e-06,6.437301635964232e-06,-3.109550677810047e-06,-7.120229876811379e-07,-3.051758477146116e-06,-0.0016264120067825993,0.0003536018406385812,6.404348453118759e-05,-0.00029148130321853146,-0.0004838002152800194,1.210617414599766e-05,-0.0006502277872651378,0.24825400114059448,11.925500869750977,-1.3147919178009033,-21.741060256958008,-0.3912253975868225,-2.5207552909851074,0.20724813640117645,0
7,0.030002593994140625,-0.19667929410934448,-11.949304580688477,1.2909882068634033,21.693452835083008,0.3912253975868225,2.5271639823913574,-0.15964071452617645,0.0,0.0,0.0,0.0,0.0,0.0,0.0,-0.18530811275629036,0.3648598287183579,0.09351310877961137,0.45496484481565685,-0.13448989503944042,0.12429770556309287,-0.2020955420830735,0.1729030495923862,-0.48751695407366114,-0.11147039044413828,-1.9463832827785559,0.13360940522974515,2.5955503597789336,0.9452423210061258,0.1728802376190821,-0.48752024683155326,-0.11147110072896137,-1.9463801863486305,0.1336059019074957,2.595550359778934,0.9452445589611904,0.0007346445658146185,3.0415125431308876e-05,0.00035107075066297073,0.0009107482165520396,0.00043881177978692454,-0.00011525999072048311,-0.0013095396286538848,0.0,0.0,0.0,0.0,0.0,0.0,0.0,-2.2811973304087685e-05,-3.2927578921260192e-06,-7.102848230827741e-07,3.0964299253533056e-06,-3.503322249465146e-06,4.440892098500626e-16,2.2379550645990065e-06,-0.0007346445658146185,-3.0415125431308876e-05,-0.00035107075066297073,-0.0009107482165520396,-0.00043881177978692454,0.00011525999072048311,0.0013095396286538848,0.19667929410934448,11.949304580688477,-1.2909882068634033,-21.693452835083008,-0.3912253975868225,-2.5271639823913574,0.15964071452617645,0
8,0.03499770164489746,-0.19667929410934448,-11.949304580688477,1.2909882068634033,21.693452835083008,0.3912253975868225,2.5271639823913574,-0.15964071452617645,0.0,0.0,0.0,0.0,0.0,0.0,0.0,-0.18530811275629036,0.3648598287183579,0.09351310877961137,0.45496484481565685,-0.13448989503944042,0.12429770556309287,-0.2020955420830735,0.1729030495923862,-0.48751695407366114,-0.11147039044413828,-1.9463832827785559,0.13360940522974515,2.5955503597789336,0.9452423210061258,0.1728802376190821,-0.48752024683155326,-0.11147110072896137,-1.9463801863486305,0.1336059019074957,2.595550359778934,0.9452445589611904,0.0007346445658146185,3.0415125431308876e-05,0.00035107075066297073,0.0009107482165520396,0.00043881177978692454,-0.00011525999072048311,-0.0013095396286538848,0.0,0.0,0.0,0.0,0.0,0.0,0.0,-2.2811973304087685e-05,-3.2927578921260192e-06,-7.102848230827741e-07,3.0964299253533056e-06,-3.503322249465146e-06,4.440892098500626e-16,2.2379550645990065e-06,-0.0007346445658146185,-3.0415125431308876e-05,-0.00035107075066297073,-0.0009107482165520396,-0.00043881177978692454,0.00011525999072048311,0.0013095396286538848,0.19667929410934448,11.949304580688477,-1.2909882068634033,-21.693452835083008,-0.3912253975868225,-2.5271639823913574,0.15964071452617645,0
9,0.039998769760131836,-0.19667929410934448,-11.949304580688477,1.2909882068634033,21.693452835083008,0.3912253975868225,2.5271639823913574,-0.15964071452617645,0.0,0.0,0.0,0.0,0.0,0.0,0.0,-0.18530811275629036,0.3648598287183579,0.09351310877961137,0.45496484481565685,-0.13448989503944042,0.12429770556309287,-0.2020955420830735,0.1729030495923862,-0.48751695407366114,-0.11147039044413828,-1.9463832827785559,0.13360940522974515,2.5955503597789336,0.9452423210061258,0.1728802376190821,-0.48752024683155326,-0.11147110072896137,-1.9463801863486305,0.1336059019074957,2.595550359778934,0.9452445589611904,0.0007346445658146185,3.0415125431308876e-05,0.00035107075066297073,0.0009107482165520396,0.00043881177978692454,-0.00011525999072048311,-0.0013095396286538848,0.0,0.0,0.0,0.0,0.0,0.0,0.0,-2.2811973304087685e-05,-3.2927578921260192e-06,-7.102848230827741e-07,3.0964299253533056e-06,-3.503322249465146e-06,4.440892098500626e-16,2.2379550645990065e-06,-0.0007346445658146185,-3.0415125431308876e-05,-0.00035107075066297073,-0.0009107482165520396,-0.00043881177978692454,0.00011525999072048311,0.0013095396286538848,0.19667929410934448,11.949304580688477,-1.2909882068634033,-21.693452835083008,-0.3912253975868225,-2.5271639823913574,0.15964071452617645,0
10,0.04499936103820801,-0.19667929410934448,-11.949304580688477,1.2909882068634033,21.693452835083008,0.3912253975868225,2.5271639823913574,-0.15964071452617645,0.0,0.0,0.0,0.0,0.0,0.0,0.0,-0.18530811275629036,0.3648598287183579,0.09351310877961137,0.45496484481565685,-0.13448989503944042,0.12429770556309287,-0.2020955420830735,0.1729030495923862,-0.48751695407366114,-0.11147039044413828,-1.9463832827785559,0.13360940522974515,2.5955503597789336,0.9452423210061258,0.1728802376190821,-0.48752024683155326,-0.11147110072896137,-1.9463801863486305,0.1336059019074957,2.595550359778934,0.9452445589611904,0.0007346445658146185,3.0415125431308876e-05,0.00035107075066297073,0.0009107482165520396,0.00043881177978692454,-0.00011525999072048311,-0.0013095396286538848,0.0,0.0,0.0,0.0,0.0,0.0,0.0,-2.2811973304087685e-05,-3.2927578921260192e-06,-7.102848230827741e-07,3.0964299253533056e-06,-3.503322249465146e-06,4.440892098500626e-16,2.2379550645990065e-06,-0.0007346445658146185,-3.0415125431308876e-05,-0.00035107075066297073,-0.0009107482165520396,-0.00043881177978692454,0.00011525999072048311,0.0013095396286538848,0.19667929410934448,11.949304580688477,-1.2909882068634033,-21.693452835083008,-0.3912253975868225,-2.5271639823913574,0.15964071452617645,0
11,0.0500025749206543,-0.14510458707809448,-11.949304580688477,1.3147919178009033,21.741060256958008,0.3912253975868225,2.5271639823913574,-0.20724813640117645,0.0,0.0,0.0,0.0,0.0,0.0,0.0,-0.18697098666400463,0.3525807436425796,0.09157643930657143,0.4626308097904607,-0.13479434771461932,0.1264177361769029,-0.20227947747664815,0.1728994273848876,-0.48751705618770635,-0.11147206379893317,-1.9463866236502665,0.13360818707375377,2.595550359778934,0.9452476107196676,0.1728802376190821,-0.48752024683155326,-0.11147110072896137,-1.9463801863486305,0.1336059019074957,2.595550359778934,0.9452445589611904,-0.0009901595420683613,-8.196929578013769e-05,-0.00025750115359521585,0.0003487286237669244,0.00044669914577037646,-9.141789665859974e-05,0.0003360662635330531,0.0,0.0,0.0,0.0,0.0,0.0,0.0,-1.9189765805477377e-05,-3.1906438469064824e-06,9.630699717988467e-07,6.437301635964232e-06,-2.2851662580813947e-06,0.0,-3.051758477146116e-06,0.0009901595420683613,8.196929578013769e-05,0.00025750115359521585,-0.0003487286237669244,-0.00044669914577037646,9.141789665859974e-05,-0.0003360662635330531,0.14510458707809448,11.949304580688477,-1.3147919178009033,-21.741060256958008,-0.3912253975868225,-2.5271639823913574,0.20724813640117645,0
12,0.05499911308288574,-0.14510458707809448,-11.949304580688477,1.3147919178009033,21.741060256958008,0.3912253975868225,2.5271639823913574,-0.20724813640117645,0.0,0.0,0.0,0.0,0.0,0.0,0.0,-0.18697098666400463,0.3525807436425796,0.09157643930657143,0.4626308097904607,-0.13479434771461932,0.1264177361769029,-0.20227947747664815,0.1728994273848876,-0.48751705618770635,-0.11147206379893317,-1.9463866236502665,0.13360818707375377,2.595550359778934,0.9452476107196676,0.1728802376190821,-0.48752024683155326,-0.11147110072896137,-1.9463801863486305,0.1336059019074957,2.595550359778934,0.9452445589611904,-0.0009901595420683613,-8.196929578013769e-05,-0.00025750115359521585,0.0003487286237669244,0.00044669914577037646,-9.141789665859974e-05,0.0003360662635330531,0.0,0.0,0.0,0.0,0.0,0.0,0.0,-1.9189765805477377e-05,-3.1906438469064824e-06,9.630699717988467e-07,6.437301635964232e-06,-2.2851662580813947e-06,0.0,-3.051758477146116e-06,0.0009901595420683613,8.196929578013769e-05,0.00025750115359521585,-0.0003487286237669244,-0.00044669914577037646,9.141789665859974e-05,-0.0003360662635330531,0.14510458707809448,11.949304580688477,-1.3147919178009033,-21.741060256958008,-0.3912253975868225,-2.5271639823913574,0.20724813640117645,0
13,0.06000542640686035,-0.17287558317184448,-11.949304580688477,1.2909882068634033,21.768831253051758,0.4095359444618225,2.5335726737976074,-0.20083944499492645,0.0,0.0,0.0,0.0,0.0,0.0,0.0,-0.18631769171948567,0.36146329098205715,0.093895689194923,0.45880294840933245,-0.1349034522668529,0.12569830647438443,-0.20179101360078308,0.17290137915652912,-0.4875167956757546,-0.11147039044008102,-1.9463885724920975,0.13360271537571447,2.5955496472175943,0.9452468986428446,0.1728802376190821,-0.48752024683155326,-0.11147110072896137,-1.9463801863486305,0.1336059019074957,2.595550359778934,0.9452445589611904,2.543107452470876e-05,-0.0005002751928186569,-4.4716297031298514e-05,-0.00023065833379746662,-0.0004155424937191112,-0.00023963217018635558,0.0010213027737142899,0.0,0.0,0.0,0.0,0.0,0.0,0.0,-2.1141537447005865e-05,-3.451155798639416e-06,-7.102888803511842e-07,8.386143466987406e-06,3.1865317812185268e-06,7.1256133971076e-07,-2.3396816541954024e-06,-2.543107452470876e-05,0.0005002751928186569,4.4716297031298514e-05,0.00023065833379746662,0.0004155424937191112,0.00023963217018635558,-0.0010213027737142899,0.17287558317184448,11.949304580688477,-1.2909882068634033,-21.768831253051758,-0.4095359444618225,-2.5335726737976074,0.20083944499492645,0
14,0.06501126289367676,-0.17287558317184448,-11.949304580688477,1.2909882068634033,21.768831253051758,0.4095359444618225,2.5335726737976074,-0.20083944499492645,0.0,0.0,0.0,0.0,0.0,0.0,0.0,-0.18631769171948567,0.36146329098205715,0.093895689194923,0.45880294840933245,-0.1349034522668529,0.12569830647438443,-0.20179101360078308,0.17290137915652912,-0.4875167956757546,-0.11147039044008102,-1.9463885724920975,0.13360271537571447,2.5955496472175943,0.9452468986428446,0.1728802376190821,-0.48752024683155326,-0.11147110072896137,-1.9463801863486305,0.1336059019074957,2.595550359778934,0.9452445589611904,2.543107452470876e-05,-0.0005002751928186569,-4.4716297031298514e-05,-0.00023065833379746662,-0.0004155424937191112,-0.00023963217018635558,0.0010213027737142899,0.0,0.0,0.0,0.0,0.0,0.0,0.0,-2.1141537447005865e-05,-3.451155798639416e-06,-7.102888803511842e-07,8.386143466987406e-06,3.1865317812185268e-06,7.1256133971076e-07,-2.3396816541954024e-06,-2.543107452470876e-05,0.0005002751928186569,4.4716297031298514e-05,0.00023065833379746662,0.0004155424937191112,0.00023963217018635558,-0.0010213027737142899,0.17287558317184448,11.949304580688477,-1.2909882068634033,-21.768831253051758,-0.4095359444618225,-2.5335726737976074,0.20083944499492645,0
15,0.0700063705444336,-0.19667929410934448,-11.973108291625977,1.2671844959259033,21.741060256958008,0.4095359444618225,2.5207552909851074,-0.17337362468242645,0.0,0.0,0.0,0.0,0.0,0.0,0.0,-0.1815224016225923,0.37570525204725896,0.09728903163760962,0.45293517045689863,-0.13483425722651,0.12468134166531723,-0.2005283649281695,0.1729030495923862,-0.4875153624214755,-0.11146945670815499,-1.9463866236502665,0.13360619149169245,2.595551071855754,0.9452438468850322,0.1728802376190821,-0.48752024683155326,-0.11147110072896137,-1.9463801863486305,0.1336059019074957,2.595550359778934,0.9452445589611904,0.00045000389063310056,0.00047406338110091454,0.0007405222394135403,-6.742011598113052e-05,-0.00016824602221572615,0.00016357260580984065,-0.001589154939421094,0.0,0.0,0.0,0.0,0.0,0.0,0.0,-2.2811973304087685e-05,-4.884410077787837e-06,-1.644020806379487e-06,6.437301635964232e-06,-2.8958419676095026e-07,-7.120768201751559e-07,7.120761582601887e-07,-0.00045000389063310056,-0.00047406338110091454,-0.0007405222394135403,6.742011598113052e-05,0.00016824602221572615,-0.00016357260580984065,0.001589154939421094,0.19667929410934448,11.973108291625977,-1.2671844959259033,-21.741060256958008,-0.4095359444618225,-2.5207552909851074,0.17337362468242645,0
16,0.07500553131103516,-0.19667929410934448,-11.973108291625977,1.2671844959259033,21.741060256958008,0.4095359444618225,2.5207552909851074,-0.17337362468242645,0.0,0.0,0.0,0.0,0.0,0.0,0.0,-0.1815224016225923,0.37570525204725896,0.09728903163760962,0.45293517045689863,-0.13483425722651,0.12468134166531723,-0.2005283649281695,0.1729030495923862,-0.4875153624214755,-0.11146945670815499,-1.9463866236502665,0.13360619149169245,2.595551071855754,0.9452438468850322,0.1728802376190821,-0.48752024683155326,-0.11147110072896137,-1.9463801863486305,0.1336059019074957,2.595550359778934,0.9452445589611904,0.00045000389063310056,0.00047406338110091454,0.0007405222394135403,-6.742011598113052e-05,-0.00016824602221572615,0.00016357260580984065,-0.001589154939421094,0.0,0.0,0.0,0.0,0.0,0.0,0.0,-2.2811973304087685e-05,-4.884410077787837e-06,-1.644020806379487e-06,6.437301635964232e-06,-2.8958419676095026e-07,-7.120768201751559e-07,7.120761582601887e-07,-0.00045000389063310056,-0.00047406338110091454,-0.0007405222394135403,6.742011598113052e-05,0.00016824602221572615,-0.00016357260580984065,0.001589154939421094,0.19667929410934448,11.973108291625977,-1.2671844959259033,-21.741060256958008,-0.4095359444618225,-2.5207552909851074,0.17337362468242645,0
17,0.0800020694732666,-0.17287558317184448,-11.973108291625977,1.2671844959259033,21.768831253051758,0.3976340889930725,2.5207552909851074,-0.16604940593242645,0.0,0.0,0.0,0.0,0.0,0.0,0.0,-0.18390691580976334,0.35851530830398093,0.09685132914111509,0.4636172939463699,-0.13436422226752345,0.12646953572303235,-0.2015961188695443,0.17290137915653095,-0.4875146682267321,-0.11147085087443336,-1.9463885724920975,0.13360761979113261,2.595551071855757,0.9452430330829488,0.1728802376190821,-0.48752024683155326,-0.11147110072896137,-1.9463801863486305,0.1336059019074957,2.595550359778934,0.9452445589611904,-0.00039486336454656244,-0.00019883648658695766,0.0006314687693567735,-0.00011370904503130685,3.520434677774735e-05,0.00015200253784539703,-0.0014663975160182398,0.0,0.0,0.0,0.0,0.0,0.0,0.0,-2.1141537448837733e-05,-5.578604821143696e-06,-2.498545280116282e-07,8.386143466987406e-06,-1.717883636925821e-06,-7.120768228396912e-07,1.525878241648293e-06,0.00039486336454656244,0.00019883648658695766,-0.0006314687693567735,0.00011370904503130685,-3.520434677774735e-05,-0.00015200253784539703,0.0014663975160182398,0.17287558317184448,11.973108291625977,-1.2671844959259033,-21.768831253051758,-0.3976340889930725,-2.5207552909851074,0.16604940593242645,0
18,0.08499717712402344,-0.17287558317184448,-11.973108291625977,1.2671844959259033,21.768831253051758,0.3976340889930725,2.5207552909851074,-0.16604940593242645,0.0,0.0,0.0,0.0,0.0,0.0,0.0,-0.18390691580976334,0.35851530830398093,0.09685132914111509,0.4636172939463699,-0.13436422226752345,0.12646953572303235,-0.2015961188695443,0.17290137915653095,-0.4875146682267321,-0.11147085087443336,-1.9463885724920975,0.13360761979113261,2.595551071855757,0.9452430330829488,0.1728802376190821,-0.48752024683155326,-0.11147110072896137,-1.9463801863486305,0.1336059019074957,2.595550359778934,0.9452445589611904,-0.00039486336454656244,-0.00019883648658695766,0.0006314687693567735,-0.00011370904503130685,3.520434677774735e-05,0.00015200253784539703,-0.0014663975160182398,0.0,0.0,0.0,0.0,0.0,0.0,0.0,-2.1141537448837733e-05,-5.578604821143696e-06,-2.498545280116282e-07,8.386143466987406e-06,-1.717883636925821e-06,-7.120768228396912e-07,1.525878241648293e-06,0.00039486336454656244,0.00019883648658695766,-0.0006314687693567735,0.00011370904503130685,-3.520434677774735e-05,-0.00015200253784539703,0.0014663975160182398,0.17287558317184448,11.973108291625977,-1.2671844959259033,-21.768831253051758,-0.3976340889930725,-2.5207552909851074,0.16604940593242645,0
19,0.0899956226348877,-0.19667929410934448,-12.000879287719727,1.2433807849884033,21.717256546020508,0.4031272530555725,2.5271639823913574,-0.21457235515117645,0.0,0.0,0.0,0.0,0.0,0.0,0.0,-0.183958321169632,0.3639931532206435,0.09527346226300804,0.45796367969510055,-0.13431210160404897,0.12536456408229535,-0.2020679933987606,0.1729029704874564,-0.487510602266543,-0.1114670505547304,-1.946384953214411,0.13360476944185057,2.595550359778934,0.9452484260116398,0.1728802376190821,-0.48752024683155326,-0.11147110072896137,-1.9463801863486305,0.1336059019074957,2.595550359778934,0.9452445589611904,0.0003662751878910895,0.0008093733157831017,0.0009318596576655814,0.0006194320208520053,-9.963171329453322e-05,-0.0003287098204774432,0.0009657649255830056,0.0,0.0,0.0,0.0,0.0,0.0,0.0,-2.2732868374286674e-05,-9.644565010236139e-06,-4.0501742309684285e-06,4.7668657805477466e-06,1.132465645120595e-06,0.0,-3.867050449413156e-06,-0.0003662751878910895,-0.0008093733157831017,-0.0009318596576655814,-0.0006194320208520053,9.963171329453322e-05,0.0003287098204774432,-0.0009657649255830056,0.19667929410934448,12.000879287719727,-1.2433807849884033,-21.717256546020508,-0.4031272530555725,-2.5271639823913574,0.21457235515117645,0
20,0.09499692916870117,-0.19667929410934448,-12.000879287719727,1.2433807849884033,21.717256546020508,0.4031272530555725,2.5271639823913574,-0.21457235515117645,0.0,0.0,0.0,0.0,0.0,0.0,0.0,-0.183958321169632,0.3639931532206435,0.09527346226300804,0.45796367969510055,-0.13431210160404897,0.12536456408229535,-0.2020679933987606,0.1729029704874564,-0.487510602266543,-0.1114670505547304,-1.946384953214411,0.13360476944185057,2.595550359778934,0.9452484260116398,0.1728802376190821,-0.48752024683155326,-0.11147110072896137,-1.9463801863486305,0.1336059019074957,2.595550359778934,0.9452445589611904,0.0003662751878910895,0.0008093733157831017,0.0009318596576655814,0.0006194320208520053,-9.963171329453322e-05,-0.0003287098204774432,0.0009657649255830056,0.0,0.0,0.0,0.0,0.0,0.0,0.0,-2.2732868374286674e-05,-9.644565010236139e-06,-4.0501742309684285e-06,4.7668657805477466e-06,1.132465645120595e-06,0.0,-3.867050449413156e-06,-0.0003662751878910895,-0.0008093733157831017,-0.0009318596576655814,-0.0006194320208520053,9.963171329453322e-05,0.0003287098204774432,-0.0009657649255830056,0.19667929410934448,12.000879287719727,-1.2433807849884033,-21.717256546020508,-0.4031272530555725,-2.5271639823913574,0.21457235515117645,0
21,0.09999561309814453,-0.19667929410934448,-11.973108291625977,1.2909882068634033,21.717256546020508,0.4031272530555725,2.5399813652038574,-0.21457235515117645,0.0,0.0,0.0,0.0,0.0,0.0,0.0,-0.184607146070507,0.363817107927067,0.0923795781075345,0.45642330624300714,-0.1341947386000591,0.1246202807343352,-0.20186118289457733,0.17290304959193964,-0.4875125244907335,-0.11147110105354596,-1.946384953214411,0.13360772736458934,2.5955489356252883,0.9452484245217593,0.1728802376190821,-0.48752024683155326,-0.11147110072896137,-1.9463801863486305,0.1336059019074957,2.595550359778934,0.9452445589611904,-1.2048935241706967e-05,0.0003870087494008353,-0.00026913675844768726,0.0008655415800286444,-8.376690271047324e-05,-0.0007776798467594726,0.0005820707752783356,0.0,0.0,0.0,0.0,0.0,0.0,0.0,-2.281197285752823e-05,-7.722340819749096e-06,3.2458459531259365e-10,4.7668657805477466e-06,-1.8254570936515613e-06,1.4241536456793824e-06,-3.865560568860893e-06,1.2048935241706967e-05,-0.0003870087494008353,0.00026913675844768726,-0.0008655415800286444,8.376690271047324e-05,0.0007776798467594726,-0.0005820707752783356,0.19667929410934448,11.973108291625977,-1.2909882068634033,-21.717256546020508,-0.4031272530555725,-2.5399813652038574,0.21457235515117645,0
22,0.10499739646911621,-0.19667929410934448,-11.973108291625977,1.2909882068634033,21.717256546020508,0.4031272530555725,2.5399813652038574,-0.21457235515117645,0.0,0.0,0.0,0.0,0.0,0.0,0.0,-0.184607146070507,0.363817107927067,0.0923795781075345,0.45642330624300714,-0.1341947386000591,0.1246202807343352,-0.20186118289457733,0.17290304959193964,-0.4875125244907335,-0.11147110105354596,-1.946384953214411,0.13360772736458934,2.5955489356252883,0.9452484245217593,0.1728802376190821,-0.48752024683155326,-0.11147110072896137,-1.9463801863486305,0.1336059019074957,2.595550359778934,0.9452445589611904,-1.2048935241706967e-05,0.0003870087494008353,-0.00026913675844768726,0.0008655415800286444,-8.376690271047324e-05,-0.0007776798467594726,0.0005820707752783356,0.0,0.0,0.0,0.0,0.0,0.0,0.0,-2.281197285752823e-05,-7.722340819749096e-06,3.2458459531259365e-10,4.7668657805477466e-06,-1.8254570936515613e-06,1.4241536456793824e-06,-3.865560568860893e-06,1.2048935241706967e-05,-0.0003870087494008353,0.00026913675844768726,-0.0008655415800286444,8.376690271047324e-05,0.0007776798467594726,-0.0005820707752783356,0.19667929410934448,11.973108291625977,-1.2909882068634033,-21.717256546020508,-0.4031272530555725,-2.5399813652038574,0.21457235515117645,0
23,0.10999608039855957,-0.22445029020309448,-11.973108291625977,1.2671844959259033,21.717256546020508,0.3976340889930725,2.5207552909851074,-0.23471395671367645,0.0,0.0,0.0,0.0,0.0,0.0,0.0,-0.18807340215643073,0.3542097086285494,0.08867991942294355,0.4600343837529093,-0.1333350978363256,0.12535499379023843,-0.20260552016879474,0.17290499843421736,-0.48751467872337945,-0.11147085087428607,-1.946384870798112,0.13360390307789805,2.595551071855757,0.9452506638058634,0.1728802376190821,-0.48752024683155326,-0.11147110072896137,-1.9463801863486305,0.1336059019074957,2.595550359778934,0.9452445589611904,0.0006059379087643683,-9.428732076369225e-05,0.00024284230797884287,0.0005821228322603542,4.5737548133688564e-05,0.00025484589647465066,0.0017707275008729067,0.0,0.0,0.0,0.0,0.0,0.0,0.0,-2.4760815135249636e-05,-5.56810817381459e-06,-2.498546752965902e-07,4.684449481429098e-06,1.9988295976436365e-06,-7.120768228396912e-07,-6.104844673004983e-06,-0.0006059379087643683,9.428732076369225e-05,-0.00024284230797884287,-0.0005821228322603542,-4.5737548133688564e-05,-0.00025484589647465066,-0.0017707275008729067,0.22445029020309448,11.973108291625977,-1.2671844959259033,-21.717256546020508,-0.3976340889930725,-2.5207552909851074,0.23471395671367645,0
24,0.11500239372253418,-0.22445029020309448,-11.973108291625977,1.2671844959259033,21.717256546020508,0.3976340889930725,2.5207552909851074,-0.23471395671367645,0.0,0.0,0.0,0.0,0.0,0.0,0.0,-0.18807340215643073,0.3542097086285494,0.08867991942294355,0.4600343837529093,-0.1333350978363256,0.12535499379023843,-0.20260552016879474,0.17290499843421736,-0.48751467872337945,-0.11147085087428607,-1.946384870798112,0.13360390307789805,2.595551071855757,0.9452506638058634,0.1728802376190821,-0.48752024683155326,-0.11147110072896137,-1.9463801863486305,0.1336059019074957,2.595550359778934,0.9452445589611904,0.0006059379087643683,-9.428732076369225e-05,0.00024284230797884287,0.0005821228322603542,4.5737548133688564e-05,0.00025484589647465066,0.0017707275008729067,0.0,0.0,0.0,0.0,0.0,0.0,0.0,-2.4760815135249636e-05,-5.56810817381459e-06,-2.498546752965902e-07,4.684449481429098e-06,1.9988295976436365e-06,-7.120768228396912e-07,-6.104844673004983e-06,-0.0006059379087643683,9.428732076369225e-05,-0.00024284230797884287,-0.0005821228322603542,-4.5737548133688564e-05,-0.00025484589647465066,-0.0017707275008729067,0.22445029020309448,11.973108291625977,-1.2671844959259033,-21.717256546020508,-0.3976340889930725,-2.5207552909851074,0.23471395671367645,0
25,0.12000203132629395,-0.19667929410934448,-11.973108291625977,1.2671844959259033,21.741060256958008,0.3912253975868225,2.5271639823913574,-0.20083944499492645,0.0,0.0,0.0,0.0,0.0,0.0,0.0,-0.18459192350611606,0.36105526686586764,0.09527612220901184,0.4556179603736178,-0.13384623260157855,0.12486224081976867,-0.20375149372009635,0.17290304926685152,-0.4875132274393664,-0.11146879896127523,-1.9463866236488707,0.13360904247148692,2.595550359778934,0.9452468986428672,0.1728802376190821,-0.48752024683155326,-0.11147110072896137,-1.9463801863486305,0.1336059019074957,2.595550359778934,0.9452445589611904,0.0005494129191237425,0.00012994637941910416,0.0003802566402036189,0.0002755916728116516,0.00042617560758715473,1.349990763004101e-05,0.00030513907283150993,0.0,0.0,0.0,0.0,0.0,0.0,0.0,-2.281164776940514e-05,-7.01939218683556e-06,-2.301767686133105e-06,6.4373002401918455e-06,-3.1405639912274186e-06,0.0,-2.33968167673293e-06,-0.0005494129191237425,-0.00012994637941910416,-0.0003802566402036189,-0.0002755916728116516,-0.00042617560758715473,-1.349990763004101e-05,-0.00030513907283150993,0.19667929410934448,11.973108291625977,-1.2671844959259033,-21.741060256958008,-0.3912253975868225,-2.5271639823913574,0.20083944499492645,0
26,0.12500643730163574,-0.19667929410934448,-11.973108291625977,1.2671844959259033,21.741060256958008,0.3912253975868225,2.5271639823913574,-0.20083944499492645,0.0,0.0,0.0,0.0,0.0,0.0,0.0,-0.18459192350611606,0.36105526686586764,0.09527612220901184,0.4556179603736178,-0.13384623260157855,0.12486224081976867,-0.20375149372009635,0.17290304926685152,-0.4875132274393664,-0.11146879896127523,-1.9463866236488707,0.13360904247148692,2.595550359778934,0.9452468986428672,0.1728802376190821,-0.48752024683155326,-0.11147110072896137,-1.9463801863486305,0.1336059019074957,2.595550359778934,0.9452445589611904,0.0005494129191237425,0.00012994637941910416,0.0003802566402036189,0.0002755916728116516,0.00042617560758715473,1.349990763004101e-05,0.00030513907283150993,0.0,0.0,0.0,0.0,0.0,0.0,0.0,-2.281164776940514e-05,-7.01939218683556e-06,-2.301767686133105e-06,6.4373002401918455e-06,-3.1405639912274186e-06,0.0,-2.33968167673293e-06,-0.0005494129191237425,-0.00012994637941910416,-0.0003802566402036189,-0.0002755916728116516,-0.00042617560758715473,-1.349990763004101e-05,-0.00030513907283150993,0.19667929410934448,11.973108291625977,-1.2671844959259033,-21.741060256958008,-0.3912253975868225,-2.5271639823913574,0.20083944499492645,0
27,0.13000893592834473,-0.19667929410934448,-11.973108291625977,1.2671844959259033,21.741060256958008,0.4031272530555725,2.5207552909851074,-0.17978231608867645,0.0,0.0,0.0,0.0,0.0,0.0,0.0,-0.18562487711418535,0.36118324504487487,0.09330895286568339,0.45964723068212193,-0.1339381809252287,0.12543733950125371,-0.20519116747900035,0.1729030495923856,-0.48751538754849155,-0.11147085087042322,-1.9463866236502663,0.13360690413585183,2.595551071855757,0.945244558961855,0.1728802376190821,-0.48752024683155326,-0.11147110072896137,-1.9463801863486305,0.1336059019074957,2.595550359778934,0.9452445589611904,0.0004665408504928367,0.0005643105287985538,0.0006335109461591176,0.000587862036064538,-8.492272748344849e-05,0.00027315653676804856,-0.0004690993996910265,0.0,0.0,0.0,0.0,0.0,0.0,0.0,-2.2811973303477062e-05,-4.859283061708908e-06,-2.4985853815107095e-07,6.4373016357421875e-06,-1.0022283561395007e-06,-7.120768228396912e-07,-6.645795025406187e-13,-0.0004665408504928367,-0.0005643105287985538,-0.0006335109461591176,-0.000587862036064538,8.492272748344849e-05,-0.00027315653676804856,0.0004690993996910265,0.19667929410934448,11.973108291625977,-1.2671844959259033,-21.741060256958008,-0.4031272530555725,-2.5207552909851074,0.17978231608867645,0
28,0.13505816459655762,-0.19667929410934448,-11.973108291625977,1.2671844959259033,21.741060256958008,0.4031272530555725,2.5207552909851074,-0.17978231608867645,0.0,0.0,0.0,0.0,0.0,0.0,0.0,-0.18562487711418535,0.36118324504487487,0.09330895286568339,0.45964723068212193,-0.1339381809252287,0.12543733950125371,-0.20519116747900035,0.1729030495923856,-0.48751538754849155,-0.11147085087042322,-1.9463866236502663,0.13360690413585183,2.595551071855757,0.945244558961855,0.1728802376190821,-0.48752024683155326,-0.11147110072896137,-1.9463801863486305,0.1336059019074957,2.595550359778934,0.9452445589611904,0.0004665408504928367,0.0005643105287985538,0.0006335109461591176,0.000587862036064538,-8.492272748344849e-05,0.00027315653676804856,-0.0004690993996910265,0.0,0.0,0.0,0.0,0.0,0.0,0.0,-2.2811973303477062e-05,-4.859283061708908e-06,-2.4985853815107095e-07,6.4373016357421875e-06,-1.0022283561395007e-06,-7.120768228396912e-07,-6.645795025406187e-13,-0.0004665408504928367,-0.0005643105287985538,-0.0006335109461591176,-0.000587862036064538,8.492272748344849e-05,-0.00027315653676804856,0.0004690993996910265,0.19667929410934448,11.973108291625977,-1.2671844959259033,-21.741060256958008,-0.4031272530555725,-2.5207552909851074,0.17978231608867645,0
29,0.13995575904846191,-0.14510458707809448,-11.949304580688477,1.3147919178009033,21.717256546020508,0.4031272530555725,2.5079379081726074,-0.22830526530742645,0.0,0.0,0.0,0.0,0.0,0.0,0.0,-0.18003014963272662,0.3701819935613561,0.09889690034655814,0.45579510758998354,-0.13434087984962964,0.12470551274137841,-0.20503642717180506,0.17289943031469981,-0.48751679632379125,-0.11147206121274088,-1.9463849532144109,0.13360662557916037,2.595552496009403,0.9452499504006571,0.1728802376190821,-0.48752024683155326,-0.11147110072896137,-1.9463801863486305,0.1336059019074957,2.595550359778934,0.9452445589611904,-0.00010446812915776142,0.0001094738822491538,-0.0002614872648605564,0.0007641535155498177,-5.17000016732258e-05,0.0005570075561880865,0.0015960023514655496,0.0,0.0,0.0,0.0,0.0,0.0,0.0,-1.9192695617703537e-05,-3.4505077620150537e-06,9.604837795107457e-07,4.766865780325702e-06,-7.236716646763508e-07,-2.136230468963163e-06,-5.3914394666509935e-06,0.00010446812915776142,-0.0001094738822491538,0.0002614872648605564,-0.0007641535155498177,5.17000016732258e-05,-0.0005570075561880865,-0.0015960023514655496,0.14510458707809448,11.949304580688477,-1.3147919178009033,-21.717256546020508,-0.4031272530555725,-2.5079379081726074,0.22830526530742645,0
30,0.14494657516479492,-0.14510458707809448,-11.949304580688477,1.3147919178009033,21.717256546020508,0.4031272530555725,2.5079379081726074,-0.22830526530742645,0.0,0.0,0.0,0.0,0.0,0.0,0.0,-0.18003014963272662,0.3701819935613561,0.09889690034655814,0.45579510758998354,-0.13434087984962964,0.12470551274137841,-0.20503642717180506,0.17289943031469981,-0.48751679632379125,-0.11147206121274088,-1.9463849532144109,0.13360662557916037,2.595552496009403,0.9452499504006571,0.1728802376190821,-0.48752024683155326,-0.11147110072896137,-1.9463801863486305,0.1336059019074957,2.595550359778934,0.9452445589611904,-0.00010446812915776142,0.0001094738822491538,-0.0002614872648605564,0.0007641535155498177,-5.17000016732258e-05,0.0005570075561880865,0.0015960023514655496,0.0,0.0,0.0,0.0,0.0,0.0,0.0,-1.9192695617703537e-05,-3.4505077620150537e-06,9.604837795107457e-07,4.766865780325702e-06,-7.236716646763508e-07,-2.136230468963163e-06,-5.3914394666509935e-06,0.00010446812915776142,-0.0001094738822491538,0.0002614872648605564,-0.0007641535155498177,5.17000016732258e-05,-0.0005570075561880865,-0.0015960023514655496,0.14510458707809448,11.949304580688477,-1.3147919178009033,-21.717256546020508,-0.4031272530555725,-2.5079379081726074,0.22830526530742645,0
31,0.14999866485595703,-0.17287558317184448,-11.973108291625977,1.2671844959259033,21.741060256958008,0.4150291085243225,2.5207552909851074,-0.21457235515117645,0.0,0.0,0.0,0.0,0.0,0.0,0.0,-0.18546626859108464,0.354060029320181,0.08780909442058148,0.46477888652147215,-0.133658673416155,0.12585601115503592,-0.2052600269465041,0.17290137915653095,-0.4875153885591389,-0.11146872000422582,-1.9463866236502663,0.13360640955127334,2.595551071855757,0.9452484245217508,0.1728802376190821,-0.48752024683155326,-0.11147110072896137,-1.9463801863486305,0.1336059019074957,2.595550359778934,0.9452445589611904,-0.00048615941960598007,0.00044894813446075835,0.0006484815309181212,7.256003155410153e-05,-0.000512259450428997,0.00036738402407070046,0.00029773634393952947,0.0,0.0,0.0,0.0,0.0,0.0,0.0,-2.1141537448837733e-05,-4.858272414365317e-06,-2.380724735545625e-06,6.4373016357421875e-06,-5.076437776529996e-07,-7.120768228396912e-07,-3.865560560423198e-06,0.00048615941960598007,-0.00044894813446075835,-0.0006484815309181212,-7.256003155410153e-05,0.000512259450428997,-0.00036738402407070046,-0.00029773634393952947,0.17287558317184448,11.973108291625977,-1.2671844959259033,-21.741060256958008,-0.4150291085243225,-2.5207552909851074,0.21457235515117645,0
32,0.1550004482269287,-0.17287558317184448,-11.973108291625977,1.2671844959259033,21.741060256958008,0.4150291085243225,2.5207552909851074,-0.21457235515117645,0.0,0.0,0.0,0.0,0.0,0.0,0.0,-0.18546626859108464,0.354060029320181,0.08780909442058148,0.46477888652147215,-0.133658673416155,0.12585601115503592,-0.2052600269465041,0.17290137915653095,-0.4875153885591389,-0.11146872000422582,-1.9463866236502663,0.13360640955127334,2.595551071855757,0.9452484245217508,0.1728802376190821,-0.48752024683155326,-0.11147110072896137,-1.9463801863486305,0.1336059019074957,2.595550359778934,0.9452445589611904,-0.00048615941960598007,0.00044894813446075835,0.0006484815309181212,7.256003155410153e-05,-0.000512259450428997,0.00036738402407070046,0.00029773634393952947,0.0,0.0,0.0,0.0,0.0,0.0,0.0,-2.1141537448837733e-05,-4.858272414365317e-06,-2.380724735545625e-06,6.4373016357421875e-06,-5.076437776529996e-07,-7.120768228396912e-07,-3.865560560423198e-06,0.00048615941960598007,-0.00044894813446075835,-0.0006484815309181212,-7.256003155410153e-05,0.000512259450428997,-0.00036738402407070046,-0.00029773634393952947,0.17287558317184448,11.973108291625977,-1.2671844959259033,-21.741060256958008,-0.4150291085243225,-2.5207552909851074,0.21457235515117645,0
33,0.15999960899353027,-0.22445029020309448,-11.973108291625977,1.3147919178009033,21.741060256958008,0.4031272530555725,2.5271639823913574,-0.22098104655742645,0.0,0.0,0.0,0.0,0.0,0.0,0.0,-0.18074338527726241,0.34879472564673397,0.09738057365812068,0.46753290621599225,-0.13360445280643773,0.12630145591190597,-0.2083646713454423,0.17290499843421736,-0.4875132354438963,-0.11147209021418064,-1.9463866236502663,0.13360773193173275,2.595550359778934,0.9452491365985738,0.1728802376190821,-0.48752024683155326,-0.11147110072896137,-1.9463801863486305,0.1336059019074957,2.595550359778934,0.9452445589611904,0.0012087325969698177,-0.00047069160251239097,-0.00059933918640612,0.0006776039440175885,-0.0001137660514219796,0.00010019342222840191,0.0008955805999473423,0.0,0.0,0.0,0.0,0.0,0.0,0.0,-2.4760815135249636e-05,-7.011387656963297e-06,9.89485219274333e-07,6.4373016357421875e-06,-1.83002423706502e-06,0.0,-4.5776373833739115e-06,-0.0012087325969698177,0.00047069160251239097,0.00059933918640612,-0.0006776039440175885,0.0001137660514219796,-0.00010019342222840191,-0.0008955805999473423,0.22445029020309448,11.973108291625977,-1.3147919178009033,-21.741060256958008,-0.4031272530555725,-2.5271639823913574,0.22098104655742645,0
34,0.16499948501586914,-0.22445029020309448,-11.973108291625977,1.3147919178009033,21.741060256958008,0.4031272530555725,2.5271639823913574,-0.22098104655742645,0.0,0.0,0.0,0.0,0.0,0.0,0.0,-0.18074338527726241,0.34879472564673397,0.09738057365812068,0.46753290621599225,-0.13360445280643773,0.12630145591190597,-0.2083646713454423,0.17290499843421736,-0.4875132354438963,-0.11147209021418064,-1.9463866236502663,0.13360773193173275,2.595550359778934,0.9452491365985738,0.1728802376190821,-0.48752024683155326,-0.11147110072896137,-1.9463801863486305,0.1336059019074957,2.595550359778934,0.9452445589611904,0.0012087325969698177,-0.00047069160251239097,-0.00059933918640612,0.0006776039440175885,-0.0001137660514219796,0.00010019342222840191,0.0008955805999473423,0.0,0.0,0.0,0.0,0.0,0.0,0.0,-2.4760815135249636e-05,-7.011387656963297e-06,9.89485219274333e-07,6.4373016357421875e-06,-1.83002423706502e-06,0.0,-4.5776373833739115e-06,-0.0012087325969698177,0.00047069160251239097,0.00059933918640612,-0.0006776039440175885,0.0001137660514219796,-0.00010019342222840191,-0.0008955805999473423,0.22445029020309448,11.973108291625977,-1.3147919178009033,-21.741060256958008,-0.4031272530555725,-2.5271639823913574,0.22098104655742645,0
35,0.17001032829284668,-0.22445029020309448,-11.973108291625977,1.3147919178009033,21.741060256958008,0.4031272530555725,2.5271639823913574,-0.22098104655742645,0.0,0.0,0.0,0.0,0.0,0.0,0.0,-0.18074338527726241,0.34879472564673397,0.09738057365812068,0.46753290621599225,-0.13360445280643773,0.12630145591190597,-0.2083646713454423,0.17290499843421736,-0.4875132354438963,-0.11147209021418064,-1.9463866236502663,0.13360773193173275,2.595550359778934,0.9452491365985738,0.1728802376190821,-0.48752024683155326,-0.11147110072896137,-1.9463801863486305,0.1336059019074957,2.595550359778934,0.9452445589611904,0.0012087325969698177,-0.00047069160251239097,-0.00059933918640612,0.0006776039440175885,-0.0001137660514219796,0.00010019342222840191,0.0008955805999473423,0.0,0.0,0.0,0.0,0.0,0.0,0.0,-2.4760815135249636e-05,-7.011387656963297e-06,9.89485219274333e-07,6.4373016357421875e-06,-1.83002423706502e-06,0.0,-4.5776373833739115e-06,-0.0012087325969698177,0.00047069160251239097,0.00059933918640612,-0.0006776039440175885,0.0001137660514219796,-0.00010019342222840191,-0.0008955805999473423,0.22445029020309448,11.973108291625977,-1.3147919178009033,-21.741060256958008,-0.4031272530555725,-2.5271639823913574,0.22098104655742645,0
36,0.17499876022338867,-0.22445029020309448,-11.973108291625977,1.3147919178009033,21.741060256958008,0.4031272530555725,2.5271639823913574,-0.22098104655742645,0.0,0.0,0.0,0.0,0.0,0.0,0.0,-0.18074338527726241,0.34879472564673397,0.09738057365812068,0.46753290621599225,-0.13360445280643773,0.12630145591190597,-0.2083646713454423,0.17290499843421736,-0.4875132354438963,-0.11147209021418064,-1.9463866236502663,0.13360773193173275,2.595550359778934,0.9452491365985738,0.1728802376190821,-0.48752024683155326,-0.11147110072896137,-1.9463801863486305,0.1336059019074957,2.595550359778934,0.9452445589611904,0.0012087325969698177,-0.00047069160251239097,-0.00059933918640612,0.0006776039440175885,-0.0001137660514219796,0.00010019342222840191,0.0008955805999473423,0.0,0.0,0.0,0.0,0.0,0.0,0.0,-2.4760815135249636e-05,-7.011387656963297e-06,9.89485219274333e-07,6.4373016357421875e-06,-1.83002423706502e-06,0.0,-4.5776373833739115e-06,-0.0012087325969698177,0.00047069160251239097,0.00059933918640612,-0.0006776039440175885,0.0001137660514219796,-0.00010019342222840191,-0.0008955805999473423,0.22445029020309448,11.973108291625977,-1.3147919178009033,-21.741060256958008,-0.4031272530555725,-2.5271639823913574,0.22098104655742645,0
37,0.17999649047851562,-0.17287558317184448,-12.000879287719727,1.2433807849884033,21.741060256958008,0.4031272530555725,2.5271639823913574,-0.17978231608867645,0.0,0.0,0.0,0.0,0.0,0.0,0.0,-0.1822989408030225,0.3605813947528496,0.0947598846550974,0.45963090919432104,-0.13391205079240473,0.12494709766009451,-0.20977234606021114,0.17290137915653095,-0.4875106012503909,-0.11146705054286718,-1.9463866236502663,0.13360346640071694,2.595550359778934,0.945244558961855,0.1728802376190821,-0.48752024683155326,-0.11147110072896137,-1.9463801863486305,0.1336059019074957,2.595550359778934,0.9452445589611904,-0.0004480759806112934,0.00047285107540454187,0.0010185087574877793,0.00022805719912341477,-0.00018008714511511938,-7.648608095386636e-05,-0.0004116457633014919,0.0,0.0,0.0,0.0,0.0,0.0,0.0,-2.1141537448837733e-05,-9.645581162343042e-06,-4.050186094187169e-06,6.4373016357421875e-06,2.435506778752927e-06,0.0,-6.645795025406187e-13,0.0004480759806112934,-0.00047285107540454187,-0.0010185087574877793,-0.00022805719912341477,0.00018008714511511938,7.648608095386636e-05,0.0004116457633014919,0.17287558317184448,12.000879287719727,-1.2433807849884033,-21.741060256958008,-0.4031272530555725,-2.5271639823913574,0.17978231608867645,0
38,0.18500804901123047,-0.17287558317184448,-12.000879287719727,1.2433807849884033,21.741060256958008,0.4031272530555725,2.5271639823913574,-0.17978231608867645,0.0,0.0,0.0,0.0,0.0,0.0,0.0,-0.1822989408030225,0.3605813947528496,0.0947598846550974,0.45963090919432104,-0.13391205079240473,0.12494709766009451,-0.20977234606021114,0.17290137915653095,-0.4875106012503909,-0.11146705054286718,-1.9463866236502663,0.13360346640071694,2.595550359778934,0.945244558961855,0.1728802376190821,-0.48752024683155326,-0.11147110072896137,-1.9463801863486305,0.1336059019074957,2.595550359778934,0.9452445589611904,-0.0004480759806112934,0.00047285107540454187,0.0010185087574877793,0.00022805719912341477,-0.00018008714511511938,-7.648608095386636e-05,-0.0004116457633014919,0.0,0.0,0.0,0.0,0.0,0.0,0.0,-2.1141537448837733e-05,-9.645581162343042e-06,-4.050186094187169e-06,6.4373016357421875e-06,2.435506778752927e-06,0.0,-6.645795025406187e-13,0.0004480759806112934,-0.00047285107540454187,-0.0010185087574877793,-0.00022805719912341477,0.00018008714511511938,7.648608095386636e-05,0.0004116457633014919,0.17287558317184448,12.000879287719727,-1.2433807849884033,-21.741060256958008,-0.4031272530555725,-2.5271639823913574,0.17978231608867645,0
39,0.19003915786743164,-0.17287558317184448,-11.973108291625977,1.3147919178009033,21.741060256958008,0.4031272530555725,2.5271639823913574,-0.17337362468242645,0.0,0.0,0.0,0.0,0.0,0.0,0.0,-0.18606582963382817,0.3605307136595836,0.08769776701395278,0.4581390717290338,-0.13381598914837758,0.12473151081809686,-0.20862625046059818,0.17290127368329122,-0.4875130255705469,-0.11147213979690479,-1.9463866236502663,0.1336048839949199,2.595550359778934,0.9452438468850322,0.1728802376190821,-0.48752024683155326,-0.11147110072896137,-1.9463801863486305,0.1336059019074957,2.595550359778934,0.9452445589611904,-0.0006477077701009231,-5.4270250925296994e-05,-0.001132155828426952,3.363500715228869e-05,-4.4357692453559847e-05,-1.602242662250947e-05,-0.0007452487913011031,0.0,0.0,0.0,0.0,0.0,0.0,0.0,-2.1036064209112304e-05,-7.2212610063848715e-06,1.039067943423011e-06,6.4373016357421875e-06,1.017912575784763e-06,0.0,7.120761582601887e-07,0.0006477077701009231,5.4270250925296994e-05,0.001132155828426952,-3.363500715228869e-05,4.4357692453559847e-05,1.602242662250947e-05,0.0007452487913011031,0.17287558317184448,11.973108291625977,-1.3147919178009033,-21.741060256958008,-0.4031272530555725,-2.5271639823913574,0.17337362468242645,0
40,0.19500279426574707,-0.17287558317184448,-11.973108291625977,1.3147919178009033,21.741060256958008,0.4031272530555725,2.5271639823913574,-0.17337362468242645,0.0,0.0,0.0,0.0,0.0,0.0,0.0,-0.18606582963382817,0.3605307136595836,0.08769776701395278,0.4581390717290338,-0.13381598914837758,0.12473151081809686,-0.20862625046059818,0.17290127368329122,-0.4875130255705469,-0.11147213979690479,-1.9463866236502663,0.1336048839949199,2.595550359778934,0.9452438468850322,0.1728802376190821,-0.48752024683155326,-0.11147110072896137,-1.9463801863486305,0.1336059019074957,2.595550359778934,0.9452445589611904,-0.0006477077701009231,-5.4270250925296994e-05,-0.001132155828426952,3.363500715228869e-05,-4.4357692453559847e-05,-1.602242662250947e-05,-0.0007452487913011031,0.0,0.0,0.0,0.0,0.0,0.0,0.0,-2.1036064209112304e-05,-7.2212610063848715e-06,1.039067943423011e-06,6.4373016357421875e-06,1.017912575784763e-06,0.0,7.120761582601887e-07,0.0006477077701009231,5.4270250925296994e-05,0.001132155828426952,-3.363500715228869e-05,4.4357692453559847e-05,1.602242662250947e-05,0.0007452487913011031,0.17287558317184448,11.973108291625977,-1.3147919178009033,-21.741060256958008,-0.4031272530555725,-2.5271639823913574,0.17337362468242645,0
41,0.20000004768371582,-0.17287558317184448,-11.973108291625977,1.2671844959259033,21.768831253051758,0.3976340889930725,2.5335726737976074,-0.22098104655742645,0.0,0.0,0.0,0.0,0.0,0.0,0.0,-0.1847467410924995,0.3466628445611762,0.09176977959759279,0.4637685034241726,-0.1331902526476655,0.12589178222485353,-0.2079552026453329,0.17290137915593554,-0.4875145983691053,-0.11146879892563427,-1.9463885728191461,0.13360544321643372,2.5955496472175943,0.9452491365985738,0.1728802376190821,-0.48752024683155326,-0.11147110072896137,-1.9463801863486305,0.1336059019074957,2.595550359778934,0.9452445589611904,-7.6815017590258e-05,-0.0005266499619972064,9.25327376595947e-05,-0.0004638285573113275,0.00030870447678911506,-0.0003880093813699685,0.001175076238804018,0.0,0.0,0.0,0.0,0.0,0.0,0.0,-2.1141536853425125e-05,-5.648462447938041e-06,-2.3018033270955085e-06,8.386470515597821e-06,4.5869106196638754e-07,7.1256133971076e-07,-4.5776373833739115e-06,7.6815017590258e-05,0.0005266499619972064,-9.25327376595947e-05,0.0004638285573113275,-0.00030870447678911506,0.0003880093813699685,-0.001175076238804018,0.17287558317184448,11.973108291625977,-1.2671844959259033,-21.768831253051758,-0.3976340889930725,-2.5335726737976074,0.22098104655742645,0
42,0.2074265480041504,-0.17287558317184448,-11.973108291625977,1.2671844959259033,21.768831253051758,0.3976340889930725,2.5335726737976074,-0.22098104655742645,0.0,0.0,0.0,0.0,0.0,0.0,0.0,-0.1847467410924995,0.3466628445611762,0.09176977959759279,0.4637685034241726,-0.1331902526476655,0.12589178222485353,-0.2079552026453329,0.17290137915593554,-0.4875145983691053,-0.11146879892563427,-1.9463885728191461,0.13360544321643372,2.5955496472175943,0.9452491365985738,0.1728802376190821,-0.48752024683155326,-0.11147110072896137,-1.9463801863486305,0.1336059019074957,2.595550359778934,0.9452445589611904,-7.6815017590258e-05,-0.0005266499619972064,9.25327376595947e-05,-0.0004638285573113275,0.00030870447678911506,-0.0003880093813699685,0.001175076238804018,0.0,0.0,0.0,0.0,0.0,0.0,0.0,-2.1141536853425125e-05,-5.648462447938041e-06,-2.3018033270955085e-06,8.386470515597821e-06,4.5869106196638754e-07,7.1256133971076e-07,-4.5776373833739115e-06,7.6815017590258e-05,0.0005266499619972064,-9.25327376595947e-05,0.0004638285573113275,-0.00030870447678911506,0.0003880093813699685,-0.001175076238804018,0.17287558317184448,11.973108291625977,-1.2671844959259033,-21.768831253051758,-0.3976340889930725,-2.5335726737976074,0.22098104655742645,0
43,0.2099595069885254,-0.17287558317184448,-11.973108291625977,1.2909882068634033,21.741060256958008,0.3976340889930725,2.5271639823913574,-0.16604940593242645,0.0,0.0,0.0,0.0,0.0,0.0,0.0,-0.18265300926525463,0.35657722960214605,0.09228337090235146,0.4584088683738283,-0.13318854717416592,0.12541560331594176,-0.20775255146294988,0.1729013674372821,-0.48751514953698305,-0.11147047033582244,-1.9463866236502683,0.13360751300709317,2.5955503597789313,0.9452430330829488,0.1728802376190821,-0.48752024683155326,-0.11147110072896137,-1.9463801863486305,0.1336059019074957,2.595550359778934,0.9452445589611904,-4.3804011015164546e-05,0.0003505756792683571,4.946278433130324e-05,0.00018412352912658856,0.0001097221796506194,-0.00024641511782366173,-0.0008289474828721121,0.0,0.0,0.0,0.0,0.0,0.0,0.0,-2.1129818199988604e-05,-5.0972945702110195e-06,-6.303931389256556e-07,6.437301637740589e-06,-1.6110995974816245e-06,2.6645352591003757e-15,1.525878241648293e-06,4.3804011015164546e-05,-0.0003505756792683571,-4.946278433130324e-05,-0.00018412352912658856,-0.0001097221796506194,0.00024641511782366173,0.0008289474828721121,0.17287558317184448,11.973108291625977,-1.2909882068634033,-21.741060256958008,-0.3976340889930725,-2.5271639823913574,0.16604940593242645,0
44,0.21500062942504883,-0.17287558317184448,-11.973108291625977,1.2909882068634033,21.741060256958008,0.3976340889930725,2.5271639823913574,-0.16604940593242645,0.0,0.0,0.0,0.0,0.0,0.0,0.0,-0.18265300926525463,0.35657722960214605,0.09228337090235146,0.4584088683738283,-0.13318854717416592,0.12541560331594176,-0.20775255146294988,0.1729013674372821,-0.48751514953698305,-0.11147047033582244,-1.9463866236502683,0.13360751300709317,2.5955503597789313,0.9452430330829488,0.1728802376190821,-0.48752024683155326,-0.11147110072896137,-1.9463801863486305,0.1336059019074957,2.595550359778934,0.9452445589611904,-4.3804011015164546e-05,0.0003505756792683571,4.946278433130324e-05,0.00018412352912658856,0.0001097221796506194,-0.00024641511782366173,-0.0008289474828721121,0.0,0.0,0.0,0.0,0.0,0.0,0.0,-2.1129818199988604e-05,-5.0972945702110195e-06,-6.303931389256556e-07,6.437301637740589e-06,-1.6110995974816245e-06,2.6645352591003757e-15,1.525878241648293e-06,4.3804011015164546e-05,-0.0003505756792683571,-4.946278433130324e-05,-0.00018412352912658856,-0.0001097221796506194,0.00024641511782366173,0.0008289474828721121,0.17287558317184448,11.973108291625977,-1.2909882068634033,-21.741060256958008,-0.3976340889930725,-2.5271639823913574,0.16604940593242645,0
45,0.2199993133544922,-0.14510458707809448,-11.973108291625977,1.2909882068634033,21.768831253051758,0.4031272530555725,2.5207552909851074,-0.17337362468242645,0.0,0.0,0.0,0.0,0.0,0.0,0.0,-0.1861247421346292,0.3571502836888706,0.0841692155949821,0.4593884851705007,-0.13290652378422196,0.125561104462571,-0.2065433165138324,0.17289942998896665,-0.48751298853616853,-0.11147039044143223,-1.9463885724920975,0.133607020964737,2.595551071855757,0.9452427872469028,0.1728802376190821,-0.48752024683155326,-0.11147110072896137,-1.9463801863486305,0.1336059019074957,2.595550359778934,0.9452445589611904,-0.000915413006106379,0.0004901039302803338,-0.0006258845447374217,-0.00040876054196460957,-0.00023393674598755294,0.00021579300006358823,-0.0008285700824838025,0.0,0.0,0.0,0.0,0.0,0.0,0.0,-1.9192369884540872e-05,-7.258295384726665e-06,-7.102875291403743e-07,8.386143466987406e-06,-1.1190572413166677e-06,-7.120768228396912e-07,1.7717142876128023e-06,0.000915413006106379,-0.0004901039302803338,0.0006258845447374217,0.00040876054196460957,0.00023393674598755294,-0.00021579300006358823,0.0008285700824838025,0.14510458707809448,11.973108291625977,-1.2909882068634033,-21.768831253051758,-0.4031272530555725,-2.5207552909851074,0.17337362468242645,0
46,0.22499799728393555,-0.14510458707809448,-11.973108291625977,1.2909882068634033,21.768831253051758,0.4031272530555725,2.5207552909851074,-0.17337362468242645,0.0,0.0,0.0,0.0,0.0,0.0,0.0,-0.1861247421346292,0.3571502836888706,0.0841692155949821,0.4593884851705007,-0.13290652378422196,0.125561104462571,-0.2065433165138324,0.17289942998896665,-0.48751298853616853,-0.11147039044143223,-1.9463885724920975,0.133607020964737,2.595551071855757,0.9452427872469028,0.1728802376190821,-0.48752024683155326,-0.11147110072896137,-1.9463801863486305,0.1336059019074957,2.595550359778934,0.9452445589611904,-0.000915413006106379,0.0004901039302803338,-0.0006258845447374217,-0.00040876054196460957,-0.00023393674598755294,0.00021579300006358823,-0.0008285700824838025,0.0,0.0,0.0,0.0,0.0,0.0,0.0,-1.9192369884540872e-05,-7.258295384726665e-06,-7.102875291403743e-07,8.386143466987406e-06,-1.1190572413166677e-06,-7.120768228396912e-07,1.7717142876128023e-06,0.000915413006106379,-0.0004901039302803338,0.0006258845447374217,0.00040876054196460957,0.00023393674598755294,-0.00021579300006358823,0.0008285700824838025,0.14510458707809448,11.973108291625977,-1.2909882068634033,-21.768831253051758,-0.4031272530555725,-2.5207552909851074,0.17337362468242645,0
47,0.22999787330627441,-0.14510458707809448,-11.973108291625977,1.2909882068634033,21.768831253051758,0.4031272530555725,2.5207552909851074,-0.17337362468242645,0.0,0.0,0.0,0.0,0.0,0.0,0.0,-0.1861247421346292,0.3571502836888706,0.0841692155949821,0.4593884851705007,-0.13290652378422196,0.125561104462571,-0.2065433165138324,0.17289942998896665,-0.48751298853616853,-0.11147039044143223,-1.9463885724920975,0.133607020964737,2.595551071855757,0.9452427872469028,0.1728802376190821,-0.48752024683155326,-0.11147110072896137,-1.9463801863486305,0.1336059019074957,2.595550359778934,0.9452445589611904,-0.000915413006106379,0.0004901039302803338,-0.0006258845447374217,-0.00040876054196460957,-0.00023393674598755294,0.00021579300006358823,-0.0008285700824838025,0.0,0.0,0.0,0.0,0.0,0.0,0.0,-1.9192369884540872e-05,-7.258295384726665e-06,-7.102875291403743e-07,8.386143466987406e-06,-1.1190572413166677e-06,-7.120768228396912e-07,1.7717142876128023e-06,0.000915413006106379,-0.0004901039302803338,0.0006258845447374217,0.00040876054196460957,0.00023393674598755294,-0.00021579300006358823,0.0008285700824838025,0.14510458707809448,11.973108291625977,-1.2909882068634033,-21.768831253051758,-0.4031272530555725,-2.5207552909851074,0.17337362468242645,0
48,0.23499679565429688,-0.19667929410934448,-11.949304580688477,1.3147919178009033,21.717256546020508,0.4031272530555725,2.5143465995788574,-0.19351522624492645,0.0,0.0,0.0,0.0,0.0,0.0,0.0,-0.1761548640856699,0.36309374277384365,0.09684482587672427,0.4588391418701583,-0.1335938705505048,0.1257433039944152,-0.20460449088396884,0.1729028122775962,-0.4875141194772988,-0.11147206088796326,-1.946384953214411,0.13360796891471188,2.5955517839325797,0.9452460848387675,0.1728802376190821,-0.48752024683155326,-0.11147110072896137,-1.9463801863486305,0.1336059019074957,2.595550359778934,0.9452445589611904,0.000537502180282612,6.866917292857755e-05,-0.000467700738206137,0.00045241524071069764,-0.00019810519569151065,0.0004707682399654902,-6.04310608994373e-05,0.0,0.0,0.0,0.0,0.0,0.0,0.0,-2.2574658514101786e-05,-6.127354254481521e-06,9.601590018892825e-07,4.7668657805477466e-06,-2.06700721619435e-06,-1.4241536456793824e-06,-1.5258775770687905e-06,-0.000537502180282612,-6.866917292857755e-05,0.000467700738206137,-0.00045241524071069764,0.00019810519569151065,-0.0004707682399654902,6.04310608994373e-05,0.19667929410934448,11.949304580688477,-1.3147919178009033,-21.717256546020508,-0.4031272530555725,-2.5143465995788574,0.19351522624492645,0
49,0.23999929428100586,-0.19667929410934448,-11.949304580688477,1.3147919178009033,21.717256546020508,0.4031272530555725,2.5143465995788574,-0.19351522624492645,0.0,0.0,0.0,0.0,0.0,0.0,0.0,-0.1761548640856699,0.36309374277384365,0.09684482587672427,0.4588391418701583,-0.1335938705505048,0.1257433039944152,-0.20460449088396884,0.1729028122775962,-0.4875141194772988,-0.11147206088796326,-1.946384953214411,0.13360796891471188,2.5955517839325797,0.9452460848387675,0.1728802376190821,-0.48752024683155326,-0.11147110072896137,-1.9463801863486305,0.1336059019074957,2.595550359778934,0.9452445589611904,0.000537502180282612,6.866917292857755e-05,-0.000467700738206137,0.00045241524071069764,-0.00019810519569151065,0.0004707682399654902,-6.04310608994373e-05,0.0,0.0,0.0,0.0,0.0,0.0,0.0,-2.2574658514101786e-05,-6.127354254481521e-06,9.601590018892825e-07,4.7668657805477466e-06,-2.06700721619435e-06,-1.4241536456793824e-06,-1.5258775770687905e-06,-0.000537502180282612,-6.866917292857755e-05,0.000467700738206137,-0.00045241524071069764,0.00019810519569151065,-0.0004707682399654902,6.04310608994373e-05,0.19667929410934448,11.949304580688477,-1.3147919178009033,-21.717256546020508,-0.4031272530555725,-2.5143465995788574,0.19351522624492645,0
50,0.24500203132629395,-0.12130087614059448,-11.973108291625977,1.2909882068634033,21.717256546020508,0.3857322335243225,2.5271639823913574,-0.17337362468242645,0.0,0.0,0.0,0.0,0.0,0.0,0.0,-0.18329282134920283,0.3575736336296077,0.08950784462510762,0.46158512794308126,-0.13317272343993997,0.12637045979326803,-0.204468512148215,0.1728977598775049,-0.4875131713792355,-0.11147039044007925,-1.946384953214411,0.13360633418492776,2.595550359778934,0.9452438464005154,0.1728802376190821,-0.48752024683155326,-0.11147110072896137,-1.9463801863486305,0.1336059019074957,2.595550359778934,0.9452445589611904,-0.0014494377172282185,0.00018991513251319874,8.658865852710571e-05,0.0003486145680950575,0.0005925825693174597,-3.339170762557983e-05,-0.0008137346891089108,0.0,0.0,0.0,0.0,0.0,0.0,0.0,-1.7522258422775217e-05,-7.0754523177618545e-06,-7.102888821136633e-07,4.7668657805477466e-06,-4.322774320719702e-07,0.0,7.125606750202351e-07,0.0014494377172282185,-0.00018991513251319874,-8.658865852710571e-05,-0.0003486145680950575,-0.0005925825693174597,3.339170762557983e-05,0.0008137346891089108,0.12130087614059448,11.973108291625977,-1.2909882068634033,-21.717256546020508,-0.3857322335243225,-2.5271639823913574,0.17337362468242645,0
51,0.2500026226043701,-0.12130087614059448,-11.973108291625977,1.2909882068634033,21.717256546020508,0.3857322335243225,2.5271639823913574,-0.17337362468242645,0.0,0.0,0.0,0.0,0.0,0.0,0.0,-0.18329282134920283,0.3575736336296077,0.08950784462510762,0.46158512794308126,-0.13317272343993997,0.12637045979326803,-0.204468512148215,0.1728977598775049,-0.4875131713792355,-0.11147039044007925,-1.946384953214411,0.13360633418492776,2.595550359778934,0.9452438464005154,0.1728802376190821,-0.48752024683155326,-0.11147110072896137,-1.9463801863486305,0.1336059019074957,2.595550359778934,0.9452445589611904,-0.0014494377172282185,0.00018991513251319874,8.658865852710571e-05,0.0003486145680950575,0.0005925825693174597,-3.339170762557983e-05,-0.0008137346891089108,0.0,0.0,0.0,0.0,0.0,0.0,0.0,-1.7522258422775217e-05,-7.0754523177618545e-06,-7.102888821136633e-07,4.7668657805477466e-06,-4.322774320719702e-07,0.0,7.125606750202351e-07,0.0014494377172282185,-0.00018991513251319874,-8.658865852710571e-05,-0.0003486145680950575,-0.0005925825693174597,3.339170762557983e-05,0.0008137346891089108,0.12130087614059448,11.973108291625977,-1.2909882068634033,-21.717256546020508,-0.3857322335243225,-2.5271639823913574,0.17337362468242645,0
52,0.2550172805786133,-0.14510458707809448,-11.973108291625977,1.2671844959259033,21.717256546020508,0.4095359444618225,2.5335726737976074,-0.22098104655742645,0.0,0.0,0.0,0.0,0.0,0.0,0.0,-0.17988153509775695,0.35970518066417806,0.09616471899142252,0.4594493474415277,-0.13379373536337433,0.12582714837321182,-0.2029617309770208,0.17289943031469981,-0.4875129973482617,-0.11146895676711845,-1.946384953214411,0.13360595455033095,2.595549647702111,0.945249136598571,0.1728802376190821,-0.48752024683155326,-0.11147110072896137,-1.9463801863486305,0.1336059019074957,2.595550359778934,0.9452445589611904,-0.0007405760542877243,0.0004911328767782522,0.0008977805115519898,0.0006034643517456255,-0.0003182017374451393,-0.00036733993409121676,0.0010339115715937114,0.0,0.0,0.0,0.0,0.0,0.0,0.0,-1.9192695617703537e-05,-7.249483291560388e-06,-2.1439618429208718e-06,4.7668657805477466e-06,-5.264283525763247e-08,7.120768228396912e-07,-4.577637380598354e-06,0.0007405760542877243,-0.0004911328767782522,-0.0008977805115519898,-0.0006034643517456255,0.0003182017374451393,0.00036733993409121676,-0.0010339115715937114,0.14510458707809448,11.973108291625977,-1.2671844959259033,-21.717256546020508,-0.4095359444618225,-2.5335726737976074,0.22098104655742645,0
53,0.26004862785339355,-0.14510458707809448,-11.973108291625977,1.2671844959259033,21.717256546020508,0.4095359444618225,2.5335726737976074,-0.22098104655742645,0.0,0.0,0.0,0.0,0.0,0.0,0.0,-0.17988153509775695,0.35970518066417806,0.09616471899142252,0.4594493474415277,-0.13379373536337433,0.12582714837321182,-0.2029617309770208,0.17289943031469981,-0.4875129973482617,-0.11146895676711845,-1.946384953214411,0.13360595455033095,2.595549647702111,0.945249136598571,0.1728802376190821,-0.48752024683155326,-0.11147110072896137,-1.9463801863486305,0.1336059019074957,2.595550359778934,0.9452445589611904,-0.0007405760542877243,0.0004911328767782522,0.0008977805115519898,0.0006034643517456255,-0.0003182017374451393,-0.00036733993409121676,0.0010339115715937114,0.0,0.0,0.0,0.0,0.0,0.0,0.0,-1.9192695617703537e-05,-7.249483291560388e-06,-2.1439618429208718e-06,4.7668657805477466e-06,-5.264283525763247e-08,7.120768228396912e-07,-4.577637380598354e-06,0.0007405760542877243,-0.0004911328767782522,-0.0008977805115519898,-0.0006034643517456255,0.0003182017374451393,0.00036733993409121676,-0.0010339115715937114,0.14510458707809448,11.973108291625977,-1.2671844959259033,-21.717256546020508,-0.4095359444618225,-2.5335726737976074,0.22098104655742645,0
54,0.2650134563446045,-0.17287558317184448,-11.925500869750977,1.3425629138946533,21.741060256958008,0.3976340889930725,2.5271639823913574,-0.13858358561992645,0.0,0.0,0.0,0.0,0.0,0.0,0.0,-0.18216556645919654,0.3690461660401655,0.09301149986211535,0.45215469604812175,-0.1338291800716169,0.12452184993565425,-0.20349663431970427,0.17290137915653095,-0.4875187294188338,-0.1114747229307844,-1.9463866236502665,0.1336076308408146,2.595550359778934,0.9452399813251363,0.1728802376190821,-0.48752024683155326,-0.11147110072896137,-1.9463801863486305,0.1336059019074957,2.595550359778934,0.9452445589611904,-9.635224083418676e-06,-0.0008275204119488744,-0.0014811901045125512,-0.00017757119867104846,1.5776584783422935e-05,-0.0001450768213737982,-0.0022622028771174803,0.0,0.0,0.0,0.0,0.0,0.0,0.0,-2.1141537448837733e-05,-1.517412719476141e-06,3.622201823039184e-06,6.437301635964232e-06,-1.7289333189007827e-06,0.0,4.577636054103884e-06,9.635224083418676e-06,0.0008275204119488744,0.0014811901045125512,0.00017757119867104846,-1.5776584783422935e-05,0.0001450768213737982,0.0022622028771174803,0.17287558317184448,11.925500869750977,-1.3425629138946533,-21.741060256958008,-0.3976340889930725,-2.5271639823913574,0.13858358561992645,0
55,0.26995182037353516,-0.17287558317184448,-11.925500869750977,1.3425629138946533,21.741060256958008,0.3976340889930725,2.5271639823913574,-0.13858358561992645,0.0,0.0,0.0,0.0,0.0,0.0,0.0,-0.18216556645919654,0.3690461660401655,0.09301149986211535,0.45215469604812175,-0.1338291800716169,0.12452184993565425,-0.20349663431970427,0.17290137915653095,-0.4875187294188338,-0.1114747229307844,-1.9463866236502665,0.1336076308408146,2.595550359778934,0.9452399813251363,0.1728802376190821,-0.48752024683155326,-0.11147110072896137,-1.9463801863486305,0.1336059019074957,2.595550359778934,0.9452445589611904,-9.635224083418676e-06,-0.0008275204119488744,-0.0014811901045125512,-0.00017757119867104846,1.5776584783422935e-05,-0.0001450768213737982,-0.0022622028771174803,0.0,0.0,0.0,0.0,0.0,0.0,0.0,-2.1141537448837733e-05,-1.517412719476141e-06,3.622201823039184e-06,6.437301635964232e-06,-1.7289333189007827e-06,0.0,4.577636054103884e-06,9.635224083418676e-06,0.0008275204119488744,0.0014811901045125512,0.00017757119867104846,-1.5776584783422935e-05,0.0001450768213737982,0.0022622028771174803,0.17287558317184448,11.925500869750977,-1.3425629138946533,-21.741060256958008,-0.3976340889930725,-2.5271639823913574,0.13858358561992645,0
56,0.27503252029418945,-0.17287558317184448,-12.024682998657227,1.2909882068634033,21.741060256958008,0.3976340889930725,2.5207552909851074,-0.17978231608867645,0.0,0.0,0.0,0.0,0.0,0.0,0.0,-0.1871412056651953,0.34714806893581723,0.08557822787562602,0.46532593951765816,-0.13361771654892743,0.12630441829037595,-0.20321367367087143,0.1729012999430896,-0.4875094072809454,-0.1114703904801917,-1.9463866236502665,0.13360427620833112,2.595551071855757,0.945244558961855,0.1728802376190821,-0.48752024683155326,-0.11147110072896137,-1.9463801863486305,0.1336059019074957,2.595550359778934,0.9452445589611904,-0.0007183308229374278,0.0009567467860041438,-0.0005432456223054644,0.0002856397145043219,0.0002256028416963325,-9.192339741274549e-05,-0.0023101559050762313,0.0,0.0,0.0,0.0,0.0,0.0,0.0,-2.1062324007475874e-05,-1.0839550607877335e-05,-7.102487696725168e-07,6.437301635964232e-06,1.6256991645646757e-06,-7.120768228396912e-07,-6.645795025406187e-13,0.0007183308229374278,-0.0009567467860041438,0.0005432456223054644,-0.0002856397145043219,-0.0002256028416963325,9.192339741274549e-05,0.0023101559050762313,0.17287558317184448,12.024682998657227,-1.2909882068634033,-21.741060256958008,-0.3976340889930725,-2.5207552909851074,0.17978231608867645,0
57,0.2799992561340332,-0.17287558317184448,-12.024682998657227,1.2909882068634033,21.741060256958008,0.3976340889930725,2.5207552909851074,-0.17978231608867645,0.0,0.0,0.0,0.0,0.0,0.0,0.0,-0.1871412056651953,0.34714806893581723,0.08557822787562602,0.46532593951765816,-0.13361771654892743,0.12630441829037595,-0.20321367367087143,0.1729012999430896,-0.4875094072809454,-0.1114703904801917,-1.9463866236502665,0.13360427620833112,2.595551071855757,0.945244558961855,0.1728802376190821,-0.48752024683155326,-0.11147110072896137,-1.9463801863486305,0.1336059019074957,2.595550359778934,0.9452445589611904,-0.0007183308229374278,0.0009567467860041438,-0.0005432456223054644,0.0002856397145043219,0.0002256028416963325,-9.192339741274549e-05,-0.0023101559050762313,0.0,0.0,0.0,0.0,0.0,0.0,0.0,-2.1062324007475874e-05,-1.0839550607877335e-05,-7.102487696725168e-07,6.437301635964232e-06,1.6256991645646757e-06,-7.120768228396912e-07,-6.645795025406187e-13,0.0007183308229374278,-0.0009567467860041438,0.0005432456223054644,-0.0002856397145043219,-0.0002256028416963325,9.192339741274549e-05,0.0023101559050762313,0.17287558317184448,12.024682998657227,-1.2909882068634033,-21.741060256958008,-0.3976340889930725,-2.5207552909851074,0.17978231608867645,0
58,0.28742527961730957,-0.17287558317184448,-11.973108291625977,1.2671844959259033,21.792634963989258,0.3912253975868225,2.5207552909851074,-0.20724813640117645,0.0,0.0,0.0,0.0,0.0,0.0,0.0,-0.17928880542099734,0.3600160971342232,0.09662677427558003,0.45936624549247757,-0.1346315075665222,0.12411643251159869,-0.20335957873343158,0.17290137915518947,-0.4875125540966306,-0.11146895676711913,-1.9463902429279527,0.13360514471821902,2.595551071855757,0.9452476107196676,0.1728802376190821,-0.48752024683155326,-0.11147110072896137,-1.9463801863486305,0.1336059019074957,2.595550359778934,0.9452445589611904,-0.00020674565558494287,-1.7534483979929872e-05,0.0002103657886543452,-0.0008722453411620044,0.0003819283896063574,0.00019352187904691045,0.0006699543724866674,0.0,0.0,0.0,0.0,0.0,0.0,0.0,-2.1141536107355252e-05,-7.692734922681854e-06,-2.14396184224086e-06,1.0056579322181847e-05,7.571892766677912e-07,-7.120768228396912e-07,-3.051758477146116e-06,0.00020674565558494287,1.7534483979929872e-05,-0.0002103657886543452,0.0008722453411620044,-0.0003819283896063574,-0.00019352187904691045,-0.0006699543724866674,0.17287558317184448,11.973108291625977,-1.2671844959259033,-21.792634963989258,-0.3912253975868225,-2.5207552909851074,0.20724813640117645,0
59,0.290008544921875,-0.17287558317184448,-11.973108291625977,1.2671844959259033,21.792634963989258,0.3912253975868225,2.5207552909851074,-0.20724813640117645,0.0,0.0,0.0,0.0,0.0,0.0,0.0,-0.17928880542099734,0.3600160971342232,0.09662677427558003,0.45936624549247757,-0.1346315075665222,0.12411643251159869,-0.20335957873343158,0.17290137915518947,-0.4875125540966306,-0.11146895676711913,-1.9463902429279527,0.13360514471821902,2.595551071855757,0.9452476107196676,0.1728802376190821,-0.48752024683155326,-0.11147110072896137,-1.9463801863486305,0.1336059019074957,2.595550359778934,0.9452445589611904,-0.00020674565558494287,-1.7534483979929872e-05,0.0002103657886543452,-0.0008722453411620044,0.0003819283896063574,0.00019352187904691045,0.0006699543724866674,0.0,0.0,0.0,0.0,0.0,0.0,0.0,-2.1141536107355252e-05,-7.692734922681854e-06,-2.14396184224086e-06,1.0056579322181847e-05,7.571892766677912e-07,-7.120768228396912e-07,-3.051758477146116e-06,0.00020674565558494287,1.7534483979929872e-05,-0.0002103657886543452,0.0008722453411620044,-0.0003819283896063574,-0.00019352187904691045,-0.0006699543724866674,0.17287558317184448,11.973108291625977,-1.2671844959259033,-21.792634963989258,-0.3912253975868225,-2.5207552909851074,0.20724813640117645,0
60,0.2950100898742676,-0.17287558317184448,-11.949304580688477,1.2909882068634033,21.768831253051758,0.3976340889930725,2.5207552909851074,-0.17337362468242645,0.0,0.0,0.0,0.0,0.0,0.0,0.0,-0.17530404510771508,0.3564394696791485,0.0993112718415179,0.462366207245554,-0.13506732355461679,0.12452390842386571,-0.20236398894243063,0.17290137915653095,-0.4875167149892993,-0.11147113580519265,-1.9463885724920975,0.13360869921437743,2.595551071855757,0.9452437291474622,0.1728802376190821,-0.48752024683155326,-0.11147110072896137,-1.9463801863486305,0.1336059019074957,2.595550359778934,0.9452445589611904,0.00023400657707247662,-0.0005264641508170093,0.0003823768599252945,-0.00047948233307194203,0.00021946067085121032,0.00018327418491395544,-0.0007926079782924368,0.0,0.0,0.0,0.0,0.0,0.0,0.0,-2.1141537448837733e-05,-3.5318422539343253e-06,3.5076231280628534e-08,8.386143466987406e-06,-2.7973068817410685e-06,-7.120768228396912e-07,8.29813728175921e-07,-0.00023400657707247662,0.0005264641508170093,-0.0003823768599252945,0.00047948233307194203,-0.00021946067085121032,-0.00018327418491395544,0.0007926079782924368,0.17287558317184448,11.949304580688477,-1.2909882068634033,-21.768831253051758,-0.3976340889930725,-2.5207552909851074,0.17337362468242645,0
61,0.300001859664917,-0.17287558317184448,-11.949304580688477,1.2909882068634033,21.768831253051758,0.3976340889930725,2.5207552909851074,-0.17337362468242645,0.0,0.0,0.0,0.0,0.0,0.0,0.0,-0.17530404510771508,0.3564394696791485,0.0993112718415179,0.462366207245554,-0.13506732355461679,0.12452390842386571,-0.20236398894243063,0.17290137915653095,-0.4875167149892993,-0.11147113580519265,-1.9463885724920975,0.13360869921437743,2.595551071855757,0.9452437291474622,0.1728802376190821,-0.48752024683155326,-0.11147110072896137,-1.9463801863486305,0.1336059019074957,2.595550359778934,0.9452445589611904,0.00023400657707247662,-0.0005264641508170093,0.0003823768599252945,-0.00047948233307194203,0.00021946067085121032,0.00018327418491395544,-0.0007926079782924368,0.0,0.0,0.0,0.0,0.0,0.0,0.0,-2.1141537448837733e-05,-3.5318422539343253e-06,3.5076231280628534e-08,8.386143466987406e-06,-2.7973068817410685e-06,-7.120768228396912e-07,8.29813728175921e-07,-0.00023400657707247662,0.0005264641508170093,-0.0003823768599252945,0.00047948233307194203,-0.00021946067085121032,-0.00018327418491395544,0.0007926079782924368,0.17287558317184448,11.949304580688477,-1.2909882068634033,-21.768831253051758,-0.3976340889930725,-2.5207552909851074,0.17337362468242645,0
62,0.3050098419189453,-0.22445029020309448,-11.949304580688477,1.2909882068634033,21.741060256958008,0.3912253975868225,2.5335726737976074,-0.23471395671367645,0.0,0.0,0.0,0.0,0.0,0.0,0.0,-0.18386313753048014,0.34390636586486256,0.08546235114530648,0.4700719640554067,-0.13427024808897867,0.1258180735055702,-0.20222522792815661,0.17290499843421736,-0.4875170548902744,-0.11147062720718132,-1.9463866236502665,0.13360834357572604,2.595549647702111,0.9452506624768154,0.1728802376190821,-0.48752024683155326,-0.11147110072896137,-1.9463801863486305,0.1336059019074957,2.595550359778934,0.9452445589611904,0.0011381227724556544,-0.0010902096769493743,-0.00013034802415109512,0.0005060864344234417,0.00022150660203518096,-0.0002856792311450987,0.0018607967422632232,0.0,0.0,0.0,0.0,0.0,0.0,0.0,-2.4760815135249636e-05,-3.1919412788461443e-06,-4.7352178005055645e-07,6.437301635964232e-06,-2.4416682303518566e-06,7.120768228396912e-07,-6.1035156250222045e-06,-0.0011381227724556544,0.0010902096769493743,0.00013034802415109512,-0.0005060864344234417,-0.00022150660203518096,0.0002856792311450987,-0.0018607967422632232,0.22445029020309448,11.949304580688477,-1.2909882068634033,-21.741060256958008,-0.3912253975868225,-2.5335726737976074,0.23471395671367645,0
63,0.31001734733581543,-0.22445029020309448,-11.949304580688477,1.2909882068634033,21.741060256958008,0.3912253975868225,2.5335726737976074,-0.23471395671367645,0.0,0.0,0.0,0.0,0.0,0.0,0.0,-0.18386313753048014,0.34390636586486256,0.08546235114530648,0.4700719640554067,-0.13427024808897867,0.1258180735055702,-0.20222522792815661,0.17290499843421736,-0.4875170548902744,-0.11147062720718132,-1.9463866236502665,0.13360834357572604,2.595549647702111,0.9452506624768154,0.1728802376190821,-0.48752024683155326,-0.11147110072896137,-1.9463801863486305,0.1336059019074957,2.595550359778934,0.9452445589611904,0.0011381227724556544,-0.0010902096769493743,-0.00013034802415109512,0.0005060864344234417,0.00022150660203518096,-0.0002856792311450987,0.0018607967422632232,0.0,0.0,0.0,0.0,0.0,0.0,0.0,-2.4760815135249636e-05,-3.1919412788461443e-06,-4.7352178005055645e-07,6.437301635964232e-06,-2.4416682303518566e-06,7.120768228396912e-07,-6.1035156250222045e-06,-0.0011381227724556544,0.0010902096769493743,0.00013034802415109512,-0.0005060864344234417,-0.00022150660203518096,0.0002856792311450987,-0.0018607967422632232,0.22445029020309448,11.949304580688477,-1.2909882068634033,-21.741060256958008,-0.3912253975868225,-2.5335726737976074,0.23471395671367645,0
64,0.3150002956390381,-0.22445029020309448,-11.949304580688477,1.2909882068634033,21.741060256958008,0.3912253975868225,2.5335726737976074,-0.23471395671367645,0.0,0.0,0.0,0.0,0.0,0.0,0.0,-0.18386313753048014,0.34390636586486256,0.08546235114530648,0.4700719640554067,-0.13427024808897867,0.1258180735055702,-0.20222522792815661,0.17290499843421736,-0.4875170548902744,-0.11147062720718132,-1.9463866236502665,0.13360834357572604,2.595549647702111,0.9452506624768154,0.1728802376190821,-0.48752024683155326,-0.11147110072896137,-1.9463801863486305,0.1336059019074957,2.595550359778934,0.9452445589611904,0.0011381227724556544,-0.0010902096769493743,-0.00013034802415109512,0.0005060864344234417,0.00022150660203518096,-0.0002856792311450987,0.0018607967422632232,0.0,0.0,0.0,0.0,0.0,0.0,0.0,-2.4760815135249636e-05,-3.1919412788461443e-06,-4.7352178005055645e-07,6.437301635964232e-06,-2.4416682303518566e-06,7.120768228396912e-07,-6.1035156250222045e-06,-0.0011381227724556544,0.0010902096769493743,0.00013034802415109512,-0.0005060864344234417,-0.00022150660203518096,0.0002856792311450987,-0.0018607967422632232,0.22445029020309448,11.949304580688477,-1.2909882068634033,-21.741060256958008,-0.3912253975868225,-2.5335726737976074,0.23471395671367645,0
65,0.3200111389160156,-0.22445029020309448,-11.949304580688477,1.2909882068634033,21.741060256958008,0.3912253975868225,2.5335726737976074,-0.23471395671367645,0.0,0.0,0.0,0.0,0.0,0.0,0.0,-0.18386313753048014,0.34390636586486256,0.08546235114530648,0.4700719640554067,-0.13427024808897867,0.1258180735055702,-0.20222522792815661,0.17290499843421736,-0.4875170548902744,-0.11147062720718132,-1.9463866236502665,0.13360834357572604,2.595549647702111,0.9452506624768154,0.1728802376190821,-0.48752024683155326,-0.11147110072896137,-1.9463801863486305,0.1336059019074957,2.595550359778934,0.9452445589611904,0.0011381227724556544,-0.0010902096769493743,-0.00013034802415109512,0.0005060864344234417,0.00022150660203518096,-0.0002856792311450987,0.0018607967422632232,0.0,0.0,0.0,0.0,0.0,0.0,0.0,-2.4760815135249636e-05,-3.1919412788461443e-06,-4.7352178005055645e-07,6.437301635964232e-06,-2.4416682303518566e-06,7.120768228396912e-07,-6.1035156250222045e-06,-0.0011381227724556544,0.0010902096769493743,0.00013034802415109512,-0.0005060864344234417,-0.00022150660203518096,0.0002856792311450987,-0.0018607967422632232,0.22445029020309448,11.949304580688477,-1.2909882068634033,-21.741060256958008,-0.3912253975868225,-2.5335726737976074,0.23471395671367645,0
66,0.3249955177307129,-0.22445029020309448,-11.949304580688477,1.2909882068634033,21.768831253051758,0.4095359444618225,2.5271639823913574,-0.20724813640117645,0.0,0.0,0.0,0.0,0.0,0.0,0.0,-0.1807616334672075,0.3489774600988929,0.09256961508529331,0.4648463057909717,-0.13523887767357137,0.12579862491549634,-0.2022173665798025,0.17290499843421736,-0.48751624446874625,-0.11147039054878391,-1.9463885724920975,0.13360298009333924,2.595550359778934,0.9452476092661173,0.1728802376190821,-0.48752024683155326,-0.11147110072896137,-1.9463801863486305,0.1336059019074957,2.595550359778934,0.9452445589611904,0.0011215476647560847,-0.0011031488733474744,-2.5773209154725662e-05,-0.0005717879744801154,-0.0002529367820198827,-0.00012446887669325302,0.0003850975720631987,0.0,0.0,0.0,0.0,0.0,0.0,0.0,-2.4760815135249636e-05,-4.002362807009607e-06,-7.101801774572758e-07,8.386143466987406e-06,2.9218141564535394e-06,0.0,-3.0503049268659765e-06,-0.0011215476647560847,0.0011031488733474744,2.5773209154725662e-05,0.0005717879744801154,0.0002529367820198827,0.00012446887669325302,-0.0003850975720631987,0.22445029020309448,11.949304580688477,-1.2909882068634033,-21.768831253051758,-0.4095359444618225,-2.5271639823913574,0.20724813640117645,0
67,0.33000683784484863,-0.22445029020309448,-11.949304580688477,1.2909882068634033,21.768831253051758,0.4095359444618225,2.5271639823913574,-0.20724813640117645,0.0,0.0,0.0,0.0,0.0,0.0,0.0,-0.1807616334672075,0.3489774600988929,0.09256961508529331,0.4648463057909717,-0.13523887767357137,0.12579862491549634,-0.2022173665798025,0.17290499843421736,-0.48751624446874625,-0.11147039054878391,-1.9463885724920975,0.13360298009333924,2.595550359778934,0.9452476092661173,0.1728802376190821,-0.48752024683155326,-0.11147110072896137,-1.9463801863486305,0.1336059019074957,2.595550359778934,0.9452445589611904,0.0011215476647560847,-0.0011031488733474744,-2.5773209154725662e-05,-0.0005717879744801154,-0.0002529367820198827,-0.00012446887669325302,0.0003850975720631987,0.0,0.0,0.0,0.0,0.0,0.0,0.0,-2.4760815135249636e-05,-4.002362807009607e-06,-7.101801774572758e-07,8.386143466987406e-06,2.9218141564535394e-06,0.0,-3.0503049268659765e-06,-0.0011215476647560847,0.0011031488733474744,2.5773209154725662e-05,0.0005717879744801154,0.0002529367820198827,0.00012446887669325302,-0.0003850975720631987,0.22445029020309448,11.949304580688477,-1.2909882068634033,-21.768831253051758,-0.4095359444618225,-2.5271639823913574,0.20724813640117645,0
68,0.33499813079833984,-0.17287558317184448,-11.925500869750977,1.2671844959259033,21.741060256958008,0.4031272530555725,2.5271639823913574,-0.17337362468242645,0.0,0.0,0.0,0.0,0.0,0.0,0.0,-0.1787015489888287,0.3579779328784106,0.0961743310922532,0.4598259462851707,-0.13461491723687213,0.12523193476746178,-0.20183299608754277,0.17290137915653095,-0.4875158940227483,-0.11146872877322021,-1.9463866236502665,0.1336080888083984,2.595550359778934,0.9452438468850294,0.1728802376190821,-0.48752024683155326,-0.11147110072896137,-1.9463801863486305,0.1336059019074957,2.595550359778934,0.9452445589611904,-0.000290459397547879,-0.000849794550578486,0.000943091038153514,0.0004949736436958972,-0.00013853601102216918,-6.992120374756665e-05,-0.001003099533322051,0.0,0.0,0.0,0.0,0.0,0.0,0.0,-2.1141537448837733e-05,-4.352808804952701e-06,-2.371955741153897e-06,6.437301635964232e-06,-2.1869009027009056e-06,0.0,7.120761610357462e-07,0.000290459397547879,0.000849794550578486,-0.000943091038153514,-0.0004949736436958972,0.00013853601102216918,6.992120374756665e-05,0.001003099533322051,0.17287558317184448,11.925500869750977,-1.2671844959259033,-21.741060256958008,-0.4031272530555725,-2.5271639823913574,0.17337362468242645,0
69,0.340010404586792,-0.17287558317184448,-11.925500869750977,1.2671844959259033,21.741060256958008,0.4031272530555725,2.5271639823913574,-0.17337362468242645,0.0,0.0,0.0,0.0,0.0,0.0,0.0,-0.1787015489888287,0.3579779328784106,0.0961743310922532,0.4598259462851707,-0.13461491723687213,0.12523193476746178,-0.20183299608754277,0.17290137915653095,-0.4875158940227483,-0.11146872877322021,-1.9463866236502665,0.1336080888083984,2.595550359778934,0.9452438468850294,0.1728802376190821,-0.48752024683155326,-0.11147110072896137,-1.9463801863486305,0.1336059019074957,2.595550359778934,0.9452445589611904,-0.000290459397547879,-0.000849794550578486,0.000943091038153514,0.0004949736436958972,-0.00013853601102216918,-6.992120374756665e-05,-0.001003099533322051,0.0,0.0,0.0,0.0,0.0,0.0,0.0,-2.1141537448837733e-05,-4.352808804952701e-06,-2.371955741153897e-06,6.437301635964232e-06,-2.1869009027009056e-06,0.0,7.120761610357462e-07,0.000290459397547879,0.000849794550578486,-0.000943091038153514,-0.0004949736436958972,0.00013853601102216918,6.992120374756665e-05,0.001003099533322051,0.17287558317184448,11.925500869750977,-1.2671844959259033,-21.741060256958008,-0.4031272530555725,-2.5271639823913574,0.17337362468242645,0
70,0.3450005054473877,-0.14510458707809448,-11.973108291625977,1.2909882068634033,21.768831253051758,0.4031272530555725,2.5207552909851074,-0.22098104655742645,0.0,0.0,0.0,0.0,0.0,0.0,0.0,-0.175313944909982,0.3568900540273104,0.10079498671400841,0.46063692177351084,-0.1345926940723732,0.1255719772221692,-0.20271437043179438,0.17289943031469981,-0.4875125190904021,-0.11147039044012869,-1.9463885724920975,0.1336048840751852,2.595551071855757,0.9452491365985738,0.1728802376190821,-0.48752024683155326,-0.11147110072896137,-1.9463801863486305,0.1336059019074957,2.595550359778934,0.9452445589611904,-0.00045867382081258646,0.0005690905813961642,0.0004998214991260245,-0.0004042744711828327,-0.00019636098465246183,0.00022264645723982056,0.0010911489062889266,0.0,0.0,0.0,0.0,0.0,0.0,0.0,-1.9192695617703537e-05,-7.727741151153378e-06,-7.102888326809831e-07,8.386143466987406e-06,1.017832310490352e-06,-7.120768228396912e-07,-4.5776373833739115e-06,0.00045867382081258646,-0.0005690905813961642,-0.0004998214991260245,0.0004042744711828327,0.00019636098465246183,-0.00022264645723982056,-0.0010911489062889266,0.14510458707809448,11.973108291625977,-1.2909882068634033,-21.768831253051758,-0.4031272530555725,-2.5207552909851074,0.22098104655742645,0
71,0.34999847412109375,-0.14510458707809448,-11.973108291625977,1.2909882068634033,21.768831253051758,0.4031272530555725,2.5207552909851074,-0.22098104655742645,0.0,0.0,0.0,0.0,0.0,0.0,0.0,-0.175313944909982,0.3568900540273104,0.10079498671400841,0.46063692177351084,-0.1345926940723732,0.1255719772221692,-0.20271437043179438,0.17289943031469981,-0.4875125190904021,-0.11147039044012869,-1.9463885724920975,0.1336048840751852,2.595551071855757,0.9452491365985738,0.1728802376190821,-0.48752024683155326,-0.11147110072896137,-1.9463801863486305,0.1336059019074957,2.595550359778934,0.9452445589611904,-0.00045867382081258646,0.0005690905813961642,0.0004998214991260245,-0.0004042744711828327,-0.00019636098465246183,0.00022264645723982056,0.0010911489062889266,0.0,0.0,0.0,0.0,0.0,0.0,0.0,-1.9192695617703537e-05,-7.727741151153378e-06,-7.102888326809831e-07,8.386143466987406e-06,1.017832310490352e-06,-7.120768228396912e-07,-4.5776373833739115e-06,0.00045867382081258646,-0.0005690905813961642,-0.0004998214991260245,0.0004042744711828327,0.00019636098465246183,-0.00022264645723982056,-0.0010911489062889266,0.14510458707809448,11.973108291625977,-1.2909882068634033,-21.768831253051758,-0.4031272530555725,-2.5207552909851074,0.22098104655742645,0
72,0.35500001907348633,-0.17287558317184448,-11.949304580688477,1.3425629138946533,21.768831253051758,0.3976340889930725,2.5335726737976074,-0.17337362468242645,0.0,0.0,0.0,0.0,0.0,0.0,0.0,-0.1768110717943295,0.3537112800103388,0.09704796318811483,0.46328843021864713,-0.13431592224920091,0.12612736627111362,-0.20417004052135893,0.17290137915653095,-0.48751419442237603,-0.11147424648066012,-1.9463885724920975,0.13360751300738227,2.595549647702111,0.9452438467235266,0.1728802376190821,-0.48752024683155326,-0.11147110072896137,-1.9463801863486305,0.1336059019074957,2.595550359778934,0.9452445589611904,0.00031101046905592997,-0.0003167354607117735,-0.0010924515383886895,-0.0002917535160435444,-2.1258021628962065e-05,-0.00022824085818145816,-0.0012134511776132843,0.0,0.0,0.0,0.0,0.0,0.0,0.0,-2.1141537448837733e-05,-6.05240917722627e-06,3.1457516987548617e-06,8.386143466987406e-06,-1.6110998865837e-06,7.120768228396912e-07,7.122376638468708e-07,-0.00031101046905592997,0.0003167354607117735,0.0010924515383886895,0.0002917535160435444,2.1258021628962065e-05,0.00022824085818145816,0.0012134511776132843,0.17287558317184448,11.949304580688477,-1.3425629138946533,-21.768831253051758,-0.3976340889930725,-2.5335726737976074,0.17337362468242645,0
73,0.3600001335144043,-0.17287558317184448,-11.949304580688477,1.3425629138946533,21.768831253051758,0.3976340889930725,2.5335726737976074,-0.17337362468242645,0.0,0.0,0.0,0.0,0.0,0.0,0.0,-0.1768110717943295,0.3537112800103388,0.09704796318811483,0.46328843021864713,-0.13431592224920091,0.12612736627111362,-0.20417004052135893,0.17290137915653095,-0.48751419442237603,-0.11147424648066012,-1.9463885724920975,0.13360751300738227,2.595549647702111,0.9452438467235266,0.1728802376190821,-0.48752024683155326,-0.11147110072896137,-1.9463801863486305,0.1336059019074957,2.595550359778934,0.9452445589611904,0.00031101046905592997,-0.0003167354607117735,-0.0010924515383886895,-0.0002917535160435444,-2.1258021628962065e-05,-0.00022824085818145816,-0.0012134511776132843,0.0,0.0,0.0,0.0,0.0,0.0,0.0,-2.1141537448837733e-05,-6.05240917722627e-06,3.1457516987548617e-06,8.386143466987406e-06,-1.6110998865837e-06,7.120768228396912e-07,7.122376638468708e-07,-0.00031101046905592997,0.0003167354607117735,0.0010924515383886895,0.0002917535160435444,2.1258021628962065e-05,0.00022824085818145816,0.0012134511776132843,0.17287558317184448,11.949304580688477,-1.3425629138946533,-21.768831253051758,-0.3976340889930725,-2.5335726737976074,0.17337362468242645,0
74,0.36500978469848633,-0.19667929410934448,-11.949304580688477,1.3147919178009033,21.768831253051758,0.4031272530555725,2.5207552909851074,-0.21457235515117645,0.0,0.0,0.0,0.0,0.0,0.0,0.0,-0.1766694271463571,0.3486910049425156,0.09785429538772433,0.467431028551051,-0.13446933536798902,0.12699482976589285,-0.205133142284873,0.17290302322407627,-0.48751490370344386,-0.1114722976401655,-1.9463885724920975,0.13360792938276742,2.595551071855757,0.9452480713090401,0.1728802376190821,-0.48752024683155326,-0.11147110072896137,-1.9463801863486305,0.1336059019074957,2.595550359778934,0.9452445589611904,0.00046773285843132776,-0.0008250228282747087,-0.00024465447904423675,-0.0002442960483942897,-0.00011012813346850984,0.00011525090340194511,0.0011311661531308787,0.0,0.0,0.0,0.0,0.0,0.0,0.0,-2.2785604994163267e-05,-5.3431281094029615e-06,1.1969112041348984e-06,8.386143466987406e-06,-2.02747527172642e-06,-7.120768228396912e-07,-3.5123478496768e-06,-0.00046773285843132776,0.0008250228282747087,0.00024465447904423675,0.0002442960483942897,0.00011012813346850984,-0.00011525090340194511,-0.0011311661531308787,0.19667929410934448,11.949304580688477,-1.3147919178009033,-21.768831253051758,-0.4031272530555725,-2.5207552909851074,0.21457235515117645,0
75,0.37000560760498047,-0.19667929410934448,-11.949304580688477,1.3147919178009033,21.768831253051758,0.4031272530555725,2.5207552909851074,-0.21457235515117645,0.0,0.0,0.0,0.0,0.0,0.0,0.0,-0.1766694271463571,0.3486910049425156,0.09785429538772433,0.467431028551051,-0.13446933536798902,0.12699482976589285,-0.205133142284873,0.17290302322407627,-0.48751490370344386,-0.1114722976401655,-1.9463885724920975,0.13360792938276742,2.595551071855757,0.9452480713090401,0.1728802376190821,-0.48752024683155326,-0.11147110072896137,-1.9463801863486305,0.1336059019074957,2.595550359778934,0.9452445589611904,0.00046773285843132776,-0.0008250228282747087,-0.00024465447904423675,-0.0002442960483942897,-0.00011012813346850984,0.00011525090340194511,0.0011311661531308787,0.0,0.0,0.0,0.0,0.0,0.0,0.0,-2.2785604994163267e-05,-5.3431281094029615e-06,1.1969112041348984e-06,8.386143466987406e-06,-2.02747527172642e-06,-7.120768228396912e-07,-3.5123478496768e-06,-0.00046773285843132776,0.0008250228282747087,0.00024465447904423675,0.0002442960483942897,0.00011012813346850984,-0.00011525090340194511,-0.0011311661531308787,0.19667929410934448,11.949304580688477,-1.3147919178009033,-21.768831253051758,-0.4031272530555725,-2.5207552909851074,0.21457235515117645,0
76,0.37499547004699707,-0.17287558317184448,-12.000879287719727,1.2671844959259033,21.768831253051758,0.4031272530555725,2.5207552909851074,-0.20724813640117645,0.0,0.0,0.0,0.0,0.0,0.0,0.0,-0.17998262203771845,0.3494229142328713,0.09629873736768034,0.4682417193856577,-0.13460088102907114,0.12667700195993198,-0.20509940757510753,0.1729013791563821,-0.48751271822080866,-0.11146872004164686,-1.9463885724920975,0.13360797023399817,2.595551071855757,0.9452476107176737,0.1728802376190821,-0.48752024683155326,-0.11147110072896137,-1.9463801863486305,0.1336059019074957,2.595550359778934,0.9452445589611904,-0.00017892351100846668,0.00026629357351760767,6.369779101988163e-05,-0.0002602492954318621,-0.00022696181288027367,0.0003419412320841501,0.0006911855418160679,0.0,0.0,0.0,0.0,0.0,0.0,0.0,-2.114153729998458e-05,-7.528610744600428e-06,-2.380687314507135e-06,8.386143466987406e-06,-2.0683265024856734e-06,-7.120768228396912e-07,-3.051756483296586e-06,0.00017892351100846668,-0.00026629357351760767,-6.369779101988163e-05,0.0002602492954318621,0.00022696181288027367,-0.0003419412320841501,-0.0006911855418160679,0.17287558317184448,12.000879287719727,-1.2671844959259033,-21.768831253051758,-0.4031272530555725,-2.5207552909851074,0.20724813640117645,0
77,0.3800022602081299,-0.17287558317184448,-12.000879287719727,1.2671844959259033,21.768831253051758,0.4031272530555725,2.5207552909851074,-0.20724813640117645,0.0,0.0,0.0,0.0,0.0,0.0,0.0,-0.17998262203771845,0.3494229142328713,0.09629873736768034,0.4682417193856577,-0.13460088102907114,0.12667700195993198,-0.20509940757510753,0.1729013791563821,-0.48751271822080866,-0.11146872004164686,-1.9463885724920975,0.13360797023399817,2.595551071855757,0.9452476107176737,0.1728802376190821,-0.48752024683155326,-0.11147110072896137,-1.9463801863486305,0.1336059019074957,2.595550359778934,0.9452445589611904,-0.00017892351100846668,0.00026629357351760767,6.369779101988163e-05,-0.0002602492954318621,-0.00022696181288027367,0.0003419412320841501,0.0006911855418160679,0.0,0.0,0.0,0.0,0.0,0.0,0.0,-2.114153729998458e-05,-7.528610744600428e-06,-2.380687314507135e-06,8.386143466987406e-06,-2.0683265024856734e-06,-7.120768228396912e-07,-3.051756483296586e-06,0.00017892351100846668,-0.00026629357351760767,-6.369779101988163e-05,0.0002602492954318621,0.00022696181288027367,-0.0003419412320841501,-0.0006911855418160679,0.17287558317184448,12.000879287719727,-1.2671844959259033,-21.768831253051758,-0.4031272530555725,-2.5207552909851074,0.20724813640117645,0
78,0.3850281238555908,-0.19667929410934448,-11.949304580688477,1.2909882068634033,21.792634963989258,0.3976340889930725,2.5271639823913574,-0.17337362468242645,0.0,0.0,0.0,0.0,0.0,0.0,0.0,-0.17894148348235156,0.36167451621779945,0.09778539023006949,0.4641820171804767,-0.1346138506300137,0.12563817814403933,-0.20500547665012783,0.17290304080294955,-0.48751674123622624,-0.11147252130613011,-1.9463902429279527,0.13360406342739525,2.595550359778934,0.9452438468850322,0.1728802376190821,-0.48752024683155326,-0.11147110072896137,-1.9463801863486305,0.1336059019074957,2.595550359778934,0.9452445589611904,-1.1210592966423255e-05,-0.00045994279186478465,-0.00010467774983475938,-0.00046630676781336344,0.0001695034284596171,2.8244203312467945e-05,-0.0009323168020706226,0.0,0.0,0.0,0.0,0.0,0.0,0.0,-2.280318386743696e-05,-3.5055953270246576e-06,1.4205771687453295e-06,1.0056579322181847e-05,1.8384801004356355e-06,0.0,7.120761582601887e-07,1.1210592966423255e-05,0.00045994279186478465,0.00010467774983475938,0.00046630676781336344,-0.0001695034284596171,-2.8244203312467945e-05,0.0009323168020706226,0.19667929410934448,11.949304580688477,-1.2909882068634033,-21.792634963989258,-0.3976340889930725,-2.5271639823913574,0.17337362468242645,0
79,0.3900022506713867,-0.19667929410934448,-11.949304580688477,1.2909882068634033,21.792634963989258,0.3976340889930725,2.5271639823913574,-0.17337362468242645,0.0,0.0,0.0,0.0,0.0,0.0,0.0,-0.17894148348235156,0.36167451621779945,0.09778539023006949,0.4641820171804767,-0.1346138506300137,0.12563817814403933,-0.20500547665012783,0.17290304080294955,-0.48751674123622624,-0.11147252130613011,-1.9463902429279527,0.13360406342739525,2.595550359778934,0.9452438468850322,0.1728802376190821,-0.48752024683155326,-0.11147110072896137,-1.9463801863486305,0.1336059019074957,2.595550359778934,0.9452445589611904,-1.1210592966423255e-05,-0.00045994279186478465,-0.00010467774983475938,-0.00046630676781336344,0.0001695034284596171,2.8244203312467945e-05,-0.0009323168020706226,0.0,0.0,0.0,0.0,0.0,0.0,0.0,-2.280318386743696e-05,-3.5055953270246576e-06,1.4205771687453295e-06,1.0056579322181847e-05,1.8384801004356355e-06,0.0,7.120761582601887e-07,1.1210592966423255e-05,0.00045994279186478465,0.00010467774983475938,0.00046630676781336344,-0.0001695034284596171,-2.8244203312467945e-05,0.0009323168020706226,0.19667929410934448,11.949304580688477,-1.2909882068634033,-21.792634963989258,-0.3976340889930725,-2.5271639823913574,0.17337362468242645,0
