rezayati/contactInterpretation/dataset/franka_main/labeled_data/link1/g2_8.csv
index,time,tau_J0,tau_J1,tau_J2,tau_J3,tau_J4,tau_J5,tau_J6,tau_J_d0,tau_J_d1,tau_J_d2,tau_J_d3,tau_J_d4,tau_J_d5,tau_J_d6,tau_ext0,tau_ext1,tau_ext2,tau_ext3,tau_ext4,tau_ext5,tau_ext6,q0,q1,q2,q3,q4,q5,q6,q_d0,q_d1,q_d2,q_d3,q_d4,q_d5,q_d6,dq0,dq1,dq2,dq3,dq4,dq5,dq6,dq_d0,dq_d1,dq_d2,dq_d3,dq_d4,dq_d5,dq_d6,e0,e1,e2,e3,e4,e5,e6,de0,de1,de2,de3,de4,de5,de6,etau_J0,etau_J1,etau_J2,etau_J3,etau_J4,etau_J5,etau_J6,label
1,0.0,-0.3514034152030945,-22.549890518188477,-0.09756157547235489,14.179414749145508,0.10558086633682251,2.1655306816101074,-0.25485557317733765,0.0,0.0,0.0,0.0,0.0,0.0,0.0,-0.34302915942361634,0.2536745898607841,-0.23668909182878012,0.3167064543400673,-0.12972817253271723,-0.03636677343165501,-0.2407894839599974,1.6757103040385661,0.052115054872501086,0.02996413647530139,-2.7523943290690407,0.034251986583697096,2.766362537431025,0.7691615274680984,1.6754973547542302,0.052104326824870026,0.029969505109285054,-2.752394845125968,0.0342448039870148,2.7663679543071322,0.7691630533470046,0.00040094389367566923,0.0008538778636608739,-0.0013852421213755939,-3.6083599488024665e-05,-0.00013294320964603028,-0.00039888290066300976,0.0007939670660844271,0.0,0.0,0.0,0.0,0.0,0.0,0.0,-0.00021294928433590599,-1.0728047631060333e-05,5.368633983662829e-06,-5.160569274131888e-07,-7.182596682295261e-06,5.4168761072226346e-06,1.5258789062277955e-06,-0.00040094389367566923,-0.0008538778636608739,0.0013852421213755939,3.6083599488024665e-05,0.00013294320964603028,0.00039888290066300976,-0.0007939670660844271,0.3514034152030945,22.549890518188477,0.09756157547235489,-14.179414749145508,-0.10558086633682251,-2.1655306816101074,0.25485557317733765,0
2,0.004998207092285156,-0.3514034152030945,-22.549890518188477,-0.09756157547235489,14.179414749145508,0.10558086633682251,2.1655306816101074,-0.25485557317733765,0.0,0.0,0.0,0.0,0.0,0.0,0.0,-0.34302915942361634,0.2536745898607841,-0.23668909182878012,0.3167064543400673,-0.12972817253271723,-0.03636677343165501,-0.2407894839599974,1.6757103040385661,0.052115054872501086,0.02996413647530139,-2.7523943290690407,0.034251986583697096,2.766362537431025,0.7691615274680984,1.6754973547542302,0.052104326824870026,0.029969505109285054,-2.752394845125968,0.0342448039870148,2.7663679543071322,0.7691630533470046,0.00040094389367566923,0.0008538778636608739,-0.0013852421213755939,-3.6083599488024665e-05,-0.00013294320964603028,-0.00039888290066300976,0.0007939670660844271,0.0,0.0,0.0,0.0,0.0,0.0,0.0,-0.00021294928433590599,-1.0728047631060333e-05,5.368633983662829e-06,-5.160569274131888e-07,-7.182596682295261e-06,5.4168761072226346e-06,1.5258789062277955e-06,-0.00040094389367566923,-0.0008538778636608739,0.0013852421213755939,3.6083599488024665e-05,0.00013294320964603028,0.00039888290066300976,-0.0007939670660844271,0.3514034152030945,22.549890518188477,0.09756157547235489,-14.179414749145508,-0.10558086633682251,-2.1655306816101074,0.25485557317733765,0
3,0.010017633438110352,-0.2720577120780945,-22.498315811157227,-0.1253325641155243,14.179414749145508,0.10008770227432251,2.1582064628601074,-0.26217979192733765,0.0,0.0,0.0,0.0,0.0,0.0,0.0,-0.3423104736169675,0.2503806318285259,-0.23916134494413002,0.3170909834072369,-0.12959896323621004,-0.03565253752512459,-0.24035712950322333,1.6757047359190487,0.05211142822733162,0.029966164237129014,-2.7523943252898313,0.03424987612251584,2.7663632334835833,0.7691623412701818,1.6754973547542302,0.052104326824870026,0.029969505109285054,-2.752394845125968,0.0342448039870148,2.7663679543071322,0.7691630533470046,-0.0011832392920621778,-0.001242033443239781,-0.000547514417799508,-0.0001379015957452755,0.00024644603445737114,-0.0002534776710328353,0.0011850670460974916,0.0,0.0,0.0,0.0,0.0,0.0,0.0,-0.00020738116481844315,-7.101402461594242e-06,3.340872156039343e-06,-5.198361368030646e-07,-5.0721355010427405e-06,4.720823548964859e-06,7.120768228396912e-07,0.0011832392920621778,0.001242033443239781,0.000547514417799508,0.0001379015957452755,-0.00024644603445737114,0.0002534776710328353,-0.0011850670460974916,0.2720577120780945,22.498315811157227,0.1253325641155243,-14.179414749145508,-0.10008770227432251,-2.1582064628601074,0.26217979192733765,0
4,0.015006065368652344,-0.2720577120780945,-22.498315811157227,-0.1253325641155243,14.179414749145508,0.10008770227432251,2.1582064628601074,-0.26217979192733765,0.0,0.0,0.0,0.0,0.0,0.0,0.0,-0.3423104736169675,0.2503806318285259,-0.23916134494413002,0.3170909834072369,-0.12959896323621004,-0.03565253752512459,-0.24035712950322333,1.6757047359190487,0.05211142822733162,0.029966164237129014,-2.7523943252898313,0.03424987612251584,2.7663632334835833,0.7691623412701818,1.6754973547542302,0.052104326824870026,0.029969505109285054,-2.752394845125968,0.0342448039870148,2.7663679543071322,0.7691630533470046,-0.0011832392920621778,-0.001242033443239781,-0.000547514417799508,-0.0001379015957452755,0.00024644603445737114,-0.0002534776710328353,0.0011850670460974916,0.0,0.0,0.0,0.0,0.0,0.0,0.0,-0.00020738116481844315,-7.101402461594242e-06,3.340872156039343e-06,-5.198361368030646e-07,-5.0721355010427405e-06,4.720823548964859e-06,7.120768228396912e-07,0.0011832392920621778,0.001242033443239781,0.000547514417799508,0.0001379015957452755,-0.00024644603445737114,0.0002534776710328353,-0.0011850670460974916,0.2720577120780945,22.498315811157227,0.1253325641155243,-14.179414749145508,-0.10008770227432251,-2.1582064628601074,0.26217979192733765,0
5,0.020014524459838867,-0.2998287081718445,-22.549890518188477,-0.1491362750530243,14.155611038208008,0.11198955774307251,2.1389803886413574,-0.25485557317733765,0.0,0.0,0.0,0.0,0.0,0.0,0.0,-0.33950987318948206,0.2504025400867069,-0.24047987938207668,0.316822001978615,-0.12923466228184533,-0.03508711367057147,-0.23966786248362457,1.67570668476088,0.05211458177296734,0.029967834673429786,-2.7523926803637613,0.03425175003197705,2.766368666365345,0.7691615274680984,1.6754973547542302,0.052104326824870026,0.029969505109285054,-2.752394845125968,0.0342448039870148,2.7663679543071322,0.7691630533470046,-0.0004445142998369349,-5.697494698550375e-05,0.00011629345290271141,0.0008901670248899197,-0.00013645506836350397,0.00038256226255175646,0.00047009307957790057,0.0,0.0,0.0,0.0,0.0,0.0,0.0,-0.00020933000664968837,-1.025494809731714e-05,1.6704358552672993e-06,-2.1647622068243777e-06,-6.946044962249931e-06,-7.120582128372632e-07,1.5258789062277955e-06,0.0004445142998369349,5.697494698550375e-05,-0.00011629345290271141,-0.0008901670248899197,0.00013645506836350397,-0.00038256226255175646,-0.00047009307957790057,0.2998287081718445,22.549890518188477,0.1491362750530243,-14.155611038208008,-0.11198955774307251,-2.1389803886413574,0.25485557317733765,0
6,0.025002241134643555,-0.2998287081718445,-22.549890518188477,-0.1491362750530243,14.155611038208008,0.11198955774307251,2.1389803886413574,-0.25485557317733765,0.0,0.0,0.0,0.0,0.0,0.0,0.0,-0.33950987318948206,0.2504025400867069,-0.24047987938207668,0.316822001978615,-0.12923466228184533,-0.03508711367057147,-0.23966786248362457,1.67570668476088,0.05211458177296734,0.029967834673429786,-2.7523926803637613,0.03425175003197705,2.766368666365345,0.7691615274680984,1.6754973547542302,0.052104326824870026,0.029969505109285054,-2.752394845125968,0.0342448039870148,2.7663679543071322,0.7691630533470046,-0.0004445142998369349,-5.697494698550375e-05,0.00011629345290271141,0.0008901670248899197,-0.00013645506836350397,0.00038256226255175646,0.00047009307957790057,0.0,0.0,0.0,0.0,0.0,0.0,0.0,-0.00020933000664968837,-1.025494809731714e-05,1.6704358552672993e-06,-2.1647622068243777e-06,-6.946044962249931e-06,-7.120582128372632e-07,1.5258789062277955e-06,0.0004445142998369349,5.697494698550375e-05,-0.00011629345290271141,-0.0008901670248899197,0.00013645506836350397,-0.00038256226255175646,-0.00047009307957790057,0.2998287081718445,22.549890518188477,0.1491362750530243,-14.155611038208008,-0.11198955774307251,-2.1389803886413574,0.25485557317733765,0
7,0.030057191848754883,-0.2998287081718445,-22.549890518188477,-0.1491362750530243,14.155611038208008,0.11198955774307251,2.1389803886413574,-0.25485557317733765,0.0,0.0,0.0,0.0,0.0,0.0,0.0,-0.33950987318948206,0.2504025400867069,-0.24047987938207668,0.316822001978615,-0.12923466228184533,-0.03508711367057147,-0.23966786248362457,1.67570668476088,0.05211458177296734,0.029967834673429786,-2.7523926803637613,0.03425175003197705,2.766368666365345,0.7691615274680984,1.6754973547542302,0.052104326824870026,0.029969505109285054,-2.752394845125968,0.0342448039870148,2.7663679543071322,0.7691630533470046,-0.0004445142998369349,-5.697494698550375e-05,0.00011629345290271141,0.0008901670248899197,-0.00013645506836350397,0.00038256226255175646,0.00047009307957790057,0.0,0.0,0.0,0.0,0.0,0.0,0.0,-0.00020933000664968837,-1.025494809731714e-05,1.6704358552672993e-06,-2.1647622068243777e-06,-6.946044962249931e-06,-7.120582128372632e-07,1.5258789062277955e-06,0.0004445142998369349,5.697494698550375e-05,-0.00011629345290271141,-0.0008901670248899197,0.00013645506836350397,-0.00038256226255175646,-0.00047009307957790057,0.2998287081718445,22.549890518188477,0.1491362750530243,-14.155611038208008,-0.11198955774307251,-2.1389803886413574,0.25485557317733765,0
8,0.03499484062194824,-0.2998287081718445,-22.549890518188477,-0.1491362750530243,14.155611038208008,0.11198955774307251,2.1389803886413574,-0.25485557317733765,0.0,0.0,0.0,0.0,0.0,0.0,0.0,-0.33950987318948206,0.2504025400867069,-0.24047987938207668,0.316822001978615,-0.12923466228184533,-0.03508711367057147,-0.23966786248362457,1.67570668476088,0.05211458177296734,0.029967834673429786,-2.7523926803637613,0.03425175003197705,2.766368666365345,0.7691615274680984,1.6754973547542302,0.052104326824870026,0.029969505109285054,-2.752394845125968,0.0342448039870148,2.7663679543071322,0.7691630533470046,-0.0004445142998369349,-5.697494698550375e-05,0.00011629345290271141,0.0008901670248899197,-0.00013645506836350397,0.00038256226255175646,0.00047009307957790057,0.0,0.0,0.0,0.0,0.0,0.0,0.0,-0.00020933000664968837,-1.025494809731714e-05,1.6704358552672993e-06,-2.1647622068243777e-06,-6.946044962249931e-06,-7.120582128372632e-07,1.5258789062277955e-06,0.0004445142998369349,5.697494698550375e-05,-0.00011629345290271141,-0.0008901670248899197,0.00013645506836350397,-0.00038256226255175646,-0.00047009307957790057,0.2998287081718445,22.549890518188477,0.1491362750530243,-14.155611038208008,-0.11198955774307251,-2.1389803886413574,0.25485557317733765,0
9,0.039995670318603516,-0.2998287081718445,-22.573694229125977,-0.2007109820842743,14.179414749145508,0.10008770227432251,2.1453890800476074,-0.27591270208358765,0.0,0.0,0.0,0.0,0.0,0.0,0.0,-0.3344933246692244,0.2516229098750201,-0.23828739609715544,0.3100121175207561,-0.12933417568019773,-0.035882362370593696,-0.24106078702844702,1.6757066846518636,0.052118862704374345,0.029971453951116195,-2.752395014054738,0.034253804202413245,2.766364775392744,0.769163867149088,1.6754973547542302,0.052104326824870026,0.029969505109285054,-2.752394845125968,0.0342448039870148,2.7663679543071322,0.7691630533470046,-0.00039527233272857387,0.0005502691558554402,0.0011388112679664125,-0.0005048290460599923,4.613276858456466e-05,0.00020301007466849426,0.0017567930328144222,0.0,0.0,0.0,0.0,0.0,0.0,0.0,-0.00020932989763333687,-1.4535879504319615e-05,-1.948841831141135e-06,1.6892877008345408e-07,-9.0002153984442e-06,3.178914388168863e-06,-8.138020833881043e-07,0.00039527233272857387,-0.0005502691558554402,-0.0011388112679664125,0.0005048290460599923,-4.613276858456466e-05,-0.00020301007466849426,-0.0017567930328144222,0.2998287081718445,22.573694229125977,0.2007109820842743,-14.179414749145508,-0.10008770227432251,-2.1453890800476074,0.27591270208358765,0
10,0.04500937461853027,-0.2998287081718445,-22.573694229125977,-0.2007109820842743,14.179414749145508,0.10008770227432251,2.1453890800476074,-0.27591270208358765,0.0,0.0,0.0,0.0,0.0,0.0,0.0,-0.3344933246692244,0.2516229098750201,-0.23828739609715544,0.3100121175207561,-0.12933417568019773,-0.035882362370593696,-0.24106078702844702,1.6757066846518636,0.052118862704374345,0.029971453951116195,-2.752395014054738,0.034253804202413245,2.766364775392744,0.769163867149088,1.6754973547542302,0.052104326824870026,0.029969505109285054,-2.752394845125968,0.0342448039870148,2.7663679543071322,0.7691630533470046,-0.00039527233272857387,0.0005502691558554402,0.0011388112679664125,-0.0005048290460599923,4.613276858456466e-05,0.00020301007466849426,0.0017567930328144222,0.0,0.0,0.0,0.0,0.0,0.0,0.0,-0.00020932989763333687,-1.4535879504319615e-05,-1.948841831141135e-06,1.6892877008345408e-07,-9.0002153984442e-06,3.178914388168863e-06,-8.138020833881043e-07,0.00039527233272857387,-0.0005502691558554402,-0.0011388112679664125,0.0005048290460599923,-4.613276858456466e-05,-0.00020301007466849426,-0.0017567930328144222,0.2998287081718445,22.573694229125977,0.2007109820842743,-14.179414749145508,-0.10008770227432251,-2.1453890800476074,0.27591270208358765,0
11,0.04999876022338867,-0.3514034152030945,-22.474512100219727,-0.1491362750530243,14.207185745239258,0.11198955774307251,2.1517977714538574,-0.26217979192733765,0.0,0.0,0.0,0.0,0.0,0.0,0.0,-0.3373891576151297,0.24989200857254365,-0.24436265884389008,0.30868073659854833,-0.12901419834669597,-0.035819110242619925,-0.24075914681865795,1.6757103040385655,0.05211224102114971,0.02996783467342979,-2.752396274135529,0.0342523401209809,2.766367242212364,0.7691623412701818,1.6754973547542302,0.052104326824870026,0.029969505109285054,-2.752394845125968,0.0342448039870148,2.7663679543071322,0.7691630533470046,-0.00012272338229761434,-0.0014736044944630737,-0.0004916949956930825,-0.0009185566360530523,-0.00027684108369444623,-5.017432491268882e-05,0.0008874410128348184,0.0,0.0,0.0,0.0,0.0,0.0,0.0,-0.00021294928433523985,-7.914196279684704e-06,1.6704358552638299e-06,1.4290095609048592e-06,-7.536133966097591e-06,7.12094768040572e-07,7.120768228396912e-07,0.00012272338229761434,0.0014736044944630737,0.0004916949956930825,0.0009185566360530523,0.00027684108369444623,5.017432491268882e-05,-0.0008874410128348184,0.3514034152030945,22.474512100219727,0.1491362750530243,-14.207185745239258,-0.11198955774307251,-2.1517977714538574,0.26217979192733765,0
12,0.05499386787414551,-0.3514034152030945,-22.474512100219727,-0.1491362750530243,14.207185745239258,0.11198955774307251,2.1517977714538574,-0.26217979192733765,0.0,0.0,0.0,0.0,0.0,0.0,0.0,-0.3373891576151297,0.24989200857254365,-0.24436265884389008,0.30868073659854833,-0.12901419834669597,-0.035819110242619925,-0.24075914681865795,1.6757103040385655,0.05211224102114971,0.02996783467342979,-2.752396274135529,0.0342523401209809,2.766367242212364,0.7691623412701818,1.6754973547542302,0.052104326824870026,0.029969505109285054,-2.752394845125968,0.0342448039870148,2.7663679543071322,0.7691630533470046,-0.00012272338229761434,-0.0014736044944630737,-0.0004916949956930825,-0.0009185566360530523,-0.00027684108369444623,-5.017432491268882e-05,0.0008874410128348184,0.0,0.0,0.0,0.0,0.0,0.0,0.0,-0.00021294928433523985,-7.914196279684704e-06,1.6704358552638299e-06,1.4290095609048592e-06,-7.536133966097591e-06,7.12094768040572e-07,7.120768228396912e-07,0.00012272338229761434,0.0014736044944630737,0.0004916949956930825,0.0009185566360530523,0.00027684108369444623,5.017432491268882e-05,-0.0008874410128348184,0.3514034152030945,22.474512100219727,0.1491362750530243,-14.207185745239258,-0.11198955774307251,-2.1517977714538574,0.26217979192733765,0
13,0.059993743896484375,-0.3752071261405945,-22.549890518188477,-0.1491362750530243,14.179414749145508,0.10558086633682251,2.1453890800476074,-0.28232139348983765,0.0,0.0,0.0,0.0,0.0,0.0,0.0,-0.33559012771272534,0.2442792212438995,-0.2414489560357213,0.3154069262722334,-0.1291811265180304,-0.03465928841560325,-0.2395846469260177,1.6757119479834683,0.05211434521781331,0.02996783467342979,-2.7523944018192306,0.03424996994900692,2.766367940740663,0.769164579225911,1.6754973547542302,0.052104326824870026,0.029969505109285054,-2.752394845125968,0.0342448039870148,2.7663679543071322,0.7691630533470046,0.0004176069626546508,0.0001403257833774842,-0.0003168569659715385,0.0004973610095023753,1.3091830791012208e-05,0.00025077545087628293,0.0016912085789051602,0.0,0.0,0.0,0.0,0.0,0.0,0.0,-0.00021459322923811364,-1.0018392943282606e-05,1.6704358552638299e-06,-4.433067375408939e-07,-5.165961992119328e-06,1.3566469281300897e-08,-1.5258789063388178e-06,-0.0004176069626546508,-0.0001403257833774842,0.0003168569659715385,-0.0004973610095023753,-1.3091830791012208e-05,-0.00025077545087628293,-0.0016912085789051602,0.3752071261405945,22.549890518188477,0.1491362750530243,-14.179414749145508,-0.10558086633682251,-2.1453890800476074,0.28232139348983765,0
14,0.06540870666503906,-0.3752071261405945,-22.549890518188477,-0.1491362750530243,14.179414749145508,0.10558086633682251,2.1453890800476074,-0.28232139348983765,0.0,0.0,0.0,0.0,0.0,0.0,0.0,-0.33559012771272534,0.2442792212438995,-0.2414489560357213,0.3154069262722334,-0.1291811265180304,-0.03465928841560325,-0.2395846469260177,1.6757119479834683,0.05211434521781331,0.02996783467342979,-2.7523944018192306,0.03424996994900692,2.766367940740663,0.769164579225911,1.6754973547542302,0.052104326824870026,0.029969505109285054,-2.752394845125968,0.0342448039870148,2.7663679543071322,0.7691630533470046,0.0004176069626546508,0.0001403257833774842,-0.0003168569659715385,0.0004973610095023753,1.3091830791012208e-05,0.00025077545087628293,0.0016912085789051602,0.0,0.0,0.0,0.0,0.0,0.0,0.0,-0.00021459322923811364,-1.0018392943282606e-05,1.6704358552638299e-06,-4.433067375408939e-07,-5.165961992119328e-06,1.3566469281300897e-08,-1.5258789063388178e-06,-0.0004176069626546508,-0.0001403257833774842,0.0003168569659715385,-0.0004973610095023753,-1.3091830791012208e-05,-0.00025077545087628293,-0.0016912085789051602,0.3752071261405945,22.549890518188477,0.1491362750530243,-14.179414749145508,-0.10558086633682251,-2.1453890800476074,0.28232139348983765,0
15,0.07001376152038574,-0.4029781222343445,-22.549890518188477,-0.2007109820842743,14.155611038208008,0.11198955774307251,2.1582064628601074,-0.26858848333358765,0.0,0.0,0.0,0.0,0.0,0.0,0.0,-0.34069230868549627,0.25641602582058715,-0.24232151768745688,0.31154509683482023,-0.1291546083494827,-0.03560182655376215,-0.2410828995754317,1.6757139233161031,0.05211458093804828,0.029971453951116195,-2.7523926548543867,0.03424918082835597,2.766366525738924,0.7691630533470046,1.6754973547542302,0.052104326824870026,0.029969505109285054,-2.752394845125968,0.0342448039870148,2.7663679543071322,0.7691630533470046,0.0015210605992238137,0.0006426364036160006,0.00031351911680821783,0.0010530409657430301,-0.0005395925508330089,-0.00018755792546992024,0.0007449642453676681,0.0,0.0,0.0,0.0,0.0,0.0,0.0,-0.00021656856187290963,-1.02541131782527e-05,-1.948841831141135e-06,-2.190271581437031e-06,-4.376841341170723e-06,1.4285682081727202e-06,0.0,-0.0015210605992238137,-0.0006426364036160006,-0.00031351911680821783,-0.0010530409657430301,0.0005395925508330089,0.00018755792546992024,-0.0007449642453676681,0.4029781222343445,22.549890518188477,0.2007109820842743,-14.155611038208008,-0.11198955774307251,-2.1582064628601074,0.26858848333358765,0
16,0.07499885559082031,-0.4029781222343445,-22.549890518188477,-0.2007109820842743,14.155611038208008,0.11198955774307251,2.1582064628601074,-0.26858848333358765,0.0,0.0,0.0,0.0,0.0,0.0,0.0,-0.34069230868549627,0.25641602582058715,-0.24232151768745688,0.31154509683482023,-0.1291546083494827,-0.03560182655376215,-0.2410828995754317,1.6757139233161031,0.05211458093804828,0.029971453951116195,-2.7523926548543867,0.03424918082835597,2.766366525738924,0.7691630533470046,1.6754973547542302,0.052104326824870026,0.029969505109285054,-2.752394845125968,0.0342448039870148,2.7663679543071322,0.7691630533470046,0.0015210605992238137,0.0006426364036160006,0.00031351911680821783,0.0010530409657430301,-0.0005395925508330089,-0.00018755792546992024,0.0007449642453676681,0.0,0.0,0.0,0.0,0.0,0.0,0.0,-0.00021656856187290963,-1.02541131782527e-05,-1.948841831141135e-06,-2.190271581437031e-06,-4.376841341170723e-06,1.4285682081727202e-06,0.0,-0.0015210605992238137,-0.0006426364036160006,-0.00031351911680821783,-0.0010530409657430301,0.0005395925508330089,0.00018755792546992024,-0.0007449642453676681,0.4029781222343445,22.549890518188477,0.2007109820842743,-14.155611038208008,-0.11198955774307251,-2.1582064628601074,0.26858848333358765,0
17,0.08000397682189941,-0.3514034152030945,-22.522119522094727,-0.1253325641155243,14.179414749145508,0.10558086633682251,2.1582064628601074,-0.22830526530742645,0.0,0.0,0.0,0.0,0.0,0.0,0.0,-0.3439880635008939,0.25723177065473785,-0.246493223548858,0.3130463439111087,-0.129488712986567,-0.035114478644111026,-0.24246364413205868,1.6757103040385661,0.052113413447804596,0.029966164237574526,-2.7523943253947887,0.034250234787332405,2.7663665301534617,0.7691585774338906,1.6754973547542302,0.052104326824870026,0.029969505109285054,-2.752394845125968,0.0342448039870148,2.7663679543071322,0.7691630533470046,-0.00017213658988711418,-0.0002151198567599802,-0.0010350712299825801,0.00020741532332506566,1.160288670866238e-05,-9.792724620041251e-05,-0.0006587781656317251,0.0,0.0,0.0,0.0,0.0,0.0,0.0,-0.00021294928433590599,-9.08662293457041e-06,3.3408717105276597e-06,-5.19731179426941e-07,-5.430800317604567e-06,1.4241536705483782e-06,4.475913114032615e-06,0.00017213658988711418,0.0002151198567599802,0.0010350712299825801,-0.00020741532332506566,-1.160288670866238e-05,9.792724620041251e-05,0.0006587781656317251,0.3514034152030945,22.522119522094727,0.1253325641155243,-14.179414749145508,-0.10558086633682251,-2.1582064628601074,0.22830526530742645,0
18,0.08500385284423828,-0.3514034152030945,-22.522119522094727,-0.1253325641155243,14.179414749145508,0.10558086633682251,2.1582064628601074,-0.22830526530742645,0.0,0.0,0.0,0.0,0.0,0.0,0.0,-0.3439880635008939,0.25723177065473785,-0.246493223548858,0.3130463439111087,-0.129488712986567,-0.035114478644111026,-0.24246364413205868,1.6757103040385661,0.052113413447804596,0.029966164237574526,-2.7523943253947887,0.034250234787332405,2.7663665301534617,0.7691585774338906,1.6754973547542302,0.052104326824870026,0.029969505109285054,-2.752394845125968,0.0342448039870148,2.7663679543071322,0.7691630533470046,-0.00017213658988711418,-0.0002151198567599802,-0.0010350712299825801,0.00020741532332506566,1.160288670866238e-05,-9.792724620041251e-05,-0.0006587781656317251,0.0,0.0,0.0,0.0,0.0,0.0,0.0,-0.00021294928433590599,-9.08662293457041e-06,3.3408717105276597e-06,-5.19731179426941e-07,-5.430800317604567e-06,1.4241536705483782e-06,4.475913114032615e-06,0.00017213658988711418,0.0002151198567599802,0.0010350712299825801,-0.00020741532332506566,-1.160288670866238e-05,9.792724620041251e-05,0.0006587781656317251,0.3514034152030945,22.522119522094727,0.1253325641155243,-14.179414749145508,-0.10558086633682251,-2.1582064628601074,0.22830526530742645,0
19,0.08999848365783691,-0.3236324191093445,-22.549890518188477,-0.1729399859905243,14.207185745239258,0.11198955774307251,2.1453890800476074,-0.25485557317733765,0.0,0.0,0.0,0.0,0.0,0.0,0.0,-0.342729715663712,0.24969239015996134,-0.24506565495572752,0.3201828389300385,-0.1291230594143911,-0.03287752093201133,-0.2416881519336387,1.675708355196735,0.0521164683307951,0.029969505109285054,-2.7523962741316415,0.034252841290294364,2.7663678365695623,0.7691615276316228,1.6754973547542302,0.052104326824870026,0.029969505109285054,-2.752394845125968,0.0342448039870148,2.7663679543071322,0.7691630533470046,-9.86315094510726e-05,-0.00024172060450711847,0.00045934675178670165,-5.187918621667314e-05,-0.0003815100113873756,0.00032375909547867435,0.00039843817719145425,0.0,0.0,0.0,0.0,0.0,0.0,0.0,-0.0002110004425048828,-1.2141505925072904e-05,0.0,1.4290056733479162e-06,-8.03730327956359e-06,1.1773756991573237e-07,1.5257153818115654e-06,9.86315094510726e-05,0.00024172060450711847,-0.00045934675178670165,5.187918621667314e-05,0.0003815100113873756,-0.00032375909547867435,-0.00039843817719145425,0.3236324191093445,22.549890518188477,0.1729399859905243,-14.207185745239258,-0.11198955774307251,-2.1453890800476074,0.25485557317733765,0
20,0.09507060050964355,-0.3236324191093445,-22.549890518188477,-0.1729399859905243,14.207185745239258,0.11198955774307251,2.1453890800476074,-0.25485557317733765,0.0,0.0,0.0,0.0,0.0,0.0,0.0,-0.342729715663712,0.24969239015996134,-0.24506565495572752,0.3201828389300385,-0.1291230594143911,-0.03287752093201133,-0.2416881519336387,1.675708355196735,0.0521164683307951,0.029969505109285054,-2.7523962741316415,0.034252841290294364,2.7663678365695623,0.7691615276316228,1.6754973547542302,0.052104326824870026,0.029969505109285054,-2.752394845125968,0.0342448039870148,2.7663679543071322,0.7691630533470046,-9.86315094510726e-05,-0.00024172060450711847,0.00045934675178670165,-5.187918621667314e-05,-0.0003815100113873756,0.00032375909547867435,0.00039843817719145425,0.0,0.0,0.0,0.0,0.0,0.0,0.0,-0.0002110004425048828,-1.2141505925072904e-05,0.0,1.4290056733479162e-06,-8.03730327956359e-06,1.1773756991573237e-07,1.5257153818115654e-06,9.86315094510726e-05,0.00024172060450711847,-0.00045934675178670165,5.187918621667314e-05,0.0003815100113873756,-0.00032375909547867435,-0.00039843817719145425,0.3236324191093445,22.549890518188477,0.1729399859905243,-14.207185745239258,-0.11198955774307251,-2.1453890800476074,0.25485557317733765,0
21,0.09999752044677734,-0.3236324191093445,-22.597497940063477,-0.1253325641155243,14.179414749145508,0.10558086633682251,2.1389803886413574,-0.21457235515117645,0.0,0.0,0.0,0.0,0.0,0.0,0.0,-0.3407887639574325,0.2566036555481811,-0.24301560513625003,0.3132810212113874,-0.1289518701778189,-0.03401872531547775,-0.24088344693840527,1.675708355196735,0.05211775487613324,0.02996545394889095,-2.75239432528981,0.03425248365859538,2.766368548484658,0.7691570515549847,1.6754973547542302,0.052104326824870026,0.029969505109285054,-2.752394845125968,0.0342448039870148,2.7663679543071322,0.7691630533470046,9.121461405893678e-05,0.0012204046985983157,-0.0004894516745129098,-3.183414400333927e-05,0.00012276211683946928,0.0004129798271863031,-0.0014369578246990291,0.0,0.0,0.0,0.0,0.0,0.0,0.0,-0.0002110004425048828,-1.3428051263211782e-05,4.051160394102221e-06,-5.198361581193467e-07,-7.679671580579361e-06,-5.941775258477833e-07,6.001792019927343e-06,-9.121461405893678e-05,-0.0012204046985983157,0.0004894516745129098,3.183414400333927e-05,-0.00012276211683946928,-0.0004129798271863031,0.0014369578246990291,0.3236324191093445,22.597497940063477,0.1253325641155243,-14.179414749145508,-0.10558086633682251,-2.1389803886413574,0.21457235515117645,0
22,0.10620641708374023,-0.3236324191093445,-22.597497940063477,-0.1253325641155243,14.179414749145508,0.10558086633682251,2.1389803886413574,-0.21457235515117645,0.0,0.0,0.0,0.0,0.0,0.0,0.0,-0.3407887639574325,0.2566036555481811,-0.24301560513625003,0.3132810212113874,-0.1289518701778189,-0.03401872531547775,-0.24088344693840527,1.675708355196735,0.05211775487613324,0.02996545394889095,-2.75239432528981,0.03425248365859538,2.766368548484658,0.7691570515549847,1.6754973547542302,0.052104326824870026,0.029969505109285054,-2.752394845125968,0.0342448039870148,2.7663679543071322,0.7691630533470046,9.121461405893678e-05,0.0012204046985983157,-0.0004894516745129098,-3.183414400333927e-05,0.00012276211683946928,0.0004129798271863031,-0.0014369578246990291,0.0,0.0,0.0,0.0,0.0,0.0,0.0,-0.0002110004425048828,-1.3428051263211782e-05,4.051160394102221e-06,-5.198361581193467e-07,-7.679671580579361e-06,-5.941775258477833e-07,6.001792019927343e-06,-9.121461405893678e-05,-0.0012204046985983157,0.0004894516745129098,3.183414400333927e-05,-0.00012276211683946928,-0.0004129798271863031,0.0014369578246990291,0.3236324191093445,22.597497940063477,0.1253325641155243,-14.179414749145508,-0.10558086633682251,-2.1389803886413574,0.21457235515117645,0
23,0.11039566993713379,-0.2998287081718445,-22.549890518188477,-0.1491362750530243,14.207185745239258,0.10008770227432251,2.1517977714538574,-0.20083944499492645,0.0,0.0,0.0,0.0,0.0,0.0,0.0,-0.33544165982151464,0.2511794881708322,-0.2373681800360808,0.31623753016955625,-0.12864899716961176,-0.033822471716267545,-0.2424745751810981,1.67570668476088,0.052114654387600684,0.029967834669420188,-2.752396274131641,0.03425085646660734,2.7663640501794684,0.7691555256760781,1.6754973547542302,0.052104326824870026,0.029969505109285054,-2.752394845125968,0.0342448039870148,2.7663679543071322,0.7691630533470046,-0.0002746718470550096,-0.00022860087755304393,4.9561520865145837e-05,-0.0003341874039023516,8.877525631770356e-05,-3.5317964999087096e-05,-0.0018659763354705653,0.0,0.0,0.0,0.0,0.0,0.0,0.0,-0.00020933000664968837,-1.0327562730658157e-05,1.6704398648655083e-06,1.429005672903827e-06,-6.05247959253874e-06,3.904127663822976e-06,7.527670926488206e-06,0.0002746718470550096,0.00022860087755304393,-4.9561520865145837e-05,0.0003341874039023516,-8.877525631770356e-05,3.5317964999087096e-05,0.0018659763354705653,0.2998287081718445,22.549890518188477,0.1491362750530243,-14.207185745239258,-0.10008770227432251,-2.1517977714538574,0.20083944499492645,0
24,0.11499643325805664,-0.2998287081718445,-22.549890518188477,-0.1491362750530243,14.207185745239258,0.10008770227432251,2.1517977714538574,-0.20083944499492645,0.0,0.0,0.0,0.0,0.0,0.0,0.0,-0.33544165982151464,0.2511794881708322,-0.2373681800360808,0.31623753016955625,-0.12864899716961176,-0.033822471716267545,-0.2424745751810981,1.67570668476088,0.052114654387600684,0.029967834669420188,-2.752396274131641,0.03425085646660734,2.7663640501794684,0.7691555256760781,1.6754973547542302,0.052104326824870026,0.029969505109285054,-2.752394845125968,0.0342448039870148,2.7663679543071322,0.7691630533470046,-0.0002746718470550096,-0.00022860087755304393,4.9561520865145837e-05,-0.0003341874039023516,8.877525631770356e-05,-3.5317964999087096e-05,-0.0018659763354705653,0.0,0.0,0.0,0.0,0.0,0.0,0.0,-0.00020933000664968837,-1.0327562730658157e-05,1.6704398648655083e-06,1.429005672903827e-06,-6.05247959253874e-06,3.904127663822976e-06,7.527670926488206e-06,0.0002746718470550096,0.00022860087755304393,-4.9561520865145837e-05,0.0003341874039023516,-8.877525631770356e-05,3.5317964999087096e-05,0.0018659763354705653,0.2998287081718445,22.549890518188477,0.1491362750530243,-14.207185745239258,-0.10008770227432251,-2.1517977714538574,0.20083944499492645,0
25,0.12044572830200195,-0.3752071261405945,-22.522119522094727,-0.1491362750530243,14.155611038208008,0.10008770227432251,2.1389803886413574,-0.22098104655742645,0.0,0.0,0.0,0.0,0.0,0.0,0.0,-0.33787824424095697,0.2505597365742214,-0.2433373769393569,0.3166408865687164,-0.12784508888071863,-0.034386102721743105,-0.2426564440119619,1.6757119744744216,0.05211262328261758,0.029967834673429766,-2.7523926548539546,0.03425364488647486,2.766368548628366,0.7691577636318073,1.6754973547542302,0.052104326824870026,0.029969505109285054,-2.752394845125968,0.0342448039870148,2.7663679543071322,0.7691630533470046,0.0007767610633084522,-0.0006574871207074039,-0.0003836196269553253,0.0011140241338788192,0.0002669463514408297,0.0003707501806504896,-0.0008745042560717313,0.0,0.0,0.0,0.0,0.0,0.0,0.0,-0.00021461972019132247,-8.296457747553054e-06,1.670435855288116e-06,-2.1902720135358322e-06,-8.84089946005806e-06,-5.9432123356018e-07,5.289715197309697e-06,-0.0007767610633084522,0.0006574871207074039,0.0003836196269553253,-0.0011140241338788192,-0.0002669463514408297,-0.0003707501806504896,0.0008745042560717313,0.3752071261405945,22.522119522094727,0.1491362750530243,-14.155611038208008,-0.10008770227432251,-2.1389803886413574,0.22098104655742645,0
26,0.12520384788513184,-0.3752071261405945,-22.522119522094727,-0.1491362750530243,14.155611038208008,0.10008770227432251,2.1389803886413574,-0.22098104655742645,0.0,0.0,0.0,0.0,0.0,0.0,0.0,-0.33787824424095697,0.2505597365742214,-0.2433373769393569,0.3166408865687164,-0.12784508888071863,-0.034386102721743105,-0.2426564440119619,1.6757119744744216,0.05211262328261758,0.029967834673429766,-2.7523926548539546,0.03425364488647486,2.766368548628366,0.7691577636318073,1.6754973547542302,0.052104326824870026,0.029969505109285054,-2.752394845125968,0.0342448039870148,2.7663679543071322,0.7691630533470046,0.0007767610633084522,-0.0006574871207074039,-0.0003836196269553253,0.0011140241338788192,0.0002669463514408297,0.0003707501806504896,-0.0008745042560717313,0.0,0.0,0.0,0.0,0.0,0.0,0.0,-0.00021461972019132247,-8.296457747553054e-06,1.670435855288116e-06,-2.1902720135358322e-06,-8.84089946005806e-06,-5.9432123356018e-07,5.289715197309697e-06,-0.0007767610633084522,0.0006574871207074039,0.0003836196269553253,-0.0011140241338788192,-0.0002669463514408297,-0.0003707501806504896,0.0008745042560717313,0.3752071261405945,22.522119522094727,0.1491362750530243,-14.155611038208008,-0.10008770227432251,-2.1389803886413574,0.22098104655742645,0
27,0.13001537322998047,-0.3514034152030945,-22.549890518188477,-0.2007109820842743,14.179414749145508,0.10008770227432251,2.1453890800476074,-0.22830526530742645,0.0,0.0,0.0,0.0,0.0,0.0,0.0,-0.3352863745478329,0.2538453825130168,-0.2394545156155169,0.31439549300757447,-0.12831819927544091,-0.03526404913258537,-0.2429317420306072,1.6757103040385661,0.052114346682378826,0.029971453951116195,-2.75239432528981,0.03425417683384897,2.7663679528529173,0.7691585774338906,1.6754973547542302,0.052104326824870026,0.029969505109285054,-2.752394845125968,0.0342448039870148,2.7663679543071322,0.7691630533470046,-6.002295336194423e-05,0.0006070192563515962,0.0009483361656960825,0.00013259192320898107,-9.536992820498426e-05,0.00034787710340654766,-0.0010952265800962036,0.0,0.0,0.0,0.0,0.0,0.0,0.0,-0.00021294928433590599,-1.0019857508800079e-05,-1.948841831141135e-06,-5.198361581193467e-07,-9.372846834172777e-06,1.4542149706642249e-09,4.475913114032615e-06,6.002295336194423e-05,-0.0006070192563515962,-0.0009483361656960825,-0.00013259192320898107,9.536992820498426e-05,-0.00034787710340654766,0.0010952265800962036,0.3514034152030945,22.549890518188477,0.2007109820842743,-14.179414749145508,-0.10008770227432251,-2.1453890800476074,0.22830526530742645,0
28,0.13500356674194336,-0.3514034152030945,-22.549890518188477,-0.2007109820842743,14.179414749145508,0.10008770227432251,2.1453890800476074,-0.22830526530742645,0.0,0.0,0.0,0.0,0.0,0.0,0.0,-0.3352863745478329,0.2538453825130168,-0.2394545156155169,0.31439549300757447,-0.12831819927544091,-0.03526404913258537,-0.2429317420306072,1.6757103040385661,0.052114346682378826,0.029971453951116195,-2.75239432528981,0.03425417683384897,2.7663679528529173,0.7691585774338906,1.6754973547542302,0.052104326824870026,0.029969505109285054,-2.752394845125968,0.0342448039870148,2.7663679543071322,0.7691630533470046,-6.002295336194423e-05,0.0006070192563515962,0.0009483361656960825,0.00013259192320898107,-9.536992820498426e-05,0.00034787710340654766,-0.0010952265800962036,0.0,0.0,0.0,0.0,0.0,0.0,0.0,-0.00021294928433590599,-1.0019857508800079e-05,-1.948841831141135e-06,-5.198361581193467e-07,-9.372846834172777e-06,1.4542149706642249e-09,4.475913114032615e-06,6.002295336194423e-05,-0.0006070192563515962,-0.0009483361656960825,-0.00013259192320898107,9.536992820498426e-05,-0.00034787710340654766,0.0010952265800962036,0.3514034152030945,22.549890518188477,0.2007109820842743,-14.179414749145508,-0.10008770227432251,-2.1453890800476074,0.22830526530742645,0
29,0.14000296592712402,-0.3514034152030945,-22.549890518188477,-0.2007109820842743,14.179414749145508,0.10008770227432251,2.1453890800476074,-0.22830526530742645,0.0,0.0,0.0,0.0,0.0,0.0,0.0,-0.3352863745478329,0.2538453825130168,-0.2394545156155169,0.31439549300757447,-0.12831819927544091,-0.03526404913258537,-0.2429317420306072,1.6757103040385661,0.052114346682378826,0.029971453951116195,-2.75239432528981,0.03425417683384897,2.7663679528529173,0.7691585774338906,1.6754973547542302,0.052104326824870026,0.029969505109285054,-2.752394845125968,0.0342448039870148,2.7663679543071322,0.7691630533470046,-6.002295336194423e-05,0.0006070192563515962,0.0009483361656960825,0.00013259192320898107,-9.536992820498426e-05,0.00034787710340654766,-0.0010952265800962036,0.0,0.0,0.0,0.0,0.0,0.0,0.0,-0.00021294928433590599,-1.0019857508800079e-05,-1.948841831141135e-06,-5.198361581193467e-07,-9.372846834172777e-06,1.4542149706642249e-09,4.475913114032615e-06,6.002295336194423e-05,-0.0006070192563515962,-0.0009483361656960825,-0.00013259192320898107,9.536992820498426e-05,-0.00034787710340654766,0.0010952265800962036,0.3514034152030945,22.549890518188477,0.2007109820842743,-14.179414749145508,-0.10008770227432251,-2.1453890800476074,0.22830526530742645,0
30,0.14499926567077637,-0.3514034152030945,-22.549890518188477,-0.2007109820842743,14.179414749145508,0.10008770227432251,2.1453890800476074,-0.22830526530742645,0.0,0.0,0.0,0.0,0.0,0.0,0.0,-0.3352863745478329,0.2538453825130168,-0.2394545156155169,0.31439549300757447,-0.12831819927544091,-0.03526404913258537,-0.2429317420306072,1.6757103040385661,0.052114346682378826,0.029971453951116195,-2.75239432528981,0.03425417683384897,2.7663679528529173,0.7691585774338906,1.6754973547542302,0.052104326824870026,0.029969505109285054,-2.752394845125968,0.0342448039870148,2.7663679543071322,0.7691630533470046,-6.002295336194423e-05,0.0006070192563515962,0.0009483361656960825,0.00013259192320898107,-9.536992820498426e-05,0.00034787710340654766,-0.0010952265800962036,0.0,0.0,0.0,0.0,0.0,0.0,0.0,-0.00021294928433590599,-1.0019857508800079e-05,-1.948841831141135e-06,-5.198361581193467e-07,-9.372846834172777e-06,1.4542149706642249e-09,4.475913114032615e-06,6.002295336194423e-05,-0.0006070192563515962,-0.0009483361656960825,-0.00013259192320898107,9.536992820498426e-05,-0.00034787710340654766,0.0010952265800962036,0.3514034152030945,22.549890518188477,0.2007109820842743,-14.179414749145508,-0.10008770227432251,-2.1453890800476074,0.22830526530742645,0
31,0.15008807182312012,-0.3514034152030945,-22.549890518188477,-0.1729399859905243,14.155611038208008,0.11748272180557251,2.1582064628601074,-0.23471395671367645,0.0,0.0,0.0,0.0,0.0,0.0,0.0,-0.3339225283839952,0.25227209596362654,-0.23804495750803376,0.31827470638123506,-0.1293789771018137,-0.03472158892446387,-0.24446609455299625,1.6757103040385661,0.052114584045104315,0.029969505109285054,-2.7523926548539546,0.03424867529201228,2.7663665301534786,0.7691592895107136,1.6754973547542302,0.052104326824870026,0.029969505109285054,-2.752394845125968,0.0342448039870148,2.7663679543071322,0.7691630533470046,-3.283020544080397e-05,0.0004757331215129029,0.0004710745290016546,0.0010137879639481415,-0.0005748295510002243,-0.0003055509386686061,-0.00042743379255551857,0.0,0.0,0.0,0.0,0.0,0.0,0.0,-0.00021294928433590599,-1.0257220234288766e-05,0.0,-2.1902720135358322e-06,-3.871304997481173e-06,1.4241536536729882e-06,3.763836291081901e-06,3.283020544080397e-05,-0.0004757331215129029,-0.0004710745290016546,-0.0010137879639481415,0.0005748295510002243,0.0003055509386686061,0.00042743379255551857,0.3514034152030945,22.549890518188477,0.1729399859905243,-14.155611038208008,-0.11748272180557251,-2.1582064628601074,0.23471395671367645,0
32,0.15571212768554688,-0.3514034152030945,-22.549890518188477,-0.1729399859905243,14.155611038208008,0.11748272180557251,2.1582064628601074,-0.23471395671367645,0.0,0.0,0.0,0.0,0.0,0.0,0.0,-0.3339225283839952,0.25227209596362654,-0.23804495750803376,0.31827470638123506,-0.1293789771018137,-0.03472158892446387,-0.24446609455299625,1.6757103040385661,0.052114584045104315,0.029969505109285054,-2.7523926548539546,0.03424867529201228,2.7663665301534786,0.7691592895107136,1.6754973547542302,0.052104326824870026,0.029969505109285054,-2.752394845125968,0.0342448039870148,2.7663679543071322,0.7691630533470046,-3.283020544080397e-05,0.0004757331215129029,0.0004710745290016546,0.0010137879639481415,-0.0005748295510002243,-0.0003055509386686061,-0.00042743379255551857,0.0,0.0,0.0,0.0,0.0,0.0,0.0,-0.00021294928433590599,-1.0257220234288766e-05,0.0,-2.1902720135358322e-06,-3.871304997481173e-06,1.4241536536729882e-06,3.763836291081901e-06,3.283020544080397e-05,-0.0004757331215129029,-0.0004710745290016546,-0.0010137879639481415,0.0005748295510002243,0.0003055509386686061,0.00042743379255551857,0.3514034152030945,22.549890518188477,0.1729399859905243,-14.155611038208008,-0.11748272180557251,-2.1582064628601074,0.23471395671367645,0
33,0.16044139862060547,-0.3514034152030945,-22.573694229125977,-0.2245146930217743,14.179414749145508,0.11198955774307251,2.1582064628601074,-0.24112264811992645,0.0,0.0,0.0,0.0,0.0,0.0,0.0,-0.33901658850479727,0.25056469098168876,-0.24266026843617342,0.3177001221690653,-0.12921257586217041,-0.03500791150058316,-0.2453291156788784,1.675710277547613,0.052118166075374735,0.02997312438697146,-2.75239432528981,0.03425141973725607,2.7663665301534865,0.7691600015875365,1.6754973547542302,0.052104326824870026,0.029969505109285054,-2.752394845125968,0.0342448039870148,2.7663679543071322,0.7691630533470046,5.675789823281473e-05,0.00048134885714690704,0.0013286677575297667,0.00023897992672715623,-0.0004741946598148391,-0.0003910310310169519,0.00017171743677329925,0.0,0.0,0.0,0.0,0.0,0.0,0.0,-0.00021292279338269715,-1.3839250504708855e-05,-3.6192776864049647e-06,-5.198361581193467e-07,-6.615750241266427e-06,1.4241536456793824e-06,3.0517594681311877e-06,-5.675789823281473e-05,-0.00048134885714690704,-0.0013286677575297667,-0.00023897992672715623,0.0004741946598148391,0.0003910310310169519,-0.00017171743677329925,0.3514034152030945,22.573694229125977,0.2245146930217743,-14.179414749145508,-0.11198955774307251,-2.1582064628601074,0.24112264811992645,0
34,0.16499614715576172,-0.3514034152030945,-22.573694229125977,-0.2245146930217743,14.179414749145508,0.11198955774307251,2.1582064628601074,-0.24112264811992645,0.0,0.0,0.0,0.0,0.0,0.0,0.0,-0.33901658850479727,0.25056469098168876,-0.24266026843617342,0.3177001221690653,-0.12921257586217041,-0.03500791150058316,-0.2453291156788784,1.675710277547613,0.052118166075374735,0.02997312438697146,-2.75239432528981,0.03425141973725607,2.7663665301534865,0.7691600015875365,1.6754973547542302,0.052104326824870026,0.029969505109285054,-2.752394845125968,0.0342448039870148,2.7663679543071322,0.7691630533470046,5.675789823281473e-05,0.00048134885714690704,0.0013286677575297667,0.00023897992672715623,-0.0004741946598148391,-0.0003910310310169519,0.00017171743677329925,0.0,0.0,0.0,0.0,0.0,0.0,0.0,-0.00021292279338269715,-1.3839250504708855e-05,-3.6192776864049647e-06,-5.198361581193467e-07,-6.615750241266427e-06,1.4241536456793824e-06,3.0517594681311877e-06,-5.675789823281473e-05,-0.00048134885714690704,-0.0013286677575297667,-0.00023897992672715623,0.0004741946598148391,0.0003910310310169519,-0.00017171743677329925,0.3514034152030945,22.573694229125977,0.2245146930217743,-14.179414749145508,-0.11198955774307251,-2.1582064628601074,0.24112264811992645,0
35,0.17002534866333008,-0.3752071261405945,-22.549890518188477,-0.1729399859905243,14.155611038208008,0.11198955774307251,2.1453890800476074,-0.26858848333358765,0.0,0.0,0.0,0.0,0.0,0.0,0.0,-0.3394689695996622,0.2523554111651623,-0.2444161973072894,0.31595250527967683,-0.1292157950061493,-0.03584346805903035,-0.24497130271839493,1.6757119744743718,0.0521171804210559,0.029968794784515078,-2.7523926548539546,0.03425127030286409,2.7663679543071322,0.7691630533470046,1.6754973547542302,0.052104326824870026,0.029969505109285054,-2.752394845125968,0.0342448039870148,2.7663679543071322,0.7691630533470046,0.0010464711300823902,0.00015812687989896692,0.00012240315706551144,0.0007909912282749429,-0.0003363926520306102,-2.3231535173302465e-05,0.0007273626064548863,0.0,0.0,0.0,0.0,0.0,0.0,0.0,-0.00021461972014158448,-1.2853596185871674e-05,7.103247699757897e-07,-2.1902720135358322e-06,-6.466315849287807e-06,0.0,0.0,-0.0010464711300823902,-0.00015812687989896692,-0.00012240315706551144,-0.0007909912282749429,0.0003363926520306102,2.3231535173302465e-05,-0.0007273626064548863,0.3752071261405945,22.549890518188477,0.1729399859905243,-14.155611038208008,-0.11198955774307251,-2.1453890800476074,0.26858848333358765,0
36,0.17499399185180664,-0.3752071261405945,-22.549890518188477,-0.1729399859905243,14.155611038208008,0.11198955774307251,2.1453890800476074,-0.26858848333358765,0.0,0.0,0.0,0.0,0.0,0.0,0.0,-0.3394689695996622,0.2523554111651623,-0.2444161973072894,0.31595250527967683,-0.1292157950061493,-0.03584346805903035,-0.24497130271839493,1.6757119744743718,0.0521171804210559,0.029968794784515078,-2.7523926548539546,0.03425127030286409,2.7663679543071322,0.7691630533470046,1.6754973547542302,0.052104326824870026,0.029969505109285054,-2.752394845125968,0.0342448039870148,2.7663679543071322,0.7691630533470046,0.0010464711300823902,0.00015812687989896692,0.00012240315706551144,0.0007909912282749429,-0.0003363926520306102,-2.3231535173302465e-05,0.0007273626064548863,0.0,0.0,0.0,0.0,0.0,0.0,0.0,-0.00021461972014158448,-1.2853596185871674e-05,7.103247699757897e-07,-2.1902720135358322e-06,-6.466315849287807e-06,0.0,0.0,-0.0010464711300823902,-0.00015812687989896692,-0.00012240315706551144,-0.0007909912282749429,0.0003363926520306102,2.3231535173302465e-05,-0.0007273626064548863,0.3752071261405945,22.549890518188477,0.1729399859905243,-14.155611038208008,-0.11198955774307251,-2.1453890800476074,0.26858848333358765,0
37,0.17999696731567383,-0.3514034152030945,-22.549890518188477,-0.1491362750530243,14.230989456176758,0.09367901086807251,2.1517977714538574,-0.22830526530742645,0.0,0.0,0.0,0.0,0.0,0.0,0.0,-0.33990633949772575,0.24915541670380895,-0.24406265758317014,0.31500137313536325,-0.12883187030659837,-0.03625075515642608,-0.2460908582064578,1.6757103040385661,0.052116494787092994,0.029967124380736412,-2.7523979445674964,0.034250504460815304,2.766367242068804,0.7691585774338906,1.6754973547542302,0.052104326824870026,0.029969505109285054,-2.752394845125968,0.0342448039870148,2.7663679543071322,0.7691630533470046,0.0003460119389271758,-0.0001269433193305029,-9.621958700810386e-05,-0.001131468494657546,0.00038081467219518286,3.319135683880287e-05,-0.0005667429139386113,0.0,0.0,0.0,0.0,0.0,0.0,0.0,-0.00021294928433590599,-1.2167962222968398e-05,2.3807285486412977e-06,3.0994415283203125e-06,-5.7004738005031474e-06,7.122383283153511e-07,4.475913114032615e-06,-0.0003460119389271758,0.0001269433193305029,9.621958700810386e-05,0.001131468494657546,-0.00038081467219518286,-3.319135683880287e-05,0.0005667429139386113,0.3514034152030945,22.549890518188477,0.1491362750530243,-14.230989456176758,-0.09367901086807251,-2.1517977714538574,0.22830526530742645,0
38,0.18499422073364258,-0.3514034152030945,-22.549890518188477,-0.1491362750530243,14.230989456176758,0.09367901086807251,2.1517977714538574,-0.22830526530742645,0.0,0.0,0.0,0.0,0.0,0.0,0.0,-0.33990633949772575,0.24915541670380895,-0.24406265758317014,0.31500137313536325,-0.12883187030659837,-0.03625075515642608,-0.2460908582064578,1.6757103040385661,0.052116494787092994,0.029967124380736412,-2.7523979445674964,0.034250504460815304,2.766367242068804,0.7691585774338906,1.6754973547542302,0.052104326824870026,0.029969505109285054,-2.752394845125968,0.0342448039870148,2.7663679543071322,0.7691630533470046,0.0003460119389271758,-0.0001269433193305029,-9.621958700810386e-05,-0.001131468494657546,0.00038081467219518286,3.319135683880287e-05,-0.0005667429139386113,0.0,0.0,0.0,0.0,0.0,0.0,0.0,-0.00021294928433590599,-1.2167962222968398e-05,2.3807285486412977e-06,3.0994415283203125e-06,-5.7004738005031474e-06,7.122383283153511e-07,4.475913114032615e-06,-0.0003460119389271758,0.0001269433193305029,9.621958700810386e-05,0.001131468494657546,-0.00038081467219518286,-3.319135683880287e-05,0.0005667429139386113,0.3514034152030945,22.549890518188477,0.1491362750530243,-14.230989456176758,-0.09367901086807251,-2.1517977714538574,0.22830526530742645,0
39,0.19002413749694824,-0.2998287081718445,-22.549890518188477,-0.1491362750530243,14.155611038208008,0.10008770227432251,2.1517977714538574,-0.27591270208358765,0.0,0.0,0.0,0.0,0.0,0.0,0.0,-0.3364193309840415,0.24574473596533575,-0.24022643281887335,0.31696558808723757,-0.12935340811691298,-0.03587992050641701,-0.24388919372534038,1.67570668476088,0.05211437435589047,0.029967834661400922,-2.7523926548539546,0.034249795728840814,2.7663672422303067,0.769163867149088,1.6754973547542302,0.052104326824870026,0.029969505109285054,-2.752394845125968,0.0342448039870148,2.7663679543071322,0.7691630533470046,-0.00035779116441001375,-0.0003768040365525101,0.00034252339145709624,0.0009557825628028307,0.00011501851534944766,-0.00015139298164224457,0.0017550484246405035,0.0,0.0,0.0,0.0,0.0,0.0,0.0,-0.00020933000664968837,-1.0047531020442035e-05,1.6704478841313153e-06,-2.1902720135358322e-06,-4.991741826013141e-06,7.120768255042265e-07,-8.138020833881043e-07,0.00035779116441001375,0.0003768040365525101,-0.00034252339145709624,-0.0009557825628028307,-0.00011501851534944766,0.00015139298164224457,-0.0017550484246405035,0.2998287081718445,22.549890518188477,0.1491362750530243,-14.155611038208008,-0.10008770227432251,-2.1517977714538574,0.27591270208358765,0
40,0.1950075626373291,-0.2998287081718445,-22.549890518188477,-0.1491362750530243,14.155611038208008,0.10008770227432251,2.1517977714538574,-0.27591270208358765,0.0,0.0,0.0,0.0,0.0,0.0,0.0,-0.3364193309840415,0.24574473596533575,-0.24022643281887335,0.31696558808723757,-0.12935340811691298,-0.03587992050641701,-0.24388919372534038,1.67570668476088,0.05211437435589047,0.029967834661400922,-2.7523926548539546,0.034249795728840814,2.7663672422303067,0.769163867149088,1.6754973547542302,0.052104326824870026,0.029969505109285054,-2.752394845125968,0.0342448039870148,2.7663679543071322,0.7691630533470046,-0.00035779116441001375,-0.0003768040365525101,0.00034252339145709624,0.0009557825628028307,0.00011501851534944766,-0.00015139298164224457,0.0017550484246405035,0.0,0.0,0.0,0.0,0.0,0.0,0.0,-0.00020933000664968837,-1.0047531020442035e-05,1.6704478841313153e-06,-2.1902720135358322e-06,-4.991741826013141e-06,7.120768255042265e-07,-8.138020833881043e-07,0.00035779116441001375,0.0003768040365525101,-0.00034252339145709624,-0.0009557825628028307,-0.00011501851534944766,0.00015139298164224457,-0.0017550484246405035,0.2998287081718445,22.549890518188477,0.1491362750530243,-14.155611038208008,-0.10008770227432251,-2.1517977714538574,0.27591270208358765,0
41,0.20010113716125488,-0.2998287081718445,-22.522119522094727,-0.1491362750530243,14.230989456176758,0.10008770227432251,2.1517977714538574,-0.24844686686992645,0.0,0.0,0.0,0.0,0.0,0.0,0.0,-0.3359616402095267,0.24745876502080696,-0.24050135587097127,0.3115434531411048,-0.1296460025802276,-0.03662139036060337,-0.24066260508782508,1.67570668476088,0.05211246612202765,0.0299678083664415,-2.7523979445674964,0.03424944065601365,2.7663661811386295,0.7691609345989093,1.6754973547542302,0.052104326824870026,0.029969505109285054,-2.752394845125968,0.0342448039870148,2.7663679543071322,0.7691630533470046,-0.00032129641130454375,-0.0007643560163425231,-7.016109825095248e-05,-0.0017482758464770652,3.998527397785833e-05,-5.982095158126987e-05,-0.0002702250905862847,0.0,0.0,0.0,0.0,0.0,0.0,0.0,-0.00020933000664968837,-8.139297157622183e-06,1.6967428435529786e-06,3.0994415283203125e-06,-4.6366689988516785e-06,1.7731685026944888e-06,2.1187480953033244e-06,0.00032129641130454375,0.0007643560163425231,7.016109825095248e-05,0.0017482758464770652,-3.998527397785833e-05,5.982095158126987e-05,0.0002702250905862847,0.2998287081718445,22.522119522094727,0.1491362750530243,-14.230989456176758,-0.10008770227432251,-2.1517977714538574,0.24844686686992645,0
42,0.20499801635742188,-0.2998287081718445,-22.522119522094727,-0.1491362750530243,14.230989456176758,0.10008770227432251,2.1517977714538574,-0.24844686686992645,0.0,0.0,0.0,0.0,0.0,0.0,0.0,-0.3359616402095267,0.24745876502080696,-0.24050135587097127,0.3115434531411048,-0.1296460025802276,-0.03662139036060337,-0.24066260508782508,1.67570668476088,0.05211246612202765,0.0299678083664415,-2.7523979445674964,0.03424944065601365,2.7663661811386295,0.7691609345989093,1.6754973547542302,0.052104326824870026,0.029969505109285054,-2.752394845125968,0.0342448039870148,2.7663679543071322,0.7691630533470046,-0.00032129641130454375,-0.0007643560163425231,-7.016109825095248e-05,-0.0017482758464770652,3.998527397785833e-05,-5.982095158126987e-05,-0.0002702250905862847,0.0,0.0,0.0,0.0,0.0,0.0,0.0,-0.00020933000664968837,-8.139297157622183e-06,1.6967428435529786e-06,3.0994415283203125e-06,-4.6366689988516785e-06,1.7731685026944888e-06,2.1187480953033244e-06,0.00032129641130454375,0.0007643560163425231,7.016109825095248e-05,0.0017482758464770652,-3.998527397785833e-05,5.982095158126987e-05,0.0002702250905862847,0.2998287081718445,22.522119522094727,0.1491362750530243,-14.230989456176758,-0.10008770227432251,-2.1517977714538574,0.24844686686992645,0
43,0.21013402938842773,-0.3236324191093445,-22.549890518188477,-0.2007109820842743,14.207185745239258,0.10008770227432251,2.1517977714538574,-0.20724813640117645,0.0,0.0,0.0,0.0,0.0,0.0,0.0,-0.3271792147749568,0.25004489014607634,-0.2350371375321006,0.31074641216820104,-0.13030498965452172,-0.03653955137643137,-0.2421867816017254,1.675708355196735,0.05211441724037876,0.02997050689938959,-2.752396274131641,0.03425048868944418,2.7663671244867496,0.769156237753574,1.6754973547542302,0.052104326824870026,0.029969505109285054,-2.752394845125968,0.0342448039870148,2.7663679543071322,0.7691630533470046,0.0002521970094082041,0.0004175551704956666,0.001745920019461567,-0.0010326225073864436,-4.0204404540188935e-05,5.2874857792393095e-05,-0.0011474226937300616,0.0,0.0,0.0,0.0,0.0,0.0,0.0,-0.0002110004425048828,-1.009041550873585e-05,-1.0017901045378252e-06,1.429005672903827e-06,-5.6847024293774084e-06,8.29820382630686e-07,6.815593430631317e-06,-0.0002521970094082041,-0.0004175551704956666,-0.001745920019461567,0.0010326225073864436,4.0204404540188935e-05,-5.2874857792393095e-05,0.0011474226937300616,0.3236324191093445,22.549890518188477,0.2007109820842743,-14.207185745239258,-0.10008770227432251,-2.1517977714538574,0.20724813640117645,0
44,0.2149980068206787,-0.3236324191093445,-22.549890518188477,-0.2007109820842743,14.207185745239258,0.10008770227432251,2.1517977714538574,-0.20724813640117645,0.0,0.0,0.0,0.0,0.0,0.0,0.0,-0.3271792147749568,0.25004489014607634,-0.2350371375321006,0.31074641216820104,-0.13030498965452172,-0.03653955137643137,-0.2421867816017254,1.675708355196735,0.05211441724037876,0.02997050689938959,-2.752396274131641,0.03425048868944418,2.7663671244867496,0.769156237753574,1.6754973547542302,0.052104326824870026,0.029969505109285054,-2.752394845125968,0.0342448039870148,2.7663679543071322,0.7691630533470046,0.0002521970094082041,0.0004175551704956666,0.001745920019461567,-0.0010326225073864436,-4.0204404540188935e-05,5.2874857792393095e-05,-0.0011474226937300616,0.0,0.0,0.0,0.0,0.0,0.0,0.0,-0.0002110004425048828,-1.009041550873585e-05,-1.0017901045378252e-06,1.429005672903827e-06,-5.6847024293774084e-06,8.29820382630686e-07,6.815593430631317e-06,-0.0002521970094082041,-0.0004175551704956666,-0.001745920019461567,0.0010326225073864436,4.0204404540188935e-05,-5.2874857792393095e-05,0.0011474226937300616,0.3236324191093445,22.549890518188477,0.2007109820842743,-14.207185745239258,-0.10008770227432251,-2.1517977714538574,0.20724813640117645,0
45,0.21999549865722656,-0.3236324191093445,-22.522119522094727,-0.1491362750530243,14.230989456176758,0.09367901086807251,2.1453890800476074,-0.28232139348983765,0.0,0.0,0.0,0.0,0.0,0.0,0.0,-0.3323446683068043,0.24746630970256267,-0.24022819271170154,0.31547254918079926,-0.13016499174850787,-0.034596935392449214,-0.24196921036701732,1.675708355196735,0.05211525802134837,0.029967834671647747,-2.7523979445674964,0.0342548435822145,2.7663668941842645,0.769164579225911,1.6754973547542302,0.052104326824870026,0.029969505109285054,-2.752394845125968,0.0342448039870148,2.7663679543071322,0.7691630533470046,-0.00040099500159606423,-0.0006273111186029367,-0.0005526133724371735,-0.0011070615316648887,0.00024009887133744082,0.000335519311002356,0.0019221100358078897,0.0,0.0,0.0,0.0,0.0,0.0,0.0,-0.0002110004425048828,-1.0931196478346228e-05,1.6704376373070928e-06,3.0994415283203125e-06,-1.0039595199698437e-05,1.0601228677131758e-06,-1.5258789063388178e-06,0.00040099500159606423,0.0006273111186029367,0.0005526133724371735,0.0011070615316648887,-0.00024009887133744082,-0.000335519311002356,-0.0019221100358078897,0.3236324191093445,22.522119522094727,0.1491362750530243,-14.230989456176758,-0.09367901086807251,-2.1453890800476074,0.28232139348983765,0
46,0.2249910831451416,-0.3236324191093445,-22.522119522094727,-0.1491362750530243,14.230989456176758,0.09367901086807251,2.1453890800476074,-0.28232139348983765,0.0,0.0,0.0,0.0,0.0,0.0,0.0,-0.3323446683068043,0.24746630970256267,-0.24022819271170154,0.31547254918079926,-0.13016499174850787,-0.034596935392449214,-0.24196921036701732,1.675708355196735,0.05211525802134837,0.029967834671647747,-2.7523979445674964,0.0342548435822145,2.7663668941842645,0.769164579225911,1.6754973547542302,0.052104326824870026,0.029969505109285054,-2.752394845125968,0.0342448039870148,2.7663679543071322,0.7691630533470046,-0.00040099500159606423,-0.0006273111186029367,-0.0005526133724371735,-0.0011070615316648887,0.00024009887133744082,0.000335519311002356,0.0019221100358078897,0.0,0.0,0.0,0.0,0.0,0.0,0.0,-0.0002110004425048828,-1.0931196478346228e-05,1.6704376373070928e-06,3.0994415283203125e-06,-1.0039595199698437e-05,1.0601228677131758e-06,-1.5258789063388178e-06,0.00040099500159606423,0.0006273111186029367,0.0005526133724371735,0.0011070615316648887,-0.00024009887133744082,-0.000335519311002356,-0.0019221100358078897,0.3236324191093445,22.522119522094727,0.1491362750530243,-14.230989456176758,-0.09367901086807251,-2.1453890800476074,0.28232139348983765,0
47,0.22999811172485352,-0.3236324191093445,-22.522119522094727,-0.1491362750530243,14.230989456176758,0.09367901086807251,2.1453890800476074,-0.28232139348983765,0.0,0.0,0.0,0.0,0.0,0.0,0.0,-0.3323446683068043,0.24746630970256267,-0.24022819271170154,0.31547254918079926,-0.13016499174850787,-0.034596935392449214,-0.24196921036701732,1.675708355196735,0.05211525802134837,0.029967834671647747,-2.7523979445674964,0.0342548435822145,2.7663668941842645,0.769164579225911,1.6754973547542302,0.052104326824870026,0.029969505109285054,-2.752394845125968,0.0342448039870148,2.7663679543071322,0.7691630533470046,-0.00040099500159606423,-0.0006273111186029367,-0.0005526133724371735,-0.0011070615316648887,0.00024009887133744082,0.000335519311002356,0.0019221100358078897,0.0,0.0,0.0,0.0,0.0,0.0,0.0,-0.0002110004425048828,-1.0931196478346228e-05,1.6704376373070928e-06,3.0994415283203125e-06,-1.0039595199698437e-05,1.0601228677131758e-06,-1.5258789063388178e-06,0.00040099500159606423,0.0006273111186029367,0.0005526133724371735,0.0011070615316648887,-0.00024009887133744082,-0.000335519311002356,-0.0019221100358078897,0.3236324191093445,22.522119522094727,0.1491362750530243,-14.230989456176758,-0.09367901086807251,-2.1453890800476074,0.28232139348983765,0
48,0.2350327968597412,-0.3236324191093445,-22.522119522094727,-0.1491362750530243,14.230989456176758,0.09367901086807251,2.1453890800476074,-0.28232139348983765,0.0,0.0,0.0,0.0,0.0,0.0,0.0,-0.3323446683068043,0.24746630970256267,-0.24022819271170154,0.31547254918079926,-0.13016499174850787,-0.034596935392449214,-0.24196921036701732,1.675708355196735,0.05211525802134837,0.029967834671647747,-2.7523979445674964,0.0342548435822145,2.7663668941842645,0.769164579225911,1.6754973547542302,0.052104326824870026,0.029969505109285054,-2.752394845125968,0.0342448039870148,2.7663679543071322,0.7691630533470046,-0.00040099500159606423,-0.0006273111186029367,-0.0005526133724371735,-0.0011070615316648887,0.00024009887133744082,0.000335519311002356,0.0019221100358078897,0.0,0.0,0.0,0.0,0.0,0.0,0.0,-0.0002110004425048828,-1.0931196478346228e-05,1.6704376373070928e-06,3.0994415283203125e-06,-1.0039595199698437e-05,1.0601228677131758e-06,-1.5258789063388178e-06,0.00040099500159606423,0.0006273111186029367,0.0005526133724371735,0.0011070615316648887,-0.00024009887133744082,-0.000335519311002356,-0.0019221100358078897,0.3236324191093445,22.522119522094727,0.1491362750530243,-14.230989456176758,-0.09367901086807251,-2.1453890800476074,0.28232139348983765,0
49,0.2400224208831787,-0.3236324191093445,-22.549890518188477,-0.1729399859905243,14.207185745239258,0.09367901086807251,2.1517977714538574,-0.27591270208358765,0.0,0.0,0.0,0.0,0.0,0.0,0.0,-0.3284600846866802,0.24341159150496539,-0.23907998533746896,0.31809932249056033,-0.13128136577283325,-0.033359464818087665,-0.24072653394385649,1.6757083550877188,0.05211457203047213,0.029969505001025833,-2.752396274131641,0.03425045082706266,2.7663668497657583,0.769163867149088,1.6754973547542302,0.052104326824870026,0.029969505109285054,-2.752394845125968,0.0342448039870148,2.7663679543071322,0.7691630533470046,-7.776291904934614e-05,-0.0005911588624840151,5.245858622496728e-05,-0.00019380421384826023,0.000613483954667058,8.054772727138049e-05,0.0012104953205593785,0.0,0.0,0.0,0.0,0.0,0.0,0.0,-0.0002110003334885313,-1.024520560210379e-05,1.0825922103219199e-10,1.429005672903827e-06,-5.646840047862645e-06,1.1045413739196874e-06,-8.138020833881043e-07,7.776291904934614e-05,0.0005911588624840151,-5.245858622496728e-05,0.00019380421384826023,-0.000613483954667058,-8.054772727138049e-05,-0.0012104953205593785,0.3236324191093445,22.549890518188477,0.1729399859905243,-14.207185745239258,-0.09367901086807251,-2.1517977714538574,0.27591270208358765,0
50,0.24500346183776855,-0.3236324191093445,-22.549890518188477,-0.1729399859905243,14.207185745239258,0.09367901086807251,2.1517977714538574,-0.27591270208358765,0.0,0.0,0.0,0.0,0.0,0.0,0.0,-0.3284600846866802,0.24341159150496539,-0.23907998533746896,0.31809932249056033,-0.13128136577283325,-0.033359464818087665,-0.24072653394385649,1.6757083550877188,0.05211457203047213,0.029969505001025833,-2.752396274131641,0.03425045082706266,2.7663668497657583,0.769163867149088,1.6754973547542302,0.052104326824870026,0.029969505109285054,-2.752394845125968,0.0342448039870148,2.7663679543071322,0.7691630533470046,-7.776291904934614e-05,-0.0005911588624840151,5.245858622496728e-05,-0.00019380421384826023,0.000613483954667058,8.054772727138049e-05,0.0012104953205593785,0.0,0.0,0.0,0.0,0.0,0.0,0.0,-0.0002110003334885313,-1.024520560210379e-05,1.0825922103219199e-10,1.429005672903827e-06,-5.646840047862645e-06,1.1045413739196874e-06,-8.138020833881043e-07,7.776291904934614e-05,0.0005911588624840151,-5.245858622496728e-05,0.00019380421384826023,-0.000613483954667058,-8.054772727138049e-05,-0.0012104953205593785,0.3236324191093445,22.549890518188477,0.1729399859905243,-14.207185745239258,-0.09367901086807251,-2.1517977714538574,0.27591270208358765,0
51,0.24999451637268066,-0.3514034152030945,-22.573694229125977,-0.1729399859905243,14.207185745239258,0.10008770227432251,2.1582064628601074,-0.26858848333358765,0.0,0.0,0.0,0.0,0.0,0.0,0.0,-0.3284162118836921,0.2528513540922582,-0.23836345637376424,0.3118231611380518,-0.1312413592971293,-0.03456235203359872,-0.24103316726712368,1.6757103040385655,0.052118876216364296,0.029969505109284443,-2.752396274131641,0.03424939819609421,2.766366530151271,0.7691630533470046,1.6754973547542302,0.052104326824870026,0.029969505109285054,-2.752394845125968,0.0342448039870148,2.7663679543071322,0.7691630533470046,0.0005596109311501757,0.0008416227698836193,0.0001750598842957413,-0.00048589722931951347,0.0003460957334918282,-0.0003072145473675364,0.0007903292530845506,0.0,0.0,0.0,0.0,0.0,0.0,0.0,-0.00021294928433523985,-1.4549391494270147e-05,6.106226635438361e-16,1.429005672903827e-06,-4.594209079410161e-06,1.4241558612404503e-06,0.0,-0.0005596109311501757,-0.0008416227698836193,-0.0001750598842957413,0.00048589722931951347,-0.0003460957334918282,0.0003072145473675364,-0.0007903292530845506,0.3514034152030945,22.573694229125977,0.1729399859905243,-14.207185745239258,-0.10008770227432251,-2.1582064628601074,0.26858848333358765,0
52,0.2550082206726074,-0.3514034152030945,-22.573694229125977,-0.1729399859905243,14.207185745239258,0.10008770227432251,2.1582064628601074,-0.26858848333358765,0.0,0.0,0.0,0.0,0.0,0.0,0.0,-0.3284162118836921,0.2528513540922582,-0.23836345637376424,0.3118231611380518,-0.1312413592971293,-0.03456235203359872,-0.24103316726712368,1.6757103040385655,0.052118876216364296,0.029969505109284443,-2.752396274131641,0.03424939819609421,2.766366530151271,0.7691630533470046,1.6754973547542302,0.052104326824870026,0.029969505109285054,-2.752394845125968,0.0342448039870148,2.7663679543071322,0.7691630533470046,0.0005596109311501757,0.0008416227698836193,0.0001750598842957413,-0.00048589722931951347,0.0003460957334918282,-0.0003072145473675364,0.0007903292530845506,0.0,0.0,0.0,0.0,0.0,0.0,0.0,-0.00021294928433523985,-1.4549391494270147e-05,6.106226635438361e-16,1.429005672903827e-06,-4.594209079410161e-06,1.4241558612404503e-06,0.0,-0.0005596109311501757,-0.0008416227698836193,-0.0001750598842957413,0.00048589722931951347,-0.0003460957334918282,0.0003072145473675364,-0.0007903292530845506,0.3514034152030945,22.573694229125977,0.1729399859905243,-14.207185745239258,-0.10008770227432251,-2.1582064628601074,0.26858848333358765,0
53,0.26000118255615234,-0.3236324191093445,-22.549890518188477,-0.1491362750530243,14.179414749145508,0.10008770227432251,2.1517977714538574,-0.22830526530742645,0.0,0.0,0.0,0.0,0.0,0.0,0.0,-0.33147914904270387,0.25467938385296335,-0.24027491988159969,0.3116511894445069,-0.13058758763227682,-0.034911255735336356,-0.24238392721278074,1.675708355196735,0.05211505629637633,0.02996783369909689,-2.75239432528981,0.0342530974114127,2.7663672378696584,0.7691585774338906,1.6754973547542302,0.052104326824870026,0.029969505109285054,-2.752394845125968,0.0342448039870148,2.7663679543071322,0.7691630533470046,-0.00035920779952345824,0.00045957191433132136,-0.0003521352730158343,-0.00043209266852745575,0.00016165478674492803,2.0863910929268455e-05,-0.00032644745866125497,0.0,0.0,0.0,0.0,0.0,0.0,0.0,-0.0002110004425048828,-1.0729471506307209e-05,1.671410188162914e-06,-5.198361581193467e-07,-8.293424397898264e-06,7.164374737911317e-07,4.475913114032615e-06,0.00035920779952345824,-0.00045957191433132136,0.0003521352730158343,0.00043209266852745575,-0.00016165478674492803,-2.0863910929268455e-05,0.00032644745866125497,0.3236324191093445,22.549890518188477,0.1491362750530243,-14.179414749145508,-0.10008770227432251,-2.1517977714538574,0.22830526530742645,0
54,0.2650165557861328,-0.3236324191093445,-22.549890518188477,-0.1491362750530243,14.179414749145508,0.10008770227432251,2.1517977714538574,-0.22830526530742645,0.0,0.0,0.0,0.0,0.0,0.0,0.0,-0.33147914904270387,0.25467938385296335,-0.24027491988159969,0.3116511894445069,-0.13058758763227682,-0.034911255735336356,-0.24238392721278074,1.675708355196735,0.05211505629637633,0.02996783369909689,-2.75239432528981,0.0342530974114127,2.7663672378696584,0.7691585774338906,1.6754973547542302,0.052104326824870026,0.029969505109285054,-2.752394845125968,0.0342448039870148,2.7663679543071322,0.7691630533470046,-0.00035920779952345824,0.00045957191433132136,-0.0003521352730158343,-0.00043209266852745575,0.00016165478674492803,2.0863910929268455e-05,-0.00032644745866125497,0.0,0.0,0.0,0.0,0.0,0.0,0.0,-0.0002110004425048828,-1.0729471506307209e-05,1.671410188162914e-06,-5.198361581193467e-07,-8.293424397898264e-06,7.164374737911317e-07,4.475913114032615e-06,0.00035920779952345824,-0.00045957191433132136,0.0003521352730158343,0.00043209266852745575,-0.00016165478674492803,-2.0863910929268455e-05,0.00032644745866125497,0.3236324191093445,22.549890518188477,0.1491362750530243,-14.179414749145508,-0.10008770227432251,-2.1517977714538574,0.22830526530742645,0
55,0.2700345516204834,-0.2998287081718445,-22.549890518188477,-0.1491362750530243,14.179414749145508,0.11198955774307251,2.1517977714538574,-0.26858848333358765,0.0,0.0,0.0,0.0,0.0,0.0,0.0,-0.33071286262032235,0.24901324195329222,-0.23931878023901473,0.31745478321087245,-0.13055539093876106,-0.03370020864968839,-0.24170765856859722,1.67570668476088,0.052116705376053465,0.02996783467341329,-2.75239432528981,0.03425273167836262,2.7663672422302357,0.7691630533470046,1.6754973547542302,0.052104326824870026,0.029969505109285054,-2.752394845125968,0.0342448039870148,2.7663679543071322,0.7691630533470046,-0.0007166833182910269,4.400040826989068e-05,-0.0001542842305447448,0.0003026153424918035,-0.00046826580649542236,4.490806666744125e-05,0.0010902137442758493,0.0,0.0,0.0,0.0,0.0,0.0,0.0,-0.00020933000664968837,-1.2378551183439557e-05,1.6704358717645196e-06,-5.198361581193467e-07,-7.927691347817123e-06,7.120768965585e-07,0.0,0.0007166833182910269,-4.400040826989068e-05,0.0001542842305447448,-0.0003026153424918035,0.00046826580649542236,-4.490806666744125e-05,-0.0010902137442758493,0.2998287081718445,22.549890518188477,0.1491362750530243,-14.179414749145508,-0.11198955774307251,-2.1517977714538574,0.26858848333358765,0
56,0.2750082015991211,-0.2998287081718445,-22.549890518188477,-0.1491362750530243,14.179414749145508,0.11198955774307251,2.1517977714538574,-0.26858848333358765,0.0,0.0,0.0,0.0,0.0,0.0,0.0,-0.33071286262032235,0.24901324195329222,-0.23931878023901473,0.31745478321087245,-0.13055539093876106,-0.03370020864968839,-0.24170765856859722,1.67570668476088,0.052116705376053465,0.02996783467341329,-2.75239432528981,0.03425273167836262,2.7663672422302357,0.7691630533470046,1.6754973547542302,0.052104326824870026,0.029969505109285054,-2.752394845125968,0.0342448039870148,2.7663679543071322,0.7691630533470046,-0.0007166833182910269,4.400040826989068e-05,-0.0001542842305447448,0.0003026153424918035,-0.00046826580649542236,4.490806666744125e-05,0.0010902137442758493,0.0,0.0,0.0,0.0,0.0,0.0,0.0,-0.00020933000664968837,-1.2378551183439557e-05,1.6704358717645196e-06,-5.198361581193467e-07,-7.927691347817123e-06,7.120768965585e-07,0.0,0.0007166833182910269,-4.400040826989068e-05,0.0001542842305447448,-0.0003026153424918035,0.00046826580649542236,-4.490806666744125e-05,-0.0010902137442758493,0.2998287081718445,22.549890518188477,0.1491362750530243,-14.179414749145508,-0.11198955774307251,-2.1517977714538574,0.26858848333358765,0
57,0.28081679344177246,-0.2998287081718445,-22.522119522094727,-0.1729399859905243,14.207185745239258,0.10558086633682251,2.1517977714538574,-0.21457235515117645,0.0,0.0,0.0,0.0,0.0,0.0,0.0,-0.32773505953290155,0.25421973733792336,-0.23685798853928874,0.31279594607413763,-0.13047424910103492,-0.03452194405747117,-0.24205103057262053,1.67570668476088,0.05211310028936418,0.029969504784507422,-2.752396274131641,0.03425202361087185,2.766367242212364,0.7691570515549844,1.6754973547542302,0.052104326824870026,0.029969505109285054,-2.752394845125968,0.0342448039870148,2.7663679543071322,0.7691630533470046,-0.00040947042392863514,-0.0005516715571646046,0.0009049445583209846,-0.00039769264530413446,-0.00019545876937003404,9.899344494433736e-05,-0.0016137889252638064,0.0,0.0,0.0,0.0,0.0,0.0,0.0,-0.00020933000664968837,-8.773464494155059e-06,3.247776318715534e-10,1.429005672903827e-06,-7.219623857052104e-06,7.12094768040572e-07,6.00179202026041e-06,0.00040947042392863514,0.0005516715571646046,-0.0009049445583209846,0.00039769264530413446,0.00019545876937003404,-9.899344494433736e-05,0.0016137889252638064,0.2998287081718445,22.522119522094727,0.1729399859905243,-14.207185745239258,-0.10558086633682251,-2.1517977714538574,0.21457235515117645,0
58,0.2850160598754883,-0.2998287081718445,-22.522119522094727,-0.1729399859905243,14.207185745239258,0.10558086633682251,2.1517977714538574,-0.21457235515117645,0.0,0.0,0.0,0.0,0.0,0.0,0.0,-0.32773505953290155,0.25421973733792336,-0.23685798853928874,0.31279594607413763,-0.13047424910103492,-0.03452194405747117,-0.24205103057262053,1.67570668476088,0.05211310028936418,0.029969504784507422,-2.752396274131641,0.03425202361087185,2.766367242212364,0.7691570515549844,1.6754973547542302,0.052104326824870026,0.029969505109285054,-2.752394845125968,0.0342448039870148,2.7663679543071322,0.7691630533470046,-0.00040947042392863514,-0.0005516715571646046,0.0009049445583209846,-0.00039769264530413446,-0.00019545876937003404,9.899344494433736e-05,-0.0016137889252638064,0.0,0.0,0.0,0.0,0.0,0.0,0.0,-0.00020933000664968837,-8.773464494155059e-06,3.247776318715534e-10,1.429005672903827e-06,-7.219623857052104e-06,7.12094768040572e-07,6.00179202026041e-06,0.00040947042392863514,0.0005516715571646046,-0.0009049445583209846,0.00039769264530413446,0.00019545876937003404,-9.899344494433736e-05,0.0016137889252638064,0.2998287081718445,22.522119522094727,0.1729399859905243,-14.207185745239258,-0.10558086633682251,-2.1517977714538574,0.21457235515117645,0
59,0.2900235652923584,-0.2998287081718445,-22.549890518188477,-0.09756157547235489,14.155611038208008,0.10558086633682251,2.1389803886413574,-0.20724813640117645,0.0,0.0,0.0,0.0,0.0,0.0,0.0,-0.3310832173353456,0.25261062385973804,-0.24163132046786878,0.31350199611163077,-0.12997624567690852,-0.034791251114775365,-0.2441668328714085,1.675706675930562,0.05211505498357734,0.029963978633369876,-2.7523926557987624,0.034250356049676654,2.76636866633012,0.7691562377529011,1.6754973547542302,0.052104326824870026,0.029969505109285054,-2.752394845125968,0.0342448039870148,2.7663679543071322,0.7691630533470046,-0.000794034097428425,-4.2135153924317115e-05,-0.001300415975117343,0.000554964536445079,-6.89223164429532e-05,0.0005085447604498675,-0.0015112278209653827,0.0,0.0,0.0,0.0,0.0,0.0,0.0,-0.00020932117633187808,-1.0728158707312696e-05,5.526475915177548e-06,-2.1893272057482704e-06,-5.552062661853818e-06,-7.120229876811379e-07,6.815594103537492e-06,0.000794034097428425,4.2135153924317115e-05,0.001300415975117343,-0.000554964536445079,6.89223164429532e-05,-0.0005085447604498675,0.0015112278209653827,0.2998287081718445,22.549890518188477,0.09756157547235489,-14.155611038208008,-0.10558086633682251,-2.1389803886413574,0.20724813640117645,0
60,0.2950446605682373,-0.2998287081718445,-22.549890518188477,-0.09756157547235489,14.155611038208008,0.10558086633682251,2.1389803886413574,-0.20724813640117645,0.0,0.0,0.0,0.0,0.0,0.0,0.0,-0.3310832173353456,0.25261062385973804,-0.24163132046786878,0.31350199611163077,-0.12997624567690852,-0.034791251114775365,-0.2441668328714085,1.675706675930562,0.05211505498357734,0.029963978633369876,-2.7523926557987624,0.034250356049676654,2.76636866633012,0.7691562377529011,1.6754973547542302,0.052104326824870026,0.029969505109285054,-2.752394845125968,0.0342448039870148,2.7663679543071322,0.7691630533470046,-0.000794034097428425,-4.2135153924317115e-05,-0.001300415975117343,0.000554964536445079,-6.89223164429532e-05,0.0005085447604498675,-0.0015112278209653827,0.0,0.0,0.0,0.0,0.0,0.0,0.0,-0.00020932117633187808,-1.0728158707312696e-05,5.526475915177548e-06,-2.1893272057482704e-06,-5.552062661853818e-06,-7.120229876811379e-07,6.815594103537492e-06,0.000794034097428425,4.2135153924317115e-05,0.001300415975117343,-0.000554964536445079,6.89223164429532e-05,-0.0005085447604498675,0.0015112278209653827,0.2998287081718445,22.549890518188477,0.09756157547235489,-14.155611038208008,-0.10558086633682251,-2.1389803886413574,0.20724813640117645,0
61,0.30000972747802734,-0.3236324191093445,-22.573694229125977,-0.1729399859905243,14.155611038208008,0.10558086633682251,2.1453890800476074,-0.24844686686992645,0.0,0.0,0.0,0.0,0.0,0.0,0.0,-0.3274544436747002,0.2509690483111641,-0.2389688965881538,0.3155725136003254,-0.13010304440873088,-0.034810635711471534,-0.24394586282980896,1.6757083551966854,0.05211624288772152,0.029969268345053996,-2.75239265485396,0.03424914597293193,2.766367954307132,0.7691608153896198,1.6754973547542302,0.052104326824870026,0.029969505109285054,-2.752394845125968,0.0342448039870148,2.7663679543071322,0.7691630533470046,-6.473311016749048e-05,0.0002981313252227623,0.000304005811346427,0.0008770752581686249,-7.168355067232393e-05,0.00032707355998023107,0.0012082874863506544,0.0,0.0,0.0,0.0,0.0,0.0,0.0,-0.00021100044245514482,-1.1916062851495546e-05,2.3676423105759015e-07,-2.1902720082067617e-06,-4.341985917130642e-06,4.440892098500626e-16,2.2379573848541057e-06,6.473311016749048e-05,-0.0002981313252227623,-0.000304005811346427,-0.0008770752581686249,7.168355067232393e-05,-0.00032707355998023107,-0.0012082874863506544,0.3236324191093445,22.573694229125977,0.1729399859905243,-14.155611038208008,-0.10558086633682251,-2.1453890800476074,0.24844686686992645,0
62,0.30499863624572754,-0.3236324191093445,-22.573694229125977,-0.1729399859905243,14.155611038208008,0.10558086633682251,2.1453890800476074,-0.24844686686992645,0.0,0.0,0.0,0.0,0.0,0.0,0.0,-0.3274544436747002,0.2509690483111641,-0.2389688965881538,0.3155725136003254,-0.13010304440873088,-0.034810635711471534,-0.24394586282980896,1.6757083551966854,0.05211624288772152,0.029969268345053996,-2.75239265485396,0.03424914597293193,2.766367954307132,0.7691608153896198,1.6754973547542302,0.052104326824870026,0.029969505109285054,-2.752394845125968,0.0342448039870148,2.7663679543071322,0.7691630533470046,-6.473311016749048e-05,0.0002981313252227623,0.000304005811346427,0.0008770752581686249,-7.168355067232393e-05,0.00032707355998023107,0.0012082874863506544,0.0,0.0,0.0,0.0,0.0,0.0,0.0,-0.00021100044245514482,-1.1916062851495546e-05,2.3676423105759015e-07,-2.1902720082067617e-06,-4.341985917130642e-06,4.440892098500626e-16,2.2379573848541057e-06,6.473311016749048e-05,-0.0002981313252227623,-0.000304005811346427,-0.0008770752581686249,7.168355067232393e-05,-0.00032707355998023107,-0.0012082874863506544,0.3236324191093445,22.573694229125977,0.1729399859905243,-14.155611038208008,-0.10558086633682251,-2.1453890800476074,0.24844686686992645,0
63,0.3099944591522217,-0.3236324191093445,-22.498315811157227,-0.2007109820842743,14.131807327270508,0.08818584680557251,2.1453890800476074,-0.27591270208358765,0.0,0.0,0.0,0.0,0.0,0.0,0.0,-0.33277757767596433,0.25293864615547357,-0.2431284532833282,0.3121966031281348,-0.12968545167863194,-0.03552831915309427,-0.24501297492277677,1.675708355196735,0.052110724839573436,0.029971453949779653,-2.7523909844530925,0.03425214369190784,2.7663679538226154,0.769163867149088,1.6754973547542302,0.052104326824870026,0.029969505109285054,-2.752394845125968,0.0342448039870148,2.7663679543071322,0.7691630533470046,-0.0011269938832538012,-0.0014007537241202067,0.0011035456668819909,0.000974476565310297,0.0003485745964726927,0.00015257029614444462,0.0010197794376003884,0.0,0.0,0.0,0.0,0.0,0.0,0.0,-0.0002110004425048828,-6.398014703409838e-06,-1.9488404945991467e-06,-3.86067287561076e-06,-7.33970489304181e-06,4.845168710687631e-10,-8.138020833881043e-07,0.0011269938832538012,0.0014007537241202067,-0.0011035456668819909,-0.000974476565310297,-0.0003485745964726927,-0.00015257029614444462,-0.0010197794376003884,0.3236324191093445,22.498315811157227,0.2007109820842743,-14.131807327270508,-0.08818584680557251,-2.1453890800476074,0.27591270208358765,0
64,0.3150057792663574,-0.3236324191093445,-22.498315811157227,-0.2007109820842743,14.131807327270508,0.08818584680557251,2.1453890800476074,-0.27591270208358765,0.0,0.0,0.0,0.0,0.0,0.0,0.0,-0.33277757767596433,0.25293864615547357,-0.2431284532833282,0.3121966031281348,-0.12968545167863194,-0.03552831915309427,-0.24501297492277677,1.675708355196735,0.052110724839573436,0.029971453949779653,-2.7523909844530925,0.03425214369190784,2.7663679538226154,0.769163867149088,1.6754973547542302,0.052104326824870026,0.029969505109285054,-2.752394845125968,0.0342448039870148,2.7663679543071322,0.7691630533470046,-0.0011269938832538012,-0.0014007537241202067,0.0011035456668819909,0.000974476565310297,0.0003485745964726927,0.00015257029614444462,0.0010197794376003884,0.0,0.0,0.0,0.0,0.0,0.0,0.0,-0.0002110004425048828,-6.398014703409838e-06,-1.9488404945991467e-06,-3.86067287561076e-06,-7.33970489304181e-06,4.845168710687631e-10,-8.138020833881043e-07,0.0011269938832538012,0.0014007537241202067,-0.0011035456668819909,-0.000974476565310297,-0.0003485745964726927,-0.00015257029614444462,-0.0010197794376003884,0.3236324191093445,22.498315811157227,0.2007109820842743,-14.131807327270508,-0.08818584680557251,-2.1453890800476074,0.27591270208358765,0
65,0.32001471519470215,-0.3514034152030945,-22.549890518188477,-0.1491362750530243,14.131807327270508,0.09367901086807251,2.1517977714538574,-0.24112264811992645,0.0,0.0,0.0,0.0,0.0,0.0,0.0,-0.33762257873752505,0.24930377344602817,-0.2407006171700286,0.3157748821029312,-0.13039003333184318,-0.035564611650036757,-0.24700837062343253,1.6757102245657065,0.05211434375468626,0.029967834673429783,-2.7523909844180996,0.03425376667975091,2.766367124492737,0.7691600015875365,1.6754973547542302,0.052104326824870026,0.029969505109285054,-2.752394845125968,0.0342448039870148,2.7663679543071322,0.7691630533470046,-0.00032286580068072775,5.52449570835266e-05,-0.0004900376066247849,0.0012555692082553613,0.00038222628105050134,-0.00010768839350761846,7.828759437921191e-05,0.0,0.0,0.0,0.0,0.0,0.0,0.0,-0.00021286981147627948,-1.0016929816232534e-05,1.6704358552707688e-06,-3.8607078685082286e-06,-8.962692736112776e-06,8.298143954199588e-07,3.0517594681311877e-06,0.00032286580068072775,-5.52449570835266e-05,0.0004900376066247849,-0.0012555692082553613,-0.00038222628105050134,0.00010768839350761846,-7.828759437921191e-05,0.3514034152030945,22.549890518188477,0.1491362750530243,-14.131807327270508,-0.09367901086807251,-2.1517977714538574,0.24112264811992645,0
66,0.3250243663787842,-0.3514034152030945,-22.549890518188477,-0.1491362750530243,14.131807327270508,0.09367901086807251,2.1517977714538574,-0.24112264811992645,0.0,0.0,0.0,0.0,0.0,0.0,0.0,-0.33762257873752505,0.24930377344602817,-0.2407006171700286,0.3157748821029312,-0.13039003333184318,-0.035564611650036757,-0.24700837062343253,1.6757102245657065,0.05211434375468626,0.029967834673429783,-2.7523909844180996,0.03425376667975091,2.766367124492737,0.7691600015875365,1.6754973547542302,0.052104326824870026,0.029969505109285054,-2.752394845125968,0.0342448039870148,2.7663679543071322,0.7691630533470046,-0.00032286580068072775,5.52449570835266e-05,-0.0004900376066247849,0.0012555692082553613,0.00038222628105050134,-0.00010768839350761846,7.828759437921191e-05,0.0,0.0,0.0,0.0,0.0,0.0,0.0,-0.00021286981147627948,-1.0016929816232534e-05,1.6704358552707688e-06,-3.8607078685082286e-06,-8.962692736112776e-06,8.298143954199588e-07,3.0517594681311877e-06,0.00032286580068072775,-5.52449570835266e-05,0.0004900376066247849,-0.0012555692082553613,-0.00038222628105050134,0.00010768839350761846,-7.828759437921191e-05,0.3514034152030945,22.549890518188477,0.1491362750530243,-14.131807327270508,-0.09367901086807251,-2.1517977714538574,0.24112264811992645,0
67,0.3250243663787842,-0.3514034152030945,-22.549890518188477,-0.1491362750530243,14.131807327270508,0.09367901086807251,2.1517977714538574,-0.24112264811992645,0.0,0.0,0.0,0.0,0.0,0.0,0.0,-0.33762257873752505,0.24930377344602817,-0.2407006171700286,0.3157748821029312,-0.13039003333184318,-0.035564611650036757,-0.24700837062343253,1.6757102245657065,0.05211434375468626,0.029967834673429783,-2.7523909844180996,0.03425376667975091,2.766367124492737,0.7691600015875365,1.6754973547542302,0.052104326824870026,0.029969505109285054,-2.752394845125968,0.0342448039870148,2.7663679543071322,0.7691630533470046,-0.00032286580068072775,5.52449570835266e-05,-0.0004900376066247849,0.0012555692082553613,0.00038222628105050134,-0.00010768839350761846,7.828759437921191e-05,0.0,0.0,0.0,0.0,0.0,0.0,0.0,-0.00021286981147627948,-1.0016929816232534e-05,1.6704358552707688e-06,-3.8607078685082286e-06,-8.962692736112776e-06,8.298143954199588e-07,3.0517594681311877e-06,0.00032286580068072775,-5.52449570835266e-05,0.0004900376066247849,-0.0012555692082553613,-0.00038222628105050134,0.00010768839350761846,-7.828759437921191e-05,0.3514034152030945,22.549890518188477,0.1491362750530243,-14.131807327270508,-0.09367901086807251,-2.1517977714538574,0.24112264811992645,0
68,0.33504557609558105,-0.3514034152030945,-22.549890518188477,-0.1729399859905243,14.155611038208008,0.10008770227432251,2.1517977714538574,-0.23471395671367645,0.0,0.0,0.0,0.0,0.0,0.0,0.0,-0.3417374175077859,0.2537423039806318,-0.24303861817220626,0.31338531087944604,-0.13030260246858835,-0.035981565081878615,-0.24645648385649202,1.6757103040381176,0.052116468361173895,0.029969505109285054,-2.7523926548539546,0.034250962019115636,2.7663672421758094,0.7691592895107136,1.6754973547542302,0.052104326824870026,0.029969505109285054,-2.752394845125968,0.0342448039870148,2.7663679543071322,0.7691630533470046,-9.765835098600986e-05,0.0005002204659292751,0.00031493993829208544,0.0008064986004181652,0.00031518323075784623,-6.375927664540524e-05,0.00021065402793609742,0.0,0.0,0.0,0.0,0.0,0.0,0.0,-0.00021294928388737588,-1.2141536303869604e-05,0.0,-2.1902720135358322e-06,-6.1580321008350425e-06,7.121313227997916e-07,3.763836291081901e-06,9.765835098600986e-05,-0.0005002204659292751,-0.00031493993829208544,-0.0008064986004181652,-0.00031518323075784623,6.375927664540524e-05,-0.00021065402793609742,0.3514034152030945,22.549890518188477,0.1729399859905243,-14.155611038208008,-0.10008770227432251,-2.1517977714538574,0.23471395671367645,0
69,0.34003400802612305,-0.3514034152030945,-22.549890518188477,-0.1729399859905243,14.155611038208008,0.10008770227432251,2.1517977714538574,-0.23471395671367645,0.0,0.0,0.0,0.0,0.0,0.0,0.0,-0.3417374175077859,0.2537423039806318,-0.24303861817220626,0.31338531087944604,-0.13030260246858835,-0.035981565081878615,-0.24645648385649202,1.6757103040381176,0.052116468361173895,0.029969505109285054,-2.7523926548539546,0.034250962019115636,2.7663672421758094,0.7691592895107136,1.6754973547542302,0.052104326824870026,0.029969505109285054,-2.752394845125968,0.0342448039870148,2.7663679543071322,0.7691630533470046,-9.765835098600986e-05,0.0005002204659292751,0.00031493993829208544,0.0008064986004181652,0.00031518323075784623,-6.375927664540524e-05,0.00021065402793609742,0.0,0.0,0.0,0.0,0.0,0.0,0.0,-0.00021294928388737588,-1.2141536303869604e-05,0.0,-2.1902720135358322e-06,-6.1580321008350425e-06,7.121313227997916e-07,3.763836291081901e-06,9.765835098600986e-05,-0.0005002204659292751,-0.00031493993829208544,-0.0008064986004181652,-0.00031518323075784623,6.375927664540524e-05,-0.00021065402793609742,0.3514034152030945,22.549890518188477,0.1729399859905243,-14.155611038208008,-0.10008770227432251,-2.1517977714538574,0.23471395671367645,0
70,0.34501028060913086,-0.3514034152030945,-22.498315811157227,-0.1491362750530243,14.179414749145508,0.11748272180557251,2.1453890800476074,-0.25485557317733765,0.0,0.0,0.0,0.0,0.0,0.0,0.0,-0.3414337035337629,0.25448849603585966,-0.24277465995512706,0.3146480083607291,-0.12988492410674454,-0.035894562052683494,-0.24406139927162374,1.6757103039295498,0.05211071581816029,0.02996783467342979,-2.752394325604746,0.03425211169187071,2.76636794122518,0.7691615274680984,1.6754973547542302,0.052104326824870026,0.029969505109285054,-2.752394845125968,0.0342448039870148,2.7663679543071322,0.7691630533470046,0.0005044122924101067,-0.0009737935230071737,-0.0004975076460238875,0.0005376850444533962,-0.00039368056700685974,0.00011322581095474968,0.0005783133463331129,0.0,0.0,0.0,0.0,0.0,0.0,0.0,-0.00021294917531955448,-6.388993290265543e-06,1.6704358552638299e-06,-5.195212220421297e-07,-7.307704855907815e-06,1.3081952410232134e-08,1.5258789062277955e-06,-0.0005044122924101067,0.0009737935230071737,0.0004975076460238875,-0.0005376850444533962,0.00039368056700685974,-0.00011322581095474968,-0.0005783133463331129,0.3514034152030945,22.498315811157227,0.1491362750530243,-14.179414749145508,-0.11748272180557251,-2.1453890800476074,0.25485557317733765,0
71,0.3500077724456787,-0.3514034152030945,-22.498315811157227,-0.1491362750530243,14.179414749145508,0.11748272180557251,2.1453890800476074,-0.25485557317733765,0.0,0.0,0.0,0.0,0.0,0.0,0.0,-0.3414337035337629,0.25448849603585966,-0.24277465995512706,0.3146480083607291,-0.12988492410674454,-0.035894562052683494,-0.24406139927162374,1.6757103039295498,0.05211071581816029,0.02996783467342979,-2.752394325604746,0.03425211169187071,2.76636794122518,0.7691615274680984,1.6754973547542302,0.052104326824870026,0.029969505109285054,-2.752394845125968,0.0342448039870148,2.7663679543071322,0.7691630533470046,0.0005044122924101067,-0.0009737935230071737,-0.0004975076460238875,0.0005376850444533962,-0.00039368056700685974,0.00011322581095474968,0.0005783133463331129,0.0,0.0,0.0,0.0,0.0,0.0,0.0,-0.00021294917531955448,-6.388993290265543e-06,1.6704358552638299e-06,-5.195212220421297e-07,-7.307704855907815e-06,1.3081952410232134e-08,1.5258789062277955e-06,-0.0005044122924101067,0.0009737935230071737,0.0004975076460238875,-0.0005376850444533962,0.00039368056700685974,-0.00011322581095474968,-0.0005783133463331129,0.3514034152030945,22.498315811157227,0.1491362750530243,-14.179414749145508,-0.11748272180557251,-2.1453890800476074,0.25485557317733765,0
72,0.35500621795654297,-0.3514034152030945,-22.498315811157227,-0.1491362750530243,14.179414749145508,0.11748272180557251,2.1453890800476074,-0.25485557317733765,0.0,0.0,0.0,0.0,0.0,0.0,0.0,-0.3414337035337629,0.25448849603585966,-0.24277465995512706,0.3146480083607291,-0.12988492410674454,-0.035894562052683494,-0.24406139927162374,1.6757103039295498,0.05211071581816029,0.02996783467342979,-2.752394325604746,0.03425211169187071,2.76636794122518,0.7691615274680984,1.6754973547542302,0.052104326824870026,0.029969505109285054,-2.752394845125968,0.0342448039870148,2.7663679543071322,0.7691630533470046,0.0005044122924101067,-0.0009737935230071737,-0.0004975076460238875,0.0005376850444533962,-0.00039368056700685974,0.00011322581095474968,0.0005783133463331129,0.0,0.0,0.0,0.0,0.0,0.0,0.0,-0.00021294917531955448,-6.388993290265543e-06,1.6704358552638299e-06,-5.195212220421297e-07,-7.307704855907815e-06,1.3081952410232134e-08,1.5258789062277955e-06,-0.0005044122924101067,0.0009737935230071737,0.0004975076460238875,-0.0005376850444533962,0.00039368056700685974,-0.00011322581095474968,-0.0005783133463331129,0.3514034152030945,22.498315811157227,0.1491362750530243,-14.179414749145508,-0.11748272180557251,-2.1453890800476074,0.25485557317733765,0
73,0.3600196838378906,-0.3514034152030945,-22.498315811157227,-0.1491362750530243,14.179414749145508,0.11748272180557251,2.1453890800476074,-0.25485557317733765,0.0,0.0,0.0,0.0,0.0,0.0,0.0,-0.3414337035337629,0.25448849603585966,-0.24277465995512706,0.3146480083607291,-0.12988492410674454,-0.035894562052683494,-0.24406139927162374,1.6757103039295498,0.05211071581816029,0.02996783467342979,-2.752394325604746,0.03425211169187071,2.76636794122518,0.7691615274680984,1.6754973547542302,0.052104326824870026,0.029969505109285054,-2.752394845125968,0.0342448039870148,2.7663679543071322,0.7691630533470046,0.0005044122924101067,-0.0009737935230071737,-0.0004975076460238875,0.0005376850444533962,-0.00039368056700685974,0.00011322581095474968,0.0005783133463331129,0.0,0.0,0.0,0.0,0.0,0.0,0.0,-0.00021294917531955448,-6.388993290265543e-06,1.6704358552638299e-06,-5.195212220421297e-07,-7.307704855907815e-06,1.3081952410232134e-08,1.5258789062277955e-06,-0.0005044122924101067,0.0009737935230071737,0.0004975076460238875,-0.0005376850444533962,0.00039368056700685974,-0.00011322581095474968,-0.0005783133463331129,0.3514034152030945,22.498315811157227,0.1491362750530243,-14.179414749145508,-0.11748272180557251,-2.1453890800476074,0.25485557317733765,0
74,0.36501646041870117,-0.2998287081718445,-22.597497940063477,-0.1491362750530243,14.179414749145508,0.10008770227432251,2.1517977714538574,-0.26217979192733765,0.0,0.0,0.0,0.0,0.0,0.0,0.0,-0.3373218202302514,0.2597020273796832,-0.24027785561005036,0.3088080915284554,-0.12930396165207467,-0.03720019510272497,-0.24359875714791193,1.6757066847608793,0.0521179130304853,0.02996783467342979,-2.7523943252898118,0.034253690156821455,2.766367241745719,0.7691623412701818,1.6754973547542302,0.052104326824870026,0.029969505109285054,-2.752394845125968,0.0342448039870148,2.7663679543071322,0.7691630533470046,-0.00044639293671302853,0.00168345132355957,-0.00022819266959451406,-0.00017155803596043972,0.00010452019036343612,-1.3214150396916613e-05,0.0009654558504211619,0.0,0.0,0.0,0.0,0.0,0.0,0.0,-0.00020933000664902224,-1.3586205615270797e-05,1.6704358552638299e-06,-5.198361563429899e-07,-8.886169806654465e-06,7.125614134295688e-07,7.120768228396912e-07,0.00044639293671302853,-0.00168345132355957,0.00022819266959451406,0.00017155803596043972,-0.00010452019036343612,1.3214150396916613e-05,-0.0009654558504211619,0.2998287081718445,22.597497940063477,0.1491362750530243,-14.179414749145508,-0.10008770227432251,-2.1517977714538574,0.26217979192733765,0
75,0.3700263500213623,-0.2998287081718445,-22.597497940063477,-0.1491362750530243,14.179414749145508,0.10008770227432251,2.1517977714538574,-0.26217979192733765,0.0,0.0,0.0,0.0,0.0,0.0,0.0,-0.3373218202302514,0.2597020273796832,-0.24027785561005036,0.3088080915284554,-0.12930396165207467,-0.03720019510272497,-0.24359875714791193,1.6757066847608793,0.0521179130304853,0.02996783467342979,-2.7523943252898118,0.034253690156821455,2.766367241745719,0.7691623412701818,1.6754973547542302,0.052104326824870026,0.029969505109285054,-2.752394845125968,0.0342448039870148,2.7663679543071322,0.7691630533470046,-0.00044639293671302853,0.00168345132355957,-0.00022819266959451406,-0.00017155803596043972,0.00010452019036343612,-1.3214150396916613e-05,0.0009654558504211619,0.0,0.0,0.0,0.0,0.0,0.0,0.0,-0.00020933000664902224,-1.3586205615270797e-05,1.6704358552638299e-06,-5.198361563429899e-07,-8.886169806654465e-06,7.125614134295688e-07,7.120768228396912e-07,0.00044639293671302853,-0.00168345132355957,0.00022819266959451406,0.00017155803596043972,-0.00010452019036343612,1.3214150396916613e-05,-0.0009654558504211619,0.2998287081718445,22.597497940063477,0.1491362750530243,-14.179414749145508,-0.10008770227432251,-2.1517977714538574,0.26217979192733765,0
76,0.3750498294830322,-0.3236324191093445,-22.522119522094727,-0.1253325641155243,14.155611038208008,0.12389141321182251,2.1453890800476074,-0.20724813640117645,0.0,0.0,0.0,0.0,0.0,0.0,0.0,-0.33146009186304554,0.25678783105439223,-0.23769595090803214,0.31263031557717336,-0.12905511797735617,-0.03600225669632574,-0.24230404734166067,1.675708355196735,0.05211548065726815,0.029966164237574526,-2.7523926548539546,0.03425030291234506,2.7663679543071313,0.7691562377529011,1.6754973547542302,0.052104326824870026,0.029969505109285054,-2.752394845125968,0.0342448039870148,2.7663679543071322,0.7691630533470046,0.00044870851491505805,-0.0004924102664210443,-0.00019988851681504406,0.0007812142593759188,-0.0008290624632867496,-8.250290364453429e-05,-0.001717365816915303,0.0,0.0,0.0,0.0,0.0,0.0,0.0,-0.0002110004425048828,-1.115383239812251e-05,3.3408717105276597e-06,-2.1902720135358322e-06,-5.498925330256477e-06,8.881784197001252e-16,6.815594103537492e-06,-0.00044870851491505805,0.0004924102664210443,0.00019988851681504406,-0.0007812142593759188,0.0008290624632867496,8.250290364453429e-05,0.001717365816915303,0.3236324191093445,22.522119522094727,0.1253325641155243,-14.155611038208008,-0.12389141321182251,-2.1453890800476074,0.20724813640117645,0
77,0.38006043434143066,-0.3236324191093445,-22.522119522094727,-0.1253325641155243,14.155611038208008,0.12389141321182251,2.1453890800476074,-0.20724813640117645,0.0,0.0,0.0,0.0,0.0,0.0,0.0,-0.33146009186304554,0.25678783105439223,-0.23769595090803214,0.31263031557717336,-0.12905511797735617,-0.03600225669632574,-0.24230404734166067,1.675708355196735,0.05211548065726815,0.029966164237574526,-2.7523926548539546,0.03425030291234506,2.7663679543071313,0.7691562377529011,1.6754973547542302,0.052104326824870026,0.029969505109285054,-2.752394845125968,0.0342448039870148,2.7663679543071322,0.7691630533470046,0.00044870851491505805,-0.0004924102664210443,-0.00019988851681504406,0.0007812142593759188,-0.0008290624632867496,-8.250290364453429e-05,-0.001717365816915303,0.0,0.0,0.0,0.0,0.0,0.0,0.0,-0.0002110004425048828,-1.115383239812251e-05,3.3408717105276597e-06,-2.1902720135358322e-06,-5.498925330256477e-06,8.881784197001252e-16,6.815594103537492e-06,-0.00044870851491505805,0.0004924102664210443,0.00019988851681504406,-0.0007812142593759188,0.0008290624632867496,8.250290364453429e-05,0.001717365816915303,0.3236324191093445,22.522119522094727,0.1253325641155243,-14.155611038208008,-0.12389141321182251,-2.1453890800476074,0.20724813640117645,0
78,0.3849985599517822,-0.3236324191093445,-22.522119522094727,-0.1253325641155243,14.179414749145508,0.10558086633682251,2.1453890800476074,-0.21457235515117645,0.0,0.0,0.0,0.0,0.0,0.0,0.0,-0.33246774286365033,0.25469103645313657,-0.23858684766237212,0.3115285097561501,-0.12849840164930257,-0.03610058569240806,-0.24196881509381848,1.6757083522532958,0.052112386151055824,0.029966164237574526,-2.7523943262696107,0.034253404955608364,2.766367910700625,0.7691570501014341,1.6754973547542302,0.052104326824870026,0.029969505109285054,-2.752394845125968,0.0342448039870148,2.7663679543071322,0.7691630533470046,0.00010257233446672142,-0.0006954236224879794,-0.0003414297695953886,-4.694282394644121e-05,-3.941783182316341e-05,0.00011672962989690151,-0.0012485685949909387,0.0,0.0,0.0,0.0,0.0,0.0,0.0,-0.00021099749906561271,-8.059326185798354e-06,3.3408717105276597e-06,-5.188563574343164e-07,-8.600968593563962e-06,4.360650729395843e-08,6.00324557054055e-06,-0.00010257233446672142,0.0006954236224879794,0.0003414297695953886,4.694282394644121e-05,3.941783182316341e-05,-0.00011672962989690151,0.0012485685949909387,0.3236324191093445,22.522119522094727,0.1253325641155243,-14.179414749145508,-0.10558086633682251,-2.1453890800476074,0.21457235515117645,0
79,0.3900125026702881,-0.3236324191093445,-22.522119522094727,-0.1253325641155243,14.179414749145508,0.10558086633682251,2.1453890800476074,-0.21457235515117645,0.0,0.0,0.0,0.0,0.0,0.0,0.0,-0.33246774286365033,0.25469103645313657,-0.23858684766237212,0.3115285097561501,-0.12849840164930257,-0.03610058569240806,-0.24196881509381848,1.6757083522532958,0.052112386151055824,0.029966164237574526,-2.7523943262696107,0.034253404955608364,2.766367910700625,0.7691570501014341,1.6754973547542302,0.052104326824870026,0.029969505109285054,-2.752394845125968,0.0342448039870148,2.7663679543071322,0.7691630533470046,0.00010257233446672142,-0.0006954236224879794,-0.0003414297695953886,-4.694282394644121e-05,-3.941783182316341e-05,0.00011672962989690151,-0.0012485685949909387,0.0,0.0,0.0,0.0,0.0,0.0,0.0,-0.00021099749906561271,-8.059326185798354e-06,3.3408717105276597e-06,-5.188563574343164e-07,-8.600968593563962e-06,4.360650729395843e-08,6.00324557054055e-06,-0.00010257233446672142,0.0006954236224879794,0.0003414297695953886,4.694282394644121e-05,3.941783182316341e-05,-0.00011672962989690151,0.0012485685949909387,0.3236324191093445,22.522119522094727,0.1253325641155243,-14.179414749145508,-0.10558086633682251,-2.1453890800476074,0.21457235515117645,0
