rezayati/contactInterpretation/dataset/franka_main/labeled_data/link4/d1_4.csv
index,time,tau_J0,tau_J1,tau_J2,tau_J3,tau_J4,tau_J5,tau_J6,tau_J_d0,tau_J_d1,tau_J_d2,tau_J_d3,tau_J_d4,tau_J_d5,tau_J_d6,tau_ext0,tau_ext1,tau_ext2,tau_ext3,tau_ext4,tau_ext5,tau_ext6,q0,q1,q2,q3,q4,q5,q6,q_d0,q_d1,q_d2,q_d3,q_d4,q_d5,q_d6,dq0,dq1,dq2,dq3,dq4,dq5,dq6,dq_d0,dq_d1,dq_d2,dq_d3,dq_d4,dq_d5,dq_d6,e0,e1,e2,e3,e4,e5,e6,de0,de1,de2,de3,de4,de5,de6,etau_J0,etau_J1,etau_J2,etau_J3,etau_J4,etau_J5,etau_J6,label
1,0.0,-0.3752071261405945,-19.816431045532227,-0.4466826617717743,20.106538772583008,0.5642600655555725,2.4630770683288574,-0.23471395671367645,0.0,0.0,0.0,0.0,0.0,0.0,0.0,-0.4054778099912716,-0.11224145152819394,-0.22260612619908268,0.30638013703947603,-0.024403577714102762,0.09202445025132135,-0.2030305014332495,1.2135490018755641,-0.22014177768272267,-0.007431897017385853,-2.603872727076593,-0.10895616453886031,2.4681220391222913,0.8264726125316487,1.2134413937687574,-0.2202432315892585,-0.0075118285948192216,-2.6038483821997875,-0.10888392708698907,2.4681821257803174,0.826474908251239,-0.0006561452066610634,-0.000535689936734601,0.0005896204078281209,-0.0006463940867284704,-0.00010290149796633945,-8.055569756733492e-06,0.0016829311354403594,0.0,0.0,0.0,0.0,0.0,0.0,0.0,-0.00010760810680676691,-0.00010145390653581998,-7.993157743336858e-05,2.434487680558206e-05,7.223745187123765e-05,6.00866580260373e-05,2.295719590317269e-06,0.0006561452066610634,0.000535689936734601,-0.0005896204078281209,0.0006463940867284704,0.00010290149796633945,8.055569756733492e-06,-0.0016829311354403594,0.3752071261405945,19.816431045532227,0.4466826617717743,-20.106538772583008,-0.5642600655555725,-2.4630770683288574,0.23471395671367645,0
2,0.0050089359283447266,-0.3752071261405945,-19.816431045532227,-0.4466826617717743,20.106538772583008,0.5642600655555725,2.4630770683288574,-0.23471395671367645,0.0,0.0,0.0,0.0,0.0,0.0,0.0,-0.4054778099912716,-0.11224145152819394,-0.22260612619908268,0.30638013703947603,-0.024403577714102762,0.09202445025132135,-0.2030305014332495,1.2135490018755641,-0.22014177768272267,-0.007431897017385853,-2.603872727076593,-0.10895616453886031,2.4681220391222913,0.8264726125316487,1.2134413937687574,-0.2202432315892585,-0.0075118285948192216,-2.6038483821997875,-0.10888392708698907,2.4681821257803174,0.826474908251239,-0.0006561452066610634,-0.000535689936734601,0.0005896204078281209,-0.0006463940867284704,-0.00010290149796633945,-8.055569756733492e-06,0.0016829311354403594,0.0,0.0,0.0,0.0,0.0,0.0,0.0,-0.00010760810680676691,-0.00010145390653581998,-7.993157743336858e-05,2.434487680558206e-05,7.223745187123765e-05,6.00866580260373e-05,2.295719590317269e-06,0.0006561452066610634,0.000535689936734601,-0.0005896204078281209,0.0006463940867284704,0.00010290149796633945,8.055569756733492e-06,-0.0016829311354403594,0.3752071261405945,19.816431045532227,0.4466826617717743,-20.106538772583008,-0.5642600655555725,-2.4630770683288574,0.23471395671367645,0
3,0.009995698928833008,-0.3752071261405945,-19.844202041625977,-0.4228789508342743,20.082735061645508,0.5642600655555725,2.4694857597351074,-0.17337362468242645,0.0,0.0,0.0,0.0,0.0,0.0,0.0,-0.4116085161757022,-0.11569816334248309,-0.22796960646206743,0.30903595828810937,-0.024242020745713532,0.0925955878344783,-0.20345875953130654,1.2135489760508194,-0.22013982884089153,-0.0074354612764408875,-2.6038717155295608,-0.10895616453886031,2.468121322684826,0.8264657969392009,1.2134413937687574,-0.2202432315892585,-0.0075118285948192216,-2.6038483821997875,-0.10888392708698907,2.4681821257803174,0.826474908251239,-0.0012102498441268008,-0.0005663954294239245,6.522740965069404e-05,-9.184957632779577e-05,-0.0001635782831548903,-0.00020402808586882302,-0.0011965763906132585,0.0,0.0,0.0,0.0,0.0,0.0,0.0,-0.00010758228206197984,-0.00010340274836695418,-7.636731837833404e-05,2.3333329773223e-05,7.223745187123765e-05,6.0803095491390735e-05,9.111312038179165e-06,0.0012102498441268008,0.0005663954294239245,-6.522740965069404e-05,9.184957632779577e-05,0.0001635782831548903,0.00020402808586882302,0.0011965763906132585,0.3752071261405945,19.844202041625977,0.4228789508342743,-20.082735061645508,-0.5642600655555725,-2.4694857597351074,0.17337362468242645,0
4,0.014998435974121094,-0.3752071261405945,-19.844202041625977,-0.4228789508342743,20.082735061645508,0.5642600655555725,2.4694857597351074,-0.17337362468242645,0.0,0.0,0.0,0.0,0.0,0.0,0.0,-0.4116085161757022,-0.11569816334248309,-0.22796960646206743,0.30903595828810937,-0.024242020745713532,0.0925955878344783,-0.20345875953130654,1.2135489760508194,-0.22013982884089153,-0.0074354612764408875,-2.6038717155295608,-0.10895616453886031,2.468121322684826,0.8264657969392009,1.2134413937687574,-0.2202432315892585,-0.0075118285948192216,-2.6038483821997875,-0.10888392708698907,2.4681821257803174,0.826474908251239,-0.0012102498441268008,-0.0005663954294239245,6.522740965069404e-05,-9.184957632779577e-05,-0.0001635782831548903,-0.00020402808586882302,-0.0011965763906132585,0.0,0.0,0.0,0.0,0.0,0.0,0.0,-0.00010758228206197984,-0.00010340274836695418,-7.636731837833404e-05,2.3333329773223e-05,7.223745187123765e-05,6.0803095491390735e-05,9.111312038179165e-06,0.0012102498441268008,0.0005663954294239245,-6.522740965069404e-05,9.184957632779577e-05,0.0001635782831548903,0.00020402808586882302,0.0011965763906132585,0.3752071261405945,19.844202041625977,0.4228789508342743,-20.082735061645508,-0.5642600655555725,-2.4694857597351074,0.17337362468242645,0
5,0.019995689392089844,-0.4505855441093445,-19.891809463500977,-0.4466826617717743,20.106538772583008,0.5578513741493225,2.4566683769226074,-0.24112264811992645,0.0,0.0,0.0,0.0,0.0,0.0,0.0,-0.4177284192700483,-0.1180362489582453,-0.23381113827109487,0.3122463070290484,-0.023508757319834487,0.09337312752474651,-0.20305670139779697,1.2135542132183696,-0.220136487969181,-0.007434027571659375,-2.6038730027125236,-0.10895533411848507,2.4681231000511734,0.8264733246084717,1.2134413937687574,-0.2202432315892585,-0.0075118285948192216,-2.6038483821997875,-0.10888392708698907,2.4681821257803174,0.826474908251239,0.0007295620586424966,0.0004956850094382117,-8.708318095599533e-05,-2.465488234171477e-05,0.00024663107506762766,0.0002295190276203933,0.0017216011252830874,0.0,0.0,0.0,0.0,0.0,0.0,0.0,-0.00011281944961227808,-0.00010674362007748184,-7.780102315984617e-05,2.4620512736106548e-05,7.140703149599581e-05,5.902572914395776e-05,1.5836427673665554e-06,-0.0007295620586424966,-0.0004956850094382117,8.708318095599533e-05,2.465488234171477e-05,-0.00024663107506762766,-0.0002295190276203933,-0.0017216011252830874,0.4505855441093445,19.891809463500977,0.4466826617717743,-20.106538772583008,-0.5578513741493225,-2.4566683769226074,0.24112264811992645,0
6,0.024997711181640625,-0.4505855441093445,-19.891809463500977,-0.4466826617717743,20.106538772583008,0.5578513741493225,2.4566683769226074,-0.24112264811992645,0.0,0.0,0.0,0.0,0.0,0.0,0.0,-0.4177284192700483,-0.1180362489582453,-0.23381113827109487,0.3122463070290484,-0.023508757319834487,0.09337312752474651,-0.20305670139779697,1.2135542132183696,-0.220136487969181,-0.007434027571659375,-2.6038730027125236,-0.10895533411848507,2.4681231000511734,0.8264733246084717,1.2134413937687574,-0.2202432315892585,-0.0075118285948192216,-2.6038483821997875,-0.10888392708698907,2.4681821257803174,0.826474908251239,0.0007295620586424966,0.0004956850094382117,-8.708318095599533e-05,-2.465488234171477e-05,0.00024663107506762766,0.0002295190276203933,0.0017216011252830874,0.0,0.0,0.0,0.0,0.0,0.0,0.0,-0.00011281944961227808,-0.00010674362007748184,-7.780102315984617e-05,2.4620512736106548e-05,7.140703149599581e-05,5.902572914395776e-05,1.5836427673665554e-06,-0.0007295620586424966,-0.0004956850094382117,8.708318095599533e-05,2.465488234171477e-05,-0.00024663107506762766,-0.0002295190276203933,-0.0017216011252830874,0.4505855441093445,19.891809463500977,0.4466826617717743,-20.106538772583008,-0.5578513741493225,-2.4566683769226074,0.24112264811992645,0
7,0.030001401901245117,-0.3752071261405945,-19.868005752563477,-0.4228789508342743,20.082735061645508,0.5578513741493225,2.4493441581726074,-0.22830526530742645,0.0,0.0,0.0,0.0,0.0,0.0,0.0,-0.40984759099156853,-0.12118690689464572,-0.22402772684844624,0.31200476458393633,-0.023486355448242048,0.09302251377694265,-0.20404055165415683,1.2135490028683746,-0.22013815840503625,-0.007435698008850992,-2.6038710561968617,-0.10895545246136934,2.4681235606425407,0.8264719004548258,1.2134413937687574,-0.2202432315892585,-0.0075118285948192216,-2.6038483821997875,-0.10888392708698907,2.4681821257803174,0.826474908251239,-0.001134935282246926,1.6961349960173283e-05,0.00040445443483623776,0.0006933041242526857,0.00024371082742380483,0.000651695744674467,0.000831995455386307,0.0,0.0,0.0,0.0,0.0,0.0,0.0,-0.00010760909961726739,-0.00010507318422223189,-7.613058596822944e-05,2.2673997074118546e-05,7.152537438026574e-05,5.856513777668937e-05,3.0077964132679824e-06,0.001134935282246926,-1.6961349960173283e-05,-0.00040445443483623776,-0.0006933041242526857,-0.00024371082742380483,-0.000651695744674467,-0.000831995455386307,0.3752071261405945,19.868005752563477,0.4228789508342743,-20.082735061645508,-0.5578513741493225,-2.4493441581726074,0.22830526530742645,0
8,0.03500676155090332,-0.3752071261405945,-19.868005752563477,-0.4228789508342743,20.082735061645508,0.5578513741493225,2.4493441581726074,-0.22830526530742645,0.0,0.0,0.0,0.0,0.0,0.0,0.0,-0.40984759099156853,-0.12118690689464572,-0.22402772684844624,0.31200476458393633,-0.023486355448242048,0.09302251377694265,-0.20404055165415683,1.2135490028683746,-0.22013815840503625,-0.007435698008850992,-2.6038710561968617,-0.10895545246136934,2.4681235606425407,0.8264719004548258,1.2134413937687574,-0.2202432315892585,-0.0075118285948192216,-2.6038483821997875,-0.10888392708698907,2.4681821257803174,0.826474908251239,-0.001134935282246926,1.6961349960173283e-05,0.00040445443483623776,0.0006933041242526857,0.00024371082742380483,0.000651695744674467,0.000831995455386307,0.0,0.0,0.0,0.0,0.0,0.0,0.0,-0.00010760909961726739,-0.00010507318422223189,-7.613058596822944e-05,2.2673997074118546e-05,7.152537438026574e-05,5.856513777668937e-05,3.0077964132679824e-06,0.001134935282246926,-1.6961349960173283e-05,-0.00040445443483623776,-0.0006933041242526857,-0.00024371082742380483,-0.000651695744674467,-0.000831995455386307,0.3752071261405945,19.868005752563477,0.4228789508342743,-20.082735061645508,-0.5578513741493225,-2.4493441581726074,0.22830526530742645,0
9,0.039998531341552734,-0.3514034152030945,-19.868005752563477,-0.3990752398967743,20.082735061645508,0.5642600655555725,2.4758944511413574,-0.24112264811992645,0.0,0.0,0.0,0.0,0.0,0.0,0.0,-0.40941225385090285,-0.12401908495162721,-0.22177773140695645,0.3129546735335433,-0.02323655597445419,0.0929233423109793,-0.20431220615385842,1.2135472968936638,-0.22013815840503625,-0.007437368444706264,-2.6038718055166052,-0.10895616453886031,2.468120610607995,0.8264733289691224,1.2134413937687574,-0.2202432315892585,-0.0075118285948192216,-2.6038483821997875,-0.10888392708698907,2.4681821257803174,0.826474908251239,-0.0006337843274987128,-0.0004159489186433419,-7.563178760466762e-05,0.00038894524937783476,-0.00021749329658753635,-0.0004812818315647952,0.0016771901309654217,0.0,0.0,0.0,0.0,0.0,0.0,0.0,-0.00010590312490643683,-0.00010507318422223189,-7.44601501129578e-05,2.3423316817705597e-05,7.223745187123765e-05,6.151517232222403e-05,1.5792821166371596e-06,0.0006337843274987128,0.0004159489186433419,7.563178760466762e-05,-0.00038894524937783476,0.00021749329658753635,0.0004812818315647952,-0.0016771901309654217,0.3514034152030945,19.868005752563477,0.3990752398967743,-20.082735061645508,-0.5642600655555725,-2.4758944511413574,0.24112264811992645,0
10,0.04500079154968262,-0.3514034152030945,-19.868005752563477,-0.3990752398967743,20.082735061645508,0.5642600655555725,2.4758944511413574,-0.24112264811992645,0.0,0.0,0.0,0.0,0.0,0.0,0.0,-0.40941225385090285,-0.12401908495162721,-0.22177773140695645,0.3129546735335433,-0.02323655597445419,0.0929233423109793,-0.20431220615385842,1.2135472968936638,-0.22013815840503625,-0.007437368444706264,-2.6038718055166052,-0.10895616453886031,2.468120610607995,0.8264733289691224,1.2134413937687574,-0.2202432315892585,-0.0075118285948192216,-2.6038483821997875,-0.10888392708698907,2.4681821257803174,0.826474908251239,-0.0006337843274987128,-0.0004159489186433419,-7.563178760466762e-05,0.00038894524937783476,-0.00021749329658753635,-0.0004812818315647952,0.0016771901309654217,0.0,0.0,0.0,0.0,0.0,0.0,0.0,-0.00010590312490643683,-0.00010507318422223189,-7.44601501129578e-05,2.3423316817705597e-05,7.223745187123765e-05,6.151517232222403e-05,1.5792821166371596e-06,0.0006337843274987128,0.0004159489186433419,7.563178760466762e-05,-0.00038894524937783476,0.00021749329658753635,0.0004812818315647952,-0.0016771901309654217,0.3514034152030945,19.868005752563477,0.3990752398967743,-20.082735061645508,-0.5642600655555725,-2.4758944511413574,0.24112264811992645,0
11,0.050008296966552734,-0.3514034152030945,-19.868005752563477,-0.3990752398967743,20.082735061645508,0.5642600655555725,2.4758944511413574,-0.24112264811992645,0.0,0.0,0.0,0.0,0.0,0.0,0.0,-0.40941225385090285,-0.12401908495162721,-0.22177773140695645,0.3129546735335433,-0.02323655597445419,0.0929233423109793,-0.20431220615385842,1.2135472968936638,-0.22013815840503625,-0.007437368444706264,-2.6038718055166052,-0.10895616453886031,2.468120610607995,0.8264733289691224,1.2134413937687574,-0.2202432315892585,-0.0075118285948192216,-2.6038483821997875,-0.10888392708698907,2.4681821257803174,0.826474908251239,-0.0006337843274987128,-0.0004159489186433419,-7.563178760466762e-05,0.00038894524937783476,-0.00021749329658753635,-0.0004812818315647952,0.0016771901309654217,0.0,0.0,0.0,0.0,0.0,0.0,0.0,-0.00010590312490643683,-0.00010507318422223189,-7.44601501129578e-05,2.3423316817705597e-05,7.223745187123765e-05,6.151517232222403e-05,1.5792821166371596e-06,0.0006337843274987128,0.0004159489186433419,7.563178760466762e-05,-0.00038894524937783476,0.00021749329658753635,0.0004812818315647952,-0.0016771901309654217,0.3514034152030945,19.868005752563477,0.3990752398967743,-20.082735061645508,-0.5642600655555725,-2.4758944511413574,0.24112264811992645,0
12,0.054991722106933594,-0.3514034152030945,-19.868005752563477,-0.3990752398967743,20.082735061645508,0.5642600655555725,2.4758944511413574,-0.24112264811992645,0.0,0.0,0.0,0.0,0.0,0.0,0.0,-0.40941225385090285,-0.12401908495162721,-0.22177773140695645,0.3129546735335433,-0.02323655597445419,0.0929233423109793,-0.20431220615385842,1.2135472968936638,-0.22013815840503625,-0.007437368444706264,-2.6038718055166052,-0.10895616453886031,2.468120610607995,0.8264733289691224,1.2134413937687574,-0.2202432315892585,-0.0075118285948192216,-2.6038483821997875,-0.10888392708698907,2.4681821257803174,0.826474908251239,-0.0006337843274987128,-0.0004159489186433419,-7.563178760466762e-05,0.00038894524937783476,-0.00021749329658753635,-0.0004812818315647952,0.0016771901309654217,0.0,0.0,0.0,0.0,0.0,0.0,0.0,-0.00010590312490643683,-0.00010507318422223189,-7.44601501129578e-05,2.3423316817705597e-05,7.223745187123765e-05,6.151517232222403e-05,1.5792821166371596e-06,0.0006337843274987128,0.0004159489186433419,7.563178760466762e-05,-0.00038894524937783476,0.00021749329658753635,0.0004812818315647952,-0.0016771901309654217,0.3514034152030945,19.868005752563477,0.3990752398967743,-20.082735061645508,-0.5642600655555725,-2.4758944511413574,0.24112264811992645,0
13,0.05999636650085449,-0.4029781222343445,-19.844202041625977,-0.4228789508342743,20.130342483520508,0.5523582100868225,2.4566683769226074,-0.22830526530742645,0.0,0.0,0.0,0.0,0.0,0.0,0.0,-0.40560384553546297,-0.12260096230078991,-0.219084380868216,0.30935356130028885,-0.02356362549309407,0.09258358660146297,-0.20439890993728527,1.2135509518194694,-0.22013982884089153,-0.007435698008851,-2.603872919795828,-0.10895164829492568,2.4681227468384637,0.8264722536675602,1.2134413937687574,-0.2202432315892585,-0.0075118285948192216,-2.6038483821997875,-0.10888392708698907,2.4681821257803174,0.826474908251239,0.00048616145311336333,-0.0008624834549858653,0.0004910457990959516,-0.0015197370989271572,0.00024155106979740682,0.0004523876273003911,0.0010303294153754163,0.0,0.0,0.0,0.0,0.0,0.0,0.0,-0.00010955805071199975,-0.00010340274836695418,-7.613058596822164e-05,2.4537596040374865e-05,6.772120793660519e-05,5.937894185370496e-05,2.654583678873834e-06,-0.00048616145311336333,0.0008624834549858653,-0.0004910457990959516,0.0015197370989271572,-0.00024155106979740682,-0.0004523876273003911,-0.0010303294153754163,0.4029781222343445,19.844202041625977,0.4228789508342743,-20.130342483520508,-0.5523582100868225,-2.4566683769226074,0.22830526530742645,0
14,0.06500244140625,-0.4029781222343445,-19.844202041625977,-0.4228789508342743,20.130342483520508,0.5523582100868225,2.4566683769226074,-0.22830526530742645,0.0,0.0,0.0,0.0,0.0,0.0,0.0,-0.40560384553546297,-0.12260096230078991,-0.219084380868216,0.30935356130028885,-0.02356362549309407,0.09258358660146297,-0.20439890993728527,1.2135509518194694,-0.22013982884089153,-0.007435698008851,-2.603872919795828,-0.10895164829492568,2.4681227468384637,0.8264722536675602,1.2134413937687574,-0.2202432315892585,-0.0075118285948192216,-2.6038483821997875,-0.10888392708698907,2.4681821257803174,0.826474908251239,0.00048616145311336333,-0.0008624834549858653,0.0004910457990959516,-0.0015197370989271572,0.00024155106979740682,0.0004523876273003911,0.0010303294153754163,0.0,0.0,0.0,0.0,0.0,0.0,0.0,-0.00010955805071199975,-0.00010340274836695418,-7.613058596822164e-05,2.4537596040374865e-05,6.772120793660519e-05,5.937894185370496e-05,2.654583678873834e-06,-0.00048616145311336333,0.0008624834549858653,-0.0004910457990959516,0.0015197370989271572,-0.00024155106979740682,-0.0004523876273003911,-0.0010303294153754163,0.4029781222343445,19.844202041625977,0.4228789508342743,-20.130342483520508,-0.5523582100868225,-2.4566683769226074,0.22830526530742645,0
15,0.06999492645263672,-0.4029781222343445,-19.891809463500977,-0.3713042438030243,20.106538772583008,0.5523582100868225,2.4630770683288574,-0.17978231608867645,0.0,0.0,0.0,0.0,0.0,0.0,0.0,-0.40316063652719525,-0.12693477465142627,-0.2169913289461744,0.31388226799844854,-0.024242374669832395,0.09399482977538977,-0.20448972402126916,1.2135509517833318,-0.220136487969181,-0.007439317286537404,-2.6038737166358916,-0.10895484209244571,2.468122034761641,0.8264665090180175,1.2134413937687574,-0.2202432315892585,-0.0075118285948192216,-2.6038483821997875,-0.10888392708698907,2.4681821257803174,0.826474908251239,-0.00010526912784279056,0.0005828809211584639,-0.0007612041964386113,-0.0003038101620522375,0.00012376585718009672,-3.88378485039217e-05,-0.001283243796148855,0.0,0.0,0.0,0.0,0.0,0.0,0.0,-0.00010955801457446235,-0.00010674362007748184,-7.251130828181754e-05,2.5334436104085256e-05,7.091500545663987e-05,6.009101867654465e-05,8.399233221489943e-06,0.00010526912784279056,-0.0005828809211584639,0.0007612041964386113,0.0003038101620522375,-0.00012376585718009672,3.88378485039217e-05,0.001283243796148855,0.4029781222343445,19.891809463500977,0.3713042438030243,-20.106538772583008,-0.5523582100868225,-2.4630770683288574,0.17978231608867645,0
16,0.0749969482421875,-0.4029781222343445,-19.891809463500977,-0.3713042438030243,20.106538772583008,0.5523582100868225,2.4630770683288574,-0.17978231608867645,0.0,0.0,0.0,0.0,0.0,0.0,0.0,-0.40316063652719525,-0.12693477465142627,-0.2169913289461744,0.31388226799844854,-0.024242374669832395,0.09399482977538977,-0.20448972402126916,1.2135509517833318,-0.220136487969181,-0.007439317286537404,-2.6038737166358916,-0.10895484209244571,2.468122034761641,0.8264665090180175,1.2134413937687574,-0.2202432315892585,-0.0075118285948192216,-2.6038483821997875,-0.10888392708698907,2.4681821257803174,0.826474908251239,-0.00010526912784279056,0.0005828809211584639,-0.0007612041964386113,-0.0003038101620522375,0.00012376585718009672,-3.88378485039217e-05,-0.001283243796148855,0.0,0.0,0.0,0.0,0.0,0.0,0.0,-0.00010955801457446235,-0.00010674362007748184,-7.251130828181754e-05,2.5334436104085256e-05,7.091500545663987e-05,6.009101867654465e-05,8.399233221489943e-06,0.00010526912784279056,-0.0005828809211584639,0.0007612041964386113,0.0003038101620522375,-0.00012376585718009672,3.88378485039217e-05,0.001283243796148855,0.4029781222343445,19.891809463500977,0.3713042438030243,-20.106538772583008,-0.5523582100868225,-2.4630770683288574,0.17978231608867645,0
17,0.07999181747436523,-0.4505855441093445,-19.891809463500977,-0.4466826617717743,20.106538772583008,0.5578513741493225,2.4758944511413574,-0.17337362468242645,0.0,0.0,0.0,0.0,0.0,0.0,0.0,-0.4142040445745695,-0.12653139479300252,-0.22489122375845577,0.3126559711497188,-0.02480323413729145,0.09355453269723893,-0.20554243278920314,1.2135521469241692,-0.220136487969181,-0.007434027572995737,-2.6038729200719835,-0.10895544808094601,2.468120610607995,0.8264657969392009,1.2134413937687574,-0.2202432315892585,-0.0075118285948192216,-2.6038483821997875,-0.10888392708698907,2.4681821257803174,0.826474908251239,0.0003038324597308513,0.00034188764864376205,-0.00014231798608460252,-0.0005026650837233187,0.0003171887737052105,-0.0005767359536585234,-0.0009727075612960937,0.0,0.0,0.0,0.0,0.0,0.0,0.0,-0.00011075315541186903,-0.00010674362007748184,-7.78010218234846e-05,2.4537872195917743e-05,7.152099395693612e-05,6.151517232222403e-05,9.111312038179165e-06,-0.0003038324597308513,-0.00034188764864376205,0.00014231798608460252,0.0005026650837233187,-0.0003171887737052105,0.0005767359536585234,0.0009727075612960937,0.4505855441093445,19.891809463500977,0.4466826617717743,-20.106538772583008,-0.5578513741493225,-2.4758944511413574,0.17337362468242645,0
18,0.08495426177978516,-0.4505855441093445,-19.891809463500977,-0.4466826617717743,20.106538772583008,0.5578513741493225,2.4758944511413574,-0.17337362468242645,0.0,0.0,0.0,0.0,0.0,0.0,0.0,-0.4142040445745695,-0.12653139479300252,-0.22489122375845577,0.3126559711497188,-0.02480323413729145,0.09355453269723893,-0.20554243278920314,1.2135521469241692,-0.220136487969181,-0.007434027572995737,-2.6038729200719835,-0.10895544808094601,2.468120610607995,0.8264657969392009,1.2134413937687574,-0.2202432315892585,-0.0075118285948192216,-2.6038483821997875,-0.10888392708698907,2.4681821257803174,0.826474908251239,0.0003038324597308513,0.00034188764864376205,-0.00014231798608460252,-0.0005026650837233187,0.0003171887737052105,-0.0005767359536585234,-0.0009727075612960937,0.0,0.0,0.0,0.0,0.0,0.0,0.0,-0.00011075315541186903,-0.00010674362007748184,-7.78010218234846e-05,2.4537872195917743e-05,7.152099395693612e-05,6.151517232222403e-05,9.111312038179165e-06,-0.0003038324597308513,-0.00034188764864376205,0.00014231798608460252,0.0005026650837233187,-0.0003171887737052105,0.0005767359536585234,0.0009727075612960937,0.4505855441093445,19.891809463500977,0.4466826617717743,-20.106538772583008,-0.5578513741493225,-2.4758944511413574,0.17337362468242645,0
19,0.08999300003051758,-0.4029781222343445,-19.891809463500977,-0.4704863727092743,20.082735061645508,0.5642600655555725,2.4694857597351074,-0.17337362468242645,0.0,0.0,0.0,0.0,0.0,0.0,0.0,-0.41708713549902976,-0.12521144248317137,-0.22750121496103937,0.31187578674088273,-0.024357021121567842,0.09319642428648085,-0.2049682241505964,1.2135509429853153,-0.220136487969181,-0.00743164691585604,-2.6038698444877464,-0.10895616453885207,2.468121322684818,0.8264657969392009,1.2134413937687574,-0.2202432315892585,-0.0075118285948192216,-2.6038483821997875,-0.10888392708698907,2.4681821257803174,0.826474908251239,-0.0011153809199982892,0.0005953488545294084,-8.591039297601864e-05,0.00020723071183490459,-0.0001284392491340512,-0.000250931431208944,-0.000851877659451645,0.0,0.0,0.0,0.0,0.0,0.0,0.0,-0.00010954921655792482,-0.00010674362007748184,-8.018167896318117e-05,2.146228795885108e-05,7.223745186299424e-05,6.080309549938434e-05,9.111312038179165e-06,0.0011153809199982892,-0.0005953488545294084,8.591039297601864e-05,-0.00020723071183490459,0.0001284392491340512,0.000250931431208944,0.000851877659451645,0.4029781222343445,19.891809463500977,0.4704863727092743,-20.082735061645508,-0.5642600655555725,-2.4694857597351074,0.17337362468242645,0
20,0.09500980377197266,-0.4029781222343445,-19.891809463500977,-0.4704863727092743,20.082735061645508,0.5642600655555725,2.4694857597351074,-0.17337362468242645,0.0,0.0,0.0,0.0,0.0,0.0,0.0,-0.41708713549902976,-0.12521144248317137,-0.22750121496103937,0.31187578674088273,-0.024357021121567842,0.09319642428648085,-0.2049682241505964,1.2135509429853153,-0.220136487969181,-0.00743164691585604,-2.6038698444877464,-0.10895616453885207,2.468121322684818,0.8264657969392009,1.2134413937687574,-0.2202432315892585,-0.0075118285948192216,-2.6038483821997875,-0.10888392708698907,2.4681821257803174,0.826474908251239,-0.0011153809199982892,0.0005953488545294084,-8.591039297601864e-05,0.00020723071183490459,-0.0001284392491340512,-0.000250931431208944,-0.000851877659451645,0.0,0.0,0.0,0.0,0.0,0.0,0.0,-0.00010954921655792482,-0.00010674362007748184,-8.018167896318117e-05,2.146228795885108e-05,7.223745186299424e-05,6.080309549938434e-05,9.111312038179165e-06,0.0011153809199982892,-0.0005953488545294084,8.591039297601864e-05,-0.00020723071183490459,0.0001284392491340512,0.000250931431208944,0.000851877659451645,0.4029781222343445,19.891809463500977,0.4704863727092743,-20.082735061645508,-0.5642600655555725,-2.4694857597351074,0.17337362468242645,0
21,0.10000324249267578,-0.4029781222343445,-19.891809463500977,-0.4466826617717743,20.082735061645508,0.5642600655555725,2.4566683769226074,-0.18710653483867645,0.0,0.0,0.0,0.0,0.0,0.0,0.0,-0.411157886448033,-0.12895113190632068,-0.22498693417456753,0.31252139383021066,-0.02440379790309549,0.0938644890397608,-0.20409976402846328,1.2135509518196208,-0.220136487969181,-0.007434027568986517,-2.603872055358902,-0.10895616453886031,2.4681227468384637,0.8264673228181071,1.2134413937687574,-0.2202432315892585,-0.0075118285948192216,-2.6038483821997875,-0.10888392708698907,2.4681821257803174,0.826474908251239,-0.0005257363915194647,0.000219050174135025,0.0003126655453877488,6.04447810171095e-05,-8.403218664229354e-05,0.00030700536416247714,-0.00039795295051828835,0.0,0.0,0.0,0.0,0.0,0.0,0.0,-0.00010955805086343418,-0.00010674362007748184,-7.780102583270464e-05,2.3673159114334652e-05,7.223745187123765e-05,5.937894185370496e-05,7.585433131951369e-06,0.0005257363915194647,-0.000219050174135025,-0.0003126655453877488,-6.04447810171095e-05,8.403218664229354e-05,-0.00030700536416247714,0.00039795295051828835,0.4029781222343445,19.891809463500977,0.4466826617717743,-20.082735061645508,-0.5642600655555725,-2.4566683769226074,0.18710653483867645,0
22,0.10499382019042969,-0.4029781222343445,-19.891809463500977,-0.4466826617717743,20.082735061645508,0.5642600655555725,2.4566683769226074,-0.18710653483867645,0.0,0.0,0.0,0.0,0.0,0.0,0.0,-0.411157886448033,-0.12895113190632068,-0.22498693417456753,0.31252139383021066,-0.02440379790309549,0.0938644890397608,-0.20409976402846328,1.2135509518196208,-0.220136487969181,-0.007434027568986517,-2.603872055358902,-0.10895616453886031,2.4681227468384637,0.8264673228181071,1.2134413937687574,-0.2202432315892585,-0.0075118285948192216,-2.6038483821997875,-0.10888392708698907,2.4681821257803174,0.826474908251239,-0.0005257363915194647,0.000219050174135025,0.0003126655453877488,6.04447810171095e-05,-8.403218664229354e-05,0.00030700536416247714,-0.00039795295051828835,0.0,0.0,0.0,0.0,0.0,0.0,0.0,-0.00010955805086343418,-0.00010674362007748184,-7.780102583270464e-05,2.3673159114334652e-05,7.223745187123765e-05,5.937894185370496e-05,7.585433131951369e-06,0.0005257363915194647,-0.000219050174135025,-0.0003126655453877488,-6.04447810171095e-05,8.403218664229354e-05,-0.00030700536416247714,0.00039795295051828835,0.4029781222343445,19.891809463500977,0.4466826617717743,-20.082735061645508,-0.5642600655555725,-2.4566683769226074,0.18710653483867645,0
23,0.11000919342041016,-0.4029781222343445,-19.868005752563477,-0.4466826617717743,20.082735061645508,0.5642600655555725,2.4630770683288574,-0.17337362468242645,0.0,0.0,0.0,0.0,0.0,0.0,0.0,-0.4160757941258766,-0.12015795507508659,-0.23188274017211818,0.30629779603740503,-0.024335966347086346,0.0926081488487411,-0.20407739013986004,1.213550951492622,-0.22013815548885107,-0.007434027572995714,-2.6038697630903433,-0.10895616453886031,2.468122034761641,0.8264657969392009,1.2134413937687574,-0.2202432315892585,-0.0075118285948192216,-2.6038483821997875,-0.10888392708698907,2.4681821257803174,0.826474908251239,-0.000323307503715238,0.0002612257165513274,0.0006845775786481456,-0.0003228658109256681,-0.00017183607797310567,6.8132870780373715e-06,-0.0010749902621007964,0.0,0.0,0.0,0.0,0.0,0.0,0.0,-0.00010955772386456175,-0.00010507610040741411,-7.780102182350715e-05,2.138089055581105e-05,7.223745187123765e-05,6.009101867654465e-05,9.111312038179165e-06,0.000323307503715238,-0.0002612257165513274,-0.0006845775786481456,0.0003228658109256681,0.00017183607797310567,-6.8132870780373715e-06,0.0010749902621007964,0.4029781222343445,19.868005752563477,0.4466826617717743,-20.082735061645508,-0.5642600655555725,-2.4630770683288574,0.17337362468242645,0
24,0.11495733261108398,-0.4029781222343445,-19.868005752563477,-0.4466826617717743,20.082735061645508,0.5642600655555725,2.4630770683288574,-0.17337362468242645,0.0,0.0,0.0,0.0,0.0,0.0,0.0,-0.4160757941258766,-0.12015795507508659,-0.23188274017211818,0.30629779603740503,-0.024335966347086346,0.0926081488487411,-0.20407739013986004,1.213550951492622,-0.22013815548885107,-0.007434027572995714,-2.6038697630903433,-0.10895616453886031,2.468122034761641,0.8264657969392009,1.2134413937687574,-0.2202432315892585,-0.0075118285948192216,-2.6038483821997875,-0.10888392708698907,2.4681821257803174,0.826474908251239,-0.000323307503715238,0.0002612257165513274,0.0006845775786481456,-0.0003228658109256681,-0.00017183607797310567,6.8132870780373715e-06,-0.0010749902621007964,0.0,0.0,0.0,0.0,0.0,0.0,0.0,-0.00010955772386456175,-0.00010507610040741411,-7.780102182350715e-05,2.138089055581105e-05,7.223745187123765e-05,6.009101867654465e-05,9.111312038179165e-06,0.000323307503715238,-0.0002612257165513274,-0.0006845775786481456,0.0003228658109256681,0.00017183607797310567,-6.8132870780373715e-06,0.0010749902621007964,0.4029781222343445,19.868005752563477,0.4466826617717743,-20.082735061645508,-0.5642600655555725,-2.4630770683288574,0.17337362468242645,0
25,0.11995816230773926,-0.4505855441093445,-19.891809463500977,-0.3713042438030243,20.082735061645508,0.5459495186805725,2.4694857597351074,-0.22098104655742645,0.0,0.0,0.0,0.0,0.0,0.0,0.0,-0.41294550906103333,-0.12538376846828028,-0.22765596737227753,0.31126764949993174,-0.024803134056776328,0.09295240054873938,-0.2030388680592681,1.2135521469241675,-0.22013648796916455,-0.007439317286537404,-2.6038713105592963,-0.10895413003365198,2.468121322684818,0.8264710864912369,1.2134413937687574,-0.2202432315892585,-0.0075118285948192216,-2.6038483821997875,-0.10888392708698907,2.4681821257803174,0.826474908251239,0.0012650323234031867,0.0005870554138601051,-0.0008104149927930113,0.0001712032379555656,0.00036721832049305944,-0.00026381532435245406,0.001319961778788643,0.0,0.0,0.0,0.0,0.0,0.0,0.0,-0.00011075315541009267,-0.0001067436200939409,-7.251130828181754e-05,2.2928359508789242e-05,7.020294666290616e-05,6.080309549938434e-05,3.821760002131747e-06,-0.0012650323234031867,-0.0005870554138601051,0.0008104149927930113,-0.0001712032379555656,-0.00036721832049305944,0.00026381532435245406,-0.001319961778788643,0.4505855441093445,19.891809463500977,0.3713042438030243,-20.082735061645508,-0.5459495186805725,-2.4694857597351074,0.22098104655742645,0
26,0.12534379959106445,-0.4505855441093445,-19.891809463500977,-0.3713042438030243,20.082735061645508,0.5459495186805725,2.4694857597351074,-0.22098104655742645,0.0,0.0,0.0,0.0,0.0,0.0,0.0,-0.41294550906103333,-0.12538376846828028,-0.22765596737227753,0.31126764949993174,-0.024803134056776328,0.09295240054873938,-0.2030388680592681,1.2135521469241675,-0.22013648796916455,-0.007439317286537404,-2.6038713105592963,-0.10895413003365198,2.468121322684818,0.8264710864912369,1.2134413937687574,-0.2202432315892585,-0.0075118285948192216,-2.6038483821997875,-0.10888392708698907,2.4681821257803174,0.826474908251239,0.0012650323234031867,0.0005870554138601051,-0.0008104149927930113,0.0001712032379555656,0.00036721832049305944,-0.00026381532435245406,0.001319961778788643,0.0,0.0,0.0,0.0,0.0,0.0,0.0,-0.00011075315541009267,-0.0001067436200939409,-7.251130828181754e-05,2.2928359508789242e-05,7.020294666290616e-05,6.080309549938434e-05,3.821760002131747e-06,-0.0012650323234031867,-0.0005870554138601051,0.0008104149927930113,-0.0001712032379555656,-0.00036721832049305944,0.00026381532435245406,-0.001319961778788643,0.4505855441093445,19.891809463500977,0.3713042438030243,-20.082735061645508,-0.5459495186805725,-2.4694857597351074,0.22098104655742645,0
27,0.1300055980682373,-0.3752071261405945,-19.915613174438477,-0.4228789508342743,20.082735061645508,0.5523582100868225,2.4566683769226074,-0.20083944499492645,0.0,0.0,0.0,0.0,0.0,0.0,0.0,-0.4174975221708888,-0.12730442765616262,-0.230335529507056,0.31339776108460227,-0.02475419407800265,0.0922912052445028,-0.2016824458351099,1.213549002638678,-0.22013481753332573,-0.007435698008851,-2.6038719886276875,-0.10895484211047489,2.4681227468384637,0.8264688486970124,1.2134413937687574,-0.2202432315892585,-0.0075118285948192216,-2.6038483821997875,-0.10888392708698907,2.4681821257803174,0.826474908251239,-0.0008848277028336589,0.0006470985441660031,0.00019691085963942376,0.00025623118763960735,-0.00506676235773642,0.00020603443558026154,1.0500211910816366e-05,0.0,0.0,0.0,0.0,0.0,0.0,0.0,-0.00010760886992056129,-0.00010841405593275955,-7.613058596822164e-05,2.3606427900002558e-05,7.091502348581524e-05,5.937894185370496e-05,6.059554226611752e-06,0.0008848277028336589,-0.0006470985441660031,-0.00019691085963942376,-0.00025623118763960735,0.00506676235773642,-0.00020603443558026154,-1.0500211910816366e-05,0.3752071261405945,19.915613174438477,0.4228789508342743,-20.082735061645508,-0.5523582100868225,-2.4566683769226074,0.20083944499492645,0
28,0.1350102424621582,-0.3752071261405945,-19.915613174438477,-0.4228789508342743,20.082735061645508,0.5523582100868225,2.4566683769226074,-0.20083944499492645,0.0,0.0,0.0,0.0,0.0,0.0,0.0,-0.4174975221708888,-0.12730442765616262,-0.230335529507056,0.31339776108460227,-0.02475419407800265,0.0922912052445028,-0.2016824458351099,1.213549002638678,-0.22013481753332573,-0.007435698008851,-2.6038719886276875,-0.10895484211047489,2.4681227468384637,0.8264688486970124,1.2134413937687574,-0.2202432315892585,-0.0075118285948192216,-2.6038483821997875,-0.10888392708698907,2.4681821257803174,0.826474908251239,-0.0008848277028336589,0.0006470985441660031,0.00019691085963942376,0.00025623118763960735,-0.00506676235773642,0.00020603443558026154,1.0500211910816366e-05,0.0,0.0,0.0,0.0,0.0,0.0,0.0,-0.00010760886992056129,-0.00010841405593275955,-7.613058596822164e-05,2.3606427900002558e-05,7.091502348581524e-05,5.937894185370496e-05,6.059554226611752e-06,0.0008848277028336589,-0.0006470985441660031,-0.00019691085963942376,-0.00025623118763960735,0.00506676235773642,-0.00020603443558026154,-1.0500211910816366e-05,0.3752071261405945,19.915613174438477,0.4228789508342743,-20.082735061645508,-0.5523582100868225,-2.4566683769226074,0.20083944499492645,0
29,0.1399996280670166,-0.4505855441093445,-19.816431045532227,-0.3990752398967743,20.082735061645508,0.5523582100868225,2.4630770683288574,-0.17978231608867645,0.0,0.0,0.0,0.0,0.0,0.0,0.0,-0.4152209807526765,-0.12404590188260337,-0.2272292583510361,0.310209539417048,-0.02466901725877337,0.0916641261263136,-0.20190372379801397,1.2135542926913794,-0.22014177768272267,-0.007437368444706264,-2.6038718053711305,-0.10895484211047489,2.468122034761641,0.8264696879304116,1.2134413937687574,-0.2202432315892585,-0.0075118285948192216,-2.6038483821997875,-0.10888392708698907,2.4681821257803174,0.826474908251239,0.0009425589806214324,-0.0011452805852409929,-0.00037239216242233576,0.0002706043136616491,0.00010873181413651248,-3.3063697948092785e-05,-0.00020944595423025772,0.0,0.0,0.0,0.0,0.0,0.0,0.0,-0.00011289892262200674,-0.00010145390653581998,-7.44601501129578e-05,2.3423171342962235e-05,7.091502348581524e-05,6.009101867654465e-05,5.220320827392655e-06,-0.0009425589806214324,0.0011452805852409929,0.00037239216242233576,-0.0002706043136616491,-0.00010873181413651248,3.3063697948092785e-05,0.00020944595423025772,0.4505855441093445,19.816431045532227,0.3990752398967743,-20.082735061645508,-0.5523582100868225,-2.4630770683288574,0.17978231608867645,0
30,0.14501500129699707,-0.4505855441093445,-19.816431045532227,-0.3990752398967743,20.082735061645508,0.5523582100868225,2.4630770683288574,-0.17978231608867645,0.0,0.0,0.0,0.0,0.0,0.0,0.0,-0.4152209807526765,-0.12404590188260337,-0.2272292583510361,0.310209539417048,-0.02466901725877337,0.0916641261263136,-0.20190372379801397,1.2135542926913794,-0.22014177768272267,-0.007437368444706264,-2.6038718053711305,-0.10895484211047489,2.468122034761641,0.8264696879304116,1.2134413937687574,-0.2202432315892585,-0.0075118285948192216,-2.6038483821997875,-0.10888392708698907,2.4681821257803174,0.826474908251239,0.0009425589806214324,-0.0011452805852409929,-0.00037239216242233576,0.0002706043136616491,0.00010873181413651248,-3.3063697948092785e-05,-0.00020944595423025772,0.0,0.0,0.0,0.0,0.0,0.0,0.0,-0.00011289892262200674,-0.00010145390653581998,-7.44601501129578e-05,2.3423171342962235e-05,7.091502348581524e-05,6.009101867654465e-05,5.220320827392655e-06,-0.0009425589806214324,0.0011452805852409929,0.00037239216242233576,-0.0002706043136616491,-0.00010873181413651248,3.3063697948092785e-05,0.00020944595423025772,0.4505855441093445,19.816431045532227,0.3990752398967743,-20.082735061645508,-0.5523582100868225,-2.4630770683288574,0.17978231608867645,0
31,0.1499626636505127,-0.4029781222343445,-19.844202041625977,-0.4466826617717743,20.082735061645508,0.5642600655555725,2.4694857597351074,-0.17978231608867645,0.0,0.0,0.0,0.0,0.0,0.0,0.0,-0.41278869071752367,-0.12254106701301297,-0.2226798788208657,0.3101468108998087,-0.02532327204269302,0.09160615351785227,-0.20148061227114575,1.2135509517833318,-0.22013982884089153,-0.007434027572995737,-2.6038719628541895,-0.10895616453886031,2.468121322684818,0.8264665090339688,1.2134413937687574,-0.2202432315892585,-0.0075118285948192216,-2.6038483821997875,-0.10888392708698907,2.4681821257803174,0.826474908251239,-8.247554317320138e-05,0.00020054076581637502,0.0007176294824654464,0.00031758874006161463,-0.00016172824691593424,-0.00011661975614421327,-0.001064421826520036,0.0,0.0,0.0,0.0,0.0,0.0,0.0,-0.00010955801457446235,-0.00010340274836695418,-7.78010218234846e-05,2.358065440200008e-05,7.223745187123765e-05,6.080309549938434e-05,8.399217270249615e-06,8.247554317320138e-05,-0.00020054076581637502,-0.0007176294824654464,-0.00031758874006161463,0.00016172824691593424,0.00011661975614421327,0.001064421826520036,0.4029781222343445,19.844202041625977,0.4466826617717743,-20.082735061645508,-0.5642600655555725,-2.4694857597351074,0.17978231608867645,0
32,0.15499138832092285,-0.4029781222343445,-19.844202041625977,-0.4466826617717743,20.082735061645508,0.5642600655555725,2.4694857597351074,-0.17978231608867645,0.0,0.0,0.0,0.0,0.0,0.0,0.0,-0.41278869071752367,-0.12254106701301297,-0.2226798788208657,0.3101468108998087,-0.02532327204269302,0.09160615351785227,-0.20148061227114575,1.2135509517833318,-0.22013982884089153,-0.007434027572995737,-2.6038719628541895,-0.10895616453886031,2.468121322684818,0.8264665090339688,1.2134413937687574,-0.2202432315892585,-0.0075118285948192216,-2.6038483821997875,-0.10888392708698907,2.4681821257803174,0.826474908251239,-8.247554317320138e-05,0.00020054076581637502,0.0007176294824654464,0.00031758874006161463,-0.00016172824691593424,-0.00011661975614421327,-0.001064421826520036,0.0,0.0,0.0,0.0,0.0,0.0,0.0,-0.00010955801457446235,-0.00010340274836695418,-7.78010218234846e-05,2.358065440200008e-05,7.223745187123765e-05,6.080309549938434e-05,8.399217270249615e-06,8.247554317320138e-05,-0.00020054076581637502,-0.0007176294824654464,-0.00031758874006161463,0.00016172824691593424,0.00011661975614421327,0.001064421826520036,0.4029781222343445,19.844202041625977,0.4466826617717743,-20.082735061645508,-0.5642600655555725,-2.4694857597351074,0.17978231608867645,0
33,0.15999817848205566,-0.4029781222343445,-19.844202041625977,-0.4466826617717743,20.082735061645508,0.5642600655555725,2.4694857597351074,-0.17978231608867645,0.0,0.0,0.0,0.0,0.0,0.0,0.0,-0.41278869071752367,-0.12254106701301297,-0.2226798788208657,0.3101468108998087,-0.02532327204269302,0.09160615351785227,-0.20148061227114575,1.2135509517833318,-0.22013982884089153,-0.007434027572995737,-2.6038719628541895,-0.10895616453886031,2.468121322684818,0.8264665090339688,1.2134413937687574,-0.2202432315892585,-0.0075118285948192216,-2.6038483821997875,-0.10888392708698907,2.4681821257803174,0.826474908251239,-8.247554317320138e-05,0.00020054076581637502,0.0007176294824654464,0.00031758874006161463,-0.00016172824691593424,-0.00011661975614421327,-0.001064421826520036,0.0,0.0,0.0,0.0,0.0,0.0,0.0,-0.00010955801457446235,-0.00010340274836695418,-7.78010218234846e-05,2.358065440200008e-05,7.223745187123765e-05,6.080309549938434e-05,8.399217270249615e-06,8.247554317320138e-05,-0.00020054076581637502,-0.0007176294824654464,-0.00031758874006161463,0.00016172824691593424,0.00011661975614421327,0.001064421826520036,0.4029781222343445,19.844202041625977,0.4466826617717743,-20.082735061645508,-0.5642600655555725,-2.4694857597351074,0.17978231608867645,0
34,0.1649932861328125,-0.4029781222343445,-19.844202041625977,-0.4466826617717743,20.082735061645508,0.5642600655555725,2.4694857597351074,-0.17978231608867645,0.0,0.0,0.0,0.0,0.0,0.0,0.0,-0.41278869071752367,-0.12254106701301297,-0.2226798788208657,0.3101468108998087,-0.02532327204269302,0.09160615351785227,-0.20148061227114575,1.2135509517833318,-0.22013982884089153,-0.007434027572995737,-2.6038719628541895,-0.10895616453886031,2.468121322684818,0.8264665090339688,1.2134413937687574,-0.2202432315892585,-0.0075118285948192216,-2.6038483821997875,-0.10888392708698907,2.4681821257803174,0.826474908251239,-8.247554317320138e-05,0.00020054076581637502,0.0007176294824654464,0.00031758874006161463,-0.00016172824691593424,-0.00011661975614421327,-0.001064421826520036,0.0,0.0,0.0,0.0,0.0,0.0,0.0,-0.00010955801457446235,-0.00010340274836695418,-7.78010218234846e-05,2.358065440200008e-05,7.223745187123765e-05,6.080309549938434e-05,8.399217270249615e-06,8.247554317320138e-05,-0.00020054076581637502,-0.0007176294824654464,-0.00031758874006161463,0.00016172824691593424,0.00011661975614421327,0.001064421826520036,0.4029781222343445,19.844202041625977,0.4466826617717743,-20.082735061645508,-0.5642600655555725,-2.4694857597351074,0.17978231608867645,0
35,0.17000508308410645,-0.4267818331718445,-19.891809463500977,-0.4228789508342743,20.106538772583008,0.5578513741493225,2.4566683769226074,-0.22098104655742645,0.0,0.0,0.0,0.0,0.0,0.0,0.0,-0.4099513154864211,-0.12333382646433994,-0.21897961223947973,0.31302321191506355,-0.02524871291619061,0.09234965128939905,-0.20238523157314706,1.2135523040370382,-0.220136487969181,-0.007435698008851,-2.60387375022636,-0.10895545246203739,2.4681227468384637,0.8264710866527426,1.2134413937687574,-0.2202432315892585,-0.0075118285948192216,-2.6038483821997875,-0.10888392708698907,2.4681821257803174,0.826474908251239,0.0008644016173412682,0.0009551289496723197,5.164781576140557e-05,-0.0003746368515281458,2.696176316966318e-05,0.00014109020578801306,0.0007331430918167091,0.0,0.0,0.0,0.0,0.0,0.0,0.0,-0.00011091026828080608,-0.00010674362007748184,-7.613058596822164e-05,2.5368026572269997e-05,7.152537504831469e-05,5.937894185370496e-05,3.821598496434042e-06,-0.0008644016173412682,-0.0009551289496723197,-5.164781576140557e-05,0.0003746368515281458,-2.696176316966318e-05,-0.00014109020578801306,-0.0007331430918167091,0.4267818331718445,19.891809463500977,0.4228789508342743,-20.106538772583008,-0.5578513741493225,-2.4566683769226074,0.22098104655742645,0
36,0.17502307891845703,-0.4267818331718445,-19.891809463500977,-0.4228789508342743,20.106538772583008,0.5578513741493225,2.4566683769226074,-0.22098104655742645,0.0,0.0,0.0,0.0,0.0,0.0,0.0,-0.4099513154864211,-0.12333382646433994,-0.21897961223947973,0.31302321191506355,-0.02524871291619061,0.09234965128939905,-0.20238523157314706,1.2135523040370382,-0.220136487969181,-0.007435698008851,-2.60387375022636,-0.10895545246203739,2.4681227468384637,0.8264710866527426,1.2134413937687574,-0.2202432315892585,-0.0075118285948192216,-2.6038483821997875,-0.10888392708698907,2.4681821257803174,0.826474908251239,0.0008644016173412682,0.0009551289496723197,5.164781576140557e-05,-0.0003746368515281458,2.696176316966318e-05,0.00014109020578801306,0.0007331430918167091,0.0,0.0,0.0,0.0,0.0,0.0,0.0,-0.00011091026828080608,-0.00010674362007748184,-7.613058596822164e-05,2.5368026572269997e-05,7.152537504831469e-05,5.937894185370496e-05,3.821598496434042e-06,-0.0008644016173412682,-0.0009551289496723197,-5.164781576140557e-05,0.0003746368515281458,-2.696176316966318e-05,-0.00014109020578801306,-0.0007331430918167091,0.4267818331718445,19.891809463500977,0.4228789508342743,-20.106538772583008,-0.5578513741493225,-2.4566683769226074,0.22098104655742645,0
37,0.1800088882446289,-0.4029781222343445,-19.868005752563477,-0.4466826617717743,20.106538772583008,0.5578513741493225,2.4566683769226074,-0.22098104655742645,0.0,0.0,0.0,0.0,0.0,0.0,0.0,-0.4130333860628965,-0.11964957210718227,-0.22629796638740046,0.30820664004796755,-0.02529439590027191,0.09163163689323167,-0.2034528744262002,1.2135509518178742,-0.22013815840503625,-0.007434027572995737,-2.6038705118731937,-0.10895545246203739,2.4681227468384637,0.8264710866527425,1.2134413937687574,-0.2202432315892585,-0.0075118285948192216,-2.6038483821997875,-0.10888392708698907,2.4681821257803174,0.826474908251239,-0.00029492095542980016,4.4262954535052824e-05,0.00025573539299302055,-0.0011820280509257017,8.426515605287068e-05,0.00013795506620969977,0.0005927918830812651,0.0,0.0,0.0,0.0,0.0,0.0,0.0,-0.00010955804911683131,-0.00010507318422223189,-7.78010218234846e-05,2.2129673406201533e-05,7.152537504831469e-05,5.937894185370496e-05,3.8215984965450644e-06,0.00029492095542980016,-4.4262954535052824e-05,-0.00025573539299302055,0.0011820280509257017,-8.426515605287068e-05,-0.00013795506620969977,-0.0005927918830812651,0.4029781222343445,19.868005752563477,0.4466826617717743,-20.106538772583008,-0.5578513741493225,-2.4566683769226074,0.22098104655742645,0
38,0.18501639366149902,-0.4029781222343445,-19.868005752563477,-0.4466826617717743,20.106538772583008,0.5578513741493225,2.4566683769226074,-0.22098104655742645,0.0,0.0,0.0,0.0,0.0,0.0,0.0,-0.4130333860628965,-0.11964957210718227,-0.22629796638740046,0.30820664004796755,-0.02529439590027191,0.09163163689323167,-0.2034528744262002,1.2135509518178742,-0.22013815840503625,-0.007434027572995737,-2.6038705118731937,-0.10895545246203739,2.4681227468384637,0.8264710866527425,1.2134413937687574,-0.2202432315892585,-0.0075118285948192216,-2.6038483821997875,-0.10888392708698907,2.4681821257803174,0.826474908251239,-0.00029492095542980016,4.4262954535052824e-05,0.00025573539299302055,-0.0011820280509257017,8.426515605287068e-05,0.00013795506620969977,0.0005927918830812651,0.0,0.0,0.0,0.0,0.0,0.0,0.0,-0.00010955804911683131,-0.00010507318422223189,-7.78010218234846e-05,2.2129673406201533e-05,7.152537504831469e-05,5.937894185370496e-05,3.8215984965450644e-06,0.00029492095542980016,-4.4262954535052824e-05,-0.00025573539299302055,0.0011820280509257017,-8.426515605287068e-05,-0.00013795506620969977,-0.0005927918830812651,0.4029781222343445,19.868005752563477,0.4466826617717743,-20.106538772583008,-0.5578513741493225,-2.4566683769226074,0.22098104655742645,0
39,0.19176650047302246,-0.4505855441093445,-19.891809463500977,-0.4466826617717743,20.082735061645508,0.5697532296180725,2.4694857597351074,-0.22830526530742645,0.0,0.0,0.0,0.0,0.0,0.0,0.0,-0.41503961897925,-0.12503493469619648,-0.2318391669543016,0.31576701639055477,-0.023989360758597072,0.09221007889997034,-0.2037718774640341,1.213554289747942,-0.220136487969181,-0.007434027572995737,-2.6038690887056393,-0.10895677489042281,2.468121322684818,0.8264719004548258,1.2134413937687574,-0.2202432315892585,-0.0075118285948192216,-2.6038483821997875,-0.10888392708698907,2.4681821257803174,0.826474908251239,0.0007360077169688735,0.0005086854940070936,-0.00016675844602604957,0.00013617655116803196,-0.0033039275086899087,-0.00012919849285466563,0.0013074822866434045,0.0,0.0,0.0,0.0,0.0,0.0,0.0,-0.00011289597918473504,-0.00010674362007748184,-7.78010218234846e-05,2.070650585173084e-05,7.284780343373709e-05,6.080309549938434e-05,3.0077964132679824e-06,-0.0007360077169688735,-0.0005086854940070936,0.00016675844602604957,-0.00013617655116803196,0.0033039275086899087,0.00012919849285466563,-0.0013074822866434045,0.4505855441093445,19.891809463500977,0.4466826617717743,-20.082735061645508,-0.5697532296180725,-2.4694857597351074,0.22830526530742645,0
40,0.19499540328979492,-0.4505855441093445,-19.891809463500977,-0.4466826617717743,20.082735061645508,0.5697532296180725,2.4694857597351074,-0.22830526530742645,0.0,0.0,0.0,0.0,0.0,0.0,0.0,-0.41503961897925,-0.12503493469619648,-0.2318391669543016,0.31576701639055477,-0.023989360758597072,0.09221007889997034,-0.2037718774640341,1.213554289747942,-0.220136487969181,-0.007434027572995737,-2.6038690887056393,-0.10895677489042281,2.468121322684818,0.8264719004548258,1.2134413937687574,-0.2202432315892585,-0.0075118285948192216,-2.6038483821997875,-0.10888392708698907,2.4681821257803174,0.826474908251239,0.0007360077169688735,0.0005086854940070936,-0.00016675844602604957,0.00013617655116803196,-0.0033039275086899087,-0.00012919849285466563,0.0013074822866434045,0.0,0.0,0.0,0.0,0.0,0.0,0.0,-0.00011289597918473504,-0.00010674362007748184,-7.78010218234846e-05,2.070650585173084e-05,7.284780343373709e-05,6.080309549938434e-05,3.0077964132679824e-06,-0.0007360077169688735,-0.0005086854940070936,0.00016675844602604957,-0.00013617655116803196,0.0033039275086899087,0.00012919849285466563,-0.0013074822866434045,0.4505855441093445,19.891809463500977,0.4466826617717743,-20.082735061645508,-0.5697532296180725,-2.4694857597351074,0.22830526530742645,0
41,0.19999074935913086,-0.4505855441093445,-19.844202041625977,-0.3475005328655243,20.082735061645508,0.5578513741493225,2.4694857597351074,-0.17337362468242645,0.0,0.0,0.0,0.0,0.0,0.0,0.0,-0.4116260307946087,-0.11969281245959038,-0.2290656565385516,0.3126780873536769,-0.024212228634740093,0.0916983512967278,-0.2043149457720942,1.2135542926550258,-0.22013982884089153,-0.007440978954674108,-2.6038695282606295,-0.10895545246203739,2.468121322684818,0.8264657925785501,1.2134413937687574,-0.2202432315892585,-0.0075118285948192216,-2.6038483821997875,-0.10888392708698907,2.4681821257803174,0.826474908251239,0.0005206998038616583,-0.00026471258000928627,-0.002107698118860441,0.0004915677258086877,5.9267949773760534e-05,-0.00012236588019255487,-0.0017952500653199046,0.0,0.0,0.0,0.0,0.0,0.0,0.0,-0.00011289888626841993,-0.00010340274836695418,-7.084964014511357e-05,2.1146060841914505e-05,7.152537504831469e-05,6.080309549938434e-05,9.11567268890856e-06,-0.0005206998038616583,0.00026471258000928627,0.002107698118860441,-0.0004915677258086877,-5.9267949773760534e-05,0.00012236588019255487,0.0017952500653199046,0.4505855441093445,19.844202041625977,0.3475005328655243,-20.082735061645508,-0.5578513741493225,-2.4694857597351074,0.17337362468242645,0
42,0.20499444007873535,-0.4505855441093445,-19.844202041625977,-0.3475005328655243,20.082735061645508,0.5578513741493225,2.4694857597351074,-0.17337362468242645,0.0,0.0,0.0,0.0,0.0,0.0,0.0,-0.4116260307946087,-0.11969281245959038,-0.2290656565385516,0.3126780873536769,-0.024212228634740093,0.0916983512967278,-0.2043149457720942,1.2135542926550258,-0.22013982884089153,-0.007440978954674108,-2.6038695282606295,-0.10895545246203739,2.468121322684818,0.8264657925785501,1.2134413937687574,-0.2202432315892585,-0.0075118285948192216,-2.6038483821997875,-0.10888392708698907,2.4681821257803174,0.826474908251239,0.0005206998038616583,-0.00026471258000928627,-0.002107698118860441,0.0004915677258086877,5.9267949773760534e-05,-0.00012236588019255487,-0.0017952500653199046,0.0,0.0,0.0,0.0,0.0,0.0,0.0,-0.00011289888626841993,-0.00010340274836695418,-7.084964014511357e-05,2.1146060841914505e-05,7.152537504831469e-05,6.080309549938434e-05,9.11567268890856e-06,-0.0005206998038616583,0.00026471258000928627,0.002107698118860441,-0.0004915677258086877,-5.9267949773760534e-05,0.00012236588019255487,0.0017952500653199046,0.4505855441093445,19.844202041625977,0.3475005328655243,-20.082735061645508,-0.5578513741493225,-2.4694857597351074,0.17337362468242645,0
43,0.21001029014587402,-0.3514034152030945,-19.891809463500977,-0.4228789508342743,20.082735061645508,0.5578513741493225,2.4694857597351074,-0.22830526530742645,0.0,0.0,0.0,0.0,0.0,0.0,0.0,-0.41595932020309556,-0.12391185590648651,-0.2293584969223623,0.31295710334466464,-0.02376507748538541,0.09180268885082997,-0.20535722977039636,1.213547332541984,-0.220136487969181,-0.007435697900558067,-2.6038709738834327,-0.10895545197524947,2.468121322684818,0.8264719004548011,1.2134413937687574,-0.2202432315892585,-0.0075118285948192216,-2.6038483821997875,-0.10888392708698907,2.4681821257803174,0.826474908251239,-0.0016088423373864672,0.0002677971861940644,-0.0004408028970262522,6.0544782064484606e-05,0.0004210723759520754,-0.00035447707629897404,0.001224259889813885,0.0,0.0,0.0,0.0,0.0,0.0,0.0,-0.00010593877322673251,-0.00010674362007748184,-7.613069426115442e-05,2.2591683645156735e-05,7.152488826039916e-05,6.080309549938434e-05,3.0077964379149336e-06,0.0016088423373864672,-0.0002677971861940644,0.0004408028970262522,-6.0544782064484606e-05,-0.0004210723759520754,0.00035447707629897404,-0.001224259889813885,0.3514034152030945,19.891809463500977,0.4228789508342743,-20.082735061645508,-0.5578513741493225,-2.4694857597351074,0.22830526530742645,0
44,0.21500492095947266,-0.3514034152030945,-19.891809463500977,-0.4228789508342743,20.082735061645508,0.5578513741493225,2.4694857597351074,-0.22830526530742645,0.0,0.0,0.0,0.0,0.0,0.0,0.0,-0.41595932020309556,-0.12391185590648651,-0.2293584969223623,0.31295710334466464,-0.02376507748538541,0.09180268885082997,-0.20535722977039636,1.213547332541984,-0.220136487969181,-0.007435697900558067,-2.6038709738834327,-0.10895545197524947,2.468121322684818,0.8264719004548011,1.2134413937687574,-0.2202432315892585,-0.0075118285948192216,-2.6038483821997875,-0.10888392708698907,2.4681821257803174,0.826474908251239,-0.0016088423373864672,0.0002677971861940644,-0.0004408028970262522,6.0544782064484606e-05,0.0004210723759520754,-0.00035447707629897404,0.001224259889813885,0.0,0.0,0.0,0.0,0.0,0.0,0.0,-0.00010593877322673251,-0.00010674362007748184,-7.613069426115442e-05,2.2591683645156735e-05,7.152488826039916e-05,6.080309549938434e-05,3.0077964379149336e-06,0.0016088423373864672,-0.0002677971861940644,0.0004408028970262522,-6.0544782064484606e-05,-0.0004210723759520754,0.00035447707629897404,-0.001224259889813885,0.3514034152030945,19.891809463500977,0.4228789508342743,-20.082735061645508,-0.5578513741493225,-2.4694857597351074,0.22830526530742645,0
45,0.2200007438659668,-0.4267818331718445,-19.816431045532227,-0.3713042438030243,20.082735061645508,0.5642600655555725,2.4630770683288574,-0.22098104655742645,0.0,0.0,0.0,0.0,0.0,0.0,0.0,-0.4101870786782504,-0.12001635656834655,-0.2263366891683424,0.3104015624385045,-0.022935133693800645,0.09085351469141886,-0.20459062036797646,1.213552622255526,-0.22014177768272267,-0.007439238377070168,-2.603871085140814,-0.10895580967046505,2.468122034761641,0.82647109149791,1.2134413937687574,-0.2202432315892585,-0.0075118285948192216,-2.6038483821997875,-0.10888392708698907,2.4681821257803174,0.826474908251239,0.0006217771620102918,-0.00074400749451916,-0.0006672171461650512,6.906573050996048e-06,5.2393251346152995e-05,3.3663002027663606e-05,0.0020524642633761355,0.0,0.0,0.0,0.0,0.0,0.0,0.0,-0.00011122848676858865,-0.00010145390653581998,-7.259021774905314e-05,2.2702941026242485e-05,7.188258347597121e-05,6.009101867654465e-05,3.816753329055622e-06,-0.0006217771620102918,0.00074400749451916,0.0006672171461650512,-6.906573050996048e-06,-5.2393251346152995e-05,-3.3663002027663606e-05,-0.0020524642633761355,0.4267818331718445,19.816431045532227,0.3713042438030243,-20.082735061645508,-0.5642600655555725,-2.4630770683288574,0.22098104655742645,0
46,0.22499299049377441,-0.4267818331718445,-19.816431045532227,-0.3713042438030243,20.082735061645508,0.5642600655555725,2.4630770683288574,-0.22098104655742645,0.0,0.0,0.0,0.0,0.0,0.0,0.0,-0.4101870786782504,-0.12001635656834655,-0.2263366891683424,0.3104015624385045,-0.022935133693800645,0.09085351469141886,-0.20459062036797646,1.213552622255526,-0.22014177768272267,-0.007439238377070168,-2.603871085140814,-0.10895580967046505,2.468122034761641,0.82647109149791,1.2134413937687574,-0.2202432315892585,-0.0075118285948192216,-2.6038483821997875,-0.10888392708698907,2.4681821257803174,0.826474908251239,0.0006217771620102918,-0.00074400749451916,-0.0006672171461650512,6.906573050996048e-06,5.2393251346152995e-05,3.3663002027663606e-05,0.0020524642633761355,0.0,0.0,0.0,0.0,0.0,0.0,0.0,-0.00011122848676858865,-0.00010145390653581998,-7.259021774905314e-05,2.2702941026242485e-05,7.188258347597121e-05,6.009101867654465e-05,3.816753329055622e-06,-0.0006217771620102918,0.00074400749451916,0.0006672171461650512,-6.906573050996048e-06,-5.2393251346152995e-05,-3.3663002027663606e-05,-0.0020524642633761355,0.4267818331718445,19.816431045532227,0.3713042438030243,-20.082735061645508,-0.5642600655555725,-2.4630770683288574,0.22098104655742645,0
47,0.22994613647460938,-0.3752071261405945,-19.844202041625977,-0.3990752398967743,20.082735061645508,0.5697532296180725,2.4630770683288574,-0.22098104655742645,0.0,0.0,0.0,0.0,0.0,0.0,0.0,-0.40573300966187487,-0.12147710203014762,-0.22064461914069974,0.31346673328565056,-0.021983578712565507,0.09187875349477417,-0.20374467840529226,1.2135482873950536,-0.22013982884089153,-0.007437368444260817,-2.603869023599254,-0.10895689317788436,2.468122034761641,0.8264710866527698,1.2134413937687574,-0.2202432315892585,-0.0075118285948192216,-2.6038483821997875,-0.10888392708698907,2.4681821257803174,0.826474908251239,-0.0001732827278708233,-3.5974796162637072e-06,0.0001728422622414219,0.0005309225170826936,-0.0005198298683506987,7.584431806203258e-06,0.0009270473761686146,0.0,0.0,0.0,0.0,0.0,0.0,0.0,-0.00010689362629623389,-0.00010340274836695418,-7.446015055840444e-05,2.0641399466558852e-05,7.296609089528505e-05,6.009101867654465e-05,3.821598469233578e-06,0.0001732827278708233,3.5974796162637072e-06,-0.0001728422622414219,-0.0005309225170826936,0.0005198298683506987,-7.584431806203258e-06,-0.0009270473761686146,0.3752071261405945,19.844202041625977,0.3990752398967743,-20.082735061645508,-0.5697532296180725,-2.4630770683288574,0.22098104655742645,0
48,0.23499202728271484,-0.3752071261405945,-19.844202041625977,-0.3990752398967743,20.082735061645508,0.5697532296180725,2.4630770683288574,-0.22098104655742645,0.0,0.0,0.0,0.0,0.0,0.0,0.0,-0.40573300966187487,-0.12147710203014762,-0.22064461914069974,0.31346673328565056,-0.021983578712565507,0.09187875349477417,-0.20374467840529226,1.2135482873950536,-0.22013982884089153,-0.007437368444260817,-2.603869023599254,-0.10895689317788436,2.468122034761641,0.8264710866527698,1.2134413937687574,-0.2202432315892585,-0.0075118285948192216,-2.6038483821997875,-0.10888392708698907,2.4681821257803174,0.826474908251239,-0.0001732827278708233,-3.5974796162637072e-06,0.0001728422622414219,0.0005309225170826936,-0.0005198298683506987,7.584431806203258e-06,0.0009270473761686146,0.0,0.0,0.0,0.0,0.0,0.0,0.0,-0.00010689362629623389,-0.00010340274836695418,-7.446015055840444e-05,2.0641399466558852e-05,7.296609089528505e-05,6.009101867654465e-05,3.821598469233578e-06,0.0001732827278708233,3.5974796162637072e-06,-0.0001728422622414219,-0.0005309225170826936,0.0005198298683506987,-7.584431806203258e-06,-0.0009270473761686146,0.3752071261405945,19.844202041625977,0.3990752398967743,-20.082735061645508,-0.5697532296180725,-2.4630770683288574,0.22098104655742645,0
49,0.240020751953125,-0.3752071261405945,-19.915613174438477,-0.3990752398967743,20.082735061645508,0.5523582100868225,2.4630770683288574,-0.21457235515117645,0.0,0.0,0.0,0.0,0.0,0.0,0.0,-0.4054463348411705,-0.12434086769746441,-0.22326205168728475,0.31713667768909504,-0.022446062597438653,0.09237560683974098,-0.20309821607012454,1.2135490029738,-0.22013481753332573,-0.007437368444706261,-2.603869583317515,-0.10895484211114263,2.468122034761641,0.8264703745759195,1.2134413937687574,-0.2202432315892585,-0.0075118285948192216,-2.6038483821997875,-0.10888392708698907,2.4681821257803174,0.826474908251239,-0.00020782921335069757,0.0011162320472372844,-0.0002572985384734479,0.00044798355142932787,0.00019520329207157094,0.00010526241631353216,0.0006057379473252045,0.0,0.0,0.0,0.0,0.0,0.0,0.0,-0.00010760920504271354,-0.00010841405593275955,-7.446015011296041e-05,2.120111772763167e-05,7.091502415355888e-05,6.009101867654465e-05,4.533675319495778e-06,0.00020782921335069757,-0.0011162320472372844,0.0002572985384734479,-0.00044798355142932787,-0.00019520329207157094,-0.00010526241631353216,-0.0006057379473252045,0.3752071261405945,19.915613174438477,0.3990752398967743,-20.082735061645508,-0.5523582100868225,-2.4630770683288574,0.21457235515117645,0
50,0.24501752853393555,-0.3752071261405945,-19.915613174438477,-0.3990752398967743,20.082735061645508,0.5523582100868225,2.4630770683288574,-0.21457235515117645,0.0,0.0,0.0,0.0,0.0,0.0,0.0,-0.4054463348411705,-0.12434086769746441,-0.22326205168728475,0.31713667768909504,-0.022446062597438653,0.09237560683974098,-0.20309821607012454,1.2135490029738,-0.22013481753332573,-0.007437368444706261,-2.603869583317515,-0.10895484211114263,2.468122034761641,0.8264703745759195,1.2134413937687574,-0.2202432315892585,-0.0075118285948192216,-2.6038483821997875,-0.10888392708698907,2.4681821257803174,0.826474908251239,-0.00020782921335069757,0.0011162320472372844,-0.0002572985384734479,0.00044798355142932787,0.00019520329207157094,0.00010526241631353216,0.0006057379473252045,0.0,0.0,0.0,0.0,0.0,0.0,0.0,-0.00010760920504271354,-0.00010841405593275955,-7.446015011296041e-05,2.120111772763167e-05,7.091502415355888e-05,6.009101867654465e-05,4.533675319495778e-06,0.00020782921335069757,-0.0011162320472372844,0.0002572985384734479,-0.00044798355142932787,-0.00019520329207157094,-0.00010526241631353216,-0.0006057379473252045,0.3752071261405945,19.915613174438477,0.3990752398967743,-20.082735061645508,-0.5523582100868225,-2.4630770683288574,0.21457235515117645,0
51,0.250016450881958,-0.3752071261405945,-19.868005752563477,-0.4704863727092743,20.106538772583008,0.5642600655555725,2.4694857597351074,-0.18710653483867645,0.0,0.0,0.0,0.0,0.0,0.0,0.0,-0.39980632351923173,-0.12129582227294922,-0.22136063442374596,0.317459050679802,-0.023587612058129766,0.09229799698041417,-0.20247049344614546,1.2135482877221022,-0.22013815840503625,-0.007432357137140474,-2.603873717088132,-0.10895616453886033,2.468121322684818,0.8264673228181071,1.2134413937687574,-0.2202432315892585,-0.0075118285948192216,-2.6038483821997875,-0.10888392708698907,2.4681821257803174,0.826474908251239,-0.00044603989856733677,-3.7194998878170116e-05,0.0014709471220050287,-0.00010531760085491944,-8.276324434741676e-05,-0.00022013155685458435,-0.00042536799707398084,0.0,0.0,0.0,0.0,0.0,0.0,0.0,-0.0001068939533448443,-0.00010507318422223189,-7.947145767874756e-05,2.5334888344552553e-05,7.223745187125152e-05,6.080309549938434e-05,7.585433131951369e-06,0.00044603989856733677,3.7194998878170116e-05,-0.0014709471220050287,0.00010531760085491944,8.276324434741676e-05,0.00022013155685458435,0.00042536799707398084,0.3752071261405945,19.868005752563477,0.4704863727092743,-20.106538772583008,-0.5642600655555725,-2.4694857597351074,0.18710653483867645,0
52,0.2550342082977295,-0.3752071261405945,-19.868005752563477,-0.4704863727092743,20.106538772583008,0.5642600655555725,2.4694857597351074,-0.18710653483867645,0.0,0.0,0.0,0.0,0.0,0.0,0.0,-0.39980632351923173,-0.12129582227294922,-0.22136063442374596,0.317459050679802,-0.023587612058129766,0.09229799698041417,-0.20247049344614546,1.2135482877221022,-0.22013815840503625,-0.007432357137140474,-2.603873717088132,-0.10895616453886033,2.468121322684818,0.8264673228181071,1.2134413937687574,-0.2202432315892585,-0.0075118285948192216,-2.6038483821997875,-0.10888392708698907,2.4681821257803174,0.826474908251239,-0.00044603989856733677,-3.7194998878170116e-05,0.0014709471220050287,-0.00010531760085491944,-8.276324434741676e-05,-0.00022013155685458435,-0.00042536799707398084,0.0,0.0,0.0,0.0,0.0,0.0,0.0,-0.0001068939533448443,-0.00010507318422223189,-7.947145767874756e-05,2.5334888344552553e-05,7.223745187125152e-05,6.080309549938434e-05,7.585433131951369e-06,0.00044603989856733677,3.7194998878170116e-05,-0.0014709471220050287,0.00010531760085491944,8.276324434741676e-05,0.00022013155685458435,0.00042536799707398084,0.3752071261405945,19.868005752563477,0.4704863727092743,-20.106538772583008,-0.5642600655555725,-2.4694857597351074,0.18710653483867645,0
53,0.26000428199768066,-0.4505855441093445,-19.891809463500977,-0.4228789508342743,20.054964065551758,0.5642600655555725,2.4630770683288574,-0.21457235515117645,0.0,0.0,0.0,0.0,0.0,0.0,0.0,-0.404894216272791,-0.12374889707241085,-0.2270861595351671,0.3175092507989715,-0.02361976321925386,0.09265964532706916,-0.2014983944886045,1.2135542926873437,-0.220136487969181,-0.007435698008851,-2.603867826797447,-0.10895616453886033,2.468122034761641,0.8264703745759195,1.2134413937687574,-0.2202432315892585,-0.0075118285948192216,-2.6038483821997875,-0.10888392708698907,2.4681821257803174,0.826474908251239,0.00045418717389070397,0.00024412820171127657,-0.0005762425062592353,0.0010441874544497858,-0.0002716195121164694,-9.527872336458014e-05,9.277915404237603e-06,0.0,0.0,0.0,0.0,0.0,0.0,0.0,-0.00011289891858634604,-0.00010674362007748184,-7.613058596822164e-05,1.9444597659568075e-05,7.223745187125152e-05,6.009101867654465e-05,4.533675319495778e-06,-0.00045418717389070397,-0.00024412820171127657,0.0005762425062592353,-0.0010441874544497858,0.0002716195121164694,9.527872336458014e-05,-9.277915404237603e-06,0.4505855441093445,19.891809463500977,0.4228789508342743,-20.054964065551758,-0.5642600655555725,-2.4630770683288574,0.21457235515117645,0
54,0.26499176025390625,-0.4505855441093445,-19.891809463500977,-0.4228789508342743,20.054964065551758,0.5642600655555725,2.4630770683288574,-0.21457235515117645,0.0,0.0,0.0,0.0,0.0,0.0,0.0,-0.404894216272791,-0.12374889707241085,-0.2270861595351671,0.3175092507989715,-0.02361976321925386,0.09265964532706916,-0.2014983944886045,1.2135542926873437,-0.220136487969181,-0.007435698008851,-2.603867826797447,-0.10895616453886033,2.468122034761641,0.8264703745759195,1.2134413937687574,-0.2202432315892585,-0.0075118285948192216,-2.6038483821997875,-0.10888392708698907,2.4681821257803174,0.826474908251239,0.00045418717389070397,0.00024412820171127657,-0.0005762425062592353,0.0010441874544497858,-0.0002716195121164694,-9.527872336458014e-05,9.277915404237603e-06,0.0,0.0,0.0,0.0,0.0,0.0,0.0,-0.00011289891858634604,-0.00010674362007748184,-7.613058596822164e-05,1.9444597659568075e-05,7.223745187125152e-05,6.009101867654465e-05,4.533675319495778e-06,-0.00045418717389070397,-0.00024412820171127657,0.0005762425062592353,-0.0010441874544497858,0.0002716195121164694,9.527872336458014e-05,-9.277915404237603e-06,0.4505855441093445,19.891809463500977,0.4228789508342743,-20.054964065551758,-0.5642600655555725,-2.4630770683288574,0.21457235515117645,0
55,0.270005464553833,-0.4267818331718445,-19.915613174438477,-0.3713042438030243,20.106538772583008,0.5642600655555725,2.4694857597351074,-0.17337362468242645,0.0,0.0,0.0,0.0,0.0,0.0,0.0,-0.40241798587099886,-0.12153372032509137,-0.22439891554258756,0.31426363097962057,-0.024973095724797945,0.09222330050165786,-0.2022463115999712,1.213552622255526,-0.22013481753332573,-0.007439317286537404,-2.6038730013188727,-0.10895612510903872,2.468121322684818,0.8264657969392009,1.2134413937687574,-0.2202432315892585,-0.0075118285948192216,-2.6038483821997875,-0.10888392708698907,2.4681821257803174,0.826474908251239,-0.00022672419315540127,0.001117178524552753,-0.001497696129261652,-0.00021910470126465734,0.0027114964138495773,-0.00038782892410181086,-0.0007238903965169902,0.0,0.0,0.0,0.0,0.0,0.0,0.0,-0.00011122848676858865,-0.00010841405593275955,-7.251130828181754e-05,2.4619119085134145e-05,7.219802204964931e-05,6.080309549938434e-05,9.111312038179165e-06,0.00022672419315540127,-0.001117178524552753,0.001497696129261652,0.00021910470126465734,-0.0027114964138495773,0.00038782892410181086,0.0007238903965169902,0.4267818331718445,19.915613174438477,0.3713042438030243,-20.106538772583008,-0.5642600655555725,-2.4694857597351074,0.17337362468242645,0
56,0.2749943733215332,-0.4267818331718445,-19.915613174438477,-0.3713042438030243,20.106538772583008,0.5642600655555725,2.4694857597351074,-0.17337362468242645,0.0,0.0,0.0,0.0,0.0,0.0,0.0,-0.40241798587099886,-0.12153372032509137,-0.22439891554258756,0.31426363097962057,-0.024973095724797945,0.09222330050165786,-0.2022463115999712,1.213552622255526,-0.22013481753332573,-0.007439317286537404,-2.6038730013188727,-0.10895612510903872,2.468121322684818,0.8264657969392009,1.2134413937687574,-0.2202432315892585,-0.0075118285948192216,-2.6038483821997875,-0.10888392708698907,2.4681821257803174,0.826474908251239,-0.00022672419315540127,0.001117178524552753,-0.001497696129261652,-0.00021910470126465734,0.0027114964138495773,-0.00038782892410181086,-0.0007238903965169902,0.0,0.0,0.0,0.0,0.0,0.0,0.0,-0.00011122848676858865,-0.00010841405593275955,-7.251130828181754e-05,2.4619119085134145e-05,7.219802204964931e-05,6.080309549938434e-05,9.111312038179165e-06,0.00022672419315540127,-0.001117178524552753,0.001497696129261652,0.00021910470126465734,-0.0027114964138495773,0.00038782892410181086,0.0007238903965169902,0.4267818331718445,19.915613174438477,0.3713042438030243,-20.106538772583008,-0.5642600655555725,-2.4694857597351074,0.17337362468242645,0
57,0.2799975872039795,-0.4267818331718445,-19.891809463500977,-0.4466826617717743,20.054964065551758,0.5578513741493225,2.4758944511413574,-0.22098104655742645,0.0,0.0,0.0,0.0,0.0,0.0,0.0,-0.40600119515525823,-0.1307980190696622,-0.22384601615513436,0.31941565770006947,-0.024654174680924203,0.09233515493457382,-0.20050239928746608,1.213552622255526,-0.220136487969181,-0.00743331738779245,-2.6038693072371637,-0.10895651706714628,2.468120610607995,0.8264710866527425,1.2134413937687574,-0.2202432315892585,-0.0075118285948192216,-2.6038483821997875,-0.10888392708698907,2.4681821257803174,0.826474908251239,0.0005251001957863892,-5.2999768483133776e-05,0.0002162469209139247,0.0011132317657811894,7.799088173695502e-06,-0.00040359992595543725,0.0008703912199983934,0.0,0.0,0.0,0.0,0.0,0.0,0.0,-0.00011122848676858865,-0.00010674362007748184,-7.851120702677145e-05,2.0925037376162692e-05,7.25899801572033e-05,6.151517232222403e-05,3.8215984965450644e-06,-0.0005251001957863892,5.2999768483133776e-05,-0.0002162469209139247,-0.0011132317657811894,-7.799088173695502e-06,0.00040359992595543725,-0.0008703912199983934,0.4267818331718445,19.891809463500977,0.4466826617717743,-20.054964065551758,-0.5578513741493225,-2.4758944511413574,0.22098104655742645,0
58,0.28499531745910645,-0.4267818331718445,-19.891809463500977,-0.4466826617717743,20.054964065551758,0.5578513741493225,2.4758944511413574,-0.22098104655742645,0.0,0.0,0.0,0.0,0.0,0.0,0.0,-0.40600119515525823,-0.1307980190696622,-0.22384601615513436,0.31941565770006947,-0.024654174680924203,0.09233515493457382,-0.20050239928746608,1.213552622255526,-0.220136487969181,-0.00743331738779245,-2.6038693072371637,-0.10895651706714628,2.468120610607995,0.8264710866527425,1.2134413937687574,-0.2202432315892585,-0.0075118285948192216,-2.6038483821997875,-0.10888392708698907,2.4681821257803174,0.826474908251239,0.0005251001957863892,-5.2999768483133776e-05,0.0002162469209139247,0.0011132317657811894,7.799088173695502e-06,-0.00040359992595543725,0.0008703912199983934,0.0,0.0,0.0,0.0,0.0,0.0,0.0,-0.00011122848676858865,-0.00010674362007748184,-7.851120702677145e-05,2.0925037376162692e-05,7.25899801572033e-05,6.151517232222403e-05,3.8215984965450644e-06,-0.0005251001957863892,5.2999768483133776e-05,-0.0002162469209139247,-0.0011132317657811894,-7.799088173695502e-06,0.00040359992595543725,-0.0008703912199983934,0.4267818331718445,19.891809463500977,0.4466826617717743,-20.054964065551758,-0.5578513741493225,-2.4758944511413574,0.22098104655742645,0
59,0.2899956703186035,-0.4267818331718445,-19.891809463500977,-0.4466826617717743,20.054964065551758,0.5578513741493225,2.4758944511413574,-0.22098104655742645,0.0,0.0,0.0,0.0,0.0,0.0,0.0,-0.40600119515525823,-0.1307980190696622,-0.22384601615513436,0.31941565770006947,-0.024654174680924203,0.09233515493457382,-0.20050239928746608,1.213552622255526,-0.220136487969181,-0.00743331738779245,-2.6038693072371637,-0.10895651706714628,2.468120610607995,0.8264710866527425,1.2134413937687574,-0.2202432315892585,-0.0075118285948192216,-2.6038483821997875,-0.10888392708698907,2.4681821257803174,0.826474908251239,0.0005251001957863892,-5.2999768483133776e-05,0.0002162469209139247,0.0011132317657811894,7.799088173695502e-06,-0.00040359992595543725,0.0008703912199983934,0.0,0.0,0.0,0.0,0.0,0.0,0.0,-0.00011122848676858865,-0.00010674362007748184,-7.851120702677145e-05,2.0925037376162692e-05,7.25899801572033e-05,6.151517232222403e-05,3.8215984965450644e-06,-0.0005251001957863892,5.2999768483133776e-05,-0.0002162469209139247,-0.0011132317657811894,-7.799088173695502e-06,0.00040359992595543725,-0.0008703912199983934,0.4267818331718445,19.891809463500977,0.4466826617717743,-20.054964065551758,-0.5578513741493225,-2.4758944511413574,0.22098104655742645,0
60,0.29499340057373047,-0.4267818331718445,-19.891809463500977,-0.4466826617717743,20.054964065551758,0.5578513741493225,2.4758944511413574,-0.22098104655742645,0.0,0.0,0.0,0.0,0.0,0.0,0.0,-0.40600119515525823,-0.1307980190696622,-0.22384601615513436,0.31941565770006947,-0.024654174680924203,0.09233515493457382,-0.20050239928746608,1.213552622255526,-0.220136487969181,-0.00743331738779245,-2.6038693072371637,-0.10895651706714628,2.468120610607995,0.8264710866527425,1.2134413937687574,-0.2202432315892585,-0.0075118285948192216,-2.6038483821997875,-0.10888392708698907,2.4681821257803174,0.826474908251239,0.0005251001957863892,-5.2999768483133776e-05,0.0002162469209139247,0.0011132317657811894,7.799088173695502e-06,-0.00040359992595543725,0.0008703912199983934,0.0,0.0,0.0,0.0,0.0,0.0,0.0,-0.00011122848676858865,-0.00010674362007748184,-7.851120702677145e-05,2.0925037376162692e-05,7.25899801572033e-05,6.151517232222403e-05,3.8215984965450644e-06,-0.0005251001957863892,5.2999768483133776e-05,-0.0002162469209139247,-0.0011132317657811894,-7.799088173695502e-06,0.00040359992595543725,-0.0008703912199983934,0.4267818331718445,19.891809463500977,0.4466826617717743,-20.054964065551758,-0.5578513741493225,-2.4758944511413574,0.22098104655742645,0
61,0.300006628036499,-0.4267818331718445,-19.915613174438477,-0.4466826617717743,20.106538772583008,0.5578513741493225,2.4566683769226074,-0.20724813640117645,0.0,0.0,0.0,0.0,0.0,0.0,0.0,-0.4102681500946219,-0.12444392977205666,-0.22853616739161015,0.31256163889291905,-0.025466206592008617,0.09154360236678062,-0.20144434504452954,1.213552619312087,-0.22013481753332573,-0.007434027568986721,-2.6038730119803506,-0.10895545241395957,2.468122746892299,0.8264695607738363,1.2134413937687574,-0.2202432315892585,-0.0075118285948192216,-2.6038483821997875,-0.10888392708698907,2.4681821257803174,0.826474908251239,-9.79548097425167e-07,0.0010741892648077388,0.0004460994972151742,-0.0008568666724471658,0.0016510610526165993,0.0003345157957478907,7.423301365594553e-05,0.0,0.0,0.0,0.0,0.0,0.0,0.0,-0.0001112255433295406,-0.00010841405593275955,-7.780102583250081e-05,2.462978056305687e-05,7.152532697049518e-05,5.9378888018546405e-05,5.34747740277286e-06,9.79548097425167e-07,-0.0010741892648077388,-0.0004460994972151742,0.0008568666724471658,-0.0016510610526165993,-0.0003345157957478907,-7.423301365594553e-05,0.4267818331718445,19.915613174438477,0.4466826617717743,-20.106538772583008,-0.5578513741493225,-2.4566683769226074,0.20724813640117645,0
62,0.3050038814544678,-0.4267818331718445,-19.915613174438477,-0.4466826617717743,20.106538772583008,0.5578513741493225,2.4566683769226074,-0.20724813640117645,0.0,0.0,0.0,0.0,0.0,0.0,0.0,-0.4102681500946219,-0.12444392977205666,-0.22853616739161015,0.31256163889291905,-0.025466206592008617,0.09154360236678062,-0.20144434504452954,1.213552619312087,-0.22013481753332573,-0.007434027568986721,-2.6038730119803506,-0.10895545241395957,2.468122746892299,0.8264695607738363,1.2134413937687574,-0.2202432315892585,-0.0075118285948192216,-2.6038483821997875,-0.10888392708698907,2.4681821257803174,0.826474908251239,-9.79548097425167e-07,0.0010741892648077388,0.0004460994972151742,-0.0008568666724471658,0.0016510610526165993,0.0003345157957478907,7.423301365594553e-05,0.0,0.0,0.0,0.0,0.0,0.0,0.0,-0.0001112255433295406,-0.00010841405593275955,-7.780102583250081e-05,2.462978056305687e-05,7.152532697049518e-05,5.9378888018546405e-05,5.34747740277286e-06,9.79548097425167e-07,-0.0010741892648077388,-0.0004460994972151742,0.0008568666724471658,-0.0016510610526165993,-0.0003345157957478907,-7.423301365594553e-05,0.4267818331718445,19.915613174438477,0.4466826617717743,-20.106538772583008,-0.5578513741493225,-2.4566683769226074,0.20724813640117645,0
63,0.3100414276123047,-0.4029781222343445,-19.844202041625977,-0.4228789508342743,20.106538772583008,0.5642600655555725,2.4630770683288574,-0.23471395671367645,0.0,0.0,0.0,0.0,0.0,0.0,0.0,-0.41358204919939456,-0.13152576469628352,-0.23266898888649798,0.3163321953355087,-0.024686623625092257,0.09239978735513142,-0.20163530429151555,1.2135509518196208,-0.22013982884089153,-0.007435698008850932,-2.603870691767104,-0.1089561645388595,2.4681223879743515,0.8264726125316487,1.2134413937687574,-0.2202432315892585,-0.0075118285948192216,-2.6038483821997875,-0.10888392708698907,2.4681821257803174,0.826474908251239,-0.0005549052881206896,-0.0009925331403302883,-7.780982135459447e-05,-0.0005761975672504654,-0.00013139317943010407,0.00010099542100543627,0.00161581082053961,0.0,0.0,0.0,0.0,0.0,0.0,0.0,-0.00010955805086343418,-0.00010340274836695418,-7.613058596828929e-05,2.2309567316636247e-05,7.223745187043273e-05,5.9737805965909274e-05,2.295719590317269e-06,0.0005549052881206896,0.0009925331403302883,7.780982135459447e-05,0.0005761975672504654,0.00013139317943010407,-0.00010099542100543627,-0.00161581082053961,0.4029781222343445,19.844202041625977,0.4228789508342743,-20.106538772583008,-0.5642600655555725,-2.4630770683288574,0.23471395671367645,0
64,0.31499409675598145,-0.4029781222343445,-19.844202041625977,-0.4228789508342743,20.106538772583008,0.5642600655555725,2.4630770683288574,-0.23471395671367645,0.0,0.0,0.0,0.0,0.0,0.0,0.0,-0.41358204919939456,-0.13152576469628352,-0.23266898888649798,0.3163321953355087,-0.024686623625092257,0.09239978735513142,-0.20163530429151555,1.2135509518196208,-0.22013982884089153,-0.007435698008850932,-2.603870691767104,-0.1089561645388595,2.4681223879743515,0.8264726125316487,1.2134413937687574,-0.2202432315892585,-0.0075118285948192216,-2.6038483821997875,-0.10888392708698907,2.4681821257803174,0.826474908251239,-0.0005549052881206896,-0.0009925331403302883,-7.780982135459447e-05,-0.0005761975672504654,-0.00013139317943010407,0.00010099542100543627,0.00161581082053961,0.0,0.0,0.0,0.0,0.0,0.0,0.0,-0.00010955805086343418,-0.00010340274836695418,-7.613058596828929e-05,2.2309567316636247e-05,7.223745187043273e-05,5.9737805965909274e-05,2.295719590317269e-06,0.0005549052881206896,0.0009925331403302883,7.780982135459447e-05,0.0005761975672504654,0.00013139317943010407,-0.00010099542100543627,-0.00161581082053961,0.4029781222343445,19.844202041625977,0.4228789508342743,-20.106538772583008,-0.5642600655555725,-2.4630770683288574,0.23471395671367645,0
65,0.31999659538269043,-0.3752071261405945,-19.792627334594727,-0.4228789508342743,20.082735061645508,0.5523582100868225,2.4566683769226074,-0.24112264811992645,0.0,0.0,0.0,0.0,0.0,0.0,0.0,-0.410256059436514,-0.11862889958845367,-0.23186251800115407,0.30858722676909905,-0.024992989663992656,0.09096024161308416,-0.2017316774301614,1.2135490029778395,-0.22014344811857792,-0.007435698008851,-2.603868785281489,-0.10895484205638735,2.468122746839128,0.8264733246084717,1.2134413937687574,-0.2202432315892585,-0.0075118285948192216,-2.6038483821997875,-0.10888392708698907,2.4681821257803174,0.826474908251239,-0.0009367145623726541,-0.00117252232712481,0.00022148448524925629,-0.00040480071392678496,2.6093486014461893e-05,0.00018418500801047438,0.0015059649830873815,0.0,0.0,0.0,0.0,0.0,0.0,0.0,-0.000107609209082149,-9.978347068057003e-05,-7.613058596822164e-05,2.0403081701481085e-05,7.091496939827524e-05,5.93789411893475e-05,1.5836427673665554e-06,0.0009367145623726541,0.00117252232712481,-0.00022148448524925629,0.00040480071392678496,-2.6093486014461893e-05,-0.00018418500801047438,-0.0015059649830873815,0.3752071261405945,19.792627334594727,0.4228789508342743,-20.082735061645508,-0.5523582100868225,-2.4566683769226074,0.24112264811992645,0
66,0.32500648498535156,-0.3752071261405945,-19.792627334594727,-0.4228789508342743,20.082735061645508,0.5523582100868225,2.4566683769226074,-0.24112264811992645,0.0,0.0,0.0,0.0,0.0,0.0,0.0,-0.410256059436514,-0.11862889958845367,-0.23186251800115407,0.30858722676909905,-0.024992989663992656,0.09096024161308416,-0.2017316774301614,1.2135490029778395,-0.22014344811857792,-0.007435698008851,-2.603868785281489,-0.10895484205638735,2.468122746839128,0.8264733246084717,1.2134413937687574,-0.2202432315892585,-0.0075118285948192216,-2.6038483821997875,-0.10888392708698907,2.4681821257803174,0.826474908251239,-0.0009367145623726541,-0.00117252232712481,0.00022148448524925629,-0.00040480071392678496,2.6093486014461893e-05,0.00018418500801047438,0.0015059649830873815,0.0,0.0,0.0,0.0,0.0,0.0,0.0,-0.000107609209082149,-9.978347068057003e-05,-7.613058596822164e-05,2.0403081701481085e-05,7.091496939827524e-05,5.93789411893475e-05,1.5836427673665554e-06,0.0009367145623726541,0.00117252232712481,-0.00022148448524925629,0.00040480071392678496,-2.6093486014461893e-05,-0.00018418500801047438,-0.0015059649830873815,0.3752071261405945,19.792627334594727,0.4228789508342743,-20.082735061645508,-0.5523582100868225,-2.4566683769226074,0.24112264811992645,0
67,0.32999277114868164,-0.4267818331718445,-19.891809463500977,-0.4228789508342743,20.106538772583008,0.5697532296180725,2.4630770683288574,-0.20083944499492645,0.0,0.0,0.0,0.0,0.0,0.0,0.0,-0.4101638335808239,-0.1255365581078856,-0.23221516962701566,0.31513699990132904,-0.025820987624817337,0.09202558588807745,-0.20224677479673936,1.2135526134252084,-0.220136487969181,-0.007435698008851,-2.603873396575798,-0.1089567748904225,2.468122034761641,0.8264688486970133,1.2134413937687574,-0.2202432315892585,-0.0075118285948192216,-2.6038483821997875,-0.10888392708698907,2.4681821257803174,0.826474908251239,0.0002800756135363806,0.0010337841310906779,0.0001689186358467437,-0.0005042852611538802,0.004949485490924088,7.711274789351753e-05,0.0002516036356308373,0.0,0.0,0.0,0.0,0.0,0.0,0.0,-0.0001112196564510004,-0.00010674362007748184,-7.613058596822164e-05,2.5014376010545902e-05,7.284780343343178e-05,6.009101867654465e-05,6.0595542257235735e-06,-0.0002800756135363806,-0.0010337841310906779,-0.0001689186358467437,0.0005042852611538802,-0.004949485490924088,-7.711274789351753e-05,-0.0002516036356308373,0.4267818331718445,19.891809463500977,0.4228789508342743,-20.106538772583008,-0.5697532296180725,-2.4630770683288574,0.20083944499492645,0
68,0.3350038528442383,-0.4267818331718445,-19.891809463500977,-0.4228789508342743,20.106538772583008,0.5697532296180725,2.4630770683288574,-0.20083944499492645,0.0,0.0,0.0,0.0,0.0,0.0,0.0,-0.4101638335808239,-0.1255365581078856,-0.23221516962701566,0.31513699990132904,-0.025820987624817337,0.09202558588807745,-0.20224677479673936,1.2135526134252084,-0.220136487969181,-0.007435698008851,-2.603873396575798,-0.1089567748904225,2.468122034761641,0.8264688486970133,1.2134413937687574,-0.2202432315892585,-0.0075118285948192216,-2.6038483821997875,-0.10888392708698907,2.4681821257803174,0.826474908251239,0.0002800756135363806,0.0010337841310906779,0.0001689186358467437,-0.0005042852611538802,0.004949485490924088,7.711274789351753e-05,0.0002516036356308373,0.0,0.0,0.0,0.0,0.0,0.0,0.0,-0.0001112196564510004,-0.00010674362007748184,-7.613058596822164e-05,2.5014376010545902e-05,7.284780343343178e-05,6.009101867654465e-05,6.0595542257235735e-06,-0.0002800756135363806,-0.0010337841310906779,-0.0001689186358467437,0.0005042852611538802,-0.004949485490924088,-7.711274789351753e-05,-0.0002516036356308373,0.4267818331718445,19.891809463500977,0.4228789508342743,-20.106538772583008,-0.5697532296180725,-2.4630770683288574,0.20083944499492645,0
69,0.3399944305419922,-0.4267818331718445,-19.891809463500977,-0.4228789508342743,20.106538772583008,0.5697532296180725,2.4630770683288574,-0.20083944499492645,0.0,0.0,0.0,0.0,0.0,0.0,0.0,-0.4101638335808239,-0.1255365581078856,-0.23221516962701566,0.31513699990132904,-0.025820987624817337,0.09202558588807745,-0.20224677479673936,1.2135526134252084,-0.220136487969181,-0.007435698008851,-2.603873396575798,-0.1089567748904225,2.468122034761641,0.8264688486970133,1.2134413937687574,-0.2202432315892585,-0.0075118285948192216,-2.6038483821997875,-0.10888392708698907,2.4681821257803174,0.826474908251239,0.0002800756135363806,0.0010337841310906779,0.0001689186358467437,-0.0005042852611538802,0.004949485490924088,7.711274789351753e-05,0.0002516036356308373,0.0,0.0,0.0,0.0,0.0,0.0,0.0,-0.0001112196564510004,-0.00010674362007748184,-7.613058596822164e-05,2.5014376010545902e-05,7.284780343343178e-05,6.009101867654465e-05,6.0595542257235735e-06,-0.0002800756135363806,-0.0010337841310906779,-0.0001689186358467437,0.0005042852611538802,-0.004949485490924088,-7.711274789351753e-05,-0.0002516036356308373,0.4267818331718445,19.891809463500977,0.4228789508342743,-20.106538772583008,-0.5697532296180725,-2.4630770683288574,0.20083944499492645,0
70,0.3450150489807129,-0.4505855441093445,-19.844202041625977,-0.4466826617717743,20.082735061645508,0.5578513741493225,2.4694857597351074,-0.19351522624492645,0.0,0.0,0.0,0.0,0.0,0.0,0.0,-0.4048892892696164,-0.12523580579795876,-0.22292485579926774,0.3153023666237703,-0.02606164142183205,0.09235224156108586,-0.20159273669510736,1.213554291710185,-0.22013982884089153,-0.007434027572995737,-2.6038695269942402,-0.10895543931876353,2.468121322684818,0.82646803489493,1.2134413937687574,-0.2202432315892585,-0.0075118285948192216,-2.6038483821997875,-0.10888392708698907,2.4681821257803174,0.826474908251239,0.0016155258209698434,-0.00035516389674468976,0.0008883817073748004,0.00034939464336836227,0.0002922820202391073,-0.00014198451955756562,-0.0006243771665684594,0.0,0.0,0.0,0.0,0.0,0.0,0.0,-0.00011289794142754772,-0.00010340274836695418,-7.78010218234846e-05,2.114479445269879e-05,7.151223177445654e-05,6.080309549938434e-05,6.8733563090006555e-06,-0.0016155258209698434,0.00035516389674468976,-0.0008883817073748004,-0.00034939464336836227,-0.0002922820202391073,0.00014198451955756562,0.0006243771665684594,0.4505855441093445,19.844202041625977,0.4466826617717743,-20.082735061645508,-0.5578513741493225,-2.4694857597351074,0.19351522624492645,0
71,0.349992036819458,-0.4505855441093445,-19.844202041625977,-0.4466826617717743,20.082735061645508,0.5578513741493225,2.4694857597351074,-0.19351522624492645,0.0,0.0,0.0,0.0,0.0,0.0,0.0,-0.4048892892696164,-0.12523580579795876,-0.22292485579926774,0.3153023666237703,-0.02606164142183205,0.09235224156108586,-0.20159273669510736,1.213554291710185,-0.22013982884089153,-0.007434027572995737,-2.6038695269942402,-0.10895543931876353,2.468121322684818,0.82646803489493,1.2134413937687574,-0.2202432315892585,-0.0075118285948192216,-2.6038483821997875,-0.10888392708698907,2.4681821257803174,0.826474908251239,0.0016155258209698434,-0.00035516389674468976,0.0008883817073748004,0.00034939464336836227,0.0002922820202391073,-0.00014198451955756562,-0.0006243771665684594,0.0,0.0,0.0,0.0,0.0,0.0,0.0,-0.00011289794142754772,-0.00010340274836695418,-7.78010218234846e-05,2.114479445269879e-05,7.151223177445654e-05,6.080309549938434e-05,6.8733563090006555e-06,-0.0016155258209698434,0.00035516389674468976,-0.0008883817073748004,-0.00034939464336836227,-0.0002922820202391073,0.00014198451955756562,0.0006243771665684594,0.4505855441093445,19.844202041625977,0.4466826617717743,-20.082735061645508,-0.5578513741493225,-2.4694857597351074,0.19351522624492645,0
72,0.3549928665161133,-0.3752071261405945,-19.868005752563477,-0.4466826617717743,20.082735061645508,0.5642600655555725,2.4566683769226074,-0.16604940593242645,0.0,0.0,0.0,0.0,0.0,0.0,0.0,-0.40587077600630767,-0.1250296971145103,-0.2235672969873119,0.3181685244684776,-0.025403098707669807,0.0925661460757792,-0.2013508963774307,1.213548976450542,-0.22013815840503625,-0.007434027572995737,-2.603869764997987,-0.10895616453878612,2.4681227468384637,0.8264649831371175,1.2134413937687574,-0.2202432315892585,-0.0075118285948192216,-2.6038483821997875,-0.10888392708698907,2.4681821257803174,0.826474908251239,-0.0003637348484533847,0.00016671222124878756,0.0009903469523695435,0.0006442660763248066,-0.00014874271631185078,0.00026982456300586675,-0.0015175468678019816,0.0,0.0,0.0,0.0,0.0,0.0,0.0,-0.00010758268178467922,-0.00010507318422223189,-7.78010218234846e-05,2.1382798199631736e-05,7.223745179704699e-05,5.937894185370496e-05,9.925114121567269e-06,0.0003637348484533847,-0.00016671222124878756,-0.0009903469523695435,-0.0006442660763248066,0.00014874271631185078,-0.00026982456300586675,0.0015175468678019816,0.3752071261405945,19.868005752563477,0.4466826617717743,-20.082735061645508,-0.5642600655555725,-2.4566683769226074,0.16604940593242645,0
73,0.3600180149078369,-0.3752071261405945,-19.868005752563477,-0.4466826617717743,20.082735061645508,0.5642600655555725,2.4566683769226074,-0.16604940593242645,0.0,0.0,0.0,0.0,0.0,0.0,0.0,-0.40587077600630767,-0.1250296971145103,-0.2235672969873119,0.3181685244684776,-0.025403098707669807,0.0925661460757792,-0.2013508963774307,1.213548976450542,-0.22013815840503625,-0.007434027572995737,-2.603869764997987,-0.10895616453878612,2.4681227468384637,0.8264649831371175,1.2134413937687574,-0.2202432315892585,-0.0075118285948192216,-2.6038483821997875,-0.10888392708698907,2.4681821257803174,0.826474908251239,-0.0003637348484533847,0.00016671222124878756,0.0009903469523695435,0.0006442660763248066,-0.00014874271631185078,0.00026982456300586675,-0.0015175468678019816,0.0,0.0,0.0,0.0,0.0,0.0,0.0,-0.00010758268178467922,-0.00010507318422223189,-7.78010218234846e-05,2.1382798199631736e-05,7.223745179704699e-05,5.937894185370496e-05,9.925114121567269e-06,0.0003637348484533847,-0.00016671222124878756,-0.0009903469523695435,-0.0006442660763248066,0.00014874271631185078,-0.00026982456300586675,0.0015175468678019816,0.3752071261405945,19.868005752563477,0.4466826617717743,-20.082735061645508,-0.5642600655555725,-2.4566683769226074,0.16604940593242645,0
74,0.3650500774383545,-0.4267818331718445,-19.844202041625977,-0.4466826617717743,20.106538772583008,0.5642600655555725,2.4630770683288574,-0.18710653483867645,0.0,0.0,0.0,0.0,0.0,0.0,0.0,-0.40904862186598157,-0.12982101949795957,-0.22892361518436702,0.32046181554286873,-0.025011833418488505,0.09254129132560585,-0.20092711259236715,1.2135526212742298,-0.22013982884089153,-0.007434027572995737,-2.6038737159209338,-0.10895617768213418,2.4681221524992107,0.8264673228181071,1.2134413937687574,-0.2202432315892585,-0.0075118285948192216,-2.6038483821997875,-0.10888392708698907,2.4681821257803174,0.826474908251239,-2.0493310660771906e-05,-0.0010186069436264402,0.0006724873968179575,-7.958738234215504e-05,5.125000729337608e-05,-4.054879124879001e-05,-0.0007824296619921011,0.0,0.0,0.0,0.0,0.0,0.0,0.0,-0.00011122750547243321,-0.00010340274836695418,-7.78010218234846e-05,2.5333721146214572e-05,7.225059514510968e-05,5.997328110662892e-05,7.585433131951369e-06,2.0493310660771906e-05,0.0010186069436264402,-0.0006724873968179575,7.958738234215504e-05,-5.125000729337608e-05,4.054879124879001e-05,0.0007824296619921011,0.4267818331718445,19.844202041625977,0.4466826617717743,-20.106538772583008,-0.5642600655555725,-2.4630770683288574,0.18710653483867645,0
75,0.37000250816345215,-0.4267818331718445,-19.844202041625977,-0.4466826617717743,20.106538772583008,0.5642600655555725,2.4630770683288574,-0.18710653483867645,0.0,0.0,0.0,0.0,0.0,0.0,0.0,-0.40904862186598157,-0.12982101949795957,-0.22892361518436702,0.32046181554286873,-0.025011833418488505,0.09254129132560585,-0.20092711259236715,1.2135526212742298,-0.22013982884089153,-0.007434027572995737,-2.6038737159209338,-0.10895617768213418,2.4681221524992107,0.8264673228181071,1.2134413937687574,-0.2202432315892585,-0.0075118285948192216,-2.6038483821997875,-0.10888392708698907,2.4681821257803174,0.826474908251239,-2.0493310660771906e-05,-0.0010186069436264402,0.0006724873968179575,-7.958738234215504e-05,5.125000729337608e-05,-4.054879124879001e-05,-0.0007824296619921011,0.0,0.0,0.0,0.0,0.0,0.0,0.0,-0.00011122750547243321,-0.00010340274836695418,-7.78010218234846e-05,2.5333721146214572e-05,7.225059514510968e-05,5.997328110662892e-05,7.585433131951369e-06,2.0493310660771906e-05,0.0010186069436264402,-0.0006724873968179575,7.958738234215504e-05,-5.125000729337608e-05,4.054879124879001e-05,0.0007824296619921011,0.4267818331718445,19.844202041625977,0.4466826617717743,-20.106538772583008,-0.5642600655555725,-2.4630770683288574,0.18710653483867645,0
76,0.37505364418029785,-0.4267818331718445,-19.891809463500977,-0.4466826617717743,20.154146194458008,0.5578513741493225,2.4630770683288574,-0.17978231608867645,0.0,0.0,0.0,0.0,0.0,0.0,0.0,-0.4067322787535091,-0.1222506208587377,-0.2257002073227647,0.31157510200219934,-0.024906672866229336,0.09076124809172283,-0.2011633885345606,1.2135526222555242,-0.220136487969181,-0.007434027572995737,-2.6038763523541975,-0.10895545246206213,2.468122034761862,0.8264665090160237,1.2134413937687574,-0.2202432315892585,-0.0075118285948192216,-2.6038483821997875,-0.10888392708698907,2.4681821257803174,0.826474908251239,5.443349183398346e-05,0.0005987655121412413,0.0005730748948979691,-0.0021855644777895103,8.554322696988958e-05,0.0001638973566337075,-0.0012993120371609119,0.0,0.0,0.0,0.0,0.0,0.0,0.0,-0.0001112284867668123,-0.00010674362007748184,-7.78010218234846e-05,2.797015440991757e-05,7.152537507305878e-05,6.009101845538822e-05,8.399235215339473e-06,-5.443349183398346e-05,-0.0005987655121412413,-0.0005730748948979691,0.0021855644777895103,-8.554322696988958e-05,-0.0001638973566337075,0.0012993120371609119,0.4267818331718445,19.891809463500977,0.4466826617717743,-20.154146194458008,-0.5578513741493225,-2.4630770683288574,0.17978231608867645,0
77,0.3800051212310791,-0.4267818331718445,-19.891809463500977,-0.4466826617717743,20.154146194458008,0.5578513741493225,2.4630770683288574,-0.17978231608867645,0.0,0.0,0.0,0.0,0.0,0.0,0.0,-0.4067322787535091,-0.1222506208587377,-0.2257002073227647,0.31157510200219934,-0.024906672866229336,0.09076124809172283,-0.2011633885345606,1.2135526222555242,-0.220136487969181,-0.007434027572995737,-2.6038763523541975,-0.10895545246206213,2.468122034761862,0.8264665090160237,1.2134413937687574,-0.2202432315892585,-0.0075118285948192216,-2.6038483821997875,-0.10888392708698907,2.4681821257803174,0.826474908251239,5.443349183398346e-05,0.0005987655121412413,0.0005730748948979691,-0.0021855644777895103,8.554322696988958e-05,0.0001638973566337075,-0.0012993120371609119,0.0,0.0,0.0,0.0,0.0,0.0,0.0,-0.0001112284867668123,-0.00010674362007748184,-7.78010218234846e-05,2.797015440991757e-05,7.152537507305878e-05,6.009101845538822e-05,8.399235215339473e-06,-5.443349183398346e-05,-0.0005987655121412413,-0.0005730748948979691,0.0021855644777895103,-8.554322696988958e-05,-0.0001638973566337075,0.0012993120371609119,0.4267818331718445,19.891809463500977,0.4466826617717743,-20.154146194458008,-0.5578513741493225,-2.4630770683288574,0.17978231608867645,0
78,0.3849914073944092,-0.4505855441093445,-19.844202041625977,-0.4466826617717743,20.054964065551758,0.5523582100868225,2.4630770683288574,-0.20724813640117645,0.0,0.0,0.0,0.0,0.0,0.0,0.0,-0.4155534528247454,-0.12431142989036112,-0.23255540863054017,0.31263464544750896,-0.024810701056246314,0.09133419931826006,-0.20093895981682383,1.2135542131095054,-0.22013982884089153,-0.007433790844594642,-2.6038700506768886,-0.1089548421104749,2.468122034761641,0.8264695607738363,1.2134413937687574,-0.2202432315892585,-0.0075118285948192216,-2.6038483821997875,-0.10888392708698907,2.4681821257803174,0.826474908251239,0.0005267760064093346,-0.0005966607218336987,-3.467657742610147e-05,0.00021716918597719878,0.00023645501953008566,5.8958403836987546e-05,3.091167676202925e-05,0.0,0.0,0.0,0.0,0.0,0.0,0.0,-0.00011281934074802713,-0.00010340274836695418,-7.803775022457993e-05,2.1668477101055572e-05,7.091502348582912e-05,6.009101867654465e-05,5.34747740277286e-06,-0.0005267760064093346,0.0005966607218336987,3.467657742610147e-05,-0.00021716918597719878,-0.00023645501953008566,-5.8958403836987546e-05,-3.091167676202925e-05,0.4505855441093445,19.844202041625977,0.4466826617717743,-20.054964065551758,-0.5523582100868225,-2.4630770683288574,0.20724813640117645,0
79,0.38999199867248535,-0.4505855441093445,-19.844202041625977,-0.4466826617717743,20.054964065551758,0.5523582100868225,2.4630770683288574,-0.20724813640117645,0.0,0.0,0.0,0.0,0.0,0.0,0.0,-0.4155534528247454,-0.12431142989036112,-0.23255540863054017,0.31263464544750896,-0.024810701056246314,0.09133419931826006,-0.20093895981682383,1.2135542131095054,-0.22013982884089153,-0.007433790844594642,-2.6038700506768886,-0.1089548421104749,2.468122034761641,0.8264695607738363,1.2134413937687574,-0.2202432315892585,-0.0075118285948192216,-2.6038483821997875,-0.10888392708698907,2.4681821257803174,0.826474908251239,0.0005267760064093346,-0.0005966607218336987,-3.467657742610147e-05,0.00021716918597719878,0.00023645501953008566,5.8958403836987546e-05,3.091167676202925e-05,0.0,0.0,0.0,0.0,0.0,0.0,0.0,-0.00011281934074802713,-0.00010340274836695418,-7.803775022457993e-05,2.1668477101055572e-05,7.091502348582912e-05,6.009101867654465e-05,5.34747740277286e-06,-0.0005267760064093346,0.0005966607218336987,3.467657742610147e-05,-0.00021716918597719878,-0.00023645501953008566,-5.8958403836987546e-05,-3.091167676202925e-05,0.4505855441093445,19.844202041625977,0.4466826617717743,-20.054964065551758,-0.5523582100868225,-2.4630770683288574,0.20724813640117645,0
