rezayati/contactInterpretation/dataset/franka_main/labeled_data/link4/d1_5.csv
index,time,tau_J0,tau_J1,tau_J2,tau_J3,tau_J4,tau_J5,tau_J6,tau_J_d0,tau_J_d1,tau_J_d2,tau_J_d3,tau_J_d4,tau_J_d5,tau_J_d6,tau_ext0,tau_ext1,tau_ext2,tau_ext3,tau_ext4,tau_ext5,tau_ext6,q0,q1,q2,q3,q4,q5,q6,q_d0,q_d1,q_d2,q_d3,q_d4,q_d5,q_d6,dq0,dq1,dq2,dq3,dq4,dq5,dq6,dq_d0,dq_d1,dq_d2,dq_d3,dq_d4,dq_d5,dq_d6,e0,e1,e2,e3,e4,e5,e6,de0,de1,de2,de3,de4,de5,de6,etau_J0,etau_J1,etau_J2,etau_J3,etau_J4,etau_J5,etau_J6,label
1,0.0,-0.7838374972343445,-46.52419662475586,-5.687466144561768,19.459871292114258,0.7610984444618225,2.3660311698913574,-0.19351522624492645,0.0,0.0,0.0,0.0,0.0,0.0,0.0,-0.8089764382010698,-0.19218484183007375,-0.5037088365300116,0.26916813248903915,0.18431809617544376,0.1005343045028552,-0.18868460592762584,0.878163209551259,0.7557567340778062,-0.2824925460169316,-1.6690201193156995,0.14140959941150816,2.403574635332923,1.0273486949012152,0.878092876070424,0.7554597494309409,-0.2825552651693207,-1.6690993614607135,0.1414185955172306,2.4034451173676383,1.0273381002308042,-0.0011453853469733804,-8.638519937538939e-05,-5.565423569727411e-05,0.00033190099993250663,0.00023040003861793,-0.00010136240189723536,-0.00013100473029104532,0.0,0.0,0.0,0.0,0.0,0.0,0.0,-7.033348083507196e-05,-0.0002969846468653392,-6.271915238914572e-05,-7.924214501398019e-05,8.996105722441916e-06,-0.00012951796528470894,-1.059467041097939e-05,0.0011453853469733804,8.638519937538939e-05,5.565423569727411e-05,-0.00033190099993250663,-0.00023040003861793,0.00010136240189723536,0.00013100473029104532,0.7838374972343445,46.52419662475586,5.687466144561768,-19.459871292114258,-0.7610984444618225,-2.3660311698913574,0.19351522624492645,0
2,0.0050449371337890625,-0.7838374972343445,-46.52419662475586,-5.687466144561768,19.459871292114258,0.7610984444618225,2.3660311698913574,-0.19351522624492645,0.0,0.0,0.0,0.0,0.0,0.0,0.0,-0.8089764382010698,-0.19218484183007375,-0.5037088365300116,0.26916813248903915,0.18431809617544376,0.1005343045028552,-0.18868460592762584,0.878163209551259,0.7557567340778062,-0.2824925460169316,-1.6690201193156995,0.14140959941150816,2.403574635332923,1.0273486949012152,0.878092876070424,0.7554597494309409,-0.2825552651693207,-1.6690993614607135,0.1414185955172306,2.4034451173676383,1.0273381002308042,-0.0011453853469733804,-8.638519937538939e-05,-5.565423569727411e-05,0.00033190099993250663,0.00023040003861793,-0.00010136240189723536,-0.00013100473029104532,0.0,0.0,0.0,0.0,0.0,0.0,0.0,-7.033348083507196e-05,-0.0002969846468653392,-6.271915238914572e-05,-7.924214501398019e-05,8.996105722441916e-06,-0.00012951796528470894,-1.059467041097939e-05,0.0011453853469733804,8.638519937538939e-05,5.565423569727411e-05,-0.00033190099993250663,-0.00023040003861793,0.00010136240189723536,0.00013100473029104532,0.7838374972343445,46.52419662475586,5.687466144561768,-19.459871292114258,-0.7610984444618225,-2.3660311698913574,0.19351522624492645,0
3,0.010046005249023438,-0.8076412081718445,-46.52419662475586,-5.687466144561768,19.459871292114258,0.7849021553993225,2.3660311698913574,-0.16604940593242645,0.0,0.0,0.0,0.0,0.0,0.0,0.0,-0.8059581836652001,-0.18800874286463656,-0.5022915475461439,0.2692179025392954,0.18390977837640574,0.10016294570073211,-0.19009543836072945,0.8781648799871143,0.7557560320358421,-0.2824925989985833,-1.6690201193156995,0.14140658133904138,2.403572550152319,1.0273445569652706,0.878092876070424,0.7554597494309409,-0.2825552651693207,-1.6690993614607135,0.1414185955172306,2.4034451173676383,1.0273381002308042,-0.0002968659737712096,0.0004880988673388129,1.3010726931379204e-05,0.0008124351135193096,-0.0006545328486065719,-2.1768767406224988e-05,-0.0008076436090602638,0.0,0.0,0.0,0.0,0.0,0.0,0.0,-7.200391669037742e-05,-0.00029628260490122127,-6.266617073741321e-05,-7.924214501398019e-05,1.2014178189218017e-05,-0.00012743278468052566,-6.456734466420144e-06,0.0002968659737712096,-0.0004880988673388129,-1.3010726931379204e-05,-0.0008124351135193096,0.0006545328486065719,2.1768767406224988e-05,0.0008076436090602638,0.8076412081718445,46.52419662475586,5.687466144561768,-19.459871292114258,-0.7849021553993225,-2.3660311698913574,0.16604940593242645,0
4,0.015042781829833984,-0.8076412081718445,-46.52419662475586,-5.687466144561768,19.459871292114258,0.7849021553993225,2.3660311698913574,-0.16604940593242645,0.0,0.0,0.0,0.0,0.0,0.0,0.0,-0.8059581836652001,-0.18800874286463656,-0.5022915475461439,0.2692179025392954,0.18390977837640574,0.10016294570073211,-0.19009543836072945,0.8781648799871143,0.7557560320358421,-0.2824925989985833,-1.6690201193156995,0.14140658133904138,2.403572550152319,1.0273445569652706,0.878092876070424,0.7554597494309409,-0.2825552651693207,-1.6690993614607135,0.1414185955172306,2.4034451173676383,1.0273381002308042,-0.0002968659737712096,0.0004880988673388129,1.3010726931379204e-05,0.0008124351135193096,-0.0006545328486065719,-2.1768767406224988e-05,-0.0008076436090602638,0.0,0.0,0.0,0.0,0.0,0.0,0.0,-7.200391669037742e-05,-0.00029628260490122127,-6.266617073741321e-05,-7.924214501398019e-05,1.2014178189218017e-05,-0.00012743278468052566,-6.456734466420144e-06,0.0002968659737712096,-0.0004880988673388129,-1.3010726931379204e-05,-0.0008124351135193096,0.0006545328486065719,2.1768767406224988e-05,0.0008076436090602638,0.8076412081718445,46.52419662475586,5.687466144561768,-19.459871292114258,-0.7849021553993225,-2.3660311698913574,0.16604940593242645,0
5,0.02004551887512207,-0.7560665011405945,-46.50039291381836,-5.663662433624268,19.436067581176758,0.7665916085243225,2.3660311698913574,-0.19351522624492645,0.0,0.0,0.0,0.0,0.0,0.0,0.0,-0.7883720369840737,-0.18768724055749572,-0.4902715259036824,0.27243978634014293,0.1835905974507975,0.0998234230513698,-0.19042609905621835,0.8781612607094279,0.7557545957064414,-0.28249418116789893,-1.6690184488798443,0.14140861665219434,2.4035725117022193,1.0273476087169515,0.878092876070424,0.7554597494309409,-0.2825552651693207,-1.6690993614607135,0.1414185955172306,2.4034451173676383,1.0273381002308042,-0.0006084658607102034,-0.000247816891470409,-0.00012686709344013328,0.0010583054451422408,4.995361260123179e-05,6.945880982543047e-06,-6.620609903751783e-05,0.0,0.0,0.0,0.0,0.0,0.0,0.0,-6.838463900393776e-05,-0.00029484627550058207,-6.108400142179615e-05,-8.091258086917463e-05,9.978865036258666e-06,-0.00012739433458097693,-9.508486147336015e-06,0.0006084658607102034,0.000247816891470409,0.00012686709344013328,-0.0010583054451422408,-4.995361260123179e-05,-6.945880982543047e-06,6.620609903751783e-05,0.7560665011405945,46.50039291381836,5.663662433624268,-19.436067581176758,-0.7665916085243225,-2.3660311698913574,0.19351522624492645,0
6,0.02505326271057129,-0.7560665011405945,-46.50039291381836,-5.663662433624268,19.436067581176758,0.7665916085243225,2.3660311698913574,-0.19351522624492645,0.0,0.0,0.0,0.0,0.0,0.0,0.0,-0.7883720369840737,-0.18768724055749572,-0.4902715259036824,0.27243978634014293,0.1835905974507975,0.0998234230513698,-0.19042609905621835,0.8781612607094279,0.7557545957064414,-0.28249418116789893,-1.6690184488798443,0.14140861665219434,2.4035725117022193,1.0273476087169515,0.878092876070424,0.7554597494309409,-0.2825552651693207,-1.6690993614607135,0.1414185955172306,2.4034451173676383,1.0273381002308042,-0.0006084658607102034,-0.000247816891470409,-0.00012686709344013328,0.0010583054451422408,4.995361260123179e-05,6.945880982543047e-06,-6.620609903751783e-05,0.0,0.0,0.0,0.0,0.0,0.0,0.0,-6.838463900393776e-05,-0.00029484627550058207,-6.108400142179615e-05,-8.091258086917463e-05,9.978865036258666e-06,-0.00012739433458097693,-9.508486147336015e-06,0.0006084658607102034,0.000247816891470409,0.00012686709344013328,-0.0010583054451422408,-4.995361260123179e-05,-6.945880982543047e-06,6.620609903751783e-05,0.7560665011405945,46.50039291381836,5.663662433624268,-19.436067581176758,-0.7665916085243225,-2.3660311698913574,0.19351522624492645,0
7,0.030009746551513672,-0.8076412081718445,-46.54800033569336,-5.663662433624268,19.487642288208008,0.7665916085243225,2.3660311698913574,-0.13858358561992645,0.0,0.0,0.0,0.0,0.0,0.0,0.0,-0.8010847477157385,-0.188435703341192,-0.50092054471006,0.27082244162453056,0.18381424037998784,0.0996980780671793,-0.19013800668682476,0.8781648799871143,0.7557598086055627,-0.28249441954965765,-1.6690220681575307,0.14140550648716874,2.4035714554501677,1.0273415052013264,0.878092876070424,0.7554597494309409,-0.2825552651693207,-1.6690993614607135,0.1414185955172306,2.4034451173676383,1.0273381002308042,0.00027232773250293965,0.0005614028682031132,-0.000248022991480673,-0.0007327962553374982,0.00010088132640624494,-0.00011936601408648887,-0.002070474486049064,0.0,0.0,0.0,0.0,0.0,0.0,0.0,-7.200391669037742e-05,-0.0003000591746218362,-6.084561966307467e-05,-7.729330318273497e-05,1.3089030061863571e-05,-0.00012633808252937584,-3.404970522202788e-06,-0.00027232773250293965,-0.0005614028682031132,0.000248022991480673,0.0007327962553374982,-0.00010088132640624494,0.00011936601408648887,0.002070474486049064,0.8076412081718445,46.54800033569336,5.663662433624268,-19.487642288208008,-0.7665916085243225,-2.3660311698913574,0.13858358561992645,0
8,0.03504657745361328,-0.8076412081718445,-46.54800033569336,-5.663662433624268,19.487642288208008,0.7665916085243225,2.3660311698913574,-0.13858358561992645,0.0,0.0,0.0,0.0,0.0,0.0,0.0,-0.8010847477157385,-0.188435703341192,-0.50092054471006,0.27082244162453056,0.18381424037998784,0.0996980780671793,-0.19013800668682476,0.8781648799871143,0.7557598086055627,-0.28249441954965765,-1.6690220681575307,0.14140550648716874,2.4035714554501677,1.0273415052013264,0.878092876070424,0.7554597494309409,-0.2825552651693207,-1.6690993614607135,0.1414185955172306,2.4034451173676383,1.0273381002308042,0.00027232773250293965,0.0005614028682031132,-0.000248022991480673,-0.0007327962553374982,0.00010088132640624494,-0.00011936601408648887,-0.002070474486049064,0.0,0.0,0.0,0.0,0.0,0.0,0.0,-7.200391669037742e-05,-0.0003000591746218362,-6.084561966307467e-05,-7.729330318273497e-05,1.3089030061863571e-05,-0.00012633808252937584,-3.404970522202788e-06,-0.00027232773250293965,-0.0005614028682031132,0.000248022991480673,0.0007327962553374982,-0.00010088132640624494,0.00011936601408648887,0.002070474486049064,0.8076412081718445,46.54800033569336,5.663662433624268,-19.487642288208008,-0.7665916085243225,-2.3660311698913574,0.13858358561992645,0
9,0.04005074501037598,-0.8592159152030945,-46.50039291381836,-5.663662433624268,19.459871292114258,0.7849021553993225,2.3596224784851074,-0.20724813640117645,0.0,0.0,0.0,0.0,0.0,0.0,0.0,-0.8251966129213855,-0.18861527788658333,-0.5162936434145665,0.26532744458796803,0.18425086370093427,0.09929041473933246,-0.18944114900546083,0.8781684992648008,0.7557543702632574,-0.2824971514247005,-1.6690201193156995,0.1414080028209991,2.4035732354550734,1.0273491345958576,0.878092876070424,0.7554597494309409,-0.2825552651693207,-1.6690993614607135,0.1414185955172306,2.4034451173676383,1.0273381002308042,0.0003822966863419446,-0.0008285896238201444,-0.000491767092225668,0.0003347083437409837,-0.0006252693490754064,0.0004296877488753801,0.0009623441884926211,0.0,0.0,0.0,0.0,0.0,0.0,0.0,-7.562319437681708e-05,-0.0002946208323165722,-5.8113744620225116e-05,-7.924214501398019e-05,1.0592696231492837e-05,-0.00012811808743506958,-1.1034365053452788e-05,-0.0003822966863419446,0.0008285896238201444,0.000491767092225668,-0.0003347083437409837,0.0006252693490754064,-0.0004296877488753801,-0.0009623441884926211,0.8592159152030945,46.50039291381836,5.663662433624268,-19.459871292114258,-0.7849021553993225,-2.3596224784851074,0.20724813640117645,0
10,0.04504656791687012,-0.8592159152030945,-46.50039291381836,-5.663662433624268,19.459871292114258,0.7849021553993225,2.3596224784851074,-0.20724813640117645,0.0,0.0,0.0,0.0,0.0,0.0,0.0,-0.8251966129213855,-0.18861527788658333,-0.5162936434145665,0.26532744458796803,0.18425086370093427,0.09929041473933246,-0.18944114900546083,0.8781684992648008,0.7557543702632574,-0.2824971514247005,-1.6690201193156995,0.1414080028209991,2.4035732354550734,1.0273491345958576,0.878092876070424,0.7554597494309409,-0.2825552651693207,-1.6690993614607135,0.1414185955172306,2.4034451173676383,1.0273381002308042,0.0003822966863419446,-0.0008285896238201444,-0.000491767092225668,0.0003347083437409837,-0.0006252693490754064,0.0004296877488753801,0.0009623441884926211,0.0,0.0,0.0,0.0,0.0,0.0,0.0,-7.562319437681708e-05,-0.0002946208323165722,-5.8113744620225116e-05,-7.924214501398019e-05,1.0592696231492837e-05,-0.00012811808743506958,-1.1034365053452788e-05,-0.0003822966863419446,0.0008285896238201444,0.000491767092225668,-0.0003347083437409837,0.0006252693490754064,-0.0004296877488753801,-0.0009623441884926211,0.8592159152030945,46.50039291381836,5.663662433624268,-19.459871292114258,-0.7849021553993225,-2.3596224784851074,0.20724813640117645,0
11,0.05004477500915527,-0.8354122042655945,-46.47658920288086,-5.687466144561768,19.459871292114258,0.7665916085243225,2.3458895683288574,-0.16604940593242645,0.0,0.0,0.0,0.0,0.0,0.0,0.0,-0.8051691831274082,-0.19481681238933135,-0.5028659410165927,0.269617800761836,0.18391903960230513,0.10005165947755228,-0.18987568051150255,0.8781668288289455,0.7557526914812097,-0.28249251071197384,-1.6690201193156995,0.14140648946513934,2.4035736900196683,1.027344556959139,0.878092876070424,0.7554597494309409,-0.2825552651693207,-1.6690993614607135,0.1414185955172306,2.4034451173676383,1.0273381002308042,0.0001673202473138891,-0.0015106349413296402,-0.00025234635701903974,0.0006941253451154822,-0.00010280617620347423,0.0006285991133029638,-0.0009746274491658555,0.0,0.0,0.0,0.0,0.0,0.0,0.0,-7.395275852151162e-05,-0.0002929420502688629,-6.275445734688079e-05,-7.924214501398019e-05,1.21060520912597e-05,-0.00012857265202992352,-6.456728334880424e-06,-0.0001673202473138891,0.0015106349413296402,0.00025234635701903974,-0.0006941253451154822,0.00010280617620347423,-0.0006285991133029638,0.0009746274491658555,0.8354122042655945,46.47658920288086,5.687466144561768,-19.459871292114258,-0.7665916085243225,-2.3458895683288574,0.16604940593242645,0
12,0.055046796798706055,-0.8354122042655945,-46.47658920288086,-5.687466144561768,19.459871292114258,0.7665916085243225,2.3458895683288574,-0.16604940593242645,0.0,0.0,0.0,0.0,0.0,0.0,0.0,-0.8051691831274082,-0.19481681238933135,-0.5028659410165927,0.269617800761836,0.18391903960230513,0.10005165947755228,-0.18987568051150255,0.8781668288289455,0.7557526914812097,-0.28249251071197384,-1.6690201193156995,0.14140648946513934,2.4035736900196683,1.027344556959139,0.878092876070424,0.7554597494309409,-0.2825552651693207,-1.6690993614607135,0.1414185955172306,2.4034451173676383,1.0273381002308042,0.0001673202473138891,-0.0015106349413296402,-0.00025234635701903974,0.0006941253451154822,-0.00010280617620347423,0.0006285991133029638,-0.0009746274491658555,0.0,0.0,0.0,0.0,0.0,0.0,0.0,-7.395275852151162e-05,-0.0002929420502688629,-6.275445734688079e-05,-7.924214501398019e-05,1.21060520912597e-05,-0.00012857265202992352,-6.456728334880424e-06,-0.0001673202473138891,0.0015106349413296402,0.00025234635701903974,-0.0006941253451154822,0.00010280617620347423,-0.0006285991133029638,0.0009746274491658555,0.8354122042655945,46.47658920288086,5.687466144561768,-19.459871292114258,-0.7665916085243225,-2.3458895683288574,0.16604940593242645,0
13,0.06004762649536133,-0.8354122042655945,-46.52419662475586,-5.687466144561768,19.487642288208008,0.7730002999305725,2.3596224784851074,-0.19351522624492645,0.0,0.0,0.0,0.0,0.0,0.0,0.0,-0.8114981365063951,-0.18247002291133074,-0.508910889729252,0.2628544605104992,0.18306197528175555,0.09831342491017166,-0.1897557575414412,0.8781668288289455,0.7557583720660832,-0.28249251080422283,-1.6690220681575307,0.14140904976008922,2.4035732271644608,1.0273476087169515,0.878092876070424,0.7554597494309409,-0.2825552651693207,-1.6690993614607135,0.1414185955172306,2.4034451173676383,1.0273381002308042,0.000419515853365174,0.00011034512140986708,-0.0007960931729277691,0.006751647164495987,-0.0001696143183589531,0.00032734862961141675,0.00023547838875366694,0.0,0.0,0.0,0.0,0.0,0.0,0.0,-7.395275852151162e-05,-0.00029862263514235377,-6.275436509789456e-05,-7.729330318273497e-05,9.545757141377065e-06,-0.00012810979682242873,-9.508486147336015e-06,-0.000419515853365174,-0.00011034512140986708,0.0007960931729277691,-0.006751647164495987,0.0001696143183589531,-0.00032734862961141675,-0.00023547838875366694,0.8354122042655945,46.52419662475586,5.687466144561768,-19.487642288208008,-0.7730002999305725,-2.3596224784851074,0.19351522624492645,0
14,0.06503820419311523,-0.8354122042655945,-46.52419662475586,-5.687466144561768,19.487642288208008,0.7730002999305725,2.3596224784851074,-0.19351522624492645,0.0,0.0,0.0,0.0,0.0,0.0,0.0,-0.8114981365063951,-0.18247002291133074,-0.508910889729252,0.2628544605104992,0.18306197528175555,0.09831342491017166,-0.1897557575414412,0.8781668288289455,0.7557583720660832,-0.28249251080422283,-1.6690220681575307,0.14140904976008922,2.4035732271644608,1.0273476087169515,0.878092876070424,0.7554597494309409,-0.2825552651693207,-1.6690993614607135,0.1414185955172306,2.4034451173676383,1.0273381002308042,0.000419515853365174,0.00011034512140986708,-0.0007960931729277691,0.006751647164495987,-0.0001696143183589531,0.00032734862961141675,0.00023547838875366694,0.0,0.0,0.0,0.0,0.0,0.0,0.0,-7.395275852151162e-05,-0.00029862263514235377,-6.275436509789456e-05,-7.729330318273497e-05,9.545757141377065e-06,-0.00012810979682242873,-9.508486147336015e-06,-0.000419515853365174,-0.00011034512140986708,0.0007960931729277691,-0.006751647164495987,0.0001696143183589531,-0.00032734862961141675,-0.00023547838875366694,0.8354122042655945,46.52419662475586,5.687466144561768,-19.487642288208008,-0.7730002999305725,-2.3596224784851074,0.19351522624492645,0
15,0.07090187072753906,-0.8354122042655945,-46.50039291381836,-5.687466144561768,19.487642288208008,0.7610984444618225,2.3596224784851074,-0.21457235515117645,0.0,0.0,0.0,0.0,0.0,0.0,0.0,-0.8053570950946269,-0.1493541786122198,-0.5021429505861702,0.23720029329416184,0.18235564805932739,0.09394955956677169,-0.18946741515970733,0.8781668288289455,0.7557543616092333,-0.28249346447853974,-1.6690220681575307,0.1414074336643465,2.4035764448461894,1.0273499483979411,0.878092876070424,0.7554597494309409,-0.2825552651693207,-1.6690993614607135,0.1414185955172306,2.4034451173676383,1.0273381002308042,0.0009862606816709361,-0.0006410758322965145,8.393309581465186e-05,-0.0001381675606595635,0.00019193881216624252,0.00024278460885096144,0.0012954228179142934,0.0,0.0,0.0,0.0,0.0,0.0,0.0,-7.395275852151162e-05,-0.00029461217829240827,-6.180069078098871e-05,-7.729330318273497e-05,1.1161852884106205e-05,-0.00013132747855104654,-1.1848167136951915e-05,-0.0009862606816709361,0.0006410758322965145,-8.393309581465186e-05,0.0001381675606595635,-0.00019193881216624252,-0.00024278460885096144,-0.0012954228179142934,0.8354122042655945,46.50039291381836,5.687466144561768,-19.487642288208008,-0.7610984444618225,-2.3596224784851074,0.21457235515117645,0
16,0.0750589370727539,-0.8354122042655945,-46.50039291381836,-5.687466144561768,19.487642288208008,0.7610984444618225,2.3596224784851074,-0.21457235515117645,0.0,0.0,0.0,0.0,0.0,0.0,0.0,-0.8053570950946269,-0.1493541786122198,-0.5021429505861702,0.23720029329416184,0.18235564805932739,0.09394955956677169,-0.18946741515970733,0.8781668288289455,0.7557543616092333,-0.28249346447853974,-1.6690220681575307,0.1414074336643465,2.4035764448461894,1.0273499483979411,0.878092876070424,0.7554597494309409,-0.2825552651693207,-1.6690993614607135,0.1414185955172306,2.4034451173676383,1.0273381002308042,0.0009862606816709361,-0.0006410758322965145,8.393309581465186e-05,-0.0001381675606595635,0.00019193881216624252,0.00024278460885096144,0.0012954228179142934,0.0,0.0,0.0,0.0,0.0,0.0,0.0,-7.395275852151162e-05,-0.00029461217829240827,-6.180069078098871e-05,-7.729330318273497e-05,1.1161852884106205e-05,-0.00013132747855104654,-1.1848167136951915e-05,-0.0009862606816709361,0.0006410758322965145,-8.393309581465186e-05,0.0001381675606595635,-0.00019193881216624252,-0.00024278460885096144,-0.0012954228179142934,0.8354122042655945,46.50039291381836,5.687466144561768,-19.487642288208008,-0.7610984444618225,-2.3596224784851074,0.21457235515117645,0
17,0.08004903793334961,-0.7838374972343445,-46.50039291381836,-5.635891437530518,19.436067581176758,0.7665916085243225,2.3660311698913574,-0.18710653483867645,0.0,0.0,0.0,0.0,0.0,0.0,0.0,-0.8085290727992549,-0.18641697531338206,-0.5097705131315862,0.2687630759563641,0.18269892298939744,0.09927477238468276,-0.18843964217707881,0.878163209551259,0.755754396298863,-0.282496129978277,-1.6690184488798443,0.14140909338434912,2.403571450682341,1.027347982769211,0.878092876070424,0.7554597494309409,-0.2825552651693207,-1.6690993614607135,0.1414185955172306,2.4034451173676383,1.0273381002308042,-0.0003003863619833277,-3.763669174534953e-05,-0.0009067899443990718,0.00042300502392527263,5.676913411233447e-05,7.121118395666789e-06,0.00047373208408891436,0.0,0.0,0.0,0.0,0.0,0.0,0.0,-7.033348083507196e-05,-0.00029464686792213257,-5.913519104372433e-05,-8.091258086917463e-05,9.502132881478165e-06,-0.00012633331470279785,-9.882538406724706e-06,0.0003003863619833277,3.763669174534953e-05,0.0009067899443990718,-0.00042300502392527263,-5.676913411233447e-05,-7.121118395666789e-06,-0.00047373208408891436,0.7838374972343445,46.50039291381836,5.635891437530518,-19.436067581176758,-0.7665916085243225,-2.3660311698913574,0.18710653483867645,0
18,0.08504271507263184,-0.7838374972343445,-46.50039291381836,-5.635891437530518,19.436067581176758,0.7665916085243225,2.3660311698913574,-0.18710653483867645,0.0,0.0,0.0,0.0,0.0,0.0,0.0,-0.8085290727992549,-0.18641697531338206,-0.5097705131315862,0.2687630759563641,0.18269892298939744,0.09927477238468276,-0.18843964217707881,0.878163209551259,0.755754396298863,-0.282496129978277,-1.6690184488798443,0.14140909338434912,2.403571450682341,1.027347982769211,0.878092876070424,0.7554597494309409,-0.2825552651693207,-1.6690993614607135,0.1414185955172306,2.4034451173676383,1.0273381002308042,-0.0003003863619833277,-3.763669174534953e-05,-0.0009067899443990718,0.00042300502392527263,5.676913411233447e-05,7.121118395666789e-06,0.00047373208408891436,0.0,0.0,0.0,0.0,0.0,0.0,0.0,-7.033348083507196e-05,-0.00029464686792213257,-5.913519104372433e-05,-8.091258086917463e-05,9.502132881478165e-06,-0.00012633331470279785,-9.882538406724706e-06,0.0003003863619833277,3.763669174534953e-05,0.0009067899443990718,-0.00042300502392527263,-5.676913411233447e-05,-7.121118395666789e-06,-0.00047373208408891436,0.7838374972343445,46.50039291381836,5.635891437530518,-19.436067581176758,-0.7665916085243225,-2.3660311698913574,0.18710653483867645,0
19,0.09005284309387207,-0.7838374972343445,-46.50039291381836,-5.635891437530518,19.436067581176758,0.7665916085243225,2.3660311698913574,-0.18710653483867645,0.0,0.0,0.0,0.0,0.0,0.0,0.0,-0.8085290727992549,-0.18641697531338206,-0.5097705131315862,0.2687630759563641,0.18269892298939744,0.09927477238468276,-0.18843964217707881,0.878163209551259,0.755754396298863,-0.282496129978277,-1.6690184488798443,0.14140909338434912,2.403571450682341,1.027347982769211,0.878092876070424,0.7554597494309409,-0.2825552651693207,-1.6690993614607135,0.1414185955172306,2.4034451173676383,1.0273381002308042,-0.0003003863619833277,-3.763669174534953e-05,-0.0009067899443990718,0.00042300502392527263,5.676913411233447e-05,7.121118395666789e-06,0.00047373208408891436,0.0,0.0,0.0,0.0,0.0,0.0,0.0,-7.033348083507196e-05,-0.00029464686792213257,-5.913519104372433e-05,-8.091258086917463e-05,9.502132881478165e-06,-0.00012633331470279785,-9.882538406724706e-06,0.0003003863619833277,3.763669174534953e-05,0.0009067899443990718,-0.00042300502392527263,-5.676913411233447e-05,-7.121118395666789e-06,-0.00047373208408891436,0.7838374972343445,46.50039291381836,5.635891437530518,-19.436067581176758,-0.7665916085243225,-2.3660311698913574,0.18710653483867645,0
20,0.09530329704284668,-0.7838374972343445,-46.50039291381836,-5.635891437530518,19.436067581176758,0.7665916085243225,2.3660311698913574,-0.18710653483867645,0.0,0.0,0.0,0.0,0.0,0.0,0.0,-0.8085290727992549,-0.18641697531338206,-0.5097705131315862,0.2687630759563641,0.18269892298939744,0.09927477238468276,-0.18843964217707881,0.878163209551259,0.755754396298863,-0.282496129978277,-1.6690184488798443,0.14140909338434912,2.403571450682341,1.027347982769211,0.878092876070424,0.7554597494309409,-0.2825552651693207,-1.6690993614607135,0.1414185955172306,2.4034451173676383,1.0273381002308042,-0.0003003863619833277,-3.763669174534953e-05,-0.0009067899443990718,0.00042300502392527263,5.676913411233447e-05,7.121118395666789e-06,0.00047373208408891436,0.0,0.0,0.0,0.0,0.0,0.0,0.0,-7.033348083507196e-05,-0.00029464686792213257,-5.913519104372433e-05,-8.091258086917463e-05,9.502132881478165e-06,-0.00012633331470279785,-9.882538406724706e-06,0.0003003863619833277,3.763669174534953e-05,0.0009067899443990718,-0.00042300502392527263,-5.676913411233447e-05,-7.121118395666789e-06,-0.00047373208408891436,0.7838374972343445,46.50039291381836,5.635891437530518,-19.436067581176758,-0.7665916085243225,-2.3660311698913574,0.18710653483867645,0
21,0.0999913215637207,-0.8354122042655945,-46.52419662475586,-5.687466144561768,19.436067581176758,0.7665916085243225,2.3596224784851074,-0.20083944499492645,0.0,0.0,0.0,0.0,0.0,0.0,0.0,-0.8203088614182334,-0.21153752380751994,-0.5199106554644887,0.2809405575522849,0.18327122840633217,0.10180062874026143,-0.18675670736754219,0.8781668288289455,0.7557560320324667,-0.28249322605996013,-1.6690184488798443,0.1414054443192869,2.403573616231403,1.0273484227029717,0.878092876070424,0.7554597494309409,-0.2825552651693207,-1.6690993614607135,0.1414185955172306,2.4034451173676383,1.0273381002308042,0.0005935412023895659,3.371843031715179e-05,0.00017172707219192176,0.0007685057413071194,3.487393378800145e-05,0.00012686445890855612,0.0009571841441922664,0.0,0.0,0.0,0.0,0.0,0.0,0.0,-7.395275852151162e-05,-0.0002962826015258102,-6.203910936058987e-05,-8.091258086917463e-05,1.3151197943706006e-05,-0.0001284988637646478,-1.0322472167478836e-05,-0.0005935412023895659,-3.371843031715179e-05,-0.00017172707219192176,-0.0007685057413071194,-3.487393378800145e-05,-0.00012686445890855612,-0.0009571841441922664,0.8354122042655945,46.52419662475586,5.687466144561768,-19.436067581176758,-0.7665916085243225,-2.3596224784851074,0.20083944499492645,0
22,0.10504865646362305,-0.8354122042655945,-46.52419662475586,-5.687466144561768,19.436067581176758,0.7665916085243225,2.3596224784851074,-0.20083944499492645,0.0,0.0,0.0,0.0,0.0,0.0,0.0,-0.8203088614182334,-0.21153752380751994,-0.5199106554644887,0.2809405575522849,0.18327122840633217,0.10180062874026143,-0.18675670736754219,0.8781668288289455,0.7557560320324667,-0.28249322605996013,-1.6690184488798443,0.1414054443192869,2.403573616231403,1.0273484227029717,0.878092876070424,0.7554597494309409,-0.2825552651693207,-1.6690993614607135,0.1414185955172306,2.4034451173676383,1.0273381002308042,0.0005935412023895659,3.371843031715179e-05,0.00017172707219192176,0.0007685057413071194,3.487393378800145e-05,0.00012686445890855612,0.0009571841441922664,0.0,0.0,0.0,0.0,0.0,0.0,0.0,-7.395275852151162e-05,-0.0002962826015258102,-6.203910936058987e-05,-8.091258086917463e-05,1.3151197943706006e-05,-0.0001284988637646478,-1.0322472167478836e-05,-0.0005935412023895659,-3.371843031715179e-05,-0.00017172707219192176,-0.0007685057413071194,-3.487393378800145e-05,-0.00012686445890855612,-0.0009571841441922664,0.8354122042655945,46.52419662475586,5.687466144561768,-19.436067581176758,-0.7665916085243225,-2.3596224784851074,0.20083944499492645,0
23,0.1100468635559082,-0.8076412081718445,-46.54800033569336,-5.711269855499268,19.487642288208008,0.7730002999305725,2.3596224784851074,-0.19351522624492645,0.0,0.0,0.0,0.0,0.0,0.0,0.0,-0.8153649601715238,-0.19638663264516593,-0.5128363926736774,0.2707094883417473,0.182892564889839,0.10046285426033429,-0.18569772873897283,0.8781648799871143,0.7557577053566653,-0.28249084331584495,-1.6690220681575307,0.1414057552749862,2.403575381011111,1.0273477293979618,0.878092876070424,0.7554597494309409,-0.2825552651693207,-1.6690993614607135,0.1414185955172306,2.4034451173676383,1.0273381002308042,-0.00041101498162243147,0.0009025253242691993,0.0007689561085851483,-0.0008340436549196584,-0.00021335613627475864,0.0004039345754066005,-3.2463844339403676e-06,0.0,0.0,0.0,0.0,0.0,0.0,0.0,-7.200391669037742e-05,-0.00029795592572445795,-6.442185347577123e-05,-7.729330318273497e-05,1.2840242244405164e-05,-0.0001302636434727944,-9.629167157632068e-06,0.00041101498162243147,-0.0009025253242691993,-0.0007689561085851483,0.0008340436549196584,0.00021335613627475864,-0.0004039345754066005,3.2463844339403676e-06,0.8076412081718445,46.54800033569336,5.711269855499268,-19.487642288208008,-0.7730002999305725,-2.3596224784851074,0.19351522624492645,0
24,0.11499691009521484,-0.8076412081718445,-46.54800033569336,-5.711269855499268,19.487642288208008,0.7730002999305725,2.3596224784851074,-0.19351522624492645,0.0,0.0,0.0,0.0,0.0,0.0,0.0,-0.8153649601715238,-0.19638663264516593,-0.5128363926736774,0.2707094883417473,0.182892564889839,0.10046285426033429,-0.18569772873897283,0.8781648799871143,0.7557577053566653,-0.28249084331584495,-1.6690220681575307,0.1414057552749862,2.403575381011111,1.0273477293979618,0.878092876070424,0.7554597494309409,-0.2825552651693207,-1.6690993614607135,0.1414185955172306,2.4034451173676383,1.0273381002308042,-0.00041101498162243147,0.0009025253242691993,0.0007689561085851483,-0.0008340436549196584,-0.00021335613627475864,0.0004039345754066005,-3.2463844339403676e-06,0.0,0.0,0.0,0.0,0.0,0.0,0.0,-7.200391669037742e-05,-0.00029795592572445795,-6.442185347577123e-05,-7.729330318273497e-05,1.2840242244405164e-05,-0.0001302636434727944,-9.629167157632068e-06,0.00041101498162243147,-0.0009025253242691993,-0.0007689561085851483,0.0008340436549196584,0.00021335613627475864,-0.0004039345754066005,3.2463844339403676e-06,0.8076412081718445,46.54800033569336,5.711269855499268,-19.487642288208008,-0.7730002999305725,-2.3596224784851074,0.19351522624492645,0
25,0.1200418472290039,-0.8076412081718445,-46.54800033569336,-5.711269855499268,19.487642288208008,0.7610984444618225,2.3522982597351074,-0.21457235515117645,0.0,0.0,0.0,0.0,0.0,0.0,0.0,-0.808408613491173,-0.1994943339451973,-0.5084533429957394,0.2702354248292462,0.18243340099376718,0.10123763713896149,-0.18652415657300445,0.8781648799871143,0.7557598084985218,-0.28249084040471195,-1.6690220681700922,0.14140600310884247,2.4035744087746393,1.0273499483981683,0.878092876070424,0.7554597494309409,-0.2825552651693207,-1.6690993614607135,0.1414185955172306,2.4034451173676383,1.0273381002308042,-0.00024380383437123387,0.0003135876410149861,0.0006174243005017223,-0.0005962218219670859,0.00013439047465245798,0.0005838421661503833,0.0007659922739164488,0.0,0.0,0.0,0.0,0.0,0.0,0.0,-7.200391669037742e-05,-0.0003000590675809045,-6.442476460877256e-05,-7.729329062122758e-05,1.259240838813458e-05,-0.00012929140700101982,-1.1848167364103546e-05,0.00024380383437123387,-0.0003135876410149861,-0.0006174243005017223,0.0005962218219670859,-0.00013439047465245798,-0.0005838421661503833,-0.0007659922739164488,0.8076412081718445,46.54800033569336,5.711269855499268,-19.487642288208008,-0.7610984444618225,-2.3522982597351074,0.21457235515117645,0
26,0.12505817413330078,-0.8076412081718445,-46.54800033569336,-5.711269855499268,19.487642288208008,0.7610984444618225,2.3522982597351074,-0.21457235515117645,0.0,0.0,0.0,0.0,0.0,0.0,0.0,-0.808408613491173,-0.1994943339451973,-0.5084533429957394,0.2702354248292462,0.18243340099376718,0.10123763713896149,-0.18652415657300445,0.8781648799871143,0.7557598084985218,-0.28249084040471195,-1.6690220681700922,0.14140600310884247,2.4035744087746393,1.0273499483981683,0.878092876070424,0.7554597494309409,-0.2825552651693207,-1.6690993614607135,0.1414185955172306,2.4034451173676383,1.0273381002308042,-0.00024380383437123387,0.0003135876410149861,0.0006174243005017223,-0.0005962218219670859,0.00013439047465245798,0.0005838421661503833,0.0007659922739164488,0.0,0.0,0.0,0.0,0.0,0.0,0.0,-7.200391669037742e-05,-0.0003000590675809045,-6.442476460877256e-05,-7.729329062122758e-05,1.259240838813458e-05,-0.00012929140700101982,-1.1848167364103546e-05,0.00024380383437123387,-0.0003135876410149861,-0.0006174243005017223,0.0005962218219670859,-0.00013439047465245798,-0.0005838421661503833,-0.0007659922739164488,0.8076412081718445,46.54800033569336,5.711269855499268,-19.487642288208008,-0.7610984444618225,-2.3522982597351074,0.21457235515117645,0
27,0.1300520896911621,-0.8592159152030945,-46.57577133178711,-5.663662433624268,19.459871292114258,0.7665916085243225,2.3852572441101074,-0.19351522624492645,0.0,0.0,0.0,0.0,0.0,0.0,0.0,-0.8055017505607548,-0.19365643190878862,-0.5053800996286716,0.2666028192357337,0.1819814255587673,0.10120379599893414,-0.1876659623534149,0.8781684992648008,0.7557596514205257,-0.28249418114317487,-1.6690201193156995,0.14140574188742824,2.403572494906003,1.0273476087169515,0.878092876070424,0.7554597494309409,-0.2825552651693207,-1.6690993614607135,0.1414185955172306,2.4034451173676383,1.0273381002308042,0.0013681639764670135,0.0012754539373809254,-0.00013312177512107398,0.0003350202006027854,0.00011550252890707651,-0.0008714386470786701,0.0003281242024162712,0.0,0.0,0.0,0.0,0.0,0.0,0.0,-7.562319437681708e-05,-0.0002999019895848498,-6.108402614585229e-05,-7.924214501398019e-05,1.285362980235627e-05,-0.00012737753836455923,-9.508486147336015e-06,-0.0013681639764670135,-0.0012754539373809254,0.00013312177512107398,-0.0003350202006027854,-0.00011550252890707651,0.0008714386470786701,-0.0003281242024162712,0.8592159152030945,46.57577133178711,5.663662433624268,-19.459871292114258,-0.7665916085243225,-2.3852572441101074,0.19351522624492645,0
28,0.13504695892333984,-0.8592159152030945,-46.57577133178711,-5.663662433624268,19.459871292114258,0.7665916085243225,2.3852572441101074,-0.19351522624492645,0.0,0.0,0.0,0.0,0.0,0.0,0.0,-0.8055017505607548,-0.19365643190878862,-0.5053800996286716,0.2666028192357337,0.1819814255587673,0.10120379599893414,-0.1876659623534149,0.8781684992648008,0.7557596514205257,-0.28249418114317487,-1.6690201193156995,0.14140574188742824,2.403572494906003,1.0273476087169515,0.878092876070424,0.7554597494309409,-0.2825552651693207,-1.6690993614607135,0.1414185955172306,2.4034451173676383,1.0273381002308042,0.0013681639764670135,0.0012754539373809254,-0.00013312177512107398,0.0003350202006027854,0.00011550252890707651,-0.0008714386470786701,0.0003281242024162712,0.0,0.0,0.0,0.0,0.0,0.0,0.0,-7.562319437681708e-05,-0.0002999019895848498,-6.108402614585229e-05,-7.924214501398019e-05,1.285362980235627e-05,-0.00012737753836455923,-9.508486147336015e-06,-0.0013681639764670135,-0.0012754539373809254,0.00013312177512107398,-0.0003350202006027854,-0.00011550252890707651,0.0008714386470786701,-0.0003281242024162712,0.8592159152030945,46.57577133178711,5.663662433624268,-19.459871292114258,-0.7665916085243225,-2.3852572441101074,0.19351522624492645,0
29,0.1400449275970459,-0.8592159152030945,-46.54800033569336,-5.663662433624268,19.459871292114258,0.7665916085243225,2.3660311698913574,-0.16604940593242645,0.0,0.0,0.0,0.0,0.0,0.0,0.0,-0.8139258655141948,-0.19369828490889088,-0.5079615853105817,0.26468534817866185,0.18243290757576902,0.10141425717435523,-0.1880493471396571,0.8781684992648008,0.7557598117084404,-0.2824944195496409,-1.6690201193156995,0.14140578123991993,2.403571608251736,1.027344556959139,0.878092876070424,0.7554597494309409,-0.2825552651693207,-1.6690993614607135,0.1414185955172306,2.4034451173676383,1.0273381002308042,0.0012170789564119784,0.0008047938364026545,-0.00034816386954939334,-0.00023536670984417471,8.030624533422822e-05,1.865805676071972e-05,-0.001244163777554584,0.0,0.0,0.0,0.0,0.0,0.0,0.0,-7.562319437681708e-05,-0.0003000622774995687,-6.0845619679839036e-05,-7.924214501398019e-05,1.2814277310674305e-05,-0.00012649088409766307,-6.456728334880424e-06,-0.0012170789564119784,-0.0008047938364026545,0.00034816386954939334,0.00023536670984417471,-8.030624533422822e-05,-1.865805676071972e-05,0.001244163777554584,0.8592159152030945,46.54800033569336,5.663662433624268,-19.459871292114258,-0.7665916085243225,-2.3660311698913574,0.16604940593242645,0
30,0.14504313468933105,-0.8592159152030945,-46.54800033569336,-5.663662433624268,19.459871292114258,0.7665916085243225,2.3660311698913574,-0.16604940593242645,0.0,0.0,0.0,0.0,0.0,0.0,0.0,-0.8139258655141948,-0.19369828490889088,-0.5079615853105817,0.26468534817866185,0.18243290757576902,0.10141425717435523,-0.1880493471396571,0.8781684992648008,0.7557598117084404,-0.2824944195496409,-1.6690201193156995,0.14140578123991993,2.403571608251736,1.027344556959139,0.878092876070424,0.7554597494309409,-0.2825552651693207,-1.6690993614607135,0.1414185955172306,2.4034451173676383,1.0273381002308042,0.0012170789564119784,0.0008047938364026545,-0.00034816386954939334,-0.00023536670984417471,8.030624533422822e-05,1.865805676071972e-05,-0.001244163777554584,0.0,0.0,0.0,0.0,0.0,0.0,0.0,-7.562319437681708e-05,-0.0003000622774995687,-6.0845619679839036e-05,-7.924214501398019e-05,1.2814277310674305e-05,-0.00012649088409766307,-6.456728334880424e-06,-0.0012170789564119784,-0.0008047938364026545,0.00034816386954939334,0.00023536670984417471,-8.030624533422822e-05,-1.865805676071972e-05,0.001244163777554584,0.8592159152030945,46.54800033569336,5.663662433624268,-19.459871292114258,-0.7665916085243225,-2.3660311698913574,0.16604940593242645,0
31,0.15003681182861328,-0.8354122042655945,-46.54800033569336,-5.663662433624268,19.459871292114258,0.7730002999305725,2.3724398612976074,-0.20083944499492645,0.0,0.0,0.0,0.0,0.0,0.0,0.0,-0.825629388532435,-0.19673047670950278,-0.5149862294799794,0.2653960347077163,0.18300826691240837,0.10165927689067998,-0.1886704754326045,0.8781668288289455,0.7557598432014099,-0.28249704215804855,-1.6690201193156995,0.14140835068615132,2.4035718378986823,1.0273484225190348,0.878092876070424,0.7554597494309409,-0.2825552651693207,-1.6690993614607135,0.1414185955172306,2.4034451173676383,1.0273381002308042,-0.0001516264878468895,0.0005686749237807851,-0.0004699486425321191,-2.637333336532945e-05,-9.842556933801167e-05,-0.00019242194086835268,0.0006080066518972016,0.0,0.0,0.0,0.0,0.0,0.0,0.0,-7.395275852151162e-05,-0.0003000937704690232,-5.8223011272173775e-05,-7.924214501398019e-05,1.0244831079281314e-05,-0.00012672053104401115,-1.0322288230613097e-05,0.0001516264878468895,-0.0005686749237807851,0.0004699486425321191,2.637333336532945e-05,9.842556933801167e-05,0.00019242194086835268,-0.0006080066518972016,0.8354122042655945,46.54800033569336,5.663662433624268,-19.459871292114258,-0.7730002999305725,-2.3724398612976074,0.20083944499492645,0
32,0.15581822395324707,-0.8354122042655945,-46.54800033569336,-5.663662433624268,19.459871292114258,0.7730002999305725,2.3724398612976074,-0.20083944499492645,0.0,0.0,0.0,0.0,0.0,0.0,0.0,-0.825629388532435,-0.19673047670950278,-0.5149862294799794,0.2653960347077163,0.18300826691240837,0.10165927689067998,-0.1886704754326045,0.8781668288289455,0.7557598432014099,-0.28249704215804855,-1.6690201193156995,0.14140835068615132,2.4035718378986823,1.0273484225190348,0.878092876070424,0.7554597494309409,-0.2825552651693207,-1.6690993614607135,0.1414185955172306,2.4034451173676383,1.0273381002308042,-0.0001516264878468895,0.0005686749237807851,-0.0004699486425321191,-2.637333336532945e-05,-9.842556933801167e-05,-0.00019242194086835268,0.0006080066518972016,0.0,0.0,0.0,0.0,0.0,0.0,0.0,-7.395275852151162e-05,-0.0003000937704690232,-5.8223011272173775e-05,-7.924214501398019e-05,1.0244831079281314e-05,-0.00012672053104401115,-1.0322288230613097e-05,0.0001516264878468895,-0.0005686749237807851,0.0004699486425321191,2.637333336532945e-05,9.842556933801167e-05,0.00019242194086835268,-0.0006080066518972016,0.8354122042655945,46.54800033569336,5.663662433624268,-19.459871292114258,-0.7730002999305725,-2.3724398612976074,0.20083944499492645,0
33,0.16004133224487305,-0.8354122042655945,-46.50039291381836,-5.711269855499268,19.511445999145508,0.7730002999305725,2.3724398612976074,-0.17978231608867645,0.0,0.0,0.0,0.0,0.0,0.0,0.0,-0.8224097817221652,-0.1961063548852519,-0.5104968780531864,0.264839410212909,0.18313259847101263,0.10140463208041997,-0.18919077672356002,0.8781668288289455,0.7557545956034721,-0.2824908402768476,-1.669023738593386,0.14140621022446825,2.4035712535708824,1.0273460828380452,0.878092876070424,0.7554597494309409,-0.2825552651693207,-1.6690993614607135,0.1414185955172306,2.4034451173676383,1.0273381002308042,-6.318226838851251e-05,-0.0005382656287352326,0.0005761165396361601,-0.0011486163282908286,-0.00012615354438300018,-0.00012139188965366277,-0.0007138291070144387,0.0,0.0,0.0,0.0,0.0,0.0,0.0,-7.395275852151162e-05,-0.0002948461725312823,-6.442489247310279e-05,-7.562286732754053e-05,1.238529276234579e-05,-0.00012613620324408714,-7.982607240997197e-06,6.318226838851251e-05,0.0005382656287352326,-0.0005761165396361601,0.0011486163282908286,0.00012615354438300018,0.00012139188965366277,0.0007138291070144387,0.8354122042655945,46.50039291381836,5.711269855499268,-19.511445999145508,-0.7730002999305725,-2.3724398612976074,0.17978231608867645,0
34,0.16511011123657227,-0.8354122042655945,-46.50039291381836,-5.711269855499268,19.511445999145508,0.7730002999305725,2.3724398612976074,-0.17978231608867645,0.0,0.0,0.0,0.0,0.0,0.0,0.0,-0.8224097817221652,-0.1961063548852519,-0.5104968780531864,0.264839410212909,0.18313259847101263,0.10140463208041997,-0.18919077672356002,0.8781668288289455,0.7557545956034721,-0.2824908402768476,-1.669023738593386,0.14140621022446825,2.4035712535708824,1.0273460828380452,0.878092876070424,0.7554597494309409,-0.2825552651693207,-1.6690993614607135,0.1414185955172306,2.4034451173676383,1.0273381002308042,-6.318226838851251e-05,-0.0005382656287352326,0.0005761165396361601,-0.0011486163282908286,-0.00012615354438300018,-0.00012139188965366277,-0.0007138291070144387,0.0,0.0,0.0,0.0,0.0,0.0,0.0,-7.395275852151162e-05,-0.0002948461725312823,-6.442489247310279e-05,-7.562286732754053e-05,1.238529276234579e-05,-0.00012613620324408714,-7.982607240997197e-06,6.318226838851251e-05,0.0005382656287352326,-0.0005761165396361601,0.0011486163282908286,0.00012615354438300018,0.00012139188965366277,0.0007138291070144387,0.8354122042655945,46.50039291381836,5.711269855499268,-19.511445999145508,-0.7730002999305725,-2.3724398612976074,0.17978231608867645,0
35,0.17009305953979492,-0.8076412081718445,-46.52419662475586,-5.687466144561768,19.459871292114258,0.7730002999305725,2.3660311698913574,-0.21457235515117645,0.0,0.0,0.0,0.0,0.0,0.0,0.0,-0.8133174250363926,-0.18157535271729827,-0.5032102307129148,0.256092986784584,0.18263190372983512,0.10038163190095081,-0.1895267041852307,0.8781648799871143,0.7557582160651222,-0.28249251105859413,-1.6690201193156995,0.1414078828024293,2.4035725102453696,1.0273499483979411,0.878092876070424,0.7554597494309409,-0.2825552651693207,-1.6690993614607135,0.1414185955172306,2.4034451173676383,1.0273381002308042,-0.0001519633272500814,0.0001225956759702407,-0.00012543017261004396,-0.0007108696548794893,-0.0001199177122939125,5.546435262416083e-05,0.0008851888268569622,0.0,0.0,0.0,0.0,0.0,0.0,0.0,-7.200391669037742e-05,-0.0002984666341813158,-6.275411072659276e-05,-7.924214501398019e-05,1.071271480129754e-05,-0.00012739287773122498,-1.1848167136951915e-05,0.0001519633272500814,-0.0001225956759702407,0.00012543017261004396,0.0007108696548794893,0.0001199177122939125,-5.546435262416083e-05,-0.0008851888268569622,0.8076412081718445,46.52419662475586,5.687466144561768,-19.459871292114258,-0.7730002999305725,-2.3660311698913574,0.21457235515117645,0
36,0.17506670951843262,-0.8076412081718445,-46.52419662475586,-5.687466144561768,19.459871292114258,0.7730002999305725,2.3660311698913574,-0.21457235515117645,0.0,0.0,0.0,0.0,0.0,0.0,0.0,-0.8133174250363926,-0.18157535271729827,-0.5032102307129148,0.256092986784584,0.18263190372983512,0.10038163190095081,-0.1895267041852307,0.8781648799871143,0.7557582160651222,-0.28249251105859413,-1.6690201193156995,0.1414078828024293,2.4035725102453696,1.0273499483979411,0.878092876070424,0.7554597494309409,-0.2825552651693207,-1.6690993614607135,0.1414185955172306,2.4034451173676383,1.0273381002308042,-0.0001519633272500814,0.0001225956759702407,-0.00012543017261004396,-0.0007108696548794893,-0.0001199177122939125,5.546435262416083e-05,0.0008851888268569622,0.0,0.0,0.0,0.0,0.0,0.0,0.0,-7.200391669037742e-05,-0.0002984666341813158,-6.275411072659276e-05,-7.924214501398019e-05,1.071271480129754e-05,-0.00012739287773122498,-1.1848167136951915e-05,0.0001519633272500814,-0.0001225956759702407,0.00012543017261004396,0.0007108696548794893,0.0001199177122939125,-5.546435262416083e-05,-0.0008851888268569622,0.8076412081718445,46.52419662475586,5.687466144561768,-19.459871292114258,-0.7730002999305725,-2.3660311698913574,0.21457235515117645,0
37,0.1799929141998291,-0.8076412081718445,-46.52419662475586,-5.663662433624268,19.459871292114258,0.7610984444618225,2.3596224784851074,-0.17337362468242645,0.0,0.0,0.0,0.0,0.0,0.0,0.0,-0.8152095755352717,-0.19045150734624527,-0.5086677652931445,0.2596900845664404,0.18335888389152263,0.10092472923529487,-0.19025693799587046,0.8781648799871143,0.7557560435999324,-0.2824941811674025,-1.6690201193156995,0.14140931756738936,2.4035754612771623,1.0273453707612223,0.878092876070424,0.7554597494309409,-0.2825552651693207,-1.6690993614607135,0.1414185955172306,2.4034451173676383,1.0273381002308042,0.0002151960351897517,0.00045856721371259434,-0.00022055766412301707,-0.00023438875646598318,0.0003328242378561495,0.00013850755822028757,-0.0005421309123378292,0.0,0.0,0.0,0.0,0.0,0.0,0.0,-7.200391669037742e-05,-0.00029629416899157324,-6.108400191823238e-05,-7.924214501398019e-05,9.277949841235422e-06,-0.00013034390952393338,-7.270530418157506e-06,-0.0002151960351897517,-0.00045856721371259434,0.00022055766412301707,0.00023438875646598318,-0.0003328242378561495,-0.00013850755822028757,0.0005421309123378292,0.8076412081718445,46.52419662475586,5.663662433624268,-19.459871292114258,-0.7610984444618225,-2.3596224784851074,0.17337362468242645,0
38,0.1850602626800537,-0.8076412081718445,-46.52419662475586,-5.663662433624268,19.459871292114258,0.7610984444618225,2.3596224784851074,-0.17337362468242645,0.0,0.0,0.0,0.0,0.0,0.0,0.0,-0.8152095755352717,-0.19045150734624527,-0.5086677652931445,0.2596900845664404,0.18335888389152263,0.10092472923529487,-0.19025693799587046,0.8781648799871143,0.7557560435999324,-0.2824941811674025,-1.6690201193156995,0.14140931756738936,2.4035754612771623,1.0273453707612223,0.878092876070424,0.7554597494309409,-0.2825552651693207,-1.6690993614607135,0.1414185955172306,2.4034451173676383,1.0273381002308042,0.0002151960351897517,0.00045856721371259434,-0.00022055766412301707,-0.00023438875646598318,0.0003328242378561495,0.00013850755822028757,-0.0005421309123378292,0.0,0.0,0.0,0.0,0.0,0.0,0.0,-7.200391669037742e-05,-0.00029629416899157324,-6.108400191823238e-05,-7.924214501398019e-05,9.277949841235422e-06,-0.00013034390952393338,-7.270530418157506e-06,-0.0002151960351897517,-0.00045856721371259434,0.00022055766412301707,0.00023438875646598318,-0.0003328242378561495,-0.00013850755822028757,0.0005421309123378292,0.8076412081718445,46.52419662475586,5.663662433624268,-19.459871292114258,-0.7610984444618225,-2.3596224784851074,0.17337362468242645,0
39,0.19005250930786133,-0.8076412081718445,-46.50039291381836,-5.687466144561768,19.459871292114258,0.7665916085243225,2.3660311698913574,-0.15964071452617645,0.0,0.0,0.0,0.0,0.0,0.0,0.0,-0.8153711931783684,-0.20284239060185225,-0.5089509985331615,0.2672965449964806,0.18373189275539972,0.1009618845492856,-0.19052008990605263,0.8781648799871143,0.7557543616317548,-0.28249274911378575,-1.6690201193156995,0.1414086944176483,2.403571452130339,1.027343844882316,0.878092876070424,0.7554597494309409,-0.2825552651693207,-1.6690993614607135,0.1414185955172306,2.4034451173676383,1.0273381002308042,0.0001408838519185435,-0.0007854320052005621,0.0006386370999691167,0.000678983871549445,0.0001613009442358972,-0.00014660484784784588,-0.0012547600079040944,0.0,0.0,0.0,0.0,0.0,0.0,0.0,-7.200391669037742e-05,-0.00029461220081394845,-6.251605553497797e-05,-7.924214501398019e-05,9.90109958229346e-06,-0.00012633476270051958,-5.744651511818688e-06,-0.0001408838519185435,0.0007854320052005621,-0.0006386370999691167,-0.000678983871549445,-0.0001613009442358972,0.00014660484784784588,0.0012547600079040944,0.8076412081718445,46.50039291381836,5.687466144561768,-19.459871292114258,-0.7665916085243225,-2.3660311698913574,0.15964071452617645,0
40,0.19504284858703613,-0.8076412081718445,-46.50039291381836,-5.687466144561768,19.459871292114258,0.7665916085243225,2.3660311698913574,-0.15964071452617645,0.0,0.0,0.0,0.0,0.0,0.0,0.0,-0.8153711931783684,-0.20284239060185225,-0.5089509985331615,0.2672965449964806,0.18373189275539972,0.1009618845492856,-0.19052008990605263,0.8781648799871143,0.7557543616317548,-0.28249274911378575,-1.6690201193156995,0.1414086944176483,2.403571452130339,1.027343844882316,0.878092876070424,0.7554597494309409,-0.2825552651693207,-1.6690993614607135,0.1414185955172306,2.4034451173676383,1.0273381002308042,0.0001408838519185435,-0.0007854320052005621,0.0006386370999691167,0.000678983871549445,0.0001613009442358972,-0.00014660484784784588,-0.0012547600079040944,0.0,0.0,0.0,0.0,0.0,0.0,0.0,-7.200391669037742e-05,-0.00029461220081394845,-6.251605553497797e-05,-7.924214501398019e-05,9.90109958229346e-06,-0.00012633476270051958,-5.744651511818688e-06,-0.0001408838519185435,0.0007854320052005621,-0.0006386370999691167,-0.000678983871549445,-0.0001613009442358972,0.00014660484784784588,0.0012547600079040944,0.8076412081718445,46.50039291381836,5.687466144561768,-19.459871292114258,-0.7665916085243225,-2.3660311698913574,0.15964071452617645,0
41,0.20005273818969727,-0.8076412081718445,-46.50039291381836,-5.687466144561768,19.459871292114258,0.7665916085243225,2.3660311698913574,-0.15964071452617645,0.0,0.0,0.0,0.0,0.0,0.0,0.0,-0.8153711931783684,-0.20284239060185225,-0.5089509985331615,0.2672965449964806,0.18373189275539972,0.1009618845492856,-0.19052008990605263,0.8781648799871143,0.7557543616317548,-0.28249274911378575,-1.6690201193156995,0.1414086944176483,2.403571452130339,1.027343844882316,0.878092876070424,0.7554597494309409,-0.2825552651693207,-1.6690993614607135,0.1414185955172306,2.4034451173676383,1.0273381002308042,0.0001408838519185435,-0.0007854320052005621,0.0006386370999691167,0.000678983871549445,0.0001613009442358972,-0.00014660484784784588,-0.0012547600079040944,0.0,0.0,0.0,0.0,0.0,0.0,0.0,-7.200391669037742e-05,-0.00029461220081394845,-6.251605553497797e-05,-7.924214501398019e-05,9.90109958229346e-06,-0.00012633476270051958,-5.744651511818688e-06,-0.0001408838519185435,0.0007854320052005621,-0.0006386370999691167,-0.000678983871549445,-0.0001613009442358972,0.00014660484784784588,0.0012547600079040944,0.8076412081718445,46.50039291381836,5.687466144561768,-19.459871292114258,-0.7665916085243225,-2.3660311698913574,0.15964071452617645,0
42,0.20504474639892578,-0.8076412081718445,-46.50039291381836,-5.687466144561768,19.459871292114258,0.7665916085243225,2.3660311698913574,-0.15964071452617645,0.0,0.0,0.0,0.0,0.0,0.0,0.0,-0.8153711931783684,-0.20284239060185225,-0.5089509985331615,0.2672965449964806,0.18373189275539972,0.1009618845492856,-0.19052008990605263,0.8781648799871143,0.7557543616317548,-0.28249274911378575,-1.6690201193156995,0.1414086944176483,2.403571452130339,1.027343844882316,0.878092876070424,0.7554597494309409,-0.2825552651693207,-1.6690993614607135,0.1414185955172306,2.4034451173676383,1.0273381002308042,0.0001408838519185435,-0.0007854320052005621,0.0006386370999691167,0.000678983871549445,0.0001613009442358972,-0.00014660484784784588,-0.0012547600079040944,0.0,0.0,0.0,0.0,0.0,0.0,0.0,-7.200391669037742e-05,-0.00029461220081394845,-6.251605553497797e-05,-7.924214501398019e-05,9.90109958229346e-06,-0.00012633476270051958,-5.744651511818688e-06,-0.0001408838519185435,0.0007854320052005621,-0.0006386370999691167,-0.000678983871549445,-0.0001613009442358972,0.00014660484784784588,0.0012547600079040944,0.8076412081718445,46.50039291381836,5.687466144561768,-19.459871292114258,-0.7665916085243225,-2.3660311698913574,0.15964071452617645,0
43,0.21004056930541992,-0.8076412081718445,-46.54800033569336,-5.687466144561768,19.436067581176758,0.7665916085243225,2.3596224784851074,-0.21457235515117645,0.0,0.0,0.0,0.0,0.0,0.0,0.0,-0.8322361242941737,-0.18327848264885485,-0.5190231784666689,0.25629095864345525,0.18407229518729656,0.09856008704934949,-0.1898230106195053,0.8781648799871143,0.7557577034307115,-0.28249253718750555,-1.6690184488798443,0.1414055181518796,2.403572162681164,1.0273499483979411,0.878092876070424,0.7554597494309409,-0.2825552651693207,-1.6690993614607135,0.1414185955172306,2.4034451173676383,1.0273381002308042,-0.0004139598982898742,0.0007588050503536271,-3.0391918889100397e-05,0.0005668682381101516,7.035408117795128e-05,0.0001029825373415352,0.0008981446597326885,0.0,0.0,0.0,0.0,0.0,0.0,0.0,-7.200391669037742e-05,-0.0002979539997706171,-6.272798181516936e-05,-8.091258086917463e-05,1.3077365350999681e-05,-0.00012704531352580872,-1.1848167136951915e-05,0.0004139598982898742,-0.0007588050503536271,3.0391918889100397e-05,-0.0005668682381101516,-7.035408117795128e-05,-0.0001029825373415352,-0.0008981446597326885,0.8076412081718445,46.54800033569336,5.687466144561768,-19.436067581176758,-0.7665916085243225,-2.3596224784851074,0.21457235515117645,0
44,0.21503758430480957,-0.8076412081718445,-46.54800033569336,-5.687466144561768,19.436067581176758,0.7665916085243225,2.3596224784851074,-0.21457235515117645,0.0,0.0,0.0,0.0,0.0,0.0,0.0,-0.8322361242941737,-0.18327848264885485,-0.5190231784666689,0.25629095864345525,0.18407229518729656,0.09856008704934949,-0.1898230106195053,0.8781648799871143,0.7557577034307115,-0.28249253718750555,-1.6690184488798443,0.1414055181518796,2.403572162681164,1.0273499483979411,0.878092876070424,0.7554597494309409,-0.2825552651693207,-1.6690993614607135,0.1414185955172306,2.4034451173676383,1.0273381002308042,-0.0004139598982898742,0.0007588050503536271,-3.0391918889100397e-05,0.0005668682381101516,7.035408117795128e-05,0.0001029825373415352,0.0008981446597326885,0.0,0.0,0.0,0.0,0.0,0.0,0.0,-7.200391669037742e-05,-0.0002979539997706171,-6.272798181516936e-05,-8.091258086917463e-05,1.3077365350999681e-05,-0.00012704531352580872,-1.1848167136951915e-05,0.0004139598982898742,-0.0007588050503536271,3.0391918889100397e-05,-0.0005668682381101516,-7.035408117795128e-05,-0.0001029825373415352,-0.0008981446597326885,0.8076412081718445,46.54800033569336,5.687466144561768,-19.436067581176758,-0.7665916085243225,-2.3596224784851074,0.21457235515117645,0
45,0.22003746032714844,-0.8076412081718445,-46.47658920288086,-5.663662433624268,19.511445999145508,0.7546897530555725,2.3660311698913574,-0.22830526530742645,0.0,0.0,0.0,0.0,0.0,0.0,0.0,-0.8273982567016103,-0.18776123857932586,-0.517747234611771,0.26007151954511887,0.18389019710858667,0.09862893312037746,-0.19027235806812212,0.8781648799871143,0.7557529251635905,-0.2824941811311116,-1.669023738593386,0.14140792975700608,2.4035714525424,1.0273514742768473,0.878092876070424,0.7554597494309409,-0.2825552651693207,-1.6690993614607135,0.1414185955172306,2.4034451173676383,1.0273381002308042,-0.0003030348387127995,-0.0008317222540787594,-0.0009823961211006464,-0.0010848996151535152,0.0005382849154176544,7.748547362027429e-05,0.0009979496637595442,0.0,0.0,0.0,0.0,0.0,0.0,0.0,-7.200391669037742e-05,-0.00029317573264964203,-6.10840382091471e-05,-7.562286732754053e-05,1.0665760224515264e-05,-0.00012633517476157152,-1.3374046043068688e-05,0.0003030348387127995,0.0008317222540787594,0.0009823961211006464,0.0010848996151535152,-0.0005382849154176544,-7.748547362027429e-05,-0.0009979496637595442,0.8076412081718445,46.47658920288086,5.663662433624268,-19.511445999145508,-0.7546897530555725,-2.3660311698913574,0.22830526530742645,0
46,0.22507381439208984,-0.8076412081718445,-46.47658920288086,-5.663662433624268,19.511445999145508,0.7546897530555725,2.3660311698913574,-0.22830526530742645,0.0,0.0,0.0,0.0,0.0,0.0,0.0,-0.8273982567016103,-0.18776123857932586,-0.517747234611771,0.26007151954511887,0.18389019710858667,0.09862893312037746,-0.19027235806812212,0.8781648799871143,0.7557529251635905,-0.2824941811311116,-1.669023738593386,0.14140792975700608,2.4035714525424,1.0273514742768473,0.878092876070424,0.7554597494309409,-0.2825552651693207,-1.6690993614607135,0.1414185955172306,2.4034451173676383,1.0273381002308042,-0.0003030348387127995,-0.0008317222540787594,-0.0009823961211006464,-0.0010848996151535152,0.0005382849154176544,7.748547362027429e-05,0.0009979496637595442,0.0,0.0,0.0,0.0,0.0,0.0,0.0,-7.200391669037742e-05,-0.00029317573264964203,-6.10840382091471e-05,-7.562286732754053e-05,1.0665760224515264e-05,-0.00012633517476157152,-1.3374046043068688e-05,0.0003030348387127995,0.0008317222540787594,0.0009823961211006464,0.0010848996151535152,-0.0005382849154176544,-7.748547362027429e-05,-0.0009979496637595442,0.8076412081718445,46.47658920288086,5.663662433624268,-19.511445999145508,-0.7546897530555725,-2.3660311698913574,0.22830526530742645,0
47,0.23004555702209473,-0.8354122042655945,-46.54800033569336,-5.687466144561768,19.459871292114258,0.7610984444618225,2.3596224784851074,-0.17337362468242645,0.0,0.0,0.0,0.0,0.0,0.0,0.0,-0.8225526505772968,-0.17909158867935562,-0.5144678983792632,0.2570634599742931,0.18361492121815953,0.09812274025733406,-0.1906550026763526,0.8781668288289455,0.755757702471697,-0.2824925106952065,-1.6690201193156995,0.14141026673422125,2.403572568706224,1.0273453707612223,0.878092876070424,0.7554597494309409,-0.2825552651693207,-1.6690993614607135,0.1414185955172306,2.4034451173676383,1.0273381002308042,0.00021188639171166682,0.0011838694779744863,-0.0004851339688232914,6.306793232001912e-06,0.0003150858557705989,9.408840530371093e-05,-0.0006677688382351208,0.0,0.0,0.0,0.0,0.0,0.0,0.0,-7.395275852151162e-05,-0.00029795304075619367,-6.275447411424606e-05,-7.924214501398019e-05,8.32878300935369e-06,-0.00012745133858560465,-7.270530418157506e-06,-0.00021188639171166682,-0.0011838694779744863,0.0004851339688232914,-6.306793232001912e-06,-0.0003150858557705989,-9.408840530371093e-05,0.0006677688382351208,0.8354122042655945,46.54800033569336,5.687466144561768,-19.459871292114258,-0.7610984444618225,-2.3596224784851074,0.17337362468242645,0
48,0.23504042625427246,-0.8354122042655945,-46.54800033569336,-5.687466144561768,19.459871292114258,0.7610984444618225,2.3596224784851074,-0.17337362468242645,0.0,0.0,0.0,0.0,0.0,0.0,0.0,-0.8225526505772968,-0.17909158867935562,-0.5144678983792632,0.2570634599742931,0.18361492121815953,0.09812274025733406,-0.1906550026763526,0.8781668288289455,0.755757702471697,-0.2824925106952065,-1.6690201193156995,0.14141026673422125,2.403572568706224,1.0273453707612223,0.878092876070424,0.7554597494309409,-0.2825552651693207,-1.6690993614607135,0.1414185955172306,2.4034451173676383,1.0273381002308042,0.00021188639171166682,0.0011838694779744863,-0.0004851339688232914,6.306793232001912e-06,0.0003150858557705989,9.408840530371093e-05,-0.0006677688382351208,0.0,0.0,0.0,0.0,0.0,0.0,0.0,-7.395275852151162e-05,-0.00029795304075619367,-6.275447411424606e-05,-7.924214501398019e-05,8.32878300935369e-06,-0.00012745133858560465,-7.270530418157506e-06,-0.00021188639171166682,-0.0011838694779744863,0.0004851339688232914,-6.306793232001912e-06,-0.0003150858557705989,-9.408840530371093e-05,0.0006677688382351208,0.8354122042655945,46.54800033569336,5.687466144561768,-19.459871292114258,-0.7610984444618225,-2.3596224784851074,0.17337362468242645,0
49,0.2400496006011963,-0.8354122042655945,-46.52419662475586,-5.687466144561768,19.436067581176758,0.7665916085243225,2.3660311698913574,-0.20083944499492645,0.0,0.0,0.0,0.0,0.0,0.0,0.0,-0.8267367089757627,-0.1826285334717527,-0.5164390968359063,0.26063027493381513,0.18394796058417018,0.09791786454304922,-0.18906592437646583,0.8781668288289455,0.7557560407343382,-0.2824927520693377,-1.6690184488798443,0.141409657660751,2.4035726426832764,1.0273484225190348,0.878092876070424,0.7554597494309409,-0.2825552651693207,-1.6690993614607135,0.1414185955172306,2.4034451173676383,1.0273381002308042,0.00011187394659727926,0.00019123854618531945,0.00017593423501457956,0.00031151221312477245,-6.33297086007445e-05,2.400402043041812e-05,0.0002776449031531139,0.0,0.0,0.0,0.0,0.0,0.0,0.0,-7.395275852151162e-05,-0.00029629130339736687,-6.251309998300814e-05,-8.091258086917463e-05,8.937856479596107e-06,-0.00012752531563808844,-1.0322288230613097e-05,-0.00011187394659727926,-0.00019123854618531945,-0.00017593423501457956,-0.00031151221312477245,6.33297086007445e-05,-2.400402043041812e-05,-0.0002776449031531139,0.8354122042655945,46.52419662475586,5.687466144561768,-19.436067581176758,-0.7665916085243225,-2.3660311698913574,0.20083944499492645,0
50,0.2450406551361084,-0.8354122042655945,-46.52419662475586,-5.687466144561768,19.436067581176758,0.7665916085243225,2.3660311698913574,-0.20083944499492645,0.0,0.0,0.0,0.0,0.0,0.0,0.0,-0.8267367089757627,-0.1826285334717527,-0.5164390968359063,0.26063027493381513,0.18394796058417018,0.09791786454304922,-0.18906592437646583,0.8781668288289455,0.7557560407343382,-0.2824927520693377,-1.6690184488798443,0.141409657660751,2.4035726426832764,1.0273484225190348,0.878092876070424,0.7554597494309409,-0.2825552651693207,-1.6690993614607135,0.1414185955172306,2.4034451173676383,1.0273381002308042,0.00011187394659727926,0.00019123854618531945,0.00017593423501457956,0.00031151221312477245,-6.33297086007445e-05,2.400402043041812e-05,0.0002776449031531139,0.0,0.0,0.0,0.0,0.0,0.0,0.0,-7.395275852151162e-05,-0.00029629130339736687,-6.251309998300814e-05,-8.091258086917463e-05,8.937856479596107e-06,-0.00012752531563808844,-1.0322288230613097e-05,-0.00011187394659727926,-0.00019123854618531945,-0.00017593423501457956,-0.00031151221312477245,6.33297086007445e-05,-2.400402043041812e-05,-0.0002776449031531139,0.8354122042655945,46.52419662475586,5.687466144561768,-19.436067581176758,-0.7665916085243225,-2.3660311698913574,0.20083944499492645,0
51,0.25003719329833984,-0.8076412081718445,-46.47658920288086,-5.687466144561768,19.487642288208008,0.7665916085243225,2.3596224784851074,-0.16604940593242645,0.0,0.0,0.0,0.0,0.0,0.0,0.0,-0.8212003076594673,-0.1907928337104602,-0.5107290838234693,0.26596806951130175,0.18376395653969224,0.09922528893749376,-0.18987093428424162,0.8781648799871143,0.7557526911603157,-0.28249259017215383,-1.6690220681575307,0.1414086284790401,2.403573222339473,1.027344556959139,0.878092876070424,0.7554597494309409,-0.2825552651693207,-1.6690993614607135,0.1414185955172306,2.4034451173676383,1.0273381002308042,-0.00046711476212682565,-0.001123150730499842,7.482010569963183e-05,-0.000207934513543861,0.00015385582104846408,0.0002329998103357296,-0.0005745242577387064,0.0,0.0,0.0,0.0,0.0,0.0,0.0,-7.200391669037742e-05,-0.00029294172937488483,-6.26749971668894e-05,-7.729330318273497e-05,9.967038190505928e-06,-0.000128104971834464,-6.456728334880424e-06,0.00046711476212682565,0.001123150730499842,-7.482010569963183e-05,0.000207934513543861,-0.00015385582104846408,-0.0002329998103357296,0.0005745242577387064,0.8076412081718445,46.47658920288086,5.687466144561768,-19.487642288208008,-0.7665916085243225,-2.3596224784851074,0.16604940593242645,0
52,0.25504422187805176,-0.8076412081718445,-46.47658920288086,-5.687466144561768,19.487642288208008,0.7665916085243225,2.3596224784851074,-0.16604940593242645,0.0,0.0,0.0,0.0,0.0,0.0,0.0,-0.8212003076594673,-0.1907928337104602,-0.5107290838234693,0.26596806951130175,0.18376395653969224,0.09922528893749376,-0.18987093428424162,0.8781648799871143,0.7557526911603157,-0.28249259017215383,-1.6690220681575307,0.1414086284790401,2.403573222339473,1.027344556959139,0.878092876070424,0.7554597494309409,-0.2825552651693207,-1.6690993614607135,0.1414185955172306,2.4034451173676383,1.0273381002308042,-0.00046711476212682565,-0.001123150730499842,7.482010569963183e-05,-0.000207934513543861,0.00015385582104846408,0.0002329998103357296,-0.0005745242577387064,0.0,0.0,0.0,0.0,0.0,0.0,0.0,-7.200391669037742e-05,-0.00029294172937488483,-6.26749971668894e-05,-7.729330318273497e-05,9.967038190505928e-06,-0.000128104971834464,-6.456728334880424e-06,0.00046711476212682565,0.001123150730499842,-7.482010569963183e-05,0.000207934513543861,-0.00015385582104846408,-0.0002329998103357296,0.0005745242577387064,0.8076412081718445,46.47658920288086,5.687466144561768,-19.487642288208008,-0.7665916085243225,-2.3596224784851074,0.16604940593242645,0
53,0.26006460189819336,-0.8076412081718445,-46.52419662475586,-5.663662433624268,19.487642288208008,0.7610984444618225,2.3596224784851074,-0.15231649577617645,0.0,0.0,0.0,0.0,0.0,0.0,0.0,-0.8188539534969628,-0.18613887855858732,-0.5095993426805925,0.26592300180218625,0.18362622916179103,0.09898108043961883,-0.18962231305874291,0.8781648799871143,0.7557581380745497,-0.28249441987683915,-1.6690220681575307,0.14140707382090018,2.403575356617557,1.0273430310802327,0.878092876070424,0.7554597494309409,-0.2825552651693207,-1.6690993614607135,0.1414185955172306,2.4034451173676383,1.0273381002308042,-0.0003869017212704042,0.0003369907927083929,-0.0005924766111582303,-0.00026935779907471895,0.0002940580821624483,0.00017047157112387934,-0.0013474550804005248,0.0,0.0,0.0,0.0,0.0,0.0,0.0,-7.200391669037742e-05,-0.0002983886436088712,-6.0845292481570556e-05,-7.729330318273497e-05,1.1521696330424325e-05,-0.00013023924991850677,-4.930849428541606e-06,0.0003869017212704042,-0.0003369907927083929,0.0005924766111582303,0.00026935779907471895,-0.0002940580821624483,-0.00017047157112387934,0.0013474550804005248,0.8076412081718445,46.52419662475586,5.663662433624268,-19.487642288208008,-0.7610984444618225,-2.3596224784851074,0.15231649577617645,0
54,0.26504087448120117,-0.8076412081718445,-46.52419662475586,-5.663662433624268,19.487642288208008,0.7610984444618225,2.3596224784851074,-0.15231649577617645,0.0,0.0,0.0,0.0,0.0,0.0,0.0,-0.8188539534969628,-0.18613887855858732,-0.5095993426805925,0.26592300180218625,0.18362622916179103,0.09898108043961883,-0.18962231305874291,0.8781648799871143,0.7557581380745497,-0.28249441987683915,-1.6690220681575307,0.14140707382090018,2.403575356617557,1.0273430310802327,0.878092876070424,0.7554597494309409,-0.2825552651693207,-1.6690993614607135,0.1414185955172306,2.4034451173676383,1.0273381002308042,-0.0003869017212704042,0.0003369907927083929,-0.0005924766111582303,-0.00026935779907471895,0.0002940580821624483,0.00017047157112387934,-0.0013474550804005248,0.0,0.0,0.0,0.0,0.0,0.0,0.0,-7.200391669037742e-05,-0.0002983886436088712,-6.0845292481570556e-05,-7.729330318273497e-05,1.1521696330424325e-05,-0.00013023924991850677,-4.930849428541606e-06,0.0003869017212704042,-0.0003369907927083929,0.0005924766111582303,0.00026935779907471895,-0.0002940580821624483,-0.00017047157112387934,0.0013474550804005248,0.8076412081718445,46.52419662475586,5.663662433624268,-19.487642288208008,-0.7610984444618225,-2.3596224784851074,0.15231649577617645,0
55,0.270000696182251,-0.8354122042655945,-46.54800033569336,-5.711269855499268,19.511445999145508,0.7784934639930725,2.3596224784851074,-0.18710653483867645,0.0,0.0,0.0,0.0,0.0,0.0,0.0,-0.8325347717907355,-0.18783972669477028,-0.5206901497776105,0.26838836078663425,0.18363911651217146,0.09846973382471567,-0.18852288746310208,0.8781668288289455,0.755759808510405,-0.28249084040605393,-1.669023738593386,0.14140847391657127,2.403572202106548,1.0273468966401285,0.878092876070424,0.7554597494309409,-0.2825552651693207,-1.6690993614607135,0.1414185955172306,2.4034451173676383,1.0273381002308042,-0.0003579940487331389,0.000597332705734464,0.00011048361669905447,-0.00107543133185091,-0.000344232757527541,0.0001426515193643629,-5.670172683782072e-05,0.0,0.0,0.0,0.0,0.0,0.0,0.0,-7.395275852151162e-05,-0.00030005907946417665,-6.442476326679047e-05,-7.562286732754053e-05,1.0121600659329655e-05,-0.00012708473890965521,-8.796409324274279e-06,0.0003579940487331389,-0.000597332705734464,-0.00011048361669905447,0.00107543133185091,0.000344232757527541,-0.0001426515193643629,5.670172683782072e-05,0.8354122042655945,46.54800033569336,5.711269855499268,-19.511445999145508,-0.7784934639930725,-2.3596224784851074,0.18710653483867645,0
56,0.27504992485046387,-0.8354122042655945,-46.54800033569336,-5.711269855499268,19.511445999145508,0.7784934639930725,2.3596224784851074,-0.18710653483867645,0.0,0.0,0.0,0.0,0.0,0.0,0.0,-0.8325347717907355,-0.18783972669477028,-0.5206901497776105,0.26838836078663425,0.18363911651217146,0.09846973382471567,-0.18852288746310208,0.8781668288289455,0.755759808510405,-0.28249084040605393,-1.669023738593386,0.14140847391657127,2.403572202106548,1.0273468966401285,0.878092876070424,0.7554597494309409,-0.2825552651693207,-1.6690993614607135,0.1414185955172306,2.4034451173676383,1.0273381002308042,-0.0003579940487331389,0.000597332705734464,0.00011048361669905447,-0.00107543133185091,-0.000344232757527541,0.0001426515193643629,-5.670172683782072e-05,0.0,0.0,0.0,0.0,0.0,0.0,0.0,-7.395275852151162e-05,-0.00030005907946417665,-6.442476326679047e-05,-7.562286732754053e-05,1.0121600659329655e-05,-0.00012708473890965521,-8.796409324274279e-06,0.0003579940487331389,-0.000597332705734464,-0.00011048361669905447,0.00107543133185091,0.000344232757527541,-0.0001426515193643629,5.670172683782072e-05,0.8354122042655945,46.54800033569336,5.711269855499268,-19.511445999145508,-0.7784934639930725,-2.3596224784851074,0.18710653483867645,0
57,0.2800416946411133,-0.8354122042655945,-46.54800033569336,-5.711269855499268,19.511445999145508,0.7784934639930725,2.3596224784851074,-0.18710653483867645,0.0,0.0,0.0,0.0,0.0,0.0,0.0,-0.8325347717907355,-0.18783972669477028,-0.5206901497776105,0.26838836078663425,0.18363911651217146,0.09846973382471567,-0.18852288746310208,0.8781668288289455,0.755759808510405,-0.28249084040605393,-1.669023738593386,0.14140847391657127,2.403572202106548,1.0273468966401285,0.878092876070424,0.7554597494309409,-0.2825552651693207,-1.6690993614607135,0.1414185955172306,2.4034451173676383,1.0273381002308042,-0.0003579940487331389,0.000597332705734464,0.00011048361669905447,-0.00107543133185091,-0.000344232757527541,0.0001426515193643629,-5.670172683782072e-05,0.0,0.0,0.0,0.0,0.0,0.0,0.0,-7.395275852151162e-05,-0.00030005907946417665,-6.442476326679047e-05,-7.562286732754053e-05,1.0121600659329655e-05,-0.00012708473890965521,-8.796409324274279e-06,0.0003579940487331389,-0.000597332705734464,-0.00011048361669905447,0.00107543133185091,0.000344232757527541,-0.0001426515193643629,5.670172683782072e-05,0.8354122042655945,46.54800033569336,5.711269855499268,-19.511445999145508,-0.7784934639930725,-2.3596224784851074,0.18710653483867645,0
58,0.2878410816192627,-0.8354122042655945,-46.54800033569336,-5.711269855499268,19.511445999145508,0.7784934639930725,2.3596224784851074,-0.18710653483867645,0.0,0.0,0.0,0.0,0.0,0.0,0.0,-0.8325347717907355,-0.18783972669477028,-0.5206901497776105,0.26838836078663425,0.18363911651217146,0.09846973382471567,-0.18852288746310208,0.8781668288289455,0.755759808510405,-0.28249084040605393,-1.669023738593386,0.14140847391657127,2.403572202106548,1.0273468966401285,0.878092876070424,0.7554597494309409,-0.2825552651693207,-1.6690993614607135,0.1414185955172306,2.4034451173676383,1.0273381002308042,-0.0003579940487331389,0.000597332705734464,0.00011048361669905447,-0.00107543133185091,-0.000344232757527541,0.0001426515193643629,-5.670172683782072e-05,0.0,0.0,0.0,0.0,0.0,0.0,0.0,-7.395275852151162e-05,-0.00030005907946417665,-6.442476326679047e-05,-7.562286732754053e-05,1.0121600659329655e-05,-0.00012708473890965521,-8.796409324274279e-06,0.0003579940487331389,-0.000597332705734464,-0.00011048361669905447,0.00107543133185091,0.000344232757527541,-0.0001426515193643629,5.670172683782072e-05,0.8354122042655945,46.54800033569336,5.711269855499268,-19.511445999145508,-0.7784934639930725,-2.3596224784851074,0.18710653483867645,0
59,0.29005908966064453,-0.8076412081718445,-46.50039291381836,-5.711269855499268,19.459871292114258,0.7665916085243225,2.3596224784851074,-0.19351522624492645,0.0,0.0,0.0,0.0,0.0,0.0,0.0,-0.8212884357927862,-0.18670406800917086,-0.5125515967271534,0.26833054448032884,0.18371671174439969,0.09834772530741526,-0.18675312578961323,0.8781648799871143,0.7557543625708895,-0.282490840259352,-1.6690201193156995,0.14140587409470237,2.403572520254739,1.027350867104199,0.878092876070424,0.7554597494309409,-0.2825552651693207,-1.6690993614607135,0.1414185955172306,2.4034451173676383,1.0273381002308042,-0.0008114889175300872,-0.0007822812704552717,0.000384564664690236,0.00016124395344308432,2.725908696873365e-05,0.00020392539285547388,0.0003789598255550633,0.0,0.0,0.0,0.0,0.0,0.0,0.0,-7.200391669037742e-05,-0.0002946131399486074,-6.442490996871886e-05,-7.924214501398019e-05,1.2721422528227944e-05,-0.00012740288710055836,-1.276687339490934e-05,0.0008114889175300872,0.0007822812704552717,-0.000384564664690236,-0.00016124395344308432,-2.725908696873365e-05,-0.00020392539285547388,-0.0003789598255550633,0.8076412081718445,46.50039291381836,5.711269855499268,-19.459871292114258,-0.7665916085243225,-2.3596224784851074,0.19351522624492645,0
60,0.2950417995452881,-0.8076412081718445,-46.50039291381836,-5.711269855499268,19.459871292114258,0.7665916085243225,2.3596224784851074,-0.19351522624492645,0.0,0.0,0.0,0.0,0.0,0.0,0.0,-0.8212884357927862,-0.18670406800917086,-0.5125515967271534,0.26833054448032884,0.18371671174439969,0.09834772530741526,-0.18675312578961323,0.8781648799871143,0.7557543625708895,-0.282490840259352,-1.6690201193156995,0.14140587409470237,2.403572520254739,1.027350867104199,0.878092876070424,0.7554597494309409,-0.2825552651693207,-1.6690993614607135,0.1414185955172306,2.4034451173676383,1.0273381002308042,-0.0008114889175300872,-0.0007822812704552717,0.000384564664690236,0.00016124395344308432,2.725908696873365e-05,0.00020392539285547388,0.0003789598255550633,0.0,0.0,0.0,0.0,0.0,0.0,0.0,-7.200391669037742e-05,-0.0002946131399486074,-6.442490996871886e-05,-7.924214501398019e-05,1.2721422528227944e-05,-0.00012740288710055836,-1.276687339490934e-05,0.0008114889175300872,0.0007822812704552717,-0.000384564664690236,-0.00016124395344308432,-2.725908696873365e-05,-0.00020392539285547388,-0.0003789598255550633,0.8076412081718445,46.50039291381836,5.711269855499268,-19.459871292114258,-0.7665916085243225,-2.3596224784851074,0.19351522624492645,0
61,0.3000624179840088,-0.8354122042655945,-46.50039291381836,-5.687466144561768,19.459871292114258,0.7665916085243225,2.3596224784851074,-0.14590780436992645,0.0,0.0,0.0,0.0,0.0,0.0,0.0,-0.8090252973824068,-0.18902381300364532,-0.505327268637821,0.2675200609970139,0.18291692856219544,0.09881951700543122,-0.18560821123830518,0.8781668288289455,0.7557546245957544,-0.2824925108042227,-1.6690201193156995,0.1414068440803244,2.4035721631663454,1.0273423190095412,0.878092876070424,0.7554597494309409,-0.2825552651693207,-1.6690993614607135,0.1414185955172306,2.4034451173676383,1.0273381002308042,0.000454975355539753,-0.00031699433072849013,2.507966744041725e-05,0.00017583761973140547,0.00021179590350646675,0.00017081426143587003,-0.0018698208246047958,0.0,0.0,0.0,0.0,0.0,0.0,0.0,-7.395275852151162e-05,-0.00029487516481352394,-6.275436509800558e-05,-7.924214501398019e-05,1.1751436906209944e-05,-0.00012704579870703725,-4.218778737019591e-06,-0.000454975355539753,0.00031699433072849013,-2.507966744041725e-05,-0.00017583761973140547,-0.00021179590350646675,-0.00017081426143587003,0.0018698208246047958,0.8354122042655945,46.50039291381836,5.687466144561768,-19.459871292114258,-0.7665916085243225,-2.3596224784851074,0.14590780436992645,0
62,0.3050389289855957,-0.8354122042655945,-46.50039291381836,-5.687466144561768,19.459871292114258,0.7665916085243225,2.3596224784851074,-0.14590780436992645,0.0,0.0,0.0,0.0,0.0,0.0,0.0,-0.8090252973824068,-0.18902381300364532,-0.505327268637821,0.2675200609970139,0.18291692856219544,0.09881951700543122,-0.18560821123830518,0.8781668288289455,0.7557546245957544,-0.2824925108042227,-1.6690201193156995,0.1414068440803244,2.4035721631663454,1.0273423190095412,0.878092876070424,0.7554597494309409,-0.2825552651693207,-1.6690993614607135,0.1414185955172306,2.4034451173676383,1.0273381002308042,0.000454975355539753,-0.00031699433072849013,2.507966744041725e-05,0.00017583761973140547,0.00021179590350646675,0.00017081426143587003,-0.0018698208246047958,0.0,0.0,0.0,0.0,0.0,0.0,0.0,-7.395275852151162e-05,-0.00029487516481352394,-6.275436509800558e-05,-7.924214501398019e-05,1.1751436906209944e-05,-0.00012704579870703725,-4.218778737019591e-06,-0.000454975355539753,0.00031699433072849013,-2.507966744041725e-05,-0.00017583761973140547,-0.00021179590350646675,-0.00017081426143587003,0.0018698208246047958,0.8354122042655945,46.50039291381836,5.687466144561768,-19.459871292114258,-0.7665916085243225,-2.3596224784851074,0.14590780436992645,0
63,0.3100898265838623,-0.8354122042655945,-46.50039291381836,-5.687466144561768,19.459871292114258,0.7665916085243225,2.3596224784851074,-0.14590780436992645,0.0,0.0,0.0,0.0,0.0,0.0,0.0,-0.8090252973824068,-0.18902381300364532,-0.505327268637821,0.2675200609970139,0.18291692856219544,0.09881951700543122,-0.18560821123830518,0.8781668288289455,0.7557546245957544,-0.2824925108042227,-1.6690201193156995,0.1414068440803244,2.4035721631663454,1.0273423190095412,0.878092876070424,0.7554597494309409,-0.2825552651693207,-1.6690993614607135,0.1414185955172306,2.4034451173676383,1.0273381002308042,0.000454975355539753,-0.00031699433072849013,2.507966744041725e-05,0.00017583761973140547,0.00021179590350646675,0.00017081426143587003,-0.0018698208246047958,0.0,0.0,0.0,0.0,0.0,0.0,0.0,-7.395275852151162e-05,-0.00029487516481352394,-6.275436509800558e-05,-7.924214501398019e-05,1.1751436906209944e-05,-0.00012704579870703725,-4.218778737019591e-06,-0.000454975355539753,0.00031699433072849013,-2.507966744041725e-05,-0.00017583761973140547,-0.00021179590350646675,-0.00017081426143587003,0.0018698208246047958,0.8354122042655945,46.50039291381836,5.687466144561768,-19.459871292114258,-0.7665916085243225,-2.3596224784851074,0.14590780436992645,0
64,0.3150520324707031,-0.8354122042655945,-46.50039291381836,-5.687466144561768,19.459871292114258,0.7665916085243225,2.3596224784851074,-0.14590780436992645,0.0,0.0,0.0,0.0,0.0,0.0,0.0,-0.8090252973824068,-0.18902381300364532,-0.505327268637821,0.2675200609970139,0.18291692856219544,0.09881951700543122,-0.18560821123830518,0.8781668288289455,0.7557546245957544,-0.2824925108042227,-1.6690201193156995,0.1414068440803244,2.4035721631663454,1.0273423190095412,0.878092876070424,0.7554597494309409,-0.2825552651693207,-1.6690993614607135,0.1414185955172306,2.4034451173676383,1.0273381002308042,0.000454975355539753,-0.00031699433072849013,2.507966744041725e-05,0.00017583761973140547,0.00021179590350646675,0.00017081426143587003,-0.0018698208246047958,0.0,0.0,0.0,0.0,0.0,0.0,0.0,-7.395275852151162e-05,-0.00029487516481352394,-6.275436509800558e-05,-7.924214501398019e-05,1.1751436906209944e-05,-0.00012704579870703725,-4.218778737019591e-06,-0.000454975355539753,0.00031699433072849013,-2.507966744041725e-05,-0.00017583761973140547,-0.00021179590350646675,-0.00017081426143587003,0.0018698208246047958,0.8354122042655945,46.50039291381836,5.687466144561768,-19.459871292114258,-0.7665916085243225,-2.3596224784851074,0.14590780436992645,0
65,0.3200678825378418,-0.8354122042655945,-46.50039291381836,-5.687466144561768,19.459871292114258,0.7665916085243225,2.3596224784851074,-0.14590780436992645,0.0,0.0,0.0,0.0,0.0,0.0,0.0,-0.8090252973824068,-0.18902381300364532,-0.505327268637821,0.2675200609970139,0.18291692856219544,0.09881951700543122,-0.18560821123830518,0.8781668288289455,0.7557546245957544,-0.2824925108042227,-1.6690201193156995,0.1414068440803244,2.4035721631663454,1.0273423190095412,0.878092876070424,0.7554597494309409,-0.2825552651693207,-1.6690993614607135,0.1414185955172306,2.4034451173676383,1.0273381002308042,0.000454975355539753,-0.00031699433072849013,2.507966744041725e-05,0.00017583761973140547,0.00021179590350646675,0.00017081426143587003,-0.0018698208246047958,0.0,0.0,0.0,0.0,0.0,0.0,0.0,-7.395275852151162e-05,-0.00029487516481352394,-6.275436509800558e-05,-7.924214501398019e-05,1.1751436906209944e-05,-0.00012704579870703725,-4.218778737019591e-06,-0.000454975355539753,0.00031699433072849013,-2.507966744041725e-05,-0.00017583761973140547,-0.00021179590350646675,-0.00017081426143587003,0.0018698208246047958,0.8354122042655945,46.50039291381836,5.687466144561768,-19.459871292114258,-0.7665916085243225,-2.3596224784851074,0.14590780436992645,0
66,0.32509493827819824,-0.7838374972343445,-46.50039291381836,-5.687466144561768,19.487642288208008,0.7665916085243225,2.3788485527038574,-0.15231649577617645,0.0,0.0,0.0,0.0,0.0,0.0,0.0,-0.8225634085176239,-0.19539737628294665,-0.5180213096698936,0.2637129142195901,0.18319566390268147,0.09942134187729833,-0.18694739721937859,0.878163209551259,0.7557544482643976,-0.2824927491137856,-1.6690220681575307,0.14140539128118174,2.4035700657583656,1.0273430310802327,0.878092876070424,0.7554597494309409,-0.2825552651693207,-1.6690993614607135,0.1414185955172306,2.4034451173676383,1.0273381002308042,-0.0005561891914128646,-0.0007952390663613279,0.0003023365818744553,-0.0007710828038610275,1.481290474966866e-05,-0.0006606593454043729,-0.0012875033156826811,0.0,0.0,0.0,0.0,0.0,0.0,0.0,-7.033348083507196e-05,-0.0002946988334567857,-6.25160555351445e-05,-7.729330318273497e-05,1.3204236048863782e-05,-0.00012494839072729746,-4.930849428541606e-06,0.0005561891914128646,0.0007952390663613279,-0.0003023365818744553,0.0007710828038610275,-1.481290474966866e-05,0.0006606593454043729,0.0012875033156826811,0.7838374972343445,46.50039291381836,5.687466144561768,-19.487642288208008,-0.7665916085243225,-2.3788485527038574,0.15231649577617645,0
67,0.3300192356109619,-0.7838374972343445,-46.50039291381836,-5.687466144561768,19.487642288208008,0.7665916085243225,2.3788485527038574,-0.15231649577617645,0.0,0.0,0.0,0.0,0.0,0.0,0.0,-0.8225634085176239,-0.19539737628294665,-0.5180213096698936,0.2637129142195901,0.18319566390268147,0.09942134187729833,-0.18694739721937859,0.878163209551259,0.7557544482643976,-0.2824927491137856,-1.6690220681575307,0.14140539128118174,2.4035700657583656,1.0273430310802327,0.878092876070424,0.7554597494309409,-0.2825552651693207,-1.6690993614607135,0.1414185955172306,2.4034451173676383,1.0273381002308042,-0.0005561891914128646,-0.0007952390663613279,0.0003023365818744553,-0.0007710828038610275,1.481290474966866e-05,-0.0006606593454043729,-0.0012875033156826811,0.0,0.0,0.0,0.0,0.0,0.0,0.0,-7.033348083507196e-05,-0.0002946988334567857,-6.25160555351445e-05,-7.729330318273497e-05,1.3204236048863782e-05,-0.00012494839072729746,-4.930849428541606e-06,0.0005561891914128646,0.0007952390663613279,-0.0003023365818744553,0.0007710828038610275,-1.481290474966866e-05,0.0006606593454043729,0.0012875033156826811,0.7838374972343445,46.50039291381836,5.687466144561768,-19.487642288208008,-0.7665916085243225,-2.3788485527038574,0.15231649577617645,0
68,0.3350389003753662,-0.8354122042655945,-46.50039291381836,-5.711269855499268,19.487642288208008,0.7610984444618225,2.3660311698913574,-0.21457235515117645,0.0,0.0,0.0,0.0,0.0,0.0,0.0,-0.8317188697282089,-0.1902191062311791,-0.5237484861803122,0.2611558998335283,0.18301420253041487,0.09921980036658026,-0.18695159200945483,0.8781668288289455,0.7557546043058662,-0.2824911052778998,-1.6690220681575307,0.14141060774721023,2.403571450622306,1.0273499483979411,0.878092876070424,0.7554597494309409,-0.2825552651693207,-1.6690993614607135,0.1414185955172306,2.4034451173676383,1.0273381002308042,0.0006395936607822279,-9.466303583714168e-05,0.0003430748773763308,-0.00019279813942009837,0.00025552896780485035,-0.00020346456052492445,0.0012385153207966166,0.0,0.0,0.0,0.0,0.0,0.0,0.0,-7.395275852151162e-05,-0.00029485487492530993,-6.415989142094514e-05,-7.729330318273497e-05,7.98777002036788e-06,-0.00012633325466770984,-1.1848167136951915e-05,-0.0006395936607822279,9.466303583714168e-05,-0.0003430748773763308,0.00019279813942009837,-0.00025552896780485035,0.00020346456052492445,-0.0012385153207966166,0.8354122042655945,46.50039291381836,5.711269855499268,-19.487642288208008,-0.7610984444618225,-2.3660311698913574,0.21457235515117645,0
69,0.34005212783813477,-0.8354122042655945,-46.50039291381836,-5.711269855499268,19.487642288208008,0.7610984444618225,2.3660311698913574,-0.21457235515117645,0.0,0.0,0.0,0.0,0.0,0.0,0.0,-0.8317188697282089,-0.1902191062311791,-0.5237484861803122,0.2611558998335283,0.18301420253041487,0.09921980036658026,-0.18695159200945483,0.8781668288289455,0.7557546043058662,-0.2824911052778998,-1.6690220681575307,0.14141060774721023,2.403571450622306,1.0273499483979411,0.878092876070424,0.7554597494309409,-0.2825552651693207,-1.6690993614607135,0.1414185955172306,2.4034451173676383,1.0273381002308042,0.0006395936607822279,-9.466303583714168e-05,0.0003430748773763308,-0.00019279813942009837,0.00025552896780485035,-0.00020346456052492445,0.0012385153207966166,0.0,0.0,0.0,0.0,0.0,0.0,0.0,-7.395275852151162e-05,-0.00029485487492530993,-6.415989142094514e-05,-7.729330318273497e-05,7.98777002036788e-06,-0.00012633325466770984,-1.1848167136951915e-05,-0.0006395936607822279,9.466303583714168e-05,-0.0003430748773763308,0.00019279813942009837,-0.00025552896780485035,0.00020346456052492445,-0.0012385153207966166,0.8354122042655945,46.50039291381836,5.711269855499268,-19.487642288208008,-0.7610984444618225,-2.3660311698913574,0.21457235515117645,0
70,0.34504032135009766,-0.8354122042655945,-46.54800033569336,-5.711269855499268,19.436067581176758,0.7546897530555725,2.3724398612976074,-0.15231649577617645,0.0,0.0,0.0,0.0,0.0,0.0,0.0,-0.8080388937405522,-0.19366353409046638,-0.5091099995492355,0.2656522581906331,0.18224089978985292,0.09916309528530604,-0.1863396629667161,0.8781668288289455,0.755757703430762,-0.28249084157971477,-1.6690184488798443,0.14140828409422382,2.4035707401664927,1.0273430310802327,0.878092876070424,0.7554597494309409,-0.2825552651693207,-1.6690993614607135,0.1414185955172306,2.4034451173676383,1.0273381002308042,0.0007631506299444691,0.0008939101146227342,0.0005265207265976755,0.0004732216287813612,0.0005851712990326054,-5.262767511561479e-05,-0.0019975605820282834,0.0,0.0,0.0,0.0,0.0,0.0,0.0,-7.395275852151162e-05,-0.00029795399982113224,-6.442358960595529e-05,-8.091258086917463e-05,1.031142300678134e-05,-0.00012562279885441896,-4.930849428541606e-06,-0.0007631506299444691,-0.0008939101146227342,-0.0005265207265976755,-0.0004732216287813612,-0.0005851712990326054,5.262767511561479e-05,0.0019975605820282834,0.8354122042655945,46.54800033569336,5.711269855499268,-19.436067581176758,-0.7546897530555725,-2.3724398612976074,0.15231649577617645,0
71,0.35004115104675293,-0.8354122042655945,-46.54800033569336,-5.711269855499268,19.436067581176758,0.7546897530555725,2.3724398612976074,-0.15231649577617645,0.0,0.0,0.0,0.0,0.0,0.0,0.0,-0.8080388937405522,-0.19366353409046638,-0.5091099995492355,0.2656522581906331,0.18224089978985292,0.09916309528530604,-0.1863396629667161,0.8781668288289455,0.755757703430762,-0.28249084157971477,-1.6690184488798443,0.14140828409422382,2.4035707401664927,1.0273430310802327,0.878092876070424,0.7554597494309409,-0.2825552651693207,-1.6690993614607135,0.1414185955172306,2.4034451173676383,1.0273381002308042,0.0007631506299444691,0.0008939101146227342,0.0005265207265976755,0.0004732216287813612,0.0005851712990326054,-5.262767511561479e-05,-0.0019975605820282834,0.0,0.0,0.0,0.0,0.0,0.0,0.0,-7.395275852151162e-05,-0.00029795399982113224,-6.442358960595529e-05,-8.091258086917463e-05,1.031142300678134e-05,-0.00012562279885441896,-4.930849428541606e-06,-0.0007631506299444691,-0.0008939101146227342,-0.0005265207265976755,-0.0004732216287813612,-0.0005851712990326054,5.262767511561479e-05,0.0019975605820282834,0.8354122042655945,46.54800033569336,5.711269855499268,-19.436067581176758,-0.7546897530555725,-2.3724398612976074,0.15231649577617645,0
72,0.35504841804504395,-0.8354122042655945,-46.52419662475586,-5.711269855499268,19.487642288208008,0.7610984444618225,2.3724398612976074,-0.20724813640117645,0.0,0.0,0.0,0.0,0.0,0.0,0.0,-0.8204157927370707,-0.19288913097156182,-0.5183387246036842,0.26248191520655056,0.18289673059608647,0.10009239390823288,-0.18760254356107894,0.8781668288289455,0.7557560320318845,-0.2824917939336751,-1.669022059327213,0.1414096998484457,2.403570738689025,1.0273491345420225,0.878092876070424,0.7554597494309409,-0.2825552651693207,-1.6690993614607135,0.1414185955172306,2.4034451173676383,1.0273381002308042,0.00018839180162183138,8.697878341900403e-05,0.00046871877454932677,-0.0005299215559758828,0.0001998908254285402,-0.0003293712039794358,0.0006302563969185659,0.0,0.0,0.0,0.0,0.0,0.0,0.0,-7.395275852151162e-05,-0.00029628260094360925,-6.347123564565127e-05,-7.730213350054527e-05,8.895668784897337e-06,-0.00012562132138649318,-1.1034311218294235e-05,-0.00018839180162183138,-8.697878341900403e-05,-0.00046871877454932677,0.0005299215559758828,-0.0001998908254285402,0.0003293712039794358,-0.0006302563969185659,0.8354122042655945,46.52419662475586,5.711269855499268,-19.487642288208008,-0.7610984444618225,-2.3724398612976074,0.20724813640117645,0
73,0.36004185676574707,-0.8354122042655945,-46.52419662475586,-5.711269855499268,19.487642288208008,0.7610984444618225,2.3724398612976074,-0.20724813640117645,0.0,0.0,0.0,0.0,0.0,0.0,0.0,-0.8204157927370707,-0.19288913097156182,-0.5183387246036842,0.26248191520655056,0.18289673059608647,0.10009239390823288,-0.18760254356107894,0.8781668288289455,0.7557560320318845,-0.2824917939336751,-1.669022059327213,0.1414096998484457,2.403570738689025,1.0273491345420225,0.878092876070424,0.7554597494309409,-0.2825552651693207,-1.6690993614607135,0.1414185955172306,2.4034451173676383,1.0273381002308042,0.00018839180162183138,8.697878341900403e-05,0.00046871877454932677,-0.0005299215559758828,0.0001998908254285402,-0.0003293712039794358,0.0006302563969185659,0.0,0.0,0.0,0.0,0.0,0.0,0.0,-7.395275852151162e-05,-0.00029628260094360925,-6.347123564565127e-05,-7.730213350054527e-05,8.895668784897337e-06,-0.00012562132138649318,-1.1034311218294235e-05,-0.00018839180162183138,-8.697878341900403e-05,-0.00046871877454932677,0.0005299215559758828,-0.0001998908254285402,0.0003293712039794358,-0.0006302563969185659,0.8354122042655945,46.52419662475586,5.711269855499268,-19.487642288208008,-0.7610984444618225,-2.3724398612976074,0.20724813640117645,0
74,0.3650093078613281,-0.8076412081718445,-46.50039291381836,-5.687466144561768,19.487642288208008,0.7730002999305725,2.3596224784851074,-0.17337362468242645,0.0,0.0,0.0,0.0,0.0,0.0,0.0,-0.809914367371296,-0.18958691780645415,-0.5099547785544117,0.26051977670095694,0.1827454796142651,0.09940651174242936,-0.18807918364179613,0.8781648799871143,0.7557550637132818,-0.2824925381726896,-1.669022068157481,0.14140508171078994,2.4035725158938663,1.0273453841702231,0.878092876070424,0.7554597494309409,-0.2825552651693207,-1.6690993614607135,0.1414185955172306,2.4034451173676383,1.0273381002308042,-5.729171658267684e-05,-0.0009317527599369522,0.0002999165565660198,-0.000887285661397777,-8.348426926414135e-05,0.00019735774456871807,-0.000419777996783723,0.0,0.0,0.0,0.0,0.0,0.0,0.0,-7.200391669037742e-05,-0.0002953142823409749,-6.272699663112391e-05,-7.729330323247297e-05,1.3513806440657028e-05,-0.0001273985262280064,-7.283939418956109e-06,5.729171658267684e-05,0.0009317527599369522,-0.0002999165565660198,0.000887285661397777,8.348426926414135e-05,-0.00019735774456871807,0.000419777996783723,0.8076412081718445,46.50039291381836,5.687466144561768,-19.487642288208008,-0.7730002999305725,-2.3596224784851074,0.17337362468242645,0
75,0.3700375556945801,-0.8076412081718445,-46.50039291381836,-5.687466144561768,19.487642288208008,0.7730002999305725,2.3596224784851074,-0.17337362468242645,0.0,0.0,0.0,0.0,0.0,0.0,0.0,-0.809914367371296,-0.18958691780645415,-0.5099547785544117,0.26051977670095694,0.1827454796142651,0.09940651174242936,-0.18807918364179613,0.8781648799871143,0.7557550637132818,-0.2824925381726896,-1.669022068157481,0.14140508171078994,2.4035725158938663,1.0273453841702231,0.878092876070424,0.7554597494309409,-0.2825552651693207,-1.6690993614607135,0.1414185955172306,2.4034451173676383,1.0273381002308042,-5.729171658267684e-05,-0.0009317527599369522,0.0002999165565660198,-0.000887285661397777,-8.348426926414135e-05,0.00019735774456871807,-0.000419777996783723,0.0,0.0,0.0,0.0,0.0,0.0,0.0,-7.200391669037742e-05,-0.0002953142823409749,-6.272699663112391e-05,-7.729330323247297e-05,1.3513806440657028e-05,-0.0001273985262280064,-7.283939418956109e-06,5.729171658267684e-05,0.0009317527599369522,-0.0002999165565660198,0.000887285661397777,8.348426926414135e-05,-0.00019735774456871807,0.000419777996783723,0.8076412081718445,46.50039291381836,5.687466144561768,-19.487642288208008,-0.7730002999305725,-2.3596224784851074,0.17337362468242645,0
76,0.3750436305999756,-0.8076412081718445,-46.54800033569336,-5.687466144561768,19.459871292114258,0.7546897530555725,2.3596224784851074,-0.17337362468242645,0.0,0.0,0.0,0.0,0.0,0.0,0.0,-0.8097338141998631,-0.1893265527430911,-0.5079582533677753,0.2613399962267048,0.18299637823590834,0.09908373816661827,-0.18827001143727495,0.8781648799871143,0.755757962475498,-0.2824925106953616,-1.6690201196548613,0.14140676328498356,2.4035722150647936,1.027345370761298,0.878092876070424,0.7554597494309409,-0.2825552651693207,-1.6690993614607135,0.1414185955172306,2.4034451173676383,1.0273381002308042,5.385050971066403e-05,0.0006010148532081691,0.000573763705839262,0.00010111263549492085,0.0002797324011236969,0.00020539280058952728,4.949205946417069e-05,0.0,0.0,0.0,0.0,0.0,0.0,0.0,-7.200391669037742e-05,-0.0002982130445571274,-6.27544739591479e-05,-7.924180585217044e-05,1.1832232247044328e-05,-0.00012709769715524288,-7.270530493874716e-06,-5.385050971066403e-05,-0.0006010148532081691,-0.000573763705839262,-0.00010111263549492085,-0.0002797324011236969,-0.00020539280058952728,-4.949205946417069e-05,0.8076412081718445,46.54800033569336,5.687466144561768,-19.459871292114258,-0.7546897530555725,-2.3596224784851074,0.17337362468242645,0
77,0.38004326820373535,-0.8076412081718445,-46.54800033569336,-5.687466144561768,19.459871292114258,0.7546897530555725,2.3596224784851074,-0.17337362468242645,0.0,0.0,0.0,0.0,0.0,0.0,0.0,-0.8097338141998631,-0.1893265527430911,-0.5079582533677753,0.2613399962267048,0.18299637823590834,0.09908373816661827,-0.18827001143727495,0.8781648799871143,0.755757962475498,-0.2824925106953616,-1.6690201196548613,0.14140676328498356,2.4035722150647936,1.027345370761298,0.878092876070424,0.7554597494309409,-0.2825552651693207,-1.6690993614607135,0.1414185955172306,2.4034451173676383,1.0273381002308042,5.385050971066403e-05,0.0006010148532081691,0.000573763705839262,0.00010111263549492085,0.0002797324011236969,0.00020539280058952728,4.949205946417069e-05,0.0,0.0,0.0,0.0,0.0,0.0,0.0,-7.200391669037742e-05,-0.0002982130445571274,-6.27544739591479e-05,-7.924180585217044e-05,1.1832232247044328e-05,-0.00012709769715524288,-7.270530493874716e-06,-5.385050971066403e-05,-0.0006010148532081691,-0.000573763705839262,-0.00010111263549492085,-0.0002797324011236969,-0.00020539280058952728,-4.949205946417069e-05,0.8076412081718445,46.54800033569336,5.687466144561768,-19.459871292114258,-0.7546897530555725,-2.3596224784851074,0.17337362468242645,0
78,0.38506245613098145,-0.7838374972343445,-46.47658920288086,-5.663662433624268,19.459871292114258,0.7665916085243225,2.3660311698913574,-0.22098104655742645,0.0,0.0,0.0,0.0,0.0,0.0,0.0,-0.8220516631745288,-0.183559094409126,-0.5150125410984691,0.2567202804854095,0.1820090994968852,0.09852139342568263,-0.18730915872824017,0.878163209551259,0.7557527691736864,-0.28249418117951336,-1.6690201193157002,0.14140579810508863,2.403571454965082,1.027350660474764,0.878092876070424,0.7554597494309409,-0.2825552651693207,-1.6690993614607135,0.1414185955172306,2.4034451173676383,1.0273381002308042,-0.0007997261221167916,-0.0010176182751300041,-0.000583840812961266,0.00020900033186932782,0.00015215740320235563,2.0062909058355246e-05,0.0013080453085343527,0.0,0.0,0.0,0.0,0.0,0.0,0.0,-7.033348083507196e-05,-0.0002930197427455372,-6.108398980736451e-05,-7.924214501331406e-05,1.2797412141968278e-05,-0.0001263375974436265,-1.2560243959791606e-05,0.0007997261221167916,0.0010176182751300041,0.000583840812961266,-0.00020900033186932782,-0.00015215740320235563,-2.0062909058355246e-05,-0.0013080453085343527,0.7838374972343445,46.47658920288086,5.663662433624268,-19.459871292114258,-0.7665916085243225,-2.3660311698913574,0.22098104655742645,0
79,0.3900430202484131,-0.7838374972343445,-46.47658920288086,-5.663662433624268,19.459871292114258,0.7665916085243225,2.3660311698913574,-0.22098104655742645,0.0,0.0,0.0,0.0,0.0,0.0,0.0,-0.8220516631745288,-0.183559094409126,-0.5150125410984691,0.2567202804854095,0.1820090994968852,0.09852139342568263,-0.18730915872824017,0.878163209551259,0.7557527691736864,-0.28249418117951336,-1.6690201193157002,0.14140579810508863,2.403571454965082,1.027350660474764,0.878092876070424,0.7554597494309409,-0.2825552651693207,-1.6690993614607135,0.1414185955172306,2.4034451173676383,1.0273381002308042,-0.0007997261221167916,-0.0010176182751300041,-0.000583840812961266,0.00020900033186932782,0.00015215740320235563,2.0062909058355246e-05,0.0013080453085343527,0.0,0.0,0.0,0.0,0.0,0.0,0.0,-7.033348083507196e-05,-0.0002930197427455372,-6.108398980736451e-05,-7.924214501331406e-05,1.2797412141968278e-05,-0.0001263375974436265,-1.2560243959791606e-05,0.0007997261221167916,0.0010176182751300041,0.000583840812961266,-0.00020900033186932782,-0.00015215740320235563,-2.0062909058355246e-05,-0.0013080453085343527,0.7838374972343445,46.47658920288086,5.663662433624268,-19.459871292114258,-0.7665916085243225,-2.3660311698913574,0.22098104655742645,0
80,0.39500856399536133,-0.8354122042655945,-46.57577133178711,-5.663662433624268,19.436067581176758,0.7610984444618225,2.3660311698913574,-0.15231649577617645,0.0,0.0,0.0,0.0,0.0,0.0,0.0,-0.8221740211382635,-0.19462074227873546,-0.5176613554143823,0.2641895263945318,0.18255339328511852,0.09988593449967455,-0.187834009551853,0.8781668288289455,0.7557596513100058,-0.2824948993302385,-1.6690184488798443,0.14140718322806956,2.403572632502213,1.0273430310802327,0.878092876070424,0.7554597494309409,-0.2825552651693207,-1.6690993614607135,0.1414185955172306,2.4034451173676383,1.0273381002308042,0.00034318786653099025,0.001526160862835672,-0.0011440798622609734,0.0008881252953356605,0.0002933201707261959,5.498018688364189e-05,-0.0017537183892241026,0.0,0.0,0.0,0.0,0.0,0.0,0.0,-7.395275852151162e-05,-0.00029990187906492327,-6.036583908219928e-05,-8.091258086917463e-05,1.1412289161044642e-05,-0.00012751513457454067,-4.930849428541606e-06,-0.00034318786653099025,-0.001526160862835672,0.0011440798622609734,-0.0008881252953356605,-0.0002933201707261959,-5.498018688364189e-05,0.0017537183892241026,0.8354122042655945,46.57577133178711,5.663662433624268,-19.436067581176758,-0.7610984444618225,-2.3660311698913574,0.15231649577617645,0
