rezayati/contactInterpretation/dataset/franka_main/labeled_data/link4/d1_6.csv
index,time,tau_J0,tau_J1,tau_J2,tau_J3,tau_J4,tau_J5,tau_J6,tau_J_d0,tau_J_d1,tau_J_d2,tau_J_d3,tau_J_d4,tau_J_d5,tau_J_d6,tau_ext0,tau_ext1,tau_ext2,tau_ext3,tau_ext4,tau_ext5,tau_ext6,q0,q1,q2,q3,q4,q5,q6,q_d0,q_d1,q_d2,q_d3,q_d4,q_d5,q_d6,dq0,dq1,dq2,dq3,dq4,dq5,dq6,dq_d0,dq_d1,dq_d2,dq_d3,dq_d4,dq_d5,dq_d6,e0,e1,e2,e3,e4,e5,e6,de0,de1,de2,de3,de4,de5,de6,etau_J0,etau_J1,etau_J2,etau_J3,etau_J4,etau_J5,etau_J6,label
1,0.0,0.13260537385940552,-18.177942276000977,1.1164276599884033,17.999910354614258,0.4928489327430725,2.2488436698913574,-0.17337362468242645,0.0,0.0,0.0,0.0,0.0,0.0,0.0,0.1662437274254889,0.4739501749559246,0.33976024872346017,0.37112016829171146,0.07227290942619125,0.05774304405532104,-0.1840479420152427,-0.6091371250713897,-0.05762364584288509,-0.6665355816138419,-2.5945663551861973,-0.05562321758821932,2.5079752868899594,0.8763153866089941,-0.6090851748156966,-0.05753196718556838,-0.666603097082616,-2.5945565370258534,-0.05562143941554,2.507976027223799,0.8763108487046415,0.00042388752364829065,-0.0007637399023918138,0.0009800490382980917,0.0005556818759939701,0.00012307864461237735,-0.00023270646983420174,-0.0006749253025323672,0.0,0.0,0.0,0.0,0.0,0.0,0.0,5.1950255693156144e-05,9.167865731670582e-05,-6.75154687741486e-05,9.818160343844085e-06,1.77817267932312e-06,7.403338395661763e-07,-4.537904352619471e-06,-0.00042388752364829065,0.0007637399023918138,-0.0009800490382980917,-0.0005556818759939701,-0.00012307864461237735,0.00023270646983420174,0.0006749253025323672,-0.13260537385940552,18.177942276000977,-1.1164276599884033,-17.999910354614258,-0.4928489327430725,-2.2488436698913574,0.17337362468242645,0
2,0.005456686019897461,0.18418008089065552,-18.229516983032227,1.1680023670196533,18.023714065551758,0.4928489327430725,2.2424349784851074,-0.15964071452617645,0.0,0.0,0.0,0.0,0.0,0.0,0.0,0.15533863650478846,0.4889482457870645,0.3297354179551683,0.34144729608031293,0.0720974361352233,0.05394796639288287,-0.18542003778297592,-0.609140744456073,-0.05761924622115078,-0.6665392008915282,-2.594568025622451,-0.055622153037123895,2.5079725860507436,0.8763138961015801,-0.6090851748156966,-0.05753196718556838,-0.666603097082616,-2.5945565370258534,-0.05562143941554,2.507976027223799,0.8763108487046415,-0.0012543549895573784,0.001030367562053852,-0.0014252075047841233,0.0025926091119023963,0.00021005539596057879,-8.872499416657747e-05,-0.0008840393775488062,0.0,0.0,0.0,0.0,0.0,0.0,0.0,5.556964037645162e-05,8.72790355823938e-05,-6.389619108781996e-05,1.1488596597608591e-05,7.136215838948745e-07,3.4411730553962627e-06,-3.0473969385713673e-06,0.0012543549895573784,-0.001030367562053852,0.0014252075047841233,-0.0025926091119023963,-0.00021005539596057879,8.872499416657747e-05,0.0008840393775488062,-0.18418008089065552,18.229516983032227,-1.1680023670196533,-18.023714065551758,-0.4928489327430725,-2.2424349784851074,0.15964071452617645,0
3,0.009954452514648438,0.18418008089065552,-18.229516983032227,1.1680023670196533,18.023714065551758,0.4928489327430725,2.2424349784851074,-0.15964071452617645,0.0,0.0,0.0,0.0,0.0,0.0,0.0,0.15533863650478846,0.4889482457870645,0.3297354179551683,0.34144729608031293,0.0720974361352233,0.05394796639288287,-0.18542003778297592,-0.609140744456073,-0.05761924622115078,-0.6665392008915282,-2.594568025622451,-0.055622153037123895,2.5079725860507436,0.8763138961015801,-0.6090851748156966,-0.05753196718556838,-0.666603097082616,-2.5945565370258534,-0.05562143941554,2.507976027223799,0.8763108487046415,-0.0012543549895573784,0.001030367562053852,-0.0014252075047841233,0.0025926091119023963,0.00021005539596057879,-8.872499416657747e-05,-0.0008840393775488062,0.0,0.0,0.0,0.0,0.0,0.0,0.0,5.556964037645162e-05,8.72790355823938e-05,-6.389619108781996e-05,1.1488596597608591e-05,7.136215838948745e-07,3.4411730553962627e-06,-3.0473969385713673e-06,0.0012543549895573784,-0.001030367562053852,0.0014252075047841233,-0.0025926091119023963,-0.00021005539596057879,8.872499416657747e-05,0.0008840393775488062,-0.18418008089065552,18.229516983032227,-1.1680023670196533,-18.023714065551758,-0.4928489327430725,-2.2424349784851074,0.15964071452617645,0
4,0.014997005462646484,0.18418008089065552,-18.229516983032227,1.1680023670196533,17.948335647583008,0.5047507882118225,2.2232089042663574,-0.15231649577617645,0.0,0.0,0.0,0.0,0.0,0.0,0.0,0.1662412807466744,0.4814233844116361,0.3372780310431136,0.3474456251461098,0.07213308191149996,0.05538656576756111,-0.18545511768175885,-0.6091407444560736,-0.05762236848456465,-0.6665392008545165,-2.5945627359089096,-0.055624421721130635,2.5079793525193375,0.8763099062924089,-0.6090851748156966,-0.05753196718556838,-0.666603097082616,-2.5945565370258534,-0.05562143941554,2.507976027223799,0.8763108487046415,-0.00022417009749185602,0.000858624782247531,-1.4694646780093032e-05,0.0008189786705929551,-0.00034885666808121593,0.0004667380590194218,-0.0013748951973232399,0.0,0.0,0.0,0.0,0.0,0.0,0.0,5.5569640377006735e-05,9.040129899626909e-05,-6.389622809954698e-05,6.198883056196536e-06,2.9823055906347262e-06,-3.3252955384810434e-06,9.424122325851769e-07,0.00022417009749185602,-0.000858624782247531,1.4694646780093032e-05,-0.0008189786705929551,0.00034885666808121593,-0.0004667380590194218,0.0013748951973232399,-0.18418008089065552,18.229516983032227,-1.1680023670196533,-17.948335647583008,-0.5047507882118225,-2.2232089042663574,0.15231649577617645,0
5,0.019997596740722656,0.18418008089065552,-18.229516983032227,1.1680023670196533,17.948335647583008,0.5047507882118225,2.2232089042663574,-0.15231649577617645,0.0,0.0,0.0,0.0,0.0,0.0,0.0,0.1662412807466744,0.4814233844116361,0.3372780310431136,0.3474456251461098,0.07213308191149996,0.05538656576756111,-0.18545511768175885,-0.6091407444560736,-0.05762236848456465,-0.6665392008545165,-2.5945627359089096,-0.055624421721130635,2.5079793525193375,0.8763099062924089,-0.6090851748156966,-0.05753196718556838,-0.666603097082616,-2.5945565370258534,-0.05562143941554,2.507976027223799,0.8763108487046415,-0.00022417009749185602,0.000858624782247531,-1.4694646780093032e-05,0.0008189786705929551,-0.00034885666808121593,0.0004667380590194218,-0.0013748951973232399,0.0,0.0,0.0,0.0,0.0,0.0,0.0,5.5569640377006735e-05,9.040129899626909e-05,-6.389622809954698e-05,6.198883056196536e-06,2.9823055906347262e-06,-3.3252955384810434e-06,9.424122325851769e-07,0.00022417009749185602,-0.000858624782247531,1.4694646780093032e-05,-0.0008189786705929551,0.00034885666808121593,-0.0004667380590194218,0.0013748951973232399,-0.18418008089065552,18.229516983032227,-1.1680023670196533,-17.948335647583008,-0.5047507882118225,-2.2232089042663574,0.15231649577617645,0
6,0.02499699592590332,0.10880166292190552,-18.205713272094727,1.1680023670196533,18.023714065551758,0.4928489327430725,2.2296175956726074,-0.15231649577617645,0.0,0.0,0.0,0.0,0.0,0.0,0.0,0.15275779671144535,0.4628248638903273,0.32338909833804336,0.3756551954868855,0.07397546907167908,0.058748884999650273,-0.18593914804386413,-0.609135454742532,-0.057623331572360305,-0.666539200891528,-2.594568025622451,-0.05562002382608997,2.5079772026921177,0.8763130866424186,-0.6090851748156966,-0.05753196718556838,-0.666603097082616,-2.5945565370258534,-0.05562143941554,2.507976027223799,0.8763108487046415,0.0008247006640255794,1.3814741081492293e-05,-0.000499781523570896,-0.0009593061139529663,0.0001625613772390708,0.0004084828938300354,-0.001370018293163089,0.0,0.0,0.0,0.0,0.0,0.0,0.0,5.0279926835372635e-05,9.136438679192144e-05,-6.389619108804201e-05,1.1488596597608591e-05,-1.4155894500281208e-06,-1.1754683186815384e-06,-2.2379377770942455e-06,-0.0008247006640255794,-1.3814741081492293e-05,0.000499781523570896,0.0009593061139529663,-0.0001625613772390708,-0.0004084828938300354,0.001370018293163089,-0.10880166292190552,18.205713272094727,-1.1680023670196533,-18.023714065551758,-0.4928489327430725,-2.2296175956726074,0.15231649577617645,0
7,0.029995441436767578,0.10880166292190552,-18.205713272094727,1.1680023670196533,18.023714065551758,0.4928489327430725,2.2296175956726074,-0.15231649577617645,0.0,0.0,0.0,0.0,0.0,0.0,0.0,0.15275779671144535,0.4628248638903273,0.32338909833804336,0.3756551954868855,0.07397546907167908,0.058748884999650273,-0.18593914804386413,-0.609135454742532,-0.057623331572360305,-0.666539200891528,-2.594568025622451,-0.05562002382608997,2.5079772026921177,0.8763130866424186,-0.6090851748156966,-0.05753196718556838,-0.666603097082616,-2.5945565370258534,-0.05562143941554,2.507976027223799,0.8763108487046415,0.0008247006640255794,1.3814741081492293e-05,-0.000499781523570896,-0.0009593061139529663,0.0001625613772390708,0.0004084828938300354,-0.001370018293163089,0.0,0.0,0.0,0.0,0.0,0.0,0.0,5.0279926835372635e-05,9.136438679192144e-05,-6.389619108804201e-05,1.1488596597608591e-05,-1.4155894500281208e-06,-1.1754683186815384e-06,-2.2379377770942455e-06,-0.0008247006640255794,-1.3814741081492293e-05,0.000499781523570896,0.0009593061139529663,-0.0001625613772390708,-0.0004084828938300354,0.001370018293163089,-0.10880166292190552,18.205713272094727,-1.1680023670196533,-18.023714065551758,-0.4928489327430725,-2.2296175956726074,0.15231649577617645,0
8,0.03499555587768555,0.10880166292190552,-18.205713272094727,1.1680023670196533,18.023714065551758,0.4928489327430725,2.2296175956726074,-0.15231649577617645,0.0,0.0,0.0,0.0,0.0,0.0,0.0,0.15275779671144535,0.4628248638903273,0.32338909833804336,0.3756551954868855,0.07397546907167908,0.058748884999650273,-0.18593914804386413,-0.609135454742532,-0.057623331572360305,-0.666539200891528,-2.594568025622451,-0.05562002382608997,2.5079772026921177,0.8763130866424186,-0.6090851748156966,-0.05753196718556838,-0.666603097082616,-2.5945565370258534,-0.05562143941554,2.507976027223799,0.8763108487046415,0.0008247006640255794,1.3814741081492293e-05,-0.000499781523570896,-0.0009593061139529663,0.0001625613772390708,0.0004084828938300354,-0.001370018293163089,0.0,0.0,0.0,0.0,0.0,0.0,0.0,5.0279926835372635e-05,9.136438679192144e-05,-6.389619108804201e-05,1.1488596597608591e-05,-1.4155894500281208e-06,-1.1754683186815384e-06,-2.2379377770942455e-06,-0.0008247006640255794,-1.3814741081492293e-05,0.000499781523570896,0.0009593061139529663,-0.0001625613772390708,-0.0004084828938300354,0.001370018293163089,-0.10880166292190552,18.205713272094727,-1.1680023670196533,-18.023714065551758,-0.4928489327430725,-2.2296175956726074,0.15231649577617645,0
9,0.040001630783081055,0.10880166292190552,-18.154138565063477,1.0926239490509033,18.023714065551758,0.5047507882118225,2.2296175956726074,-0.17978231608867645,0.0,0.0,0.0,0.0,0.0,0.0,0.0,0.14987397412759265,0.468066822857477,0.3231123268567011,0.3698990310821114,0.07364303093138408,0.05736281358403358,-0.186877421591788,-0.60913332271137,-0.05762544745039012,-0.6665314828406068,-2.594568025622451,-0.055624382333377125,2.5079738914965413,0.8763161384181842,-0.6090851748156966,-0.05753196718556838,-0.666603097082616,-2.5945565370258534,-0.05562143941554,2.507976027223799,0.8763108487046415,0.00026861426997510344,-0.0007954819350701786,0.0006546439207146654,-0.0010323325000550418,-5.222456426217705e-05,0.0003491861800063492,-0.0009671994321266502,0.0,0.0,0.0,0.0,0.0,0.0,0.0,4.81478956734227e-05,9.348026482173394e-05,-7.161424200918809e-05,1.1488596597608591e-05,2.9429178371245812e-06,2.135727257712716e-06,-5.289713542744323e-06,-0.00026861426997510344,0.0007954819350701786,-0.0006546439207146654,0.0010323325000550418,5.222456426217705e-05,-0.0003491861800063492,0.0009671994321266502,-0.10880166292190552,18.154138565063477,-1.0926239490509033,-18.023714065551758,-0.5047507882118225,-2.2296175956726074,0.17978231608867645,0
10,0.04500293731689453,0.10880166292190552,-18.154138565063477,1.0926239490509033,18.023714065551758,0.5047507882118225,2.2296175956726074,-0.17978231608867645,0.0,0.0,0.0,0.0,0.0,0.0,0.0,0.14987397412759265,0.468066822857477,0.3231123268567011,0.3698990310821114,0.07364303093138408,0.05736281358403358,-0.186877421591788,-0.60913332271137,-0.05762544745039012,-0.6665314828406068,-2.594568025622451,-0.055624382333377125,2.5079738914965413,0.8763161384181842,-0.6090851748156966,-0.05753196718556838,-0.666603097082616,-2.5945565370258534,-0.05562143941554,2.507976027223799,0.8763108487046415,0.00026861426997510344,-0.0007954819350701786,0.0006546439207146654,-0.0010323325000550418,-5.222456426217705e-05,0.0003491861800063492,-0.0009671994321266502,0.0,0.0,0.0,0.0,0.0,0.0,0.0,4.81478956734227e-05,9.348026482173394e-05,-7.161424200918809e-05,1.1488596597608591e-05,2.9429178371245812e-06,2.135727257712716e-06,-5.289713542744323e-06,-0.00026861426997510344,0.0007954819350701786,-0.0006546439207146654,0.0010323325000550418,5.222456426217705e-05,-0.0003491861800063492,0.0009671994321266502,-0.10880166292190552,18.154138565063477,-1.0926239490509033,-18.023714065551758,-0.5047507882118225,-2.2296175956726074,0.17978231608867645,0
11,0.0500035285949707,0.16037636995315552,-18.177942276000977,1.1164276599884033,17.999910354614258,0.4928489327430725,2.2424349784851074,-0.17978231608867645,0.0,0.0,0.0,0.0,0.0,0.0,0.0,0.15435692657751832,0.4687968194045141,0.33089335077982973,0.36896828536397863,0.07319570725596858,0.057145948002176906,-0.1883646823655232,-0.6091390740081829,-0.057625919672352845,-0.6665355816001338,-2.5945663551865956,-0.05562309935195206,2.50797247319224,0.8763161379336676,-0.6090851748156966,-0.05753196718556838,-0.666603097082616,-2.5945565370258534,-0.05562143941554,2.507976027223799,0.8763108487046415,-0.0009120508377689704,-0.000124483597066115,0.0008000887817639777,-0.00016675251109888735,-1.0683310656461895e-06,-6.623281442654947e-06,-0.0010430689753087926,0.0,0.0,0.0,0.0,0.0,0.0,0.0,5.389919248632857e-05,9.395248678446128e-05,-6.751548248218331e-05,9.818160742192106e-06,1.6599364120600812e-06,3.5540315588278304e-06,-5.289229026095299e-06,0.0009120508377689704,0.000124483597066115,-0.0008000887817639777,0.00016675251109888735,1.0683310656461895e-06,6.623281442654947e-06,0.0010430689753087926,-0.16037636995315552,18.177942276000977,-1.1164276599884033,-17.999910354614258,-0.4928489327430725,-2.2424349784851074,0.17978231608867645,0
12,0.05500388145446777,0.16037636995315552,-18.177942276000977,1.1164276599884033,17.999910354614258,0.4928489327430725,2.2424349784851074,-0.17978231608867645,0.0,0.0,0.0,0.0,0.0,0.0,0.0,0.15435692657751832,0.4687968194045141,0.33089335077982973,0.36896828536397863,0.07319570725596858,0.057145948002176906,-0.1883646823655232,-0.6091390740081829,-0.057625919672352845,-0.6665355816001338,-2.5945663551865956,-0.05562309935195206,2.50797247319224,0.8763161379336676,-0.6090851748156966,-0.05753196718556838,-0.666603097082616,-2.5945565370258534,-0.05562143941554,2.507976027223799,0.8763108487046415,-0.0009120508377689704,-0.000124483597066115,0.0008000887817639777,-0.00016675251109888735,-1.0683310656461895e-06,-6.623281442654947e-06,-0.0010430689753087926,0.0,0.0,0.0,0.0,0.0,0.0,0.0,5.389919248632857e-05,9.395248678446128e-05,-6.751548248218331e-05,9.818160742192106e-06,1.6599364120600812e-06,3.5540315588278304e-06,-5.289229026095299e-06,0.0009120508377689704,0.000124483597066115,-0.0008000887817639777,0.00016675251109888735,1.0683310656461895e-06,6.623281442654947e-06,0.0010430689753087926,-0.16037636995315552,18.177942276000977,-1.1164276599884033,-17.999910354614258,-0.4928489327430725,-2.2424349784851074,0.17978231608867645,0
13,0.059999942779541016,0.18418008089065552,-18.205713272094727,1.1164276599884033,18.023714065551758,0.4928489327430725,2.2424349784851074,-0.18710653483867645,0.0,0.0,0.0,0.0,0.0,0.0,0.0,0.14991459152590247,0.4702539927625361,0.3289844226409184,0.3674250894605881,0.0729126881668172,0.05732699746384833,-0.18887486944419743,-0.6091407444560736,-0.057623328035508375,-0.6665355816138417,-2.594568025622451,-0.05562321764163952,2.5079735453740026,0.876316952220265,-0.6090851748156966,-0.05753196718556838,-0.666603097082616,-2.5945565370258534,-0.05562143941554,2.507976027223799,0.8763108487046415,-0.0005959783488620213,0.000551659080253377,0.0008550949960207371,-0.0009462025768369149,0.00016469922538384115,-4.7034643125240946e-05,9.139249086019713e-05,0.0,0.0,0.0,0.0,0.0,0.0,0.0,5.5569640377006735e-05,9.136084993999205e-05,-6.751546877425962e-05,1.1488596597608591e-05,1.7782260995219401e-06,2.4818497963430275e-06,-6.103515623467892e-06,0.0005959783488620213,-0.000551659080253377,-0.0008550949960207371,0.0009462025768369149,-0.00016469922538384115,4.7034643125240946e-05,-9.139249086019713e-05,-0.18418008089065552,18.205713272094727,-1.1164276599884033,-18.023714065551758,-0.4928489327430725,-2.2424349784851074,0.18710653483867645,0
14,0.06499719619750977,0.18418008089065552,-18.205713272094727,1.1164276599884033,18.023714065551758,0.4928489327430725,2.2424349784851074,-0.18710653483867645,0.0,0.0,0.0,0.0,0.0,0.0,0.0,0.14991459152590247,0.4702539927625361,0.3289844226409184,0.3674250894605881,0.0729126881668172,0.05732699746384833,-0.18887486944419743,-0.6091407444560736,-0.057623328035508375,-0.6665355816138417,-2.594568025622451,-0.05562321764163952,2.5079735453740026,0.876316952220265,-0.6090851748156966,-0.05753196718556838,-0.666603097082616,-2.5945565370258534,-0.05562143941554,2.507976027223799,0.8763108487046415,-0.0005959783488620213,0.000551659080253377,0.0008550949960207371,-0.0009462025768369149,0.00016469922538384115,-4.7034643125240946e-05,9.139249086019713e-05,0.0,0.0,0.0,0.0,0.0,0.0,0.0,5.5569640377006735e-05,9.136084993999205e-05,-6.751546877425962e-05,1.1488596597608591e-05,1.7782260995219401e-06,2.4818497963430275e-06,-6.103515623467892e-06,0.0005959783488620213,-0.000551659080253377,-0.0008550949960207371,0.0009462025768369149,-0.00016469922538384115,4.7034643125240946e-05,-9.139249086019713e-05,-0.18418008089065552,18.205713272094727,-1.1164276599884033,-18.023714065551758,-0.4928489327430725,-2.2424349784851074,0.18710653483867645,0
15,0.06999564170837402,0.21195107698440552,-18.205713272094727,1.1918060779571533,17.972139358520508,0.5047507882118225,2.2424349784851074,-0.15964071452617645,0.0,0.0,0.0,0.0,0.0,0.0,0.0,0.15912460100576387,0.47230647569959516,0.3376496087763886,0.36584785921622426,0.07271455342706432,0.057453554901903806,-0.1877924085983879,-0.6091426671905273,-0.05762398635614206,-0.6665408713273835,-2.5945644063447646,-0.05562453990843005,2.507973565783594,0.876313900462455,-0.6090851748156966,-0.05753196718556838,-0.666603097082616,-2.5945565370258534,-0.05562143941554,2.507976027223799,0.8763108487046415,-0.00018150854841590629,0.0006576890240157207,-0.0002183937083679857,0.0004898811536634429,-0.0003850070098515601,-4.896098878982848e-05,-0.0017116669044213023,0.0,0.0,0.0,0.0,0.0,0.0,0.0,5.7492374830769855e-05,9.201917057367892e-05,-6.22257552325145e-05,7.869318911168932e-06,3.1004928900471573e-06,2.4614402049927264e-06,-3.051757813565814e-06,0.00018150854841590629,-0.0006576890240157207,0.0002183937083679857,-0.0004898811536634429,0.0003850070098515601,4.896098878982848e-05,0.0017116669044213023,-0.21195107698440552,18.205713272094727,-1.1918060779571533,-17.972139358520508,-0.5047507882118225,-2.2424349784851074,0.15964071452617645,0
16,0.0751347541809082,0.21195107698440552,-18.205713272094727,1.1918060779571533,17.972139358520508,0.5047507882118225,2.2424349784851074,-0.15964071452617645,0.0,0.0,0.0,0.0,0.0,0.0,0.0,0.15912460100576387,0.47230647569959516,0.3376496087763886,0.36584785921622426,0.07271455342706432,0.057453554901903806,-0.1877924085983879,-0.6091426671905273,-0.05762398635614206,-0.6665408713273835,-2.5945644063447646,-0.05562453990843005,2.507973565783594,0.876313900462455,-0.6090851748156966,-0.05753196718556838,-0.666603097082616,-2.5945565370258534,-0.05562143941554,2.507976027223799,0.8763108487046415,-0.00018150854841590629,0.0006576890240157207,-0.0002183937083679857,0.0004898811536634429,-0.0003850070098515601,-4.896098878982848e-05,-0.0017116669044213023,0.0,0.0,0.0,0.0,0.0,0.0,0.0,5.7492374830769855e-05,9.201917057367892e-05,-6.22257552325145e-05,7.869318911168932e-06,3.1004928900471573e-06,2.4614402049927264e-06,-3.051757813565814e-06,0.00018150854841590629,-0.0006576890240157207,0.0002183937083679857,-0.0004898811536634429,0.0003850070098515601,4.896098878982848e-05,0.0017116669044213023,-0.21195107698440552,18.205713272094727,-1.1918060779571533,-17.972139358520508,-0.5047507882118225,-2.2424349784851074,0.15964071452617645,0
17,0.07999825477600098,0.18418008089065552,-18.205713272094727,1.1918060779571533,17.948335647583008,0.5047507882118225,2.2488436698913574,-0.17337362468242645,0.0,0.0,0.0,0.0,0.0,0.0,0.0,0.15868936351216942,0.47511657862922796,0.334382200025843,0.36421621340688826,0.07332059954435113,0.05728996258689942,-0.1879879184102474,-0.6091407444559263,-0.05762309221094799,-0.6665408713273835,-2.5945627359089096,-0.05562453985434159,2.5079718070968737,0.8763153870416696,-0.6090851748156966,-0.05753196718556838,-0.666603097082616,-2.5945565370258534,-0.05562143941554,2.507976027223799,0.8763108487046415,0.000260952923375734,0.00102183727884527,-0.00029898391261695684,0.000939330240280336,-0.0001346455333642925,-0.0003497006251096071,-0.001142442777550769,0.0,0.0,0.0,0.0,0.0,0.0,0.0,5.556964022968014e-05,9.11250253796056e-05,-6.22257552325145e-05,6.198883056196536e-06,3.100438801591221e-06,4.220126925247314e-06,-4.538337028070494e-06,-0.000260952923375734,-0.00102183727884527,0.00029898391261695684,-0.000939330240280336,0.0001346455333642925,0.0003497006251096071,0.001142442777550769,-0.18418008089065552,18.205713272094727,-1.1918060779571533,-17.948335647583008,-0.5047507882118225,-2.2488436698913574,0.17337362468242645,0
18,0.08499336242675781,0.18418008089065552,-18.205713272094727,1.1918060779571533,17.948335647583008,0.5047507882118225,2.2488436698913574,-0.17337362468242645,0.0,0.0,0.0,0.0,0.0,0.0,0.0,0.15868936351216942,0.47511657862922796,0.334382200025843,0.36421621340688826,0.07332059954435113,0.05728996258689942,-0.1879879184102474,-0.6091407444559263,-0.05762309221094799,-0.6665408713273835,-2.5945627359089096,-0.05562453985434159,2.5079718070968737,0.8763153870416696,-0.6090851748156966,-0.05753196718556838,-0.666603097082616,-2.5945565370258534,-0.05562143941554,2.507976027223799,0.8763108487046415,0.000260952923375734,0.00102183727884527,-0.00029898391261695684,0.000939330240280336,-0.0001346455333642925,-0.0003497006251096071,-0.001142442777550769,0.0,0.0,0.0,0.0,0.0,0.0,0.0,5.556964022968014e-05,9.11250253796056e-05,-6.22257552325145e-05,6.198883056196536e-06,3.100438801591221e-06,4.220126925247314e-06,-4.538337028070494e-06,-0.000260952923375734,-0.00102183727884527,0.00029898391261695684,-0.000939330240280336,0.0001346455333642925,0.0003497006251096071,0.001142442777550769,-0.18418008089065552,18.205713272094727,-1.1918060779571533,-17.948335647583008,-0.5047507882118225,-2.2488436698913574,0.17337362468242645,0
19,0.08999347686767578,0.16037636995315552,-18.177942276000977,1.1441986560821533,18.071321487426758,0.4864402413368225,2.2488436698913574,-0.16604940593242645,0.0,0.0,0.0,0.0,0.0,0.0,0.0,0.15673776459660974,0.47170030930968815,0.3311174756135387,0.36739036563654237,0.07453331478984217,0.057974716218971524,-0.18742361398299917,-0.6091390740202183,-0.0576256715854631,-0.6665368016213538,-2.5945716137430583,-0.05562237397048185,2.5079722271669866,0.8763146125390562,-0.6090851748156966,-0.05753196718556838,-0.666603097082616,-2.5945565370258534,-0.05562143941554,2.507976027223799,0.8763108487046415,7.592700762625522e-05,-0.00015789838362489605,5.7129001998488555e-05,-0.001970043057079023,0.0004516122342353334,-0.00017597728906975033,-0.0011241175672007631,0.0,0.0,0.0,0.0,0.0,0.0,0.0,5.389920452170127e-05,9.370439989471457e-05,-6.629546126224461e-05,1.5076717204909329e-05,9.345549418504628e-07,3.8000568123308653e-06,-3.7638344146939673e-06,-7.592700762625522e-05,0.00015789838362489605,-5.7129001998488555e-05,0.001970043057079023,-0.0004516122342353334,0.00017597728906975033,0.0011241175672007631,-0.16037636995315552,18.177942276000977,-1.1441986560821533,-18.071321487426758,-0.4864402413368225,-2.2488436698913574,0.16604940593242645,0
20,0.09499526023864746,0.16037636995315552,-18.177942276000977,1.1441986560821533,18.071321487426758,0.4864402413368225,2.2488436698913574,-0.16604940593242645,0.0,0.0,0.0,0.0,0.0,0.0,0.0,0.15673776459660974,0.47170030930968815,0.3311174756135387,0.36739036563654237,0.07453331478984217,0.057974716218971524,-0.18742361398299917,-0.6091390740202183,-0.0576256715854631,-0.6665368016213538,-2.5945716137430583,-0.05562237397048185,2.5079722271669866,0.8763146125390562,-0.6090851748156966,-0.05753196718556838,-0.666603097082616,-2.5945565370258534,-0.05562143941554,2.507976027223799,0.8763108487046415,7.592700762625522e-05,-0.00015789838362489605,5.7129001998488555e-05,-0.001970043057079023,0.0004516122342353334,-0.00017597728906975033,-0.0011241175672007631,0.0,0.0,0.0,0.0,0.0,0.0,0.0,5.389920452170127e-05,9.370439989471457e-05,-6.629546126224461e-05,1.5076717204909329e-05,9.345549418504628e-07,3.8000568123308653e-06,-3.7638344146939673e-06,-7.592700762625522e-05,0.00015789838362489605,-5.7129001998488555e-05,0.001970043057079023,-0.0004516122342353334,0.00017597728906975033,0.0011241175672007631,-0.16037636995315552,18.177942276000977,-1.1441986560821533,-18.071321487426758,-0.4864402413368225,-2.2488436698913574,0.16604940593242645,0
21,0.09999918937683105,0.13260537385940552,-18.177942276000977,1.1441986560821533,18.023714065551758,0.4983420968055725,2.2424349784851074,-0.20083944499492645,0.0,0.0,0.0,0.0,0.0,0.0,0.0,0.15575242394015557,0.47463030503389675,0.3311387924941426,0.3638444659432258,0.07414620660109013,0.05772941585457748,-0.18704317917542665,-0.6091371250713897,-0.0576253028581497,-0.6665375301184534,-2.594568025623847,-0.05562057722339095,2.507976879982403,0.8763184780991738,-0.6090851748156966,-0.05753196718556838,-0.666603097082616,-2.5945565370258534,-0.05562143941554,2.507976027223799,0.8763108487046415,-0.00047218306745990636,-0.00044749945365694254,-0.0005371302878135087,-0.0006894557625010145,7.806198221695474e-05,0.00021495265225970374,0.00031184820086141917,0.0,0.0,0.0,0.0,0.0,0.0,0.0,5.1950255693156144e-05,9.333567258131698e-05,-6.55669641626e-05,1.1488597993380978e-05,-8.621921490509221e-07,-8.527586041751078e-07,-7.629394532360223e-06,0.00047218306745990636,0.00044749945365694254,0.0005371302878135087,0.0006894557625010145,-7.806198221695474e-05,-0.00021495265225970374,-0.00031184820086141917,-0.13260537385940552,18.177942276000977,-1.1441986560821533,-18.023714065551758,-0.4983420968055725,-2.2424349784851074,0.20083944499492645,0
22,0.10500144958496094,0.13260537385940552,-18.177942276000977,1.1441986560821533,18.023714065551758,0.4983420968055725,2.2424349784851074,-0.20083944499492645,0.0,0.0,0.0,0.0,0.0,0.0,0.0,0.15575242394015557,0.47463030503389675,0.3311387924941426,0.3638444659432258,0.07414620660109013,0.05772941585457748,-0.18704317917542665,-0.6091371250713897,-0.0576253028581497,-0.6665375301184534,-2.594568025623847,-0.05562057722339095,2.507976879982403,0.8763184780991738,-0.6090851748156966,-0.05753196718556838,-0.666603097082616,-2.5945565370258534,-0.05562143941554,2.507976027223799,0.8763108487046415,-0.00047218306745990636,-0.00044749945365694254,-0.0005371302878135087,-0.0006894557625010145,7.806198221695474e-05,0.00021495265225970374,0.00031184820086141917,0.0,0.0,0.0,0.0,0.0,0.0,0.0,5.1950255693156144e-05,9.333567258131698e-05,-6.55669641626e-05,1.1488597993380978e-05,-8.621921490509221e-07,-8.527586041751078e-07,-7.629394532360223e-06,0.00047218306745990636,0.00044749945365694254,0.0005371302878135087,0.0006894557625010145,-7.806198221695474e-05,-0.00021495265225970374,-0.00031184820086141917,-0.13260537385940552,18.177942276000977,-1.1441986560821533,-18.023714065551758,-0.4983420968055725,-2.2424349784851074,0.20083944499492645,0
23,0.11001968383789062,0.13260537385940552,-18.229516983032227,1.1164276599884033,17.999910354614258,0.5102439522743225,2.2424349784851074,-0.17337362468242645,0.0,0.0,0.0,0.0,0.0,0.0,0.0,0.15143264820381985,0.4720000751281372,0.32922206447546687,0.3622744919229971,0.07389038084261529,0.058530514591517147,-0.18800832526332956,-0.6091371251783866,-0.05761953946862096,-0.66653558161384,-2.594566355186596,-0.0556240813635426,2.507972484361035,0.8763154263413614,-0.6090851748156966,-0.05753196718556838,-0.666603097082616,-2.5945565370258534,-0.05562143941554,2.507976027223799,0.8763108487046415,-0.00032013607821834245,0.00030331775375165706,-0.00018012412358104984,-0.00033575362699013196,-0.0004743775888001496,-0.00017202594544799682,-0.000621019065942294,0.0,0.0,0.0,0.0,0.0,0.0,0.0,5.1950362690011964e-05,8.757228305257547e-05,-6.751546877603598e-05,9.818160742636195e-06,2.641948002597705e-06,3.5428627640499144e-06,-4.577636719904632e-06,0.00032013607821834245,-0.00030331775375165706,0.00018012412358104984,0.00033575362699013196,0.0004743775888001496,0.00017202594544799682,0.000621019065942294,-0.13260537385940552,18.229516983032227,-1.1164276599884033,-17.999910354614258,-0.5102439522743225,-2.2424349784851074,0.17337362468242645,0
24,0.11500239372253418,0.13260537385940552,-18.229516983032227,1.1164276599884033,17.999910354614258,0.5102439522743225,2.2424349784851074,-0.17337362468242645,0.0,0.0,0.0,0.0,0.0,0.0,0.0,0.15143264820381985,0.4720000751281372,0.32922206447546687,0.3622744919229971,0.07389038084261529,0.058530514591517147,-0.18800832526332956,-0.6091371251783866,-0.05761953946862096,-0.66653558161384,-2.594566355186596,-0.0556240813635426,2.507972484361035,0.8763154263413614,-0.6090851748156966,-0.05753196718556838,-0.666603097082616,-2.5945565370258534,-0.05562143941554,2.507976027223799,0.8763108487046415,-0.00032013607821834245,0.00030331775375165706,-0.00018012412358104984,-0.00033575362699013196,-0.0004743775888001496,-0.00017202594544799682,-0.000621019065942294,0.0,0.0,0.0,0.0,0.0,0.0,0.0,5.1950362690011964e-05,8.757228305257547e-05,-6.751546877603598e-05,9.818160742636195e-06,2.641948002597705e-06,3.5428627640499144e-06,-4.577636719904632e-06,0.00032013607821834245,-0.00030331775375165706,0.00018012412358104984,0.00033575362699013196,0.0004743775888001496,0.00017202594544799682,0.000621019065942294,-0.13260537385940552,18.229516983032227,-1.1164276599884033,-17.999910354614258,-0.5102439522743225,-2.2424349784851074,0.17337362468242645,0
25,0.12000679969787598,0.21195107698440552,-18.154138565063477,1.1164276599884033,17.972139358520508,0.4928489327430725,2.2296175956726074,-0.14590780436992645,0.0,0.0,0.0,0.0,0.0,0.0,0.0,0.15562601858421474,0.4787759547855773,0.33201495080483767,0.3589742956222944,0.07374799010308013,0.057746236452193914,-0.18883598669203458,-0.6091426932979047,-0.05762482483969061,-0.6665355812437249,-2.594564406344765,-0.05562321320109357,2.5079749637135103,0.8763123745835488,-0.6090851748156966,-0.05753196718556838,-0.666603097082616,-2.5945565370258534,-0.05562143941554,2.507976027223799,0.8763108487046415,-0.0010514258291055053,-0.0004170467123304271,7.773021769408101e-05,0.000640137358153445,0.00028869935073320583,0.0004304700382011103,-0.001708618103429037,0.0,0.0,0.0,0.0,0.0,0.0,0.0,5.751848220814093e-05,9.285765412222341e-05,-6.75158388910857e-05,7.869318911613021e-06,1.7737855535701619e-06,1.0635102887235348e-06,-1.5258789073380186e-06,0.0010514258291055053,0.0004170467123304271,-7.773021769408101e-05,-0.000640137358153445,-0.00028869935073320583,-0.0004304700382011103,0.001708618103429037,-0.21195107698440552,18.154138565063477,-1.1164276599884033,-17.972139358520508,-0.4928489327430725,-2.2296175956726074,0.14590780436992645,0
26,0.1250009536743164,0.21195107698440552,-18.154138565063477,1.1164276599884033,17.972139358520508,0.4928489327430725,2.2296175956726074,-0.14590780436992645,0.0,0.0,0.0,0.0,0.0,0.0,0.0,0.15562601858421474,0.4787759547855773,0.33201495080483767,0.3589742956222944,0.07374799010308013,0.057746236452193914,-0.18883598669203458,-0.6091426932979047,-0.05762482483969061,-0.6665355812437249,-2.594564406344765,-0.05562321320109357,2.5079749637135103,0.8763123745835488,-0.6090851748156966,-0.05753196718556838,-0.666603097082616,-2.5945565370258534,-0.05562143941554,2.507976027223799,0.8763108487046415,-0.0010514258291055053,-0.0004170467123304271,7.773021769408101e-05,0.000640137358153445,0.00028869935073320583,0.0004304700382011103,-0.001708618103429037,0.0,0.0,0.0,0.0,0.0,0.0,0.0,5.751848220814093e-05,9.285765412222341e-05,-6.75158388910857e-05,7.869318911613021e-06,1.7737855535701619e-06,1.0635102887235348e-06,-1.5258789073380186e-06,0.0010514258291055053,0.0004170467123304271,-7.773021769408101e-05,-0.000640137358153445,-0.00028869935073320583,-0.0004304700382011103,0.001708618103429037,-0.21195107698440552,18.154138565063477,-1.1164276599884033,-17.972139358520508,-0.4928489327430725,-2.2296175956726074,0.14590780436992645,0
27,0.13000011444091797,0.21195107698440552,-18.154138565063477,1.1164276599884033,17.972139358520508,0.4928489327430725,2.2296175956726074,-0.14590780436992645,0.0,0.0,0.0,0.0,0.0,0.0,0.0,0.15562601858421474,0.4787759547855773,0.33201495080483767,0.3589742956222944,0.07374799010308013,0.057746236452193914,-0.18883598669203458,-0.6091426932979047,-0.05762482483969061,-0.6665355812437249,-2.594564406344765,-0.05562321320109357,2.5079749637135103,0.8763123745835488,-0.6090851748156966,-0.05753196718556838,-0.666603097082616,-2.5945565370258534,-0.05562143941554,2.507976027223799,0.8763108487046415,-0.0010514258291055053,-0.0004170467123304271,7.773021769408101e-05,0.000640137358153445,0.00028869935073320583,0.0004304700382011103,-0.001708618103429037,0.0,0.0,0.0,0.0,0.0,0.0,0.0,5.751848220814093e-05,9.285765412222341e-05,-6.75158388910857e-05,7.869318911613021e-06,1.7737855535701619e-06,1.0635102887235348e-06,-1.5258789073380186e-06,0.0010514258291055053,0.0004170467123304271,-7.773021769408101e-05,-0.000640137358153445,-0.00028869935073320583,-0.0004304700382011103,0.001708618103429037,-0.21195107698440552,18.154138565063477,-1.1164276599884033,-17.972139358520508,-0.4928489327430725,-2.2296175956726074,0.14590780436992645,0
28,0.13500118255615234,0.21195107698440552,-18.154138565063477,1.1164276599884033,17.972139358520508,0.4928489327430725,2.2296175956726074,-0.14590780436992645,0.0,0.0,0.0,0.0,0.0,0.0,0.0,0.15562601858421474,0.4787759547855773,0.33201495080483767,0.3589742956222944,0.07374799010308013,0.057746236452193914,-0.18883598669203458,-0.6091426932979047,-0.05762482483969061,-0.6665355812437249,-2.594564406344765,-0.05562321320109357,2.5079749637135103,0.8763123745835488,-0.6090851748156966,-0.05753196718556838,-0.666603097082616,-2.5945565370258534,-0.05562143941554,2.507976027223799,0.8763108487046415,-0.0010514258291055053,-0.0004170467123304271,7.773021769408101e-05,0.000640137358153445,0.00028869935073320583,0.0004304700382011103,-0.001708618103429037,0.0,0.0,0.0,0.0,0.0,0.0,0.0,5.751848220814093e-05,9.285765412222341e-05,-6.75158388910857e-05,7.869318911613021e-06,1.7737855535701619e-06,1.0635102887235348e-06,-1.5258789073380186e-06,0.0010514258291055053,0.0004170467123304271,-7.773021769408101e-05,-0.000640137358153445,-0.00028869935073320583,-0.0004304700382011103,0.001708618103429037,-0.21195107698440552,18.154138565063477,-1.1164276599884033,-17.972139358520508,-0.4928489327430725,-2.2296175956726074,0.14590780436992645,0
29,0.13999724388122559,0.18418008089065552,-18.205713272094727,1.1918060779571533,17.999910354614258,0.4983420968055725,2.2488436698913574,-0.15231649577617645,0.0,0.0,0.0,0.0,0.0,0.0,0.0,0.15603544931686203,0.47496858821725024,0.32631081398450473,0.36255134467375266,0.07400201367621645,0.057485010716476284,-0.1877498402205531,-0.6091406664549336,-0.057623801329168986,-0.6665408713273814,-2.594566355186596,-0.055623827507056786,2.507976010764037,0.876312733447662,-0.6090851748156966,-0.05753196718556838,-0.666603097082616,-2.5945565370258534,-0.05562143941554,2.507976027223799,0.8763108487046415,-1.5477938271675284e-05,0.0007349840062986909,-0.0008940043155469863,-0.00017774286145807975,-0.0002407847051504804,-0.0004688970734009841,-0.000819186191923467,0.0,0.0,0.0,0.0,0.0,0.0,0.0,5.549163923701528e-05,9.18341436006026e-05,-6.222575523462393e-05,9.818160742636195e-06,2.388091516786206e-06,1.6459761997822397e-08,-1.884743020541535e-06,1.5477938271675284e-05,-0.0007349840062986909,0.0008940043155469863,0.00017774286145807975,0.0002407847051504804,0.0004688970734009841,0.000819186191923467,-0.18418008089065552,18.205713272094727,-1.1918060779571533,-17.999910354614258,-0.4983420968055725,-2.2488436698913574,0.15231649577617645,0
30,0.14499688148498535,0.18418008089065552,-18.205713272094727,1.1918060779571533,17.999910354614258,0.4983420968055725,2.2488436698913574,-0.15231649577617645,0.0,0.0,0.0,0.0,0.0,0.0,0.0,0.15603544931686203,0.47496858821725024,0.32631081398450473,0.36255134467375266,0.07400201367621645,0.057485010716476284,-0.1877498402205531,-0.6091406664549336,-0.057623801329168986,-0.6665408713273814,-2.594566355186596,-0.055623827507056786,2.507976010764037,0.876312733447662,-0.6090851748156966,-0.05753196718556838,-0.666603097082616,-2.5945565370258534,-0.05562143941554,2.507976027223799,0.8763108487046415,-1.5477938271675284e-05,0.0007349840062986909,-0.0008940043155469863,-0.00017774286145807975,-0.0002407847051504804,-0.0004688970734009841,-0.000819186191923467,0.0,0.0,0.0,0.0,0.0,0.0,0.0,5.549163923701528e-05,9.18341436006026e-05,-6.222575523462393e-05,9.818160742636195e-06,2.388091516786206e-06,1.6459761997822397e-08,-1.884743020541535e-06,1.5477938271675284e-05,-0.0007349840062986909,0.0008940043155469863,0.00017774286145807975,0.0002407847051504804,0.0004688970734009841,0.000819186191923467,-0.18418008089065552,18.205713272094727,-1.1918060779571533,-17.999910354614258,-0.4983420968055725,-2.2488436698913574,0.15231649577617645,0
31,0.1499946117401123,0.16037636995315552,-18.177942276000977,1.1918060779571533,17.999910354614258,0.4983420968055725,2.2360262870788574,-0.17978231608867645,0.0,0.0,0.0,0.0,0.0,0.0,0.0,0.15458420490682884,0.4771946252322383,0.3221208322393489,0.3610690860497103,0.07377769656685595,0.05662844993575272,-0.18738892244678823,-0.609139074019778,-0.05762498724690676,-0.6665408709942783,-2.594566355186596,-0.05562369656112837,2.50797671106763,0.8763161384161904,-0.6090851748156966,-0.05753196718556838,-0.666603097082616,-2.5945565370258534,-0.05562143941554,2.507976027223799,0.8763108487046415,0.00029945319819886355,0.0001202040519924066,-0.0011257087070300931,-0.00019899646637757876,9.688288580833613e-05,0.00027218319396389833,-0.0005412647264008193,0.0,0.0,0.0,0.0,0.0,0.0,0.0,5.389920408138682e-05,9.302006133837804e-05,-6.222608833772458e-05,9.818160742636195e-06,2.257145588373255e-06,-6.838438308953698e-07,-5.289711548894793e-06,-0.00029945319819886355,-0.0001202040519924066,0.0011257087070300931,0.00019899646637757876,-9.688288580833613e-05,-0.00027218319396389833,0.0005412647264008193,-0.16037636995315552,18.177942276000977,-1.1918060779571533,-17.999910354614258,-0.4983420968055725,-2.2360262870788574,0.17978231608867645,0
32,0.1550884246826172,0.16037636995315552,-18.177942276000977,1.1918060779571533,17.999910354614258,0.4983420968055725,2.2360262870788574,-0.17978231608867645,0.0,0.0,0.0,0.0,0.0,0.0,0.0,0.15458420490682884,0.4771946252322383,0.3221208322393489,0.3610690860497103,0.07377769656685595,0.05662844993575272,-0.18738892244678823,-0.609139074019778,-0.05762498724690676,-0.6665408709942783,-2.594566355186596,-0.05562369656112837,2.50797671106763,0.8763161384161904,-0.6090851748156966,-0.05753196718556838,-0.666603097082616,-2.5945565370258534,-0.05562143941554,2.507976027223799,0.8763108487046415,0.00029945319819886355,0.0001202040519924066,-0.0011257087070300931,-0.00019899646637757876,9.688288580833613e-05,0.00027218319396389833,-0.0005412647264008193,0.0,0.0,0.0,0.0,0.0,0.0,0.0,5.389920408138682e-05,9.302006133837804e-05,-6.222608833772458e-05,9.818160742636195e-06,2.257145588373255e-06,-6.838438308953698e-07,-5.289711548894793e-06,-0.00029945319819886355,-0.0001202040519924066,0.0011257087070300931,0.00019899646637757876,-9.688288580833613e-05,-0.00027218319396389833,0.0005412647264008193,-0.16037636995315552,18.177942276000977,-1.1918060779571533,-17.999910354614258,-0.4983420968055725,-2.2360262870788574,0.17978231608867645,0
33,0.15999794006347656,0.16037636995315552,-18.154138565063477,1.1680023670196533,17.972139358520508,0.4928489327430725,2.2488436698913574,-0.22098104655742645,0.0,0.0,0.0,0.0,0.0,0.0,0.0,0.15798823985472438,0.47676562373217674,0.3224233543960164,0.3625496291083451,0.07386943814281792,0.056639045900080204,-0.18669299923727148,-0.609139065353425,-0.05762458234937983,-0.6665392008915263,-2.594564406344765,-0.05562309497100926,2.5079721474028727,0.8763207029729508,-0.6090851748156966,-0.05753196718556838,-0.666603097082616,-2.5945565370258534,-0.05562143941554,2.507976027223799,0.8763108487046415,8.062488641371113e-05,-0.0005951305656063431,-0.0005792936705002966,0.0005353691412674711,0.00021809398661569473,-0.00017958055758724546,0.0013378719952815662,0.0,0.0,0.0,0.0,0.0,0.0,0.0,5.389053772841823e-05,9.26151638114478e-05,-6.389619108970734e-05,7.869318911613021e-06,1.6555554692571084e-06,3.879820926311339e-06,-9.854268309350545e-06,-8.062488641371113e-05,0.0005951305656063431,0.0005792936705002966,-0.0005353691412674711,-0.00021809398661569473,0.00017958055758724546,-0.0013378719952815662,-0.16037636995315552,18.154138565063477,-1.1680023670196533,-17.972139358520508,-0.4928489327430725,-2.2488436698913574,0.22098104655742645,0
34,0.16499614715576172,0.16037636995315552,-18.154138565063477,1.1680023670196533,17.972139358520508,0.4928489327430725,2.2488436698913574,-0.22098104655742645,0.0,0.0,0.0,0.0,0.0,0.0,0.0,0.15798823985472438,0.47676562373217674,0.3224233543960164,0.3625496291083451,0.07386943814281792,0.056639045900080204,-0.18669299923727148,-0.609139065353425,-0.05762458234937983,-0.6665392008915263,-2.594564406344765,-0.05562309497100926,2.5079721474028727,0.8763207029729508,-0.6090851748156966,-0.05753196718556838,-0.666603097082616,-2.5945565370258534,-0.05562143941554,2.507976027223799,0.8763108487046415,8.062488641371113e-05,-0.0005951305656063431,-0.0005792936705002966,0.0005353691412674711,0.00021809398661569473,-0.00017958055758724546,0.0013378719952815662,0.0,0.0,0.0,0.0,0.0,0.0,0.0,5.389053772841823e-05,9.26151638114478e-05,-6.389619108970734e-05,7.869318911613021e-06,1.6555554692571084e-06,3.879820926311339e-06,-9.854268309350545e-06,-8.062488641371113e-05,0.0005951305656063431,0.0005792936705002966,-0.0005353691412674711,-0.00021809398661569473,0.00017958055758724546,-0.0013378719952815662,-0.16037636995315552,18.154138565063477,-1.1680023670196533,-17.972139358520508,-0.4928489327430725,-2.2488436698913574,0.22098104655742645,0
35,0.1699965000152588,0.21195107698440552,-18.177942276000977,1.1164276599884033,17.972139358520508,0.4928489327430725,2.2424349784851074,-0.21457235515117645,0.0,0.0,0.0,0.0,0.0,0.0,0.0,0.16541986804404687,0.47684189998443416,0.32835439123432286,0.3624103023322533,0.07341321834093609,0.056934252879616024,-0.186287850239606,-0.6091426932977579,-0.057623068012516945,-0.6665355816138419,-2.594564406344765,-0.05562321764022983,2.507972597665856,0.8763200039778586,-0.6090851748156966,-0.05753196718556838,-0.666603097082616,-2.5945565370258534,-0.05562143941554,2.507976027223799,0.8763108487046415,-0.0010316445911172877,-0.0005666373691486482,0.001034567103435836,0.0004426618315524007,0.0001243109004739477,0.00011112149659639018,0.0015994952362346244,0.0,0.0,0.0,0.0,0.0,0.0,0.0,5.751848206136945e-05,9.110082694856192e-05,-6.75154687741486e-05,7.869318911613021e-06,1.7782246898301324e-06,3.4295579429688416e-06,-9.155273217098525e-06,0.0010316445911172877,0.0005666373691486482,-0.001034567103435836,-0.0004426618315524007,-0.0001243109004739477,-0.00011112149659639018,-0.0015994952362346244,-0.21195107698440552,18.177942276000977,-1.1164276599884033,-17.972139358520508,-0.4928489327430725,-2.2424349784851074,0.21457235515117645,0
36,0.1750013828277588,0.21195107698440552,-18.177942276000977,1.1164276599884033,17.972139358520508,0.4928489327430725,2.2424349784851074,-0.21457235515117645,0.0,0.0,0.0,0.0,0.0,0.0,0.0,0.16541986804404687,0.47684189998443416,0.32835439123432286,0.3624103023322533,0.07341321834093609,0.056934252879616024,-0.186287850239606,-0.6091426932977579,-0.057623068012516945,-0.6665355816138419,-2.594564406344765,-0.05562321764022983,2.507972597665856,0.8763200039778586,-0.6090851748156966,-0.05753196718556838,-0.666603097082616,-2.5945565370258534,-0.05562143941554,2.507976027223799,0.8763108487046415,-0.0010316445911172877,-0.0005666373691486482,0.001034567103435836,0.0004426618315524007,0.0001243109004739477,0.00011112149659639018,0.0015994952362346244,0.0,0.0,0.0,0.0,0.0,0.0,0.0,5.751848206136945e-05,9.110082694856192e-05,-6.75154687741486e-05,7.869318911613021e-06,1.7782246898301324e-06,3.4295579429688416e-06,-9.155273217098525e-06,0.0010316445911172877,0.0005666373691486482,-0.001034567103435836,-0.0004426618315524007,-0.0001243109004739477,-0.00011112149659639018,-0.0015994952362346244,-0.21195107698440552,18.177942276000977,-1.1164276599884033,-17.972139358520508,-0.4928489327430725,-2.2424349784851074,0.21457235515117645,0
37,0.18000006675720215,0.13260537385940552,-18.154138565063477,1.1680023670196533,17.999910354614258,0.5047507882118225,2.2424349784851074,-0.21457235515117645,0.0,0.0,0.0,0.0,0.0,0.0,0.0,0.1670240599597647,0.47611535319486453,0.3297979138665921,0.3623201883556971,0.0733877685214589,0.057114571973938634,-0.18559232507452858,-0.6091371251783871,-0.057626740809799314,-0.6665392008545165,-2.5945663555257577,-0.05562453861032893,2.5079728638206533,0.8763199994559238,-0.6090851748156966,-0.05753196718556838,-0.666603097082616,-2.5945565370258534,-0.05562143941554,2.507976027223799,0.8763108487046415,0.0011892330630261052,-0.0010907179800927957,-0.0001584785786110642,-0.00015542248074211626,-0.00010962081749068093,-6.69866121068581e-05,0.0015351219420540537,0.0,0.0,0.0,0.0,0.0,0.0,0.0,5.1950362690567076e-05,9.477362423093022e-05,-6.389622809954698e-05,9.818499904223899e-06,3.0991947889275062e-06,3.1634031456562184e-06,-9.15075128227194e-06,-0.0011892330630261052,0.0010907179800927957,0.0001584785786110642,0.00015542248074211626,0.00010962081749068093,6.69866121068581e-05,-0.0015351219420540537,-0.13260537385940552,18.154138565063477,-1.1680023670196533,-17.999910354614258,-0.5047507882118225,-2.2424349784851074,0.21457235515117645,0
38,0.18500280380249023,0.13260537385940552,-18.154138565063477,1.1680023670196533,17.999910354614258,0.5047507882118225,2.2424349784851074,-0.21457235515117645,0.0,0.0,0.0,0.0,0.0,0.0,0.0,0.1670240599597647,0.47611535319486453,0.3297979138665921,0.3623201883556971,0.0733877685214589,0.057114571973938634,-0.18559232507452858,-0.6091371251783871,-0.057626740809799314,-0.6665392008545165,-2.5945663555257577,-0.05562453861032893,2.5079728638206533,0.8763199994559238,-0.6090851748156966,-0.05753196718556838,-0.666603097082616,-2.5945565370258534,-0.05562143941554,2.507976027223799,0.8763108487046415,0.0011892330630261052,-0.0010907179800927957,-0.0001584785786110642,-0.00015542248074211626,-0.00010962081749068093,-6.69866121068581e-05,0.0015351219420540537,0.0,0.0,0.0,0.0,0.0,0.0,0.0,5.1950362690567076e-05,9.477362423093022e-05,-6.389622809954698e-05,9.818499904223899e-06,3.0991947889275062e-06,3.1634031456562184e-06,-9.15075128227194e-06,-0.0011892330630261052,0.0010907179800927957,0.0001584785786110642,0.00015542248074211626,0.00010962081749068093,6.69866121068581e-05,-0.0015351219420540537,-0.13260537385940552,18.154138565063477,-1.1680023670196533,-17.999910354614258,-0.5047507882118225,-2.2424349784851074,0.21457235515117645,0
39,0.18994426727294922,0.18418008089065552,-18.229516983032227,1.1680023670196533,17.999910354614258,0.4983420968055725,2.2360262870788574,-0.22830526530742645,0.0,0.0,0.0,0.0,0.0,0.0,0.0,0.16546212363859258,0.4592895049755384,0.3298868083862733,0.395254497295247,0.07461853980828251,0.06235559029087786,-0.1855099267139449,-0.6091407444560736,-0.05761922337570689,-0.6665392008915275,-2.5945663551866014,-0.05562382799384504,2.5079742923427184,0.8763215298569098,-0.6090851748156966,-0.05753196718556838,-0.666603097082616,-2.5945565370258534,-0.05562143941554,2.507976027223799,0.8763108487046415,-0.0004512181711010726,0.0013219686888843334,-0.00018342996277775269,-0.0026631332975519404,-3.440022277889336e-05,9.851873405869268e-05,0.002035712914255477,0.0,0.0,0.0,0.0,0.0,0.0,0.0,5.5569640377006735e-05,8.725619013850994e-05,-6.38961910884861e-05,9.818160747965266e-06,2.388578305041744e-06,1.7348810805728476e-06,-1.0681152268321448e-05,0.0004512181711010726,-0.0013219686888843334,0.00018342996277775269,0.0026631332975519404,3.440022277889336e-05,-9.851873405869268e-05,-0.002035712914255477,-0.18418008089065552,18.229516983032227,-1.1680023670196533,-17.999910354614258,-0.4983420968055725,-2.2360262870788574,0.22830526530742645,0
40,0.1949930191040039,0.18418008089065552,-18.229516983032227,1.1680023670196533,17.999910354614258,0.4983420968055725,2.2360262870788574,-0.22830526530742645,0.0,0.0,0.0,0.0,0.0,0.0,0.0,0.16546212363859258,0.4592895049755384,0.3298868083862733,0.395254497295247,0.07461853980828251,0.06235559029087786,-0.1855099267139449,-0.6091407444560736,-0.05761922337570689,-0.6665392008915275,-2.5945663551866014,-0.05562382799384504,2.5079742923427184,0.8763215298569098,-0.6090851748156966,-0.05753196718556838,-0.666603097082616,-2.5945565370258534,-0.05562143941554,2.507976027223799,0.8763108487046415,-0.0004512181711010726,0.0013219686888843334,-0.00018342996277775269,-0.0026631332975519404,-3.440022277889336e-05,9.851873405869268e-05,0.002035712914255477,0.0,0.0,0.0,0.0,0.0,0.0,0.0,5.5569640377006735e-05,8.725619013850994e-05,-6.38961910884861e-05,9.818160747965266e-06,2.388578305041744e-06,1.7348810805728476e-06,-1.0681152268321448e-05,0.0004512181711010726,-0.0013219686888843334,0.00018342996277775269,0.0026631332975519404,3.440022277889336e-05,-9.851873405869268e-05,-0.002035712914255477,-0.18418008089065552,18.229516983032227,-1.1680023670196533,-17.999910354614258,-0.4983420968055725,-2.2360262870788574,0.22830526530742645,0
41,0.19999337196350098,0.13260537385940552,-18.177942276000977,1.1441986560821533,18.023714065551758,0.4983420968055725,2.2488436698913574,-0.20724813640117645,0.0,0.0,0.0,0.0,0.0,0.0,0.0,0.16879713800090415,0.4657372603739016,0.33352693805527733,0.37845166789936097,0.07402472709809885,0.05926744208539849,-0.18600089836537695,-0.6091371251783871,-0.057625910934168655,-0.666537530455673,-2.5945680256224515,-0.05562062979722927,2.507972162409238,0.8763191858153461,-0.6090851748156966,-0.05753196718556838,-0.666603097082616,-2.5945565370258534,-0.05562143941554,2.507976027223799,0.8763108487046415,0.0011488936034199041,-0.00032201089180172634,0.0002140071536004716,-0.0006300327435079979,0.0001332875755419515,-0.00015625618108561137,0.0014396853516706785,0.0,0.0,0.0,0.0,0.0,0.0,0.0,5.1950362690567076e-05,9.394374860027116e-05,-6.55666269430144e-05,1.148859659805268e-05,-8.096183107333954e-07,3.864814560827767e-06,-8.33711070458154e-06,-0.0011488936034199041,0.00032201089180172634,-0.0002140071536004716,0.0006300327435079979,-0.0001332875755419515,0.00015625618108561137,-0.0014396853516706785,-0.13260537385940552,18.177942276000977,-1.1441986560821533,-18.023714065551758,-0.4983420968055725,-2.2488436698913574,0.20724813640117645,0
42,0.20499706268310547,0.13260537385940552,-18.177942276000977,1.1441986560821533,18.023714065551758,0.4983420968055725,2.2488436698913574,-0.20724813640117645,0.0,0.0,0.0,0.0,0.0,0.0,0.0,0.16879713800090415,0.4657372603739016,0.33352693805527733,0.37845166789936097,0.07402472709809885,0.05926744208539849,-0.18600089836537695,-0.6091371251783871,-0.057625910934168655,-0.666537530455673,-2.5945680256224515,-0.05562062979722927,2.507972162409238,0.8763191858153461,-0.6090851748156966,-0.05753196718556838,-0.666603097082616,-2.5945565370258534,-0.05562143941554,2.507976027223799,0.8763108487046415,0.0011488936034199041,-0.00032201089180172634,0.0002140071536004716,-0.0006300327435079979,0.0001332875755419515,-0.00015625618108561137,0.0014396853516706785,0.0,0.0,0.0,0.0,0.0,0.0,0.0,5.1950362690567076e-05,9.394374860027116e-05,-6.55666269430144e-05,1.148859659805268e-05,-8.096183107333954e-07,3.864814560827767e-06,-8.33711070458154e-06,-0.0011488936034199041,0.00032201089180172634,-0.0002140071536004716,0.0006300327435079979,-0.0001332875755419515,0.00015625618108561137,-0.0014396853516706785,-0.13260537385940552,18.177942276000977,-1.1441986560821533,-18.023714065551758,-0.4983420968055725,-2.2488436698913574,0.20724813640117645,0
43,0.20999693870544434,0.10880166292190552,-18.177942276000977,1.1164276599884033,17.999910354614258,0.4983420968055725,2.2424349784851074,-0.18710653483867645,0.0,0.0,0.0,0.0,0.0,0.0,0.0,0.1612814489684445,0.49674199540879127,0.3267694235470661,0.31803561654345414,0.073321977613839,0.049878127871638846,-0.1855506964241172,-0.609135454742532,-0.05762284277718937,-0.6665355816138419,-2.594566355186596,-0.05562347099800718,2.50797352653395,0.8763158925821137,-0.6090851748156966,-0.05753196718556838,-0.666603097082616,-2.5945565370258534,-0.05562143941554,2.507976027223799,0.8763108487046415,0.000500635463244479,-6.661860184488135e-05,0.0002814694705540867,-1.578994009743918e-05,-4.529998553448598e-05,-0.0002780037101293864,0.0005695302408846462,0.0,0.0,0.0,0.0,0.0,0.0,0.0,5.0279926835372635e-05,9.087559162098552e-05,-6.75154687741486e-05,9.818160742636195e-06,2.0315824671782168e-06,2.5006898489721152e-06,-5.043877472243885e-06,-0.000500635463244479,6.661860184488135e-05,-0.0002814694705540867,1.578994009743918e-05,4.529998553448598e-05,0.0002780037101293864,-0.0005695302408846462,-0.10880166292190552,18.177942276000977,-1.1164276599884033,-17.999910354614258,-0.4983420968055725,-2.2424349784851074,0.18710653483867645,0
44,0.2149956226348877,0.10880166292190552,-18.177942276000977,1.1164276599884033,17.999910354614258,0.4983420968055725,2.2424349784851074,-0.18710653483867645,0.0,0.0,0.0,0.0,0.0,0.0,0.0,0.1612814489684445,0.49674199540879127,0.3267694235470661,0.31803561654345414,0.073321977613839,0.049878127871638846,-0.1855506964241172,-0.609135454742532,-0.05762284277718937,-0.6665355816138419,-2.594566355186596,-0.05562347099800718,2.50797352653395,0.8763158925821137,-0.6090851748156966,-0.05753196718556838,-0.666603097082616,-2.5945565370258534,-0.05562143941554,2.507976027223799,0.8763108487046415,0.000500635463244479,-6.661860184488135e-05,0.0002814694705540867,-1.578994009743918e-05,-4.529998553448598e-05,-0.0002780037101293864,0.0005695302408846462,0.0,0.0,0.0,0.0,0.0,0.0,0.0,5.0279926835372635e-05,9.087559162098552e-05,-6.75154687741486e-05,9.818160742636195e-06,2.0315824671782168e-06,2.5006898489721152e-06,-5.043877472243885e-06,-0.000500635463244479,6.661860184488135e-05,-0.0002814694705540867,1.578994009743918e-05,4.529998553448598e-05,0.0002780037101293864,-0.0005695302408846462,-0.10880166292190552,18.177942276000977,-1.1164276599884033,-17.999910354614258,-0.4983420968055725,-2.2424349784851074,0.18710653483867645,0
45,0.21999597549438477,0.10880166292190552,-18.177942276000977,1.1164276599884033,18.023714065551758,0.4928489327430725,2.2424349784851074,-0.21457235515117645,0.0,0.0,0.0,0.0,0.0,0.0,0.0,0.15611801065996306,0.47240134185122545,0.32808385406841467,0.36214331220838586,0.07384697968223683,0.05625993362913878,-0.1853346424167097,-0.6091333400449567,-0.05762286838136097,-0.6665355816138419,-2.5945680256224515,-0.055623217149473596,2.5079735284338267,0.8763200039601351,-0.6090851748156966,-0.05753196718556838,-0.666603097082616,-2.5945565370258534,-0.05562143941554,2.507976027223799,0.8763108487046415,0.0006494978564533019,-0.0007183515803628911,0.00017888661422837078,-0.00023749045718692122,0.0001544665156660178,-4.197504598856442e-05,0.0009758952521687364,0.0,0.0,0.0,0.0,0.0,0.0,0.0,4.816522926009981e-05,9.090119579258787e-05,-6.75154687741486e-05,1.148859659805268e-05,1.7777339335958708e-06,2.498789972271709e-06,-9.155255493609182e-06,-0.0006494978564533019,0.0007183515803628911,-0.00017888661422837078,0.00023749045718692122,-0.0001544665156660178,4.197504598856442e-05,-0.0009758952521687364,-0.10880166292190552,18.177942276000977,-1.1164276599884033,-18.023714065551758,-0.4928489327430725,-2.2424349784851074,0.21457235515117645,0
46,0.22499561309814453,0.10880166292190552,-18.177942276000977,1.1164276599884033,18.023714065551758,0.4928489327430725,2.2424349784851074,-0.21457235515117645,0.0,0.0,0.0,0.0,0.0,0.0,0.0,0.15611801065996306,0.47240134185122545,0.32808385406841467,0.36214331220838586,0.07384697968223683,0.05625993362913878,-0.1853346424167097,-0.6091333400449567,-0.05762286838136097,-0.6665355816138419,-2.5945680256224515,-0.055623217149473596,2.5079735284338267,0.8763200039601351,-0.6090851748156966,-0.05753196718556838,-0.666603097082616,-2.5945565370258534,-0.05562143941554,2.507976027223799,0.8763108487046415,0.0006494978564533019,-0.0007183515803628911,0.00017888661422837078,-0.00023749045718692122,0.0001544665156660178,-4.197504598856442e-05,0.0009758952521687364,0.0,0.0,0.0,0.0,0.0,0.0,0.0,4.816522926009981e-05,9.090119579258787e-05,-6.75154687741486e-05,1.148859659805268e-05,1.7777339335958708e-06,2.498789972271709e-06,-9.155255493609182e-06,-0.0006494978564533019,0.0007183515803628911,-0.00017888661422837078,0.00023749045718692122,-0.0001544665156660178,4.197504598856442e-05,-0.0009758952521687364,-0.10880166292190552,18.177942276000977,-1.1164276599884033,-18.023714065551758,-0.4928489327430725,-2.2424349784851074,0.21457235515117645,0
47,0.22999787330627441,0.10880166292190552,-18.205713272094727,1.1164276599884033,17.972139358520508,0.5047507882118225,2.2296175956726074,-0.22098104655742645,0.0,0.0,0.0,0.0,0.0,0.0,0.0,0.15271171489972196,0.474936800979568,0.3278598299260128,0.36336913842363333,0.07343791842119324,0.05657320092759347,-0.18645437607341037,-0.609133348672105,-0.057620964262467864,-0.6665355816138419,-2.594564406344765,-0.05562454005266258,2.5079738926642188,0.8763206637270942,-0.6090851748156966,-0.05753196718556838,-0.666603097082616,-2.5945565370258534,-0.05562143941554,2.507976027223799,0.8763108487046415,0.00033346294092376563,8.845616374859946e-05,0.0006843548194449849,0.0004662032610315948,-0.00021760412485965578,0.0004024010628441814,0.0012822756058841625,0.0,0.0,0.0,0.0,0.0,0.0,0.0,4.817385640842886e-05,8.899707689948022e-05,-6.75154687741486e-05,7.869318911613021e-06,3.1006371225827944e-06,2.1345595802024775e-06,-9.81502245267496e-06,-0.00033346294092376563,-8.845616374859946e-05,-0.0006843548194449849,-0.0004662032610315948,0.00021760412485965578,-0.0004024010628441814,-0.0012822756058841625,-0.10880166292190552,18.205713272094727,-1.1164276599884033,-17.972139358520508,-0.5047507882118225,-2.2296175956726074,0.22098104655742645,0
48,0.23500466346740723,0.10880166292190552,-18.205713272094727,1.1164276599884033,17.972139358520508,0.5047507882118225,2.2296175956726074,-0.22098104655742645,0.0,0.0,0.0,0.0,0.0,0.0,0.0,0.15271171489972196,0.474936800979568,0.3278598299260128,0.36336913842363333,0.07343791842119324,0.05657320092759347,-0.18645437607341037,-0.609133348672105,-0.057620964262467864,-0.6665355816138419,-2.594564406344765,-0.05562454005266258,2.5079738926642188,0.8763206637270942,-0.6090851748156966,-0.05753196718556838,-0.666603097082616,-2.5945565370258534,-0.05562143941554,2.507976027223799,0.8763108487046415,0.00033346294092376563,8.845616374859946e-05,0.0006843548194449849,0.0004662032610315948,-0.00021760412485965578,0.0004024010628441814,0.0012822756058841625,0.0,0.0,0.0,0.0,0.0,0.0,0.0,4.817385640842886e-05,8.899707689948022e-05,-6.75154687741486e-05,7.869318911613021e-06,3.1006371225827944e-06,2.1345595802024775e-06,-9.81502245267496e-06,-0.00033346294092376563,-8.845616374859946e-05,-0.0006843548194449849,-0.0004662032610315948,0.00021760412485965578,-0.0004024010628441814,-0.0012822756058841625,-0.10880166292190552,18.205713272094727,-1.1164276599884033,-17.972139358520508,-0.5047507882118225,-2.2296175956726074,0.22098104655742645,0
49,0.24000954627990723,0.21195107698440552,-18.205713272094727,1.1441986560821533,17.999910354614258,0.4983420968055725,2.2296175956726074,-0.23471395671367645,0.0,0.0,0.0,0.0,0.0,0.0,0.0,0.1528358025326627,0.47409533273312426,0.33217211974128136,0.3662068893642829,0.07337198686364602,0.05725981361870518,-0.18655296186542394,-0.6091426932503501,-0.057621934830749455,-0.666537530455673,-2.594566355186596,-0.05562378856404808,2.5079739040752917,0.8763222419335139,-0.6090851748156966,-0.05753196718556838,-0.666603097082616,-2.5945565370258534,-0.05562143941554,2.507976027223799,0.8763108487046415,-0.0010677611712455477,0.00089117147972231,0.0005126657857186484,0.00015118144388454199,-3.6383688791069477e-06,0.0002789641592924749,0.001627605669902484,0.0,0.0,0.0,0.0,0.0,0.0,0.0,5.751843465351403e-05,8.996764518107159e-05,-6.55666269430144e-05,9.818160742636195e-06,2.349148508079546e-06,2.1231485072270573e-06,-1.1393228872447203e-05,0.0010677611712455477,-0.00089117147972231,-0.0005126657857186484,-0.00015118144388454199,3.6383688791069477e-06,-0.0002789641592924749,-0.001627605669902484,-0.21195107698440552,18.205713272094727,-1.1441986560821533,-17.999910354614258,-0.4983420968055725,-2.2296175956726074,0.23471395671367645,0
50,0.2449958324432373,0.21195107698440552,-18.205713272094727,1.1441986560821533,17.999910354614258,0.4983420968055725,2.2296175956726074,-0.23471395671367645,0.0,0.0,0.0,0.0,0.0,0.0,0.0,0.1528358025326627,0.47409533273312426,0.33217211974128136,0.3662068893642829,0.07337198686364602,0.05725981361870518,-0.18655296186542394,-0.6091426932503501,-0.057621934830749455,-0.666537530455673,-2.594566355186596,-0.05562378856404808,2.5079739040752917,0.8763222419335139,-0.6090851748156966,-0.05753196718556838,-0.666603097082616,-2.5945565370258534,-0.05562143941554,2.507976027223799,0.8763108487046415,-0.0010677611712455477,0.00089117147972231,0.0005126657857186484,0.00015118144388454199,-3.6383688791069477e-06,0.0002789641592924749,0.001627605669902484,0.0,0.0,0.0,0.0,0.0,0.0,0.0,5.751843465351403e-05,8.996764518107159e-05,-6.55666269430144e-05,9.818160742636195e-06,2.349148508079546e-06,2.1231485072270573e-06,-1.1393228872447203e-05,0.0010677611712455477,-0.00089117147972231,-0.0005126657857186484,-0.00015118144388454199,3.6383688791069477e-06,-0.0002789641592924749,-0.001627605669902484,-0.21195107698440552,18.205713272094727,-1.1441986560821533,-17.999910354614258,-0.4983420968055725,-2.2296175956726074,0.23471395671367645,0
51,0.24999356269836426,0.21195107698440552,-18.205713272094727,1.1441986560821533,17.999910354614258,0.4983420968055725,2.2296175956726074,-0.23471395671367645,0.0,0.0,0.0,0.0,0.0,0.0,0.0,0.1528358025326627,0.47409533273312426,0.33217211974128136,0.3662068893642829,0.07337198686364602,0.05725981361870518,-0.18655296186542394,-0.6091426932503501,-0.057621934830749455,-0.666537530455673,-2.594566355186596,-0.05562378856404808,2.5079739040752917,0.8763222419335139,-0.6090851748156966,-0.05753196718556838,-0.666603097082616,-2.5945565370258534,-0.05562143941554,2.507976027223799,0.8763108487046415,-0.0010677611712455477,0.00089117147972231,0.0005126657857186484,0.00015118144388454199,-3.6383688791069477e-06,0.0002789641592924749,0.001627605669902484,0.0,0.0,0.0,0.0,0.0,0.0,0.0,5.751843465351403e-05,8.996764518107159e-05,-6.55666269430144e-05,9.818160742636195e-06,2.349148508079546e-06,2.1231485072270573e-06,-1.1393228872447203e-05,0.0010677611712455477,-0.00089117147972231,-0.0005126657857186484,-0.00015118144388454199,3.6383688791069477e-06,-0.0002789641592924749,-0.001627605669902484,-0.21195107698440552,18.205713272094727,-1.1441986560821533,-17.999910354614258,-0.4983420968055725,-2.2296175956726074,0.23471395671367645,0
52,0.2549567222595215,0.21195107698440552,-18.205713272094727,1.1441986560821533,17.999910354614258,0.4983420968055725,2.2296175956726074,-0.23471395671367645,0.0,0.0,0.0,0.0,0.0,0.0,0.0,0.1528358025326627,0.47409533273312426,0.33217211974128136,0.3662068893642829,0.07337198686364602,0.05725981361870518,-0.18655296186542394,-0.6091426932503501,-0.057621934830749455,-0.666537530455673,-2.594566355186596,-0.05562378856404808,2.5079739040752917,0.8763222419335139,-0.6090851748156966,-0.05753196718556838,-0.666603097082616,-2.5945565370258534,-0.05562143941554,2.507976027223799,0.8763108487046415,-0.0010677611712455477,0.00089117147972231,0.0005126657857186484,0.00015118144388454199,-3.6383688791069477e-06,0.0002789641592924749,0.001627605669902484,0.0,0.0,0.0,0.0,0.0,0.0,0.0,5.751843465351403e-05,8.996764518107159e-05,-6.55666269430144e-05,9.818160742636195e-06,2.349148508079546e-06,2.1231485072270573e-06,-1.1393228872447203e-05,0.0010677611712455477,-0.00089117147972231,-0.0005126657857186484,-0.00015118144388454199,3.6383688791069477e-06,-0.0002789641592924749,-0.001627605669902484,-0.21195107698440552,18.205713272094727,-1.1441986560821533,-17.999910354614258,-0.4983420968055725,-2.2296175956726074,0.23471395671367645,0
53,0.2602553367614746,0.23575478792190552,-18.154138565063477,1.1680023670196533,17.972139358520508,0.4983420968055725,2.2488436698913574,-0.17978231608867645,0.0,0.0,0.0,0.0,0.0,0.0,0.0,0.15226443903509373,0.47777215600070805,0.32945543971997693,0.3634520062625473,0.07325073176475398,0.055661008414027206,-0.18720406935086967,-0.6091443637337592,-0.057624846291003215,-0.6665389580577902,-2.594564406344765,-0.05562382653283827,2.507975994930656,0.8763161384181842,-0.6090851748156966,-0.05753196718556838,-0.666603097082616,-2.5945565370258534,-0.05562143941554,2.507976027223799,0.8763108487046415,-0.0014166427664147822,1.323830694124149e-05,-0.00013461957576206378,0.00020463430432830437,-3.748070832668134e-05,-0.00043496916983315985,-0.0006423770168147617,0.0,0.0,0.0,0.0,0.0,0.0,0.0,5.918891806266924e-05,9.287910543483158e-05,-6.413902482582667e-05,7.869318911613021e-06,2.387117298267849e-06,3.229314282648943e-08,-5.289713542744323e-06,0.0014166427664147822,-1.323830694124149e-05,0.00013461957576206378,-0.00020463430432830437,3.748070832668134e-05,0.00043496916983315985,0.0006423770168147617,-0.23575478792190552,18.154138565063477,-1.1680023670196533,-17.972139358520508,-0.4983420968055725,-2.2488436698913574,0.17978231608867645,0
54,0.26500630378723145,0.23575478792190552,-18.154138565063477,1.1680023670196533,17.972139358520508,0.4983420968055725,2.2488436698913574,-0.17978231608867645,0.0,0.0,0.0,0.0,0.0,0.0,0.0,0.15226443903509373,0.47777215600070805,0.32945543971997693,0.3634520062625473,0.07325073176475398,0.055661008414027206,-0.18720406935086967,-0.6091443637337592,-0.057624846291003215,-0.6665389580577902,-2.594564406344765,-0.05562382653283827,2.507975994930656,0.8763161384181842,-0.6090851748156966,-0.05753196718556838,-0.666603097082616,-2.5945565370258534,-0.05562143941554,2.507976027223799,0.8763108487046415,-0.0014166427664147822,1.323830694124149e-05,-0.00013461957576206378,0.00020463430432830437,-3.748070832668134e-05,-0.00043496916983315985,-0.0006423770168147617,0.0,0.0,0.0,0.0,0.0,0.0,0.0,5.918891806266924e-05,9.287910543483158e-05,-6.413902482582667e-05,7.869318911613021e-06,2.387117298267849e-06,3.229314282648943e-08,-5.289713542744323e-06,0.0014166427664147822,-1.323830694124149e-05,0.00013461957576206378,-0.00020463430432830437,3.748070832668134e-05,0.00043496916983315985,0.0006423770168147617,-0.23575478792190552,18.154138565063477,-1.1680023670196533,-17.972139358520508,-0.4983420968055725,-2.2488436698913574,0.17978231608867645,0
55,0.2699918746948242,0.16037636995315552,-18.177942276000977,1.1441986560821533,17.972139358520508,0.4928489327430725,2.2488436698913574,-0.21457235515117645,0.0,0.0,0.0,0.0,0.0,0.0,0.0,0.1523490478757677,0.4730439747390189,0.3260722078899873,0.3710420585531692,0.07387095697426996,0.05713212936089477,-0.18758779385330362,-0.6091390740202183,-0.05762594727375633,-0.666537530455216,-2.594564406344765,-0.055623217642304525,2.507974933703173,0.876316825063692,-0.6090851748156966,-0.05753196718556838,-0.666603097082616,-2.5945565370258534,-0.05562143941554,2.507976027223799,0.8763108487046415,0.0004261959191534252,-0.00013769200745844342,-8.352350442300241e-05,0.0005408814396634465,0.00030185988306085905,-0.00014375234792222773,0.0012781907831055323,0.0,0.0,0.0,0.0,0.0,0.0,0.0,5.389920452170127e-05,9.398008818794351e-05,-6.55666273999822e-05,7.869318911613021e-06,1.7782267645247152e-06,1.0935206260498376e-06,-5.976359050530178e-06,-0.0004261959191534252,0.00013769200745844342,8.352350442300241e-05,-0.0005408814396634465,-0.00030185988306085905,0.00014375234792222773,-0.0012781907831055323,-0.16037636995315552,18.177942276000977,-1.1441986560821533,-17.972139358520508,-0.4928489327430725,-2.2488436698913574,0.21457235515117645,0
56,0.2749934196472168,0.16037636995315552,-18.177942276000977,1.1441986560821533,17.972139358520508,0.4928489327430725,2.2488436698913574,-0.21457235515117645,0.0,0.0,0.0,0.0,0.0,0.0,0.0,0.1523490478757677,0.4730439747390189,0.3260722078899873,0.3710420585531692,0.07387095697426996,0.05713212936089477,-0.18758779385330362,-0.6091390740202183,-0.05762594727375633,-0.666537530455216,-2.594564406344765,-0.055623217642304525,2.507974933703173,0.876316825063692,-0.6090851748156966,-0.05753196718556838,-0.666603097082616,-2.5945565370258534,-0.05562143941554,2.507976027223799,0.8763108487046415,0.0004261959191534252,-0.00013769200745844342,-8.352350442300241e-05,0.0005408814396634465,0.00030185988306085905,-0.00014375234792222773,0.0012781907831055323,0.0,0.0,0.0,0.0,0.0,0.0,0.0,5.389920452170127e-05,9.398008818794351e-05,-6.55666273999822e-05,7.869318911613021e-06,1.7782267645247152e-06,1.0935206260498376e-06,-5.976359050530178e-06,-0.0004261959191534252,0.00013769200745844342,8.352350442300241e-05,-0.0005408814396634465,-0.00030185988306085905,0.00014375234792222773,-0.0012781907831055323,-0.16037636995315552,18.177942276000977,-1.1441986560821533,-17.972139358520508,-0.4928489327430725,-2.2488436698913574,0.21457235515117645,0
57,0.27999424934387207,0.16037636995315552,-18.205713272094727,1.1441986560821533,18.023714065551758,0.4864402413368225,2.2552523612976074,-0.20083944499492645,0.0,0.0,0.0,0.0,0.0,0.0,0.0,0.16087366332261846,0.48090170762053996,0.3342523196853967,0.3642052165942711,0.07343188071512641,0.05695961454861674,-0.1877282731861835,-0.6091390740202183,-0.05762112698185552,-0.666537530455673,-2.5945680256224515,-0.055621440960301284,2.507971055845753,0.876318478039357,-0.6090851748156966,-0.05753196718556838,-0.666603097082616,-2.5945565370258534,-0.05562143941554,2.507976027223799,0.8763108487046415,-0.00017667863636850012,0.0005201584627130396,0.00047089579814269466,-0.0008552812947085943,0.00042792088260488657,-0.0005734012354914042,0.0004073508184654361,0.0,0.0,0.0,0.0,0.0,0.0,0.0,5.389920452170127e-05,8.915979628713877e-05,-6.55666269430144e-05,1.148859659805268e-05,1.5447612841668068e-09,4.971378046114694e-06,-7.629334715542058e-06,0.00017667863636850012,-0.0005201584627130396,-0.00047089579814269466,0.0008552812947085943,-0.00042792088260488657,0.0005734012354914042,-0.0004073508184654361,-0.16037636995315552,18.205713272094727,-1.1441986560821533,-18.023714065551758,-0.4864402413368225,-2.2552523612976074,0.20083944499492645,0
58,0.2850053310394287,0.16037636995315552,-18.205713272094727,1.1441986560821533,18.023714065551758,0.4864402413368225,2.2552523612976074,-0.20083944499492645,0.0,0.0,0.0,0.0,0.0,0.0,0.0,0.16087366332261846,0.48090170762053996,0.3342523196853967,0.3642052165942711,0.07343188071512641,0.05695961454861674,-0.1877282731861835,-0.6091390740202183,-0.05762112698185552,-0.666537530455673,-2.5945680256224515,-0.055621440960301284,2.507971055845753,0.876318478039357,-0.6090851748156966,-0.05753196718556838,-0.666603097082616,-2.5945565370258534,-0.05562143941554,2.507976027223799,0.8763108487046415,-0.00017667863636850012,0.0005201584627130396,0.00047089579814269466,-0.0008552812947085943,0.00042792088260488657,-0.0005734012354914042,0.0004073508184654361,0.0,0.0,0.0,0.0,0.0,0.0,0.0,5.389920452170127e-05,8.915979628713877e-05,-6.55666269430144e-05,1.148859659805268e-05,1.5447612841668068e-09,4.971378046114694e-06,-7.629334715542058e-06,0.00017667863636850012,-0.0005201584627130396,-0.00047089579814269466,0.0008552812947085943,-0.00042792088260488657,0.0005734012354914042,-0.0004073508184654361,-0.16037636995315552,18.205713272094727,-1.1441986560821533,-18.023714065551758,-0.4864402413368225,-2.2552523612976074,0.20083944499492645,0
59,0.29055094718933105,0.16037636995315552,-18.205713272094727,1.1164276599884033,17.999910354614258,0.4928489327430725,2.2424349784851074,-0.14590780436992645,0.0,0.0,0.0,0.0,0.0,0.0,0.0,0.1586337125909862,0.4732287390189775,0.3328468977441258,0.36845617565768,0.07325787141564134,0.057994196322068745,-0.18746447779201791,-0.6091390740202183,-0.05762162647334859,-0.6665355816138419,-2.594566355186596,-0.05562317382538467,2.5079728331344207,0.8763122568459786,-0.6090851748156966,-0.05753196718556838,-0.666603097082616,-2.5945565370258534,-0.05562143941554,2.507976027223799,0.8763108487046415,-0.00031590408006790564,-0.00017959042155672088,0.0006445721982904038,0.0003004201608230994,0.00012720333909286153,-7.47709644101776e-05,-0.0012794566709476657,0.0,0.0,0.0,0.0,0.0,0.0,0.0,5.389920452170127e-05,8.965928778020826e-05,-6.75154687741486e-05,9.818160742636195e-06,1.734409844668383e-06,3.194089378322218e-06,-1.4081413370892193e-06,0.00031590408006790564,0.00017959042155672088,-0.0006445721982904038,-0.0003004201608230994,-0.00012720333909286153,7.47709644101776e-05,0.0012794566709476657,-0.16037636995315552,18.205713272094727,-1.1164276599884033,-17.999910354614258,-0.4928489327430725,-2.2424349784851074,0.14590780436992645,0
60,0.29499268531799316,0.16037636995315552,-18.205713272094727,1.1164276599884033,17.999910354614258,0.4928489327430725,2.2424349784851074,-0.14590780436992645,0.0,0.0,0.0,0.0,0.0,0.0,0.0,0.1586337125909862,0.4732287390189775,0.3328468977441258,0.36845617565768,0.07325787141564134,0.057994196322068745,-0.18746447779201791,-0.6091390740202183,-0.05762162647334859,-0.6665355816138419,-2.594566355186596,-0.05562317382538467,2.5079728331344207,0.8763122568459786,-0.6090851748156966,-0.05753196718556838,-0.666603097082616,-2.5945565370258534,-0.05562143941554,2.507976027223799,0.8763108487046415,-0.00031590408006790564,-0.00017959042155672088,0.0006445721982904038,0.0003004201608230994,0.00012720333909286153,-7.47709644101776e-05,-0.0012794566709476657,0.0,0.0,0.0,0.0,0.0,0.0,0.0,5.389920452170127e-05,8.965928778020826e-05,-6.75154687741486e-05,9.818160742636195e-06,1.734409844668383e-06,3.194089378322218e-06,-1.4081413370892193e-06,0.00031590408006790564,0.00017959042155672088,-0.0006445721982904038,-0.0003004201608230994,-0.00012720333909286153,7.47709644101776e-05,0.0012794566709476657,-0.16037636995315552,18.205713272094727,-1.1164276599884033,-17.999910354614258,-0.4928489327430725,-2.2424349784851074,0.14590780436992645,0
61,0.30001401901245117,0.13260537385940552,-18.205713272094727,1.1680023670196533,17.999910354614258,0.4928489327430725,2.2424349784851074,-0.20083944499492645,0.0,0.0,0.0,0.0,0.0,0.0,0.0,0.1614443857504306,0.4748664643837953,0.3364551547084989,0.3660265995443755,0.07264402463031862,0.05702054280495903,-0.18682778633933114,-0.6091371251783871,-0.05762159479230581,-0.666537012389939,-2.594566355186596,-0.055623217155272006,2.5079736500316523,0.8763152991841212,-0.6090851748156966,-0.05753196718556838,-0.666603097082616,-2.5945565370258534,-0.05562143941554,2.507976027223799,0.8763108487046415,0.00027065818715305413,0.00041452452763073765,-0.0002538785224627719,7.639271880668045e-05,0.00019372340075981913,-0.00010099903848661918,-2.9520559007648526e-05,0.0,0.0,0.0,0.0,0.0,0.0,0.0,5.1950362690567076e-05,8.962760673742604e-05,-6.608469267699313e-05,9.818160742636195e-06,1.7777397320062338e-06,2.377192146685303e-06,-4.45047947972288e-06,-0.00027065818715305413,-0.00041452452763073765,0.0002538785224627719,-7.639271880668045e-05,-0.00019372340075981913,0.00010099903848661918,2.9520559007648526e-05,-0.13260537385940552,18.205713272094727,-1.1680023670196533,-17.999910354614258,-0.4928489327430725,-2.2424349784851074,0.20083944499492645,0
62,0.3050072193145752,0.13260537385940552,-18.205713272094727,1.1680023670196533,17.999910354614258,0.4928489327430725,2.2424349784851074,-0.20083944499492645,0.0,0.0,0.0,0.0,0.0,0.0,0.0,0.1614443857504306,0.4748664643837953,0.3364551547084989,0.3660265995443755,0.07264402463031862,0.05702054280495903,-0.18682778633933114,-0.6091371251783871,-0.05762159479230581,-0.666537012389939,-2.594566355186596,-0.055623217155272006,2.5079736500316523,0.8763152991841212,-0.6090851748156966,-0.05753196718556838,-0.666603097082616,-2.5945565370258534,-0.05562143941554,2.507976027223799,0.8763108487046415,0.00027065818715305413,0.00041452452763073765,-0.0002538785224627719,7.639271880668045e-05,0.00019372340075981913,-0.00010099903848661918,-2.9520559007648526e-05,0.0,0.0,0.0,0.0,0.0,0.0,0.0,5.1950362690567076e-05,8.962760673742604e-05,-6.608469267699313e-05,9.818160742636195e-06,1.7777397320062338e-06,2.377192146685303e-06,-4.45047947972288e-06,-0.00027065818715305413,-0.00041452452763073765,0.0002538785224627719,-7.639271880668045e-05,-0.00019372340075981913,0.00010099903848661918,2.9520559007648526e-05,-0.13260537385940552,18.205713272094727,-1.1680023670196533,-17.999910354614258,-0.4928489327430725,-2.2424349784851074,0.20083944499492645,0
63,0.31000709533691406,0.16037636995315552,-18.177942276000977,1.1441986560821533,17.972139358520508,0.5102439522743225,2.2360262870788574,-0.21457235515117645,0.0,0.0,0.0,0.0,0.0,0.0,0.0,0.1607239603373074,0.47022420590909186,0.3389837865388517,0.36817356409830937,0.07263990746136373,0.05705945987022121,-0.18676135288716156,-0.6091390740202183,-0.05762567436372076,-0.6665375304186105,-2.594564406344765,-0.055625032132782165,2.507976715424293,0.8763199646783882,-0.6090851748156966,-0.05753196718556838,-0.666603097082616,-2.5945565370258534,-0.05562143941554,2.507976027223799,0.8763108487046415,0.0003634591594450027,-0.0006644154196943704,0.0006888470501122301,0.0003408490792211957,-0.0005679775217027925,0.00011168832084822413,0.0007494579771394505,0.0,0.0,0.0,0.0,0.0,0.0,0.0,5.389920452170127e-05,9.370717815237323e-05,-6.556666400547861e-05,7.869318911613021e-06,3.5927172421651443e-06,-6.882004939257058e-07,-9.11597374675388e-06,-0.0003634591594450027,0.0006644154196943704,-0.0006888470501122301,-0.0003408490792211957,0.0005679775217027925,-0.00011168832084822413,-0.0007494579771394505,-0.16037636995315552,18.177942276000977,-1.1441986560821533,-17.972139358520508,-0.5102439522743225,-2.2360262870788574,0.21457235515117645,0
64,0.31499648094177246,0.16037636995315552,-18.177942276000977,1.1441986560821533,17.972139358520508,0.5102439522743225,2.2360262870788574,-0.21457235515117645,0.0,0.0,0.0,0.0,0.0,0.0,0.0,0.1607239603373074,0.47022420590909186,0.3389837865388517,0.36817356409830937,0.07263990746136373,0.05705945987022121,-0.18676135288716156,-0.6091390740202183,-0.05762567436372076,-0.6665375304186105,-2.594564406344765,-0.055625032132782165,2.507976715424293,0.8763199646783882,-0.6090851748156966,-0.05753196718556838,-0.666603097082616,-2.5945565370258534,-0.05562143941554,2.507976027223799,0.8763108487046415,0.0003634591594450027,-0.0006644154196943704,0.0006888470501122301,0.0003408490792211957,-0.0005679775217027925,0.00011168832084822413,0.0007494579771394505,0.0,0.0,0.0,0.0,0.0,0.0,0.0,5.389920452170127e-05,9.370717815237323e-05,-6.556666400547861e-05,7.869318911613021e-06,3.5927172421651443e-06,-6.882004939257058e-07,-9.11597374675388e-06,-0.0003634591594450027,0.0006644154196943704,-0.0006888470501122301,-0.0003408490792211957,0.0005679775217027925,-0.00011168832084822413,-0.0007494579771394505,-0.16037636995315552,18.177942276000977,-1.1441986560821533,-17.972139358520508,-0.5102439522743225,-2.2360262870788574,0.21457235515117645,0
65,0.32000732421875,0.16037636995315552,-18.205713272094727,1.0926239490509033,17.999910354614258,0.4864402413368225,2.2424349784851074,-0.16604940593242645,0.0,0.0,0.0,0.0,0.0,0.0,0.0,0.1564178896528276,0.4671237228687827,0.3361063544130539,0.3681699034864299,0.07345236795165444,0.05679854451221294,-0.1863617709109712,-0.6091390740202183,-0.05762167328137846,-0.6665339111779864,-2.594566355186596,-0.05561824568416573,2.507972624314282,0.8763146125392041,-0.6090851748156966,-0.05753196718556838,-0.666603097082616,-2.5945565370258534,-0.05562143941554,2.507976027223799,0.8763108487046415,0.00024594507066818015,3.668813389207621e-05,0.001534883216083209,-0.00010365150470074009,0.00021436862445300283,-9.003509718140237e-06,-0.0010557482299880603,0.0,0.0,0.0,0.0,0.0,0.0,0.0,5.389920452170127e-05,8.970609581007705e-05,-6.918590462956509e-05,9.818160742636195e-06,-3.1937313742722018e-06,3.4029095168364165e-06,-3.763834562575674e-06,-0.00024594507066818015,-3.668813389207621e-05,-0.001534883216083209,0.00010365150470074009,-0.00021436862445300283,9.003509718140237e-06,0.0010557482299880603,-0.16037636995315552,18.205713272094727,-1.0926239490509033,-17.999910354614258,-0.4864402413368225,-2.2424349784851074,0.16604940593242645,0
66,0.3249940872192383,0.16037636995315552,-18.205713272094727,1.0926239490509033,17.999910354614258,0.4864402413368225,2.2424349784851074,-0.16604940593242645,0.0,0.0,0.0,0.0,0.0,0.0,0.0,0.1564178896528276,0.4671237228687827,0.3361063544130539,0.3681699034864299,0.07345236795165444,0.05679854451221294,-0.1863617709109712,-0.6091390740202183,-0.05762167328137846,-0.6665339111779864,-2.594566355186596,-0.05561824568416573,2.507972624314282,0.8763146125392041,-0.6090851748156966,-0.05753196718556838,-0.666603097082616,-2.5945565370258534,-0.05562143941554,2.507976027223799,0.8763108487046415,0.00024594507066818015,3.668813389207621e-05,0.001534883216083209,-0.00010365150470074009,0.00021436862445300283,-9.003509718140237e-06,-0.0010557482299880603,0.0,0.0,0.0,0.0,0.0,0.0,0.0,5.389920452170127e-05,8.970609581007705e-05,-6.918590462956509e-05,9.818160742636195e-06,-3.1937313742722018e-06,3.4029095168364165e-06,-3.763834562575674e-06,-0.00024594507066818015,-3.668813389207621e-05,-0.001534883216083209,0.00010365150470074009,-0.00021436862445300283,9.003509718140237e-06,0.0010557482299880603,-0.16037636995315552,18.205713272094727,-1.0926239490509033,-17.999910354614258,-0.4864402413368225,-2.2424349784851074,0.16604940593242645,0
67,0.3300015926361084,0.13260537385940552,-18.154138565063477,1.1441986560821533,17.948335647583008,0.4864402413368225,2.2360262870788574,-0.15964071452617645,0.0,0.0,0.0,0.0,0.0,0.0,0.0,0.14743338037585502,0.4674935486402921,0.3253995320112795,0.3684763851187726,0.07331765406370595,0.056692548506311134,-0.18604648404431293,-0.6091370471772471,-0.0576245796712798,-0.666537530455673,-2.59456273590891,-0.05561919294963528,2.507973191999348,0.876313900462455,-0.6090851748156966,-0.05753196718556838,-0.666603097082616,-2.5945565370258534,-0.05562143941554,2.507976027223799,0.8763108487046415,-0.0003900936702063208,-0.0007606153605339785,-0.00043417789271538285,0.0016962173650051048,0.0003846094298121438,0.0003332129984993829,-0.0009580028924601634,0.0,0.0,0.0,0.0,0.0,0.0,0.0,5.187236155057562e-05,9.26124857114144e-05,-6.55666269430144e-05,6.198883056640625e-06,-2.2464659047219393e-06,2.835224450770113e-06,-3.051757813565814e-06,0.0003900936702063208,0.0007606153605339785,0.00043417789271538285,-0.0016962173650051048,-0.0003846094298121438,-0.0003332129984993829,0.0009580028924601634,-0.13260537385940552,18.154138565063477,-1.1441986560821533,-17.948335647583008,-0.4864402413368225,-2.2360262870788574,0.15964071452617645,0
68,0.33500027656555176,0.13260537385940552,-18.154138565063477,1.1441986560821533,17.948335647583008,0.4864402413368225,2.2360262870788574,-0.15964071452617645,0.0,0.0,0.0,0.0,0.0,0.0,0.0,0.14743338037585502,0.4674935486402921,0.3253995320112795,0.3684763851187726,0.07331765406370595,0.056692548506311134,-0.18604648404431293,-0.6091370471772471,-0.0576245796712798,-0.666537530455673,-2.59456273590891,-0.05561919294963528,2.507973191999348,0.876313900462455,-0.6090851748156966,-0.05753196718556838,-0.666603097082616,-2.5945565370258534,-0.05562143941554,2.507976027223799,0.8763108487046415,-0.0003900936702063208,-0.0007606153605339785,-0.00043417789271538285,0.0016962173650051048,0.0003846094298121438,0.0003332129984993829,-0.0009580028924601634,0.0,0.0,0.0,0.0,0.0,0.0,0.0,5.187236155057562e-05,9.26124857114144e-05,-6.55666269430144e-05,6.198883056640625e-06,-2.2464659047219393e-06,2.835224450770113e-06,-3.051757813565814e-06,0.0003900936702063208,0.0007606153605339785,0.00043417789271538285,-0.0016962173650051048,-0.0003846094298121438,-0.0003332129984993829,0.0009580028924601634,-0.13260537385940552,18.154138565063477,-1.1441986560821533,-17.948335647583008,-0.4864402413368225,-2.2360262870788574,0.15964071452617645,0
69,0.34000372886657715,0.16037636995315552,-18.154138565063477,1.1164276599884033,17.999910354614258,0.5047507882118225,2.2360262870788574,-0.19351522624492645,0.0,0.0,0.0,0.0,0.0,0.0,0.0,0.16078793287678664,0.4700595788184699,0.340396398049507,0.3673529799670175,0.07211728867074345,0.05688062614067776,-0.18524090468217622,-0.609139074019778,-0.057625301611847486,-0.6665355816138419,-2.594566355186596,-0.05562346224944839,2.5079732356050406,0.876317625051234,-0.6090851748156966,-0.05753196718556838,-0.666603097082616,-2.5945565370258534,-0.05562143941554,2.507976027223799,0.8763108487046415,0.0004283680589291831,-0.0012234074723090683,0.0007274528206682744,0.0006044028968906175,-0.00022008963820469338,0.00016646500372683462,0.0003839530962717518,0.0,0.0,0.0,0.0,0.0,0.0,0.0,5.389920408138682e-05,9.333442627910277e-05,-6.75154687741486e-05,9.818160742636195e-06,2.0228339083910862e-06,2.7916187583798546e-06,-6.776346592518578e-06,-0.0004283680589291831,0.0012234074723090683,-0.0007274528206682744,-0.0006044028968906175,0.00022008963820469338,-0.00016646500372683462,-0.0003839530962717518,-0.16037636995315552,18.154138565063477,-1.1164276599884033,-17.999910354614258,-0.5047507882118225,-2.2360262870788574,0.19351522624492645,0
70,0.34499621391296387,0.16037636995315552,-18.154138565063477,1.1164276599884033,17.999910354614258,0.5047507882118225,2.2360262870788574,-0.19351522624492645,0.0,0.0,0.0,0.0,0.0,0.0,0.0,0.16078793287678664,0.4700595788184699,0.340396398049507,0.3673529799670175,0.07211728867074345,0.05688062614067776,-0.18524090468217622,-0.609139074019778,-0.057625301611847486,-0.6665355816138419,-2.594566355186596,-0.05562346224944839,2.5079732356050406,0.876317625051234,-0.6090851748156966,-0.05753196718556838,-0.666603097082616,-2.5945565370258534,-0.05562143941554,2.507976027223799,0.8763108487046415,0.0004283680589291831,-0.0012234074723090683,0.0007274528206682744,0.0006044028968906175,-0.00022008963820469338,0.00016646500372683462,0.0003839530962717518,0.0,0.0,0.0,0.0,0.0,0.0,0.0,5.389920408138682e-05,9.333442627910277e-05,-6.75154687741486e-05,9.818160742636195e-06,2.0228339083910862e-06,2.7916187583798546e-06,-6.776346592518578e-06,-0.0004283680589291831,0.0012234074723090683,-0.0007274528206682744,-0.0006044028968906175,0.00022008963820469338,-0.00016646500372683462,-0.0003839530962717518,-0.16037636995315552,18.154138565063477,-1.1164276599884033,-17.999910354614258,-0.5047507882118225,-2.2360262870788574,0.19351522624492645,0
71,0.3500082492828369,0.18418008089065552,-18.154138565063477,1.1441986560821533,17.999910354614258,0.4983420968055725,2.2424349784851074,-0.15964071452617645,0.0,0.0,0.0,0.0,0.0,0.0,0.0,0.1527212105155788,0.4755360151418855,0.3292439705888198,0.3656342991509782,0.07307221788054669,0.0561882528963233,-0.1857132679673657,-0.6091407444560736,-0.05762524001643179,-0.666537530455673,-2.594566355186596,-0.055623827987785444,2.5079771155090316,0.8763107214940103,-0.6090851748156966,-0.05753196718556838,-0.666603097082616,-2.5945565370258534,-0.05562143941554,2.507976027223799,0.8763108487046415,-0.0004969821062003162,-0.0003521342595439837,-7.35116401736746e-05,-6.254993692148504e-05,0.00011320953355104636,-0.00016283875293907714,-0.0014315068173885487,0.0,0.0,0.0,0.0,0.0,0.0,0.0,5.5569640377006735e-05,9.327283086340427e-05,-6.55666269430144e-05,9.818160742636195e-06,2.3885722454444758e-06,-1.088285232597741e-06,1.2721063114007336e-07,0.0004969821062003162,0.0003521342595439837,7.35116401736746e-05,6.254993692148504e-05,-0.00011320953355104636,0.00016283875293907714,0.0014315068173885487,-0.18418008089065552,18.154138565063477,-1.1441986560821533,-17.999910354614258,-0.4983420968055725,-2.2424349784851074,0.15964071452617645,0
72,0.3549933433532715,0.18418008089065552,-18.154138565063477,1.1441986560821533,17.999910354614258,0.4983420968055725,2.2424349784851074,-0.15964071452617645,0.0,0.0,0.0,0.0,0.0,0.0,0.0,0.1527212105155788,0.4755360151418855,0.3292439705888198,0.3656342991509782,0.07307221788054669,0.0561882528963233,-0.1857132679673657,-0.6091407444560736,-0.05762524001643179,-0.666537530455673,-2.594566355186596,-0.055623827987785444,2.5079771155090316,0.8763107214940103,-0.6090851748156966,-0.05753196718556838,-0.666603097082616,-2.5945565370258534,-0.05562143941554,2.507976027223799,0.8763108487046415,-0.0004969821062003162,-0.0003521342595439837,-7.35116401736746e-05,-6.254993692148504e-05,0.00011320953355104636,-0.00016283875293907714,-0.0014315068173885487,0.0,0.0,0.0,0.0,0.0,0.0,0.0,5.5569640377006735e-05,9.327283086340427e-05,-6.55666269430144e-05,9.818160742636195e-06,2.3885722454444758e-06,-1.088285232597741e-06,1.2721063114007336e-07,0.0004969821062003162,0.0003521342595439837,7.35116401736746e-05,6.254993692148504e-05,-0.00011320953355104636,0.00016283875293907714,0.0014315068173885487,-0.18418008089065552,18.154138565063477,-1.1441986560821533,-17.999910354614258,-0.4983420968055725,-2.2424349784851074,0.15964071452617645,0
73,0.35999631881713867,0.18418008089065552,-18.205713272094727,1.1918060779571533,17.972139358520508,0.4983420968055725,2.2360262870788574,-0.13858358561992645,0.0,0.0,0.0,0.0,0.0,0.0,0.0,0.16164910867691776,0.4768534428798453,0.3337270699542854,0.36863202515478943,0.07359879733804892,0.05719175368124773,-0.18628876880750617,-0.6091407357892803,-0.05762304156558616,-0.6665408713273835,-2.594564406344765,-0.05562063401605791,2.507977823197741,0.876311560273022,-0.6090851748156966,-0.05753196718556838,-0.666603097082616,-2.5945565370258534,-0.05562143941554,2.507976027223799,0.8763108487046415,-0.0001490943148119609,0.0009604078055207071,-0.0007426556205090327,0.0004378870505148189,6.038125108970251e-05,0.0002809141007298691,-0.001947212580229611,0.0,0.0,0.0,0.0,0.0,0.0,0.0,5.5560973583723694e-05,9.107438001777768e-05,-6.22257552325145e-05,7.869318911613021e-06,-8.053994820927945e-07,-1.7959739420092546e-06,-7.115683805514195e-07,0.0001490943148119609,-0.0009604078055207071,0.0007426556205090327,-0.0004378870505148189,-6.038125108970251e-05,-0.0002809141007298691,0.001947212580229611,-0.18418008089065552,18.205713272094727,-1.1918060779571533,-17.972139358520508,-0.4983420968055725,-2.2360262870788574,0.13858358561992645,0
74,0.3650202751159668,0.18418008089065552,-18.205713272094727,1.1918060779571533,17.972139358520508,0.4983420968055725,2.2360262870788574,-0.13858358561992645,0.0,0.0,0.0,0.0,0.0,0.0,0.0,0.16164910867691776,0.4768534428798453,0.3337270699542854,0.36863202515478943,0.07359879733804892,0.05719175368124773,-0.18628876880750617,-0.6091407357892803,-0.05762304156558616,-0.6665408713273835,-2.594564406344765,-0.05562063401605791,2.507977823197741,0.876311560273022,-0.6090851748156966,-0.05753196718556838,-0.666603097082616,-2.5945565370258534,-0.05562143941554,2.507976027223799,0.8763108487046415,-0.0001490943148119609,0.0009604078055207071,-0.0007426556205090327,0.0004378870505148189,6.038125108970251e-05,0.0002809141007298691,-0.001947212580229611,0.0,0.0,0.0,0.0,0.0,0.0,0.0,5.5560973583723694e-05,9.107438001777768e-05,-6.22257552325145e-05,7.869318911613021e-06,-8.053994820927945e-07,-1.7959739420092546e-06,-7.115683805514195e-07,0.0001490943148119609,-0.0009604078055207071,0.0007426556205090327,-0.0004378870505148189,-6.038125108970251e-05,-0.0002809141007298691,0.001947212580229611,-0.18418008089065552,18.205713272094727,-1.1918060779571533,-17.972139358520508,-0.4983420968055725,-2.2360262870788574,0.13858358561992645,0
75,0.3699963092803955,0.18418008089065552,-18.205713272094727,1.1918060779571533,17.972139358520508,0.4983420968055725,2.2360262870788574,-0.13858358561992645,0.0,0.0,0.0,0.0,0.0,0.0,0.0,0.16164910867691776,0.4768534428798453,0.3337270699542854,0.36863202515478943,0.07359879733804892,0.05719175368124773,-0.18628876880750617,-0.6091407357892803,-0.05762304156558616,-0.6665408713273835,-2.594564406344765,-0.05562063401605791,2.507977823197741,0.876311560273022,-0.6090851748156966,-0.05753196718556838,-0.666603097082616,-2.5945565370258534,-0.05562143941554,2.507976027223799,0.8763108487046415,-0.0001490943148119609,0.0009604078055207071,-0.0007426556205090327,0.0004378870505148189,6.038125108970251e-05,0.0002809141007298691,-0.001947212580229611,0.0,0.0,0.0,0.0,0.0,0.0,0.0,5.5560973583723694e-05,9.107438001777768e-05,-6.22257552325145e-05,7.869318911613021e-06,-8.053994820927945e-07,-1.7959739420092546e-06,-7.115683805514195e-07,0.0001490943148119609,-0.0009604078055207071,0.0007426556205090327,-0.0004378870505148189,-6.038125108970251e-05,-0.0002809141007298691,0.001947212580229611,-0.18418008089065552,18.205713272094727,-1.1918060779571533,-17.972139358520508,-0.4983420968055725,-2.2360262870788574,0.13858358561992645,0
76,0.37500834465026855,0.18418008089065552,-18.205713272094727,1.1918060779571533,17.972139358520508,0.4983420968055725,2.2360262870788574,-0.13858358561992645,0.0,0.0,0.0,0.0,0.0,0.0,0.0,0.16164910867691776,0.4768534428798453,0.3337270699542854,0.36863202515478943,0.07359879733804892,0.05719175368124773,-0.18628876880750617,-0.6091407357892803,-0.05762304156558616,-0.6665408713273835,-2.594564406344765,-0.05562063401605791,2.507977823197741,0.876311560273022,-0.6090851748156966,-0.05753196718556838,-0.666603097082616,-2.5945565370258534,-0.05562143941554,2.507976027223799,0.8763108487046415,-0.0001490943148119609,0.0009604078055207071,-0.0007426556205090327,0.0004378870505148189,6.038125108970251e-05,0.0002809141007298691,-0.001947212580229611,0.0,0.0,0.0,0.0,0.0,0.0,0.0,5.5560973583723694e-05,9.107438001777768e-05,-6.22257552325145e-05,7.869318911613021e-06,-8.053994820927945e-07,-1.7959739420092546e-06,-7.115683805514195e-07,0.0001490943148119609,-0.0009604078055207071,0.0007426556205090327,-0.0004378870505148189,-6.038125108970251e-05,-0.0002809141007298691,0.001947212580229611,-0.18418008089065552,18.205713272094727,-1.1918060779571533,-17.972139358520508,-0.4983420968055725,-2.2360262870788574,0.13858358561992645,0
77,0.38001132011413574,0.21195107698440552,-18.177942276000977,1.1441986560821533,17.972139358520508,0.4983420968055725,2.2424349784851074,-0.15964071452617645,0.0,0.0,0.0,0.0,0.0,0.0,0.0,0.16569115702671144,0.47720990549214337,0.3346120094506976,0.3672721760281327,0.07403588926604653,0.05752122620335715,-0.18628498527481324,-0.6091426932978559,-0.05762507623168934,-0.666537530455673,-2.594564406344765,-0.05562382797583968,2.5079728206169634,0.8763139004624523,-0.6090851748156966,-0.05753196718556838,-0.666603097082616,-2.5945565370258534,-0.05562143941554,2.507976027223799,0.8763108487046415,-0.0006410781567467422,-0.00015830682189367997,0.0007425430844216364,0.0005325842792960948,-3.1210266152296065e-05,-0.00014097094601833165,-0.0011337982297393303,0.0,0.0,0.0,0.0,0.0,0.0,0.0,5.751848215929112e-05,9.310904612095522e-05,-6.55666269430144e-05,7.869318911613021e-06,2.388560299680653e-06,3.2066068356151334e-06,-3.0517578107902565e-06,0.0006410781567467422,0.00015830682189367997,-0.0007425430844216364,-0.0005325842792960948,3.1210266152296065e-05,0.00014097094601833165,0.0011337982297393303,-0.21195107698440552,18.177942276000977,-1.1441986560821533,-17.972139358520508,-0.4983420968055725,-2.2424349784851074,0.15964071452617645,0
78,0.3849985599517822,0.21195107698440552,-18.177942276000977,1.1441986560821533,17.972139358520508,0.4983420968055725,2.2424349784851074,-0.15964071452617645,0.0,0.0,0.0,0.0,0.0,0.0,0.0,0.16569115702671144,0.47720990549214337,0.3346120094506976,0.3672721760281327,0.07403588926604653,0.05752122620335715,-0.18628498527481324,-0.6091426932978559,-0.05762507623168934,-0.666537530455673,-2.594564406344765,-0.05562382797583968,2.5079728206169634,0.8763139004624523,-0.6090851748156966,-0.05753196718556838,-0.666603097082616,-2.5945565370258534,-0.05562143941554,2.507976027223799,0.8763108487046415,-0.0006410781567467422,-0.00015830682189367997,0.0007425430844216364,0.0005325842792960948,-3.1210266152296065e-05,-0.00014097094601833165,-0.0011337982297393303,0.0,0.0,0.0,0.0,0.0,0.0,0.0,5.751848215929112e-05,9.310904612095522e-05,-6.55666269430144e-05,7.869318911613021e-06,2.388560299680653e-06,3.2066068356151334e-06,-3.0517578107902565e-06,0.0006410781567467422,0.00015830682189367997,-0.0007425430844216364,-0.0005325842792960948,3.1210266152296065e-05,0.00014097094601833165,0.0011337982297393303,-0.21195107698440552,18.177942276000977,-1.1441986560821533,-17.972139358520508,-0.4983420968055725,-2.2424349784851074,0.15964071452617645,0
79,0.3900108337402344,0.16037636995315552,-18.177942276000977,1.1680023670196533,17.972139358520508,0.4983420968055725,2.2552523612976074,-0.15231649577617645,0.0,0.0,0.0,0.0,0.0,0.0,0.0,0.1620697859370464,0.4736114880860129,0.3303536575444234,0.368431521017571,0.07453230120386883,0.05751324902407732,-0.18554644457580954,-0.6091390740202183,-0.05762307885330555,-0.6665392008915282,-2.594564406344765,-0.055623827993869744,2.5079710470473553,0.8763130866603718,-0.6090851748156966,-0.05753196718556838,-0.666603097082616,-2.5945565370258534,-0.05562143941554,2.507976027223799,0.8763108487046415,-0.0005944555456324804,-0.0006775346734294211,-0.00013672768282224233,0.0007478854285704221,-8.292030476582659e-05,-0.0004862087031735913,-0.0011831309919575813,0.0,0.0,0.0,0.0,0.0,0.0,0.0,5.389920452170127e-05,9.1111667737169e-05,-6.389619108781996e-05,7.869318911613021e-06,2.3885783297442065e-06,4.980176443680762e-06,-2.237955730288732e-06,0.0005944555456324804,0.0006775346734294211,0.00013672768282224233,-0.0007478854285704221,8.292030476582659e-05,0.0004862087031735913,0.0011831309919575813,-0.16037636995315552,18.177942276000977,-1.1680023670196533,-17.972139358520508,-0.4983420968055725,-2.2552523612976074,0.15231649577617645,0
80,0.39499354362487793,0.16037636995315552,-18.177942276000977,1.1680023670196533,17.972139358520508,0.4983420968055725,2.2552523612976074,-0.15231649577617645,0.0,0.0,0.0,0.0,0.0,0.0,0.0,0.1620697859370464,0.4736114880860129,0.3303536575444234,0.368431521017571,0.07453230120386883,0.05751324902407732,-0.18554644457580954,-0.6091390740202183,-0.05762307885330555,-0.6665392008915282,-2.594564406344765,-0.055623827993869744,2.5079710470473553,0.8763130866603718,-0.6090851748156966,-0.05753196718556838,-0.666603097082616,-2.5945565370258534,-0.05562143941554,2.507976027223799,0.8763108487046415,-0.0005944555456324804,-0.0006775346734294211,-0.00013672768282224233,0.0007478854285704221,-8.292030476582659e-05,-0.0004862087031735913,-0.0011831309919575813,0.0,0.0,0.0,0.0,0.0,0.0,0.0,5.389920452170127e-05,9.1111667737169e-05,-6.389619108781996e-05,7.869318911613021e-06,2.3885783297442065e-06,4.980176443680762e-06,-2.237955730288732e-06,0.0005944555456324804,0.0006775346734294211,0.00013672768282224233,-0.0007478854285704221,8.292030476582659e-05,0.0004862087031735913,0.0011831309919575813,-0.16037636995315552,18.177942276000977,-1.1680023670196533,-17.972139358520508,-0.4983420968055725,-2.2552523612976074,0.15231649577617645,0
