rezayati/contactInterpretation/dataset/franka_main/labeled_data/link4/d1_7.csv
index,time,tau_J0,tau_J1,tau_J2,tau_J3,tau_J4,tau_J5,tau_J6,tau_J_d0,tau_J_d1,tau_J_d2,tau_J_d3,tau_J_d4,tau_J_d5,tau_J_d6,tau_ext0,tau_ext1,tau_ext2,tau_ext3,tau_ext4,tau_ext5,tau_ext6,q0,q1,q2,q3,q4,q5,q6,q_d0,q_d1,q_d2,q_d3,q_d4,q_d5,q_d6,dq0,dq1,dq2,dq3,dq4,dq5,dq6,dq_d0,dq_d1,dq_d2,dq_d3,dq_d4,dq_d5,dq_d6,e0,e1,e2,e3,e4,e5,e6,de0,de1,de2,de3,de4,de5,de6,etau_J0,etau_J1,etau_J2,etau_J3,etau_J4,etau_J5,etau_J6,label
1,0.0,-0.14510458707809448,-11.973108291625977,1.2671844959259033,21.618074417114258,0.3857322335243225,2.5463900566101074,-0.17978231608867645,0.0,0.0,0.0,0.0,0.0,0.0,0.0,-0.1737211682591344,0.33102334974736736,0.06989744685314389,0.33933611180067397,-0.14578133582572878,0.12558020353230856,-0.21524609185076102,0.17283548943201701,-0.4874642776857342,-0.11127057926382934,-1.9466814999162105,0.13361002165079114,2.5955482235484655,0.945244558961855,0.1728802376190821,-0.48752024683155326,-0.11147110072896137,-1.9463801863486305,0.1336059019074957,2.595550359778934,0.9452445589611904,-0.0007437703965241171,-0.0009898343793297607,-0.0008031138499313895,0.0005476065822364024,9.958589370276863e-05,-0.0005616521791658182,-0.0052957364431632705,0.0,0.0,0.0,0.0,0.0,0.0,0.0,4.4748187065096756e-05,-5.596914581906809e-05,-0.0002005214651320253,0.00030131356758000827,-4.11974329544984e-06,2.1362304685190736e-06,-6.645795025406187e-13,0.0007437703965241171,0.0009898343793297607,0.0008031138499313895,-0.0005476065822364024,-9.958589370276863e-05,0.0005616521791658182,0.0052957364431632705,0.14510458707809448,11.973108291625977,-1.2671844959259033,-21.618074417114258,-0.3857322335243225,-2.5463900566101074,0.17978231608867645,0
2,0.004993915557861328,-0.14510458707809448,-11.973108291625977,1.2671844959259033,21.618074417114258,0.3857322335243225,2.5463900566101074,-0.17978231608867645,0.0,0.0,0.0,0.0,0.0,0.0,0.0,-0.1737211682591344,0.33102334974736736,0.06989744685314389,0.33933611180067397,-0.14578133582572878,0.12558020353230856,-0.21524609185076102,0.17283548943201701,-0.4874642776857342,-0.11127057926382934,-1.9466814999162105,0.13361002165079114,2.5955482235484655,0.945244558961855,0.1728802376190821,-0.48752024683155326,-0.11147110072896137,-1.9463801863486305,0.1336059019074957,2.595550359778934,0.9452445589611904,-0.0007437703965241171,-0.0009898343793297607,-0.0008031138499313895,0.0005476065822364024,9.958589370276863e-05,-0.0005616521791658182,-0.0052957364431632705,0.0,0.0,0.0,0.0,0.0,0.0,0.0,4.4748187065096756e-05,-5.596914581906809e-05,-0.0002005214651320253,0.00030131356758000827,-4.11974329544984e-06,2.1362304685190736e-06,-6.645795025406187e-13,0.0007437703965241171,0.0009898343793297607,0.0008031138499313895,-0.0005476065822364024,-9.958589370276863e-05,0.0005616521791658182,0.0052957364431632705,0.14510458707809448,11.973108291625977,-1.2671844959259033,-21.618074417114258,-0.3857322335243225,-2.5463900566101074,0.17978231608867645,0
3,0.009994983673095703,-0.17287558317184448,-12.024682998657227,1.2671844959259033,21.641878128051758,0.3857322335243225,2.5271639823913574,-0.22098104655742645,0.0,0.0,0.0,0.0,0.0,0.0,0.0,-0.1720084320960297,0.33215372338467575,0.07388489878086833,0.3386085144912122,-0.1465900110878123,0.12597506207122303,-0.21615493218965262,0.17283744706328477,-0.4874606554646086,-0.11127057926382934,-1.9466832498249254,0.13361002165079114,2.595550359778934,0.9452491365985738,0.1728802376190821,-0.48752024683155326,-0.11147110072896137,-1.9463801863486305,0.1336059019074957,2.595550359778934,0.9452445589611904,7.112116690821315e-05,0.00021129134400442538,-0.00018158669310786892,-0.00023289013605508948,8.721547744958607e-06,2.270980855198219e-05,0.010139520285730296,0.0,0.0,0.0,0.0,0.0,0.0,0.0,4.279055579733959e-05,-5.9591366944666824e-05,-0.0002005214651320253,0.0003030634762948292,-4.11974329544984e-06,0.0,-4.5776373833739115e-06,-7.112116690821315e-05,-0.00021129134400442538,0.00018158669310786892,0.00023289013605508948,-8.721547744958607e-06,-2.270980855198219e-05,-0.010139520285730296,0.17287558317184448,12.024682998657227,-1.2671844959259033,-21.641878128051758,-0.3857322335243225,-2.5271639823913574,0.22098104655742645,0
4,0.014991998672485352,-0.17287558317184448,-12.024682998657227,1.2671844959259033,21.641878128051758,0.3857322335243225,2.5271639823913574,-0.22098104655742645,0.0,0.0,0.0,0.0,0.0,0.0,0.0,-0.1720084320960297,0.33215372338467575,0.07388489878086833,0.3386085144912122,-0.1465900110878123,0.12597506207122303,-0.21615493218965262,0.17283744706328477,-0.4874606554646086,-0.11127057926382934,-1.9466832498249254,0.13361002165079114,2.595550359778934,0.9452491365985738,0.1728802376190821,-0.48752024683155326,-0.11147110072896137,-1.9463801863486305,0.1336059019074957,2.595550359778934,0.9452445589611904,7.112116690821315e-05,0.00021129134400442538,-0.00018158669310786892,-0.00023289013605508948,8.721547744958607e-06,2.270980855198219e-05,0.010139520285730296,0.0,0.0,0.0,0.0,0.0,0.0,0.0,4.279055579733959e-05,-5.9591366944666824e-05,-0.0002005214651320253,0.0003030634762948292,-4.11974329544984e-06,0.0,-4.5776373833739115e-06,-7.112116690821315e-05,-0.00021129134400442538,0.00018158669310786892,0.00023289013605508948,-8.721547744958607e-06,-2.270980855198219e-05,-0.010139520285730296,0.17287558317184448,12.024682998657227,-1.2671844959259033,-21.641878128051758,-0.3857322335243225,-2.5271639823913574,0.22098104655742645,0
5,0.019991397857666016,-0.14510458707809448,-11.973108291625977,1.2909882068634033,21.641878128051758,0.3912253975868225,2.5335726737976074,-0.22830526530742645,0.0,0.0,0.0,0.0,0.0,0.0,0.0,-0.17134477357293232,0.35050356089322376,0.073233110593307,0.33172569260849766,-0.14676804245280084,0.1242517532326218,-0.21635121795008674,0.1728354894320666,-0.4874642776857176,-0.1112722496996846,-1.9466831703525143,0.13360941129922865,2.595549647702111,0.9452499504006571,0.1728802376190821,-0.48752024683155326,-0.11147110072896137,-1.9463801863486305,0.1336059019074957,2.595550359778934,0.9452445589611904,-0.0006827101949711828,0.0004070222755259014,-0.0002413392133728852,-0.00031460671769228694,-0.00013853039418657007,-0.0004763687079804139,0.0014879116296957068,0.0,0.0,0.0,0.0,0.0,0.0,0.0,4.474818701549754e-05,-5.596914583566592e-05,-0.00019885102927676146,0.0003029840038837328,-3.509391732964273e-06,7.120768228396912e-07,-5.3914394666509935e-06,0.0006827101949711828,-0.0004070222755259014,0.0002413392133728852,0.00031460671769228694,0.00013853039418657007,0.0004763687079804139,-0.0014879116296957068,0.14510458707809448,11.973108291625977,-1.2909882068634033,-21.641878128051758,-0.3912253975868225,-2.5335726737976074,0.22830526530742645,0
6,0.024993419647216797,-0.14510458707809448,-11.973108291625977,1.2909882068634033,21.641878128051758,0.3912253975868225,2.5335726737976074,-0.22830526530742645,0.0,0.0,0.0,0.0,0.0,0.0,0.0,-0.17134477357293232,0.35050356089322376,0.073233110593307,0.33172569260849766,-0.14676804245280084,0.1242517532326218,-0.21635121795008674,0.1728354894320666,-0.4874642776857176,-0.1112722496996846,-1.9466831703525143,0.13360941129922865,2.595549647702111,0.9452499504006571,0.1728802376190821,-0.48752024683155326,-0.11147110072896137,-1.9463801863486305,0.1336059019074957,2.595550359778934,0.9452445589611904,-0.0006827101949711828,0.0004070222755259014,-0.0002413392133728852,-0.00031460671769228694,-0.00013853039418657007,-0.0004763687079804139,0.0014879116296957068,0.0,0.0,0.0,0.0,0.0,0.0,0.0,4.474818701549754e-05,-5.596914583566592e-05,-0.00019885102927676146,0.0003029840038837328,-3.509391732964273e-06,7.120768228396912e-07,-5.3914394666509935e-06,0.0006827101949711828,-0.0004070222755259014,0.0002413392133728852,0.00031460671769228694,0.00013853039418657007,0.0004763687079804139,-0.0014879116296957068,0.14510458707809448,11.973108291625977,-1.2909882068634033,-21.641878128051758,-0.3912253975868225,-2.5335726737976074,0.22830526530742645,0
7,0.029993534088134766,-0.19667929410934448,-11.949304580688477,1.2671844959259033,21.618074417114258,0.3857322335243225,2.5207552909851074,-0.20083944499492645,0.0,0.0,0.0,0.0,0.0,0.0,0.0,-0.17580591289922307,0.3405357091863309,0.06581676686852213,0.33957509982112455,-0.1456786097711866,0.12549168912313124,-0.21585087780654433,0.1728391087097034,-0.4874659481215895,-0.11127057926382934,-1.9466814999162105,0.1336100201881562,2.595551071855757,0.9452468986428446,0.1728802376190821,-0.48752024683155326,-0.11147110072896137,-1.9463801863486305,0.1336059019074957,2.595550359778934,0.9452445589611904,0.0006276803548421295,5.410443447559936e-05,-4.937264438002153e-05,0.0005228065594547206,7.098034834533413e-05,0.00010441123817345122,-0.0010023059575162265,0.0,0.0,0.0,0.0,0.0,0.0,0.0,4.112890937871261e-05,-5.4298709963762626e-05,-0.0002005214651320253,0.00030131356758000827,-4.118280660520002e-06,-7.120768228396912e-07,-2.3396816541954024e-06,-0.0006276803548421295,-5.410443447559936e-05,4.937264438002153e-05,-0.0005228065594547206,-7.098034834533413e-05,-0.00010441123817345122,0.0010023059575162265,0.19667929410934448,11.949304580688477,-1.2671844959259033,-21.618074417114258,-0.3857322335243225,-2.5207552909851074,0.20083944499492645,0
8,0.03499174118041992,-0.19667929410934448,-11.949304580688477,1.2671844959259033,21.618074417114258,0.3857322335243225,2.5207552909851074,-0.20083944499492645,0.0,0.0,0.0,0.0,0.0,0.0,0.0,-0.17580591289922307,0.3405357091863309,0.06581676686852213,0.33957509982112455,-0.1456786097711866,0.12549168912313124,-0.21585087780654433,0.1728391087097034,-0.4874659481215895,-0.11127057926382934,-1.9466814999162105,0.1336100201881562,2.595551071855757,0.9452468986428446,0.1728802376190821,-0.48752024683155326,-0.11147110072896137,-1.9463801863486305,0.1336059019074957,2.595550359778934,0.9452445589611904,0.0006276803548421295,5.410443447559936e-05,-4.937264438002153e-05,0.0005228065594547206,7.098034834533413e-05,0.00010441123817345122,-0.0010023059575162265,0.0,0.0,0.0,0.0,0.0,0.0,0.0,4.112890937871261e-05,-5.4298709963762626e-05,-0.0002005214651320253,0.00030131356758000827,-4.118280660520002e-06,-7.120768228396912e-07,-2.3396816541954024e-06,-0.0006276803548421295,-5.410443447559936e-05,4.937264438002153e-05,-0.0005228065594547206,-7.098034834533413e-05,-0.00010441123817345122,0.0010023059575162265,0.19667929410934448,11.949304580688477,-1.2671844959259033,-21.618074417114258,-0.3857322335243225,-2.5207552909851074,0.20083944499492645,0
9,0.039994001388549805,-0.17287558317184448,-12.000879287719727,1.2156097888946533,21.594270706176758,0.3976340889930725,2.5271639823913574,-0.20083944499492645,0.0,0.0,0.0,0.0,0.0,0.0,0.0,-0.18036457579579077,0.3374535732346213,0.06085501667835541,0.3424140562877438,-0.1458994504872036,0.12639988522307047,-0.21632681289787412,0.17283743827384815,-0.48746232884390306,-0.11126695998614294,-1.9466798294803553,0.1336086992223975,2.595550359778934,0.9452468986428446,0.1728802376190821,-0.48752024683155326,-0.11147110072896137,-1.9463801863486305,0.1336059019074957,2.595550359778934,0.9452445589611904,-0.0007799831960341166,0.0008043955163262979,0.0005563213057320398,0.0005229309513568577,-0.000493157355833157,-7.827431908952466e-05,-5.067075944689575e-05,0.0,0.0,0.0,0.0,0.0,0.0,0.0,4.279934523396256e-05,-5.7917987650202285e-05,-0.00020414074281842332,0.0002996431317248138,-2.7973149017979093e-06,0.0,-2.3396816541954024e-06,0.0007799831960341166,-0.0008043955163262979,-0.0005563213057320398,-0.0005229309513568577,0.000493157355833157,7.827431908952466e-05,5.067075944689575e-05,0.17287558317184448,12.000879287719727,-1.2156097888946533,-21.594270706176758,-0.3976340889930725,-2.5271639823913574,0.20083944499492645,0
10,0.04499554634094238,-0.17287558317184448,-12.000879287719727,1.2156097888946533,21.594270706176758,0.3976340889930725,2.5271639823913574,-0.20083944499492645,0.0,0.0,0.0,0.0,0.0,0.0,0.0,-0.18036457579579077,0.3374535732346213,0.06085501667835541,0.3424140562877438,-0.1458994504872036,0.12639988522307047,-0.21632681289787412,0.17283743827384815,-0.48746232884390306,-0.11126695998614294,-1.9466798294803553,0.1336086992223975,2.595550359778934,0.9452468986428446,0.1728802376190821,-0.48752024683155326,-0.11147110072896137,-1.9463801863486305,0.1336059019074957,2.595550359778934,0.9452445589611904,-0.0007799831960341166,0.0008043955163262979,0.0005563213057320398,0.0005229309513568577,-0.000493157355833157,-7.827431908952466e-05,-5.067075944689575e-05,0.0,0.0,0.0,0.0,0.0,0.0,0.0,4.279934523396256e-05,-5.7917987650202285e-05,-0.00020414074281842332,0.0002996431317248138,-2.7973149017979093e-06,0.0,-2.3396816541954024e-06,0.0007799831960341166,-0.0008043955163262979,-0.0005563213057320398,-0.0005229309513568577,0.000493157355833157,7.827431908952466e-05,5.067075944689575e-05,0.17287558317184448,12.000879287719727,-1.2156097888946533,-21.594270706176758,-0.3976340889930725,-2.5271639823913574,0.20083944499492645,0
11,0.05001187324523926,-0.17287558317184448,-12.000879287719727,1.2433807849884033,21.669649124145508,0.3857322335243225,2.5271639823913574,-0.24112264811992645,0.0,0.0,0.0,0.0,0.0,0.0,0.0,-0.17518828953499713,0.34937577565586186,0.06906382765106278,0.33941978949326657,-0.14649360154928426,0.12614851611348113,-0.2167095774481023,0.17283743827384815,-0.48746232884390306,-0.11126890882797409,-1.946685119193897,0.13361002165079114,2.595550359778934,0.9452503149161736,0.1728802376190821,-0.48752024683155326,-0.11147110072896137,-1.9463801863486305,0.1336059019074957,2.595550359778934,0.9452445589611904,-0.00032505243258210755,0.0011121155749529892,8.021243926044435e-05,-0.0009008377231213197,0.00021682486621335642,-0.00019382212946160494,0.0013485098487272848,0.0,0.0,0.0,0.0,0.0,0.0,0.0,4.279934523396256e-05,-5.7917987650202285e-05,-0.00020219190098727524,0.00030493284526644793,-4.11974329544984e-06,0.0,-5.755954983199807e-06,0.00032505243258210755,-0.0011121155749529892,-8.021243926044435e-05,0.0009008377231213197,-0.00021682486621335642,0.00019382212946160494,-0.0013485098487272848,0.17287558317184448,12.000879287719727,-1.2433807849884033,-21.669649124145508,-0.3857322335243225,-2.5271639823913574,0.24112264811992645,0
12,0.05502438545227051,-0.17287558317184448,-12.000879287719727,1.2433807849884033,21.669649124145508,0.3857322335243225,2.5271639823913574,-0.24112264811992645,0.0,0.0,0.0,0.0,0.0,0.0,0.0,-0.17518828953499713,0.34937577565586186,0.06906382765106278,0.33941978949326657,-0.14649360154928426,0.12614851611348113,-0.2167095774481023,0.17283743827384815,-0.48746232884390306,-0.11126890882797409,-1.946685119193897,0.13361002165079114,2.595550359778934,0.9452503149161736,0.1728802376190821,-0.48752024683155326,-0.11147110072896137,-1.9463801863486305,0.1336059019074957,2.595550359778934,0.9452445589611904,-0.00032505243258210755,0.0011121155749529892,8.021243926044435e-05,-0.0009008377231213197,0.00021682486621335642,-0.00019382212946160494,0.0013485098487272848,0.0,0.0,0.0,0.0,0.0,0.0,0.0,4.279934523396256e-05,-5.7917987650202285e-05,-0.00020219190098727524,0.00030493284526644793,-4.11974329544984e-06,0.0,-5.755954983199807e-06,0.00032505243258210755,-0.0011121155749529892,-8.021243926044435e-05,0.0009008377231213197,-0.00021682486621335642,0.00019382212946160494,-0.0013485098487272848,0.17287558317184448,12.000879287719727,-1.2433807849884033,-21.669649124145508,-0.3857322335243225,-2.5271639823913574,0.24112264811992645,0
13,0.059998273849487305,-0.17287558317184448,-12.000879287719727,1.2433807849884033,21.669649124145508,0.3857322335243225,2.5271639823913574,-0.24112264811992645,0.0,0.0,0.0,0.0,0.0,0.0,0.0,-0.17518828953499713,0.34937577565586186,0.06906382765106278,0.33941978949326657,-0.14649360154928426,0.12614851611348113,-0.2167095774481023,0.17283743827384815,-0.48746232884390306,-0.11126890882797409,-1.946685119193897,0.13361002165079114,2.595550359778934,0.9452503149161736,0.1728802376190821,-0.48752024683155326,-0.11147110072896137,-1.9463801863486305,0.1336059019074957,2.595550359778934,0.9452445589611904,-0.00032505243258210755,0.0011121155749529892,8.021243926044435e-05,-0.0009008377231213197,0.00021682486621335642,-0.00019382212946160494,0.0013485098487272848,0.0,0.0,0.0,0.0,0.0,0.0,0.0,4.279934523396256e-05,-5.7917987650202285e-05,-0.00020219190098727524,0.00030493284526644793,-4.11974329544984e-06,0.0,-5.755954983199807e-06,0.00032505243258210755,-0.0011121155749529892,-8.021243926044435e-05,0.0009008377231213197,-0.00021682486621335642,0.00019382212946160494,-0.0013485098487272848,0.17287558317184448,12.000879287719727,-1.2433807849884033,-21.669649124145508,-0.3857322335243225,-2.5271639823913574,0.24112264811992645,0
14,0.06499409675598145,-0.17287558317184448,-12.000879287719727,1.2433807849884033,21.669649124145508,0.3857322335243225,2.5271639823913574,-0.24112264811992645,0.0,0.0,0.0,0.0,0.0,0.0,0.0,-0.17518828953499713,0.34937577565586186,0.06906382765106278,0.33941978949326657,-0.14649360154928426,0.12614851611348113,-0.2167095774481023,0.17283743827384815,-0.48746232884390306,-0.11126890882797409,-1.946685119193897,0.13361002165079114,2.595550359778934,0.9452503149161736,0.1728802376190821,-0.48752024683155326,-0.11147110072896137,-1.9463801863486305,0.1336059019074957,2.595550359778934,0.9452445589611904,-0.00032505243258210755,0.0011121155749529892,8.021243926044435e-05,-0.0009008377231213197,0.00021682486621335642,-0.00019382212946160494,0.0013485098487272848,0.0,0.0,0.0,0.0,0.0,0.0,0.0,4.279934523396256e-05,-5.7917987650202285e-05,-0.00020219190098727524,0.00030493284526644793,-4.11974329544984e-06,0.0,-5.755954983199807e-06,0.00032505243258210755,-0.0011121155749529892,-8.021243926044435e-05,0.0009008377231213197,-0.00021682486621335642,0.00019382212946160494,-0.0013485098487272848,0.17287558317184448,12.000879287719727,-1.2433807849884033,-21.669649124145508,-0.3857322335243225,-2.5271639823913574,0.24112264811992645,0
15,0.0699923038482666,-0.17287558317184448,-12.000879287719727,1.2671844959259033,21.618074417114258,0.3976340889930725,2.5207552909851074,-0.17978231608867645,0.0,0.0,0.0,0.0,0.0,0.0,0.0,-0.1791816353604515,0.3435173837361662,0.06404563519468162,0.34348484657446543,-0.1462183681157807,0.12604507933506914,-0.2172866538336554,0.17283743827384815,-0.48746232884390306,-0.11127057926382934,-1.9466814999162105,0.13360976548327338,2.595551071855757,0.9452445589558733,0.1728802376190821,-0.48752024683155326,-0.11147110072896137,-1.9463801863486305,0.1336059019074957,2.595550359778934,0.9452445589611904,-0.0002514750873550854,0.00018616489853841894,-0.0005235173086117068,0.0007654876245583714,-0.00039816666978781065,8.228535459902961e-05,-0.001342970233216753,0.0,0.0,0.0,0.0,0.0,0.0,0.0,4.279934523396256e-05,-5.7917987650202285e-05,-0.0002005214651320253,0.00030131356758000827,-3.863575777696138e-06,-7.120768228396912e-07,5.3170801095348e-12,0.0002514750873550854,-0.00018616489853841894,0.0005235173086117068,-0.0007654876245583714,0.00039816666978781065,-8.228535459902961e-05,0.001342970233216753,0.17287558317184448,12.000879287719727,-1.2671844959259033,-21.618074417114258,-0.3976340889930725,-2.5207552909851074,0.17978231608867645,0
16,0.07499504089355469,-0.17287558317184448,-12.000879287719727,1.2671844959259033,21.618074417114258,0.3976340889930725,2.5207552909851074,-0.17978231608867645,0.0,0.0,0.0,0.0,0.0,0.0,0.0,-0.1791816353604515,0.3435173837361662,0.06404563519468162,0.34348484657446543,-0.1462183681157807,0.12604507933506914,-0.2172866538336554,0.17283743827384815,-0.48746232884390306,-0.11127057926382934,-1.9466814999162105,0.13360976548327338,2.595551071855757,0.9452445589558733,0.1728802376190821,-0.48752024683155326,-0.11147110072896137,-1.9463801863486305,0.1336059019074957,2.595550359778934,0.9452445589611904,-0.0002514750873550854,0.00018616489853841894,-0.0005235173086117068,0.0007654876245583714,-0.00039816666978781065,8.228535459902961e-05,-0.001342970233216753,0.0,0.0,0.0,0.0,0.0,0.0,0.0,4.279934523396256e-05,-5.7917987650202285e-05,-0.0002005214651320253,0.00030131356758000827,-3.863575777696138e-06,-7.120768228396912e-07,5.3170801095348e-12,0.0002514750873550854,-0.00018616489853841894,0.0005235173086117068,-0.0007654876245583714,0.00039816666978781065,-8.228535459902961e-05,0.001342970233216753,0.17287558317184448,12.000879287719727,-1.2671844959259033,-21.618074417114258,-0.3976340889930725,-2.5207552909851074,0.17978231608867645,0
17,0.07999515533447266,-0.19667929410934448,-12.000879287719727,1.2909882068634033,21.594270706176758,0.3912253975868225,2.5207552909851074,-0.19351522624492645,0.0,0.0,0.0,0.0,0.0,0.0,0.0,-0.17534469203548703,0.3438995742500189,0.06995501197126347,0.34277816001824307,-0.14650089349846185,0.12515651193471455,-0.2170996378641414,0.1728391087097034,-0.48746232884390306,-0.1112722496996846,-1.9466798294803553,0.13360941130524773,2.595551067495106,0.9452460848407613,0.1728802376190821,-0.48752024683155326,-0.11147110072896137,-1.9463801863486305,0.1336059019074957,2.595550359778934,0.9452445589611904,0.00040394477147386623,6.661183544067767e-05,-9.756723751102597e-05,0.0010338632128009848,-0.0003117796534409889,3.013405907946836e-06,-0.0004832242866925338,0.0,0.0,0.0,0.0,0.0,0.0,0.0,4.112890937871261e-05,-5.7917987650202285e-05,-0.00019885102927676146,0.0002996431317248138,-3.509397752038401e-06,-7.077161718882508e-07,-1.5258795709183204e-06,-0.00040394477147386623,-6.661183544067767e-05,9.756723751102597e-05,-0.0010338632128009848,0.0003117796534409889,-3.013405907946836e-06,0.0004832242866925338,0.19667929410934448,12.000879287719727,-1.2909882068634033,-21.594270706176758,-0.3912253975868225,-2.5207552909851074,0.19351522624492645,0
18,0.08508992195129395,-0.19667929410934448,-12.000879287719727,1.2909882068634033,21.594270706176758,0.3912253975868225,2.5207552909851074,-0.19351522624492645,0.0,0.0,0.0,0.0,0.0,0.0,0.0,-0.17534469203548703,0.3438995742500189,0.06995501197126347,0.34277816001824307,-0.14650089349846185,0.12515651193471455,-0.2170996378641414,0.1728391087097034,-0.48746232884390306,-0.1112722496996846,-1.9466798294803553,0.13360941130524773,2.595551067495106,0.9452460848407613,0.1728802376190821,-0.48752024683155326,-0.11147110072896137,-1.9463801863486305,0.1336059019074957,2.595550359778934,0.9452445589611904,0.00040394477147386623,6.661183544067767e-05,-9.756723751102597e-05,0.0010338632128009848,-0.0003117796534409889,3.013405907946836e-06,-0.0004832242866925338,0.0,0.0,0.0,0.0,0.0,0.0,0.0,4.112890937871261e-05,-5.7917987650202285e-05,-0.00019885102927676146,0.0002996431317248138,-3.509397752038401e-06,-7.077161718882508e-07,-1.5258795709183204e-06,-0.00040394477147386623,-6.661183544067767e-05,9.756723751102597e-05,-0.0010338632128009848,0.0003117796534409889,-3.013405907946836e-06,0.0004832242866925338,0.19667929410934448,12.000879287719727,-1.2909882068634033,-21.594270706176758,-0.3912253975868225,-2.5207552909851074,0.19351522624492645,0
19,0.08999228477478027,-0.19667929410934448,-12.000879287719727,1.2433807849884033,21.618074417114258,0.3912253975868225,2.5207552909851074,-0.24844686686992645,0.0,0.0,0.0,0.0,0.0,0.0,0.0,-0.17998124164334378,0.3427757358254238,0.06556171060830479,0.34247274407333606,-0.14605572450792736,0.1245463675082737,-0.21599476905736706,0.1728391087097034,-0.48746232884390306,-0.1112689087918877,-1.9466818178076493,0.1336094112992287,2.5955510718557324,0.9452521883563862,0.1728802376190821,-0.48752024683155326,-0.11147110072896137,-1.9463801863486305,0.1336059019074957,2.595550359778934,0.9452445589611904,0.0005151634788529303,-6.972603213695331e-05,0.0006653886312223363,0.0007274121961881925,-0.00016261384339223017,0.00030001659975006337,0.0020605196924524507,0.0,0.0,0.0,0.0,0.0,0.0,0.0,4.112890937871261e-05,-5.7917987650202285e-05,-0.000202191937073673,0.00030163145901873634,-3.5093917330197844e-06,-7.120767984147847e-07,-7.629395195829503e-06,-0.0005151634788529303,6.972603213695331e-05,-0.0006653886312223363,-0.0007274121961881925,0.00016261384339223017,-0.00030001659975006337,-0.0020605196924524507,0.19667929410934448,12.000879287719727,-1.2433807849884033,-21.618074417114258,-0.3912253975868225,-2.5207552909851074,0.24844686686992645,0
20,0.09499192237854004,-0.19667929410934448,-12.000879287719727,1.2433807849884033,21.618074417114258,0.3912253975868225,2.5207552909851074,-0.24844686686992645,0.0,0.0,0.0,0.0,0.0,0.0,0.0,-0.17998124164334378,0.3427757358254238,0.06556171060830479,0.34247274407333606,-0.14605572450792736,0.1245463675082737,-0.21599476905736706,0.1728391087097034,-0.48746232884390306,-0.1112689087918877,-1.9466818178076493,0.1336094112992287,2.5955510718557324,0.9452521883563862,0.1728802376190821,-0.48752024683155326,-0.11147110072896137,-1.9463801863486305,0.1336059019074957,2.595550359778934,0.9452445589611904,0.0005151634788529303,-6.972603213695331e-05,0.0006653886312223363,0.0007274121961881925,-0.00016261384339223017,0.00030001659975006337,0.0020605196924524507,0.0,0.0,0.0,0.0,0.0,0.0,0.0,4.112890937871261e-05,-5.7917987650202285e-05,-0.000202191937073673,0.00030163145901873634,-3.5093917330197844e-06,-7.120767984147847e-07,-7.629395195829503e-06,-0.0005151634788529303,6.972603213695331e-05,-0.0006653886312223363,-0.0007274121961881925,0.00016261384339223017,-0.00030001659975006337,-0.0020605196924524507,0.19667929410934448,12.000879287719727,-1.2433807849884033,-21.618074417114258,-0.3912253975868225,-2.5207552909851074,0.24844686686992645,0
21,0.0999913215637207,-0.22445029020309448,-11.949304580688477,1.2909882068634033,21.641878128051758,0.3912253975868225,2.5335726737976074,-0.17978231608867645,0.0,0.0,0.0,0.0,0.0,0.0,0.0,-0.17527934998285008,0.3356041744701127,0.07576146846799668,0.3444346965954027,-0.14658562356167798,0.12481775573723779,-0.21507644236998702,0.17284105787706924,-0.4874659481215895,-0.11127222339269612,-1.9466831703538603,0.13360941129922868,2.595549647702111,0.945244558961855,0.1728802376190821,-0.48752024683155326,-0.11147110072896137,-1.9463801863486305,0.1336059019074957,2.595550359778934,0.9452445589611904,0.0014839464687793483,-0.001768510466556783,-0.00032805044798896616,-0.00010814724842736663,-0.00010362419229166899,-0.0001517721039856929,-0.0012411422747398925,0.0,0.0,0.0,0.0,0.0,0.0,0.0,3.917974201286811e-05,-5.4298709963762626e-05,-0.00019887733626525184,0.0003029840052297672,-3.5093917329920288e-06,7.120768228396912e-07,-6.645795025406187e-13,-0.0014839464687793483,0.001768510466556783,0.00032805044798896616,0.00010814724842736663,0.00010362419229166899,0.0001517721039856929,0.0012411422747398925,0.22445029020309448,11.949304580688477,-1.2909882068634033,-21.641878128051758,-0.3912253975868225,-2.5335726737976074,0.17978231608867645,0
22,0.10499143600463867,-0.22445029020309448,-11.949304580688477,1.2909882068634033,21.641878128051758,0.3912253975868225,2.5335726737976074,-0.17978231608867645,0.0,0.0,0.0,0.0,0.0,0.0,0.0,-0.17527934998285008,0.3356041744701127,0.07576146846799668,0.3444346965954027,-0.14658562356167798,0.12481775573723779,-0.21507644236998702,0.17284105787706924,-0.4874659481215895,-0.11127222339269612,-1.9466831703538603,0.13360941129922868,2.595549647702111,0.945244558961855,0.1728802376190821,-0.48752024683155326,-0.11147110072896137,-1.9463801863486305,0.1336059019074957,2.595550359778934,0.9452445589611904,0.0014839464687793483,-0.001768510466556783,-0.00032805044798896616,-0.00010814724842736663,-0.00010362419229166899,-0.0001517721039856929,-0.0012411422747398925,0.0,0.0,0.0,0.0,0.0,0.0,0.0,3.917974201286811e-05,-5.4298709963762626e-05,-0.00019887733626525184,0.0003029840052297672,-3.5093917329920288e-06,7.120768228396912e-07,-6.645795025406187e-13,-0.0014839464687793483,0.001768510466556783,0.00032805044798896616,0.00010814724842736663,0.00010362419229166899,0.0001517721039856929,0.0012411422747398925,0.22445029020309448,11.949304580688477,-1.2909882068634033,-21.641878128051758,-0.3912253975868225,-2.5335726737976074,0.17978231608867645,0
23,0.10999536514282227,-0.19667929410934448,-12.000879287719727,1.2433807849884033,21.618074417114258,0.3912253975868225,2.5207552909851074,-0.21457235515117645,0.0,0.0,0.0,0.0,0.0,0.0,0.0,-0.1804646704540371,0.3484115206972123,0.07059412606182844,0.336848005954081,-0.14628730884272492,0.12439840844852816,-0.2156356561505443,0.17283910870970523,-0.48746018307669114,-0.11126890882782559,-1.9466814999162105,0.13360941129922868,2.595551071855757,0.9452484245217508,0.1728802376190821,-0.48752024683155326,-0.11147110072896137,-1.9463801863486305,0.1336059019074957,2.595550359778934,0.9452445589611904,0.00012402226351988728,0.00040575281285443253,0.0007975084169828684,0.00032435584298609393,-0.0001038770778528379,0.00012721725795141072,0.00019625613210580824,0.0,0.0,0.0,0.0,0.0,0.0,0.0,4.112890937688074e-05,-6.006375486211635e-05,-0.00020219190113578145,0.00030131356758000827,-3.5093917329920288e-06,-7.120768228396912e-07,-3.865560560423198e-06,-0.00012402226351988728,-0.00040575281285443253,-0.0007975084169828684,-0.00032435584298609393,0.0001038770778528379,-0.00012721725795141072,-0.00019625613210580824,0.19667929410934448,12.000879287719727,-1.2433807849884033,-21.618074417114258,-0.3912253975868225,-2.5207552909851074,0.21457235515117645,0
24,0.11625337600708008,-0.19667929410934448,-12.000879287719727,1.2433807849884033,21.618074417114258,0.3912253975868225,2.5207552909851074,-0.21457235515117645,0.0,0.0,0.0,0.0,0.0,0.0,0.0,-0.1804646704540371,0.3484115206972123,0.07059412606182844,0.336848005954081,-0.14628730884272492,0.12439840844852816,-0.2156356561505443,0.17283910870970523,-0.48746018307669114,-0.11126890882782559,-1.9466814999162105,0.13360941129922868,2.595551071855757,0.9452484245217508,0.1728802376190821,-0.48752024683155326,-0.11147110072896137,-1.9463801863486305,0.1336059019074957,2.595550359778934,0.9452445589611904,0.00012402226351988728,0.00040575281285443253,0.0007975084169828684,0.00032435584298609393,-0.0001038770778528379,0.00012721725795141072,0.00019625613210580824,0.0,0.0,0.0,0.0,0.0,0.0,0.0,4.112890937688074e-05,-6.006375486211635e-05,-0.00020219190113578145,0.00030131356758000827,-3.5093917329920288e-06,-7.120768228396912e-07,-3.865560560423198e-06,-0.00012402226351988728,-0.00040575281285443253,-0.0007975084169828684,-0.00032435584298609393,0.0001038770778528379,-0.00012721725795141072,-0.00019625613210580824,0.19667929410934448,12.000879287719727,-1.2433807849884033,-21.618074417114258,-0.3912253975868225,-2.5207552909851074,0.21457235515117645,0
25,0.12241864204406738,-0.17287558317184448,-12.000879287719727,1.2671844959259033,21.641878128051758,0.3793235421180725,2.5271639823913574,-0.21457235515117645,0.0,0.0,0.0,0.0,0.0,0.0,0.0,-0.1832122141020669,0.3349310390040358,0.07252529845407449,0.3432390832258304,-0.14633269385973058,0.12534148044848578,-0.21585908156848269,0.17283815021821627,-0.4874623288317902,-0.11127057926382934,-1.9466831703520657,0.1336107337276141,2.595550359778934,0.9452484245217508,0.1728802376190821,-0.48752024683155326,-0.11147110072896137,-1.9463801863486305,0.1336059019074957,2.595550359778934,0.9452445589611904,-0.0002460381546954652,0.00011662097220217985,-9.362928322452166e-05,-0.00031263404432112295,0.00031281933268183286,8.98357056143292e-05,0.0004660940051236761,0.0,0.0,0.0,0.0,0.0,0.0,0.0,4.208740086583673e-05,-5.791799976306855e-05,-0.0002005214651320253,0.0003029840034352027,-4.831820118400554e-06,0.0,-3.865560560423198e-06,0.0002460381546954652,-0.00011662097220217985,9.362928322452166e-05,0.00031263404432112295,-0.00031281933268183286,-8.98357056143292e-05,-0.0004660940051236761,0.17287558317184448,12.000879287719727,-1.2671844959259033,-21.641878128051758,-0.3793235421180725,-2.5271639823913574,0.21457235515117645,0
26,0.12499642372131348,-0.17287558317184448,-12.000879287719727,1.2671844959259033,21.641878128051758,0.3793235421180725,2.5271639823913574,-0.21457235515117645,0.0,0.0,0.0,0.0,0.0,0.0,0.0,-0.1832122141020669,0.3349310390040358,0.07252529845407449,0.3432390832258304,-0.14633269385973058,0.12534148044848578,-0.21585908156848269,0.17283815021821627,-0.4874623288317902,-0.11127057926382934,-1.9466831703520657,0.1336107337276141,2.595550359778934,0.9452484245217508,0.1728802376190821,-0.48752024683155326,-0.11147110072896137,-1.9463801863486305,0.1336059019074957,2.595550359778934,0.9452445589611904,-0.0002460381546954652,0.00011662097220217985,-9.362928322452166e-05,-0.00031263404432112295,0.00031281933268183286,8.98357056143292e-05,0.0004660940051236761,0.0,0.0,0.0,0.0,0.0,0.0,0.0,4.208740086583673e-05,-5.791799976306855e-05,-0.0002005214651320253,0.0003029840034352027,-4.831820118400554e-06,0.0,-3.865560560423198e-06,0.0002460381546954652,-0.00011662097220217985,9.362928322452166e-05,0.00031263404432112295,-0.00031281933268183286,-8.98357056143292e-05,-0.0004660940051236761,0.17287558317184448,12.000879287719727,-1.2671844959259033,-21.641878128051758,-0.3793235421180725,-2.5271639823913574,0.21457235515117645,0
27,0.12999963760375977,-0.19667929410934448,-12.000879287719727,1.2909882068634033,21.618074417114258,0.3857322335243225,2.5271639823913574,-0.19351522624492645,0.0,0.0,0.0,0.0,0.0,0.0,0.0,-0.18339509874228851,0.33988463073878084,0.07042918942858294,0.3419516354873531,-0.14629127765303612,0.12520192738856842,-0.21547024001873685,0.17283910871372232,-0.487462328843903,-0.11127217077871976,-1.9466822151719478,0.13361002165079117,2.595550359778934,0.9452460848407613,0.1728802376190821,-0.48752024683155326,-0.11147110072896137,-1.9463801863486305,0.1336059019074957,2.595550359778934,0.9452445589611904,0.0006900516278675232,0.00026084305154508344,-0.0009606728689234847,0.00043836319242928067,8.914067936927087e-05,-4.240626585256982e-05,-0.000512639845447578,0.0,0.0,0.0,0.0,0.0,0.0,0.0,4.1128905359788526e-05,-5.7917987650257796e-05,-0.0001989299502416081,0.00030202882331731296,-4.119743295477596e-06,0.0,-1.5258795709183204e-06,-0.0006900516278675232,-0.00026084305154508344,0.0009606728689234847,-0.00043836319242928067,-8.914067936927087e-05,4.240626585256982e-05,0.000512639845447578,0.19667929410934448,12.000879287719727,-1.2909882068634033,-21.618074417114258,-0.3857322335243225,-2.5271639823913574,0.19351522624492645,0
28,0.1349937915802002,-0.19667929410934448,-12.000879287719727,1.2909882068634033,21.618074417114258,0.3857322335243225,2.5271639823913574,-0.19351522624492645,0.0,0.0,0.0,0.0,0.0,0.0,0.0,-0.18339509874228851,0.33988463073878084,0.07042918942858294,0.3419516354873531,-0.14629127765303612,0.12520192738856842,-0.21547024001873685,0.17283910871372232,-0.487462328843903,-0.11127217077871976,-1.9466822151719478,0.13361002165079117,2.595550359778934,0.9452460848407613,0.1728802376190821,-0.48752024683155326,-0.11147110072896137,-1.9463801863486305,0.1336059019074957,2.595550359778934,0.9452445589611904,0.0006900516278675232,0.00026084305154508344,-0.0009606728689234847,0.00043836319242928067,8.914067936927087e-05,-4.240626585256982e-05,-0.000512639845447578,0.0,0.0,0.0,0.0,0.0,0.0,0.0,4.1128905359788526e-05,-5.7917987650257796e-05,-0.0001989299502416081,0.00030202882331731296,-4.119743295477596e-06,0.0,-1.5258795709183204e-06,-0.0006900516278675232,-0.00026084305154508344,0.0009606728689234847,-0.00043836319242928067,-8.914067936927087e-05,4.240626585256982e-05,0.000512639845447578,0.19667929410934448,12.000879287719727,-1.2909882068634033,-21.618074417114258,-0.3857322335243225,-2.5271639823913574,0.19351522624492645,0
29,0.13999271392822266,-0.19667929410934448,-12.000879287719727,1.1918060779571533,21.618074417114258,0.3912253975868225,2.5143465995788574,-0.17978231608867645,0.0,0.0,0.0,0.0,0.0,0.0,0.0,-0.18344963600427625,0.35004486502930954,0.0648714706850786,0.33863869880796515,-0.14571209329910942,0.12470763098755683,-0.2147971446067385,0.1728391087097034,-0.48746232884390306,-0.11126528954984218,-1.9466814999202482,0.13360941129922868,2.5955517839325797,0.945244558961855,0.1728802376190821,-0.48752024683155326,-0.11147110072896137,-1.9463801863486305,0.1336059019074957,2.595550359778934,0.9452445589611904,0.0004016879787677568,0.0010771245279510941,0.001418189534725568,0.0005490775432608723,-6.783370064601283e-05,0.00039205702713725855,-0.00034274890134258236,0.0,0.0,0.0,0.0,0.0,0.0,0.0,4.112890937871261e-05,-5.7917987650202285e-05,-0.0002058111791191919,0.00030131357161766736,-3.5093917329920288e-06,-1.4241536456793824e-06,-6.645795025406187e-13,-0.0004016879787677568,-0.0010771245279510941,-0.001418189534725568,-0.0005490775432608723,6.783370064601283e-05,-0.00039205702713725855,0.00034274890134258236,0.19667929410934448,12.000879287719727,-1.1918060779571533,-21.618074417114258,-0.3912253975868225,-2.5143465995788574,0.17978231608867645,0
30,0.14499425888061523,-0.19667929410934448,-12.000879287719727,1.1918060779571533,21.618074417114258,0.3912253975868225,2.5143465995788574,-0.17978231608867645,0.0,0.0,0.0,0.0,0.0,0.0,0.0,-0.18344963600427625,0.35004486502930954,0.0648714706850786,0.33863869880796515,-0.14571209329910942,0.12470763098755683,-0.2147971446067385,0.1728391087097034,-0.48746232884390306,-0.11126528954984218,-1.9466814999202482,0.13360941129922868,2.5955517839325797,0.945244558961855,0.1728802376190821,-0.48752024683155326,-0.11147110072896137,-1.9463801863486305,0.1336059019074957,2.595550359778934,0.9452445589611904,0.0004016879787677568,0.0010771245279510941,0.001418189534725568,0.0005490775432608723,-6.783370064601283e-05,0.00039205702713725855,-0.00034274890134258236,0.0,0.0,0.0,0.0,0.0,0.0,0.0,4.112890937871261e-05,-5.7917987650202285e-05,-0.0002058111791191919,0.00030131357161766736,-3.5093917329920288e-06,-1.4241536456793824e-06,-6.645795025406187e-13,-0.0004016879787677568,-0.0010771245279510941,-0.001418189534725568,-0.0005490775432608723,6.783370064601283e-05,-0.00039205702713725855,0.00034274890134258236,0.19667929410934448,12.000879287719727,-1.1918060779571533,-21.618074417114258,-0.3912253975868225,-2.5143465995788574,0.17978231608867645,0
31,0.1499929428100586,-0.17287558317184448,-11.925500869750977,1.2433807849884033,21.618074417114258,0.3857322335243225,2.5335726737976074,-0.23471395671367645,0.0,0.0,0.0,0.0,0.0,0.0,0.0,-0.18154386716929266,0.3402070679306798,0.06649570211810728,0.34746924403905544,-0.14552670914214946,0.12546616026092786,-0.21334746543951574,0.17283743827384815,-0.48746761855744475,-0.11126890785364119,-1.9466814999162105,0.13361002165079117,2.595549647702111,0.94525066247748,0.1728802376190821,-0.48752024683155326,-0.11147110072896137,-1.9463801863486305,0.1336059019074957,2.595550359778934,0.9452445589611904,-0.0004125336341692549,-0.0009662013886393291,0.0002844652151743512,0.0004749170964931939,0.00010930142398411754,-0.00037391361938040853,0.0014258703730461633,0.0,0.0,0.0,0.0,0.0,0.0,0.0,4.279934523396256e-05,-5.2628274108512674e-05,-0.00020219287532018126,0.00030131356758000827,-4.119743295477596e-06,7.120768228396912e-07,-6.103516289601707e-06,0.0004125336341692549,0.0009662013886393291,-0.0002844652151743512,-0.0004749170964931939,-0.00010930142398411754,0.00037391361938040853,-0.0014258703730461633,0.17287558317184448,11.925500869750977,-1.2433807849884033,-21.618074417114258,-0.3857322335243225,-2.5335726737976074,0.23471395671367645,0
32,0.1551532745361328,-0.17287558317184448,-11.925500869750977,1.2433807849884033,21.618074417114258,0.3857322335243225,2.5335726737976074,-0.23471395671367645,0.0,0.0,0.0,0.0,0.0,0.0,0.0,-0.18154386716929266,0.3402070679306798,0.06649570211810728,0.34746924403905544,-0.14552670914214946,0.12546616026092786,-0.21334746543951574,0.17283743827384815,-0.48746761855744475,-0.11126890785364119,-1.9466814999162105,0.13361002165079117,2.595549647702111,0.94525066247748,0.1728802376190821,-0.48752024683155326,-0.11147110072896137,-1.9463801863486305,0.1336059019074957,2.595550359778934,0.9452445589611904,-0.0004125336341692549,-0.0009662013886393291,0.0002844652151743512,0.0004749170964931939,0.00010930142398411754,-0.00037391361938040853,0.0014258703730461633,0.0,0.0,0.0,0.0,0.0,0.0,0.0,4.279934523396256e-05,-5.2628274108512674e-05,-0.00020219287532018126,0.00030131356758000827,-4.119743295477596e-06,7.120768228396912e-07,-6.103516289601707e-06,0.0004125336341692549,0.0009662013886393291,-0.0002844652151743512,-0.0004749170964931939,-0.00010930142398411754,0.00037391361938040853,-0.0014258703730461633,0.17287558317184448,11.925500869750977,-1.2433807849884033,-21.618074417114258,-0.3857322335243225,-2.5335726737976074,0.23471395671367645,0
33,0.15994572639465332,-0.17287558317184448,-11.925500869750977,1.2433807849884033,21.594270706176758,0.3793235421180725,2.5271639823913574,-0.22098104655742645,0.0,0.0,0.0,0.0,0.0,0.0,0.0,-0.17934945493659057,0.3494872114025123,0.06530040684237891,0.3448383732516769,-0.14581466252230296,0.12519735171877905,-0.21384316700342462,0.17283743827384815,-0.48746761855744475,-0.11126890882795759,-1.9466798294803553,0.1336107337276141,2.595550359778934,0.9452502227276564,0.1728802376190821,-0.48752024683155326,-0.11147110072896137,-1.9463801863486305,0.1336059019074957,2.595550359778934,0.9452445589611904,-0.00010199276272517822,-0.0008729496150207694,6.205793805257678e-05,0.0007450222181093325,0.007291991933286349,-0.00011320712339003265,0.0010566122143883206,0.0,0.0,0.0,0.0,0.0,0.0,0.0,4.279934523396256e-05,-5.2628274108512674e-05,-0.00020219190100377593,0.0002996431317248138,-4.831820118400554e-06,0.0,-5.66376646593536e-06,0.00010199276272517822,0.0008729496150207694,-6.205793805257678e-05,-0.0007450222181093325,-0.007291991933286349,0.00011320712339003265,-0.0010566122143883206,0.17287558317184448,11.925500869750977,-1.2433807849884033,-21.594270706176758,-0.3793235421180725,-2.5271639823913574,0.22098104655742645,0
34,0.1649930477142334,-0.17287558317184448,-11.925500869750977,1.2433807849884033,21.594270706176758,0.3793235421180725,2.5271639823913574,-0.22098104655742645,0.0,0.0,0.0,0.0,0.0,0.0,0.0,-0.17934945493659057,0.3494872114025123,0.06530040684237891,0.3448383732516769,-0.14581466252230296,0.12519735171877905,-0.21384316700342462,0.17283743827384815,-0.48746761855744475,-0.11126890882795759,-1.9466798294803553,0.1336107337276141,2.595550359778934,0.9452502227276564,0.1728802376190821,-0.48752024683155326,-0.11147110072896137,-1.9463801863486305,0.1336059019074957,2.595550359778934,0.9452445589611904,-0.00010199276272517822,-0.0008729496150207694,6.205793805257678e-05,0.0007450222181093325,0.007291991933286349,-0.00011320712339003265,0.0010566122143883206,0.0,0.0,0.0,0.0,0.0,0.0,0.0,4.279934523396256e-05,-5.2628274108512674e-05,-0.00020219190100377593,0.0002996431317248138,-4.831820118400554e-06,0.0,-5.66376646593536e-06,0.00010199276272517822,0.0008729496150207694,-6.205793805257678e-05,-0.0007450222181093325,-0.007291991933286349,0.00011320712339003265,-0.0010566122143883206,0.17287558317184448,11.925500869750977,-1.2433807849884033,-21.594270706176758,-0.3793235421180725,-2.5271639823913574,0.22098104655742645,0
35,0.17015576362609863,-0.19667929410934448,-12.000879287719727,1.2671844959259033,21.618074417114258,0.3793235421180725,2.5143465995788574,-0.17978231608867645,0.0,0.0,0.0,0.0,0.0,0.0,0.0,-0.18117513091268925,0.34966197401125226,0.05963417653554735,0.34691268290691585,-0.14555046240912586,0.12573907199853154,-0.21368769691719935,0.1728391087097034,-0.48746232884390306,-0.11127034250093482,-1.9466814999162105,0.1336107337276141,2.5955517839325797,0.9452445589638987,0.1728802376190821,-0.48752024683155326,-0.11147110072896137,-1.9463801863486305,0.1336059019074957,2.595550359778934,0.9452445589611904,0.00013782675485167245,0.0006604061254120993,-0.0002400943091331171,0.0009084324275938601,-0.002428231149713271,0.00041599659184825364,-0.0012463024868330102,0.0,0.0,0.0,0.0,0.0,0.0,0.0,4.112890937871261e-05,-5.7917987650202285e-05,-0.0002007582280265513,0.00030131356758000827,-4.831820118400554e-06,-1.4241536456793824e-06,-2.708278046270607e-12,-0.00013782675485167245,-0.0006604061254120993,0.0002400943091331171,-0.0009084324275938601,0.002428231149713271,-0.00041599659184825364,0.0012463024868330102,0.19667929410934448,12.000879287719727,-1.2671844959259033,-21.618074417114258,-0.3793235421180725,-2.5143465995788574,0.17978231608867645,0
36,0.1750187873840332,-0.19667929410934448,-12.000879287719727,1.2671844959259033,21.618074417114258,0.3793235421180725,2.5143465995788574,-0.17978231608867645,0.0,0.0,0.0,0.0,0.0,0.0,0.0,-0.18117513091268925,0.34966197401125226,0.05963417653554735,0.34691268290691585,-0.14555046240912586,0.12573907199853154,-0.21368769691719935,0.1728391087097034,-0.48746232884390306,-0.11127034250093482,-1.9466814999162105,0.1336107337276141,2.5955517839325797,0.9452445589638987,0.1728802376190821,-0.48752024683155326,-0.11147110072896137,-1.9463801863486305,0.1336059019074957,2.595550359778934,0.9452445589611904,0.00013782675485167245,0.0006604061254120993,-0.0002400943091331171,0.0009084324275938601,-0.002428231149713271,0.00041599659184825364,-0.0012463024868330102,0.0,0.0,0.0,0.0,0.0,0.0,0.0,4.112890937871261e-05,-5.7917987650202285e-05,-0.0002007582280265513,0.00030131356758000827,-4.831820118400554e-06,-1.4241536456793824e-06,-2.708278046270607e-12,-0.00013782675485167245,-0.0006604061254120993,0.0002400943091331171,-0.0009084324275938601,0.002428231149713271,-0.00041599659184825364,0.0012463024868330102,0.19667929410934448,12.000879287719727,-1.2671844959259033,-21.618074417114258,-0.3793235421180725,-2.5143465995788574,0.17978231608867645,0
37,0.18000102043151855,-0.19667929410934448,-12.000879287719727,1.2671844959259033,21.618074417114258,0.3793235421180725,2.5143465995788574,-0.17978231608867645,0.0,0.0,0.0,0.0,0.0,0.0,0.0,-0.18117513091268925,0.34966197401125226,0.05963417653554735,0.34691268290691585,-0.14555046240912586,0.12573907199853154,-0.21368769691719935,0.1728391087097034,-0.48746232884390306,-0.11127034250093482,-1.9466814999162105,0.1336107337276141,2.5955517839325797,0.9452445589638987,0.1728802376190821,-0.48752024683155326,-0.11147110072896137,-1.9463801863486305,0.1336059019074957,2.595550359778934,0.9452445589611904,0.00013782675485167245,0.0006604061254120993,-0.0002400943091331171,0.0009084324275938601,-0.002428231149713271,0.00041599659184825364,-0.0012463024868330102,0.0,0.0,0.0,0.0,0.0,0.0,0.0,4.112890937871261e-05,-5.7917987650202285e-05,-0.0002007582280265513,0.00030131356758000827,-4.831820118400554e-06,-1.4241536456793824e-06,-2.708278046270607e-12,-0.00013782675485167245,-0.0006604061254120993,0.0002400943091331171,-0.0009084324275938601,0.002428231149713271,-0.00041599659184825364,0.0012463024868330102,0.19667929410934448,12.000879287719727,-1.2671844959259033,-21.618074417114258,-0.3793235421180725,-2.5143465995788574,0.17978231608867645,0
38,0.1849973201751709,-0.19667929410934448,-12.000879287719727,1.2671844959259033,21.618074417114258,0.3793235421180725,2.5143465995788574,-0.17978231608867645,0.0,0.0,0.0,0.0,0.0,0.0,0.0,-0.18117513091268925,0.34966197401125226,0.05963417653554735,0.34691268290691585,-0.14555046240912586,0.12573907199853154,-0.21368769691719935,0.1728391087097034,-0.48746232884390306,-0.11127034250093482,-1.9466814999162105,0.1336107337276141,2.5955517839325797,0.9452445589638987,0.1728802376190821,-0.48752024683155326,-0.11147110072896137,-1.9463801863486305,0.1336059019074957,2.595550359778934,0.9452445589611904,0.00013782675485167245,0.0006604061254120993,-0.0002400943091331171,0.0009084324275938601,-0.002428231149713271,0.00041599659184825364,-0.0012463024868330102,0.0,0.0,0.0,0.0,0.0,0.0,0.0,4.112890937871261e-05,-5.7917987650202285e-05,-0.0002007582280265513,0.00030131356758000827,-4.831820118400554e-06,-1.4241536456793824e-06,-2.708278046270607e-12,-0.00013782675485167245,-0.0006604061254120993,0.0002400943091331171,-0.0009084324275938601,0.002428231149713271,-0.00041599659184825364,0.0012463024868330102,0.19667929410934448,12.000879287719727,-1.2671844959259033,-21.618074417114258,-0.3793235421180725,-2.5143465995788574,0.17978231608867645,0
39,0.18999314308166504,-0.018151462078094482,-11.949304580688477,1.3425629138946533,21.641878128051758,0.3912253975868225,2.5335726737976074,-0.20083944499492645,0.0,0.0,0.0,0.0,0.0,0.0,0.0,-0.15934818591754304,0.35488201864784663,0.09042792699561232,0.3407703610052072,-0.14716440369978145,0.12379456819239837,-0.21421972413644266,0.17282658044078894,-0.4874659481215895,-0.11127586897603449,-1.9466831703520657,0.13360941129922868,2.595549647702111,0.9452468986428446,0.1728802376190821,-0.48752024683155326,-0.11147110072896137,-1.9463801863486305,0.1336059019074957,2.595550359778934,0.9452445589611904,-0.001078112001160339,-0.0011562490191681317,-0.0006477314271176547,-0.0005187089335826558,-0.0003365459209754009,-0.0003031716088792017,0.00018422639890697744,0.0,0.0,0.0,0.0,0.0,0.0,0.0,5.3657178293170515e-05,-5.4298709963762626e-05,-0.00019523175292687767,0.0003029840034352027,-3.5093917329920288e-06,7.120768228396912e-07,-2.3396816541954024e-06,0.001078112001160339,0.0011562490191681317,0.0006477314271176547,0.0005187089335826558,0.0003365459209754009,0.0003031716088792017,-0.00018422639890697744,0.018151462078094482,11.949304580688477,-1.3425629138946533,-21.641878128051758,-0.3912253975868225,-2.5335726737976074,0.20083944499492645,0
40,0.1949915885925293,-0.018151462078094482,-11.949304580688477,1.3425629138946533,21.641878128051758,0.3912253975868225,2.5335726737976074,-0.20083944499492645,0.0,0.0,0.0,0.0,0.0,0.0,0.0,-0.15934818591754304,0.35488201864784663,0.09042792699561232,0.3407703610052072,-0.14716440369978145,0.12379456819239837,-0.21421972413644266,0.17282658044078894,-0.4874659481215895,-0.11127586897603449,-1.9466831703520657,0.13360941129922868,2.595549647702111,0.9452468986428446,0.1728802376190821,-0.48752024683155326,-0.11147110072896137,-1.9463801863486305,0.1336059019074957,2.595550359778934,0.9452445589611904,-0.001078112001160339,-0.0011562490191681317,-0.0006477314271176547,-0.0005187089335826558,-0.0003365459209754009,-0.0003031716088792017,0.00018422639890697744,0.0,0.0,0.0,0.0,0.0,0.0,0.0,5.3657178293170515e-05,-5.4298709963762626e-05,-0.00019523175292687767,0.0003029840034352027,-3.5093917329920288e-06,7.120768228396912e-07,-2.3396816541954024e-06,0.001078112001160339,0.0011562490191681317,0.0006477314271176547,0.0005187089335826558,0.0003365459209754009,0.0003031716088792017,-0.00018422639890697744,0.018151462078094482,11.949304580688477,-1.3425629138946533,-21.641878128051758,-0.3912253975868225,-2.5335726737976074,0.20083944499492645,0
41,0.1999959945678711,-0.19667929410934448,-12.000879287719727,1.2433807849884033,21.641878128051758,0.3857322335243225,2.5271639823913574,-0.23471395671367645,0.0,0.0,0.0,0.0,0.0,0.0,0.0,-0.16722688553396045,0.34636399551162955,0.05399386956731312,0.34321457037256514,-0.14539805205499748,0.12468413731834666,-0.2141232139551248,0.1728391087097034,-0.48746232884390306,-0.11126867206507957,-1.946683170788131,0.13361002165079117,2.595550359778934,0.94525066247748,0.1728802376190821,-0.48752024683155326,-0.11147110072896137,-1.9463801863486305,0.1336059019074957,2.595550359778934,0.9452445589611904,0.0017751415841051469,7.4281265183236e-05,0.0007006098263283464,-0.00014458450699577147,0.0002567358959486831,-0.0002260915366739042,0.0017086934451911353,0.0,0.0,0.0,0.0,0.0,0.0,0.0,4.112890937871261e-05,-5.7917987650202285e-05,-0.00020242866388180125,0.00030298443950038667,-4.119743295477596e-06,0.0,-6.103516289601707e-06,-0.0017751415841051469,-7.4281265183236e-05,-0.0007006098263283464,0.00014458450699577147,-0.0002567358959486831,0.0002260915366739042,-0.0017086934451911353,0.19667929410934448,12.000879287719727,-1.2433807849884033,-21.641878128051758,-0.3857322335243225,-2.5271639823913574,0.23471395671367645,0
42,0.20499634742736816,-0.19667929410934448,-12.000879287719727,1.2433807849884033,21.641878128051758,0.3857322335243225,2.5271639823913574,-0.23471395671367645,0.0,0.0,0.0,0.0,0.0,0.0,0.0,-0.16722688553396045,0.34636399551162955,0.05399386956731312,0.34321457037256514,-0.14539805205499748,0.12468413731834666,-0.2141232139551248,0.1728391087097034,-0.48746232884390306,-0.11126867206507957,-1.946683170788131,0.13361002165079117,2.595550359778934,0.94525066247748,0.1728802376190821,-0.48752024683155326,-0.11147110072896137,-1.9463801863486305,0.1336059019074957,2.595550359778934,0.9452445589611904,0.0017751415841051469,7.4281265183236e-05,0.0007006098263283464,-0.00014458450699577147,0.0002567358959486831,-0.0002260915366739042,0.0017086934451911353,0.0,0.0,0.0,0.0,0.0,0.0,0.0,4.112890937871261e-05,-5.7917987650202285e-05,-0.00020242866388180125,0.00030298443950038667,-4.119743295477596e-06,0.0,-6.103516289601707e-06,-0.0017751415841051469,-7.4281265183236e-05,-0.0007006098263283464,0.00014458450699577147,-0.0002567358959486831,0.0002260915366739042,-0.0017086934451911353,0.19667929410934448,12.000879287719727,-1.2433807849884033,-21.641878128051758,-0.3857322335243225,-2.5271639823913574,0.23471395671367645,0
43,0.20999383926391602,-0.3236324191093445,-12.048486709594727,1.1441986560821533,21.693452835083008,0.3976340889930725,2.5399813652038574,-0.21457235515117645,0.0,0.0,0.0,0.0,0.0,0.0,0.0,-0.18422958529303668,0.32927324105825834,0.027724633910431087,0.3488338577267378,-0.14382226353938798,0.12548300954644714,-0.21390322008323384,0.17284801770093147,-0.48745898797219256,-0.11126194867724062,-1.9466867896660933,0.13360869922240576,2.5955489356252883,0.9452484245217508,0.1728802376190821,-0.48752024683155326,-0.11147110072896137,-1.9463801863486305,0.1336059019074957,2.595550359778934,0.9452445589611904,0.0008497006781097199,0.0007800880927513397,0.0002667804644154454,-0.0012188095327967568,-0.0003878276350024199,-0.000406834328436881,0.00023772734184463436,0.0,0.0,0.0,0.0,0.0,0.0,0.0,3.221991815063885e-05,-6.125885936070219e-05,-0.00020915205172074292,0.0003066033174627947,-2.797314910069071e-06,1.4241536456793824e-06,-3.865560560423198e-06,-0.0008497006781097199,-0.0007800880927513397,-0.0002667804644154454,0.0012188095327967568,0.0003878276350024199,0.000406834328436881,-0.00023772734184463436,0.3236324191093445,12.048486709594727,-1.1441986560821533,-21.693452835083008,-0.3976340889930725,-2.5399813652038574,0.21457235515117645,0
44,0.21498918533325195,-0.3236324191093445,-12.048486709594727,1.1441986560821533,21.693452835083008,0.3976340889930725,2.5399813652038574,-0.21457235515117645,0.0,0.0,0.0,0.0,0.0,0.0,0.0,-0.18422958529303668,0.32927324105825834,0.027724633910431087,0.3488338577267378,-0.14382226353938798,0.12548300954644714,-0.21390322008323384,0.17284801770093147,-0.48745898797219256,-0.11126194867724062,-1.9466867896660933,0.13360869922240576,2.5955489356252883,0.9452484245217508,0.1728802376190821,-0.48752024683155326,-0.11147110072896137,-1.9463801863486305,0.1336059019074957,2.595550359778934,0.9452445589611904,0.0008497006781097199,0.0007800880927513397,0.0002667804644154454,-0.0012188095327967568,-0.0003878276350024199,-0.000406834328436881,0.00023772734184463436,0.0,0.0,0.0,0.0,0.0,0.0,0.0,3.221991815063885e-05,-6.125885936070219e-05,-0.00020915205172074292,0.0003066033174627947,-2.797314910069071e-06,1.4241536456793824e-06,-3.865560560423198e-06,-0.0008497006781097199,-0.0007800880927513397,-0.0002667804644154454,0.0012188095327967568,0.0003878276350024199,0.000406834328436881,-0.00023772734184463436,0.3236324191093445,12.048486709594727,-1.1441986560821533,-21.693452835083008,-0.3976340889930725,-2.5399813652038574,0.21457235515117645,0
45,0.21999096870422363,-0.19667929410934448,-12.024682998657227,1.2156097888946533,21.641878128051758,0.3857322335243225,2.5335726737976074,-0.18710653483867645,0.0,0.0,0.0,0.0,0.0,0.0,0.0,-0.17187997239843428,0.34099204225982843,0.07214611059887148,0.33968645955227195,-0.14633123418468952,0.12396897515463838,-0.21569082034262121,0.1728391087097034,-0.4874606584080478,-0.11126695998614294,-1.9466831703520657,0.13361002165079117,2.595549647702111,0.9452453727639384,0.1728802376190821,-0.48752024683155326,-0.11147110072896137,-1.9463801863486305,0.1336059019074957,2.595550359778934,0.9452445589611904,-0.0008030501903697548,-6.844922914036863e-05,-0.0003806163364757713,0.00010321389853752453,0.0001919062060588004,-0.0003237217984821266,-0.0008572751857160625,0.0,0.0,0.0,0.0,0.0,0.0,0.0,4.112890937871261e-05,-5.958842350545224e-05,-0.00020414074281842332,0.0003029840034352027,-4.119743295477596e-06,7.120768228396912e-07,-8.138027479676069e-07,0.0008030501903697548,6.844922914036863e-05,0.0003806163364757713,-0.00010321389853752453,-0.0001919062060588004,0.0003237217984821266,0.0008572751857160625,0.19667929410934448,12.024682998657227,-1.2156097888946533,-21.641878128051758,-0.3857322335243225,-2.5335726737976074,0.18710653483867645,0
46,0.2249917984008789,-0.19667929410934448,-12.024682998657227,1.2156097888946533,21.641878128051758,0.3857322335243225,2.5335726737976074,-0.18710653483867645,0.0,0.0,0.0,0.0,0.0,0.0,0.0,-0.17187997239843428,0.34099204225982843,0.07214611059887148,0.33968645955227195,-0.14633123418468952,0.12396897515463838,-0.21569082034262121,0.1728391087097034,-0.4874606584080478,-0.11126695998614294,-1.9466831703520657,0.13361002165079117,2.595549647702111,0.9452453727639384,0.1728802376190821,-0.48752024683155326,-0.11147110072896137,-1.9463801863486305,0.1336059019074957,2.595550359778934,0.9452445589611904,-0.0008030501903697548,-6.844922914036863e-05,-0.0003806163364757713,0.00010321389853752453,0.0001919062060588004,-0.0003237217984821266,-0.0008572751857160625,0.0,0.0,0.0,0.0,0.0,0.0,0.0,4.112890937871261e-05,-5.958842350545224e-05,-0.00020414074281842332,0.0003029840034352027,-4.119743295477596e-06,7.120768228396912e-07,-8.138027479676069e-07,0.0008030501903697548,6.844922914036863e-05,0.0003806163364757713,-0.00010321389853752453,-0.0001919062060588004,0.0003237217984821266,0.0008572751857160625,0.19667929410934448,12.024682998657227,-1.2156097888946533,-21.641878128051758,-0.3857322335243225,-2.5335726737976074,0.18710653483867645,0
47,0.22999238967895508,-0.19667929410934448,-12.024682998657227,1.2156097888946533,21.641878128051758,0.3857322335243225,2.5335726737976074,-0.18710653483867645,0.0,0.0,0.0,0.0,0.0,0.0,0.0,-0.17187997239843428,0.34099204225982843,0.07214611059887148,0.33968645955227195,-0.14633123418468952,0.12396897515463838,-0.21569082034262121,0.1728391087097034,-0.4874606584080478,-0.11126695998614294,-1.9466831703520657,0.13361002165079117,2.595549647702111,0.9452453727639384,0.1728802376190821,-0.48752024683155326,-0.11147110072896137,-1.9463801863486305,0.1336059019074957,2.595550359778934,0.9452445589611904,-0.0008030501903697548,-6.844922914036863e-05,-0.0003806163364757713,0.00010321389853752453,0.0001919062060588004,-0.0003237217984821266,-0.0008572751857160625,0.0,0.0,0.0,0.0,0.0,0.0,0.0,4.112890937871261e-05,-5.958842350545224e-05,-0.00020414074281842332,0.0003029840034352027,-4.119743295477596e-06,7.120768228396912e-07,-8.138027479676069e-07,0.0008030501903697548,6.844922914036863e-05,0.0003806163364757713,-0.00010321389853752453,-0.0001919062060588004,0.0003237217984821266,0.0008572751857160625,0.19667929410934448,12.024682998657227,-1.2156097888946533,-21.641878128051758,-0.3857322335243225,-2.5335726737976074,0.18710653483867645,0
48,0.23499274253845215,-0.09352988004684448,-12.048486709594727,1.2909882068634033,21.618074417114258,0.3912253975868225,2.5207552909851074,-0.22830526530742645,0.0,0.0,0.0,0.0,0.0,0.0,0.0,-0.17794525296242397,0.3235701000510998,0.07155543696994361,0.34335776524463846,-0.1465957393609715,0.12465029096752965,-0.21583023593471357,0.1728318701543306,-0.48745898797219256,-0.1112722467766859,-1.9466814999162105,0.1336093718080854,2.595551071855757,0.9452499504006571,0.1728802376190821,-0.48752024683155326,-0.11147110072896137,-1.9463801863486305,0.1336059019074957,2.595550359778934,0.9452445589611904,-0.0018868596886696908,-5.6275458199393154e-05,0.0001353991008320861,-9.914880710907647e-06,-4.611949606623871e-05,0.00037533071666492765,0.0011951159151434342,0.0,0.0,0.0,0.0,0.0,0.0,0.0,4.836746475150866e-05,-6.125885936070219e-05,-0.00019885395227546565,0.00030131356758000827,-3.4699005897198543e-06,-7.120768228396912e-07,-5.3914394666509935e-06,0.0018868596886696908,5.6275458199393154e-05,-0.0001353991008320861,9.914880710907647e-06,4.611949606623871e-05,-0.00037533071666492765,-0.0011951159151434342,0.09352988004684448,12.048486709594727,-1.2909882068634033,-21.618074417114258,-0.3912253975868225,-2.5207552909851074,0.22830526530742645,0
49,0.2399919033050537,-0.09352988004684448,-12.048486709594727,1.2909882068634033,21.618074417114258,0.3912253975868225,2.5207552909851074,-0.22830526530742645,0.0,0.0,0.0,0.0,0.0,0.0,0.0,-0.17794525296242397,0.3235701000510998,0.07155543696994361,0.34335776524463846,-0.1465957393609715,0.12465029096752965,-0.21583023593471357,0.1728318701543306,-0.48745898797219256,-0.1112722467766859,-1.9466814999162105,0.1336093718080854,2.595551071855757,0.9452499504006571,0.1728802376190821,-0.48752024683155326,-0.11147110072896137,-1.9463801863486305,0.1336059019074957,2.595550359778934,0.9452445589611904,-0.0018868596886696908,-5.6275458199393154e-05,0.0001353991008320861,-9.914880710907647e-06,-4.611949606623871e-05,0.00037533071666492765,0.0011951159151434342,0.0,0.0,0.0,0.0,0.0,0.0,0.0,4.836746475150866e-05,-6.125885936070219e-05,-0.00019885395227546565,0.00030131356758000827,-3.4699005897198543e-06,-7.120768228396912e-07,-5.3914394666509935e-06,0.0018868596886696908,5.6275458199393154e-05,-0.0001353991008320861,9.914880710907647e-06,4.611949606623871e-05,-0.00037533071666492765,-0.0011951159151434342,0.09352988004684448,12.048486709594727,-1.2909882068634033,-21.618074417114258,-0.3912253975868225,-2.5207552909851074,0.22830526530742645,0
50,0.2450087070465088,-0.04592245817184448,-12.000879287719727,1.3901703357696533,21.641878128051758,0.3857322335243225,2.5399813652038574,-0.23471395671367645,0.0,0.0,0.0,0.0,0.0,0.0,0.0,-0.16908644423304364,0.3326198052610215,0.08127006717083264,0.3383336949279368,-0.14627534842619416,0.12413542296510398,-0.2153482822961588,0.17282852928262007,-0.48746232884390306,-0.11127920974080584,-1.9466831703884044,0.13361002165056823,2.5955489356252883,0.94525066247748,0.1728802376190821,-0.48752024683155326,-0.11147110072896137,-1.9463801863486305,0.1336059019074957,2.595550359778934,0.9452445589611904,-0.000842725585362082,0.00018773041688613067,-0.0005364250000949766,0.0004027298486398381,0.00014422059829182957,-0.0006560845425946238,0.0012580339483148483,0.0,0.0,0.0,0.0,0.0,0.0,0.0,5.170833646203632e-05,-5.7917987650202285e-05,-0.00019189098815552974,0.00030298403977391253,-4.1197430725448125e-06,1.4241536456793824e-06,-6.103516289601707e-06,0.000842725585362082,-0.00018773041688613067,0.0005364250000949766,-0.0004027298486398381,-0.00014422059829182957,0.0006560845425946238,-0.0012580339483148483,0.04592245817184448,12.000879287719727,-1.3901703357696533,-21.641878128051758,-0.3857322335243225,-2.5399813652038574,0.23471395671367645,0
51,0.250438928604126,-0.04592245817184448,-12.000879287719727,1.3901703357696533,21.641878128051758,0.3857322335243225,2.5399813652038574,-0.23471395671367645,0.0,0.0,0.0,0.0,0.0,0.0,0.0,-0.16908644423304364,0.3326198052610215,0.08127006717083264,0.3383336949279368,-0.14627534842619416,0.12413542296510398,-0.2153482822961588,0.17282852928262007,-0.48746232884390306,-0.11127920974080584,-1.9466831703884044,0.13361002165056823,2.5955489356252883,0.94525066247748,0.1728802376190821,-0.48752024683155326,-0.11147110072896137,-1.9463801863486305,0.1336059019074957,2.595550359778934,0.9452445589611904,-0.000842725585362082,0.00018773041688613067,-0.0005364250000949766,0.0004027298486398381,0.00014422059829182957,-0.0006560845425946238,0.0012580339483148483,0.0,0.0,0.0,0.0,0.0,0.0,0.0,5.170833646203632e-05,-5.7917987650202285e-05,-0.00019189098815552974,0.00030298403977391253,-4.1197430725448125e-06,1.4241536456793824e-06,-6.103516289601707e-06,0.000842725585362082,-0.00018773041688613067,0.0005364250000949766,-0.0004027298486398381,-0.00014422059829182957,0.0006560845425946238,-0.0012580339483148483,0.04592245817184448,12.000879287719727,-1.3901703357696533,-21.641878128051758,-0.3857322335243225,-2.5399813652038574,0.23471395671367645,0
52,0.2550086975097656,-0.09352988004684448,-11.949304580688477,1.2909882068634033,21.618074417114258,0.3912253975868225,2.5207552909851074,-0.18710653483867645,0.0,0.0,0.0,0.0,0.0,0.0,0.0,-0.17392298926711755,0.33619308328173747,0.06165951797408254,0.3378736098864446,-0.1440353056773528,0.12417788007122278,-0.21511155453656522,0.1728318701543306,-0.4874659481215895,-0.111272249699684,-1.94668150285965,0.13360941129922865,2.595551071855757,0.9452453727639384,0.1728802376190821,-0.48752024683155326,-0.11147110072896137,-1.9463801863486305,0.1336059019074957,2.595550359778934,0.9452445589611904,-8.852757071553699e-05,-0.00044771083185683676,0.0006226623583086671,0.0003588371141800332,-0.00013917242224386234,2.0689524683805214e-05,-0.0008139045460678912,0.0,0.0,0.0,0.0,0.0,0.0,0.0,4.836746475150866e-05,-5.4298709963762626e-05,-0.00019885102927737208,0.0003013165110195004,-3.509391732964273e-06,-7.120768228396912e-07,-8.138027479676069e-07,8.852757071553699e-05,0.00044771083185683676,-0.0006226623583086671,-0.0003588371141800332,0.00013917242224386234,-2.0689524683805214e-05,0.0008139045460678912,0.09352988004684448,11.949304580688477,-1.2909882068634033,-21.618074417114258,-0.3912253975868225,-2.5207552909851074,0.18710653483867645,0
53,0.25995635986328125,-0.09352988004684448,-11.949304580688477,1.2909882068634033,21.618074417114258,0.3912253975868225,2.5207552909851074,-0.18710653483867645,0.0,0.0,0.0,0.0,0.0,0.0,0.0,-0.17392298926711755,0.33619308328173747,0.06165951797408254,0.3378736098864446,-0.1440353056773528,0.12417788007122278,-0.21511155453656522,0.1728318701543306,-0.4874659481215895,-0.111272249699684,-1.94668150285965,0.13360941129922865,2.595551071855757,0.9452453727639384,0.1728802376190821,-0.48752024683155326,-0.11147110072896137,-1.9463801863486305,0.1336059019074957,2.595550359778934,0.9452445589611904,-8.852757071553699e-05,-0.00044771083185683676,0.0006226623583086671,0.0003588371141800332,-0.00013917242224386234,2.0689524683805214e-05,-0.0008139045460678912,0.0,0.0,0.0,0.0,0.0,0.0,0.0,4.836746475150866e-05,-5.4298709963762626e-05,-0.00019885102927737208,0.0003013165110195004,-3.509391732964273e-06,-7.120768228396912e-07,-8.138027479676069e-07,8.852757071553699e-05,0.00044771083185683676,-0.0006226623583086671,-0.0003588371141800332,0.00013917242224386234,-2.0689524683805214e-05,0.0008139045460678912,0.09352988004684448,11.949304580688477,-1.2909882068634033,-21.618074417114258,-0.3912253975868225,-2.5207552909851074,0.18710653483867645,0
54,0.2649655342102051,-0.24825400114059448,-11.925500869750977,1.2156097888946533,21.669649124145508,0.3912253975868225,2.5207552909851074,-0.20083944499492645,0.0,0.0,0.0,0.0,0.0,0.0,0.0,-0.17738890041782052,0.33398567256072875,0.048521956253734976,0.34253860218259574,-0.14281228442166283,0.12463464292118348,-0.2147659139485394,0.1728427279873898,-0.48746761855744475,-0.11126695998614294,-1.9466851191939136,0.13360941129922865,2.595551071855757,0.9452468986428446,0.1728802376190821,-0.48752024683155326,-0.11147110072896137,-1.9463801863486305,0.1336059019074957,2.595550359778934,0.9452445589611904,0.000494473694783067,-0.0005049573661899181,-7.007744598590694e-05,-0.0013004967036586625,-1.4143531119167257e-05,-3.167718238189695e-05,-0.0010856845633117292,0.0,0.0,0.0,0.0,0.0,0.0,0.0,3.7509631692300704e-05,-5.2628274108512674e-05,-0.00020414074281842332,0.00030493284528310127,-3.509391732964273e-06,-7.120768228396912e-07,-2.3396816541954024e-06,-0.000494473694783067,0.0005049573661899181,7.007744598590694e-05,0.0013004967036586625,1.4143531119167257e-05,3.167718238189695e-05,0.0010856845633117292,0.24825400114059448,11.925500869750977,-1.2156097888946533,-21.669649124145508,-0.3912253975868225,-2.5207552909851074,0.20083944499492645,0
55,0.2699904441833496,-0.24825400114059448,-11.925500869750977,1.2156097888946533,21.669649124145508,0.3912253975868225,2.5207552909851074,-0.20083944499492645,0.0,0.0,0.0,0.0,0.0,0.0,0.0,-0.17738890041782052,0.33398567256072875,0.048521956253734976,0.34253860218259574,-0.14281228442166283,0.12463464292118348,-0.2147659139485394,0.1728427279873898,-0.48746761855744475,-0.11126695998614294,-1.9466851191939136,0.13360941129922865,2.595551071855757,0.9452468986428446,0.1728802376190821,-0.48752024683155326,-0.11147110072896137,-1.9463801863486305,0.1336059019074957,2.595550359778934,0.9452445589611904,0.000494473694783067,-0.0005049573661899181,-7.007744598590694e-05,-0.0013004967036586625,-1.4143531119167257e-05,-3.167718238189695e-05,-0.0010856845633117292,0.0,0.0,0.0,0.0,0.0,0.0,0.0,3.7509631692300704e-05,-5.2628274108512674e-05,-0.00020414074281842332,0.00030493284528310127,-3.509391732964273e-06,-7.120768228396912e-07,-2.3396816541954024e-06,-0.000494473694783067,0.0005049573661899181,7.007744598590694e-05,0.0013004967036586625,1.4143531119167257e-05,3.167718238189695e-05,0.0010856845633117292,0.24825400114059448,11.925500869750977,-1.2156097888946533,-21.669649124145508,-0.3912253975868225,-2.5207552909851074,0.20083944499492645,0
56,0.2751951217651367,-0.2720577120780945,-11.949304580688477,1.1680023670196533,21.618074417114258,0.3976340889930725,2.5271639823913574,-0.20724813640117645,0.0,0.0,0.0,0.0,0.0,0.0,0.0,-0.17435548901903677,0.34052235025085376,0.06528008183471799,0.34611640157133755,-0.14343662884144237,0.1248064313976775,-0.21581512482343373,0.1728443984232451,-0.4874659481215895,-0.11126361911443242,-1.9466814999162105,0.13360869922240573,2.595550359778934,0.9452476107196676,0.1728802376190821,-0.48752024683155326,-0.11147110072896137,-1.9463801863486305,0.1336059019074957,2.595550359778934,0.9452445589611904,0.00025675301001841137,0.0004301424753573876,0.00040011065752648667,0.0004134172178729947,-0.00022453080196987622,0.00011438399856776554,-4.6139698429234274e-05,0.0,0.0,0.0,0.0,0.0,0.0,0.0,3.5839195837023e-05,-5.4298709963762626e-05,-0.00020748161452895098,0.00030131356758000827,-2.7973149100413153e-06,0.0,-3.051758477146116e-06,-0.00025675301001841137,-0.0004301424753573876,-0.00040011065752648667,-0.0004134172178729947,0.00022453080196987622,-0.00011438399856776554,4.6139698429234274e-05,0.2720577120780945,11.949304580688477,-1.1680023670196533,-21.618074417114258,-0.3976340889930725,-2.5271639823913574,0.20724813640117645,0
57,0.2800455093383789,-0.2720577120780945,-11.949304580688477,1.1680023670196533,21.618074417114258,0.3976340889930725,2.5271639823913574,-0.20724813640117645,0.0,0.0,0.0,0.0,0.0,0.0,0.0,-0.17435548901903677,0.34052235025085376,0.06528008183471799,0.34611640157133755,-0.14343662884144237,0.1248064313976775,-0.21581512482343373,0.1728443984232451,-0.4874659481215895,-0.11126361911443242,-1.9466814999162105,0.13360869922240573,2.595550359778934,0.9452476107196676,0.1728802376190821,-0.48752024683155326,-0.11147110072896137,-1.9463801863486305,0.1336059019074957,2.595550359778934,0.9452445589611904,0.00025675301001841137,0.0004301424753573876,0.00040011065752648667,0.0004134172178729947,-0.00022453080196987622,0.00011438399856776554,-4.6139698429234274e-05,0.0,0.0,0.0,0.0,0.0,0.0,0.0,3.5839195837023e-05,-5.4298709963762626e-05,-0.00020748161452895098,0.00030131356758000827,-2.7973149100413153e-06,0.0,-3.051758477146116e-06,-0.00025675301001841137,-0.0004301424753573876,-0.00040011065752648667,-0.0004134172178729947,0.00022453080196987622,-0.00011438399856776554,4.6139698429234274e-05,0.2720577120780945,11.949304580688477,-1.1680023670196533,-21.618074417114258,-0.3976340889930725,-2.5271639823913574,0.20724813640117645,0
58,0.28516602516174316,-0.22445029020309448,-12.000879287719727,1.2671844959259033,21.618074417114258,0.3912253975868225,2.5207552909851074,-0.21457235515117645,0.0,0.0,0.0,0.0,0.0,0.0,0.0,-0.1739475998897429,0.3427487011048649,0.08077333372805184,0.34625084492698643,-0.14441703590934668,0.1248211907571268,-0.21654101411824997,0.17284108391984448,-0.48746232884390306,-0.11126986897514576,-1.9466822161530943,0.13360941129922865,2.595551071855757,0.9452484245217508,0.1728802376190821,-0.48752024683155326,-0.11147110072896137,-1.9463801863486305,0.1336059019074957,2.595550359778934,0.9452445589611904,0.00032719301706468927,0.0004971680971666205,-0.0005561750103450596,-7.524999374200258e-05,-2.360215433363264e-05,1.1653010572928777e-05,0.0002643930869861859,0.0,0.0,0.0,0.0,0.0,0.0,0.0,3.915369923762624e-05,-5.7917987650202285e-05,-0.00020123175381560332,0.00030202980446381034,-3.509391732964273e-06,-7.120768228396912e-07,-3.865560560423198e-06,-0.00032719301706468927,-0.0004971680971666205,0.0005561750103450596,7.524999374200258e-05,2.360215433363264e-05,-1.1653010572928777e-05,-0.0002643930869861859,0.22445029020309448,12.000879287719727,-1.2671844959259033,-21.618074417114258,-0.3912253975868225,-2.5207552909851074,0.21457235515117645,0
59,0.2899940013885498,-0.22445029020309448,-12.000879287719727,1.2671844959259033,21.618074417114258,0.3912253975868225,2.5207552909851074,-0.21457235515117645,0.0,0.0,0.0,0.0,0.0,0.0,0.0,-0.1739475998897429,0.3427487011048649,0.08077333372805184,0.34625084492698643,-0.14441703590934668,0.1248211907571268,-0.21654101411824997,0.17284108391984448,-0.48746232884390306,-0.11126986897514576,-1.9466822161530943,0.13360941129922865,2.595551071855757,0.9452484245217508,0.1728802376190821,-0.48752024683155326,-0.11147110072896137,-1.9463801863486305,0.1336059019074957,2.595550359778934,0.9452445589611904,0.00032719301706468927,0.0004971680971666205,-0.0005561750103450596,-7.524999374200258e-05,-2.360215433363264e-05,1.1653010572928777e-05,0.0002643930869861859,0.0,0.0,0.0,0.0,0.0,0.0,0.0,3.915369923762624e-05,-5.7917987650202285e-05,-0.00020123175381560332,0.00030202980446381034,-3.509391732964273e-06,-7.120768228396912e-07,-3.865560560423198e-06,-0.00032719301706468927,-0.0004971680971666205,0.0005561750103450596,7.524999374200258e-05,2.360215433363264e-05,-1.1653010572928777e-05,-0.0002643930869861859,0.22445029020309448,12.000879287719727,-1.2671844959259033,-21.618074417114258,-0.3912253975868225,-2.5207552909851074,0.21457235515117645,0
60,0.295011043548584,-0.06972616910934448,-11.925500869750977,1.3147919178009033,21.641878128051758,0.3976340889930725,2.5207552909851074,-0.16604940593242645,0.0,0.0,0.0,0.0,0.0,0.0,0.0,-0.1668695710246448,0.3546208080107459,0.0895939008980809,0.3388014028782301,-0.14497586806895427,0.12358133141768847,-0.21616267670605696,0.17283019971862418,-0.48746761855744475,-0.11127392013153027,-1.946683170356109,0.13360869922240573,2.595551071855757,0.9452430330829488,0.1728802376190821,-0.48752024683155326,-0.11147110072896137,-1.9463801863486305,0.1336059019074957,2.595550359778934,0.9452445589611904,-0.0003557387917532793,-0.0014341109126570523,0.00019090610130502526,-8.309659573731623e-05,-0.00037287270492716043,0.0003630769574625713,-0.0016691792346877718,0.0,0.0,0.0,0.0,0.0,0.0,0.0,5.0037900457933215e-05,-5.2628274108512674e-05,-0.00019718059743109584,0.0003029840074784129,-2.7973149100413153e-06,-7.120768228396912e-07,1.525878241648293e-06,0.0003557387917532793,0.0014341109126570523,-0.00019090610130502526,8.309659573731623e-05,0.00037287270492716043,-0.0003630769574625713,0.0016691792346877718,0.06972616910934448,11.925500869750977,-1.3147919178009033,-21.641878128051758,-0.3976340889930725,-2.5207552909851074,0.16604940593242645,0
61,0.3000624179840088,-0.06972616910934448,-11.925500869750977,1.3147919178009033,21.641878128051758,0.3976340889930725,2.5207552909851074,-0.16604940593242645,0.0,0.0,0.0,0.0,0.0,0.0,0.0,-0.1668695710246448,0.3546208080107459,0.0895939008980809,0.3388014028782301,-0.14497586806895427,0.12358133141768847,-0.21616267670605696,0.17283019971862418,-0.48746761855744475,-0.11127392013153027,-1.946683170356109,0.13360869922240573,2.595551071855757,0.9452430330829488,0.1728802376190821,-0.48752024683155326,-0.11147110072896137,-1.9463801863486305,0.1336059019074957,2.595550359778934,0.9452445589611904,-0.0003557387917532793,-0.0014341109126570523,0.00019090610130502526,-8.309659573731623e-05,-0.00037287270492716043,0.0003630769574625713,-0.0016691792346877718,0.0,0.0,0.0,0.0,0.0,0.0,0.0,5.0037900457933215e-05,-5.2628274108512674e-05,-0.00019718059743109584,0.0003029840074784129,-2.7973149100413153e-06,-7.120768228396912e-07,1.525878241648293e-06,0.0003557387917532793,0.0014341109126570523,-0.00019090610130502526,8.309659573731623e-05,0.00037287270492716043,-0.0003630769574625713,0.0016691792346877718,0.06972616910934448,11.925500869750977,-1.3147919178009033,-21.641878128051758,-0.3976340889930725,-2.5207552909851074,0.16604940593242645,0
62,0.3050503730773926,-0.19667929410934448,-12.024682998657227,1.2909882068634033,21.641878128051758,0.3857322335243225,2.5207552909851074,-0.21457235515117645,0.0,0.0,0.0,0.0,0.0,0.0,0.0,-0.17303812185858106,0.3444038750064571,0.060830658404462834,0.340708320415054,-0.1433224752142916,0.12541105100269698,-0.21635267555760013,0.1728391087097034,-0.4874606584080478,-0.11127224969968458,-1.9466831703520657,0.13361002165079114,2.595551071855757,0.9452484245217508,0.1728802376190821,-0.48752024683155326,-0.11147110072896137,-1.9463801863486305,0.1336059019074957,2.595550359778934,0.9452445589611904,0.0022821977747501613,0.00039802033183252957,0.00026851950707499863,-7.773696738653578e-05,0.000348221587706507,0.0003728638216999748,0.00023641495494338498,0.0,0.0,0.0,0.0,0.0,0.0,0.0,4.112890937871261e-05,-5.958842350545224e-05,-0.00019885102927678922,0.0003029840034352027,-4.11974329544984e-06,-7.120768228396912e-07,-3.865560560423198e-06,-0.0022821977747501613,-0.00039802033183252957,-0.00026851950707499863,7.773696738653578e-05,-0.000348221587706507,-0.0003728638216999748,-0.00023641495494338498,0.19667929410934448,12.024682998657227,-1.2909882068634033,-21.641878128051758,-0.3857322335243225,-2.5207552909851074,0.21457235515117645,0
63,0.31000804901123047,-0.19667929410934448,-12.024682998657227,1.2909882068634033,21.641878128051758,0.3857322335243225,2.5207552909851074,-0.21457235515117645,0.0,0.0,0.0,0.0,0.0,0.0,0.0,-0.17303812185858106,0.3444038750064571,0.060830658404462834,0.340708320415054,-0.1433224752142916,0.12541105100269698,-0.21635267555760013,0.1728391087097034,-0.4874606584080478,-0.11127224969968458,-1.9466831703520657,0.13361002165079114,2.595551071855757,0.9452484245217508,0.1728802376190821,-0.48752024683155326,-0.11147110072896137,-1.9463801863486305,0.1336059019074957,2.595550359778934,0.9452445589611904,0.0022821977747501613,0.00039802033183252957,0.00026851950707499863,-7.773696738653578e-05,0.000348221587706507,0.0003728638216999748,0.00023641495494338498,0.0,0.0,0.0,0.0,0.0,0.0,0.0,4.112890937871261e-05,-5.958842350545224e-05,-0.00019885102927678922,0.0003029840034352027,-4.11974329544984e-06,-7.120768228396912e-07,-3.865560560423198e-06,-0.0022821977747501613,-0.00039802033183252957,-0.00026851950707499863,7.773696738653578e-05,-0.000348221587706507,-0.0003728638216999748,-0.00023641495494338498,0.19667929410934448,12.024682998657227,-1.2909882068634033,-21.641878128051758,-0.3857322335243225,-2.5207552909851074,0.21457235515117645,0
64,0.3150670528411865,-0.19667929410934448,-12.024682998657227,1.2909882068634033,21.641878128051758,0.3857322335243225,2.5207552909851074,-0.21457235515117645,0.0,0.0,0.0,0.0,0.0,0.0,0.0,-0.17303812185858106,0.3444038750064571,0.060830658404462834,0.340708320415054,-0.1433224752142916,0.12541105100269698,-0.21635267555760013,0.1728391087097034,-0.4874606584080478,-0.11127224969968458,-1.9466831703520657,0.13361002165079114,2.595551071855757,0.9452484245217508,0.1728802376190821,-0.48752024683155326,-0.11147110072896137,-1.9463801863486305,0.1336059019074957,2.595550359778934,0.9452445589611904,0.0022821977747501613,0.00039802033183252957,0.00026851950707499863,-7.773696738653578e-05,0.000348221587706507,0.0003728638216999748,0.00023641495494338498,0.0,0.0,0.0,0.0,0.0,0.0,0.0,4.112890937871261e-05,-5.958842350545224e-05,-0.00019885102927678922,0.0003029840034352027,-4.11974329544984e-06,-7.120768228396912e-07,-3.865560560423198e-06,-0.0022821977747501613,-0.00039802033183252957,-0.00026851950707499863,7.773696738653578e-05,-0.000348221587706507,-0.0003728638216999748,-0.00023641495494338498,0.19667929410934448,12.024682998657227,-1.2909882068634033,-21.641878128051758,-0.3857322335243225,-2.5207552909851074,0.21457235515117645,0
65,0.3200080394744873,-0.19667929410934448,-12.024682998657227,1.2909882068634033,21.641878128051758,0.3857322335243225,2.5207552909851074,-0.21457235515117645,0.0,0.0,0.0,0.0,0.0,0.0,0.0,-0.17303812185858106,0.3444038750064571,0.060830658404462834,0.340708320415054,-0.1433224752142916,0.12541105100269698,-0.21635267555760013,0.1728391087097034,-0.4874606584080478,-0.11127224969968458,-1.9466831703520657,0.13361002165079114,2.595551071855757,0.9452484245217508,0.1728802376190821,-0.48752024683155326,-0.11147110072896137,-1.9463801863486305,0.1336059019074957,2.595550359778934,0.9452445589611904,0.0022821977747501613,0.00039802033183252957,0.00026851950707499863,-7.773696738653578e-05,0.000348221587706507,0.0003728638216999748,0.00023641495494338498,0.0,0.0,0.0,0.0,0.0,0.0,0.0,4.112890937871261e-05,-5.958842350545224e-05,-0.00019885102927678922,0.0003029840034352027,-4.11974329544984e-06,-7.120768228396912e-07,-3.865560560423198e-06,-0.0022821977747501613,-0.00039802033183252957,-0.00026851950707499863,7.773696738653578e-05,-0.000348221587706507,-0.0003728638216999748,-0.00023641495494338498,0.19667929410934448,12.024682998657227,-1.2909882068634033,-21.641878128051758,-0.3857322335243225,-2.5207552909851074,0.21457235515117645,0
66,0.3250422477722168,-0.24825400114059448,-12.000879287719727,1.2156097888946533,21.669649124145508,0.3857322335243225,2.5271639823913574,-0.22830526530742645,0.0,0.0,0.0,0.0,0.0,0.0,0.0,-0.1786903420220023,0.3495989958336368,0.050147473010159864,0.33479689655279693,-0.1422507897712003,0.12468000312639921,-0.21668935315109955,0.17284280709231958,-0.48746232001358536,-0.11126695998614294,-1.946685357612476,0.13361002165079114,2.595550359778934,0.9452499504006571,0.1728802376190821,-0.48752024683155326,-0.11147110072896137,-1.9463801863486305,0.1336059019074957,2.595550359778934,0.9452445589611904,0.0007806488365674011,-9.081720141924425e-05,0.0003807999328083461,-0.0009967383194858495,5.534925619187977e-05,-0.00013463407426654673,0.001198553196037932,0.0,0.0,0.0,0.0,0.0,0.0,0.0,3.743052676252745e-05,-5.7926817967901556e-05,-0.00020414074281842332,0.0003051712638455495,-4.11974329544984e-06,0.0,-5.3914394666509935e-06,-0.0007806488365674011,9.081720141924425e-05,-0.0003807999328083461,0.0009967383194858495,-5.534925619187977e-05,0.00013463407426654673,-0.001198553196037932,0.24825400114059448,12.000879287719727,-1.2156097888946533,-21.669649124145508,-0.3857322335243225,-2.5271639823913574,0.22830526530742645,0
67,0.33010149002075195,-0.24825400114059448,-12.000879287719727,1.2156097888946533,21.669649124145508,0.3857322335243225,2.5271639823913574,-0.22830526530742645,0.0,0.0,0.0,0.0,0.0,0.0,0.0,-0.1786903420220023,0.3495989958336368,0.050147473010159864,0.33479689655279693,-0.1422507897712003,0.12468000312639921,-0.21668935315109955,0.17284280709231958,-0.48746232001358536,-0.11126695998614294,-1.946685357612476,0.13361002165079114,2.595550359778934,0.9452499504006571,0.1728802376190821,-0.48752024683155326,-0.11147110072896137,-1.9463801863486305,0.1336059019074957,2.595550359778934,0.9452445589611904,0.0007806488365674011,-9.081720141924425e-05,0.0003807999328083461,-0.0009967383194858495,5.534925619187977e-05,-0.00013463407426654673,0.001198553196037932,0.0,0.0,0.0,0.0,0.0,0.0,0.0,3.743052676252745e-05,-5.7926817967901556e-05,-0.00020414074281842332,0.0003051712638455495,-4.11974329544984e-06,0.0,-5.3914394666509935e-06,-0.0007806488365674011,9.081720141924425e-05,-0.0003807999328083461,0.0009967383194858495,-5.534925619187977e-05,0.00013463407426654673,-0.001198553196037932,0.24825400114059448,12.000879287719727,-1.2156097888946533,-21.669649124145508,-0.3857322335243225,-2.5271639823913574,0.22830526530742645,0
68,0.3350391387939453,-0.2720577120780945,-12.024682998657227,1.1918060779571533,21.618074417114258,0.3857322335243225,2.5271639823913574,-0.20083944499492645,0.0,0.0,0.0,0.0,0.0,0.0,0.0,-0.17790606206562726,0.3451015851882008,0.05972247692670363,0.3361209510985745,-0.14358201536975707,0.12424143587891709,-0.21608730568373502,0.17284439842369162,-0.4874605789351383,-0.11126528955028768,-1.9466838841033474,0.13361002165079114,2.595550359778934,0.9452468986428446,0.1728802376190821,-0.48752024683155326,-0.11147110072896137,-1.9463801863486305,0.1336059019074957,2.595550359778934,0.9452445589611904,0.0006325833202381559,0.0006393559419343003,0.00040554957171807306,0.00018739220803354009,0.00021897476920717526,0.00010546785904394862,-0.0001082744579943902,0.0,0.0,0.0,0.0,0.0,0.0,0.0,3.5839195390491296e-05,-5.966789641498327e-05,-0.00020581117867368715,0.00030369775471683624,-4.11974329544984e-06,0.0,-2.3396816541954024e-06,-0.0006325833202381559,-0.0006393559419343003,-0.00040554957171807306,-0.00018739220803354009,-0.00021897476920717526,-0.00010546785904394862,0.0001082744579943902,0.2720577120780945,12.024682998657227,-1.1918060779571533,-21.618074417114258,-0.3857322335243225,-2.5271639823913574,0.20083944499492645,0
69,0.34011149406433105,-0.2720577120780945,-12.024682998657227,1.1918060779571533,21.618074417114258,0.3857322335243225,2.5271639823913574,-0.20083944499492645,0.0,0.0,0.0,0.0,0.0,0.0,0.0,-0.17790606206562726,0.3451015851882008,0.05972247692670363,0.3361209510985745,-0.14358201536975707,0.12424143587891709,-0.21608730568373502,0.17284439842369162,-0.4874605789351383,-0.11126528955028768,-1.9466838841033474,0.13361002165079114,2.595550359778934,0.9452468986428446,0.1728802376190821,-0.48752024683155326,-0.11147110072896137,-1.9463801863486305,0.1336059019074957,2.595550359778934,0.9452445589611904,0.0006325833202381559,0.0006393559419343003,0.00040554957171807306,0.00018739220803354009,0.00021897476920717526,0.00010546785904394862,-0.0001082744579943902,0.0,0.0,0.0,0.0,0.0,0.0,0.0,3.5839195390491296e-05,-5.966789641498327e-05,-0.00020581117867368715,0.00030369775471683624,-4.11974329544984e-06,0.0,-2.3396816541954024e-06,-0.0006325833202381559,-0.0006393559419343003,-0.00040554957171807306,-0.00018739220803354009,-0.00021897476920717526,-0.00010546785904394862,0.0001082744579943902,0.2720577120780945,12.024682998657227,-1.1918060779571533,-21.618074417114258,-0.3857322335243225,-2.5271639823913574,0.20083944499492645,0
70,0.3450047969818115,-0.17287558317184448,-12.000879287719727,1.2671844959259033,21.669649124145508,0.3912253975868225,2.5207552909851074,-0.17337362468242645,0.0,0.0,0.0,0.0,0.0,0.0,0.0,-0.17906330463685097,0.32954142293742533,0.0704900470578408,0.343464169548522,-0.14437388312851787,0.12594546083125835,-0.21536924934311924,0.17283743827384815,-0.4874623288434545,-0.11127057634083064,-1.946685834463093,0.13360941129922865,2.595551071855757,0.9452438468850322,0.1728802376190821,-0.48752024683155326,-0.11147110072896137,-1.9463801863486305,0.1336059019074957,2.595550359778934,0.9452445589611904,-0.0010528208527722195,-0.0004793013984352877,-0.0007277790784286365,-0.0005898039913841622,-0.00010179672805728411,0.0002162568933940287,-0.0013933035545467569,0.0,0.0,0.0,0.0,0.0,0.0,0.0,4.279934523396256e-05,-5.79179880987879e-05,-0.00020052438813072948,0.00030564811446254225,-3.509391732964273e-06,-7.120768228396912e-07,7.120761582601887e-07,0.0010528208527722195,0.0004793013984352877,0.0007277790784286365,0.0005898039913841622,0.00010179672805728411,-0.0002162568933940287,0.0013933035545467569,0.17287558317184448,12.000879287719727,-1.2671844959259033,-21.669649124145508,-0.3912253975868225,-2.5207552909851074,0.17337362468242645,0
71,0.3499886989593506,-0.17287558317184448,-12.000879287719727,1.2671844959259033,21.669649124145508,0.3912253975868225,2.5207552909851074,-0.17337362468242645,0.0,0.0,0.0,0.0,0.0,0.0,0.0,-0.17906330463685097,0.32954142293742533,0.0704900470578408,0.343464169548522,-0.14437388312851787,0.12594546083125835,-0.21536924934311924,0.17283743827384815,-0.4874623288434545,-0.11127057634083064,-1.946685834463093,0.13360941129922865,2.595551071855757,0.9452438468850322,0.1728802376190821,-0.48752024683155326,-0.11147110072896137,-1.9463801863486305,0.1336059019074957,2.595550359778934,0.9452445589611904,-0.0010528208527722195,-0.0004793013984352877,-0.0007277790784286365,-0.0005898039913841622,-0.00010179672805728411,0.0002162568933940287,-0.0013933035545467569,0.0,0.0,0.0,0.0,0.0,0.0,0.0,4.279934523396256e-05,-5.79179880987879e-05,-0.00020052438813072948,0.00030564811446254225,-3.509391732964273e-06,-7.120768228396912e-07,7.120761582601887e-07,0.0010528208527722195,0.0004793013984352877,0.0007277790784286365,0.0005898039913841622,0.00010179672805728411,-0.0002162568933940287,0.0013933035545467569,0.17287558317184448,12.000879287719727,-1.2671844959259033,-21.669649124145508,-0.3912253975868225,-2.5207552909851074,0.17337362468242645,0
72,0.3550229072570801,-0.09352988004684448,-12.000879287719727,1.3901703357696533,21.669649124145508,0.3912253975868225,2.5143465995788574,-0.22098104655742645,0.0,0.0,0.0,0.0,0.0,0.0,0.0,-0.166453376668952,0.34983041309002366,0.09023942933583992,0.33350819370821194,-0.1458338139658677,0.12378725704003617,-0.21566646567618397,0.1728318730841428,-0.48746232884390306,-0.11127920984906504,-1.9466851191979346,0.13360941129922865,2.5955517839325797,0.9452491365985738,0.1728802376190821,-0.48752024683155326,-0.11147110072896137,-1.9463801863486305,0.1336059019074957,2.595550359778934,0.9452445589611904,-0.0002808132465526913,0.000697887796287817,-0.0016882746681697119,-0.0003916557044457498,-1.0004123141720244e-05,0.00038786826268969734,0.000538451915275146,0.0,0.0,0.0,0.0,0.0,0.0,0.0,4.8364534939310255e-05,-5.7917987650202285e-05,-0.00019189087989632259,0.000304932849304107,-3.509391732964273e-06,-1.4241536456793824e-06,-4.5776373833739115e-06,0.0002808132465526913,-0.000697887796287817,0.0016882746681697119,0.0003916557044457498,1.0004123141720244e-05,-0.00038786826268969734,-0.000538451915275146,0.09352988004684448,12.000879287719727,-1.3901703357696533,-21.669649124145508,-0.3912253975868225,-2.5143465995788574,0.22098104655742645,0
73,0.360013484954834,-0.09352988004684448,-12.000879287719727,1.3901703357696533,21.669649124145508,0.3912253975868225,2.5143465995788574,-0.22098104655742645,0.0,0.0,0.0,0.0,0.0,0.0,0.0,-0.166453376668952,0.34983041309002366,0.09023942933583992,0.33350819370821194,-0.1458338139658677,0.12378725704003617,-0.21566646567618397,0.1728318730841428,-0.48746232884390306,-0.11127920984906504,-1.9466851191979346,0.13360941129922865,2.5955517839325797,0.9452491365985738,0.1728802376190821,-0.48752024683155326,-0.11147110072896137,-1.9463801863486305,0.1336059019074957,2.595550359778934,0.9452445589611904,-0.0002808132465526913,0.000697887796287817,-0.0016882746681697119,-0.0003916557044457498,-1.0004123141720244e-05,0.00038786826268969734,0.000538451915275146,0.0,0.0,0.0,0.0,0.0,0.0,0.0,4.8364534939310255e-05,-5.7917987650202285e-05,-0.00019189087989632259,0.000304932849304107,-3.509391732964273e-06,-1.4241536456793824e-06,-4.5776373833739115e-06,0.0002808132465526913,-0.000697887796287817,0.0016882746681697119,0.0003916557044457498,1.0004123141720244e-05,-0.00038786826268969734,-0.000538451915275146,0.09352988004684448,12.000879287719727,-1.3901703357696533,-21.669649124145508,-0.3912253975868225,-2.5143465995788574,0.22098104655742645,0
74,0.3650026321411133,-0.09352988004684448,-12.000879287719727,1.2671844959259033,21.641878128051758,0.3857322335243225,2.5271639823913574,-0.23471395671367645,0.0,0.0,0.0,0.0,0.0,0.0,0.0,-0.17070734330546722,0.32373056012520596,0.0728974440447173,0.35013187924219213,-0.1442765070952626,0.1258910910982854,-0.21602526144436168,0.17283187015434712,-0.48746232884390306,-0.11127057926382934,-1.9466831703520657,0.13361002165079114,2.595550359778934,0.94525066247748,0.1728802376190821,-0.48752024683155326,-0.11147110072896137,-1.9463801863486305,0.1336059019074957,2.595550359778934,0.9452445589611904,0.00025884146292200433,-0.00013792797692475898,0.0015352911958692735,0.0002098600795081522,2.3584460948943108e-05,1.9353002703727717e-05,0.0011934159852222338,0.0,0.0,0.0,0.0,0.0,0.0,0.0,4.836746473499409e-05,-5.7917987650202285e-05,-0.0002005214651320253,0.0003029840034352027,-4.11974329544984e-06,0.0,-6.103516289601707e-06,-0.00025884146292200433,0.00013792797692475898,-0.0015352911958692735,-0.0002098600795081522,-2.3584460948943108e-05,-1.9353002703727717e-05,-0.0011934159852222338,0.09352988004684448,12.000879287719727,-1.2671844959259033,-21.641878128051758,-0.3857322335243225,-2.5271639823913574,0.23471395671367645,0
75,0.36998772621154785,-0.09352988004684448,-12.000879287719727,1.2671844959259033,21.641878128051758,0.3857322335243225,2.5271639823913574,-0.23471395671367645,0.0,0.0,0.0,0.0,0.0,0.0,0.0,-0.17070734330546722,0.32373056012520596,0.0728974440447173,0.35013187924219213,-0.1442765070952626,0.1258910910982854,-0.21602526144436168,0.17283187015434712,-0.48746232884390306,-0.11127057926382934,-1.9466831703520657,0.13361002165079114,2.595550359778934,0.94525066247748,0.1728802376190821,-0.48752024683155326,-0.11147110072896137,-1.9463801863486305,0.1336059019074957,2.595550359778934,0.9452445589611904,0.00025884146292200433,-0.00013792797692475898,0.0015352911958692735,0.0002098600795081522,2.3584460948943108e-05,1.9353002703727717e-05,0.0011934159852222338,0.0,0.0,0.0,0.0,0.0,0.0,0.0,4.836746473499409e-05,-5.7917987650202285e-05,-0.0002005214651320253,0.0003029840034352027,-4.11974329544984e-06,0.0,-6.103516289601707e-06,-0.00025884146292200433,0.00013792797692475898,-0.0015352911958692735,-0.0002098600795081522,-2.3584460948943108e-05,-1.9353002703727717e-05,-0.0011934159852222338,0.09352988004684448,12.000879287719727,-1.2671844959259033,-21.641878128051758,-0.3857322335243225,-2.5271639823913574,0.23471395671367645,0
76,0.3749973773956299,-0.19667929410934448,-11.949304580688477,1.2433807849884033,21.618074417114258,0.3857322335243225,2.5143465995788574,-0.21457235515117645,0.0,0.0,0.0,0.0,0.0,0.0,0.0,-0.17392407869253795,0.3419272422839245,0.058205495941930765,0.3408537894836744,-0.1434403937315035,0.12493259332280568,-0.2169627185725127,0.1728391087097034,-0.4874659481215895,-0.11126890882797409,-1.9466817383347896,0.13361002165079114,2.5955517839325797,0.9452484245217508,0.1728802376190821,-0.48752024683155326,-0.11147110072896137,-1.9463801863486305,0.1336059019074957,2.595550359778934,0.9452445589611904,0.00022900883175506847,-0.0008214578871703897,0.00041607720010593784,0.00029131795357867997,-1.428839580891566e-05,0.00026485630865571004,0.00021536583556826006,0.0,0.0,0.0,0.0,0.0,0.0,0.0,4.112890937871261e-05,-5.4298709963762626e-05,-0.00020219190098727524,0.00030155198615910983,-4.11974329544984e-06,-1.4241536456793824e-06,-3.865560560423198e-06,-0.00022900883175506847,0.0008214578871703897,-0.00041607720010593784,-0.00029131795357867997,1.428839580891566e-05,-0.00026485630865571004,-0.00021536583556826006,0.19667929410934448,11.949304580688477,-1.2433807849884033,-21.618074417114258,-0.3857322335243225,-2.5143465995788574,0.21457235515117645,0
77,0.3799905776977539,-0.19667929410934448,-11.949304580688477,1.2433807849884033,21.618074417114258,0.3857322335243225,2.5143465995788574,-0.21457235515117645,0.0,0.0,0.0,0.0,0.0,0.0,0.0,-0.17392407869253795,0.3419272422839245,0.058205495941930765,0.3408537894836744,-0.1434403937315035,0.12493259332280568,-0.2169627185725127,0.1728391087097034,-0.4874659481215895,-0.11126890882797409,-1.9466817383347896,0.13361002165079114,2.5955517839325797,0.9452484245217508,0.1728802376190821,-0.48752024683155326,-0.11147110072896137,-1.9463801863486305,0.1336059019074957,2.595550359778934,0.9452445589611904,0.00022900883175506847,-0.0008214578871703897,0.00041607720010593784,0.00029131795357867997,-1.428839580891566e-05,0.00026485630865571004,0.00021536583556826006,0.0,0.0,0.0,0.0,0.0,0.0,0.0,4.112890937871261e-05,-5.4298709963762626e-05,-0.00020219190098727524,0.00030155198615910983,-4.11974329544984e-06,-1.4241536456793824e-06,-3.865560560423198e-06,-0.00022900883175506847,0.0008214578871703897,-0.00041607720010593784,-0.00029131795357867997,1.428839580891566e-05,-0.00026485630865571004,-0.00021536583556826006,0.19667929410934448,11.949304580688477,-1.2433807849884033,-21.618074417114258,-0.3857322335243225,-2.5143465995788574,0.21457235515117645,0
78,0.38500285148620605,-0.22445029020309448,-11.925500869750977,1.1918060779571533,21.641878128051758,0.3857322335243225,2.5335726737976074,-0.18710653483867645,0.0,0.0,0.0,0.0,0.0,0.0,0.0,-0.17126481265430912,0.34898287333592076,0.06606553801380277,0.3397178518908024,-0.14470136590050686,0.12465475473995188,-0.2173001469125766,0.17284105755153456,-0.48746761855744475,-0.11126528955028768,-1.9466831706804604,0.13361002165079114,2.595549647702111,0.9452453727639384,0.1728802376190821,-0.48752024683155326,-0.11147110072896137,-1.9463801863486305,0.1336059019074957,2.595550359778934,0.9452445589611904,-4.500992240944322e-05,-0.00018855669138352358,0.00031219831053128403,-0.00035858953939579656,0.00012106477822219451,-0.0005156152520116191,-0.0008513380555502988,0.0,0.0,0.0,0.0,0.0,0.0,0.0,3.9180067547550657e-05,-5.2628274108512674e-05,-0.00020581117867368715,0.0003029843318298475,-4.11974329544984e-06,7.120768228396912e-07,-8.138027479676069e-07,4.500992240944322e-05,0.00018855669138352358,-0.00031219831053128403,0.00035858953939579656,-0.00012106477822219451,0.0005156152520116191,0.0008513380555502988,0.22445029020309448,11.925500869750977,-1.1918060779571533,-21.641878128051758,-0.3857322335243225,-2.5335726737976074,0.18710653483867645,0
79,0.39003729820251465,-0.22445029020309448,-11.925500869750977,1.1918060779571533,21.641878128051758,0.3857322335243225,2.5335726737976074,-0.18710653483867645,0.0,0.0,0.0,0.0,0.0,0.0,0.0,-0.17126481265430912,0.34898287333592076,0.06606553801380277,0.3397178518908024,-0.14470136590050686,0.12465475473995188,-0.2173001469125766,0.17284105755153456,-0.48746761855744475,-0.11126528955028768,-1.9466831706804604,0.13361002165079114,2.595549647702111,0.9452453727639384,0.1728802376190821,-0.48752024683155326,-0.11147110072896137,-1.9463801863486305,0.1336059019074957,2.595550359778934,0.9452445589611904,-4.500992240944322e-05,-0.00018855669138352358,0.00031219831053128403,-0.00035858953939579656,0.00012106477822219451,-0.0005156152520116191,-0.0008513380555502988,0.0,0.0,0.0,0.0,0.0,0.0,0.0,3.9180067547550657e-05,-5.2628274108512674e-05,-0.00020581117867368715,0.0003029843318298475,-4.11974329544984e-06,7.120768228396912e-07,-8.138027479676069e-07,4.500992240944322e-05,0.00018855669138352358,-0.00031219831053128403,0.00035858953939579656,-0.00012106477822219451,0.0005156152520116191,0.0008513380555502988,0.22445029020309448,11.925500869750977,-1.1918060779571533,-21.641878128051758,-0.3857322335243225,-2.5335726737976074,0.18710653483867645,0
