rezayati/contactInterpretation/dataset/franka_main/labeled_data/link4/d1_8.csv
index,time,tau_J0,tau_J1,tau_J2,tau_J3,tau_J4,tau_J5,tau_J6,tau_J_d0,tau_J_d1,tau_J_d2,tau_J_d3,tau_J_d4,tau_J_d5,tau_J_d6,tau_ext0,tau_ext1,tau_ext2,tau_ext3,tau_ext4,tau_ext5,tau_ext6,q0,q1,q2,q3,q4,q5,q6,q_d0,q_d1,q_d2,q_d3,q_d4,q_d5,q_d6,dq0,dq1,dq2,dq3,dq4,dq5,dq6,dq_d0,dq_d1,dq_d2,dq_d3,dq_d4,dq_d5,dq_d6,e0,e1,e2,e3,e4,e5,e6,de0,de1,de2,de3,de4,de5,de6,etau_J0,etau_J1,etau_J2,etau_J3,etau_J4,etau_J5,etau_J6,label
1,0.0,-0.2998287081718445,-22.748254776000977,-0.02615044265985489,14.155611038208008,0.1595969796180725,2.1517977714538574,-0.30978721380233765,0.0,0.0,0.0,0.0,0.0,0.0,0.0,-0.2844335840324341,0.028442051662665578,-0.07395156559941478,0.2925067975925965,-0.07528486384622796,-0.04101092999164549,-0.3169240080436788,1.6754924656675572,0.0521093179679405,0.02994321565596439,-2.7523895819737545,0.0342475654166428,2.7663960908783802,0.7691724589599502,1.6754973547542302,0.052104326824870026,0.029969505109285054,-2.752394845125968,0.0342448039870148,2.7663679543071322,0.7691630533470046,0.0003282240420480681,-0.00020394049691707455,0.0008119370358107713,0.0004933184024598305,-4.2965824824741385e-05,-0.00044155750521483793,-0.0002929849767026959,0.0,0.0,0.0,0.0,0.0,0.0,0.0,4.889086673065535e-06,-4.991143070474935e-06,2.6289453320664513e-05,-5.26315221360818e-06,-2.761429627996803e-06,-2.8136571248005282e-05,-9.40561294560105e-06,-0.0003282240420480681,0.00020394049691707455,-0.0008119370358107713,-0.0004933184024598305,4.2965824824741385e-05,0.00044155750521483793,0.0002929849767026959,0.2998287081718445,22.748254776000977,0.02615044265985489,-14.155611038208008,-0.1595969796180725,-2.1517977714538574,0.30978721380233765,0
2,0.004990100860595703,-0.2998287081718445,-22.748254776000977,-0.02615044265985489,14.155611038208008,0.1595969796180725,2.1517977714538574,-0.30978721380233765,0.0,0.0,0.0,0.0,0.0,0.0,0.0,-0.2844335840324341,0.028442051662665578,-0.07395156559941478,0.2925067975925965,-0.07528486384622796,-0.04101092999164549,-0.3169240080436788,1.6754924656675572,0.0521093179679405,0.02994321565596439,-2.7523895819737545,0.0342475654166428,2.7663960908783802,0.7691724589599502,1.6754973547542302,0.052104326824870026,0.029969505109285054,-2.752394845125968,0.0342448039870148,2.7663679543071322,0.7691630533470046,0.0003282240420480681,-0.00020394049691707455,0.0008119370358107713,0.0004933184024598305,-4.2965824824741385e-05,-0.00044155750521483793,-0.0002929849767026959,0.0,0.0,0.0,0.0,0.0,0.0,0.0,4.889086673065535e-06,-4.991143070474935e-06,2.6289453320664513e-05,-5.26315221360818e-06,-2.761429627996803e-06,-2.8136571248005282e-05,-9.40561294560105e-06,-0.0003282240420480681,0.00020394049691707455,-0.0008119370358107713,-0.0004933184024598305,4.2965824824741385e-05,0.00044155750521483793,0.0002929849767026959,0.2998287081718445,22.748254776000977,0.02615044265985489,-14.155611038208008,-0.1595969796180725,-2.1517977714538574,0.30978721380233765,0
3,0.010003805160522461,-0.3514034152030945,-22.795862197875977,-0.02615044265985489,14.108003616333008,0.1531882882118225,2.1389803886413574,-0.29605430364608765,0.0,0.0,0.0,0.0,0.0,0.0,0.0,-0.28261147510224094,0.03162002042580646,-0.07005211887357336,0.2882617574458755,-0.07558676231201193,-0.04248718851335453,-0.3146170546635757,1.6754960849452434,0.05211242207720201,0.029943224407861468,-2.7523863034576643,0.034248277475436566,2.766397515032026,0.769170933081044,1.6754973547542302,0.052104326824870026,0.029969505109285054,-2.752394845125968,0.0342448039870148,2.7663679543071322,0.7691630533470046,0.0006946965893568093,0.0005116939450251571,0.000341306247832971,0.0010975357847606327,6.463527401042281e-05,0.0002284433632260406,-0.0008984754423507487,0.0,0.0,0.0,0.0,0.0,0.0,0.0,1.26980898684792e-06,-8.095252331981329e-06,2.6280701423585934e-05,-8.54166830377423e-06,-3.473488421765203e-06,-2.9560724893684664e-05,-7.879734039373254e-06,-0.0006946965893568093,-0.0005116939450251571,-0.000341306247832971,-0.0010975357847606327,-6.463527401042281e-05,-0.0002284433632260406,0.0008984754423507487,0.3514034152030945,22.795862197875977,0.02615044265985489,-14.108003616333008,-0.1531882882118225,-2.1389803886413574,0.29605430364608765,0
4,0.014990568161010742,-0.3514034152030945,-22.795862197875977,-0.02615044265985489,14.108003616333008,0.1531882882118225,2.1389803886413574,-0.29605430364608765,0.0,0.0,0.0,0.0,0.0,0.0,0.0,-0.28261147510224094,0.03162002042580646,-0.07005211887357336,0.2882617574458755,-0.07558676231201193,-0.04248718851335453,-0.3146170546635757,1.6754960849452434,0.05211242207720201,0.029943224407861468,-2.7523863034576643,0.034248277475436566,2.766397515032026,0.769170933081044,1.6754973547542302,0.052104326824870026,0.029969505109285054,-2.752394845125968,0.0342448039870148,2.7663679543071322,0.7691630533470046,0.0006946965893568093,0.0005116939450251571,0.000341306247832971,0.0010975357847606327,6.463527401042281e-05,0.0002284433632260406,-0.0008984754423507487,0.0,0.0,0.0,0.0,0.0,0.0,0.0,1.26980898684792e-06,-8.095252331981329e-06,2.6280701423585934e-05,-8.54166830377423e-06,-3.473488421765203e-06,-2.9560724893684664e-05,-7.879734039373254e-06,-0.0006946965893568093,-0.0005116939450251571,-0.000341306247832971,-0.0010975357847606327,-6.463527401042281e-05,-0.0002284433632260406,0.0008984754423507487,0.3514034152030945,22.795862197875977,0.02615044265985489,-14.108003616333008,-0.1531882882118225,-2.1389803886413574,0.29605430364608765,0
5,0.0199892520904541,-0.2998287081718445,-22.795862197875977,-0.02615044265985489,14.155611038208008,0.1531882882118225,2.1325716972351074,-0.30978721380233765,0.0,0.0,0.0,0.0,0.0,0.0,0.0,-0.29288632656460334,0.03046931067316867,-0.07582403682781114,0.28950435752436793,-0.0755546937546759,-0.04227458782599901,-0.31362928820951635,1.6754924656675572,0.05211265883965102,0.029943224419899547,-2.752392421469468,0.03424827747543653,2.766398227108849,0.7691724589599502,1.6754973547542302,0.052104326824870026,0.029969505109285054,-2.752394845125968,0.0342448039870148,2.7663679543071322,0.7691630533470046,-0.0006242052521168803,0.0007456913349733091,-0.000444176707153705,0.0004121761491609423,0.00013206372125010226,0.00032463062741390974,-0.0006085006079590501,0.0,0.0,0.0,0.0,0.0,0.0,0.0,4.889086673065535e-06,-8.332014780995656e-06,2.6280689385507067e-05,-2.423656499939142e-06,-3.4734884217305084e-06,-3.0272801716968445e-05,-9.40561294560105e-06,0.0006242052521168803,-0.0007456913349733091,0.000444176707153705,-0.0004121761491609423,-0.00013206372125010226,-0.00032463062741390974,0.0006085006079590501,0.2998287081718445,22.795862197875977,0.02615044265985489,-14.155611038208008,-0.1531882882118225,-2.1325716972351074,0.30978721380233765,0
6,0.02498793601989746,-0.2998287081718445,-22.795862197875977,-0.02615044265985489,14.155611038208008,0.1531882882118225,2.1325716972351074,-0.30978721380233765,0.0,0.0,0.0,0.0,0.0,0.0,0.0,-0.29288632656460334,0.03046931067316867,-0.07582403682781114,0.28950435752436793,-0.0755546937546759,-0.04227458782599901,-0.31362928820951635,1.6754924656675572,0.05211265883965102,0.029943224419899547,-2.752392421469468,0.03424827747543653,2.766398227108849,0.7691724589599502,1.6754973547542302,0.052104326824870026,0.029969505109285054,-2.752394845125968,0.0342448039870148,2.7663679543071322,0.7691630533470046,-0.0006242052521168803,0.0007456913349733091,-0.000444176707153705,0.0004121761491609423,0.00013206372125010226,0.00032463062741390974,-0.0006085006079590501,0.0,0.0,0.0,0.0,0.0,0.0,0.0,4.889086673065535e-06,-8.332014780995656e-06,2.6280689385507067e-05,-2.423656499939142e-06,-3.4734884217305084e-06,-3.0272801716968445e-05,-9.40561294560105e-06,0.0006242052521168803,-0.0007456913349733091,0.000444176707153705,-0.0004121761491609423,-0.00013206372125010226,-0.00032463062741390974,0.0006085006079590501,0.2998287081718445,22.795862197875977,0.02615044265985489,-14.155611038208008,-0.1531882882118225,-2.1325716972351074,0.30978721380233765,0
7,0.030208587646484375,-0.3752071261405945,-22.772058486938477,-0.07375786453485489,14.155611038208008,0.1595969796180725,2.1389803886413574,-0.32352012395858765,0.0,0.0,0.0,0.0,0.0,0.0,0.0,-0.31122521296119693,0.029905148397201382,-0.09358408285884465,0.2860619374736276,-0.07509510665175818,-0.04280928477736799,-0.31435554085789585,1.6754977553810988,0.052110754565236464,0.029946565003087143,-2.752392336102527,0.034247565398613615,2.766397515032026,0.7691739848388565,1.6754973547542302,0.052104326824870026,0.029969505109285054,-2.752394845125968,0.0342448039870148,2.7663679543071322,0.7691630533470046,-0.00012148820393439847,5.9786283734318016e-05,0.0003263079588160903,2.3775369821064623e-05,-9.819204545840411e-05,0.0003626836428145168,0.00022243224450541006,0.0,0.0,0.0,0.0,0.0,0.0,0.0,-4.0062686856856544e-07,-6.427740366438117e-06,2.2940106197910648e-05,-2.5090234410107826e-06,-2.7614115988144894e-06,-2.9560724893684664e-05,-1.0931491851828845e-05,0.00012148820393439847,-5.9786283734318016e-05,-0.0003263079588160903,-2.3775369821064623e-05,9.819204545840411e-05,-0.0003626836428145168,-0.00022243224450541006,0.3752071261405945,22.772058486938477,0.07375786453485489,-14.155611038208008,-0.1595969796180725,-2.1389803886413574,0.32352012395858765,0
8,0.0349886417388916,-0.3752071261405945,-22.772058486938477,-0.07375786453485489,14.155611038208008,0.1595969796180725,2.1389803886413574,-0.32352012395858765,0.0,0.0,0.0,0.0,0.0,0.0,0.0,-0.31122521296119693,0.029905148397201382,-0.09358408285884465,0.2860619374736276,-0.07509510665175818,-0.04280928477736799,-0.31435554085789585,1.6754977553810988,0.052110754565236464,0.029946565003087143,-2.752392336102527,0.034247565398613615,2.766397515032026,0.7691739848388565,1.6754973547542302,0.052104326824870026,0.029969505109285054,-2.752394845125968,0.0342448039870148,2.7663679543071322,0.7691630533470046,-0.00012148820393439847,5.9786283734318016e-05,0.0003263079588160903,2.3775369821064623e-05,-9.819204545840411e-05,0.0003626836428145168,0.00022243224450541006,0.0,0.0,0.0,0.0,0.0,0.0,0.0,-4.0062686856856544e-07,-6.427740366438117e-06,2.2940106197910648e-05,-2.5090234410107826e-06,-2.7614115988144894e-06,-2.9560724893684664e-05,-1.0931491851828845e-05,0.00012148820393439847,-5.9786283734318016e-05,-0.0003263079588160903,-2.3775369821064623e-05,9.819204545840411e-05,-0.0003626836428145168,-0.00022243224450541006,0.3752071261405945,22.772058486938477,0.07375786453485489,-14.155611038208008,-0.1595969796180725,-2.1389803886413574,0.32352012395858765,0
9,0.03999185562133789,-0.3752071261405945,-22.772058486938477,-0.07375786453485489,14.155611038208008,0.1595969796180725,2.1389803886413574,-0.35831016302108765,0.0,0.0,0.0,0.0,0.0,0.0,0.0,-0.3568119514498686,0.030826874458659767,-0.13498119357512,0.287554546764721,-0.0723911662180981,-0.0422711764538136,-0.31605754368958544,1.6754977553810988,0.05211075164091774,0.029946565327673882,-2.7523903293305754,0.034247565398613615,2.766397515032026,0.7691778634807045,1.6754973547542302,0.052104326824870026,0.029969505109285054,-2.752394845125968,0.0342448039870148,2.7663679543071322,0.7691630533470046,0.00122193930453279,0.000366326229611096,-0.0003358084119189671,0.00013897572610577276,-5.4435774200508074e-05,8.164446659804215e-05,0.0014014527958376214,0.0,0.0,0.0,0.0,0.0,0.0,0.0,-4.0062686856856544e-07,-6.424816047713444e-06,2.2939781611171217e-05,-4.51579539273439e-06,-2.7614115988144894e-06,-2.9560724893684664e-05,-1.4810133699860728e-05,-0.00122193930453279,-0.000366326229611096,0.0003358084119189671,-0.00013897572610577276,5.4435774200508074e-05,-8.164446659804215e-05,-0.0014014527958376214,0.3752071261405945,22.772058486938477,0.07375786453485489,-14.155611038208008,-0.1595969796180725,-2.1389803886413574,0.35831016302108765,0
10,0.044988393783569336,-0.3752071261405945,-22.772058486938477,-0.07375786453485489,14.155611038208008,0.1595969796180725,2.1389803886413574,-0.35831016302108765,0.0,0.0,0.0,0.0,0.0,0.0,0.0,-0.3568119514498686,0.030826874458659767,-0.13498119357512,0.287554546764721,-0.0723911662180981,-0.0422711764538136,-0.31605754368958544,1.6754977553810988,0.05211075164091774,0.029946565327673882,-2.7523903293305754,0.034247565398613615,2.766397515032026,0.7691778634807045,1.6754973547542302,0.052104326824870026,0.029969505109285054,-2.752394845125968,0.0342448039870148,2.7663679543071322,0.7691630533470046,0.00122193930453279,0.000366326229611096,-0.0003358084119189671,0.00013897572610577276,-5.4435774200508074e-05,8.164446659804215e-05,0.0014014527958376214,0.0,0.0,0.0,0.0,0.0,0.0,0.0,-4.0062686856856544e-07,-6.424816047713444e-06,2.2939781611171217e-05,-4.51579539273439e-06,-2.7614115988144894e-06,-2.9560724893684664e-05,-1.4810133699860728e-05,-0.00122193930453279,-0.000366326229611096,0.0003358084119189671,-0.00013897572610577276,5.4435774200508074e-05,-8.164446659804215e-05,-0.0014014527958376214,0.3752071261405945,22.772058486938477,0.07375786453485489,-14.155611038208008,-0.1595969796180725,-2.1389803886413574,0.35831016302108765,0
11,0.05021381378173828,-0.2720577120780945,-22.748254776000977,-0.02615044265985489,14.155611038208008,0.1595969796180725,2.1453890800476074,-0.33725303411483765,0.0,0.0,0.0,0.0,0.0,0.0,0.0,-0.33606744679485095,0.032953239342158096,-0.11335876612176667,0.28818015891753535,-0.07537742299587719,-0.042416178624375925,-0.31803800215398664,1.675490516825726,0.05210908120504597,0.0299410948316779,-2.7523919278375666,0.034247565398613615,2.766396802955203,0.7691755107179842,1.6754973547542302,0.052104326824870026,0.029969505109285054,-2.752394845125968,0.0342448039870148,2.7663679543071322,0.7691630533470046,-0.0015973428729576943,0.00015863222523672445,-0.0005072172756945796,0.00013242619408155573,-5.4403639538490526e-05,0.00019415617189915996,0.0008986023954976344,0.0,0.0,0.0,0.0,0.0,0.0,0.0,6.837928504310753e-06,-4.754380175941986e-06,2.841027760715209e-05,-2.9172884015160605e-06,-2.7614115988144894e-06,-2.8848648070844973e-05,-1.2457370979546134e-05,0.0015973428729576943,-0.00015863222523672445,0.0005072172756945796,-0.00013242619408155573,5.4403639538490526e-05,-0.00019415617189915996,-0.0008986023954976344,0.2720577120780945,22.748254776000977,0.02615044265985489,-14.155611038208008,-0.1595969796180725,-2.1453890800476074,0.33725303411483765,0
12,0.05498909950256348,-0.2720577120780945,-22.748254776000977,-0.02615044265985489,14.155611038208008,0.1595969796180725,2.1453890800476074,-0.33725303411483765,0.0,0.0,0.0,0.0,0.0,0.0,0.0,-0.33606744679485095,0.032953239342158096,-0.11335876612176667,0.28818015891753535,-0.07537742299587719,-0.042416178624375925,-0.31803800215398664,1.675490516825726,0.05210908120504597,0.0299410948316779,-2.7523919278375666,0.034247565398613615,2.766396802955203,0.7691755107179842,1.6754973547542302,0.052104326824870026,0.029969505109285054,-2.752394845125968,0.0342448039870148,2.7663679543071322,0.7691630533470046,-0.0015973428729576943,0.00015863222523672445,-0.0005072172756945796,0.00013242619408155573,-5.4403639538490526e-05,0.00019415617189915996,0.0008986023954976344,0.0,0.0,0.0,0.0,0.0,0.0,0.0,6.837928504310753e-06,-4.754380175941986e-06,2.841027760715209e-05,-2.9172884015160605e-06,-2.7614115988144894e-06,-2.8848648070844973e-05,-1.2457370979546134e-05,0.0015973428729576943,-0.00015863222523672445,0.0005072172756945796,-0.00013242619408155573,5.4403639538490526e-05,-0.00019415617189915996,-0.0008986023954976344,0.2720577120780945,22.748254776000977,0.02615044265985489,-14.155611038208008,-0.1595969796180725,-2.1453890800476074,0.33725303411483765,0
13,0.059990882873535156,-0.17287558317184448,-22.748254776000977,0.07303168624639511,14.108003616333008,0.1595969796180725,2.1453890800476074,-0.33084434270858765,0.0,0.0,0.0,0.0,0.0,0.0,0.0,-0.30597552810895706,0.03283310692061791,-0.08855120352013665,0.28965944598551907,-0.0774879145029069,-0.04150986585044576,-0.31960998992297085,1.675483556676329,0.05210908120504597,0.029936264302560998,-2.752388969965909,0.034247565398613615,2.766396802955203,0.7691747986409398,1.6754973547542302,0.052104326824870026,0.029969505109285054,-2.752394845125968,0.0342448039870148,2.7663679543071322,0.7691630533470046,-0.0012755872618574892,-0.0004251959894663682,-0.0005581846727639573,0.001147132877582955,-0.00012154705926830503,-5.316739669019193e-05,0.0004393199757911156,0.0,0.0,0.0,0.0,0.0,0.0,0.0,1.3798077901139294e-05,-4.754380175941986e-06,3.3240806724055966e-05,-5.875160058899098e-06,-2.7614115988144894e-06,-2.8848648070844973e-05,-1.174529393521695e-05,0.0012755872618574892,0.0004251959894663682,0.0005581846727639573,-0.001147132877582955,0.00012154705926830503,5.316739669019193e-05,-0.0004393199757911156,0.17287558317184448,22.748254776000977,-0.07303168624639511,-14.108003616333008,-0.1595969796180725,-2.1453890800476074,0.33084434270858765,0
14,0.06501293182373047,-0.17287558317184448,-22.748254776000977,0.07303168624639511,14.108003616333008,0.1595969796180725,2.1453890800476074,-0.33084434270858765,0.0,0.0,0.0,0.0,0.0,0.0,0.0,-0.30597552810895706,0.03283310692061791,-0.08855120352013665,0.28965944598551907,-0.0774879145029069,-0.04150986585044576,-0.31960998992297085,1.675483556676329,0.05210908120504597,0.029936264302560998,-2.752388969965909,0.034247565398613615,2.766396802955203,0.7691747986409398,1.6754973547542302,0.052104326824870026,0.029969505109285054,-2.752394845125968,0.0342448039870148,2.7663679543071322,0.7691630533470046,-0.0012755872618574892,-0.0004251959894663682,-0.0005581846727639573,0.001147132877582955,-0.00012154705926830503,-5.316739669019193e-05,0.0004393199757911156,0.0,0.0,0.0,0.0,0.0,0.0,0.0,1.3798077901139294e-05,-4.754380175941986e-06,3.3240806724055966e-05,-5.875160058899098e-06,-2.7614115988144894e-06,-2.8848648070844973e-05,-1.174529393521695e-05,0.0012755872618574892,0.0004251959894663682,0.0005581846727639573,-0.001147132877582955,0.00012154705926830503,5.316739669019193e-05,-0.0004393199757911156,0.17287558317184448,22.748254776000977,-0.07303168624639511,-14.108003616333008,-0.1595969796180725,-2.1453890800476074,0.33084434270858765,0
15,0.06999516487121582,-0.14510458707809448,-22.748254776000977,0.12460639327764511,14.155611038208008,0.1595969796180725,2.1453890800476074,-0.33725303411483765,0.0,0.0,0.0,0.0,0.0,0.0,0.0,-0.28810164493432566,0.033887870806376265,-0.07744868371476483,0.2924248186466287,-0.07611315969144568,-0.040569069459739204,-0.31980664761311245,1.6754816078344978,0.05210908120504597,0.029932645028881835,-2.752390559128651,0.034247565398613615,2.766396802955203,0.7691755107177627,1.6754973547542302,0.052104326824870026,0.029969505109285054,-2.752394845125968,0.0342448039870148,2.7663679543071322,0.7691630533470046,-0.0004459241406312403,-0.0003889102851555682,-0.0004285592838094724,3.84486460549587e-05,-0.00014537630918239522,0.00011118509400305812,0.0014266227026157033,0.0,0.0,0.0,0.0,0.0,0.0,0.0,1.5746919732384512e-05,-4.754380175941986e-06,3.6860080403218476e-05,-4.285997317055035e-06,-2.7614115988144894e-06,-2.8848648070844973e-05,-1.245737075805664e-05,0.0004459241406312403,0.0003889102851555682,0.0004285592838094724,-3.84486460549587e-05,0.00014537630918239522,-0.00011118509400305812,-0.0014266227026157033,0.14510458707809448,22.748254776000977,-0.12460639327764511,-14.155611038208008,-0.1595969796180725,-2.1453890800476074,0.33725303411483765,0
16,0.07495903968811035,-0.14510458707809448,-22.748254776000977,0.12460639327764511,14.155611038208008,0.1595969796180725,2.1453890800476074,-0.33725303411483765,0.0,0.0,0.0,0.0,0.0,0.0,0.0,-0.28810164493432566,0.033887870806376265,-0.07744868371476483,0.2924248186466287,-0.07611315969144568,-0.040569069459739204,-0.31980664761311245,1.6754816078344978,0.05210908120504597,0.029932645028881835,-2.752390559128651,0.034247565398613615,2.766396802955203,0.7691755107177627,1.6754973547542302,0.052104326824870026,0.029969505109285054,-2.752394845125968,0.0342448039870148,2.7663679543071322,0.7691630533470046,-0.0004459241406312403,-0.0003889102851555682,-0.0004285592838094724,3.84486460549587e-05,-0.00014537630918239522,0.00011118509400305812,0.0014266227026157033,0.0,0.0,0.0,0.0,0.0,0.0,0.0,1.5746919732384512e-05,-4.754380175941986e-06,3.6860080403218476e-05,-4.285997317055035e-06,-2.7614115988144894e-06,-2.8848648070844973e-05,-1.245737075805664e-05,0.0004459241406312403,0.0003889102851555682,0.0004285592838094724,-3.84486460549587e-05,0.00014537630918239522,-0.00011118509400305812,-0.0014266227026157033,0.14510458707809448,22.748254776000977,-0.12460639327764511,-14.155611038208008,-0.1595969796180725,-2.1453890800476074,0.33725303411483765,0
17,0.0799870491027832,-0.19667929410934448,-22.795862197875977,0.07303168624639511,14.155611038208008,0.1476951241493225,2.1325716972351074,-0.30978721380233765,0.0,0.0,0.0,0.0,0.0,0.0,0.0,-0.25497574646359467,0.035502645692583504,-0.04810249564601032,0.28997157115912875,-0.07615360241195306,-0.04041331518002627,-0.3173954179393205,1.6754852271121843,0.052112422076756496,0.029935551510510514,-2.7523903495114337,0.03424888782699903,2.766398227108849,0.7691725766975201,1.6754973547542302,0.052104326824870026,0.029969505109285054,-2.752394845125968,0.0342448039870148,2.7663679543071322,0.7691630533470046,-0.0032456158636785942,0.00029555555922750634,0.0010884474315500793,0.0002386942773301241,0.0003152343135282373,0.0003034820264671168,6.617950884016685e-05,0.0,0.0,0.0,0.0,0.0,0.0,0.0,1.2127642045944853e-05,-8.095251886469645e-06,3.395359877454013e-05,-4.495614534416603e-06,-4.083839984229953e-06,-3.0272801716968445e-05,-9.523350515516782e-06,0.0032456158636785942,-0.00029555555922750634,-0.0010884474315500793,-0.0002386942773301241,-0.0003152343135282373,-0.0003034820264671168,-6.617950884016685e-05,0.19667929410934448,22.795862197875977,-0.07303168624639511,-14.155611038208008,-0.1476951241493225,-2.1325716972351074,0.30978721380233765,0
18,0.08498692512512207,-0.19667929410934448,-22.795862197875977,0.07303168624639511,14.155611038208008,0.1476951241493225,2.1325716972351074,-0.30978721380233765,0.0,0.0,0.0,0.0,0.0,0.0,0.0,-0.25497574646359467,0.035502645692583504,-0.04810249564601032,0.28997157115912875,-0.07615360241195306,-0.04041331518002627,-0.3173954179393205,1.6754852271121843,0.052112422076756496,0.029935551510510514,-2.7523903495114337,0.03424888782699903,2.766398227108849,0.7691725766975201,1.6754973547542302,0.052104326824870026,0.029969505109285054,-2.752394845125968,0.0342448039870148,2.7663679543071322,0.7691630533470046,-0.0032456158636785942,0.00029555555922750634,0.0010884474315500793,0.0002386942773301241,0.0003152343135282373,0.0003034820264671168,6.617950884016685e-05,0.0,0.0,0.0,0.0,0.0,0.0,0.0,1.2127642045944853e-05,-8.095251886469645e-06,3.395359877454013e-05,-4.495614534416603e-06,-4.083839984229953e-06,-3.0272801716968445e-05,-9.523350515516782e-06,0.0032456158636785942,-0.00029555555922750634,-0.0010884474315500793,-0.0002386942773301241,-0.0003152343135282373,-0.0003034820264671168,-6.617950884016685e-05,0.19667929410934448,22.795862197875977,-0.07303168624639511,-14.155611038208008,-0.1476951241493225,-2.1325716972351074,0.30978721380233765,0
19,0.08999133110046387,-0.3514034152030945,-22.772058486938477,-0.04995415359735489,14.131807327270508,0.1531882882118225,2.1453890800476074,-0.30978721380233765,0.0,0.0,0.0,0.0,0.0,0.0,0.0,-0.2631696890726859,0.03869258696026409,-0.054465857670000645,0.2901894696678784,-0.07482081553320181,-0.04135471709079496,-0.31621819135345325,1.6754960849452434,0.05211075164090123,0.0299448948877967,-2.7523878976834677,0.03424827747543653,2.7663968160371555,0.7691724589606148,1.6754973547542302,0.052104326824870026,0.029969505109285054,-2.752394845125968,0.0342448039870148,2.7663679543071322,0.7691630533470046,0.0006625125448625456,0.0004146820842393341,0.0010289216710186056,0.0009303677071021014,5.255205325821456e-05,-6.22134434367099e-05,-0.00013692953273217022,0.0,0.0,0.0,0.0,0.0,0.0,0.0,1.26980898684792e-06,-6.4248160312058156e-06,2.4610221488353262e-05,-6.947442500404577e-06,-3.4734884217305084e-06,-2.8861730023255205e-05,-9.405613610180552e-06,-0.0006625125448625456,-0.0004146820842393341,-0.0010289216710186056,-0.0009303677071021014,-5.255205325821456e-05,6.22134434367099e-05,0.00013692953273217022,0.3514034152030945,22.772058486938477,0.04995415359735489,-14.131807327270508,-0.1531882882118225,-2.1453890800476074,0.30978721380233765,0
20,0.0949866771697998,-0.3514034152030945,-22.772058486938477,-0.04995415359735489,14.131807327270508,0.1531882882118225,2.1453890800476074,-0.30978721380233765,0.0,0.0,0.0,0.0,0.0,0.0,0.0,-0.2631696890726859,0.03869258696026409,-0.054465857670000645,0.2901894696678784,-0.07482081553320181,-0.04135471709079496,-0.31621819135345325,1.6754960849452434,0.05211075164090123,0.0299448948877967,-2.7523878976834677,0.03424827747543653,2.7663968160371555,0.7691724589606148,1.6754973547542302,0.052104326824870026,0.029969505109285054,-2.752394845125968,0.0342448039870148,2.7663679543071322,0.7691630533470046,0.0006625125448625456,0.0004146820842393341,0.0010289216710186056,0.0009303677071021014,5.255205325821456e-05,-6.22134434367099e-05,-0.00013692953273217022,0.0,0.0,0.0,0.0,0.0,0.0,0.0,1.26980898684792e-06,-6.4248160312058156e-06,2.4610221488353262e-05,-6.947442500404577e-06,-3.4734884217305084e-06,-2.8861730023255205e-05,-9.405613610180552e-06,-0.0006625125448625456,-0.0004146820842393341,-0.0010289216710186056,-0.0009303677071021014,-5.255205325821456e-05,6.22134434367099e-05,0.00013692953273217022,0.3514034152030945,22.772058486938477,0.04995415359735489,-14.131807327270508,-0.1531882882118225,-2.1453890800476074,0.30978721380233765,0
21,0.100006103515625,-0.4029781222343445,-22.720483779907227,-0.1253325641155243,14.155611038208008,0.1650901436805725,2.1453890800476074,-0.30978721380233765,0.0,0.0,0.0,0.0,0.0,0.0,0.0,-0.2874593242568889,0.034797371046918546,-0.07523463890740267,0.2914486989354634,-0.07447724902723382,-0.04114951066072391,-0.31734480377772145,1.6754997042229298,0.05210713236321483,0.029950184604839204,-2.752391650471138,0.03424695504705111,2.7663968029554247,0.7691724589599502,1.6754973547542302,0.052104326824870026,0.029969505109285054,-2.752394845125968,0.0342448039870148,2.7663679543071322,0.7691630533470046,0.00024537970466000845,-0.001044875865856759,0.0009730909624635345,-0.00031985419094121786,-0.0002233497205369172,-0.00013582707557028951,-0.0008907000643640421,0.0,0.0,0.0,0.0,0.0,0.0,0.0,-2.349468699591739e-06,-2.805538344800851e-06,1.932050444584943e-05,-3.1946548300076927e-06,-2.1510600363081056e-06,-2.884864829244549e-05,-9.40561294560105e-06,-0.00024537970466000845,0.001044875865856759,-0.0009730909624635345,0.00031985419094121786,0.0002233497205369172,0.00013582707557028951,0.0008907000643640421,0.4029781222343445,22.720483779907227,0.1253325641155243,-14.155611038208008,-0.1650901436805725,-2.1453890800476074,0.30978721380233765,0
22,0.10500812530517578,-0.4029781222343445,-22.720483779907227,-0.1253325641155243,14.155611038208008,0.1650901436805725,2.1453890800476074,-0.30978721380233765,0.0,0.0,0.0,0.0,0.0,0.0,0.0,-0.2874593242568889,0.034797371046918546,-0.07523463890740267,0.2914486989354634,-0.07447724902723382,-0.04114951066072391,-0.31734480377772145,1.6754997042229298,0.05210713236321483,0.029950184604839204,-2.752391650471138,0.03424695504705111,2.7663968029554247,0.7691724589599502,1.6754973547542302,0.052104326824870026,0.029969505109285054,-2.752394845125968,0.0342448039870148,2.7663679543071322,0.7691630533470046,0.00024537970466000845,-0.001044875865856759,0.0009730909624635345,-0.00031985419094121786,-0.0002233497205369172,-0.00013582707557028951,-0.0008907000643640421,0.0,0.0,0.0,0.0,0.0,0.0,0.0,-2.349468699591739e-06,-2.805538344800851e-06,1.932050444584943e-05,-3.1946548300076927e-06,-2.1510600363081056e-06,-2.884864829244549e-05,-9.40561294560105e-06,-0.00024537970466000845,0.001044875865856759,-0.0009730909624635345,0.00031985419094121786,0.0002233497205369172,0.00013582707557028951,0.0008907000643640421,0.4029781222343445,22.720483779907227,0.1253325641155243,-14.155611038208008,-0.1650901436805725,-2.1453890800476074,0.30978721380233765,0
23,0.10999512672424316,-0.4029781222343445,-22.772058486938477,-0.07375786453485489,14.155611038208008,0.1595969796180725,2.1453890800476074,-0.31711143255233765,0.0,0.0,0.0,0.0,0.0,0.0,0.0,-0.3019795236653978,0.036379009015238946,-0.08542024834111905,0.29069638095581574,-0.0755090881787557,-0.04147950035030714,-0.31903411240654633,1.6754997042229298,0.05211075164090123,0.029946565327675714,-2.752391724737633,0.034247565398613615,2.7663968029552035,0.7691732727620335,1.6754973547542302,0.052104326824870026,0.029969505109285054,-2.752394845125968,0.0342448039870148,2.7663679543071322,0.7691630533470046,-6.265815866947638e-05,0.00025975838745364964,-0.0006206566328143037,-0.0001110828007405401,-0.0001523048603778643,-0.00020177118447465967,-0.000367466782428252,0.0,0.0,0.0,0.0,0.0,0.0,0.0,-2.349468699591739e-06,-6.4248160312058156e-06,2.293978160933935e-05,-3.1203883352759476e-06,-2.7614115988144894e-06,-2.8848648071289062e-05,-1.0219415028878132e-05,6.265815866947638e-05,-0.00025975838745364964,0.0006206566328143037,0.0001110828007405401,0.0001523048603778643,0.00020177118447465967,0.000367466782428252,0.4029781222343445,22.772058486938477,0.07375786453485489,-14.155611038208008,-0.1595969796180725,-2.1453890800476074,0.31711143255233765,0
24,0.11501169204711914,-0.4029781222343445,-22.772058486938477,-0.07375786453485489,14.155611038208008,0.1595969796180725,2.1453890800476074,-0.31711143255233765,0.0,0.0,0.0,0.0,0.0,0.0,0.0,-0.3019795236653978,0.036379009015238946,-0.08542024834111905,0.29069638095581574,-0.0755090881787557,-0.04147950035030714,-0.31903411240654633,1.6754997042229298,0.05211075164090123,0.029946565327675714,-2.752391724737633,0.034247565398613615,2.7663968029552035,0.7691732727620335,1.6754973547542302,0.052104326824870026,0.029969505109285054,-2.752394845125968,0.0342448039870148,2.7663679543071322,0.7691630533470046,-6.265815866947638e-05,0.00025975838745364964,-0.0006206566328143037,-0.0001110828007405401,-0.0001523048603778643,-0.00020177118447465967,-0.000367466782428252,0.0,0.0,0.0,0.0,0.0,0.0,0.0,-2.349468699591739e-06,-6.4248160312058156e-06,2.293978160933935e-05,-3.1203883352759476e-06,-2.7614115988144894e-06,-2.8848648071289062e-05,-1.0219415028878132e-05,6.265815866947638e-05,-0.00025975838745364964,0.0006206566328143037,0.0001110828007405401,0.0001523048603778643,0.00020177118447465967,0.000367466782428252,0.4029781222343445,22.772058486938477,0.07375786453485489,-14.155611038208008,-0.1595969796180725,-2.1453890800476074,0.31711143255233765,0
25,0.12000274658203125,-0.4029781222343445,-22.772058486938477,-0.07375786453485489,14.155611038208008,0.1595969796180725,2.1453890800476074,-0.31711143255233765,0.0,0.0,0.0,0.0,0.0,0.0,0.0,-0.3019795236653978,0.036379009015238946,-0.08542024834111905,0.29069638095581574,-0.0755090881787557,-0.04147950035030714,-0.31903411240654633,1.6754997042229298,0.05211075164090123,0.029946565327675714,-2.752391724737633,0.034247565398613615,2.7663968029552035,0.7691732727620335,1.6754973547542302,0.052104326824870026,0.029969505109285054,-2.752394845125968,0.0342448039870148,2.7663679543071322,0.7691630533470046,-6.265815866947638e-05,0.00025975838745364964,-0.0006206566328143037,-0.0001110828007405401,-0.0001523048603778643,-0.00020177118447465967,-0.000367466782428252,0.0,0.0,0.0,0.0,0.0,0.0,0.0,-2.349468699591739e-06,-6.4248160312058156e-06,2.293978160933935e-05,-3.1203883352759476e-06,-2.7614115988144894e-06,-2.8848648071289062e-05,-1.0219415028878132e-05,6.265815866947638e-05,-0.00025975838745364964,0.0006206566328143037,0.0001110828007405401,0.0001523048603778643,0.00020177118447465967,0.000367466782428252,0.4029781222343445,22.772058486938477,0.07375786453485489,-14.155611038208008,-0.1595969796180725,-2.1453890800476074,0.31711143255233765,0
26,0.12499427795410156,-0.4029781222343445,-22.772058486938477,-0.07375786453485489,14.155611038208008,0.1595969796180725,2.1453890800476074,-0.31711143255233765,0.0,0.0,0.0,0.0,0.0,0.0,0.0,-0.3019795236653978,0.036379009015238946,-0.08542024834111905,0.29069638095581574,-0.0755090881787557,-0.04147950035030714,-0.31903411240654633,1.6754997042229298,0.05211075164090123,0.029946565327675714,-2.752391724737633,0.034247565398613615,2.7663968029552035,0.7691732727620335,1.6754973547542302,0.052104326824870026,0.029969505109285054,-2.752394845125968,0.0342448039870148,2.7663679543071322,0.7691630533470046,-6.265815866947638e-05,0.00025975838745364964,-0.0006206566328143037,-0.0001110828007405401,-0.0001523048603778643,-0.00020177118447465967,-0.000367466782428252,0.0,0.0,0.0,0.0,0.0,0.0,0.0,-2.349468699591739e-06,-6.4248160312058156e-06,2.293978160933935e-05,-3.1203883352759476e-06,-2.7614115988144894e-06,-2.8848648071289062e-05,-1.0219415028878132e-05,6.265815866947638e-05,-0.00025975838745364964,0.0006206566328143037,0.0001110828007405401,0.0001523048603778643,0.00020177118447465967,0.000367466782428252,0.4029781222343445,22.772058486938477,0.07375786453485489,-14.155611038208008,-0.1595969796180725,-2.1453890800476074,0.31711143255233765,0
27,0.1299910545349121,-0.3236324191093445,-22.720483779907227,-0.02615044265985489,14.207185745239258,0.1531882882118225,2.1453890800476074,-0.27591270208358765,0.0,0.0,0.0,0.0,0.0,0.0,0.0,-0.3457196915890432,0.03741556212264593,-0.12634983543553632,0.2899277593901367,-0.07357406496607381,-0.041042586719407095,-0.31978702426157785,1.6754962818706243,0.05210713236321483,0.02994322445596519,-2.7523938720788905,0.03424827747543653,2.7663968029552035,0.7691686951253148,1.6754973547542302,0.052104326824870026,0.029969505109285054,-2.752394845125968,0.0342448039870148,2.7663679543071322,0.7691630533470046,0.00039593763282836877,-0.0009106868172536835,-0.0006002655444076906,-0.0009863734207962982,0.00015331524406777316,-5.4384625472190805e-05,-0.0018107250187867617,0.0,0.0,0.0,0.0,0.0,0.0,0.0,1.0728836059570312e-06,-2.805538344800851e-06,2.628065331986354e-05,-9.73047077579281e-07,-3.4734884217305084e-06,-2.8848648071289062e-05,-5.641778310194745e-06,-0.00039593763282836877,0.0009106868172536835,0.0006002655444076906,0.0009863734207962982,-0.00015331524406777316,5.4384625472190805e-05,0.0018107250187867617,0.3236324191093445,22.720483779907227,0.02615044265985489,-14.207185745239258,-0.1531882882118225,-2.1453890800476074,0.27591270208358765,0
28,0.13503694534301758,-0.3236324191093445,-22.720483779907227,-0.02615044265985489,14.207185745239258,0.1531882882118225,2.1453890800476074,-0.27591270208358765,0.0,0.0,0.0,0.0,0.0,0.0,0.0,-0.3457196915890432,0.03741556212264593,-0.12634983543553632,0.2899277593901367,-0.07357406496607381,-0.041042586719407095,-0.31978702426157785,1.6754962818706243,0.05210713236321483,0.02994322445596519,-2.7523938720788905,0.03424827747543653,2.7663968029552035,0.7691686951253148,1.6754973547542302,0.052104326824870026,0.029969505109285054,-2.752394845125968,0.0342448039870148,2.7663679543071322,0.7691630533470046,0.00039593763282836877,-0.0009106868172536835,-0.0006002655444076906,-0.0009863734207962982,0.00015331524406777316,-5.4384625472190805e-05,-0.0018107250187867617,0.0,0.0,0.0,0.0,0.0,0.0,0.0,1.0728836059570312e-06,-2.805538344800851e-06,2.628065331986354e-05,-9.73047077579281e-07,-3.4734884217305084e-06,-2.8848648071289062e-05,-5.641778310194745e-06,-0.00039593763282836877,0.0009106868172536835,0.0006002655444076906,0.0009863734207962982,-0.00015331524406777316,5.4384625472190805e-05,0.0018107250187867617,0.3236324191093445,22.720483779907227,0.02615044265985489,-14.207185745239258,-0.1531882882118225,-2.1453890800476074,0.27591270208358765,0
29,0.13998651504516602,-0.2720577120780945,-22.772058486938477,0.001620553433895111,14.131807327270508,0.1476951241493225,2.1453890800476074,-0.28964561223983765,0.0,0.0,0.0,0.0,0.0,0.0,0.0,-0.31496302643115975,0.039044199598218164,-0.09993018880333376,0.2872348599041271,-0.07658111704001357,-0.04188012411279177,-0.3188342247145624,1.675490516837839,0.05211075164090123,0.02994127561413405,-2.7523882204922057,0.03424888782699903,2.7663968029552035,0.769170221004221,1.6754973547542302,0.052104326824870026,0.029969505109285054,-2.752394845125968,0.0342448039870148,2.7663679543071322,0.7691630533470046,-8.475993216609982e-05,4.460360622554368e-05,0.00027576150375587807,0.0008419052462005162,0.0004685910885895422,-2.5454375017925124e-05,-0.0012154894145260027,0.0,0.0,0.0,0.0,0.0,0.0,0.0,6.837916391333465e-06,-6.4248160312058156e-06,2.8229495151004674e-05,-6.624633762442045e-06,-4.083839984229953e-06,-2.8848648071289062e-05,-7.1676572164225405e-06,8.475993216609982e-05,-4.460360622554368e-05,-0.00027576150375587807,-0.0008419052462005162,-0.0004685910885895422,2.5454375017925124e-05,0.0012154894145260027,0.2720577120780945,22.772058486938477,-0.001620553433895111,-14.131807327270508,-0.1476951241493225,-2.1453890800476074,0.28964561223983765,0
30,0.1449887752532959,-0.2720577120780945,-22.772058486938477,0.001620553433895111,14.131807327270508,0.1476951241493225,2.1453890800476074,-0.28964561223983765,0.0,0.0,0.0,0.0,0.0,0.0,0.0,-0.31496302643115975,0.039044199598218164,-0.09993018880333376,0.2872348599041271,-0.07658111704001357,-0.04188012411279177,-0.3188342247145624,1.675490516837839,0.05211075164090123,0.02994127561413405,-2.7523882204922057,0.03424888782699903,2.7663968029552035,0.769170221004221,1.6754973547542302,0.052104326824870026,0.029969505109285054,-2.752394845125968,0.0342448039870148,2.7663679543071322,0.7691630533470046,-8.475993216609982e-05,4.460360622554368e-05,0.00027576150375587807,0.0008419052462005162,0.0004685910885895422,-2.5454375017925124e-05,-0.0012154894145260027,0.0,0.0,0.0,0.0,0.0,0.0,0.0,6.837916391333465e-06,-6.4248160312058156e-06,2.8229495151004674e-05,-6.624633762442045e-06,-4.083839984229953e-06,-2.8848648071289062e-05,-7.1676572164225405e-06,8.475993216609982e-05,-4.460360622554368e-05,-0.00027576150375587807,-0.0008419052462005162,-0.0004685910885895422,2.5454375017925124e-05,0.0012154894145260027,0.2720577120780945,22.772058486938477,-0.001620553433895111,-14.131807327270508,-0.1476951241493225,-2.1453890800476074,0.28964561223983765,0
31,0.14998698234558105,-0.2720577120780945,-22.772058486938477,0.001620553433895111,14.131807327270508,0.1476951241493225,2.1453890800476074,-0.28964561223983765,0.0,0.0,0.0,0.0,0.0,0.0,0.0,-0.31496302643115975,0.039044199598218164,-0.09993018880333376,0.2872348599041271,-0.07658111704001357,-0.04188012411279177,-0.3188342247145624,1.675490516837839,0.05211075164090123,0.02994127561413405,-2.7523882204922057,0.03424888782699903,2.7663968029552035,0.769170221004221,1.6754973547542302,0.052104326824870026,0.029969505109285054,-2.752394845125968,0.0342448039870148,2.7663679543071322,0.7691630533470046,-8.475993216609982e-05,4.460360622554368e-05,0.00027576150375587807,0.0008419052462005162,0.0004685910885895422,-2.5454375017925124e-05,-0.0012154894145260027,0.0,0.0,0.0,0.0,0.0,0.0,0.0,6.837916391333465e-06,-6.4248160312058156e-06,2.8229495151004674e-05,-6.624633762442045e-06,-4.083839984229953e-06,-2.8848648071289062e-05,-7.1676572164225405e-06,8.475993216609982e-05,-4.460360622554368e-05,-0.00027576150375587807,-0.0008419052462005162,-0.0004685910885895422,2.5454375017925124e-05,0.0012154894145260027,0.2720577120780945,22.772058486938477,-0.001620553433895111,-14.131807327270508,-0.1476951241493225,-2.1453890800476074,0.28964561223983765,0
32,0.15499186515808105,-0.2720577120780945,-22.748254776000977,0.02542426437139511,14.207185745239258,0.1531882882118225,2.1389803886413574,-0.30978721380233765,0.0,0.0,0.0,0.0,0.0,0.0,0.0,-0.3101708840735423,0.04011470377827128,-0.09753198485458084,0.28863572108919305,-0.07588756304682669,-0.04260177550738099,-0.31723225714592285,1.675490516825726,0.05210979149372954,0.029939605142213412,-2.752393408094491,0.03424827747543653,2.7663975150320264,0.7691724589599502,1.6754973547542302,0.052104326824870026,0.029969505109285054,-2.752394845125968,0.0342448039870148,2.7663679543071322,0.7691630533470046,0.00011100890592831012,2.383992544916571e-05,-2.5544087629453506e-05,-0.0013378263228050475,4.5775123775817335e-05,0.00015641753153139743,-0.00015015800490206867,0.0,0.0,0.0,0.0,0.0,0.0,0.0,6.837928504310753e-06,-5.464668859513078e-06,2.9899967071641415e-05,-1.437031476925199e-06,-3.4734884217305084e-06,-2.9560724894128754e-05,-9.40561294560105e-06,-0.00011100890592831012,-2.383992544916571e-05,2.5544087629453506e-05,0.0013378263228050475,-4.5775123775817335e-05,-0.00015641753153139743,0.00015015800490206867,0.2720577120780945,22.748254776000977,-0.02542426437139511,-14.207185745239258,-0.1531882882118225,-2.1389803886413574,0.30978721380233765,0
33,0.15999960899353027,-0.2720577120780945,-22.748254776000977,0.02542426437139511,14.207185745239258,0.1531882882118225,2.1389803886413574,-0.30978721380233765,0.0,0.0,0.0,0.0,0.0,0.0,0.0,-0.3101708840735423,0.04011470377827128,-0.09753198485458084,0.28863572108919305,-0.07588756304682669,-0.04260177550738099,-0.31723225714592285,1.675490516825726,0.05210979149372954,0.029939605142213412,-2.752393408094491,0.03424827747543653,2.7663975150320264,0.7691724589599502,1.6754973547542302,0.052104326824870026,0.029969505109285054,-2.752394845125968,0.0342448039870148,2.7663679543071322,0.7691630533470046,0.00011100890592831012,2.383992544916571e-05,-2.5544087629453506e-05,-0.0013378263228050475,4.5775123775817335e-05,0.00015641753153139743,-0.00015015800490206867,0.0,0.0,0.0,0.0,0.0,0.0,0.0,6.837928504310753e-06,-5.464668859513078e-06,2.9899967071641415e-05,-1.437031476925199e-06,-3.4734884217305084e-06,-2.9560724894128754e-05,-9.40561294560105e-06,-0.00011100890592831012,-2.383992544916571e-05,2.5544087629453506e-05,0.0013378263228050475,-4.5775123775817335e-05,-0.00015641753153139743,0.00015015800490206867,0.2720577120780945,22.748254776000977,-0.02542426437139511,-14.207185745239258,-0.1531882882118225,-2.1389803886413574,0.30978721380233765,0
34,0.16499710083007812,-0.2998287081718445,-22.748254776000977,0.04922797530889511,14.108003616333008,0.1595969796180725,2.1453890800476074,-0.33084434270858765,0.0,0.0,0.0,0.0,0.0,0.0,0.0,-0.2996159163230613,0.0376959458238061,-0.09032374190022154,0.2915909998239721,-0.07608204105261551,-0.042712971171001486,-0.3152930342272159,1.6754924656675572,0.052109081209055566,0.02993793474242332,-2.7523862514245248,0.034247565398613615,2.7663968029552035,0.7691747986409398,1.6754973547542302,0.052104326824870026,0.029969505109285054,-2.752394845125968,0.0342448039870148,2.7663679543071322,0.7691630533470046,0.0013870106018352114,-0.00017326783582529345,-0.0006229011435870894,0.0011339585398355385,5.8810757782867476e-05,-9.31609562321285e-05,0.00033146626015089246,0.0,0.0,0.0,0.0,0.0,0.0,0.0,4.889086673065535e-06,-4.754384185540195e-06,3.157036686173356e-05,-8.593701443349033e-06,-2.7614115988144894e-06,-2.8848648071289062e-05,-1.174529393521695e-05,-0.0013870106018352114,0.00017326783582529345,0.0006229011435870894,-0.0011339585398355385,-5.8810757782867476e-05,9.31609562321285e-05,-0.00033146626015089246,0.2998287081718445,22.748254776000977,-0.04922797530889511,-14.108003616333008,-0.1595969796180725,-2.1453890800476074,0.33084434270858765,0
35,0.17001843452453613,-0.2998287081718445,-22.748254776000977,0.04922797530889511,14.108003616333008,0.1595969796180725,2.1453890800476074,-0.33084434270858765,0.0,0.0,0.0,0.0,0.0,0.0,0.0,-0.2996159163230613,0.0376959458238061,-0.09032374190022154,0.2915909998239721,-0.07608204105261551,-0.042712971171001486,-0.3152930342272159,1.6754924656675572,0.052109081209055566,0.02993793474242332,-2.7523862514245248,0.034247565398613615,2.7663968029552035,0.7691747986409398,1.6754973547542302,0.052104326824870026,0.029969505109285054,-2.752394845125968,0.0342448039870148,2.7663679543071322,0.7691630533470046,0.0013870106018352114,-0.00017326783582529345,-0.0006229011435870894,0.0011339585398355385,5.8810757782867476e-05,-9.31609562321285e-05,0.00033146626015089246,0.0,0.0,0.0,0.0,0.0,0.0,0.0,4.889086673065535e-06,-4.754384185540195e-06,3.157036686173356e-05,-8.593701443349033e-06,-2.7614115988144894e-06,-2.8848648071289062e-05,-1.174529393521695e-05,-0.0013870106018352114,0.00017326783582529345,0.0006229011435870894,-0.0011339585398355385,-5.8810757782867476e-05,9.31609562321285e-05,-0.00033146626015089246,0.2998287081718445,22.748254776000977,-0.04922797530889511,-14.108003616333008,-0.1595969796180725,-2.1453890800476074,0.33084434270858765,0
36,0.17500901222229004,-0.22445029020309448,-22.748254776000977,0.04922797530889511,14.155611038208008,0.1650901436805725,2.1325716972351074,-0.35831016302108765,0.0,0.0,0.0,0.0,0.0,0.0,0.0,-0.2856986303730722,0.04078175671040977,-0.07997019088608387,0.2910487130559331,-0.07614726019740876,-0.0427471740006883,-0.31584498405964545,1.6754871759540153,0.05210908120504599,0.0299379346342274,-2.7523904992754864,0.03424695504705111,2.7663982271088496,0.769178203611462,1.6754973547542302,0.052104326824870026,0.029969505109285054,-2.752394845125968,0.0342448039870148,2.7663679543071322,0.7691630533470046,-0.00020053114533511395,-4.639798886997329e-05,-0.00020729874279976833,0.0001814008467457239,-0.0002454712490005844,0.0004905557207589315,0.0018133974887073396,0.0,0.0,0.0,0.0,0.0,0.0,0.0,1.017880021492168e-05,-4.754380175962802e-06,3.1570475057654535e-05,-4.345850481701774e-06,-2.1510600363081056e-06,-3.0272801717412534e-05,-1.5150264457419738e-05,0.00020053114533511395,4.639798886997329e-05,0.00020729874279976833,-0.0001814008467457239,0.0002454712490005844,-0.0004905557207589315,-0.0018133974887073396,0.22445029020309448,22.748254776000977,-0.04922797530889511,-14.155611038208008,-0.1650901436805725,-2.1325716972351074,0.35831016302108765,0
37,0.1800069808959961,-0.22445029020309448,-22.748254776000977,0.04922797530889511,14.155611038208008,0.1650901436805725,2.1325716972351074,-0.35831016302108765,0.0,0.0,0.0,0.0,0.0,0.0,0.0,-0.2856986303730722,0.04078175671040977,-0.07997019088608387,0.2910487130559331,-0.07614726019740876,-0.0427471740006883,-0.31584498405964545,1.6754871759540153,0.05210908120504599,0.0299379346342274,-2.7523904992754864,0.03424695504705111,2.7663982271088496,0.769178203611462,1.6754973547542302,0.052104326824870026,0.029969505109285054,-2.752394845125968,0.0342448039870148,2.7663679543071322,0.7691630533470046,-0.00020053114533511395,-4.639798886997329e-05,-0.00020729874279976833,0.0001814008467457239,-0.0002454712490005844,0.0004905557207589315,0.0018133974887073396,0.0,0.0,0.0,0.0,0.0,0.0,0.0,1.017880021492168e-05,-4.754380175962802e-06,3.1570475057654535e-05,-4.345850481701774e-06,-2.1510600363081056e-06,-3.0272801717412534e-05,-1.5150264457419738e-05,0.00020053114533511395,4.639798886997329e-05,0.00020729874279976833,-0.0001814008467457239,0.0002454712490005844,-0.0004905557207589315,-0.0018133974887073396,0.22445029020309448,22.748254776000977,-0.04922797530889511,-14.155611038208008,-0.1650901436805725,-2.1325716972351074,0.35831016302108765,0
38,0.18503379821777344,-0.2998287081718445,-22.772058486938477,0.02542426437139511,14.155611038208008,0.1531882882118225,2.1389803886413574,-0.35098594427108765,0.0,0.0,0.0,0.0,0.0,0.0,0.0,-0.27736706130688976,0.036140269083491196,-0.0743993065134288,0.2929690551100666,-0.07541988428834416,-0.04203412612235557,-0.3168526182202796,1.6754924656675572,0.05211075164090123,0.029937475553990886,-2.752392628912065,0.03424827752952408,2.7663975150320264,0.7691770365986629,1.6754973547542302,0.052104326824870026,0.029969505109285054,-2.752394845125968,0.0342448039870148,2.7663679543071322,0.7691630533470046,0.0012931896030514928,0.0001324500769731952,0.0005007228868245686,7.502616380034943e-05,-2.2401176931182546e-05,0.0002765504979413856,0.001265953121021123,0.0,0.0,0.0,0.0,0.0,0.0,0.0,4.889086673065535e-06,-6.4248160312058156e-06,3.202955529416768e-05,-2.2162139030612593e-06,-3.4735425092774497e-06,-2.9560724894128754e-05,-1.3983251658244988e-05,-0.0012931896030514928,-0.0001324500769731952,-0.0005007228868245686,-7.502616380034943e-05,2.2401176931182546e-05,-0.0002765504979413856,-0.001265953121021123,0.2998287081718445,22.772058486938477,-0.02542426437139511,-14.155611038208008,-0.1531882882118225,-2.1389803886413574,0.35098594427108765,0
39,0.19001030921936035,-0.2998287081718445,-22.772058486938477,0.02542426437139511,14.155611038208008,0.1531882882118225,2.1389803886413574,-0.35098594427108765,0.0,0.0,0.0,0.0,0.0,0.0,0.0,-0.27736706130688976,0.036140269083491196,-0.0743993065134288,0.2929690551100666,-0.07541988428834416,-0.04203412612235557,-0.3168526182202796,1.6754924656675572,0.05211075164090123,0.029937475553990886,-2.752392628912065,0.03424827752952408,2.7663975150320264,0.7691770365986629,1.6754973547542302,0.052104326824870026,0.029969505109285054,-2.752394845125968,0.0342448039870148,2.7663679543071322,0.7691630533470046,0.0012931896030514928,0.0001324500769731952,0.0005007228868245686,7.502616380034943e-05,-2.2401176931182546e-05,0.0002765504979413856,0.001265953121021123,0.0,0.0,0.0,0.0,0.0,0.0,0.0,4.889086673065535e-06,-6.4248160312058156e-06,3.202955529416768e-05,-2.2162139030612593e-06,-3.4735425092774497e-06,-2.9560724894128754e-05,-1.3983251658244988e-05,-0.0012931896030514928,-0.0001324500769731952,-0.0005007228868245686,-7.502616380034943e-05,2.2401176931182546e-05,-0.0002765504979413856,-0.001265953121021123,0.2998287081718445,22.772058486938477,-0.02542426437139511,-14.155611038208008,-0.1531882882118225,-2.1389803886413574,0.35098594427108765,0
40,0.19500112533569336,-0.3514034152030945,-22.772058486938477,0.001620553433895111,14.155611038208008,0.1595969796180725,2.1453890800476074,-0.35098594427108765,0.0,0.0,0.0,0.0,0.0,0.0,0.0,-0.27652322833110204,0.03566784106523222,-0.07364070948956208,0.293475687619755,-0.07531975415364049,-0.04197527038307771,-0.3183413275908594,1.6754960849452434,0.05211075164090123,0.029939137213939013,-2.752389819975921,0.03424756539861392,2.7663968029552035,0.769177036596669,1.6754973547542302,0.052104326824870026,0.029969505109285054,-2.752394845125968,0.0342448039870148,2.7663679543071322,0.7691630533470046,0.001771807704458238,0.00016033615018108097,9.75960301843035e-05,0.00023249752991666423,-0.0002147837596547104,3.211890780351558e-05,0.0014744509362997094,0.0,0.0,0.0,0.0,0.0,0.0,0.0,1.26980898684792e-06,-6.4248160312058156e-06,3.0367895346040258e-05,-5.025150047188731e-06,-2.7614115991198007e-06,-2.8848648071289062e-05,-1.3983249664395458e-05,-0.001771807704458238,-0.00016033615018108097,-9.75960301843035e-05,-0.00023249752991666423,0.0002147837596547104,-3.211890780351558e-05,-0.0014744509362997094,0.3514034152030945,22.772058486938477,-0.001620553433895111,-14.155611038208008,-0.1595969796180725,-2.1453890800476074,0.35098594427108765,0
41,0.20000314712524414,-0.3514034152030945,-22.772058486938477,0.001620553433895111,14.155611038208008,0.1595969796180725,2.1453890800476074,-0.35098594427108765,0.0,0.0,0.0,0.0,0.0,0.0,0.0,-0.27652322833110204,0.03566784106523222,-0.07364070948956208,0.293475687619755,-0.07531975415364049,-0.04197527038307771,-0.3183413275908594,1.6754960849452434,0.05211075164090123,0.029939137213939013,-2.752389819975921,0.03424756539861392,2.7663968029552035,0.769177036596669,1.6754973547542302,0.052104326824870026,0.029969505109285054,-2.752394845125968,0.0342448039870148,2.7663679543071322,0.7691630533470046,0.001771807704458238,0.00016033615018108097,9.75960301843035e-05,0.00023249752991666423,-0.0002147837596547104,3.211890780351558e-05,0.0014744509362997094,0.0,0.0,0.0,0.0,0.0,0.0,0.0,1.26980898684792e-06,-6.4248160312058156e-06,3.0367895346040258e-05,-5.025150047188731e-06,-2.7614115991198007e-06,-2.8848648071289062e-05,-1.3983249664395458e-05,-0.001771807704458238,-0.00016033615018108097,-9.75960301843035e-05,-0.00023249752991666423,0.0002147837596547104,-3.211890780351558e-05,-0.0014744509362997094,0.3514034152030945,22.772058486938477,-0.001620553433895111,-14.155611038208008,-0.1595969796180725,-2.1453890800476074,0.35098594427108765,0
42,0.20503616333007812,-0.3514034152030945,-22.720483779907227,-0.09756157547235489,14.131807327270508,0.1595969796180725,2.1389803886413574,-0.31711143255233765,0.0,0.0,0.0,0.0,0.0,0.0,0.0,-0.29227561339279023,0.03989165115495253,-0.0871620806045305,0.28861122370842446,-0.07486841766457211,-0.04264638789875115,-0.3185078846793611,1.6754960849452434,0.05210713236321483,0.029948235751459648,-2.7523899522522175,0.034247565398613615,2.7663975150320264,0.7691732727620335,1.6754973547542302,0.052104326824870026,0.029969505109285054,-2.752394845125968,0.0342448039870148,2.7663679543071322,0.7691630533470046,-0.0006961434847921278,-0.0007458538967173398,0.0005183042601660138,0.00012857386017845336,-0.00012557879847364248,0.00043002843384927925,0.0001990797451783226,0.0,0.0,0.0,0.0,0.0,0.0,0.0,1.26980898684792e-06,-2.805538344800851e-06,2.1269357825405566e-05,-4.892873750605986e-06,-2.7614115988144894e-06,-2.9560724894128754e-05,-1.0219415028878132e-05,0.0006961434847921278,0.0007458538967173398,-0.0005183042601660138,-0.00012857386017845336,0.00012557879847364248,-0.00043002843384927925,-0.0001990797451783226,0.3514034152030945,22.720483779907227,0.09756157547235489,-14.131807327270508,-0.1595969796180725,-2.1389803886413574,0.31711143255233765,0
43,0.2100083827972412,-0.3514034152030945,-22.720483779907227,-0.09756157547235489,14.131807327270508,0.1595969796180725,2.1389803886413574,-0.31711143255233765,0.0,0.0,0.0,0.0,0.0,0.0,0.0,-0.29227561339279023,0.03989165115495253,-0.0871620806045305,0.28861122370842446,-0.07486841766457211,-0.04264638789875115,-0.3185078846793611,1.6754960849452434,0.05210713236321483,0.029948235751459648,-2.7523899522522175,0.034247565398613615,2.7663975150320264,0.7691732727620335,1.6754973547542302,0.052104326824870026,0.029969505109285054,-2.752394845125968,0.0342448039870148,2.7663679543071322,0.7691630533470046,-0.0006961434847921278,-0.0007458538967173398,0.0005183042601660138,0.00012857386017845336,-0.00012557879847364248,0.00043002843384927925,0.0001990797451783226,0.0,0.0,0.0,0.0,0.0,0.0,0.0,1.26980898684792e-06,-2.805538344800851e-06,2.1269357825405566e-05,-4.892873750605986e-06,-2.7614115988144894e-06,-2.9560724894128754e-05,-1.0219415028878132e-05,0.0006961434847921278,0.0007458538967173398,-0.0005183042601660138,-0.00012857386017845336,0.00012557879847364248,-0.00043002843384927925,-0.0001990797451783226,0.3514034152030945,22.720483779907227,0.09756157547235489,-14.131807327270508,-0.1595969796180725,-2.1389803886413574,0.31711143255233765,0
44,0.21503543853759766,-0.4029781222343445,-22.748254776000977,-0.09756157547235489,14.155611038208008,0.1531882882118225,2.1389803886413574,-0.33725303411483765,0.0,0.0,0.0,0.0,0.0,0.0,0.0,-0.30746609084191356,0.035485977245287,-0.10129470932656769,0.29408229781420625,-0.07466546898848611,-0.04124284872442874,-0.317134949791768,1.6754997042229298,0.05210908120504597,0.029948235763530912,-2.752389633353231,0.03424827747543653,2.7663975150320264,0.7691755107177627,1.6754973547542302,0.052104326824870026,0.029969505109285054,-2.752394845125968,0.0342448039870148,2.7663679543071322,0.7691630533470046,-0.0002978529910627749,-0.0001374885557108132,-0.00010744035313297025,-9.354566142072193e-05,-0.0006879916461968345,0.000436288807647347,0.001318242163386024,0.0,0.0,0.0,0.0,0.0,0.0,0.0,-2.349468699591739e-06,-4.754380175941986e-06,2.126934575414144e-05,-5.211772736934961e-06,-3.4734884217305084e-06,-2.9560724894128754e-05,-1.245737075805664e-05,0.0002978529910627749,0.0001374885557108132,0.00010744035313297025,9.354566142072193e-05,0.0006879916461968345,-0.000436288807647347,-0.001318242163386024,0.4029781222343445,22.748254776000977,0.09756157547235489,-14.155611038208008,-0.1531882882118225,-2.1389803886413574,0.33725303411483765,0
45,0.22000741958618164,-0.4029781222343445,-22.748254776000977,-0.09756157547235489,14.155611038208008,0.1531882882118225,2.1389803886413574,-0.33725303411483765,0.0,0.0,0.0,0.0,0.0,0.0,0.0,-0.30746609084191356,0.035485977245287,-0.10129470932656769,0.29408229781420625,-0.07466546898848611,-0.04124284872442874,-0.317134949791768,1.6754997042229298,0.05210908120504597,0.029948235763530912,-2.752389633353231,0.03424827747543653,2.7663975150320264,0.7691755107177627,1.6754973547542302,0.052104326824870026,0.029969505109285054,-2.752394845125968,0.0342448039870148,2.7663679543071322,0.7691630533470046,-0.0002978529910627749,-0.0001374885557108132,-0.00010744035313297025,-9.354566142072193e-05,-0.0006879916461968345,0.000436288807647347,0.001318242163386024,0.0,0.0,0.0,0.0,0.0,0.0,0.0,-2.349468699591739e-06,-4.754380175941986e-06,2.126934575414144e-05,-5.211772736934961e-06,-3.4734884217305084e-06,-2.9560724894128754e-05,-1.245737075805664e-05,0.0002978529910627749,0.0001374885557108132,0.00010744035313297025,9.354566142072193e-05,0.0006879916461968345,-0.000436288807647347,-0.001318242163386024,0.4029781222343445,22.748254776000977,0.09756157547235489,-14.155611038208008,-0.1531882882118225,-2.1389803886413574,0.33725303411483765,0
46,0.22498798370361328,-0.3514034152030945,-22.772058486938477,-0.07375786453485489,14.131807327270508,0.1531882882118225,2.1517977714538574,-0.32352012395858765,0.0,0.0,0.0,0.0,0.0,0.0,0.0,-0.3142239052693071,0.03671252109170246,-0.10364302226717208,0.291684660470558,-0.07657995183164408,-0.04061038443899456,-0.31607837903072844,1.6754960849452434,0.05211075164090123,0.029946565327675714,-2.7523902945514798,0.03424827747543653,2.7663960777964283,0.7691739848388565,1.6754973547542302,0.052104326824870026,0.029969505109285054,-2.752394845125968,0.0342448039870148,2.7663679543071322,0.7691630533470046,-0.0004082587579361188,0.00034441298060410453,0.0001413248988270045,0.0008819306725147079,0.00020579467950858447,-0.00032294704942588116,0.0002633242841020334,0.0,0.0,0.0,0.0,0.0,0.0,0.0,1.26980898684792e-06,-6.4248160312058156e-06,2.293978160933935e-05,-4.550574488337844e-06,-3.4734884217305084e-06,-2.812348929603914e-05,-1.0931491851828845e-05,0.0004082587579361188,-0.00034441298060410453,-0.0001413248988270045,-0.0008819306725147079,-0.00020579467950858447,0.00032294704942588116,-0.0002633242841020334,0.3514034152030945,22.772058486938477,0.07375786453485489,-14.131807327270508,-0.1531882882118225,-2.1517977714538574,0.32352012395858765,0
47,0.22998738288879395,-0.3514034152030945,-22.772058486938477,-0.07375786453485489,14.131807327270508,0.1531882882118225,2.1517977714538574,-0.32352012395858765,0.0,0.0,0.0,0.0,0.0,0.0,0.0,-0.3142239052693071,0.03671252109170246,-0.10364302226717208,0.291684660470558,-0.07657995183164408,-0.04061038443899456,-0.31607837903072844,1.6754960849452434,0.05211075164090123,0.029946565327675714,-2.7523902945514798,0.03424827747543653,2.7663960777964283,0.7691739848388565,1.6754973547542302,0.052104326824870026,0.029969505109285054,-2.752394845125968,0.0342448039870148,2.7663679543071322,0.7691630533470046,-0.0004082587579361188,0.00034441298060410453,0.0001413248988270045,0.0008819306725147079,0.00020579467950858447,-0.00032294704942588116,0.0002633242841020334,0.0,0.0,0.0,0.0,0.0,0.0,0.0,1.26980898684792e-06,-6.4248160312058156e-06,2.293978160933935e-05,-4.550574488337844e-06,-3.4734884217305084e-06,-2.812348929603914e-05,-1.0931491851828845e-05,0.0004082587579361188,-0.00034441298060410453,-0.0001413248988270045,-0.0008819306725147079,-0.00020579467950858447,0.00032294704942588116,-0.0002633242841020334,0.3514034152030945,22.772058486938477,0.07375786453485489,-14.131807327270508,-0.1531882882118225,-2.1517977714538574,0.32352012395858765,0
48,0.2349867820739746,-0.22445029020309448,-22.772058486938477,0.02542426437139511,14.207185745239258,0.1650901436805725,2.1389803886413574,-0.31711143255233765,0.0,0.0,0.0,0.0,0.0,0.0,0.0,-0.30964045579147353,0.036025624420580146,-0.09954385646553202,0.289469576132478,-0.07761639216614923,-0.040700548649373315,-0.31658712963198044,1.6754871759540153,0.05211075164090123,0.029939605178278785,-2.7523952410330597,0.03424695504705111,2.766397515031952,0.7691732727620335,1.6754973547542302,0.052104326824870026,0.029969505109285054,-2.752394845125968,0.0342448039870148,2.7663679543071322,0.7691630533470046,-0.000861121544882226,-2.674635108736627e-05,-0.0001483071524877178,-0.0011577191488099483,-0.00026389751062149287,0.00022585412572588467,-0.0001889897168898022,0.0,0.0,0.0,0.0,0.0,0.0,0.0,1.017880021492168e-05,-6.4248160312058156e-06,2.9899931006268504e-05,3.9590709155490345e-07,-2.1510600363081056e-06,-2.9560724819965856e-05,-1.0219415028878132e-05,0.000861121544882226,2.674635108736627e-05,0.0001483071524877178,0.0011577191488099483,0.00026389751062149287,-0.00022585412572588467,0.0001889897168898022,0.22445029020309448,22.772058486938477,-0.02542426437139511,-14.207185745239258,-0.1650901436805725,-2.1389803886413574,0.31711143255233765,0
49,0.23998570442199707,-0.22445029020309448,-22.772058486938477,0.02542426437139511,14.207185745239258,0.1650901436805725,2.1389803886413574,-0.31711143255233765,0.0,0.0,0.0,0.0,0.0,0.0,0.0,-0.30964045579147353,0.036025624420580146,-0.09954385646553202,0.289469576132478,-0.07761639216614923,-0.040700548649373315,-0.31658712963198044,1.6754871759540153,0.05211075164090123,0.029939605178278785,-2.7523952410330597,0.03424695504705111,2.766397515031952,0.7691732727620335,1.6754973547542302,0.052104326824870026,0.029969505109285054,-2.752394845125968,0.0342448039870148,2.7663679543071322,0.7691630533470046,-0.000861121544882226,-2.674635108736627e-05,-0.0001483071524877178,-0.0011577191488099483,-0.00026389751062149287,0.00022585412572588467,-0.0001889897168898022,0.0,0.0,0.0,0.0,0.0,0.0,0.0,1.017880021492168e-05,-6.4248160312058156e-06,2.9899931006268504e-05,3.9590709155490345e-07,-2.1510600363081056e-06,-2.9560724819965856e-05,-1.0219415028878132e-05,0.000861121544882226,2.674635108736627e-05,0.0001483071524877178,0.0011577191488099483,0.00026389751062149287,-0.00022585412572588467,0.0001889897168898022,0.22445029020309448,22.772058486938477,-0.02542426437139511,-14.207185745239258,-0.1650901436805725,-2.1389803886413574,0.31711143255233765,0
50,0.2449953556060791,-0.17287558317184448,-22.748254776000977,0.10080268234014511,14.207185745239258,0.1531882882118225,2.1517977714538574,-0.28232139348983765,0.0,0.0,0.0,0.0,0.0,0.0,0.0,-0.2990414035884082,0.03079185842316068,-0.09442798652897509,0.2925733052653664,-0.07611365483872343,-0.04064854186813113,-0.3181551490279426,1.675483556676329,0.05210908120504597,0.02993431546473712,-2.7523939004540314,0.03424827747543653,2.7663960908783802,0.7691690495742691,1.6754973547542302,0.052104326824870026,0.029969505109285054,-2.752394845125968,0.0342448039870148,2.7663679543071322,0.7691630533470046,-0.00033294327677208294,-0.0010451909023411457,-0.0008010620856183006,-0.0010743892471974511,0.00030510521642600777,-0.000321131071886054,-0.0012636282169615411,0.0,0.0,0.0,0.0,0.0,0.0,0.0,1.3798077901139294e-05,-4.754380175941986e-06,3.518964454793383e-05,-9.446719366756895e-07,-3.4734884217305084e-06,-2.8136571248005282e-05,-5.996227264493115e-06,0.00033294327677208294,0.0010451909023411457,0.0008010620856183006,0.0010743892471974511,-0.00030510521642600777,0.000321131071886054,0.0012636282169615411,0.17287558317184448,22.748254776000977,-0.10080268234014511,-14.207185745239258,-0.1531882882118225,-2.1517977714538574,0.28232139348983765,0
51,0.2500128746032715,-0.17287558317184448,-22.748254776000977,0.10080268234014511,14.207185745239258,0.1531882882118225,2.1517977714538574,-0.28232139348983765,0.0,0.0,0.0,0.0,0.0,0.0,0.0,-0.2990414035884082,0.03079185842316068,-0.09442798652897509,0.2925733052653664,-0.07611365483872343,-0.04064854186813113,-0.3181551490279426,1.675483556676329,0.05210908120504597,0.02993431546473712,-2.7523939004540314,0.03424827747543653,2.7663960908783802,0.7691690495742691,1.6754973547542302,0.052104326824870026,0.029969505109285054,-2.752394845125968,0.0342448039870148,2.7663679543071322,0.7691630533470046,-0.00033294327677208294,-0.0010451909023411457,-0.0008010620856183006,-0.0010743892471974511,0.00030510521642600777,-0.000321131071886054,-0.0012636282169615411,0.0,0.0,0.0,0.0,0.0,0.0,0.0,1.3798077901139294e-05,-4.754380175941986e-06,3.518964454793383e-05,-9.446719366756895e-07,-3.4734884217305084e-06,-2.8136571248005282e-05,-5.996227264493115e-06,0.00033294327677208294,0.0010451909023411457,0.0008010620856183006,0.0010743892471974511,-0.00030510521642600777,0.000321131071886054,0.0012636282169615411,0.17287558317184448,22.748254776000977,-0.10080268234014511,-14.207185745239258,-0.1531882882118225,-2.1517977714538574,0.28232139348983765,0
52,0.25498437881469727,-0.17287558317184448,-22.748254776000977,0.10080268234014511,14.207185745239258,0.1531882882118225,2.1517977714538574,-0.28232139348983765,0.0,0.0,0.0,0.0,0.0,0.0,0.0,-0.2990414035884082,0.03079185842316068,-0.09442798652897509,0.2925733052653664,-0.07611365483872343,-0.04064854186813113,-0.3181551490279426,1.675483556676329,0.05210908120504597,0.02993431546473712,-2.7523939004540314,0.03424827747543653,2.7663960908783802,0.7691690495742691,1.6754973547542302,0.052104326824870026,0.029969505109285054,-2.752394845125968,0.0342448039870148,2.7663679543071322,0.7691630533470046,-0.00033294327677208294,-0.0010451909023411457,-0.0008010620856183006,-0.0010743892471974511,0.00030510521642600777,-0.000321131071886054,-0.0012636282169615411,0.0,0.0,0.0,0.0,0.0,0.0,0.0,1.3798077901139294e-05,-4.754380175941986e-06,3.518964454793383e-05,-9.446719366756895e-07,-3.4734884217305084e-06,-2.8136571248005282e-05,-5.996227264493115e-06,0.00033294327677208294,0.0010451909023411457,0.0008010620856183006,0.0010743892471974511,-0.00030510521642600777,0.000321131071886054,0.0012636282169615411,0.17287558317184448,22.748254776000977,-0.10080268234014511,-14.207185745239258,-0.1531882882118225,-2.1517977714538574,0.28232139348983765,0
53,0.2599825859069824,-0.17287558317184448,-22.748254776000977,0.10080268234014511,14.207185745239258,0.1531882882118225,2.1517977714538574,-0.28232139348983765,0.0,0.0,0.0,0.0,0.0,0.0,0.0,-0.2990414035884082,0.03079185842316068,-0.09442798652897509,0.2925733052653664,-0.07611365483872343,-0.04064854186813113,-0.3181551490279426,1.675483556676329,0.05210908120504597,0.02993431546473712,-2.7523939004540314,0.03424827747543653,2.7663960908783802,0.7691690495742691,1.6754973547542302,0.052104326824870026,0.029969505109285054,-2.752394845125968,0.0342448039870148,2.7663679543071322,0.7691630533470046,-0.00033294327677208294,-0.0010451909023411457,-0.0008010620856183006,-0.0010743892471974511,0.00030510521642600777,-0.000321131071886054,-0.0012636282169615411,0.0,0.0,0.0,0.0,0.0,0.0,0.0,1.3798077901139294e-05,-4.754380175941986e-06,3.518964454793383e-05,-9.446719366756895e-07,-3.4734884217305084e-06,-2.8136571248005282e-05,-5.996227264493115e-06,0.00033294327677208294,0.0010451909023411457,0.0008010620856183006,0.0010743892471974511,-0.00030510521642600777,0.000321131071886054,0.0012636282169615411,0.17287558317184448,22.748254776000977,-0.10080268234014511,-14.207185745239258,-0.1531882882118225,-2.1517977714538574,0.28232139348983765,0
54,0.26500391960144043,-0.22445029020309448,-22.748254776000977,0.07303168624639511,14.179414749145508,0.1595969796180725,2.1517977714538574,-0.29605430364608765,0.0,0.0,0.0,0.0,0.0,0.0,0.0,-0.28922836644036404,0.03929133890003515,-0.0899020033964762,0.28820381143854973,-0.07385390469256733,-0.04177039070514603,-0.31839269781079005,1.6754871759540153,0.05210908120504597,0.029935545667919877,-2.7523913027317275,0.034247565398613615,2.7663960908783802,0.7691709330790252,1.6754973547542302,0.052104326824870026,0.029969505109285054,-2.752394845125968,0.0342448039870148,2.7663679543071322,0.7691630533470046,0.00046259364803067786,-8.587055685633335e-05,-2.3433872669629238e-05,-0.0002597924310393659,-0.0002982350428732929,-0.00023849893921411156,-0.0007194278083803267,0.0,0.0,0.0,0.0,0.0,0.0,0.0,1.017880021492168e-05,-4.754380175941986e-06,3.395944136517712e-05,-3.542394240607649e-06,-2.7614115988144894e-06,-2.8136571248005282e-05,-7.879732020543706e-06,-0.00046259364803067786,8.587055685633335e-05,2.3433872669629238e-05,0.0002597924310393659,0.0002982350428732929,0.00023849893921411156,0.0007194278083803267,0.22445029020309448,22.748254776000977,-0.07303168624639511,-14.179414749145508,-0.1595969796180725,-2.1517977714538574,0.29605430364608765,0
55,0.2700049877166748,-0.22445029020309448,-22.748254776000977,0.07303168624639511,14.179414749145508,0.1595969796180725,2.1517977714538574,-0.29605430364608765,0.0,0.0,0.0,0.0,0.0,0.0,0.0,-0.28922836644036404,0.03929133890003515,-0.0899020033964762,0.28820381143854973,-0.07385390469256733,-0.04177039070514603,-0.31839269781079005,1.6754871759540153,0.05210908120504597,0.029935545667919877,-2.7523913027317275,0.034247565398613615,2.7663960908783802,0.7691709330790252,1.6754973547542302,0.052104326824870026,0.029969505109285054,-2.752394845125968,0.0342448039870148,2.7663679543071322,0.7691630533470046,0.00046259364803067786,-8.587055685633335e-05,-2.3433872669629238e-05,-0.0002597924310393659,-0.0002982350428732929,-0.00023849893921411156,-0.0007194278083803267,0.0,0.0,0.0,0.0,0.0,0.0,0.0,1.017880021492168e-05,-4.754380175941986e-06,3.395944136517712e-05,-3.542394240607649e-06,-2.7614115988144894e-06,-2.8136571248005282e-05,-7.879732020543706e-06,-0.00046259364803067786,8.587055685633335e-05,2.3433872669629238e-05,0.0002597924310393659,0.0002982350428732929,0.00023849893921411156,0.0007194278083803267,0.22445029020309448,22.748254776000977,-0.07303168624639511,-14.179414749145508,-0.1595969796180725,-2.1517977714538574,0.29605430364608765,0
56,0.2749905586242676,-0.2720577120780945,-22.772058486938477,0.07303168624639511,14.179414749145508,0.1595969796180725,2.1389803886413574,-0.30337852239608765,0.0,0.0,0.0,0.0,0.0,0.0,0.0,-0.2820853761301858,0.0326724538546372,-0.08378492504527957,0.29023120773008926,-0.0737497571266307,-0.04125390797963225,-0.3177814804741222,1.675490516825726,0.05211075164090123,0.02993626397797263,-2.7523914923191963,0.034247565398613615,2.766397515032026,0.7691717468831264,1.6754973547542302,0.052104326824870026,0.029969505109285054,-2.752394845125968,0.0342448039870148,2.7663679543071322,0.7691630533470046,0.0008687847734101172,0.00022487872023621387,-0.0007552445015301552,-0.0007102652306641574,-0.0002980718216072797,-2.242426228406019e-05,-0.00036277124132838676,0.0,0.0,0.0,0.0,0.0,0.0,0.0,6.837928504310753e-06,-6.4248160312058156e-06,3.324113131242257e-05,-3.3528067717725207e-06,-2.7614115988144894e-06,-2.9560724893684664e-05,-8.693536121762158e-06,-0.0008687847734101172,-0.00022487872023621387,0.0007552445015301552,0.0007102652306641574,0.0002980718216072797,2.242426228406019e-05,0.00036277124132838676,0.2720577120780945,22.772058486938477,-0.07303168624639511,-14.179414749145508,-0.1595969796180725,-2.1389803886413574,0.30337852239608765,0
57,0.2800009250640869,-0.2720577120780945,-22.772058486938477,0.07303168624639511,14.179414749145508,0.1595969796180725,2.1389803886413574,-0.30337852239608765,0.0,0.0,0.0,0.0,0.0,0.0,0.0,-0.2820853761301858,0.0326724538546372,-0.08378492504527957,0.29023120773008926,-0.0737497571266307,-0.04125390797963225,-0.3177814804741222,1.675490516825726,0.05211075164090123,0.02993626397797263,-2.7523914923191963,0.034247565398613615,2.766397515032026,0.7691717468831264,1.6754973547542302,0.052104326824870026,0.029969505109285054,-2.752394845125968,0.0342448039870148,2.7663679543071322,0.7691630533470046,0.0008687847734101172,0.00022487872023621387,-0.0007552445015301552,-0.0007102652306641574,-0.0002980718216072797,-2.242426228406019e-05,-0.00036277124132838676,0.0,0.0,0.0,0.0,0.0,0.0,0.0,6.837928504310753e-06,-6.4248160312058156e-06,3.324113131242257e-05,-3.3528067717725207e-06,-2.7614115988144894e-06,-2.9560724893684664e-05,-8.693536121762158e-06,-0.0008687847734101172,-0.00022487872023621387,0.0007552445015301552,0.0007102652306641574,0.0002980718216072797,2.242426228406019e-05,0.00036277124132838676,0.2720577120780945,22.772058486938477,-0.07303168624639511,-14.179414749145508,-0.1595969796180725,-2.1389803886413574,0.30337852239608765,0
58,0.2849459648132324,-0.3236324191093445,-22.748254776000977,-0.02615044265985489,14.131807327270508,0.1650901436805725,2.1325716972351074,-0.31711143255233765,0.0,0.0,0.0,0.0,0.0,0.0,0.0,-0.27819892569603616,0.03567746227793371,-0.07744120631481495,0.2908559222307522,-0.07518712702031702,-0.04325181275285426,-0.31444779518596355,1.6754941361034124,0.05210908120504597,0.029943224455965183,-2.752390648589672,0.03424695504705111,2.766398227108849,0.7691732330256037,1.6754973547542302,0.052104326824870026,0.029969505109285054,-2.752394845125968,0.0342448039870148,2.7663679543071322,0.7691630533470046,7.740946719001381e-05,-0.00017074289369848155,-1.5077381537719973e-05,0.0007314237955474825,-0.0003416464901954418,0.0002160322645528449,0.00016603589535615093,0.0,0.0,0.0,0.0,0.0,0.0,0.0,3.2186508178710938e-06,-4.754380175941986e-06,2.628065331987048e-05,-4.196536296241504e-06,-2.1510600363081056e-06,-3.0272801716968445e-05,-1.0179678599064879e-05,-7.740946719001381e-05,0.00017074289369848155,1.5077381537719973e-05,-0.0007314237955474825,0.0003416464901954418,-0.0002160322645528449,-0.00016603589535615093,0.3236324191093445,22.748254776000977,0.02615044265985489,-14.131807327270508,-0.1650901436805725,-2.1325716972351074,0.31711143255233765,0
59,0.28998684883117676,-0.3236324191093445,-22.748254776000977,-0.02615044265985489,14.131807327270508,0.1650901436805725,2.1325716972351074,-0.31711143255233765,0.0,0.0,0.0,0.0,0.0,0.0,0.0,-0.27819892569603616,0.03567746227793371,-0.07744120631481495,0.2908559222307522,-0.07518712702031702,-0.04325181275285426,-0.31444779518596355,1.6754941361034124,0.05210908120504597,0.029943224455965183,-2.752390648589672,0.03424695504705111,2.766398227108849,0.7691732330256037,1.6754973547542302,0.052104326824870026,0.029969505109285054,-2.752394845125968,0.0342448039870148,2.7663679543071322,0.7691630533470046,7.740946719001381e-05,-0.00017074289369848155,-1.5077381537719973e-05,0.0007314237955474825,-0.0003416464901954418,0.0002160322645528449,0.00016603589535615093,0.0,0.0,0.0,0.0,0.0,0.0,0.0,3.2186508178710938e-06,-4.754380175941986e-06,2.628065331987048e-05,-4.196536296241504e-06,-2.1510600363081056e-06,-3.0272801716968445e-05,-1.0179678599064879e-05,-7.740946719001381e-05,0.00017074289369848155,1.5077381537719973e-05,-0.0007314237955474825,0.0003416464901954418,-0.0002160322645528449,-0.00016603589535615093,0.3236324191093445,22.748254776000977,0.02615044265985489,-14.131807327270508,-0.1650901436805725,-2.1325716972351074,0.31711143255233765,0
60,0.29499363899230957,-0.3514034152030945,-22.772058486938477,-0.02615044265985489,14.131807327270508,0.1531882882118225,2.1517977714538574,-0.27591270208358765,0.0,0.0,0.0,0.0,0.0,0.0,0.0,-0.28443837532551264,0.034381989454299274,-0.07964315766545838,0.294410215065752,-0.07611820411827618,-0.04330499824237039,-0.3145390595981459,1.6754960849452434,0.05211075164090123,0.02994322445596519,-2.7523885995816983,0.03424827747543653,2.7663960908783802,0.7691686951250906,1.6754973547542302,0.052104326824870026,0.029969505109285054,-2.752394845125968,0.0342448039870148,2.7663679543071322,0.7691630533470046,0.00028930577678400686,0.0004100361416096161,-0.0004593421396556164,0.0012586543790064385,-6.327013658325195e-05,-0.0004628464010339809,-0.0019804553944523487,0.0,0.0,0.0,0.0,0.0,0.0,0.0,1.26980898684792e-06,-6.4248160312058156e-06,2.628065331986354e-05,-6.245544269756209e-06,-3.4734884217305084e-06,-2.8136571248005282e-05,-5.641778085929694e-06,-0.00028930577678400686,-0.0004100361416096161,0.0004593421396556164,-0.0012586543790064385,6.327013658325195e-05,0.0004628464010339809,0.0019804553944523487,0.3514034152030945,22.772058486938477,0.02615044265985489,-14.131807327270508,-0.1531882882118225,-2.1517977714538574,0.27591270208358765,0
61,0.29999327659606934,-0.3514034152030945,-22.772058486938477,-0.02615044265985489,14.131807327270508,0.1531882882118225,2.1517977714538574,-0.27591270208358765,0.0,0.0,0.0,0.0,0.0,0.0,0.0,-0.28443837532551264,0.034381989454299274,-0.07964315766545838,0.294410215065752,-0.07611820411827618,-0.04330499824237039,-0.3145390595981459,1.6754960849452434,0.05211075164090123,0.02994322445596519,-2.7523885995816983,0.03424827747543653,2.7663960908783802,0.7691686951250906,1.6754973547542302,0.052104326824870026,0.029969505109285054,-2.752394845125968,0.0342448039870148,2.7663679543071322,0.7691630533470046,0.00028930577678400686,0.0004100361416096161,-0.0004593421396556164,0.0012586543790064385,-6.327013658325195e-05,-0.0004628464010339809,-0.0019804553944523487,0.0,0.0,0.0,0.0,0.0,0.0,0.0,1.26980898684792e-06,-6.4248160312058156e-06,2.628065331986354e-05,-6.245544269756209e-06,-3.4734884217305084e-06,-2.8136571248005282e-05,-5.641778085929694e-06,-0.00028930577678400686,-0.0004100361416096161,0.0004593421396556164,-0.0012586543790064385,6.327013658325195e-05,0.0004628464010339809,0.0019804553944523487,0.3514034152030945,22.772058486938477,0.02615044265985489,-14.131807327270508,-0.1531882882118225,-2.1517977714538574,0.27591270208358765,0
62,0.3050084114074707,-0.3514034152030945,-22.720483779907227,-0.04995415359735489,14.179414749145508,0.1650901436805725,2.1389803886413574,-0.31711143255233765,0.0,0.0,0.0,0.0,0.0,0.0,0.0,-0.29541267632667284,0.03419372241375159,-0.0868080636673286,0.29119202369724506,-0.07689140729658124,-0.044133000858704564,-0.3150938315784085,1.6754960849452434,0.05210713236321483,0.029944894891820454,-2.752391952724342,0.03424695504705111,2.766397515032026,0.7691732771226842,1.6754973547542302,0.052104326824870026,0.029969505109285054,-2.752394845125968,0.0342448039870148,2.7663679543071322,0.7691630533470046,0.00028370258520669396,-0.001509412960914281,0.00019876622284086413,-0.0004447956648954203,-0.00018719820461325163,0.009381813625676201,-0.0005856831759482995,0.0,0.0,0.0,0.0,0.0,0.0,0.0,1.26980898684792e-06,-2.805538344800851e-06,2.461021746459971e-05,-2.8924016262088514e-06,-2.1510600363081056e-06,-2.9560724893684664e-05,-1.0223775679607527e-05,-0.00028370258520669396,0.001509412960914281,-0.00019876622284086413,0.0004447956648954203,0.00018719820461325163,-0.009381813625676201,0.0005856831759482995,0.3514034152030945,22.720483779907227,0.04995415359735489,-14.179414749145508,-0.1650901436805725,-2.1389803886413574,0.31711143255233765,0
63,0.31002116203308105,-0.3514034152030945,-22.720483779907227,-0.04995415359735489,14.179414749145508,0.1650901436805725,2.1389803886413574,-0.31711143255233765,0.0,0.0,0.0,0.0,0.0,0.0,0.0,-0.29541267632667284,0.03419372241375159,-0.0868080636673286,0.29119202369724506,-0.07689140729658124,-0.044133000858704564,-0.3150938315784085,1.6754960849452434,0.05210713236321483,0.029944894891820454,-2.752391952724342,0.03424695504705111,2.766397515032026,0.7691732771226842,1.6754973547542302,0.052104326824870026,0.029969505109285054,-2.752394845125968,0.0342448039870148,2.7663679543071322,0.7691630533470046,0.00028370258520669396,-0.001509412960914281,0.00019876622284086413,-0.0004447956648954203,-0.00018719820461325163,0.009381813625676201,-0.0005856831759482995,0.0,0.0,0.0,0.0,0.0,0.0,0.0,1.26980898684792e-06,-2.805538344800851e-06,2.461021746459971e-05,-2.8924016262088514e-06,-2.1510600363081056e-06,-2.9560724893684664e-05,-1.0223775679607527e-05,-0.00028370258520669396,0.001509412960914281,-0.00019876622284086413,0.0004447956648954203,0.00018719820461325163,-0.009381813625676201,0.0005856831759482995,0.3514034152030945,22.720483779907227,0.04995415359735489,-14.179414749145508,-0.1650901436805725,-2.1389803886413574,0.31711143255233765,0
64,0.31500792503356934,-0.3236324191093445,-22.772058486938477,0.001620553433895111,14.155611038208008,0.1531882882118225,2.1517977714538574,-0.30978721380233765,0.0,0.0,0.0,0.0,0.0,0.0,0.0,-0.3084104246376176,0.03897840639681705,-0.09541724423850455,0.2859651363964747,-0.07605319448644365,-0.04675758048945074,-0.31703915085890866,1.6754941361034124,0.05211075164090123,0.02994127561413405,-2.752390347515277,0.03424827747543653,2.7663960908783802,0.7691724589599749,1.6754973547542302,0.052104326824870026,0.029969505109285054,-2.752394845125968,0.0342448039870148,2.7663679543071322,0.7691630533470046,-0.0005942823331552362,-0.0002450100346893525,-0.0008494187479129309,0.00010303475988796381,0.00026220823436942317,-2.9255016668718113e-06,-0.0006491940771269086,0.0,0.0,0.0,0.0,0.0,0.0,0.0,3.2186508178710938e-06,-6.4248160312058156e-06,2.8229495151004674e-05,-4.497610690989973e-06,-3.4734884217305084e-06,-2.8136571248005282e-05,-9.405612970248e-06,0.0005942823331552362,0.0002450100346893525,0.0008494187479129309,-0.00010303475988796381,-0.00026220823436942317,2.9255016668718113e-06,0.0006491940771269086,0.3236324191093445,22.772058486938477,-0.001620553433895111,-14.155611038208008,-0.1531882882118225,-2.1517977714538574,0.30978721380233765,0
65,0.3199925422668457,-0.3236324191093445,-22.772058486938477,0.001620553433895111,14.155611038208008,0.1531882882118225,2.1517977714538574,-0.30978721380233765,0.0,0.0,0.0,0.0,0.0,0.0,0.0,-0.3084104246376176,0.03897840639681705,-0.09541724423850455,0.2859651363964747,-0.07605319448644365,-0.04675758048945074,-0.31703915085890866,1.6754941361034124,0.05211075164090123,0.02994127561413405,-2.752390347515277,0.03424827747543653,2.7663960908783802,0.7691724589599749,1.6754973547542302,0.052104326824870026,0.029969505109285054,-2.752394845125968,0.0342448039870148,2.7663679543071322,0.7691630533470046,-0.0005942823331552362,-0.0002450100346893525,-0.0008494187479129309,0.00010303475988796381,0.00026220823436942317,-2.9255016668718113e-06,-0.0006491940771269086,0.0,0.0,0.0,0.0,0.0,0.0,0.0,3.2186508178710938e-06,-6.4248160312058156e-06,2.8229495151004674e-05,-4.497610690989973e-06,-3.4734884217305084e-06,-2.8136571248005282e-05,-9.405612970248e-06,0.0005942823331552362,0.0002450100346893525,0.0008494187479129309,-0.00010303475988796381,-0.00026220823436942317,2.9255016668718113e-06,0.0006491940771269086,0.3236324191093445,22.772058486938477,-0.001620553433895111,-14.155611038208008,-0.1531882882118225,-2.1517977714538574,0.30978721380233765,0
66,0.3250107765197754,-0.3236324191093445,-22.720483779907227,-0.02615044265985489,14.131807327270508,0.1595969796180725,2.1389803886413574,-0.34457725286483765,0.0,0.0,0.0,0.0,0.0,0.0,0.0,-0.31214518996901425,0.02734990476036547,-0.09514433506591573,0.29923859650056456,-0.07669882512968684,-0.04220967200393827,-0.3184110201762585,1.6754941361034124,0.05210736912610935,0.029943215692079236,-2.752388661612939,0.034247565398613615,2.766397515032026,0.7691763637657028,1.6754973547542302,0.052104326824870026,0.029969505109285054,-2.752394845125968,0.0342448039870148,2.7663679543071322,0.7691630533470046,-0.00012914333038393776,-0.0012157366373015087,0.000331987714676676,0.0002758394435618175,-6.386321288235985e-05,-0.000553368437878814,0.0006902619390389899,0.0,0.0,0.0,0.0,0.0,0.0,0.0,3.2186508178710938e-06,-3.042301239326861e-06,2.628941720581729e-05,-6.183513029167642e-06,-2.7614115988144894e-06,-2.9560724893684664e-05,-1.331041869812033e-05,0.00012914333038393776,0.0012157366373015087,-0.000331987714676676,-0.0002758394435618175,6.386321288235985e-05,0.000553368437878814,-0.0006902619390389899,0.3236324191093445,22.720483779907227,0.02615044265985489,-14.131807327270508,-0.1595969796180725,-2.1389803886413574,0.34457725286483765,0
67,0.3300001621246338,-0.3236324191093445,-22.720483779907227,-0.02615044265985489,14.131807327270508,0.1595969796180725,2.1389803886413574,-0.34457725286483765,0.0,0.0,0.0,0.0,0.0,0.0,0.0,-0.31214518996901425,0.02734990476036547,-0.09514433506591573,0.29923859650056456,-0.07669882512968684,-0.04220967200393827,-0.3184110201762585,1.6754941361034124,0.05210736912610935,0.029943215692079236,-2.752388661612939,0.034247565398613615,2.766397515032026,0.7691763637657028,1.6754973547542302,0.052104326824870026,0.029969505109285054,-2.752394845125968,0.0342448039870148,2.7663679543071322,0.7691630533470046,-0.00012914333038393776,-0.0012157366373015087,0.000331987714676676,0.0002758394435618175,-6.386321288235985e-05,-0.000553368437878814,0.0006902619390389899,0.0,0.0,0.0,0.0,0.0,0.0,0.0,3.2186508178710938e-06,-3.042301239326861e-06,2.628941720581729e-05,-6.183513029167642e-06,-2.7614115988144894e-06,-2.9560724893684664e-05,-1.331041869812033e-05,0.00012914333038393776,0.0012157366373015087,-0.000331987714676676,-0.0002758394435618175,6.386321288235985e-05,0.000553368437878814,-0.0006902619390389899,0.3236324191093445,22.720483779907227,0.02615044265985489,-14.131807327270508,-0.1595969796180725,-2.1389803886413574,0.34457725286483765,0
68,0.3349876403808594,-0.2998287081718445,-22.772058486938477,0.02542426437139511,14.131807327270508,0.1412864327430725,2.1453890800476074,-0.29605430364608765,0.0,0.0,0.0,0.0,0.0,0.0,0.0,-0.3092367288376543,0.03465452123838183,-0.09108315636525106,0.2906000552337686,-0.07667783779383741,-0.0443058678476367,-0.3181197708635263,1.6754924656675572,0.05211075164223777,0.029937475553942026,-2.7523888147066855,0.034249599903821946,2.766396802955203,0.7691709335657823,1.6754973547542302,0.052104326824870026,0.029969505109285054,-2.752394845125968,0.0342448039870148,2.7663679543071322,0.7691630533470046,0.00044014506449798006,0.0006225191410069602,-0.0004696722249452806,0.0006087899942588945,0.0003634632257621035,-0.00022224267726915877,-0.000888946362493933,0.0,0.0,0.0,0.0,0.0,0.0,0.0,4.889086673065535e-06,-6.424817367740865e-06,3.20295553430279e-05,-6.030419282598842e-06,-4.795916807145972e-06,-2.8848648070844973e-05,-7.880218777622794e-06,-0.00044014506449798006,-0.0006225191410069602,0.0004696722249452806,-0.0006087899942588945,-0.0003634632257621035,0.00022224267726915877,0.000888946362493933,0.2998287081718445,22.772058486938477,-0.02542426437139511,-14.131807327270508,-0.1412864327430725,-2.1453890800476074,0.29605430364608765,0
69,0.3400137424468994,-0.2998287081718445,-22.772058486938477,0.02542426437139511,14.131807327270508,0.1412864327430725,2.1453890800476074,-0.29605430364608765,0.0,0.0,0.0,0.0,0.0,0.0,0.0,-0.3092367288376543,0.03465452123838183,-0.09108315636525106,0.2906000552337686,-0.07667783779383741,-0.0443058678476367,-0.3181197708635263,1.6754924656675572,0.05211075164223777,0.029937475553942026,-2.7523888147066855,0.034249599903821946,2.766396802955203,0.7691709335657823,1.6754973547542302,0.052104326824870026,0.029969505109285054,-2.752394845125968,0.0342448039870148,2.7663679543071322,0.7691630533470046,0.00044014506449798006,0.0006225191410069602,-0.0004696722249452806,0.0006087899942588945,0.0003634632257621035,-0.00022224267726915877,-0.000888946362493933,0.0,0.0,0.0,0.0,0.0,0.0,0.0,4.889086673065535e-06,-6.424817367740865e-06,3.20295553430279e-05,-6.030419282598842e-06,-4.795916807145972e-06,-2.8848648070844973e-05,-7.880218777622794e-06,-0.00044014506449798006,-0.0006225191410069602,0.0004696722249452806,-0.0006087899942588945,-0.0003634632257621035,0.00022224267726915877,0.000888946362493933,0.2998287081718445,22.772058486938477,-0.02542426437139511,-14.131807327270508,-0.1412864327430725,-2.1453890800476074,0.29605430364608765,0
70,0.34499692916870117,-0.24825400114059448,-22.772058486938477,0.02542426437139511,14.179414749145508,0.1476951241493225,2.1453890800476074,-0.28232139348983765,0.0,0.0,0.0,0.0,0.0,0.0,0.0,-0.30025880137023114,0.031501773148378244,-0.0854468335648453,0.2927979295232111,-0.07738953891281233,-0.044117274247380454,-0.3166637211374094,1.6754888463898707,0.052110777947889535,0.029939605142213412,-2.752391948641886,0.03424888782699903,2.766396802955203,0.769169407202146,1.6754973547542302,0.052104326824870026,0.029969505109285054,-2.752394845125968,0.0342448039870148,2.7663679543071322,0.7691630533470046,0.00031506797082243854,-6.50567450680141e-05,0.00045732200721698983,-0.0004598883523667667,0.00014579904113803046,-9.026610815925668e-05,-0.0008775902027330416,0.0,0.0,0.0,0.0,0.0,0.0,0.0,8.508364359505194e-06,-6.451123019508842e-06,2.9899967071641415e-05,-2.8964840819156734e-06,-4.083839984229953e-06,-2.8848648070844973e-05,-6.353855141361109e-06,-0.00031506797082243854,6.50567450680141e-05,-0.00045732200721698983,0.0004598883523667667,-0.00014579904113803046,9.026610815925668e-05,0.0008775902027330416,0.24825400114059448,22.772058486938477,-0.02542426437139511,-14.179414749145508,-0.1476951241493225,-2.1453890800476074,0.28232139348983765,0
71,0.34999799728393555,-0.24825400114059448,-22.772058486938477,0.02542426437139511,14.179414749145508,0.1476951241493225,2.1453890800476074,-0.28232139348983765,0.0,0.0,0.0,0.0,0.0,0.0,0.0,-0.30025880137023114,0.031501773148378244,-0.0854468335648453,0.2927979295232111,-0.07738953891281233,-0.044117274247380454,-0.3166637211374094,1.6754888463898707,0.052110777947889535,0.029939605142213412,-2.752391948641886,0.03424888782699903,2.766396802955203,0.769169407202146,1.6754973547542302,0.052104326824870026,0.029969505109285054,-2.752394845125968,0.0342448039870148,2.7663679543071322,0.7691630533470046,0.00031506797082243854,-6.50567450680141e-05,0.00045732200721698983,-0.0004598883523667667,0.00014579904113803046,-9.026610815925668e-05,-0.0008775902027330416,0.0,0.0,0.0,0.0,0.0,0.0,0.0,8.508364359505194e-06,-6.451123019508842e-06,2.9899967071641415e-05,-2.8964840819156734e-06,-4.083839984229953e-06,-2.8848648070844973e-05,-6.353855141361109e-06,-0.00031506797082243854,6.50567450680141e-05,-0.00045732200721698983,0.0004598883523667667,-0.00014579904113803046,9.026610815925668e-05,0.0008775902027330416,0.24825400114059448,22.772058486938477,-0.02542426437139511,-14.179414749145508,-0.1476951241493225,-2.1453890800476074,0.28232139348983765,0
72,0.3550102710723877,-0.22445029020309448,-22.748254776000977,0.04922797530889511,14.155611038208008,0.1595969796180725,2.1517977714538574,-0.33725303411483765,0.0,0.0,0.0,0.0,0.0,0.0,0.0,-0.29016865432732714,0.03841869245693137,-0.08126403360883047,0.2886824571058735,-0.07744134606117903,-0.044747145508036004,-0.31494592182226866,1.6754871759540153,0.052109081205194474,0.02993793474242332,-2.752389819052836,0.034244369099537535,2.7663960908783802,0.7691753958691239,1.6754973547542302,0.052104326824870026,0.029969505109285054,-2.752394845125968,0.0342448039870148,2.7663679543071322,0.7691630533470046,-2.414355563043363e-05,-0.00028311384027897334,8.581639923186823e-05,-8.057488925300683e-05,-0.0002070020229121115,-0.00012849386203683536,0.0007559642928919359,0.0,0.0,0.0,0.0,0.0,0.0,0.0,1.017880021492168e-05,-4.754380324448193e-06,3.157036686173356e-05,-5.026073131908504e-06,4.348874772658329e-07,-2.8136571248005282e-05,-1.2342522119235255e-05,2.414355563043363e-05,0.00028311384027897334,-8.581639923186823e-05,8.057488925300683e-05,0.0002070020229121115,0.00012849386203683536,-0.0007559642928919359,0.22445029020309448,22.748254776000977,-0.04922797530889511,-14.155611038208008,-0.1595969796180725,-2.1517977714538574,0.33725303411483765,0
73,0.3600184917449951,-0.22445029020309448,-22.748254776000977,0.04922797530889511,14.155611038208008,0.1595969796180725,2.1517977714538574,-0.33725303411483765,0.0,0.0,0.0,0.0,0.0,0.0,0.0,-0.29016865432732714,0.03841869245693137,-0.08126403360883047,0.2886824571058735,-0.07744134606117903,-0.044747145508036004,-0.31494592182226866,1.6754871759540153,0.052109081205194474,0.02993793474242332,-2.752389819052836,0.034244369099537535,2.7663960908783802,0.7691753958691239,1.6754973547542302,0.052104326824870026,0.029969505109285054,-2.752394845125968,0.0342448039870148,2.7663679543071322,0.7691630533470046,-2.414355563043363e-05,-0.00028311384027897334,8.581639923186823e-05,-8.057488925300683e-05,-0.0002070020229121115,-0.00012849386203683536,0.0007559642928919359,0.0,0.0,0.0,0.0,0.0,0.0,0.0,1.017880021492168e-05,-4.754380324448193e-06,3.157036686173356e-05,-5.026073131908504e-06,4.348874772658329e-07,-2.8136571248005282e-05,-1.2342522119235255e-05,2.414355563043363e-05,0.00028311384027897334,-8.581639923186823e-05,8.057488925300683e-05,0.0002070020229121115,0.00012849386203683536,-0.0007559642928919359,0.22445029020309448,22.748254776000977,-0.04922797530889511,-14.155611038208008,-0.1595969796180725,-2.1517977714538574,0.33725303411483765,0
74,0.3650054931640625,-0.22445029020309448,-22.748254776000977,0.04922797530889511,14.155611038208008,0.1595969796180725,2.1517977714538574,-0.33725303411483765,0.0,0.0,0.0,0.0,0.0,0.0,0.0,-0.29016865432732714,0.03841869245693137,-0.08126403360883047,0.2886824571058735,-0.07744134606117903,-0.044747145508036004,-0.31494592182226866,1.6754871759540153,0.052109081205194474,0.02993793474242332,-2.752389819052836,0.034244369099537535,2.7663960908783802,0.7691753958691239,1.6754973547542302,0.052104326824870026,0.029969505109285054,-2.752394845125968,0.0342448039870148,2.7663679543071322,0.7691630533470046,-2.414355563043363e-05,-0.00028311384027897334,8.581639923186823e-05,-8.057488925300683e-05,-0.0002070020229121115,-0.00012849386203683536,0.0007559642928919359,0.0,0.0,0.0,0.0,0.0,0.0,0.0,1.017880021492168e-05,-4.754380324448193e-06,3.157036686173356e-05,-5.026073131908504e-06,4.348874772658329e-07,-2.8136571248005282e-05,-1.2342522119235255e-05,2.414355563043363e-05,0.00028311384027897334,-8.581639923186823e-05,8.057488925300683e-05,0.0002070020229121115,0.00012849386203683536,-0.0007559642928919359,0.22445029020309448,22.748254776000977,-0.04922797530889511,-14.155611038208008,-0.1595969796180725,-2.1517977714538574,0.33725303411483765,0
75,0.3699946403503418,-0.22445029020309448,-22.748254776000977,0.04922797530889511,14.155611038208008,0.1595969796180725,2.1517977714538574,-0.33725303411483765,0.0,0.0,0.0,0.0,0.0,0.0,0.0,-0.29016865432732714,0.03841869245693137,-0.08126403360883047,0.2886824571058735,-0.07744134606117903,-0.044747145508036004,-0.31494592182226866,1.6754871759540153,0.052109081205194474,0.02993793474242332,-2.752389819052836,0.034244369099537535,2.7663960908783802,0.7691753958691239,1.6754973547542302,0.052104326824870026,0.029969505109285054,-2.752394845125968,0.0342448039870148,2.7663679543071322,0.7691630533470046,-2.414355563043363e-05,-0.00028311384027897334,8.581639923186823e-05,-8.057488925300683e-05,-0.0002070020229121115,-0.00012849386203683536,0.0007559642928919359,0.0,0.0,0.0,0.0,0.0,0.0,0.0,1.017880021492168e-05,-4.754380324448193e-06,3.157036686173356e-05,-5.026073131908504e-06,4.348874772658329e-07,-2.8136571248005282e-05,-1.2342522119235255e-05,2.414355563043363e-05,0.00028311384027897334,-8.581639923186823e-05,8.057488925300683e-05,0.0002070020229121115,0.00012849386203683536,-0.0007559642928919359,0.22445029020309448,22.748254776000977,-0.04922797530889511,-14.155611038208008,-0.1595969796180725,-2.1517977714538574,0.33725303411483765,0
76,0.37500977516174316,-0.22445029020309448,-22.819665908813477,0.02542426437139511,14.155611038208008,0.1595969796180725,2.1389803886413574,-0.35098594427108765,0.0,0.0,0.0,0.0,0.0,0.0,0.0,-0.2848356183068538,0.03839555464299741,-0.07954079560672565,0.28813146259383005,-0.07662671657432071,-0.043735063077972584,-0.3170579254609749,1.6754871759540153,0.05211409251261176,0.02993960128321836,-2.7523905846243917,0.03424756489340396,2.7663974757861696,0.7691770365960207,1.6754973547542302,0.052104326824870026,0.029969505109285054,-2.752394845125968,0.0342448039870148,2.7663679543071322,0.7691630533470046,-0.0006944152042064653,0.0013080247665715966,-0.0004884967741093896,-0.0002623185403598884,-8.22805631569817e-05,3.501520990768969e-05,0.0012866850157797324,0.0,0.0,0.0,0.0,0.0,0.0,0.0,1.017880021492168e-05,-9.765687741733475e-06,2.9903826066692007e-05,-4.260501576425213e-06,-2.7609063891625985e-06,-2.9521479037342147e-05,-1.3983249016025212e-05,0.0006944152042064653,-0.0013080247665715966,0.0004884967741093896,0.0002623185403598884,8.22805631569817e-05,-3.501520990768969e-05,-0.0012866850157797324,0.22445029020309448,22.819665908813477,-0.02542426437139511,-14.155611038208008,-0.1595969796180725,-2.1389803886413574,0.35098594427108765,0
77,0.3799898624420166,-0.22445029020309448,-22.819665908813477,0.02542426437139511,14.155611038208008,0.1595969796180725,2.1389803886413574,-0.35098594427108765,0.0,0.0,0.0,0.0,0.0,0.0,0.0,-0.2848356183068538,0.03839555464299741,-0.07954079560672565,0.28813146259383005,-0.07662671657432071,-0.043735063077972584,-0.3170579254609749,1.6754871759540153,0.05211409251261176,0.02993960128321836,-2.7523905846243917,0.03424756489340396,2.7663974757861696,0.7691770365960207,1.6754973547542302,0.052104326824870026,0.029969505109285054,-2.752394845125968,0.0342448039870148,2.7663679543071322,0.7691630533470046,-0.0006944152042064653,0.0013080247665715966,-0.0004884967741093896,-0.0002623185403598884,-8.22805631569817e-05,3.501520990768969e-05,0.0012866850157797324,0.0,0.0,0.0,0.0,0.0,0.0,0.0,1.017880021492168e-05,-9.765687741733475e-06,2.9903826066692007e-05,-4.260501576425213e-06,-2.7609063891625985e-06,-2.9521479037342147e-05,-1.3983249016025212e-05,0.0006944152042064653,-0.0013080247665715966,0.0004884967741093896,0.0002623185403598884,8.22805631569817e-05,-3.501520990768969e-05,-0.0012866850157797324,0.22445029020309448,22.819665908813477,-0.02542426437139511,-14.155611038208008,-0.1595969796180725,-2.1389803886413574,0.35098594427108765,0
78,0.38498663902282715,-0.3752071261405945,-22.772058486938477,-0.07375786453485489,14.131807327270508,0.1531882882118225,2.1453890800476074,-0.33725303411483765,0.0,0.0,0.0,0.0,0.0,0.0,0.0,-0.2860411031173692,0.035395371579285156,-0.08138431540905723,0.28886023147546513,-0.0756499555064912,-0.043020664896735804,-0.3190061332233955,1.6754977553810988,0.05211075164090123,0.0299444357033811,-2.752390651375336,0.03424827747543558,2.7663968029551294,0.7691758639304724,1.6754973547542302,0.052104326824870026,0.029969505109285054,-2.752394845125968,0.0342448039870148,2.7663679543071322,0.7691630533470046,0.0008430752100115866,5.667020363612851e-05,0.0012849047982700966,0.0003722665432883654,0.00013224372802853987,-0.00012925011209157379,0.0006951777940344791,0.0,0.0,0.0,0.0,0.0,0.0,0.0,-4.0062686856856544e-07,-6.4248160312058156e-06,2.5069405903955372e-05,-4.193750632097704e-06,-3.47348842077988e-06,-2.8848647997126164e-05,-1.2810583467803838e-05,-0.0008430752100115866,-5.667020363612851e-05,-0.0012849047982700966,-0.0003722665432883654,-0.00013224372802853987,0.00012925011209157379,-0.0006951777940344791,0.3752071261405945,22.772058486938477,0.07375786453485489,-14.131807327270508,-0.1531882882118225,-2.1453890800476074,0.33725303411483765,0
79,0.38999128341674805,-0.3752071261405945,-22.772058486938477,-0.07375786453485489,14.131807327270508,0.1531882882118225,2.1453890800476074,-0.33725303411483765,0.0,0.0,0.0,0.0,0.0,0.0,0.0,-0.2860411031173692,0.035395371579285156,-0.08138431540905723,0.28886023147546513,-0.0756499555064912,-0.043020664896735804,-0.3190061332233955,1.6754977553810988,0.05211075164090123,0.0299444357033811,-2.752390651375336,0.03424827747543558,2.7663968029551294,0.7691758639304724,1.6754973547542302,0.052104326824870026,0.029969505109285054,-2.752394845125968,0.0342448039870148,2.7663679543071322,0.7691630533470046,0.0008430752100115866,5.667020363612851e-05,0.0012849047982700966,0.0003722665432883654,0.00013224372802853987,-0.00012925011209157379,0.0006951777940344791,0.0,0.0,0.0,0.0,0.0,0.0,0.0,-4.0062686856856544e-07,-6.4248160312058156e-06,2.5069405903955372e-05,-4.193750632097704e-06,-3.47348842077988e-06,-2.8848647997126164e-05,-1.2810583467803838e-05,-0.0008430752100115866,-5.667020363612851e-05,-0.0012849047982700966,-0.0003722665432883654,-0.00013224372802853987,0.00012925011209157379,-0.0006951777940344791,0.3752071261405945,22.772058486938477,0.07375786453485489,-14.131807327270508,-0.1531882882118225,-2.1453890800476074,0.33725303411483765,0
