rezayati/contactInterpretation/dataset/franka_main/labeled_data/link4/d2_4.csv
index,time,tau_J0,tau_J1,tau_J2,tau_J3,tau_J4,tau_J5,tau_J6,tau_J_d0,tau_J_d1,tau_J_d2,tau_J_d3,tau_J_d4,tau_J_d5,tau_J_d6,tau_ext0,tau_ext1,tau_ext2,tau_ext3,tau_ext4,tau_ext5,tau_ext6,q0,q1,q2,q3,q4,q5,q6,q_d0,q_d1,q_d2,q_d3,q_d4,q_d5,q_d6,dq0,dq1,dq2,dq3,dq4,dq5,dq6,dq_d0,dq_d1,dq_d2,dq_d3,dq_d4,dq_d5,dq_d6,e0,e1,e2,e3,e4,e5,e6,de0,de1,de2,de3,de4,de5,de6,etau_J0,etau_J1,etau_J2,etau_J3,etau_J4,etau_J5,etau_J6,label
1,0.0,-0.4029781222343445,-19.868005752563477,-0.3713042438030243,20.007356643676758,0.5523582100868225,2.4694857597351074,-0.15964071452617645,0.0,0.0,0.0,0.0,0.0,0.0,0.0,-0.396314787195744,-0.11870833296675731,-0.19056084266724108,0.24247634393660475,-0.027037875285242027,0.08854165800889552,-0.20198587467684884,1.2136372593453053,-0.2201382633881637,-0.007234786741958376,-2.6037641706091215,-0.1089548421104749,2.4681213229001586,0.8264642710602945,1.2134413937687574,-0.2202432315892585,-0.0075118285948192216,-2.6038483821997875,-0.10888392708698907,2.4681821257803174,0.826474908251239,0.0010601459559756523,0.0007828902172358932,0.00019036499620286298,-7.569715710200844e-05,-8.182929953636783e-05,-0.0002551462585194166,-0.002035087389152767,0.0,0.0,0.0,0.0,0.0,0.0,0.0,-0.0001958655765479378,-0.00010496820109479055,-0.00027704185286084575,-8.421159066607231e-05,7.091502348582912e-05,6.080288015875013e-05,1.0637190944517982e-05,-0.0010601459559756523,-0.0007828902172358932,-0.00019036499620286298,7.569715710200844e-05,8.182929953636783e-05,0.0002551462585194166,0.002035087389152767,0.4029781222343445,19.868005752563477,0.3713042438030243,-20.007356643676758,-0.5523582100868225,-2.4694857597351074,0.15964071452617645,0
2,0.004441976547241211,-0.4029781222343445,-19.868005752563477,-0.3713042438030243,20.007356643676758,0.5523582100868225,2.4694857597351074,-0.15964071452617645,0.0,0.0,0.0,0.0,0.0,0.0,0.0,-0.396314787195744,-0.11870833296675731,-0.19056084266724108,0.24247634393660475,-0.027037875285242027,0.08854165800889552,-0.20198587467684884,1.2136372593453053,-0.2201382633881637,-0.007234786741958376,-2.6037641706091215,-0.1089548421104749,2.4681213229001586,0.8264642710602945,1.2134413937687574,-0.2202432315892585,-0.0075118285948192216,-2.6038483821997875,-0.10888392708698907,2.4681821257803174,0.826474908251239,0.0010601459559756523,0.0007828902172358932,0.00019036499620286298,-7.569715710200844e-05,-8.182929953636783e-05,-0.0002551462585194166,-0.002035087389152767,0.0,0.0,0.0,0.0,0.0,0.0,0.0,-0.0001958655765479378,-0.00010496820109479055,-0.00027704185286084575,-8.421159066607231e-05,7.091502348582912e-05,6.080288015875013e-05,1.0637190944517982e-05,-0.0010601459559756523,-0.0007828902172358932,-0.00019036499620286298,7.569715710200844e-05,8.182929953636783e-05,0.0002551462585194166,0.002035087389152767,0.4029781222343445,19.868005752563477,0.3713042438030243,-20.007356643676758,-0.5523582100868225,-2.4694857597351074,0.15964071452617645,0
3,0.009438753128051758,-0.3752071261405945,-19.844202041625977,-0.3990752398967743,20.031160354614258,0.5459495186805725,2.4694857597351074,-0.21457235515117645,0.0,0.0,0.0,0.0,0.0,0.0,0.0,-0.39377024776879976,-0.12246911070290002,-0.18392532087534125,0.24689402026222282,-0.027507433917392545,0.08966734716563537,-0.20293898244876102,1.2136353105034743,-0.2201428995844798,-0.0072328379001272355,-2.6037657143353337,-0.108954130033652,2.4681216758975286,0.8264703745759195,1.2134413937687574,-0.2202432315892585,-0.0075118285948192216,-2.6038483821997875,-0.10888392708698907,2.4681821257803174,0.826474908251239,-0.00022452237637566396,0.00036607205484114974,0.0005587958831083032,-0.00020133083365187735,0.0003213704924006558,-0.00026468986186966106,0.00019918693374063986,0.0,0.0,0.0,0.0,0.0,0.0,0.0,-0.00019391673471691462,-0.00010033200477868598,-0.000278990694691986,-8.266786445387808e-05,7.020294666292004e-05,6.0449882788748965e-05,4.533675319495778e-06,0.00022452237637566396,-0.00036607205484114974,-0.0005587958831083032,0.00020133083365187735,-0.0003213704924006558,0.00026468986186966106,-0.00019918693374063986,0.3752071261405945,19.844202041625977,0.3990752398967743,-20.031160354614258,-0.5459495186805725,-2.4694857597351074,0.21457235515117645,0
4,0.014440536499023438,-0.3752071261405945,-19.844202041625977,-0.3990752398967743,20.031160354614258,0.5459495186805725,2.4694857597351074,-0.21457235515117645,0.0,0.0,0.0,0.0,0.0,0.0,0.0,-0.39377024776879976,-0.12246911070290002,-0.18392532087534125,0.24689402026222282,-0.027507433917392545,0.08966734716563537,-0.20293898244876102,1.2136353105034743,-0.2201428995844798,-0.0072328379001272355,-2.6037657143353337,-0.108954130033652,2.4681216758975286,0.8264703745759195,1.2134413937687574,-0.2202432315892585,-0.0075118285948192216,-2.6038483821997875,-0.10888392708698907,2.4681821257803174,0.826474908251239,-0.00022452237637566396,0.00036607205484114974,0.0005587958831083032,-0.00020133083365187735,0.0003213704924006558,-0.00026468986186966106,0.00019918693374063986,0.0,0.0,0.0,0.0,0.0,0.0,0.0,-0.00019391673471691462,-0.00010033200477868598,-0.000278990694691986,-8.266786445387808e-05,7.020294666292004e-05,6.0449882788748965e-05,4.533675319495778e-06,0.00022452237637566396,-0.00036607205484114974,-0.0005587958831083032,0.00020133083365187735,-0.0003213704924006558,0.00026468986186966106,-0.00019918693374063986,0.3752071261405945,19.844202041625977,0.3990752398967743,-20.031160354614258,-0.5459495186805725,-2.4694857597351074,0.21457235515117645,0
5,0.019439220428466797,-0.3514034152030945,-19.868005752563477,-0.4228789508342743,20.031160354614258,0.5523582100868225,2.4694857597351074,-0.21457235515117645,0.0,0.0,0.0,0.0,0.0,0.0,0.0,-0.3959663025608248,-0.11903099196998644,-0.18399647959097645,0.2511529993075675,-0.027689294094279938,0.09024121315416257,-0.2026888498219614,1.2136336400676189,-0.22014052930536887,-0.007231167464271972,-2.603765944028723,-0.1089548421104749,2.4681213226854823,0.8264703745759195,1.2134413937687574,-0.2202432315892585,-0.0075118285948192216,-2.6038483821997875,-0.10888392708698907,2.4681821257803174,0.826474908251239,-0.0013604663196732883,0.000911785593981773,0.0007460805046666007,0.00018149681972686927,0.00016177945854421784,-0.00019289247193352092,0.0005377122995657678,0.0,0.0,0.0,0.0,0.0,0.0,0.0,-0.00019224629886149813,-0.00010270228388961633,-0.00028066113054724985,-8.243817106468043e-05,7.091502348582912e-05,6.080309483502688e-05,4.533675319495778e-06,0.0013604663196732883,-0.000911785593981773,-0.0007460805046666007,-0.00018149681972686927,-0.00016177945854421784,0.00019289247193352092,-0.0005377122995657678,0.3514034152030945,19.868005752563477,0.4228789508342743,-20.031160354614258,-0.5523582100868225,-2.4694857597351074,0.21457235515117645,0
6,0.02443671226501465,-0.3514034152030945,-19.868005752563477,-0.4228789508342743,20.031160354614258,0.5523582100868225,2.4694857597351074,-0.21457235515117645,0.0,0.0,0.0,0.0,0.0,0.0,0.0,-0.3959663025608248,-0.11903099196998644,-0.18399647959097645,0.2511529993075675,-0.027689294094279938,0.09024121315416257,-0.2026888498219614,1.2136336400676189,-0.22014052930536887,-0.007231167464271972,-2.603765944028723,-0.1089548421104749,2.4681213226854823,0.8264703745759195,1.2134413937687574,-0.2202432315892585,-0.0075118285948192216,-2.6038483821997875,-0.10888392708698907,2.4681821257803174,0.826474908251239,-0.0013604663196732883,0.000911785593981773,0.0007460805046666007,0.00018149681972686927,0.00016177945854421784,-0.00019289247193352092,0.0005377122995657678,0.0,0.0,0.0,0.0,0.0,0.0,0.0,-0.00019224629886149813,-0.00010270228388961633,-0.00028066113054724985,-8.243817106468043e-05,7.091502348582912e-05,6.080309483502688e-05,4.533675319495778e-06,0.0013604663196732883,-0.000911785593981773,-0.0007460805046666007,-0.00018149681972686927,-0.00016177945854421784,0.00019289247193352092,-0.0005377122995657678,0.3514034152030945,19.868005752563477,0.4228789508342743,-20.031160354614258,-0.5523582100868225,-2.4694857597351074,0.21457235515117645,0
7,0.02944159507751465,-0.4505855441093445,-19.868005752563477,-0.3990752398967743,20.007356643676758,0.5578513741493225,2.4694857597351074,-0.22830526530742645,0.0,0.0,0.0,0.0,0.0,0.0,0.0,-0.3936850676599323,-0.11950791516672409,-0.18455376620117034,0.2527064248818699,-0.027846616491019955,0.09055612482277321,-0.20180856170103834,1.213640600217016,-0.2201382643731483,-0.0072328379001272355,-2.603764272543514,-0.10895549189185899,2.4681223823229472,0.8264719004548258,1.2134413937687574,-0.2202432315892585,-0.0075118285948192216,-2.6038483821997875,-0.10888392708698907,2.4681821257803174,0.826474908251239,0.0009100912875002382,-0.0001406162670742025,-0.00013625183382561358,0.0005578163996286943,6.535797091837322e-05,-0.00016940855403909524,0.0009144607341638648,0.0,0.0,0.0,0.0,0.0,0.0,0.0,-0.00019920644825854872,-0.00010496721611019666,-0.000278990694691986,-8.41096562735899e-05,7.15648048699169e-05,5.974345737014275e-05,3.0077964132679824e-06,-0.0009100912875002382,0.0001406162670742025,0.00013625183382561358,-0.0005578163996286943,-6.535797091837322e-05,0.00016940855403909524,-0.0009144607341638648,0.4505855441093445,19.868005752563477,0.3990752398967743,-20.007356643676758,-0.5578513741493225,-2.4694857597351074,0.22830526530742645,0
8,0.03444385528564453,-0.4505855441093445,-19.868005752563477,-0.3990752398967743,20.007356643676758,0.5578513741493225,2.4694857597351074,-0.22830526530742645,0.0,0.0,0.0,0.0,0.0,0.0,0.0,-0.3936850676599323,-0.11950791516672409,-0.18455376620117034,0.2527064248818699,-0.027846616491019955,0.09055612482277321,-0.20180856170103834,1.213640600217016,-0.2201382643731483,-0.0072328379001272355,-2.603764272543514,-0.10895549189185899,2.4681223823229472,0.8264719004548258,1.2134413937687574,-0.2202432315892585,-0.0075118285948192216,-2.6038483821997875,-0.10888392708698907,2.4681821257803174,0.826474908251239,0.0009100912875002382,-0.0001406162670742025,-0.00013625183382561358,0.0005578163996286943,6.535797091837322e-05,-0.00016940855403909524,0.0009144607341638648,0.0,0.0,0.0,0.0,0.0,0.0,0.0,-0.00019920644825854872,-0.00010496721611019666,-0.000278990694691986,-8.41096562735899e-05,7.15648048699169e-05,5.974345737014275e-05,3.0077964132679824e-06,-0.0009100912875002382,0.0001406162670742025,0.00013625183382561358,-0.0005578163996286943,-6.535797091837322e-05,0.00016940855403909524,-0.0009144607341638648,0.4505855441093445,19.868005752563477,0.3990752398967743,-20.007356643676758,-0.5578513741493225,-2.4694857597351074,0.22830526530742645,0
9,0.03944563865661621,-0.4029781222343445,-19.868005752563477,-0.3475005328655243,19.983552932739258,0.5642600655555725,2.4566683769226074,-0.17337362468242645,0.0,0.0,0.0,0.0,0.0,0.0,0.0,-0.3951206732803645,-0.12042457251021975,-0.18737378290271764,0.25252956792828707,-0.02801053326237895,0.09095235690413145,-0.20297950404965617,1.2136372593453053,-0.22013815840563444,-0.007236457177813639,-2.603762603157439,-0.1089561645390829,2.468122746844445,0.8264658014613572,1.2134413937687574,-0.2202432315892585,-0.0075118285948192216,-2.6038483821997875,-0.10888392708698907,2.4681821257803174,0.826474908251239,0.00016882198895285132,-0.0004027413713706719,-0.0016428498440593188,0.0009502352364542624,-0.00045210174646285014,4.823711236921651e-05,-0.0019057454773967455,0.0,0.0,0.0,0.0,0.0,0.0,0.0,-0.0001958655765479378,-0.00010507318362404372,-0.0002753714170055828,-8.577904234874367e-05,7.223745209382348e-05,5.937893587226739e-05,9.106789881863087e-06,-0.00016882198895285132,0.0004027413713706719,0.0016428498440593188,-0.0009502352364542624,0.00045210174646285014,-4.823711236921651e-05,0.0019057454773967455,0.4029781222343445,19.868005752563477,0.3475005328655243,-19.983552932739258,-0.5642600655555725,-2.4566683769226074,0.17337362468242645,0
10,0.044439077377319336,-0.4029781222343445,-19.868005752563477,-0.3475005328655243,19.983552932739258,0.5642600655555725,2.4566683769226074,-0.17337362468242645,0.0,0.0,0.0,0.0,0.0,0.0,0.0,-0.3951206732803645,-0.12042457251021975,-0.18737378290271764,0.25252956792828707,-0.02801053326237895,0.09095235690413145,-0.20297950404965617,1.2136372593453053,-0.22013815840563444,-0.007236457177813639,-2.603762603157439,-0.1089561645390829,2.468122746844445,0.8264658014613572,1.2134413937687574,-0.2202432315892585,-0.0075118285948192216,-2.6038483821997875,-0.10888392708698907,2.4681821257803174,0.826474908251239,0.00016882198895285132,-0.0004027413713706719,-0.0016428498440593188,0.0009502352364542624,-0.00045210174646285014,4.823711236921651e-05,-0.0019057454773967455,0.0,0.0,0.0,0.0,0.0,0.0,0.0,-0.0001958655765479378,-0.00010507318362404372,-0.0002753714170055828,-8.577904234874367e-05,7.223745209382348e-05,5.937893587226739e-05,9.106789881863087e-06,-0.00016882198895285132,0.0004027413713706719,0.0016428498440593188,-0.0009502352364542624,0.00045210174646285014,-4.823711236921651e-05,0.0019057454773967455,0.4029781222343445,19.868005752563477,0.3475005328655243,-19.983552932739258,-0.5642600655555725,-2.4566683769226074,0.17337362468242645,0
11,0.049439430236816406,-0.3752071261405945,-19.816431045532227,-0.3713042438030243,20.031160354614258,0.5642600655555725,2.4630770683288574,-0.20083944499492645,0.0,0.0,0.0,0.0,0.0,0.0,0.0,-0.39650775249274606,-0.11440607478208689,-0.1912473301512966,0.2470277824277203,-0.028232653363521307,0.08989573704765076,-0.2048573038995793,1.2136353105034743,-0.22014248631572167,-0.007234786741958376,-2.60376586707982,-0.10895616453886033,2.468122034761641,0.8264688486970388,1.2134413937687574,-0.2202432315892585,-0.0075118285948192216,-2.6038483821997875,-0.10888392708698907,2.4681821257803174,0.826474908251239,-0.0003610241208898219,-0.0009420821057647931,-0.0006767667620360177,-8.93647457052741e-05,-0.00025665693830541776,0.00017580027196626054,-0.0002574848187636903,0.0,0.0,0.0,0.0,0.0,0.0,0.0,-0.00019391673471691462,-0.0001007452735368175,-0.00027704185286084575,-8.251511996748562e-05,7.223745187125152e-05,6.009101867654465e-05,6.059554200188444e-06,0.0003610241208898219,0.0009420821057647931,0.0006767667620360177,8.93647457052741e-05,0.00025665693830541776,-0.00017580027196626054,0.0002574848187636903,0.3752071261405945,19.816431045532227,0.3713042438030243,-20.031160354614258,-0.5642600655555725,-2.4630770683288574,0.20083944499492645,0
12,0.05439877510070801,-0.3752071261405945,-19.816431045532227,-0.3713042438030243,20.031160354614258,0.5642600655555725,2.4630770683288574,-0.20083944499492645,0.0,0.0,0.0,0.0,0.0,0.0,0.0,-0.39650775249274606,-0.11440607478208689,-0.1912473301512966,0.2470277824277203,-0.028232653363521307,0.08989573704765076,-0.2048573038995793,1.2136353105034743,-0.22014248631572167,-0.007234786741958376,-2.60376586707982,-0.10895616453886033,2.468122034761641,0.8264688486970388,1.2134413937687574,-0.2202432315892585,-0.0075118285948192216,-2.6038483821997875,-0.10888392708698907,2.4681821257803174,0.826474908251239,-0.0003610241208898219,-0.0009420821057647931,-0.0006767667620360177,-8.93647457052741e-05,-0.00025665693830541776,0.00017580027196626054,-0.0002574848187636903,0.0,0.0,0.0,0.0,0.0,0.0,0.0,-0.00019391673471691462,-0.0001007452735368175,-0.00027704185286084575,-8.251511996748562e-05,7.223745187125152e-05,6.009101867654465e-05,6.059554200188444e-06,0.0003610241208898219,0.0009420821057647931,0.0006767667620360177,8.93647457052741e-05,0.00025665693830541776,-0.00017580027196626054,0.0002574848187636903,0.3752071261405945,19.816431045532227,0.3713042438030243,-20.031160354614258,-0.5642600655555725,-2.4630770683288574,0.20083944499492645,0
13,0.059441328048706055,-0.4267818331718445,-19.868005752563477,-0.3990752398967743,20.007356643676758,0.5578513741493225,2.4694857597351074,-0.18710653483867645,0.0,0.0,0.0,0.0,0.0,0.0,0.0,-0.39958482384134836,-0.12087970511965325,-0.19611140517721334,0.2496234579723956,-0.027560161576146387,0.09042346329461079,-0.20528405899600594,1.2136389297811607,-0.22013816716559256,-0.0072328379001272355,-2.6037642706525954,-0.10895438785685432,2.468121322684818,0.8264673228181071,1.2134413937687574,-0.2202432315892585,-0.0075118285948192216,-2.6038483821997875,-0.10888392708698907,2.4681821257803174,0.826474908251239,0.000492426821262672,-0.00012077062172065532,-3.263229604925744e-05,0.0005321784243873358,-3.363036130461842e-05,-0.00014244075157031106,-0.0010372137071804678,0.0,0.0,0.0,0.0,0.0,0.0,0.0,-0.00019753601240335428,-0.00010506442366592372,-0.000278990694691986,-8.411154719212277e-05,7.04607698652493e-05,6.080309549938434e-05,7.585433131951369e-06,-0.000492426821262672,0.00012077062172065532,3.263229604925744e-05,-0.0005321784243873358,3.363036130461842e-05,0.00014244075157031106,0.0010372137071804678,0.4267818331718445,19.868005752563477,0.3990752398967743,-20.007356643676758,-0.5578513741493225,-2.4694857597351074,0.18710653483867645,0
14,0.06443643569946289,-0.4267818331718445,-19.868005752563477,-0.3990752398967743,20.007356643676758,0.5578513741493225,2.4694857597351074,-0.18710653483867645,0.0,0.0,0.0,0.0,0.0,0.0,0.0,-0.39958482384134836,-0.12087970511965325,-0.19611140517721334,0.2496234579723956,-0.027560161576146387,0.09042346329461079,-0.20528405899600594,1.2136389297811607,-0.22013816716559256,-0.0072328379001272355,-2.6037642706525954,-0.10895438785685432,2.468121322684818,0.8264673228181071,1.2134413937687574,-0.2202432315892585,-0.0075118285948192216,-2.6038483821997875,-0.10888392708698907,2.4681821257803174,0.826474908251239,0.000492426821262672,-0.00012077062172065532,-3.263229604925744e-05,0.0005321784243873358,-3.363036130461842e-05,-0.00014244075157031106,-0.0010372137071804678,0.0,0.0,0.0,0.0,0.0,0.0,0.0,-0.00019753601240335428,-0.00010506442366592372,-0.000278990694691986,-8.411154719212277e-05,7.04607698652493e-05,6.080309549938434e-05,7.585433131951369e-06,-0.000492426821262672,0.00012077062172065532,3.263229604925744e-05,-0.0005321784243873358,3.363036130461842e-05,0.00014244075157031106,0.0010372137071804678,0.4267818331718445,19.868005752563477,0.3990752398967743,-20.007356643676758,-0.5578513741493225,-2.4694857597351074,0.18710653483867645,0
15,0.06940007209777832,-0.4267818331718445,-19.868005752563477,-0.3990752398967743,20.007356643676758,0.5523582100868225,2.4630770683288574,-0.19351522624492645,0.0,0.0,0.0,0.0,0.0,0.0,0.0,-0.3957168187916031,-0.12085798973698611,-0.19032894065736888,0.24808694558382988,-0.028114485078625847,0.09038945526015425,-0.20547375175519392,1.2136389297811607,-0.22014028441205657,-0.0072328379001272355,-2.603764265090026,-0.10895484210847166,2.468122034761641,0.82646803489493,1.2134413937687574,-0.2202432315892585,-0.0075118285948192216,-2.6038483821997875,-0.10888392708698907,2.4681821257803174,0.826474908251239,0.0006773040045698808,0.0004006453645539686,0.00044224939852476936,0.0006027718929535595,0.0056335412095518895,-0.0002935181737541278,-0.00047841537691385456,0.0,0.0,0.0,0.0,0.0,0.0,0.0,-0.00019753601240335428,-0.00010294717720191193,-0.000278990694691986,-8.411710976163889e-05,7.091502148258433e-05,6.009101867654465e-05,6.8733563090006555e-06,-0.0006773040045698808,-0.0004006453645539686,-0.00044224939852476936,-0.0006027718929535595,-0.0056335412095518895,0.0002935181737541278,0.00047841537691385456,0.4267818331718445,19.868005752563477,0.3990752398967743,-20.007356643676758,-0.5523582100868225,-2.4630770683288574,0.19351522624492645,0
16,0.07476139068603516,-0.4267818331718445,-19.868005752563477,-0.3990752398967743,20.007356643676758,0.5523582100868225,2.4630770683288574,-0.19351522624492645,0.0,0.0,0.0,0.0,0.0,0.0,0.0,-0.3957168187916031,-0.12085798973698611,-0.19032894065736888,0.24808694558382988,-0.028114485078625847,0.09038945526015425,-0.20547375175519392,1.2136389297811607,-0.22014028441205657,-0.0072328379001272355,-2.603764265090026,-0.10895484210847166,2.468122034761641,0.82646803489493,1.2134413937687574,-0.2202432315892585,-0.0075118285948192216,-2.6038483821997875,-0.10888392708698907,2.4681821257803174,0.826474908251239,0.0006773040045698808,0.0004006453645539686,0.00044224939852476936,0.0006027718929535595,0.0056335412095518895,-0.0002935181737541278,-0.00047841537691385456,0.0,0.0,0.0,0.0,0.0,0.0,0.0,-0.00019753601240335428,-0.00010294717720191193,-0.000278990694691986,-8.411710976163889e-05,7.091502148258433e-05,6.009101867654465e-05,6.8733563090006555e-06,-0.0006773040045698808,-0.0004006453645539686,-0.00044224939852476936,-0.0006027718929535595,-0.0056335412095518895,0.0002935181737541278,0.00047841537691385456,0.4267818331718445,19.868005752563477,0.3990752398967743,-20.007356643676758,-0.5523582100868225,-2.4630770683288574,0.19351522624492645,0
17,0.07946181297302246,-0.4267818331718445,-19.891809463500977,-0.3713042438030243,20.007356643676758,0.5578513741493225,2.4694857597351074,-0.22098104655742645,0.0,0.0,0.0,0.0,0.0,0.0,0.0,-0.3963259697259724,-0.12020462529945422,-0.18867809827026102,0.24815439107218956,-0.02803396904464191,0.09061572127590349,-0.2039096379082598,1.2136389297811607,-0.22013648808918923,-0.007234786741958376,-2.603764270758829,-0.10895438785685431,2.4681213270454685,0.8264710866527425,1.2134413937687574,-0.2202432315892585,-0.0075118285948192216,-2.6038483821997875,-0.10888392708698907,2.4681821257803174,0.826474908251239,0.0008564902320625697,0.0006860284794197901,-0.0001500490463751843,0.0005494098088637236,0.00011239213194545318,-0.00012375106240364943,0.0006813090626005944,0.0,0.0,0.0,0.0,0.0,0.0,0.0,-0.00019753601240335428,-0.00010674350006925626,-0.00027704185286084575,-8.411144095843426e-05,7.046076986523542e-05,6.079873484887699e-05,3.8215984965450644e-06,-0.0008564902320625697,-0.0006860284794197901,0.0001500490463751843,-0.0005494098088637236,-0.00011239213194545318,0.00012375106240364943,-0.0006813090626005944,0.4267818331718445,19.891809463500977,0.3713042438030243,-20.007356643676758,-0.5578513741493225,-2.4694857597351074,0.22098104655742645,0
18,0.08443522453308105,-0.4267818331718445,-19.891809463500977,-0.3713042438030243,20.007356643676758,0.5578513741493225,2.4694857597351074,-0.22098104655742645,0.0,0.0,0.0,0.0,0.0,0.0,0.0,-0.3963259697259724,-0.12020462529945422,-0.18867809827026102,0.24815439107218956,-0.02803396904464191,0.09061572127590349,-0.2039096379082598,1.2136389297811607,-0.22013648808918923,-0.007234786741958376,-2.603764270758829,-0.10895438785685431,2.4681213270454685,0.8264710866527425,1.2134413937687574,-0.2202432315892585,-0.0075118285948192216,-2.6038483821997875,-0.10888392708698907,2.4681821257803174,0.826474908251239,0.0008564902320625697,0.0006860284794197901,-0.0001500490463751843,0.0005494098088637236,0.00011239213194545318,-0.00012375106240364943,0.0006813090626005944,0.0,0.0,0.0,0.0,0.0,0.0,0.0,-0.00019753601240335428,-0.00010674350006925626,-0.00027704185286084575,-8.411144095843426e-05,7.046076986523542e-05,6.079873484887699e-05,3.8215984965450644e-06,-0.0008564902320625697,-0.0006860284794197901,0.0001500490463751843,-0.0005494098088637236,-0.00011239213194545318,0.00012375106240364943,-0.0006813090626005944,0.4267818331718445,19.891809463500977,0.3713042438030243,-20.007356643676758,-0.5578513741493225,-2.4694857597351074,0.22098104655742645,0
19,0.08939862251281738,-0.3514034152030945,-19.844202041625977,-0.3713042438030243,20.007356643676758,0.5459495186805725,2.4694857597351074,-0.23471395671367645,0.0,0.0,0.0,0.0,0.0,0.0,0.0,-0.3938410883741765,-0.1201429400697596,-0.18560148026701187,0.24839629351992618,-0.027570542304604963,0.09086016268616978,-0.20296864352136337,1.2136336400676189,-0.22013982887689448,-0.007234786741958376,-2.603764194229441,-0.10895413002764226,2.4681213226848424,0.8264726125316487,1.2134413937687574,-0.2202432315892585,-0.0075118285948192216,-2.6038483821997875,-0.10888392708698907,2.4681821257803174,0.826474908251239,-0.0004775611934190985,-0.00047365094096029286,0.0003388740034038632,0.0004731670211934469,0.0003441462578437755,-0.0002385392599291394,0.0011385242396412993,0.0,0.0,0.0,0.0,0.0,0.0,0.0,-0.00019224629886149813,-0.00010340271236400356,-0.00027704185286084575,-8.41879703465942e-05,7.020294065318566e-05,6.0803095474959434e-05,2.295719590317269e-06,0.0004775611934190985,0.00047365094096029286,-0.0003388740034038632,-0.0004731670211934469,-0.0003441462578437755,0.0002385392599291394,-0.0011385242396412993,0.3514034152030945,19.844202041625977,0.3713042438030243,-20.007356643676758,-0.5459495186805725,-2.4694857597351074,0.23471395671367645,0
20,0.09443545341491699,-0.3514034152030945,-19.844202041625977,-0.3713042438030243,20.007356643676758,0.5459495186805725,2.4694857597351074,-0.23471395671367645,0.0,0.0,0.0,0.0,0.0,0.0,0.0,-0.3938410883741765,-0.1201429400697596,-0.18560148026701187,0.24839629351992618,-0.027570542304604963,0.09086016268616978,-0.20296864352136337,1.2136336400676189,-0.22013982887689448,-0.007234786741958376,-2.603764194229441,-0.10895413002764226,2.4681213226848424,0.8264726125316487,1.2134413937687574,-0.2202432315892585,-0.0075118285948192216,-2.6038483821997875,-0.10888392708698907,2.4681821257803174,0.826474908251239,-0.0004775611934190985,-0.00047365094096029286,0.0003388740034038632,0.0004731670211934469,0.0003441462578437755,-0.0002385392599291394,0.0011385242396412993,0.0,0.0,0.0,0.0,0.0,0.0,0.0,-0.00019224629886149813,-0.00010340271236400356,-0.00027704185286084575,-8.41879703465942e-05,7.020294065318566e-05,6.0803095474959434e-05,2.295719590317269e-06,0.0004775611934190985,0.00047365094096029286,-0.0003388740034038632,-0.0004731670211934469,-0.0003441462578437755,0.0002385392599291394,-0.0011385242396412993,0.3514034152030945,19.844202041625977,0.3713042438030243,-20.007356643676758,-0.5459495186805725,-2.4694857597351074,0.23471395671367645,0
21,0.09944629669189453,-0.3514034152030945,-19.844202041625977,-0.3713042438030243,20.007356643676758,0.5459495186805725,2.4694857597351074,-0.23471395671367645,0.0,0.0,0.0,0.0,0.0,0.0,0.0,-0.3938410883741765,-0.1201429400697596,-0.18560148026701187,0.24839629351992618,-0.027570542304604963,0.09086016268616978,-0.20296864352136337,1.2136336400676189,-0.22013982887689448,-0.007234786741958376,-2.603764194229441,-0.10895413002764226,2.4681213226848424,0.8264726125316487,1.2134413937687574,-0.2202432315892585,-0.0075118285948192216,-2.6038483821997875,-0.10888392708698907,2.4681821257803174,0.826474908251239,-0.0004775611934190985,-0.00047365094096029286,0.0003388740034038632,0.0004731670211934469,0.0003441462578437755,-0.0002385392599291394,0.0011385242396412993,0.0,0.0,0.0,0.0,0.0,0.0,0.0,-0.00019224629886149813,-0.00010340271236400356,-0.00027704185286084575,-8.41879703465942e-05,7.020294065318566e-05,6.0803095474959434e-05,2.295719590317269e-06,0.0004775611934190985,0.00047365094096029286,-0.0003388740034038632,-0.0004731670211934469,-0.0003441462578437755,0.0002385392599291394,-0.0011385242396412993,0.3514034152030945,19.844202041625977,0.3713042438030243,-20.007356643676758,-0.5459495186805725,-2.4694857597351074,0.23471395671367645,0
22,0.10445094108581543,-0.3514034152030945,-19.844202041625977,-0.3713042438030243,20.007356643676758,0.5459495186805725,2.4694857597351074,-0.23471395671367645,0.0,0.0,0.0,0.0,0.0,0.0,0.0,-0.3938410883741765,-0.1201429400697596,-0.18560148026701187,0.24839629351992618,-0.027570542304604963,0.09086016268616978,-0.20296864352136337,1.2136336400676189,-0.22013982887689448,-0.007234786741958376,-2.603764194229441,-0.10895413002764226,2.4681213226848424,0.8264726125316487,1.2134413937687574,-0.2202432315892585,-0.0075118285948192216,-2.6038483821997875,-0.10888392708698907,2.4681821257803174,0.826474908251239,-0.0004775611934190985,-0.00047365094096029286,0.0003388740034038632,0.0004731670211934469,0.0003441462578437755,-0.0002385392599291394,0.0011385242396412993,0.0,0.0,0.0,0.0,0.0,0.0,0.0,-0.00019224629886149813,-0.00010340271236400356,-0.00027704185286084575,-8.41879703465942e-05,7.020294065318566e-05,6.0803095474959434e-05,2.295719590317269e-06,0.0004775611934190985,0.00047365094096029286,-0.0003388740034038632,-0.0004731670211934469,-0.0003441462578437755,0.0002385392599291394,-0.0011385242396412993,0.3514034152030945,19.844202041625977,0.3713042438030243,-20.007356643676758,-0.5459495186805725,-2.4694857597351074,0.23471395671367645,0
23,0.10945916175842285,-0.3752071261405945,-19.891809463500977,-0.3236968219280243,19.983552932739258,0.5523582100868225,2.4566683769226074,-0.22830526530742645,0.0,0.0,0.0,0.0,0.0,0.0,0.0,-0.39400192196157485,-0.11716090400920881,-0.186866202311283,0.2448791520258671,-0.027943191101001484,0.09045797712268488,-0.20306820643073814,1.2136353105034743,-0.2201364884012085,-0.007238127613668902,-2.6037626031572954,-0.10895484162368696,2.4681227468384637,0.8264719004548258,1.2134413937687574,-0.2202432315892585,-0.0075118285948192216,-2.6038483821997875,-0.10888392708698907,2.4681821257803174,0.826474908251239,-5.911141021451198e-05,0.0006882035105454798,-0.0011376540148311355,0.0006952149317759696,0.0003289815813551504,0.0001758105540989754,0.0013516643970765687,0.0,0.0,0.0,0.0,0.0,0.0,0.0,-0.00019391673471691462,-0.00010674318804998473,-0.00027370098115031983,-8.577904249218449e-05,7.091453669788583e-05,5.937894185370496e-05,3.0077964132679824e-06,5.911141021451198e-05,-0.0006882035105454798,0.0011376540148311355,-0.0006952149317759696,-0.0003289815813551504,-0.0001758105540989754,-0.0013516643970765687,0.3752071261405945,19.891809463500977,0.3236968219280243,-19.983552932739258,-0.5523582100868225,-2.4566683769226074,0.22830526530742645,0
24,0.11442065238952637,-0.3752071261405945,-19.891809463500977,-0.3236968219280243,19.983552932739258,0.5523582100868225,2.4566683769226074,-0.22830526530742645,0.0,0.0,0.0,0.0,0.0,0.0,0.0,-0.39400192196157485,-0.11716090400920881,-0.186866202311283,0.2448791520258671,-0.027943191101001484,0.09045797712268488,-0.20306820643073814,1.2136353105034743,-0.2201364884012085,-0.007238127613668902,-2.6037626031572954,-0.10895484162368696,2.4681227468384637,0.8264719004548258,1.2134413937687574,-0.2202432315892585,-0.0075118285948192216,-2.6038483821997875,-0.10888392708698907,2.4681821257803174,0.826474908251239,-5.911141021451198e-05,0.0006882035105454798,-0.0011376540148311355,0.0006952149317759696,0.0003289815813551504,0.0001758105540989754,0.0013516643970765687,0.0,0.0,0.0,0.0,0.0,0.0,0.0,-0.00019391673471691462,-0.00010674318804998473,-0.00027370098115031983,-8.577904249218449e-05,7.091453669788583e-05,5.937894185370496e-05,3.0077964132679824e-06,5.911141021451198e-05,-0.0006882035105454798,0.0011376540148311355,-0.0006952149317759696,-0.0003289815813551504,-0.0001758105540989754,-0.0013516643970765687,0.3752071261405945,19.891809463500977,0.3236968219280243,-19.983552932739258,-0.5523582100868225,-2.4566683769226074,0.22830526530742645,0
25,0.11944341659545898,-0.4783565402030945,-19.891809463500977,-0.3990752398967743,20.007356643676758,0.5697532296180725,2.4566683769226074,-0.22098104655742645,0.0,0.0,0.0,0.0,0.0,0.0,0.0,-0.3993384215703261,-0.1211545273161836,-0.19044015067633666,0.24616448430395266,-0.026910077318672274,0.08986724263938652,-0.20272154103503837,1.213642549058847,-0.22013885138726075,-0.0072328379001272355,-2.603762207298948,-0.10895677440363487,2.4681227468384637,0.8264710866527425,1.2134413937687574,-0.2202432315892585,-0.0075118285948192216,-2.6038483821997875,-0.10888392708698907,2.4681821257803174,0.826474908251239,0.001318752514435057,0.0005023185445111687,4.0842681153705305e-05,0.0008112348860853398,-0.00041960016344655393,7.734992893878364e-05,-7.720809816110435e-05,0.0,0.0,0.0,0.0,0.0,0.0,0.0,-0.0002011552900895719,-0.00010438020199773912,-0.000278990694691986,-8.617490083961954e-05,7.28473166457938e-05,5.937894185370496e-05,3.8215984965450644e-06,-0.001318752514435057,-0.0005023185445111687,-4.0842681153705305e-05,-0.0008112348860853398,0.00041960016344655393,-7.734992893878364e-05,7.720809816110435e-05,0.4783565402030945,19.891809463500977,0.3990752398967743,-20.007356643676758,-0.5697532296180725,-2.4566683769226074,0.22098104655742645,0
26,0.12439346313476562,-0.4783565402030945,-19.891809463500977,-0.3990752398967743,20.007356643676758,0.5697532296180725,2.4566683769226074,-0.22098104655742645,0.0,0.0,0.0,0.0,0.0,0.0,0.0,-0.3993384215703261,-0.1211545273161836,-0.19044015067633666,0.24616448430395266,-0.026910077318672274,0.08986724263938652,-0.20272154103503837,1.213642549058847,-0.22013885138726075,-0.0072328379001272355,-2.603762207298948,-0.10895677440363487,2.4681227468384637,0.8264710866527425,1.2134413937687574,-0.2202432315892585,-0.0075118285948192216,-2.6038483821997875,-0.10888392708698907,2.4681821257803174,0.826474908251239,0.001318752514435057,0.0005023185445111687,4.0842681153705305e-05,0.0008112348860853398,-0.00041960016344655393,7.734992893878364e-05,-7.720809816110435e-05,0.0,0.0,0.0,0.0,0.0,0.0,0.0,-0.0002011552900895719,-0.00010438020199773912,-0.000278990694691986,-8.617490083961954e-05,7.28473166457938e-05,5.937894185370496e-05,3.8215984965450644e-06,-0.001318752514435057,-0.0005023185445111687,-4.0842681153705305e-05,-0.0008112348860853398,0.00041960016344655393,-7.734992893878364e-05,7.720809816110435e-05,0.4783565402030945,19.891809463500977,0.3990752398967743,-20.007356643676758,-0.5697532296180725,-2.4566683769226074,0.22098104655742645,0
27,0.12946033477783203,-0.4267818331718445,-19.868005752563477,-0.4466826617717743,20.007356643676758,0.5523582100868225,2.4694857597351074,-0.21457235515117645,0.0,0.0,0.0,0.0,0.0,0.0,0.0,-0.3984997347308446,-0.12486279901082589,-0.18539680281105103,0.24319874193914473,-0.027315541051412262,0.08921051266666409,-0.20345182582106158,1.2136389297811607,-0.220138161334563,-0.007229497028416709,-2.603764273581636,-0.10895484211047214,2.468121322684818,0.8264703745759195,1.2134413937687574,-0.2202432315892585,-0.0075118285948192216,-2.6038483821997875,-0.10888392708698907,2.4681821257803174,0.826474908251239,0.00031394315519218805,-0.0006083463952205265,0.0005904765355267845,-3.7797882759396456e-05,0.00024355475200806177,-0.0003553299346976666,0.00029017005963724964,0.0,0.0,0.0,0.0,0.0,0.0,0.0,-0.00019753601240335428,-0.00010507025469549958,-0.0002823315664025128,-8.410861815155712e-05,7.091502348306744e-05,6.080309549938434e-05,4.533675319495778e-06,-0.00031394315519218805,0.0006083463952205265,-0.0005904765355267845,3.7797882759396456e-05,-0.00024355475200806177,0.0003553299346976666,-0.00029017005963724964,0.4267818331718445,19.868005752563477,0.4466826617717743,-20.007356643676758,-0.5523582100868225,-2.4694857597351074,0.21457235515117645,0
28,0.1344466209411621,-0.4267818331718445,-19.868005752563477,-0.4466826617717743,20.007356643676758,0.5523582100868225,2.4694857597351074,-0.21457235515117645,0.0,0.0,0.0,0.0,0.0,0.0,0.0,-0.3984997347308446,-0.12486279901082589,-0.18539680281105103,0.24319874193914473,-0.027315541051412262,0.08921051266666409,-0.20345182582106158,1.2136389297811607,-0.220138161334563,-0.007229497028416709,-2.603764273581636,-0.10895484211047214,2.468121322684818,0.8264703745759195,1.2134413937687574,-0.2202432315892585,-0.0075118285948192216,-2.6038483821997875,-0.10888392708698907,2.4681821257803174,0.826474908251239,0.00031394315519218805,-0.0006083463952205265,0.0005904765355267845,-3.7797882759396456e-05,0.00024355475200806177,-0.0003553299346976666,0.00029017005963724964,0.0,0.0,0.0,0.0,0.0,0.0,0.0,-0.00019753601240335428,-0.00010507025469549958,-0.0002823315664025128,-8.410861815155712e-05,7.091502348306744e-05,6.080309549938434e-05,4.533675319495778e-06,-0.00031394315519218805,0.0006083463952205265,-0.0005904765355267845,3.7797882759396456e-05,-0.00024355475200806177,0.0003553299346976666,-0.00029017005963724964,0.4267818331718445,19.868005752563477,0.4466826617717743,-20.007356643676758,-0.5523582100868225,-2.4694857597351074,0.21457235515117645,0
29,0.13945627212524414,-0.4267818331718445,-19.868005752563477,-0.4228789508342743,20.031160354614258,0.5523582100868225,2.4694857597351074,-0.17978231608867645,0.0,0.0,0.0,0.0,0.0,0.0,0.0,-0.4061687647913006,-0.12780050983775465,-0.19554604368304698,0.24421799116685894,-0.02695382974115816,0.09035741599852776,-0.20386904532322214,1.2136389297811607,-0.22013816718961063,-0.007231167464271972,-2.6037652269201415,-0.10895484211047489,2.468121322684818,0.8264665090160237,1.2134413937687574,-0.2202432315892585,-0.0075118285948192216,-2.6038483821997875,-0.10888392708698907,2.4681821257803174,0.826474908251239,-0.00031483838031673715,1.4985149647625048e-05,0.00013186379326518837,-0.00038275308856306183,0.000296960911783617,-0.0001641383314673006,-0.0038562929889866936,0.0,0.0,0.0,0.0,0.0,0.0,0.0,-0.00019753601240335428,-0.00010506439964785841,-0.00028066113054724985,-8.315527964608549e-05,7.091502348581524e-05,6.080309549938434e-05,8.399235215339473e-06,0.00031483838031673715,-1.4985149647625048e-05,-0.00013186379326518837,0.00038275308856306183,-0.000296960911783617,0.0001641383314673006,0.0038562929889866936,0.4267818331718445,19.868005752563477,0.4228789508342743,-20.031160354614258,-0.5523582100868225,-2.4694857597351074,0.17978231608867645,0
30,0.14444756507873535,-0.4267818331718445,-19.868005752563477,-0.4228789508342743,20.031160354614258,0.5523582100868225,2.4694857597351074,-0.17978231608867645,0.0,0.0,0.0,0.0,0.0,0.0,0.0,-0.4061687647913006,-0.12780050983775465,-0.19554604368304698,0.24421799116685894,-0.02695382974115816,0.09035741599852776,-0.20386904532322214,1.2136389297811607,-0.22013816718961063,-0.007231167464271972,-2.6037652269201415,-0.10895484211047489,2.468121322684818,0.8264665090160237,1.2134413937687574,-0.2202432315892585,-0.0075118285948192216,-2.6038483821997875,-0.10888392708698907,2.4681821257803174,0.826474908251239,-0.00031483838031673715,1.4985149647625048e-05,0.00013186379326518837,-0.00038275308856306183,0.000296960911783617,-0.0001641383314673006,-0.0038562929889866936,0.0,0.0,0.0,0.0,0.0,0.0,0.0,-0.00019753601240335428,-0.00010506439964785841,-0.00028066113054724985,-8.315527964608549e-05,7.091502348581524e-05,6.080309549938434e-05,8.399235215339473e-06,0.00031483838031673715,-1.4985149647625048e-05,-0.00013186379326518837,0.00038275308856306183,-0.000296960911783617,0.0001641383314673006,0.0038562929889866936,0.4267818331718445,19.868005752563477,0.4228789508342743,-20.031160354614258,-0.5523582100868225,-2.4694857597351074,0.17978231608867645,0
31,0.14943838119506836,-0.4029781222343445,-19.844202041625977,-0.3475005328655243,20.031160354614258,0.5642600655555725,2.4694857597351074,-0.15231649577617645,0.0,0.0,0.0,0.0,0.0,0.0,0.0,-0.40823473174683644,-0.12620948494199336,-0.19516771610247174,0.24301745029997412,-0.027690902744107283,0.09056051710831177,-0.20394971219227057,1.2136372593453053,-0.22014006505194078,-0.007236457177813639,-2.6037650255670832,-0.10895616453886031,2.468121322684818,0.8264634572582112,1.2134413937687574,-0.2202432315892585,-0.0075118285948192216,-2.6038483821997875,-0.10888392708698907,2.4681821257803174,0.826474908251239,-0.000467315059684266,-0.00045087564947938314,-0.0011369465758092414,-0.0001113573525041991,-0.00036195189130976526,-0.00035823893067522567,-0.0021336607788166218,0.0,0.0,0.0,0.0,0.0,0.0,0.0,-0.0001958655765479378,-0.00010316653731770598,-0.0002753714170055828,-8.335663270431226e-05,7.223745187123765e-05,6.080309549938434e-05,1.1450993027795064e-05,0.000467315059684266,0.00045087564947938314,0.0011369465758092414,0.0001113573525041991,0.00036195189130976526,0.00035823893067522567,0.0021336607788166218,0.4029781222343445,19.844202041625977,0.3475005328655243,-20.031160354614258,-0.5642600655555725,-2.4694857597351074,0.15231649577617645,0
32,0.1544361114501953,-0.4029781222343445,-19.844202041625977,-0.3475005328655243,20.031160354614258,0.5642600655555725,2.4694857597351074,-0.15231649577617645,0.0,0.0,0.0,0.0,0.0,0.0,0.0,-0.40823473174683644,-0.12620948494199336,-0.19516771610247174,0.24301745029997412,-0.027690902744107283,0.09056051710831177,-0.20394971219227057,1.2136372593453053,-0.22014006505194078,-0.007236457177813639,-2.6037650255670832,-0.10895616453886031,2.468121322684818,0.8264634572582112,1.2134413937687574,-0.2202432315892585,-0.0075118285948192216,-2.6038483821997875,-0.10888392708698907,2.4681821257803174,0.826474908251239,-0.000467315059684266,-0.00045087564947938314,-0.0011369465758092414,-0.0001113573525041991,-0.00036195189130976526,-0.00035823893067522567,-0.0021336607788166218,0.0,0.0,0.0,0.0,0.0,0.0,0.0,-0.0001958655765479378,-0.00010316653731770598,-0.0002753714170055828,-8.335663270431226e-05,7.223745187123765e-05,6.080309549938434e-05,1.1450993027795064e-05,0.000467315059684266,0.00045087564947938314,0.0011369465758092414,0.0001113573525041991,0.00036195189130976526,0.00035823893067522567,0.0021336607788166218,0.4029781222343445,19.844202041625977,0.3475005328655243,-20.031160354614258,-0.5642600655555725,-2.4694857597351074,0.15231649577617645,0
33,0.15944814682006836,-0.3514034152030945,-19.816431045532227,-0.3990752398967743,20.007356643676758,0.5642600655555725,2.4694857597351074,-0.16604940593242645,0.0,0.0,0.0,0.0,0.0,0.0,0.0,-0.4071222541942666,-0.10603790048847393,-0.191299133025617,0.2275459361034045,-0.028252314955149613,0.08693484200389312,-0.2040389564039588,1.2136336400676189,-0.22014177768405607,-0.0072328379001272355,-2.6037642735881152,-0.10895616453886031,2.46812133576677,0.8264649831371175,1.2134413937687574,-0.2202432315892585,-0.0075118285948192216,-2.6038483821997875,-0.10888392708698907,2.4681821257803174,0.826474908251239,-0.0009182942415855938,-0.0003238549144679773,0.0010927143170406605,0.00017650882144805297,-0.0004545981934930297,0.0019582851808637594,-0.001317066122690703,0.0,0.0,0.0,0.0,0.0,0.0,0.0,-0.00019224629886149813,-0.00010145390520241437,-0.000278990694691986,-8.410861167229555e-05,7.223745187123765e-05,6.07900135474182e-05,9.925114121567269e-06,0.0009182942415855938,0.0003238549144679773,-0.0010927143170406605,-0.00017650882144805297,0.0004545981934930297,-0.0019582851808637594,0.001317066122690703,0.3514034152030945,19.816431045532227,0.3990752398967743,-20.007356643676758,-0.5642600655555725,-2.4694857597351074,0.16604940593242645,0
34,0.16444158554077148,-0.3514034152030945,-19.816431045532227,-0.3990752398967743,20.007356643676758,0.5642600655555725,2.4694857597351074,-0.16604940593242645,0.0,0.0,0.0,0.0,0.0,0.0,0.0,-0.4071222541942666,-0.10603790048847393,-0.191299133025617,0.2275459361034045,-0.028252314955149613,0.08693484200389312,-0.2040389564039588,1.2136336400676189,-0.22014177768405607,-0.0072328379001272355,-2.6037642735881152,-0.10895616453886031,2.46812133576677,0.8264649831371175,1.2134413937687574,-0.2202432315892585,-0.0075118285948192216,-2.6038483821997875,-0.10888392708698907,2.4681821257803174,0.826474908251239,-0.0009182942415855938,-0.0003238549144679773,0.0010927143170406605,0.00017650882144805297,-0.0004545981934930297,0.0019582851808637594,-0.001317066122690703,0.0,0.0,0.0,0.0,0.0,0.0,0.0,-0.00019224629886149813,-0.00010145390520241437,-0.000278990694691986,-8.410861167229555e-05,7.223745187123765e-05,6.07900135474182e-05,9.925114121567269e-06,0.0009182942415855938,0.0003238549144679773,-0.0010927143170406605,-0.00017650882144805297,0.0004545981934930297,-0.0019582851808637594,0.001317066122690703,0.3514034152030945,19.816431045532227,0.3990752398967743,-20.007356643676758,-0.5642600655555725,-2.4694857597351074,0.16604940593242645,0
35,0.169447660446167,-0.4267818331718445,-19.868005752563477,-0.3713042438030243,19.983552932739258,0.5578513741493225,2.4694857597351074,-0.17978231608867645,0.0,0.0,0.0,0.0,0.0,0.0,0.0,-0.40363128469667986,-0.12539261343670255,-0.18800546566886916,0.2480957044616787,-0.028031067740524607,0.09182727598101574,-0.20389861679583185,1.2136389297811607,-0.22013840350860062,-0.007234786741958376,-2.6037626031574446,-0.10895545246203739,2.4681213226848917,0.8264665090160237,1.2134413937687574,-0.2202432315892585,-0.0075118285948192216,-2.6038483821997875,-0.10888392708698907,2.4681821257803174,0.826474908251239,0.0013481173343713637,-0.00010956372974192949,0.0002607398009623644,0.0009224790955218983,-0.0001997008754334717,-0.00022629739226935787,-0.000975141528848031,0.0,0.0,0.0,0.0,0.0,0.0,0.0,-0.00019753601240335428,-0.00010482808065787053,-0.00027704185286084575,-8.577904234297051e-05,7.152537504831469e-05,6.080309542566553e-05,8.399235215339473e-06,-0.0013481173343713637,0.00010956372974192949,-0.0002607398009623644,-0.0009224790955218983,0.0001997008754334717,0.00022629739226935787,0.000975141528848031,0.4267818331718445,19.868005752563477,0.3713042438030243,-19.983552932739258,-0.5578513741493225,-2.4694857597351074,0.17978231608867645,0
36,0.17444086074829102,-0.4267818331718445,-19.868005752563477,-0.3713042438030243,19.983552932739258,0.5578513741493225,2.4694857597351074,-0.17978231608867645,0.0,0.0,0.0,0.0,0.0,0.0,0.0,-0.40363128469667986,-0.12539261343670255,-0.18800546566886916,0.2480957044616787,-0.028031067740524607,0.09182727598101574,-0.20389861679583185,1.2136389297811607,-0.22013840350860062,-0.007234786741958376,-2.6037626031574446,-0.10895545246203739,2.4681213226848917,0.8264665090160237,1.2134413937687574,-0.2202432315892585,-0.0075118285948192216,-2.6038483821997875,-0.10888392708698907,2.4681821257803174,0.826474908251239,0.0013481173343713637,-0.00010956372974192949,0.0002607398009623644,0.0009224790955218983,-0.0001997008754334717,-0.00022629739226935787,-0.000975141528848031,0.0,0.0,0.0,0.0,0.0,0.0,0.0,-0.00019753601240335428,-0.00010482808065787053,-0.00027704185286084575,-8.577904234297051e-05,7.152537504831469e-05,6.080309542566553e-05,8.399235215339473e-06,-0.0013481173343713637,0.00010956372974192949,-0.0002607398009623644,-0.0009224790955218983,0.0001997008754334717,0.00022629739226935787,0.000975141528848031,0.4267818331718445,19.868005752563477,0.3713042438030243,-19.983552932739258,-0.5578513741493225,-2.4694857597351074,0.17978231608867645,0
37,0.1794588565826416,-0.4267818331718445,-19.891809463500977,-0.3990752398967743,20.007356643676758,0.5578513741493225,2.4630770683288574,-0.23471395671367645,0.0,0.0,0.0,0.0,0.0,0.0,0.0,-0.40152939516428204,-0.11675244511733458,-0.18552775432691396,0.24443242147763086,-0.028537867435312426,0.0913988469012584,-0.20381964588600637,1.2136389297811607,-0.2201364908867498,-0.0072328379001272355,-2.6037642735933,-0.10895545246203739,2.468122034761641,0.8264726125316487,1.2134413937687574,-0.2202432315892585,-0.0075118285948192216,-2.6038483821997875,-0.10888392708698907,2.4681821257803174,0.826474908251239,0.0007944503234596993,0.0006439200502094252,0.0006374088916492107,0.0002895846915299598,-0.00013150115303203609,-2.7122900450349614e-05,0.0013764133583112044,0.0,0.0,0.0,0.0,0.0,0.0,0.0,-0.00019753601240335428,-0.00010674070250868417,-0.000278990694691986,-8.410860648755403e-05,7.152537504831469e-05,6.009101867654465e-05,2.295719590317269e-06,-0.0007944503234596993,-0.0006439200502094252,-0.0006374088916492107,-0.0002895846915299598,0.00013150115303203609,2.7122900450349614e-05,-0.0013764133583112044,0.4267818331718445,19.891809463500977,0.3990752398967743,-20.007356643676758,-0.5578513741493225,-2.4630770683288574,0.23471395671367645,0
38,0.18444108963012695,-0.4267818331718445,-19.891809463500977,-0.3990752398967743,20.007356643676758,0.5578513741493225,2.4630770683288574,-0.23471395671367645,0.0,0.0,0.0,0.0,0.0,0.0,0.0,-0.40152939516428204,-0.11675244511733458,-0.18552775432691396,0.24443242147763086,-0.028537867435312426,0.0913988469012584,-0.20381964588600637,1.2136389297811607,-0.2201364908867498,-0.0072328379001272355,-2.6037642735933,-0.10895545246203739,2.468122034761641,0.8264726125316487,1.2134413937687574,-0.2202432315892585,-0.0075118285948192216,-2.6038483821997875,-0.10888392708698907,2.4681821257803174,0.826474908251239,0.0007944503234596993,0.0006439200502094252,0.0006374088916492107,0.0002895846915299598,-0.00013150115303203609,-2.7122900450349614e-05,0.0013764133583112044,0.0,0.0,0.0,0.0,0.0,0.0,0.0,-0.00019753601240335428,-0.00010674070250868417,-0.000278990694691986,-8.410860648755403e-05,7.152537504831469e-05,6.009101867654465e-05,2.295719590317269e-06,-0.0007944503234596993,-0.0006439200502094252,-0.0006374088916492107,-0.0002895846915299598,0.00013150115303203609,2.7122900450349614e-05,-0.0013764133583112044,0.4267818331718445,19.891809463500977,0.3990752398967743,-20.007356643676758,-0.5578513741493225,-2.4630770683288574,0.23471395671367645,0
39,0.18943405151367188,-0.4267818331718445,-19.891809463500977,-0.3990752398967743,20.007356643676758,0.5578513741493225,2.4630770683288574,-0.23471395671367645,0.0,0.0,0.0,0.0,0.0,0.0,0.0,-0.40152939516428204,-0.11675244511733458,-0.18552775432691396,0.24443242147763086,-0.028537867435312426,0.0913988469012584,-0.20381964588600637,1.2136389297811607,-0.2201364908867498,-0.0072328379001272355,-2.6037642735933,-0.10895545246203739,2.468122034761641,0.8264726125316487,1.2134413937687574,-0.2202432315892585,-0.0075118285948192216,-2.6038483821997875,-0.10888392708698907,2.4681821257803174,0.826474908251239,0.0007944503234596993,0.0006439200502094252,0.0006374088916492107,0.0002895846915299598,-0.00013150115303203609,-2.7122900450349614e-05,0.0013764133583112044,0.0,0.0,0.0,0.0,0.0,0.0,0.0,-0.00019753601240335428,-0.00010674070250868417,-0.000278990694691986,-8.410860648755403e-05,7.152537504831469e-05,6.009101867654465e-05,2.295719590317269e-06,-0.0007944503234596993,-0.0006439200502094252,-0.0006374088916492107,-0.0002895846915299598,0.00013150115303203609,2.7122900450349614e-05,-0.0013764133583112044,0.4267818331718445,19.891809463500977,0.3990752398967743,-20.007356643676758,-0.5578513741493225,-2.4630770683288574,0.23471395671367645,0
40,0.19443988800048828,-0.4267818331718445,-19.891809463500977,-0.3990752398967743,20.007356643676758,0.5578513741493225,2.4630770683288574,-0.23471395671367645,0.0,0.0,0.0,0.0,0.0,0.0,0.0,-0.40152939516428204,-0.11675244511733458,-0.18552775432691396,0.24443242147763086,-0.028537867435312426,0.0913988469012584,-0.20381964588600637,1.2136389297811607,-0.2201364908867498,-0.0072328379001272355,-2.6037642735933,-0.10895545246203739,2.468122034761641,0.8264726125316487,1.2134413937687574,-0.2202432315892585,-0.0075118285948192216,-2.6038483821997875,-0.10888392708698907,2.4681821257803174,0.826474908251239,0.0007944503234596993,0.0006439200502094252,0.0006374088916492107,0.0002895846915299598,-0.00013150115303203609,-2.7122900450349614e-05,0.0013764133583112044,0.0,0.0,0.0,0.0,0.0,0.0,0.0,-0.00019753601240335428,-0.00010674070250868417,-0.000278990694691986,-8.410860648755403e-05,7.152537504831469e-05,6.009101867654465e-05,2.295719590317269e-06,-0.0007944503234596993,-0.0006439200502094252,-0.0006374088916492107,-0.0002895846915299598,0.00013150115303203609,2.7122900450349614e-05,-0.0013764133583112044,0.4267818331718445,19.891809463500977,0.3990752398967743,-20.007356643676758,-0.5578513741493225,-2.4630770683288574,0.23471395671367645,0
41,0.19943737983703613,-0.4029781222343445,-19.868005752563477,-0.3713042438030243,20.054964065551758,0.5578513741493225,2.4630770683288574,-0.21457235515117645,0.0,0.0,0.0,0.0,0.0,0.0,0.0,-0.39784090380769416,-0.12132182878412753,-0.17896555221845095,0.24320816149173663,-0.028829539482277473,0.09118509166275476,-0.2030130083338913,1.2136372593453053,-0.22014052051504937,-0.007234786741958376,-2.6037675889552037,-0.1089586462775866,2.468122034761641,0.8264703745759195,1.2134413937687574,-0.2202432315892585,-0.0075118285948192216,-2.6038483821997875,-0.10888392708698907,2.4681821257803174,0.826474908251239,0.0001232646741938568,-0.0003851500625762638,-0.00023921335045517131,-0.0011874766297688053,-0.00015817697028252614,-0.00013967841517396418,0.0002151244918390912,0.0,0.0,0.0,0.0,0.0,0.0,0.0,-0.0001958655765479378,-0.0001027110742091164,-0.00027704185286084575,-8.07932445838766e-05,7.471919059752474e-05,6.009101867654465e-05,4.533675319495778e-06,-0.0001232646741938568,0.0003851500625762638,0.00023921335045517131,0.0011874766297688053,0.00015817697028252614,0.00013967841517396418,-0.0002151244918390912,0.4029781222343445,19.868005752563477,0.3713042438030243,-20.054964065551758,-0.5578513741493225,-2.4630770683288574,0.21457235515117645,0
42,0.2044510841369629,-0.4029781222343445,-19.868005752563477,-0.3713042438030243,20.054964065551758,0.5578513741493225,2.4630770683288574,-0.21457235515117645,0.0,0.0,0.0,0.0,0.0,0.0,0.0,-0.39784090380769416,-0.12132182878412753,-0.17896555221845095,0.24320816149173663,-0.028829539482277473,0.09118509166275476,-0.2030130083338913,1.2136372593453053,-0.22014052051504937,-0.007234786741958376,-2.6037675889552037,-0.1089586462775866,2.468122034761641,0.8264703745759195,1.2134413937687574,-0.2202432315892585,-0.0075118285948192216,-2.6038483821997875,-0.10888392708698907,2.4681821257803174,0.826474908251239,0.0001232646741938568,-0.0003851500625762638,-0.00023921335045517131,-0.0011874766297688053,-0.00015817697028252614,-0.00013967841517396418,0.0002151244918390912,0.0,0.0,0.0,0.0,0.0,0.0,0.0,-0.0001958655765479378,-0.0001027110742091164,-0.00027704185286084575,-8.07932445838766e-05,7.471919059752474e-05,6.009101867654465e-05,4.533675319495778e-06,-0.0001232646741938568,0.0003851500625762638,0.00023921335045517131,0.0011874766297688053,0.00015817697028252614,0.00013967841517396418,-0.0002151244918390912,0.4029781222343445,19.868005752563477,0.3713042438030243,-20.054964065551758,-0.5578513741493225,-2.4630770683288574,0.21457235515117645,0
43,0.20940876007080078,-0.4029781222343445,-19.943384170532227,-0.3990752398967743,19.955781936645508,0.5523582100868225,2.4566683769226074,-0.20724813640117645,0.0,0.0,0.0,0.0,0.0,0.0,0.0,-0.3943366672965401,-0.12654849609182262,-0.17679006037489084,0.24323284742481835,-0.029089619925993987,0.09097564129371462,-0.20292960742532132,1.2136372593453053,-0.2201328688115022,-0.0072328379001272355,-2.603759965549534,-0.10895484227273754,2.4681227468384637,0.8264695607738363,1.2134413937687574,-0.2202432315892585,-0.0075118285948192216,-2.6038483821997875,-0.10888392708698907,2.4681821257803174,0.826474908251239,0.0005358171282245062,0.0010469565882912132,0.0002949419703776936,0.0015283287464502736,0.00014928733276953958,0.00022405872593868163,0.00040293577324451143,0.0,0.0,0.0,0.0,0.0,0.0,0.0,-0.0001958655765479378,-0.00011036277775627878,-0.000278990694691986,-8.841665025371981e-05,7.0915185748463e-05,5.937894185370496e-05,5.34747740277286e-06,-0.0005358171282245062,-0.0010469565882912132,-0.0002949419703776936,-0.0015283287464502736,-0.00014928733276953958,-0.00022405872593868163,-0.00040293577324451143,0.4029781222343445,19.943384170532227,0.3990752398967743,-19.955781936645508,-0.5523582100868225,-2.4566683769226074,0.20724813640117645,0
44,0.2144603729248047,-0.4029781222343445,-19.943384170532227,-0.3990752398967743,19.955781936645508,0.5523582100868225,2.4566683769226074,-0.20724813640117645,0.0,0.0,0.0,0.0,0.0,0.0,0.0,-0.3943366672965401,-0.12654849609182262,-0.17679006037489084,0.24323284742481835,-0.029089619925993987,0.09097564129371462,-0.20292960742532132,1.2136372593453053,-0.2201328688115022,-0.0072328379001272355,-2.603759965549534,-0.10895484227273754,2.4681227468384637,0.8264695607738363,1.2134413937687574,-0.2202432315892585,-0.0075118285948192216,-2.6038483821997875,-0.10888392708698907,2.4681821257803174,0.826474908251239,0.0005358171282245062,0.0010469565882912132,0.0002949419703776936,0.0015283287464502736,0.00014928733276953958,0.00022405872593868163,0.00040293577324451143,0.0,0.0,0.0,0.0,0.0,0.0,0.0,-0.0001958655765479378,-0.00011036277775627878,-0.000278990694691986,-8.841665025371981e-05,7.0915185748463e-05,5.937894185370496e-05,5.34747740277286e-06,-0.0005358171282245062,-0.0010469565882912132,-0.0002949419703776936,-0.0015283287464502736,-0.00014928733276953958,-0.00022405872593868163,-0.00040293577324451143,0.4029781222343445,19.943384170532227,0.3990752398967743,-19.955781936645508,-0.5523582100868225,-2.4566683769226074,0.20724813640117645,0
45,0.21954631805419922,-0.4267818331718445,-19.915613174438477,-0.3990752398967743,20.031160354614258,0.5642600655555725,2.4630770683288574,-0.21457235515117645,0.0,0.0,0.0,0.0,0.0,0.0,0.0,-0.400086032342691,-0.12792695607186588,-0.1863364623312996,0.2368237906967715,-0.029267743911860256,0.09014133979810905,-0.2025301303952267,1.2136389297811607,-0.22013484382699544,-0.0072328379001272355,-2.603765944029011,-0.10895616453886035,2.468122034761641,0.8264703745759195,1.2134413937687574,-0.2202432315892585,-0.0075118285948192216,-2.6038483821997875,-0.10888392708698907,2.4681821257803174,0.826474908251239,0.00023913723478467567,0.0007347462858695021,-0.00012913271531525544,-0.0006768512180505192,-0.00025179463361059656,7.118588528904688e-05,0.0008296795858691535,0.0,0.0,0.0,0.0,0.0,0.0,0.0,-0.00019753601240335428,-0.0001083877622630458,-0.000278990694691986,-8.243817077646654e-05,7.223745187127928e-05,6.009101867654465e-05,4.533675319495778e-06,-0.00023913723478467567,-0.0007347462858695021,0.00012913271531525544,0.0006768512180505192,0.00025179463361059656,-7.118588528904688e-05,-0.0008296795858691535,0.4267818331718445,19.915613174438477,0.3990752398967743,-20.031160354614258,-0.5642600655555725,-2.4630770683288574,0.21457235515117645,0
46,0.22445893287658691,-0.4267818331718445,-19.915613174438477,-0.3990752398967743,20.031160354614258,0.5642600655555725,2.4630770683288574,-0.21457235515117645,0.0,0.0,0.0,0.0,0.0,0.0,0.0,-0.400086032342691,-0.12792695607186588,-0.1863364623312996,0.2368237906967715,-0.029267743911860256,0.09014133979810905,-0.2025301303952267,1.2136389297811607,-0.22013484382699544,-0.0072328379001272355,-2.603765944029011,-0.10895616453886035,2.468122034761641,0.8264703745759195,1.2134413937687574,-0.2202432315892585,-0.0075118285948192216,-2.6038483821997875,-0.10888392708698907,2.4681821257803174,0.826474908251239,0.00023913723478467567,0.0007347462858695021,-0.00012913271531525544,-0.0006768512180505192,-0.00025179463361059656,7.118588528904688e-05,0.0008296795858691535,0.0,0.0,0.0,0.0,0.0,0.0,0.0,-0.00019753601240335428,-0.0001083877622630458,-0.000278990694691986,-8.243817077646654e-05,7.223745187127928e-05,6.009101867654465e-05,4.533675319495778e-06,-0.00023913723478467567,-0.0007347462858695021,0.00012913271531525544,0.0006768512180505192,0.00025179463361059656,-7.118588528904688e-05,-0.0008296795858691535,0.4267818331718445,19.915613174438477,0.3990752398967743,-20.031160354614258,-0.5642600655555725,-2.4630770683288574,0.21457235515117645,0
47,0.22944355010986328,-0.3752071261405945,-19.891809463500977,-0.3990752398967743,20.007356643676758,0.5523582100868225,2.4566683769226074,-0.17337362468242645,0.0,0.0,0.0,0.0,0.0,0.0,0.0,-0.39212623191445034,-0.1300407380939411,-0.1778697193981993,0.2399930653498539,-0.028897429943159223,0.09153533160782966,-0.20252791998235647,1.2136353105034743,-0.22013648796932944,-0.0072328379001272355,-2.6037639674756186,-0.1089548421104749,2.4681227468384637,0.8264657969392009,1.2134413937687574,-0.2202432315892585,-0.0075118285948192216,-2.6038483821997875,-0.10888392708698907,2.4681821257803174,0.826474908251239,-8.046150260356424e-05,0.0007284866223318706,0.00018349186372720652,0.000677434537030318,0.000324714772293343,0.00027352710288235777,-0.005166383706472154,0.0,0.0,0.0,0.0,0.0,0.0,0.0,-0.00019391673471691462,-0.00010674361992904502,-0.000278990694691986,-8.441472416897966e-05,7.091502348582912e-05,5.937894185370496e-05,9.111312038179165e-06,8.046150260356424e-05,-0.0007284866223318706,-0.00018349186372720652,-0.000677434537030318,-0.000324714772293343,-0.00027352710288235777,0.005166383706472154,0.3752071261405945,19.891809463500977,0.3990752398967743,-20.007356643676758,-0.5523582100868225,-2.4566683769226074,0.17337362468242645,0
48,0.2344374656677246,-0.3752071261405945,-19.891809463500977,-0.3990752398967743,20.007356643676758,0.5523582100868225,2.4566683769226074,-0.17337362468242645,0.0,0.0,0.0,0.0,0.0,0.0,0.0,-0.39212623191445034,-0.1300407380939411,-0.1778697193981993,0.2399930653498539,-0.028897429943159223,0.09153533160782966,-0.20252791998235647,1.2136353105034743,-0.22013648796932944,-0.0072328379001272355,-2.6037639674756186,-0.1089548421104749,2.4681227468384637,0.8264657969392009,1.2134413937687574,-0.2202432315892585,-0.0075118285948192216,-2.6038483821997875,-0.10888392708698907,2.4681821257803174,0.826474908251239,-8.046150260356424e-05,0.0007284866223318706,0.00018349186372720652,0.000677434537030318,0.000324714772293343,0.00027352710288235777,-0.005166383706472154,0.0,0.0,0.0,0.0,0.0,0.0,0.0,-0.00019391673471691462,-0.00010674361992904502,-0.000278990694691986,-8.441472416897966e-05,7.091502348582912e-05,5.937894185370496e-05,9.111312038179165e-06,8.046150260356424e-05,-0.0007284866223318706,-0.00018349186372720652,-0.000677434537030318,-0.000324714772293343,-0.00027352710288235777,0.005166383706472154,0.3752071261405945,19.891809463500977,0.3990752398967743,-20.007356643676758,-0.5523582100868225,-2.4566683769226074,0.17337362468242645,0
49,0.23943781852722168,-0.3752071261405945,-19.844202041625977,-0.3990752398967743,20.031160354614258,0.5404563546180725,2.4566683769226074,-0.17337362468242645,0.0,0.0,0.0,0.0,0.0,0.0,0.0,-0.40178551544437396,-0.12029561386821247,-0.18872389496076813,0.23015856404705073,-0.02861513871228575,0.09042537259041657,-0.20258562712002412,1.2136353105034743,-0.22014053747389054,-0.0072328379001272355,-2.603765944027427,-0.10895351968208948,2.468122748292014,0.8264657969392009,1.2134413937687574,-0.2202432315892585,-0.0075118285948192216,-2.6038483821997875,-0.10888392708698907,2.4681821257803174,0.826474908251239,-0.001600137569199188,0.00013427971098992954,-2.973832244446216e-05,-0.0008275228234980807,0.001943278693988591,0.00033280361732191386,-0.0012128315833013382,0.0,0.0,0.0,0.0,0.0,0.0,0.0,-0.00019391673471691462,-0.0001026941153679517,-0.000278990694691986,-8.243817236053275e-05,6.959259510040672e-05,5.937748830353584e-05,9.111312038179165e-06,0.001600137569199188,-0.00013427971098992954,2.973832244446216e-05,0.0008275228234980807,-0.001943278693988591,-0.00033280361732191386,0.0012128315833013382,0.3752071261405945,19.844202041625977,0.3990752398967743,-20.031160354614258,-0.5404563546180725,-2.4566683769226074,0.17337362468242645,0
50,0.24443936347961426,-0.3752071261405945,-19.844202041625977,-0.3990752398967743,20.031160354614258,0.5404563546180725,2.4566683769226074,-0.17337362468242645,0.0,0.0,0.0,0.0,0.0,0.0,0.0,-0.40178551544437396,-0.12029561386821247,-0.18872389496076813,0.23015856404705073,-0.02861513871228575,0.09042537259041657,-0.20258562712002412,1.2136353105034743,-0.22014053747389054,-0.0072328379001272355,-2.603765944027427,-0.10895351968208948,2.468122748292014,0.8264657969392009,1.2134413937687574,-0.2202432315892585,-0.0075118285948192216,-2.6038483821997875,-0.10888392708698907,2.4681821257803174,0.826474908251239,-0.001600137569199188,0.00013427971098992954,-2.973832244446216e-05,-0.0008275228234980807,0.001943278693988591,0.00033280361732191386,-0.0012128315833013382,0.0,0.0,0.0,0.0,0.0,0.0,0.0,-0.00019391673471691462,-0.0001026941153679517,-0.000278990694691986,-8.243817236053275e-05,6.959259510040672e-05,5.937748830353584e-05,9.111312038179165e-06,0.001600137569199188,-0.00013427971098992954,2.973832244446216e-05,0.0008275228234980807,-0.001943278693988591,-0.00033280361732191386,0.0012128315833013382,0.3752071261405945,19.844202041625977,0.3990752398967743,-20.031160354614258,-0.5404563546180725,-2.4566683769226074,0.17337362468242645,0
51,0.24943995475769043,-0.4029781222343445,-19.844202041625977,-0.3990752398967743,20.031160354614258,0.5578513741493225,2.4694857597351074,-0.23471395671367645,0.0,0.0,0.0,0.0,0.0,0.0,0.0,-0.40478017929947796,-0.12760179377421835,-0.1894126502902081,0.24145226776342057,-0.027879138046234698,0.09245996865083908,-0.2017910969227619,1.2136372593453053,-0.22014061636823373,-0.0072328379001272355,-2.603765944029155,-0.10895545248006658,2.468124501599209,0.8264726124778136,1.2134413937687574,-0.2202432315892585,-0.0075118285948192216,-2.6038483821997875,-0.10888392708698907,2.4681821257803174,0.826474908251239,-0.00023924237362353123,-0.0002718876887188418,-0.00041912924489361723,-0.00018633990968383127,-0.0002156279088706068,-0.0001583875549265676,0.0012985219910884216,0.0,0.0,0.0,0.0,0.0,0.0,0.0,-0.0001958655765479378,-0.0001026152210247544,-0.000278990694691986,-8.243817063258163e-05,7.152539307750394e-05,5.762418110855094e-05,2.295773425475822e-06,0.00023924237362353123,0.0002718876887188418,0.00041912924489361723,0.00018633990968383127,0.0002156279088706068,0.0001583875549265676,-0.0012985219910884216,0.4029781222343445,19.844202041625977,0.3990752398967743,-20.031160354614258,-0.5578513741493225,-2.4694857597351074,0.23471395671367645,0
52,0.2544596195220947,-0.4029781222343445,-19.844202041625977,-0.3990752398967743,20.031160354614258,0.5578513741493225,2.4694857597351074,-0.23471395671367645,0.0,0.0,0.0,0.0,0.0,0.0,0.0,-0.40478017929947796,-0.12760179377421835,-0.1894126502902081,0.24145226776342057,-0.027879138046234698,0.09245996865083908,-0.2017910969227619,1.2136372593453053,-0.22014061636823373,-0.0072328379001272355,-2.603765944029155,-0.10895545248006658,2.468124501599209,0.8264726124778136,1.2134413937687574,-0.2202432315892585,-0.0075118285948192216,-2.6038483821997875,-0.10888392708698907,2.4681821257803174,0.826474908251239,-0.00023924237362353123,-0.0002718876887188418,-0.00041912924489361723,-0.00018633990968383127,-0.0002156279088706068,-0.0001583875549265676,0.0012985219910884216,0.0,0.0,0.0,0.0,0.0,0.0,0.0,-0.0001958655765479378,-0.0001026152210247544,-0.000278990694691986,-8.243817063258163e-05,7.152539307750394e-05,5.762418110855094e-05,2.295773425475822e-06,0.00023924237362353123,0.0002718876887188418,0.00041912924489361723,0.00018633990968383127,0.0002156279088706068,0.0001583875549265676,-0.0012985219910884216,0.4029781222343445,19.844202041625977,0.3990752398967743,-20.031160354614258,-0.5578513741493225,-2.4694857597351074,0.23471395671367645,0
53,0.2594883441925049,-0.3514034152030945,-19.844202041625977,-0.3475005328655243,20.007356643676758,0.5523582100868225,2.4694857597351074,-0.22830526530742645,0.0,0.0,0.0,0.0,0.0,0.0,0.0,-0.4024049149714,-0.12359414112478197,-0.1884451508737854,0.23933788775875747,-0.028389370078753636,0.09181335613510613,-0.20149106246334902,1.2136336400676189,-0.22013983176152233,-0.007236457177813639,-2.6037642735933,-0.108954842110475,2.468121322756598,0.8264719004548254,1.2134413937687574,-0.2202432315892585,-0.0075118285948192216,-2.6038483821997875,-0.10888392708698907,2.4681821257803174,0.826474908251239,-0.0011562348147158227,-0.000545072105157713,-0.001173854568941606,-0.00018633909960631635,0.00015160566798676494,-0.00041595957407211,0.0014042354451073375,0.0,0.0,0.0,0.0,0.0,0.0,0.0,-0.00019224629886149813,-0.00010339982773616141,-0.0002753714170055828,-8.410860648755403e-05,7.091502348592627e-05,6.0803023719468996e-05,3.0077964136010493e-06,0.0011562348147158227,0.000545072105157713,0.001173854568941606,0.00018633909960631635,-0.00015160566798676494,0.00041595957407211,-0.0014042354451073375,0.3514034152030945,19.844202041625977,0.3475005328655243,-20.007356643676758,-0.5523582100868225,-2.4694857597351074,0.22830526530742645,0
54,0.264406681060791,-0.3514034152030945,-19.844202041625977,-0.3475005328655243,20.007356643676758,0.5523582100868225,2.4694857597351074,-0.22830526530742645,0.0,0.0,0.0,0.0,0.0,0.0,0.0,-0.4024049149714,-0.12359414112478197,-0.1884451508737854,0.23933788775875747,-0.028389370078753636,0.09181335613510613,-0.20149106246334902,1.2136336400676189,-0.22013983176152233,-0.007236457177813639,-2.6037642735933,-0.108954842110475,2.468121322756598,0.8264719004548254,1.2134413937687574,-0.2202432315892585,-0.0075118285948192216,-2.6038483821997875,-0.10888392708698907,2.4681821257803174,0.826474908251239,-0.0011562348147158227,-0.000545072105157713,-0.001173854568941606,-0.00018633909960631635,0.00015160566798676494,-0.00041595957407211,0.0014042354451073375,0.0,0.0,0.0,0.0,0.0,0.0,0.0,-0.00019224629886149813,-0.00010339982773616141,-0.0002753714170055828,-8.410860648755403e-05,7.091502348592627e-05,6.0803023719468996e-05,3.0077964136010493e-06,0.0011562348147158227,0.000545072105157713,0.001173854568941606,0.00018633909960631635,-0.00015160566798676494,0.00041595957407211,-0.0014042354451073375,0.3514034152030945,19.844202041625977,0.3475005328655243,-20.007356643676758,-0.5523582100868225,-2.4694857597351074,0.22830526530742645,0
55,0.2694425582885742,-0.3514034152030945,-19.891809463500977,-0.3713042438030243,20.007356643676758,0.5578513741493225,2.4694857597351074,-0.18710653483867645,0.0,0.0,0.0,0.0,0.0,0.0,0.0,-0.40719401268446087,-0.12487250470668704,-0.19317572706285996,0.24138940998331126,-0.02808012588350628,0.09154798161948124,-0.20024370444447528,1.2136336400676189,-0.22013652307142653,-0.007234777974239817,-2.6037642735933,-0.1089554524620374,2.468121322684818,0.8264673228181071,1.2134413937687574,-0.2202432315892585,-0.0075118285948192216,-2.6038483821997875,-0.10888392708698907,2.4681821257803174,0.826474908251239,-0.001495029187964524,0.00029370302101550897,-0.0003698376287649094,0.0002505323101011765,0.0001490424415560682,-0.00016049398217469688,-0.0004074769772977235,0.0,0.0,0.0,0.0,0.0,0.0,0.0,-0.00019224629886149813,-0.0001067085178319549,-0.00027705062057940474,-8.410860648755403e-05,7.152537504832857e-05,6.080309549938434e-05,7.585433131951369e-06,0.001495029187964524,-0.00029370302101550897,0.0003698376287649094,-0.0002505323101011765,-0.0001490424415560682,0.00016049398217469688,0.0004074769772977235,0.3514034152030945,19.891809463500977,0.3713042438030243,-20.007356643676758,-0.5578513741493225,-2.4694857597351074,0.18710653483867645,0
56,0.2744331359863281,-0.3514034152030945,-19.891809463500977,-0.3713042438030243,20.007356643676758,0.5578513741493225,2.4694857597351074,-0.18710653483867645,0.0,0.0,0.0,0.0,0.0,0.0,0.0,-0.40719401268446087,-0.12487250470668704,-0.19317572706285996,0.24138940998331126,-0.02808012588350628,0.09154798161948124,-0.20024370444447528,1.2136336400676189,-0.22013652307142653,-0.007234777974239817,-2.6037642735933,-0.1089554524620374,2.468121322684818,0.8264673228181071,1.2134413937687574,-0.2202432315892585,-0.0075118285948192216,-2.6038483821997875,-0.10888392708698907,2.4681821257803174,0.826474908251239,-0.001495029187964524,0.00029370302101550897,-0.0003698376287649094,0.0002505323101011765,0.0001490424415560682,-0.00016049398217469688,-0.0004074769772977235,0.0,0.0,0.0,0.0,0.0,0.0,0.0,-0.00019224629886149813,-0.0001067085178319549,-0.00027705062057940474,-8.410860648755403e-05,7.152537504832857e-05,6.080309549938434e-05,7.585433131951369e-06,0.001495029187964524,-0.00029370302101550897,0.0003698376287649094,-0.0002505323101011765,-0.0001490424415560682,0.00016049398217469688,0.0004074769772977235,0.3514034152030945,19.891809463500977,0.3713042438030243,-20.007356643676758,-0.5578513741493225,-2.4694857597351074,0.18710653483867645,0
57,0.27943849563598633,-0.3514034152030945,-19.891809463500977,-0.3713042438030243,20.007356643676758,0.5578513741493225,2.4694857597351074,-0.18710653483867645,0.0,0.0,0.0,0.0,0.0,0.0,0.0,-0.40719401268446087,-0.12487250470668704,-0.19317572706285996,0.24138940998331126,-0.02808012588350628,0.09154798161948124,-0.20024370444447528,1.2136336400676189,-0.22013652307142653,-0.007234777974239817,-2.6037642735933,-0.1089554524620374,2.468121322684818,0.8264673228181071,1.2134413937687574,-0.2202432315892585,-0.0075118285948192216,-2.6038483821997875,-0.10888392708698907,2.4681821257803174,0.826474908251239,-0.001495029187964524,0.00029370302101550897,-0.0003698376287649094,0.0002505323101011765,0.0001490424415560682,-0.00016049398217469688,-0.0004074769772977235,0.0,0.0,0.0,0.0,0.0,0.0,0.0,-0.00019224629886149813,-0.0001067085178319549,-0.00027705062057940474,-8.410860648755403e-05,7.152537504832857e-05,6.080309549938434e-05,7.585433131951369e-06,0.001495029187964524,-0.00029370302101550897,0.0003698376287649094,-0.0002505323101011765,-0.0001490424415560682,0.00016049398217469688,0.0004074769772977235,0.3514034152030945,19.891809463500977,0.3713042438030243,-20.007356643676758,-0.5578513741493225,-2.4694857597351074,0.18710653483867645,0
58,0.28444623947143555,-0.3514034152030945,-19.891809463500977,-0.3713042438030243,20.007356643676758,0.5578513741493225,2.4694857597351074,-0.18710653483867645,0.0,0.0,0.0,0.0,0.0,0.0,0.0,-0.40719401268446087,-0.12487250470668704,-0.19317572706285996,0.24138940998331126,-0.02808012588350628,0.09154798161948124,-0.20024370444447528,1.2136336400676189,-0.22013652307142653,-0.007234777974239817,-2.6037642735933,-0.1089554524620374,2.468121322684818,0.8264673228181071,1.2134413937687574,-0.2202432315892585,-0.0075118285948192216,-2.6038483821997875,-0.10888392708698907,2.4681821257803174,0.826474908251239,-0.001495029187964524,0.00029370302101550897,-0.0003698376287649094,0.0002505323101011765,0.0001490424415560682,-0.00016049398217469688,-0.0004074769772977235,0.0,0.0,0.0,0.0,0.0,0.0,0.0,-0.00019224629886149813,-0.0001067085178319549,-0.00027705062057940474,-8.410860648755403e-05,7.152537504832857e-05,6.080309549938434e-05,7.585433131951369e-06,0.001495029187964524,-0.00029370302101550897,0.0003698376287649094,-0.0002505323101011765,-0.0001490424415560682,0.00016049398217469688,0.0004074769772977235,0.3514034152030945,19.891809463500977,0.3713042438030243,-20.007356643676758,-0.5578513741493225,-2.4694857597351074,0.18710653483867645,0
59,0.2895183563232422,-0.4029781222343445,-19.868005752563477,-0.3990752398967743,20.007356643676758,0.5523582100868225,2.4630770683288574,-0.18710653483867645,0.0,0.0,0.0,0.0,0.0,0.0,0.0,-0.40029269146787494,-0.12577349076054278,-0.18541890622301777,0.24127838712411429,-0.02824206058494453,0.09135355873605787,-0.19993148692983947,1.2136372593453053,-0.2201381584051023,-0.0072328379001107375,-2.603762207298948,-0.1089548421104749,2.468122034761641,0.8264673620639638,1.2134413937687574,-0.2202432315892585,-0.0075118285948192216,-2.6038483821997875,-0.10888392708698907,2.4681821257803174,0.826474908251239,0.0007185367067328617,-0.000382680167221364,0.0004357538953713095,0.0006006797292181033,0.00021969432949011186,5.9071833841370704e-05,-0.0004639430664459043,0.0,0.0,0.0,0.0,0.0,0.0,0.0,-0.0001958655765479378,-0.00010507318415617362,-0.0002789906947084841,-8.617490083961954e-05,7.091502348582912e-05,6.009101867654465e-05,7.546187275275784e-06,-0.0007185367067328617,0.000382680167221364,-0.0004357538953713095,-0.0006006797292181033,-0.00021969432949011186,-5.9071833841370704e-05,0.0004639430664459043,0.4029781222343445,19.868005752563477,0.3990752398967743,-20.007356643676758,-0.5523582100868225,-2.4630770683288574,0.18710653483867645,0
60,0.2944464683532715,-0.4029781222343445,-19.868005752563477,-0.3990752398967743,20.007356643676758,0.5523582100868225,2.4630770683288574,-0.18710653483867645,0.0,0.0,0.0,0.0,0.0,0.0,0.0,-0.40029269146787494,-0.12577349076054278,-0.18541890622301777,0.24127838712411429,-0.02824206058494453,0.09135355873605787,-0.19993148692983947,1.2136372593453053,-0.2201381584051023,-0.0072328379001107375,-2.603762207298948,-0.1089548421104749,2.468122034761641,0.8264673620639638,1.2134413937687574,-0.2202432315892585,-0.0075118285948192216,-2.6038483821997875,-0.10888392708698907,2.4681821257803174,0.826474908251239,0.0007185367067328617,-0.000382680167221364,0.0004357538953713095,0.0006006797292181033,0.00021969432949011186,5.9071833841370704e-05,-0.0004639430664459043,0.0,0.0,0.0,0.0,0.0,0.0,0.0,-0.0001958655765479378,-0.00010507318415617362,-0.0002789906947084841,-8.617490083961954e-05,7.091502348582912e-05,6.009101867654465e-05,7.546187275275784e-06,-0.0007185367067328617,0.000382680167221364,-0.0004357538953713095,-0.0006006797292181033,-0.00021969432949011186,-5.9071833841370704e-05,0.0004639430664459043,0.4029781222343445,19.868005752563477,0.3990752398967743,-20.007356643676758,-0.5523582100868225,-2.4630770683288574,0.18710653483867645,0
61,0.2994356155395508,-0.4267818331718445,-19.891809463500977,-0.4228789508342743,20.054964065551758,0.5523582100868225,2.4493441581726074,-0.17337362468242645,0.0,0.0,0.0,0.0,0.0,0.0,0.0,-0.4005725938731827,-0.12658912309750972,-0.18829243921239985,0.2382111384272798,-0.028113459894038916,0.09094542392682606,-0.19979977666991952,1.2136389297811607,-0.22013649671773655,-0.007231167464271972,-2.6037676144533464,-0.1089548421104749,2.468123560640547,0.8264657969394223,1.2134413937687574,-0.2202432315892585,-0.0075118285948192216,-2.6038483821997875,-0.10888392708698907,2.4681821257803174,0.826474908251239,0.0006201253148431802,0.00017729793446267063,0.0012468657391588387,-0.0011502067404885459,0.00014773477083620794,0.00048355505002306733,-0.0010991546972606756,0.0,0.0,0.0,0.0,0.0,0.0,0.0,-0.00019753601240335428,-0.00010673487152193517,-0.00028066113054724985,-8.076774644116824e-05,7.091502348582912e-05,5.856513977020583e-05,9.111311816689671e-06,-0.0006201253148431802,-0.00017729793446267063,-0.0012468657391588387,0.0011502067404885459,-0.00014773477083620794,-0.00048355505002306733,0.0010991546972606756,0.4267818331718445,19.891809463500977,0.4228789508342743,-20.054964065551758,-0.5523582100868225,-2.4493441581726074,0.17337362468242645,0
62,0.304455041885376,-0.4267818331718445,-19.891809463500977,-0.4228789508342743,20.054964065551758,0.5523582100868225,2.4493441581726074,-0.17337362468242645,0.0,0.0,0.0,0.0,0.0,0.0,0.0,-0.4005725938731827,-0.12658912309750972,-0.18829243921239985,0.2382111384272798,-0.028113459894038916,0.09094542392682606,-0.19979977666991952,1.2136389297811607,-0.22013649671773655,-0.007231167464271972,-2.6037676144533464,-0.1089548421104749,2.468123560640547,0.8264657969394223,1.2134413937687574,-0.2202432315892585,-0.0075118285948192216,-2.6038483821997875,-0.10888392708698907,2.4681821257803174,0.826474908251239,0.0006201253148431802,0.00017729793446267063,0.0012468657391588387,-0.0011502067404885459,0.00014773477083620794,0.00048355505002306733,-0.0010991546972606756,0.0,0.0,0.0,0.0,0.0,0.0,0.0,-0.00019753601240335428,-0.00010673487152193517,-0.00028066113054724985,-8.076774644116824e-05,7.091502348582912e-05,5.856513977020583e-05,9.111311816689671e-06,-0.0006201253148431802,-0.00017729793446267063,-0.0012468657391588387,0.0011502067404885459,-0.00014773477083620794,-0.00048355505002306733,0.0010991546972606756,0.4267818331718445,19.891809463500977,0.4228789508342743,-20.054964065551758,-0.5523582100868225,-2.4493441581726074,0.17337362468242645,0
63,0.3094351291656494,-0.4029781222343445,-19.868005752563477,-0.3990752398967743,19.983552932739258,0.5642600655555725,2.4566683769226074,-0.22830526530742645,0.0,0.0,0.0,0.0,0.0,0.0,0.0,-0.40183745465161774,-0.1283063741228581,-0.18782515608745043,0.2399745946139717,-0.028129405136649712,0.09102425105069316,-0.20077301872932654,1.2136372593453053,-0.2201383946160853,-0.0072328379001272355,-2.6037626031224517,-0.10895616453886033,2.4681227468384637,0.8264719004548258,1.2134413937687574,-0.2202432315892585,-0.0075118285948192216,-2.6038483821997875,-0.10888392708698907,2.4681821257803174,0.826474908251239,0.0002496482550930205,-9.496258987828083e-05,-0.00025791037756355434,0.0010499531004845245,-0.0002631491292990497,9.371199382606386e-06,0.0012640176833447225,0.0,0.0,0.0,0.0,0.0,0.0,0.0,-0.0001958655765479378,-0.00010483697317317797,-0.000278990694691986,-8.577907733586798e-05,7.223745187125152e-05,5.937894185370496e-05,3.0077964132679824e-06,-0.0002496482550930205,9.496258987828083e-05,0.00025791037756355434,-0.0010499531004845245,0.0002631491292990497,-9.371199382606386e-06,-0.0012640176833447225,0.4029781222343445,19.868005752563477,0.3990752398967743,-19.983552932739258,-0.5642600655555725,-2.4566683769226074,0.22830526530742645,0
64,0.31446027755737305,-0.4029781222343445,-19.868005752563477,-0.3990752398967743,19.983552932739258,0.5642600655555725,2.4566683769226074,-0.22830526530742645,0.0,0.0,0.0,0.0,0.0,0.0,0.0,-0.40183745465161774,-0.1283063741228581,-0.18782515608745043,0.2399745946139717,-0.028129405136649712,0.09102425105069316,-0.20077301872932654,1.2136372593453053,-0.2201383946160853,-0.0072328379001272355,-2.6037626031224517,-0.10895616453886033,2.4681227468384637,0.8264719004548258,1.2134413937687574,-0.2202432315892585,-0.0075118285948192216,-2.6038483821997875,-0.10888392708698907,2.4681821257803174,0.826474908251239,0.0002496482550930205,-9.496258987828083e-05,-0.00025791037756355434,0.0010499531004845245,-0.0002631491292990497,9.371199382606386e-06,0.0012640176833447225,0.0,0.0,0.0,0.0,0.0,0.0,0.0,-0.0001958655765479378,-0.00010483697317317797,-0.000278990694691986,-8.577907733586798e-05,7.223745187125152e-05,5.937894185370496e-05,3.0077964132679824e-06,-0.0002496482550930205,9.496258987828083e-05,0.00025791037756355434,-0.0010499531004845245,0.0002631491292990497,-9.371199382606386e-06,-0.0012640176833447225,0.4029781222343445,19.868005752563477,0.3990752398967743,-19.983552932739258,-0.5642600655555725,-2.4566683769226074,0.22830526530742645,0
65,0.3194847106933594,-0.3752071261405945,-19.844202041625977,-0.3713042438030243,20.007356643676758,0.5578513741493225,2.4566683769226074,-0.17978231608867645,0.0,0.0,0.0,0.0,0.0,0.0,0.0,-0.4028135987491658,-0.12263479151985664,-0.19133203713511343,0.2391801725047215,-0.02846452362916151,0.09037596070704025,-0.20050090756369487,1.2136353105034743,-0.2201398288769432,-0.007234786741958376,-2.6037642735933,-0.1089554524620374,2.4681227468384637,0.8264665090160237,1.2134413937687574,-0.2202432315892585,-0.0075118285948192216,-2.6038483821997875,-0.10888392708698907,2.4681821257803174,0.826474908251239,-0.0012877138876296722,3.7149569873624757e-05,-0.00052110741110882,0.00024396932678544706,-4.59752906217503e-05,0.00021072504784988967,0.0003758234424889766,0.0,0.0,0.0,0.0,0.0,0.0,0.0,-0.00019391673471691462,-0.00010340271231529252,-0.00027704185286084575,-8.410860648755403e-05,7.152537504832857e-05,5.937894185370496e-05,8.399235215339473e-06,0.0012877138876296722,-3.7149569873624757e-05,0.00052110741110882,-0.00024396932678544706,4.59752906217503e-05,-0.00021072504784988967,-0.0003758234424889766,0.3752071261405945,19.844202041625977,0.3713042438030243,-20.007356643676758,-0.5578513741493225,-2.4566683769226074,0.17978231608867645,0
66,0.32445764541625977,-0.3752071261405945,-19.844202041625977,-0.3713042438030243,20.007356643676758,0.5578513741493225,2.4566683769226074,-0.17978231608867645,0.0,0.0,0.0,0.0,0.0,0.0,0.0,-0.4028135987491658,-0.12263479151985664,-0.19133203713511343,0.2391801725047215,-0.02846452362916151,0.09037596070704025,-0.20050090756369487,1.2136353105034743,-0.2201398288769432,-0.007234786741958376,-2.6037642735933,-0.1089554524620374,2.4681227468384637,0.8264665090160237,1.2134413937687574,-0.2202432315892585,-0.0075118285948192216,-2.6038483821997875,-0.10888392708698907,2.4681821257803174,0.826474908251239,-0.0012877138876296722,3.7149569873624757e-05,-0.00052110741110882,0.00024396932678544706,-4.59752906217503e-05,0.00021072504784988967,0.0003758234424889766,0.0,0.0,0.0,0.0,0.0,0.0,0.0,-0.00019391673471691462,-0.00010340271231529252,-0.00027704185286084575,-8.410860648755403e-05,7.152537504832857e-05,5.937894185370496e-05,8.399235215339473e-06,0.0012877138876296722,-3.7149569873624757e-05,0.00052110741110882,-0.00024396932678544706,4.59752906217503e-05,-0.00021072504784988967,-0.0003758234424889766,0.3752071261405945,19.844202041625977,0.3713042438030243,-20.007356643676758,-0.5578513741493225,-2.4566683769226074,0.17978231608867645,0
67,0.3294355869293213,-0.4029781222343445,-19.844202041625977,-0.3990752398967743,20.007356643676758,0.5642600655555725,2.4630770683288574,-0.17978231608867645,0.0,0.0,0.0,0.0,0.0,0.0,0.0,-0.4015603723364107,-0.12230980992256957,-0.18766931859911906,0.24304642114291988,-0.028224004321261213,0.09124004907935583,-0.20102766745189102,1.2136372593453053,-0.220139838561509,-0.0072328379001272355,-2.603763581994093,-0.10895616453886033,2.468122034761641,0.826466155803314,1.2134413937687574,-0.2202432315892585,-0.0075118285948192216,-2.6038483821997875,-0.10888392708698907,2.4681821257803174,0.826474908251239,9.108951166819248e-05,9.560146658027714e-05,0.0002660981463937251,0.00011112017126428308,-0.00028155008699378965,3.6097692528584504e-05,-0.0014100581731255732,0.0,0.0,0.0,0.0,0.0,0.0,0.0,-0.0001958655765479378,-0.00010339302774947656,-0.000278990694691986,-8.480020569434643e-05,7.223745187125152e-05,6.009101867654465e-05,8.75244792508667e-06,-9.108951166819248e-05,-9.560146658027714e-05,-0.0002660981463937251,-0.00011112017126428308,0.00028155008699378965,-3.6097692528584504e-05,0.0014100581731255732,0.4029781222343445,19.844202041625977,0.3990752398967743,-20.007356643676758,-0.5642600655555725,-2.4630770683288574,0.17978231608867645,0
68,0.3343844413757324,-0.4029781222343445,-19.844202041625977,-0.3990752398967743,20.007356643676758,0.5642600655555725,2.4630770683288574,-0.17978231608867645,0.0,0.0,0.0,0.0,0.0,0.0,0.0,-0.4015603723364107,-0.12230980992256957,-0.18766931859911906,0.24304642114291988,-0.028224004321261213,0.09124004907935583,-0.20102766745189102,1.2136372593453053,-0.220139838561509,-0.0072328379001272355,-2.603763581994093,-0.10895616453886033,2.468122034761641,0.826466155803314,1.2134413937687574,-0.2202432315892585,-0.0075118285948192216,-2.6038483821997875,-0.10888392708698907,2.4681821257803174,0.826474908251239,9.108951166819248e-05,9.560146658027714e-05,0.0002660981463937251,0.00011112017126428308,-0.00028155008699378965,3.6097692528584504e-05,-0.0014100581731255732,0.0,0.0,0.0,0.0,0.0,0.0,0.0,-0.0001958655765479378,-0.00010339302774947656,-0.000278990694691986,-8.480020569434643e-05,7.223745187125152e-05,6.009101867654465e-05,8.75244792508667e-06,-9.108951166819248e-05,-9.560146658027714e-05,-0.0002660981463937251,-0.00011112017126428308,0.00028155008699378965,-3.6097692528584504e-05,0.0014100581731255732,0.4029781222343445,19.844202041625977,0.3990752398967743,-20.007356643676758,-0.5642600655555725,-2.4630770683288574,0.17978231608867645,0
69,0.3393843173980713,-0.4505855441093445,-19.844202041625977,-0.3990752398967743,20.031160354614258,0.5523582100868225,2.4630770683288574,-0.22830526530742645,0.0,0.0,0.0,0.0,0.0,0.0,0.0,-0.40239382963394243,-0.11427028300275119,-0.1887656763142499,0.23972383590707963,-0.02825078919624128,0.09110847860095073,-0.20379705709459048,1.213640600217016,-0.2201398288409464,-0.0072328379001272355,-2.603765944025251,-0.1089548421104749,2.468122034761641,0.8264719004528319,1.2134413937687574,-0.2202432315892585,-0.0075118285948192216,-2.6038483821997875,-0.10888392708698907,2.4681821257803174,0.826474908251239,0.0012326561734485476,1.8465253225264305e-05,0.0005174909979283279,-0.0004489344205591414,0.0001539977399300855,-0.00012900477791410173,0.0008733680192146888,0.0,0.0,0.0,0.0,0.0,0.0,0.0,-0.00019920644825854872,-0.0001034027483120814,-0.000278990694691986,-8.243817453656987e-05,7.091502348582912e-05,6.009101867654465e-05,3.0077984071175123e-06,-0.0012326561734485476,-1.8465253225264305e-05,-0.0005174909979283279,0.0004489344205591414,-0.0001539977399300855,0.00012900477791410173,-0.0008733680192146888,0.4505855441093445,19.844202041625977,0.3990752398967743,-20.031160354614258,-0.5523582100868225,-2.4630770683288574,0.22830526530742645,0
70,0.3444342613220215,-0.4505855441093445,-19.844202041625977,-0.3990752398967743,20.031160354614258,0.5523582100868225,2.4630770683288574,-0.22830526530742645,0.0,0.0,0.0,0.0,0.0,0.0,0.0,-0.40239382963394243,-0.11427028300275119,-0.1887656763142499,0.23972383590707963,-0.02825078919624128,0.09110847860095073,-0.20379705709459048,1.213640600217016,-0.2201398288409464,-0.0072328379001272355,-2.603765944025251,-0.1089548421104749,2.468122034761641,0.8264719004528319,1.2134413937687574,-0.2202432315892585,-0.0075118285948192216,-2.6038483821997875,-0.10888392708698907,2.4681821257803174,0.826474908251239,0.0012326561734485476,1.8465253225264305e-05,0.0005174909979283279,-0.0004489344205591414,0.0001539977399300855,-0.00012900477791410173,0.0008733680192146888,0.0,0.0,0.0,0.0,0.0,0.0,0.0,-0.00019920644825854872,-0.0001034027483120814,-0.000278990694691986,-8.243817453656987e-05,7.091502348582912e-05,6.009101867654465e-05,3.0077984071175123e-06,-0.0012326561734485476,-1.8465253225264305e-05,-0.0005174909979283279,0.0004489344205591414,-0.0001539977399300855,0.00012900477791410173,-0.0008733680192146888,0.4505855441093445,19.844202041625977,0.3990752398967743,-20.031160354614258,-0.5523582100868225,-2.4630770683288574,0.22830526530742645,0
71,0.34944868087768555,-0.4505855441093445,-19.844202041625977,-0.3990752398967743,20.031160354614258,0.5523582100868225,2.4630770683288574,-0.22830526530742645,0.0,0.0,0.0,0.0,0.0,0.0,0.0,-0.40239382963394243,-0.11427028300275119,-0.1887656763142499,0.23972383590707963,-0.02825078919624128,0.09110847860095073,-0.20379705709459048,1.213640600217016,-0.2201398288409464,-0.0072328379001272355,-2.603765944025251,-0.1089548421104749,2.468122034761641,0.8264719004528319,1.2134413937687574,-0.2202432315892585,-0.0075118285948192216,-2.6038483821997875,-0.10888392708698907,2.4681821257803174,0.826474908251239,0.0012326561734485476,1.8465253225264305e-05,0.0005174909979283279,-0.0004489344205591414,0.0001539977399300855,-0.00012900477791410173,0.0008733680192146888,0.0,0.0,0.0,0.0,0.0,0.0,0.0,-0.00019920644825854872,-0.0001034027483120814,-0.000278990694691986,-8.243817453656987e-05,7.091502348582912e-05,6.009101867654465e-05,3.0077984071175123e-06,-0.0012326561734485476,-1.8465253225264305e-05,-0.0005174909979283279,0.0004489344205591414,-0.0001539977399300855,0.00012900477791410173,-0.0008733680192146888,0.4505855441093445,19.844202041625977,0.3990752398967743,-20.031160354614258,-0.5523582100868225,-2.4630770683288574,0.22830526530742645,0
72,0.35443878173828125,-0.4505855441093445,-19.844202041625977,-0.3990752398967743,20.031160354614258,0.5523582100868225,2.4630770683288574,-0.22830526530742645,0.0,0.0,0.0,0.0,0.0,0.0,0.0,-0.40239382963394243,-0.11427028300275119,-0.1887656763142499,0.23972383590707963,-0.02825078919624128,0.09110847860095073,-0.20379705709459048,1.213640600217016,-0.2201398288409464,-0.0072328379001272355,-2.603765944025251,-0.1089548421104749,2.468122034761641,0.8264719004528319,1.2134413937687574,-0.2202432315892585,-0.0075118285948192216,-2.6038483821997875,-0.10888392708698907,2.4681821257803174,0.826474908251239,0.0012326561734485476,1.8465253225264305e-05,0.0005174909979283279,-0.0004489344205591414,0.0001539977399300855,-0.00012900477791410173,0.0008733680192146888,0.0,0.0,0.0,0.0,0.0,0.0,0.0,-0.00019920644825854872,-0.0001034027483120814,-0.000278990694691986,-8.243817453656987e-05,7.091502348582912e-05,6.009101867654465e-05,3.0077984071175123e-06,-0.0012326561734485476,-1.8465253225264305e-05,-0.0005174909979283279,0.0004489344205591414,-0.0001539977399300855,0.00012900477791410173,-0.0008733680192146888,0.4505855441093445,19.844202041625977,0.3990752398967743,-20.031160354614258,-0.5523582100868225,-2.4630770683288574,0.22830526530742645,0
73,0.3594386577606201,-0.4505855441093445,-19.844202041625977,-0.3990752398967743,20.031160354614258,0.5523582100868225,2.4630770683288574,-0.22830526530742645,0.0,0.0,0.0,0.0,0.0,0.0,0.0,-0.40239382963394243,-0.11427028300275119,-0.1887656763142499,0.23972383590707963,-0.02825078919624128,0.09110847860095073,-0.20379705709459048,1.213640600217016,-0.2201398288409464,-0.0072328379001272355,-2.603765944025251,-0.1089548421104749,2.468122034761641,0.8264719004528319,1.2134413937687574,-0.2202432315892585,-0.0075118285948192216,-2.6038483821997875,-0.10888392708698907,2.4681821257803174,0.826474908251239,0.0012326561734485476,1.8465253225264305e-05,0.0005174909979283279,-0.0004489344205591414,0.0001539977399300855,-0.00012900477791410173,0.0008733680192146888,0.0,0.0,0.0,0.0,0.0,0.0,0.0,-0.00019920644825854872,-0.0001034027483120814,-0.000278990694691986,-8.243817453656987e-05,7.091502348582912e-05,6.009101867654465e-05,3.0077984071175123e-06,-0.0012326561734485476,-1.8465253225264305e-05,-0.0005174909979283279,0.0004489344205591414,-0.0001539977399300855,0.00012900477791410173,-0.0008733680192146888,0.4505855441093445,19.844202041625977,0.3990752398967743,-20.031160354614258,-0.5523582100868225,-2.4630770683288574,0.22830526530742645,0
74,0.36444973945617676,-0.3752071261405945,-19.943384170532227,-0.3990752398967743,20.031160354614258,0.5697532296180725,2.4566683769226074,-0.19351522624492645,0.0,0.0,0.0,0.0,0.0,0.0,0.0,-0.39848238956112697,-0.11571632940683424,-0.19435009023757363,0.2382636381353647,-0.02865929748340615,0.09096730144763926,-0.2042870332161274,1.2136353105034743,-0.22013502191622678,-0.0072328379001272355,-2.6037659440291545,-0.10895677489042283,2.4681227468384637,0.82646803489493,1.2134413937687574,-0.2202432315892585,-0.0075118285948192216,-2.6038483821997875,-0.10888392708698907,2.4681821257803174,0.826474908251239,-0.0005864261064211758,0.001606734528588573,0.0003420003880204076,-0.0006897843485419739,-0.0004921387151496649,0.00020799493381917555,-0.0006636473823971109,0.0,0.0,0.0,0.0,0.0,0.0,0.0,-0.00019391673471691462,-0.0001082096730317117,-0.000278990694691986,-8.243817063302572e-05,7.284780343375097e-05,5.937894185370496e-05,6.8733563090006555e-06,0.0005864261064211758,-0.001606734528588573,-0.0003420003880204076,0.0006897843485419739,0.0004921387151496649,-0.00020799493381917555,0.0006636473823971109,0.3752071261405945,19.943384170532227,0.3990752398967743,-20.031160354614258,-0.5697532296180725,-2.4566683769226074,0.19351522624492645,0
75,0.36945343017578125,-0.3752071261405945,-19.943384170532227,-0.3990752398967743,20.031160354614258,0.5697532296180725,2.4566683769226074,-0.19351522624492645,0.0,0.0,0.0,0.0,0.0,0.0,0.0,-0.39848238956112697,-0.11571632940683424,-0.19435009023757363,0.2382636381353647,-0.02865929748340615,0.09096730144763926,-0.2042870332161274,1.2136353105034743,-0.22013502191622678,-0.0072328379001272355,-2.6037659440291545,-0.10895677489042283,2.4681227468384637,0.82646803489493,1.2134413937687574,-0.2202432315892585,-0.0075118285948192216,-2.6038483821997875,-0.10888392708698907,2.4681821257803174,0.826474908251239,-0.0005864261064211758,0.001606734528588573,0.0003420003880204076,-0.0006897843485419739,-0.0004921387151496649,0.00020799493381917555,-0.0006636473823971109,0.0,0.0,0.0,0.0,0.0,0.0,0.0,-0.00019391673471691462,-0.0001082096730317117,-0.000278990694691986,-8.243817063302572e-05,7.284780343375097e-05,5.937894185370496e-05,6.8733563090006555e-06,0.0005864261064211758,-0.001606734528588573,-0.0003420003880204076,0.0006897843485419739,0.0004921387151496649,-0.00020799493381917555,0.0006636473823971109,0.3752071261405945,19.943384170532227,0.3990752398967743,-20.031160354614258,-0.5697532296180725,-2.4566683769226074,0.19351522624492645,0
76,0.374434232711792,-0.3752071261405945,-19.943384170532227,-0.3990752398967743,20.031160354614258,0.5697532296180725,2.4566683769226074,-0.19351522624492645,0.0,0.0,0.0,0.0,0.0,0.0,0.0,-0.39848238956112697,-0.11571632940683424,-0.19435009023757363,0.2382636381353647,-0.02865929748340615,0.09096730144763926,-0.2042870332161274,1.2136353105034743,-0.22013502191622678,-0.0072328379001272355,-2.6037659440291545,-0.10895677489042283,2.4681227468384637,0.82646803489493,1.2134413937687574,-0.2202432315892585,-0.0075118285948192216,-2.6038483821997875,-0.10888392708698907,2.4681821257803174,0.826474908251239,-0.0005864261064211758,0.001606734528588573,0.0003420003880204076,-0.0006897843485419739,-0.0004921387151496649,0.00020799493381917555,-0.0006636473823971109,0.0,0.0,0.0,0.0,0.0,0.0,0.0,-0.00019391673471691462,-0.0001082096730317117,-0.000278990694691986,-8.243817063302572e-05,7.284780343375097e-05,5.937894185370496e-05,6.8733563090006555e-06,0.0005864261064211758,-0.001606734528588573,-0.0003420003880204076,0.0006897843485419739,0.0004921387151496649,-0.00020799493381917555,0.0006636473823971109,0.3752071261405945,19.943384170532227,0.3990752398967743,-20.031160354614258,-0.5697532296180725,-2.4566683769226074,0.19351522624492645,0
77,0.3794567584991455,-0.3752071261405945,-19.943384170532227,-0.3990752398967743,20.031160354614258,0.5697532296180725,2.4566683769226074,-0.19351522624492645,0.0,0.0,0.0,0.0,0.0,0.0,0.0,-0.39848238956112697,-0.11571632940683424,-0.19435009023757363,0.2382636381353647,-0.02865929748340615,0.09096730144763926,-0.2042870332161274,1.2136353105034743,-0.22013502191622678,-0.0072328379001272355,-2.6037659440291545,-0.10895677489042283,2.4681227468384637,0.82646803489493,1.2134413937687574,-0.2202432315892585,-0.0075118285948192216,-2.6038483821997875,-0.10888392708698907,2.4681821257803174,0.826474908251239,-0.0005864261064211758,0.001606734528588573,0.0003420003880204076,-0.0006897843485419739,-0.0004921387151496649,0.00020799493381917555,-0.0006636473823971109,0.0,0.0,0.0,0.0,0.0,0.0,0.0,-0.00019391673471691462,-0.0001082096730317117,-0.000278990694691986,-8.243817063302572e-05,7.284780343375097e-05,5.937894185370496e-05,6.8733563090006555e-06,0.0005864261064211758,-0.001606734528588573,-0.0003420003880204076,0.0006897843485419739,0.0004921387151496649,-0.00020799493381917555,0.0006636473823971109,0.3752071261405945,19.943384170532227,0.3990752398967743,-20.031160354614258,-0.5697532296180725,-2.4566683769226074,0.19351522624492645,0
78,0.384448766708374,-0.4029781222343445,-19.844202041625977,-0.3713042438030243,20.031160354614258,0.5578513741493225,2.4694857597351074,-0.21457235515117645,0.0,0.0,0.0,0.0,0.0,0.0,0.0,-0.4004973446940291,-0.12485169699977691,-0.19536916593857087,0.24235939394354827,-0.027778758397148096,0.0910869752026185,-0.20473464069299624,1.2136372593453053,-0.22013982888904884,-0.007234786741958376,-2.603765944029155,-0.10895543931876353,2.468121322684818,0.8264703745759195,1.2134413937687574,-0.2202432315892585,-0.0075118285948192216,-2.6038483821997875,-0.10888392708698907,2.4681821257803174,0.826474908251239,2.7767444527888634e-05,-0.0011275398762925935,-0.0001157556514527482,-1.4820543259185957e-05,-0.0011350409181955182,-0.00040438845057892594,0.0019867599978515785,0.0,0.0,0.0,0.0,0.0,0.0,0.0,-0.0001958655765479378,-0.0001034027002096427,-0.00027704185286084575,-8.243817063258163e-05,7.151223177445654e-05,6.080309549938434e-05,4.533675319495778e-06,-2.7767444527888634e-05,0.0011275398762925935,0.0001157556514527482,1.4820543259185957e-05,0.0011350409181955182,0.00040438845057892594,-0.0019867599978515785,0.4029781222343445,19.844202041625977,0.3713042438030243,-20.031160354614258,-0.5578513741493225,-2.4694857597351074,0.21457235515117645,0
79,0.38944172859191895,-0.4029781222343445,-19.844202041625977,-0.3713042438030243,20.031160354614258,0.5578513741493225,2.4694857597351074,-0.21457235515117645,0.0,0.0,0.0,0.0,0.0,0.0,0.0,-0.4004973446940291,-0.12485169699977691,-0.19536916593857087,0.24235939394354827,-0.027778758397148096,0.0910869752026185,-0.20473464069299624,1.2136372593453053,-0.22013982888904884,-0.007234786741958376,-2.603765944029155,-0.10895543931876353,2.468121322684818,0.8264703745759195,1.2134413937687574,-0.2202432315892585,-0.0075118285948192216,-2.6038483821997875,-0.10888392708698907,2.4681821257803174,0.826474908251239,2.7767444527888634e-05,-0.0011275398762925935,-0.0001157556514527482,-1.4820543259185957e-05,-0.0011350409181955182,-0.00040438845057892594,0.0019867599978515785,0.0,0.0,0.0,0.0,0.0,0.0,0.0,-0.0001958655765479378,-0.0001034027002096427,-0.00027704185286084575,-8.243817063258163e-05,7.151223177445654e-05,6.080309549938434e-05,4.533675319495778e-06,-2.7767444527888634e-05,0.0011275398762925935,0.0001157556514527482,1.4820543259185957e-05,0.0011350409181955182,0.00040438845057892594,-0.0019867599978515785,0.4029781222343445,19.844202041625977,0.3713042438030243,-20.031160354614258,-0.5578513741493225,-2.4694857597351074,0.21457235515117645,0
