rezayati/contactInterpretation/dataset/franka_main/labeled_data/link4/d2_5.csv
index,time,tau_J0,tau_J1,tau_J2,tau_J3,tau_J4,tau_J5,tau_J6,tau_J_d0,tau_J_d1,tau_J_d2,tau_J_d3,tau_J_d4,tau_J_d5,tau_J_d6,tau_ext0,tau_ext1,tau_ext2,tau_ext3,tau_ext4,tau_ext5,tau_ext6,q0,q1,q2,q3,q4,q5,q6,q_d0,q_d1,q_d2,q_d3,q_d4,q_d5,q_d6,dq0,dq1,dq2,dq3,dq4,dq5,dq6,dq_d0,dq_d1,dq_d2,dq_d3,dq_d4,dq_d5,dq_d6,e0,e1,e2,e3,e4,e5,e6,de0,de1,de2,de3,de4,de5,de6,etau_J0,etau_J1,etau_J2,etau_J3,etau_J4,etau_J5,etau_J6,label
1,0.0,-0.8076412081718445,-46.57577133178711,-5.588284015655518,19.535249710083008,0.7665916085243225,2.3980746269226074,-0.20724813640117645,0.0,0.0,0.0,0.0,0.0,0.0,0.0,-0.7958597169904863,-0.25017779957929803,-0.4331947894092884,0.344462723131726,0.18346625424356477,0.11636290198887675,-0.18498630000492527,0.8781211593250589,0.7556136756079233,-0.28251539423308153,-1.6690446017248586,0.1414096387835669,2.403567903356334,1.0273491345958576,0.878092876070424,0.7554597494309409,-0.2825552651693207,-1.6690993614607135,0.1414185955172306,2.4034451173676383,1.0273381002308042,5.729096599922294e-05,-0.0003218597402087595,-0.0007592237577595442,0.0003438237014716351,-2.5004559961272717e-05,-0.0005970060832360416,0.0012077905366505146,0.0,0.0,0.0,0.0,0.0,0.0,0.0,-2.8283254634886568e-05,-0.00015392617698239963,-3.987093623919469e-05,-5.4759735854892355e-05,8.956733663689764e-06,-0.0001227859886956395,-1.1034365053452788e-05,-5.729096599922294e-05,0.0003218597402087595,0.0007592237577595442,-0.0003438237014716351,2.5004559961272717e-05,0.0005970060832360416,-0.0012077905366505146,0.8076412081718445,46.57577133178711,5.588284015655518,-19.535249710083008,-0.7665916085243225,-2.3980746269226074,0.20724813640117645,0
2,0.005008220672607422,-0.8076412081718445,-46.57577133178711,-5.588284015655518,19.535249710083008,0.7665916085243225,2.3980746269226074,-0.20724813640117645,0.0,0.0,0.0,0.0,0.0,0.0,0.0,-0.7958597169904863,-0.25017779957929803,-0.4331947894092884,0.344462723131726,0.18346625424356477,0.11636290198887675,-0.18498630000492527,0.8781211593250589,0.7556136756079233,-0.28251539423308153,-1.6690446017248586,0.1414096387835669,2.403567903356334,1.0273491345958576,0.878092876070424,0.7554597494309409,-0.2825552651693207,-1.6690993614607135,0.1414185955172306,2.4034451173676383,1.0273381002308042,5.729096599922294e-05,-0.0003218597402087595,-0.0007592237577595442,0.0003438237014716351,-2.5004559961272717e-05,-0.0005970060832360416,0.0012077905366505146,0.0,0.0,0.0,0.0,0.0,0.0,0.0,-2.8283254634886568e-05,-0.00015392617698239963,-3.987093623919469e-05,-5.4759735854892355e-05,8.956733663689764e-06,-0.0001227859886956395,-1.1034365053452788e-05,-5.729096599922294e-05,0.0003218597402087595,0.0007592237577595442,-0.0003438237014716351,2.5004559961272717e-05,0.0005970060832360416,-0.0012077905366505146,0.8076412081718445,46.57577133178711,5.588284015655518,-19.535249710083008,-0.7665916085243225,-2.3980746269226074,0.20724813640117645,0
3,0.00995326042175293,-0.6806880831718445,-46.52419662475586,-5.564480304718018,19.559053421020508,0.7665916085243225,2.3852572441101074,-0.17978231608867645,0.0,0.0,0.0,0.0,0.0,0.0,0.0,-0.7673532483352972,-0.23164419864043032,-0.4130851429351822,0.33714288075762605,0.18313147598763033,0.11548720073960693,-0.18422007645998512,0.8781112181610736,0.755610060244689,-0.2825169053640136,-1.6690462721970527,0.14140858960225078,2.403569437925709,1.0273460828380452,0.878092876070424,0.7554597494309409,-0.2825552651693207,-1.6690993614607135,0.1414185955172306,2.4034451173676383,1.0273381002308042,-0.0013940361309661385,-0.0008006262487886593,-0.00032226170946269243,-0.0001616664425191435,0.0001890695421578509,1.6987045223042652e-05,-0.0002390799241994855,0.0,0.0,0.0,0.0,0.0,0.0,0.0,-1.834209064965897e-05,-0.0001503108137481668,-3.8359805307142114e-05,-5.308926366076605e-05,1.0005914979821506e-05,-0.00012432055807076736,-7.982607240997197e-06,0.0013940361309661385,0.0008006262487886593,0.00032226170946269243,0.0001616664425191435,-0.0001890695421578509,-1.6987045223042652e-05,0.0002390799241994855,0.6806880831718445,46.52419662475586,5.564480304718018,-19.559053421020508,-0.7665916085243225,-2.3852572441101074,0.17978231608867645,0
4,0.015003681182861328,-0.6806880831718445,-46.52419662475586,-5.564480304718018,19.559053421020508,0.7665916085243225,2.3852572441101074,-0.17978231608867645,0.0,0.0,0.0,0.0,0.0,0.0,0.0,-0.7673532483352972,-0.23164419864043032,-0.4130851429351822,0.33714288075762605,0.18313147598763033,0.11548720073960693,-0.18422007645998512,0.8781112181610736,0.755610060244689,-0.2825169053640136,-1.6690462721970527,0.14140858960225078,2.403569437925709,1.0273460828380452,0.878092876070424,0.7554597494309409,-0.2825552651693207,-1.6690993614607135,0.1414185955172306,2.4034451173676383,1.0273381002308042,-0.0013940361309661385,-0.0008006262487886593,-0.00032226170946269243,-0.0001616664425191435,0.0001890695421578509,1.6987045223042652e-05,-0.0002390799241994855,0.0,0.0,0.0,0.0,0.0,0.0,0.0,-1.834209064965897e-05,-0.0001503108137481668,-3.8359805307142114e-05,-5.308926366076605e-05,1.0005914979821506e-05,-0.00012432055807076736,-7.982607240997197e-06,0.0013940361309661385,0.0008006262487886593,0.00032226170946269243,0.0001616664425191435,-0.0001890695421578509,-1.6987045223042652e-05,0.0002390799241994855,0.6806880831718445,46.52419662475586,5.564480304718018,-19.559053421020508,-0.7665916085243225,-2.3852572441101074,0.17978231608867645,0
5,0.0200040340423584,-0.7322627902030945,-46.50039291381836,-5.536709308624268,19.559053421020508,0.7730002999305725,2.3788485527038574,-0.14590780436992645,0.0,0.0,0.0,0.0,0.0,0.0,0.0,-0.7735090111443067,-0.22673389246294418,-0.42086340162295566,0.3355643295753041,0.18425039341756747,0.11504949232278451,-0.18448477510216615,0.8781149096017031,0.7556104968752925,-0.2825183491325737,-1.6690465105792933,0.1414057836445418,2.4035732059041246,1.0273423190034099,0.878092876070424,0.7554597494309409,-0.2825552651693207,-1.6690993614607135,0.1414185955172306,2.4034451173676383,1.0273381002308042,0.0002983878037585829,-0.0006096047447526821,0.00018862994592363163,-0.00030130785990257125,-0.00016487898364602266,-4.671462479947684e-06,-0.0010954737429901727,0.0,0.0,0.0,0.0,0.0,0.0,0.0,-2.2033531279164187e-05,-0.0001507474443516177,-3.69160367470478e-05,-5.285088142015226e-05,1.2811872688811565e-05,-0.0001280885364862705,-4.218772605701915e-06,-0.0002983878037585829,0.0006096047447526821,-0.00018862994592363163,0.00030130785990257125,0.00016487898364602266,4.671462479947684e-06,0.0010954737429901727,0.7322627902030945,46.50039291381836,5.536709308624268,-19.559053421020508,-0.7730002999305725,-2.3788485527038574,0.14590780436992645,0
6,0.025006771087646484,-0.7322627902030945,-46.50039291381836,-5.536709308624268,19.559053421020508,0.7730002999305725,2.3788485527038574,-0.14590780436992645,0.0,0.0,0.0,0.0,0.0,0.0,0.0,-0.7735090111443067,-0.22673389246294418,-0.42086340162295566,0.3355643295753041,0.18425039341756747,0.11504949232278451,-0.18448477510216615,0.8781149096017031,0.7556104968752925,-0.2825183491325737,-1.6690465105792933,0.1414057836445418,2.4035732059041246,1.0273423190034099,0.878092876070424,0.7554597494309409,-0.2825552651693207,-1.6690993614607135,0.1414185955172306,2.4034451173676383,1.0273381002308042,0.0002983878037585829,-0.0006096047447526821,0.00018862994592363163,-0.00030130785990257125,-0.00016487898364602266,-4.671462479947684e-06,-0.0010954737429901727,0.0,0.0,0.0,0.0,0.0,0.0,0.0,-2.2033531279164187e-05,-0.0001507474443516177,-3.69160367470478e-05,-5.285088142015226e-05,1.2811872688811565e-05,-0.0001280885364862705,-4.218772605701915e-06,-0.0002983878037585829,0.0006096047447526821,-0.00018862994592363163,0.00030130785990257125,0.00016487898364602266,4.671462479947684e-06,0.0010954737429901727,0.7322627902030945,46.50039291381836,5.536709308624268,-19.559053421020508,-0.7730002999305725,-2.3788485527038574,0.14590780436992645,0
7,0.029996633529663086,-0.7322627902030945,-46.54800033569336,-5.536709308624268,19.586824417114258,0.7730002999305725,2.3852572441101074,-0.22830526530742645,0.0,0.0,0.0,0.0,0.0,0.0,0.0,-0.7817259771613551,-0.2358072944084192,-0.4256574718690878,0.34041244426155587,0.18523369662619588,0.11518543984347658,-0.1842132758674917,0.8781149066586712,0.7556106709453152,-0.2825190820460953,-1.6690482210038908,0.14140825898790962,2.4035696692195776,1.0273515145038503,0.878092876070424,0.7554597494309409,-0.2825552651693207,-1.6690993614607135,0.1414185955172306,2.4034451173676383,1.0273381002308042,0.00020097274061821506,-1.4341494077232827e-05,-0.00033259572458031267,-0.0009368028142924351,-0.00025158719658212753,-8.149301759245484e-05,0.0013807043087781436,0.0,0.0,0.0,0.0,0.0,0.0,0.0,-2.2030588247234917e-05,-0.00015092151437434698,-3.6183123225397296e-05,-5.1140456822640346e-05,1.0336529320975618e-05,-0.00012455185193926965,-1.3414273046130631e-05,-0.00020097274061821506,1.4341494077232827e-05,0.00033259572458031267,0.0009368028142924351,0.00025158719658212753,8.149301759245484e-05,-0.0013807043087781436,0.7322627902030945,46.54800033569336,5.536709308624268,-19.586824417114258,-0.7730002999305725,-2.3852572441101074,0.22830526530742645,0
8,0.03499770164489746,-0.7322627902030945,-46.54800033569336,-5.536709308624268,19.586824417114258,0.7730002999305725,2.3852572441101074,-0.22830526530742645,0.0,0.0,0.0,0.0,0.0,0.0,0.0,-0.7817259771613551,-0.2358072944084192,-0.4256574718690878,0.34041244426155587,0.18523369662619588,0.11518543984347658,-0.1842132758674917,0.8781149066586712,0.7556106709453152,-0.2825190820460953,-1.6690482210038908,0.14140825898790962,2.4035696692195776,1.0273515145038503,0.878092876070424,0.7554597494309409,-0.2825552651693207,-1.6690993614607135,0.1414185955172306,2.4034451173676383,1.0273381002308042,0.00020097274061821506,-1.4341494077232827e-05,-0.00033259572458031267,-0.0009368028142924351,-0.00025158719658212753,-8.149301759245484e-05,0.0013807043087781436,0.0,0.0,0.0,0.0,0.0,0.0,0.0,-2.2030588247234917e-05,-0.00015092151437434698,-3.6183123225397296e-05,-5.1140456822640346e-05,1.0336529320975618e-05,-0.00012455185193926965,-1.3414273046130631e-05,-0.00020097274061821506,1.4341494077232827e-05,0.00033259572458031267,0.0009368028142924351,0.00025158719658212753,8.149301759245484e-05,-0.0013807043087781436,0.7322627902030945,46.54800033569336,5.536709308624268,-19.586824417114258,-0.7730002999305725,-2.3852572441101074,0.22830526530742645,0
9,0.04000091552734375,-0.7560665011405945,-46.57577133178711,-5.588284015655518,19.559053421020508,0.7610984444618225,2.3788485527038574,-0.18710653483867645,0.0,0.0,0.0,0.0,0.0,0.0,0.0,-0.7816250008225248,-0.23393920111043767,-0.4219492992990653,0.3391184198552692,0.18529189940591267,0.11544218779109751,-0.18582520392640417,0.8781165241126033,0.7556155563041541,-0.2825154746916583,-1.669046272160714,0.14141076086516385,2.4035701441902604,1.0273468966403556,0.878092876070424,0.7554597494309409,-0.2825552651693207,-1.6690993614607135,0.1414185955172306,2.4034451173676383,1.0273381002308042,3.550642092418807e-05,0.0003835946136697231,0.0006651813231784968,-0.0005758870132181571,0.00028594606846817083,0.00016784482996743658,9.585033293413989e-05,0.0,0.0,0.0,0.0,0.0,0.0,0.0,-2.3648042179358342e-05,-0.00015580687321326003,-3.979047766244914e-05,-5.308929999947587e-05,7.83465206674605e-06,-0.0001250268226220541,-8.79640955142591e-06,-3.550642092418807e-05,-0.0003835946136697231,-0.0006651813231784968,0.0005758870132181571,-0.00028594606846817083,-0.00016784482996743658,-9.585033293413989e-05,0.7560665011405945,46.57577133178711,5.588284015655518,-19.559053421020508,-0.7610984444618225,-2.3788485527038574,0.18710653483867645,0
10,0.0449979305267334,-0.7560665011405945,-46.57577133178711,-5.588284015655518,19.559053421020508,0.7610984444618225,2.3788485527038574,-0.18710653483867645,0.0,0.0,0.0,0.0,0.0,0.0,0.0,-0.7816250008225248,-0.23393920111043767,-0.4219492992990653,0.3391184198552692,0.18529189940591267,0.11544218779109751,-0.18582520392640417,0.8781165241126033,0.7556155563041541,-0.2825154746916583,-1.669046272160714,0.14141076086516385,2.4035701441902604,1.0273468966403556,0.878092876070424,0.7554597494309409,-0.2825552651693207,-1.6690993614607135,0.1414185955172306,2.4034451173676383,1.0273381002308042,3.550642092418807e-05,0.0003835946136697231,0.0006651813231784968,-0.0005758870132181571,0.00028594606846817083,0.00016784482996743658,9.585033293413989e-05,0.0,0.0,0.0,0.0,0.0,0.0,0.0,-2.3648042179358342e-05,-0.00015580687321326003,-3.979047766244914e-05,-5.308929999947587e-05,7.83465206674605e-06,-0.0001250268226220541,-8.79640955142591e-06,-3.550642092418807e-05,-0.0003835946136697231,-0.0006651813231784968,0.0005758870132181571,-0.00028594606846817083,-0.00016784482996743658,-9.585033293413989e-05,0.7560665011405945,46.57577133178711,5.588284015655518,-19.559053421020508,-0.7610984444618225,-2.3788485527038574,0.18710653483867645,0
11,0.050016164779663086,-0.7560665011405945,-46.57577133178711,-5.588284015655518,19.559053421020508,0.7610984444618225,2.3788485527038574,-0.18710653483867645,0.0,0.0,0.0,0.0,0.0,0.0,0.0,-0.7816250008225248,-0.23393920111043767,-0.4219492992990653,0.3391184198552692,0.18529189940591267,0.11544218779109751,-0.18582520392640417,0.8781165241126033,0.7556155563041541,-0.2825154746916583,-1.669046272160714,0.14141076086516385,2.4035701441902604,1.0273468966403556,0.878092876070424,0.7554597494309409,-0.2825552651693207,-1.6690993614607135,0.1414185955172306,2.4034451173676383,1.0273381002308042,3.550642092418807e-05,0.0003835946136697231,0.0006651813231784968,-0.0005758870132181571,0.00028594606846817083,0.00016784482996743658,9.585033293413989e-05,0.0,0.0,0.0,0.0,0.0,0.0,0.0,-2.3648042179358342e-05,-0.00015580687321326003,-3.979047766244914e-05,-5.308929999947587e-05,7.83465206674605e-06,-0.0001250268226220541,-8.79640955142591e-06,-3.550642092418807e-05,-0.0003835946136697231,-0.0006651813231784968,0.0005758870132181571,-0.00028594606846817083,-0.00016784482996743658,-9.585033293413989e-05,0.7560665011405945,46.57577133178711,5.588284015655518,-19.559053421020508,-0.7610984444618225,-2.3788485527038574,0.18710653483867645,0
12,0.05500984191894531,-0.7560665011405945,-46.57577133178711,-5.588284015655518,19.559053421020508,0.7610984444618225,2.3788485527038574,-0.18710653483867645,0.0,0.0,0.0,0.0,0.0,0.0,0.0,-0.7816250008225248,-0.23393920111043767,-0.4219492992990653,0.3391184198552692,0.18529189940591267,0.11544218779109751,-0.18582520392640417,0.8781165241126033,0.7556155563041541,-0.2825154746916583,-1.669046272160714,0.14141076086516385,2.4035701441902604,1.0273468966403556,0.878092876070424,0.7554597494309409,-0.2825552651693207,-1.6690993614607135,0.1414185955172306,2.4034451173676383,1.0273381002308042,3.550642092418807e-05,0.0003835946136697231,0.0006651813231784968,-0.0005758870132181571,0.00028594606846817083,0.00016784482996743658,9.585033293413989e-05,0.0,0.0,0.0,0.0,0.0,0.0,0.0,-2.3648042179358342e-05,-0.00015580687321326003,-3.979047766244914e-05,-5.308929999947587e-05,7.83465206674605e-06,-0.0001250268226220541,-8.79640955142591e-06,-3.550642092418807e-05,-0.0003835946136697231,-0.0006651813231784968,0.0005758870132181571,-0.00028594606846817083,-0.00016784482996743658,-9.585033293413989e-05,0.7560665011405945,46.57577133178711,5.588284015655518,-19.559053421020508,-0.7610984444618225,-2.3788485527038574,0.18710653483867645,0
13,0.05995607376098633,-0.8076412081718445,-46.54800033569336,-5.635891437530518,19.535249710083008,0.7665916085243225,2.3724398612976074,-0.17337362468242645,0.0,0.0,0.0,0.0,0.0,0.0,0.0,-0.7863705551712987,-0.22576412951015476,-0.42558400190144824,0.3348760922273787,0.18483419819579575,0.11510385845413261,-0.18537367590513235,0.8781222891935414,0.7556137616642421,-0.28251189431127327,-1.6690446017611973,0.14140692424738743,2.403573917604068,1.0273453707612223,0.878092876070424,0.7554597494309409,-0.2825552651693207,-1.6690993614607135,0.1414185955172306,2.4034451173676383,1.0273381002308042,0.00046960204801877354,0.00033393847296995084,0.00028841113177786675,0.00031392228583216643,0.00013936502213171298,0.0004369357182482532,-0.0004916719644820923,0.0,0.0,0.0,0.0,0.0,0.0,0.0,-2.9413123117438822e-05,-0.00015401223330124836,-4.337085804745344e-05,-5.4759699516182536e-05,1.1671269843166465e-05,-0.00012880023642969363,-7.270530418157506e-06,-0.00046960204801877354,-0.00033393847296995084,-0.00028841113177786675,-0.00031392228583216643,-0.00013936502213171298,-0.0004369357182482532,0.0004916719644820923,0.8076412081718445,46.54800033569336,5.635891437530518,-19.535249710083008,-0.7665916085243225,-2.3724398612976074,0.17337362468242645,0
14,0.06499743461608887,-0.8076412081718445,-46.54800033569336,-5.635891437530518,19.535249710083008,0.7665916085243225,2.3724398612976074,-0.17337362468242645,0.0,0.0,0.0,0.0,0.0,0.0,0.0,-0.7863705551712987,-0.22576412951015476,-0.42558400190144824,0.3348760922273787,0.18483419819579575,0.11510385845413261,-0.18537367590513235,0.8781222891935414,0.7556137616642421,-0.28251189431127327,-1.6690446017611973,0.14140692424738743,2.403573917604068,1.0273453707612223,0.878092876070424,0.7554597494309409,-0.2825552651693207,-1.6690993614607135,0.1414185955172306,2.4034451173676383,1.0273381002308042,0.00046960204801877354,0.00033393847296995084,0.00028841113177786675,0.00031392228583216643,0.00013936502213171298,0.0004369357182482532,-0.0004916719644820923,0.0,0.0,0.0,0.0,0.0,0.0,0.0,-2.9413123117438822e-05,-0.00015401223330124836,-4.337085804745344e-05,-5.4759699516182536e-05,1.1671269843166465e-05,-0.00012880023642969363,-7.270530418157506e-06,-0.00046960204801877354,-0.00033393847296995084,-0.00028841113177786675,-0.00031392228583216643,-0.00013936502213171298,-0.0004369357182482532,0.0004916719644820923,0.8076412081718445,46.54800033569336,5.635891437530518,-19.535249710083008,-0.7665916085243225,-2.3724398612976074,0.17337362468242645,0
15,0.06999754905700684,-0.8354122042655945,-46.57577133178711,-5.612087726593018,19.559053421020508,0.7730002999305725,2.3788485527038574,-0.22830526530742645,0.0,0.0,0.0,0.0,0.0,0.0,0.0,-0.7849314360104704,-0.22878042754237585,-0.42620646731523393,0.33636999805731826,0.18469832646411685,0.11556283935898091,-0.18587752844253252,0.8781230195363144,0.7556134145153138,-0.28251141712528804,-1.669046510615632,0.14140507305801836,2.403570379681343,1.0273514742768473,0.878092876070424,0.7554597494309409,-0.2825552651693207,-1.6690993614607135,0.1414185955172306,2.4034451173676383,1.0273381002308042,4.554913572646122e-05,0.0007110866881367178,-0.0009681798962457389,-0.00039964897729374583,1.2326558873143497e-05,0.00013017245348721408,0.0016873611381032951,0.0,0.0,0.0,0.0,0.0,0.0,0.0,-3.014346589047534e-05,-0.0001536650843729781,-4.384804403267939e-05,-5.2850845081442444e-05,1.3522459212239601e-05,-0.0001252623137046882,-1.3374046043068688e-05,-4.554913572646122e-05,-0.0007110866881367178,0.0009681798962457389,0.00039964897729374583,-1.2326558873143497e-05,-0.00013017245348721408,-0.0016873611381032951,0.8354122042655945,46.57577133178711,5.612087726593018,-19.559053421020508,-0.7730002999305725,-2.3788485527038574,0.22830526530742645,0
16,0.07500100135803223,-0.8354122042655945,-46.57577133178711,-5.612087726593018,19.559053421020508,0.7730002999305725,2.3788485527038574,-0.22830526530742645,0.0,0.0,0.0,0.0,0.0,0.0,0.0,-0.7849314360104704,-0.22878042754237585,-0.42620646731523393,0.33636999805731826,0.18469832646411685,0.11556283935898091,-0.18587752844253252,0.8781230195363144,0.7556134145153138,-0.28251141712528804,-1.669046510615632,0.14140507305801836,2.403570379681343,1.0273514742768473,0.878092876070424,0.7554597494309409,-0.2825552651693207,-1.6690993614607135,0.1414185955172306,2.4034451173676383,1.0273381002308042,4.554913572646122e-05,0.0007110866881367178,-0.0009681798962457389,-0.00039964897729374583,1.2326558873143497e-05,0.00013017245348721408,0.0016873611381032951,0.0,0.0,0.0,0.0,0.0,0.0,0.0,-3.014346589047534e-05,-0.0001536650843729781,-4.384804403267939e-05,-5.2850845081442444e-05,1.3522459212239601e-05,-0.0001252623137046882,-1.3374046043068688e-05,-4.554913572646122e-05,-0.0007110866881367178,0.0009681798962457389,0.00039964897729374583,-1.2326558873143497e-05,-0.00013017245348721408,-0.0016873611381032951,0.8354122042655945,46.57577133178711,5.612087726593018,-19.559053421020508,-0.7730002999305725,-2.3788485527038574,0.22830526530742645,0
17,0.0800008773803711,-0.7838374972343445,-46.57577133178711,-5.588284015655518,19.535249710083008,0.7665916085243225,2.3660311698913574,-0.15964071452617645,0.0,0.0,0.0,0.0,0.0,0.0,0.0,-0.7653764718769867,-0.23441766543808096,-0.41191980125490585,0.33925773177841906,0.18429356989084275,0.1155088377340655,-0.186705506031413,0.878118800662273,0.7556150305595164,-0.2825123398791121,-1.6690446017262046,0.14140964502351866,2.4035746295207145,1.027343844882316,0.878092876070424,0.7554597494309409,-0.2825552651693207,-1.6690993614607135,0.1414185955172306,2.4034451173676383,1.0273381002308042,-0.0008230755645225444,-0.0002813262309517323,-0.0005195115043059087,-0.0002456330117369679,0.0002040587387471005,0.00040587011500542946,-0.001054062631172533,0.0,0.0,0.0,0.0,0.0,0.0,0.0,-2.5924591849024736e-05,-0.0001552811285755462,-4.292529020860636e-05,-5.475973450885796e-05,8.95049371194001e-06,-0.00012951215307621666,-5.744651511818688e-06,0.0008230755645225444,0.0002813262309517323,0.0005195115043059087,0.0002456330117369679,-0.0002040587387471005,-0.00040587011500542946,0.001054062631172533,0.7838374972343445,46.57577133178711,5.588284015655518,-19.535249710083008,-0.7665916085243225,-2.3660311698913574,0.15964071452617645,0
18,0.08500480651855469,-0.7838374972343445,-46.57577133178711,-5.588284015655518,19.535249710083008,0.7665916085243225,2.3660311698913574,-0.15964071452617645,0.0,0.0,0.0,0.0,0.0,0.0,0.0,-0.7653764718769867,-0.23441766543808096,-0.41191980125490585,0.33925773177841906,0.18429356989084275,0.1155088377340655,-0.186705506031413,0.878118800662273,0.7556150305595164,-0.2825123398791121,-1.6690446017262046,0.14140964502351866,2.4035746295207145,1.027343844882316,0.878092876070424,0.7554597494309409,-0.2825552651693207,-1.6690993614607135,0.1414185955172306,2.4034451173676383,1.0273381002308042,-0.0008230755645225444,-0.0002813262309517323,-0.0005195115043059087,-0.0002456330117369679,0.0002040587387471005,0.00040587011500542946,-0.001054062631172533,0.0,0.0,0.0,0.0,0.0,0.0,0.0,-2.5924591849024736e-05,-0.0001552811285755462,-4.292529020860636e-05,-5.475973450885796e-05,8.95049371194001e-06,-0.00012951215307621666,-5.744651511818688e-06,0.0008230755645225444,0.0002813262309517323,0.0005195115043059087,0.0002456330117369679,-0.0002040587387471005,-0.00040587011500542946,0.001054062631172533,0.7838374972343445,46.57577133178711,5.588284015655518,-19.535249710083008,-0.7665916085243225,-2.3660311698913574,0.15964071452617645,0
19,0.09000921249389648,-0.8354122042655945,-46.54800033569336,-5.635891437530518,19.559053421020508,0.7730002999305725,2.3916659355163574,-0.19351522624492645,0.0,0.0,0.0,0.0,0.0,0.0,0.0,-0.790577902040889,-0.23640870708265593,-0.42611061483945434,0.3358050743004029,0.18436519148808672,0.11482949294672905,-0.18601331159269735,0.8781249389028123,0.7556128958540702,-0.2825089269797662,-1.669046272160714,0.14140798817848968,2.403571782682924,1.0273476087169515,0.878092876070424,0.7554597494309409,-0.2825552651693207,-1.6690993614607135,0.1414185955172306,2.4034451173676383,1.0273381002308042,0.0003731179786661613,-0.0005849020925061473,0.00047774486866860146,-0.0006071772027525039,-0.00011711365876088609,-0.0005123288744469642,6.539004519877504e-05,0.0,0.0,0.0,0.0,0.0,0.0,0.0,-3.20628323883243e-05,-0.00015314642312935778,-4.633818955451785e-05,-5.308929999947587e-05,1.0607338740920014e-05,-0.00012666531528582325,-9.508486147336015e-06,-0.0003731179786661613,0.0005849020925061473,-0.00047774486866860146,0.0006071772027525039,0.00011711365876088609,0.0005123288744469642,-6.539004519877504e-05,0.8354122042655945,46.54800033569336,5.635891437530518,-19.559053421020508,-0.7730002999305725,-2.3916659355163574,0.19351522624492645,0
20,0.09500575065612793,-0.8354122042655945,-46.54800033569336,-5.635891437530518,19.559053421020508,0.7730002999305725,2.3916659355163574,-0.19351522624492645,0.0,0.0,0.0,0.0,0.0,0.0,0.0,-0.790577902040889,-0.23640870708265593,-0.42611061483945434,0.3358050743004029,0.18436519148808672,0.11482949294672905,-0.18601331159269735,0.8781249389028123,0.7556128958540702,-0.2825089269797662,-1.669046272160714,0.14140798817848968,2.403571782682924,1.0273476087169515,0.878092876070424,0.7554597494309409,-0.2825552651693207,-1.6690993614607135,0.1414185955172306,2.4034451173676383,1.0273381002308042,0.0003731179786661613,-0.0005849020925061473,0.00047774486866860146,-0.0006071772027525039,-0.00011711365876088609,-0.0005123288744469642,6.539004519877504e-05,0.0,0.0,0.0,0.0,0.0,0.0,0.0,-3.20628323883243e-05,-0.00015314642312935778,-4.633818955451785e-05,-5.308929999947587e-05,1.0607338740920014e-05,-0.00012666531528582325,-9.508486147336015e-06,-0.0003731179786661613,0.0005849020925061473,-0.00047774486866860146,0.0006071772027525039,0.00011711365876088609,0.0005123288744469642,-6.539004519877504e-05,0.8354122042655945,46.54800033569336,5.635891437530518,-19.559053421020508,-0.7730002999305725,-2.3916659355163574,0.19351522624492645,0
21,0.09996533393859863,-0.8354122042655945,-46.54800033569336,-5.635891437530518,19.535249710083008,0.7665916085243225,2.3788485527038574,-0.20083944499492645,0.0,0.0,0.0,0.0,0.0,0.0,0.0,-0.7874670609795199,-0.24152907370188276,-0.4244564758509482,0.33907234314664864,0.1845705403170264,0.11560855079322913,-0.187145090469465,0.8781220776397114,0.755611718877048,-0.28250966981621284,-1.6690446017248586,0.14140680418957738,2.4035700658760026,1.0273484225190348,0.878092876070424,0.7554597494309409,-0.2825552651693207,-1.6690993614607135,0.1414185955172306,2.4034451173676383,1.0273381002308042,0.001026377107749763,-0.00017625076093838782,0.0005888702309673775,0.0005779587563202771,5.30382557623012e-05,0.00014255241168749985,0.0007325832803748113,0.0,0.0,0.0,0.0,0.0,0.0,0.0,-2.920156928742923e-05,-0.00015196944610718077,-4.559535310788565e-05,-5.4759735854892355e-05,1.1791327653221106e-05,-0.0001249485083643087,-1.0322288230613097e-05,-0.001026377107749763,0.00017625076093838782,-0.0005888702309673775,-0.0005779587563202771,-5.30382557623012e-05,-0.00014255241168749985,-0.0007325832803748113,0.8354122042655945,46.54800033569336,5.635891437530518,-19.535249710083008,-0.7665916085243225,-2.3788485527038574,0.20083944499492645,0
22,0.10535240173339844,-0.8354122042655945,-46.54800033569336,-5.635891437530518,19.535249710083008,0.7665916085243225,2.3788485527038574,-0.20083944499492645,0.0,0.0,0.0,0.0,0.0,0.0,0.0,-0.7874670609795199,-0.24152907370188276,-0.4244564758509482,0.33907234314664864,0.1845705403170264,0.11560855079322913,-0.187145090469465,0.8781220776397114,0.755611718877048,-0.28250966981621284,-1.6690446017248586,0.14140680418957738,2.4035700658760026,1.0273484225190348,0.878092876070424,0.7554597494309409,-0.2825552651693207,-1.6690993614607135,0.1414185955172306,2.4034451173676383,1.0273381002308042,0.001026377107749763,-0.00017625076093838782,0.0005888702309673775,0.0005779587563202771,5.30382557623012e-05,0.00014255241168749985,0.0007325832803748113,0.0,0.0,0.0,0.0,0.0,0.0,0.0,-2.920156928742923e-05,-0.00015196944610718077,-4.559535310788565e-05,-5.4759735854892355e-05,1.1791327653221106e-05,-0.0001249485083643087,-1.0322288230613097e-05,-0.001026377107749763,0.00017625076093838782,-0.0005888702309673775,-0.0005779587563202771,-5.30382557623012e-05,-0.00014255241168749985,-0.0007325832803748113,0.8354122042655945,46.54800033569336,5.635891437530518,-19.535249710083008,-0.7665916085243225,-2.3788485527038574,0.20083944499492645,0
23,0.10997486114501953,-0.8354122042655945,-46.57577133178711,-5.663662433624268,19.559053421020508,0.7665916085243225,2.3852572441101074,-0.17337362468242645,0.0,0.0,0.0,0.0,0.0,0.0,0.0,-0.8087832048380164,-0.25519998432002994,-0.4451612312695752,0.3445973330728155,0.1848433186330982,0.11598620088339201,-0.18689923607396272,0.8781251743396811,0.7556128847573951,-0.2825101849279358,-1.669046272160714,0.14140578254199895,2.4035697070479936,1.0273453707612223,0.878092876070424,0.7554597494309409,-0.2825552651693207,-1.6690993614607135,0.1414185955172306,2.4034451173676383,1.0273381002308042,0.0005615192349516791,-0.00044376059861216496,0.0006995720051353507,-0.0003394149924231274,3.1158834895002134e-05,-2.5496945734447923e-05,-0.0011390057917581085,0.0,0.0,0.0,0.0,0.0,0.0,0.0,-3.2298269257102774e-05,-0.00015313532645422345,-4.508024138494271e-05,-5.308929999947587e-05,1.2812975231646373e-05,-0.00012458968035522489,-7.270530418157506e-06,-0.0005615192349516791,0.00044376059861216496,-0.0006995720051353507,0.0003394149924231274,-3.1158834895002134e-05,2.5496945734447923e-05,0.0011390057917581085,0.8354122042655945,46.57577133178711,5.663662433624268,-19.559053421020508,-0.7665916085243225,-2.3852572441101074,0.17337362468242645,0
24,0.11499905586242676,-0.8354122042655945,-46.57577133178711,-5.663662433624268,19.559053421020508,0.7665916085243225,2.3852572441101074,-0.17337362468242645,0.0,0.0,0.0,0.0,0.0,0.0,0.0,-0.8087832048380164,-0.25519998432002994,-0.4451612312695752,0.3445973330728155,0.1848433186330982,0.11598620088339201,-0.18689923607396272,0.8781251743396811,0.7556128847573951,-0.2825101849279358,-1.669046272160714,0.14140578254199895,2.4035697070479936,1.0273453707612223,0.878092876070424,0.7554597494309409,-0.2825552651693207,-1.6690993614607135,0.1414185955172306,2.4034451173676383,1.0273381002308042,0.0005615192349516791,-0.00044376059861216496,0.0006995720051353507,-0.0003394149924231274,3.1158834895002134e-05,-2.5496945734447923e-05,-0.0011390057917581085,0.0,0.0,0.0,0.0,0.0,0.0,0.0,-3.2298269257102774e-05,-0.00015313532645422345,-4.508024138494271e-05,-5.308929999947587e-05,1.2812975231646373e-05,-0.00012458968035522489,-7.270530418157506e-06,-0.0005615192349516791,0.00044376059861216496,-0.0006995720051353507,0.0003394149924231274,-3.1158834895002134e-05,2.5496945734447923e-05,0.0011390057917581085,0.8354122042655945,46.57577133178711,5.663662433624268,-19.559053421020508,-0.7665916085243225,-2.3852572441101074,0.17337362468242645,0
25,0.1199486255645752,-0.7560665011405945,-46.57577133178711,-5.612087726593018,19.586824417114258,0.7784934639930725,2.3788485527038574,-0.17978231608867645,0.0,0.0,0.0,0.0,0.0,0.0,0.0,-0.7757399387890609,-0.24431247334392595,-0.424597563433559,0.34176831873012053,0.18366685591298693,0.11503868465345651,-0.1875690297354094,0.8781172486881618,0.7556150294300245,-0.2825114107673575,-1.669048221002545,0.14140407760155668,2.4035700266682447,1.0273460828380452,0.878092876070424,0.7554597494309409,-0.2825552651693207,-1.6690993614607135,0.1414185955172306,2.4034451173676383,1.0273381002308042,1.6414879873041325e-05,2.2361846545874444e-05,1.653045419301191e-05,-0.000985301630212269,-0.0004971119961554978,-0.00024590614449422415,-0.0001495580260397543,0.0,0.0,0.0,0.0,0.0,0.0,0.0,-2.4372617737800084e-05,-0.0001552799990836018,-4.38544019632503e-05,-5.1140458168452696e-05,1.4517915673917248e-05,-0.0001249093006063795,-7.982607240997197e-06,-1.6414879873041325e-05,-2.2361846545874444e-05,-1.653045419301191e-05,0.000985301630212269,0.0004971119961554978,0.00024590614449422415,0.0001495580260397543,0.7560665011405945,46.57577133178711,5.612087726593018,-19.586824417114258,-0.7784934639930725,-2.3788485527038574,0.17978231608867645,0
26,0.12500762939453125,-0.7560665011405945,-46.57577133178711,-5.612087726593018,19.586824417114258,0.7784934639930725,2.3788485527038574,-0.17978231608867645,0.0,0.0,0.0,0.0,0.0,0.0,0.0,-0.7757399387890609,-0.24431247334392595,-0.424597563433559,0.34176831873012053,0.18366685591298693,0.11503868465345651,-0.1875690297354094,0.8781172486881618,0.7556150294300245,-0.2825114107673575,-1.669048221002545,0.14140407760155668,2.4035700266682447,1.0273460828380452,0.878092876070424,0.7554597494309409,-0.2825552651693207,-1.6690993614607135,0.1414185955172306,2.4034451173676383,1.0273381002308042,1.6414879873041325e-05,2.2361846545874444e-05,1.653045419301191e-05,-0.000985301630212269,-0.0004971119961554978,-0.00024590614449422415,-0.0001495580260397543,0.0,0.0,0.0,0.0,0.0,0.0,0.0,-2.4372617737800084e-05,-0.0001552799990836018,-4.38544019632503e-05,-5.1140458168452696e-05,1.4517915673917248e-05,-0.0001249093006063795,-7.982607240997197e-06,-1.6414879873041325e-05,-2.2361846545874444e-05,-1.653045419301191e-05,0.000985301630212269,0.0004971119961554978,0.00024590614449422415,0.0001495580260397543,0.7560665011405945,46.57577133178711,5.612087726593018,-19.586824417114258,-0.7784934639930725,-2.3788485527038574,0.17978231608867645,0
27,0.12999844551086426,-0.7838374972343445,-46.57577133178711,-5.588284015655518,19.535249710083008,0.7849021553993225,2.3660311698913574,-0.21457235515117645,0.0,0.0,0.0,0.0,0.0,0.0,0.0,-0.7670281776279734,-0.23150815648438844,-0.42313333366137007,0.33764871860134854,0.18341145891884955,0.11314964659398188,-0.18822851120783074,0.8781185259401321,0.7556150982677353,-0.2825154452438218,-1.669044601833875,0.1414038423188516,2.403571450604334,1.0273499483979411,0.878092876070424,0.7554597494309409,-0.2825552651693207,-1.6690993614607135,0.1414185955172306,2.4034451173676383,1.0273381002308042,0.0017345822921901299,0.0008138070963238581,0.00037472774647826185,0.0004403430232045157,-0.0005788119979505098,0.0004655841341994148,0.0007365469999104661,0.0,0.0,0.0,0.0,0.0,0.0,0.0,-2.5649869708099793e-05,-0.00015534883679446665,-3.981992549895175e-05,-5.4759626838540854e-05,1.4753198378986143e-05,-0.0001263332366958636,-1.1848167136951915e-05,-0.0017345822921901299,-0.0008138070963238581,-0.00037472774647826185,-0.0004403430232045157,0.0005788119979505098,-0.0004655841341994148,-0.0007365469999104661,0.7838374972343445,46.57577133178711,5.588284015655518,-19.535249710083008,-0.7849021553993225,-2.3660311698913574,0.21457235515117645,0
28,0.13499689102172852,-0.7838374972343445,-46.57577133178711,-5.588284015655518,19.535249710083008,0.7849021553993225,2.3660311698913574,-0.21457235515117645,0.0,0.0,0.0,0.0,0.0,0.0,0.0,-0.7670281776279734,-0.23150815648438844,-0.42313333366137007,0.33764871860134854,0.18341145891884955,0.11314964659398188,-0.18822851120783074,0.8781185259401321,0.7556150982677353,-0.2825154452438218,-1.669044601833875,0.1414038423188516,2.403571450604334,1.0273499483979411,0.878092876070424,0.7554597494309409,-0.2825552651693207,-1.6690993614607135,0.1414185955172306,2.4034451173676383,1.0273381002308042,0.0017345822921901299,0.0008138070963238581,0.00037472774647826185,0.0004403430232045157,-0.0005788119979505098,0.0004655841341994148,0.0007365469999104661,0.0,0.0,0.0,0.0,0.0,0.0,0.0,-2.5649869708099793e-05,-0.00015534883679446665,-3.981992549895175e-05,-5.4759626838540854e-05,1.4753198378986143e-05,-0.0001263332366958636,-1.1848167136951915e-05,-0.0017345822921901299,-0.0008138070963238581,-0.00037472774647826185,-0.0004403430232045157,0.0005788119979505098,-0.0004655841341994148,-0.0007365469999104661,0.7838374972343445,46.57577133178711,5.588284015655518,-19.535249710083008,-0.7849021553993225,-2.3660311698913574,0.21457235515117645,0
29,0.14043045043945312,-0.7560665011405945,-46.59957504272461,-5.564480304718018,19.535249710083008,0.7665916085243225,2.3724398612976074,-0.20724813640117645,0.0,0.0,0.0,0.0,0.0,0.0,0.0,-0.7729465169667764,-0.25009665801287134,-0.4298944436693095,0.34717988958527723,0.18476794866114604,0.11404138681230976,-0.18909190840617,0.878117212913427,0.7556174957362096,-0.2825171440252498,-1.6690446017248588,0.14140906734750952,2.403572151432184,1.0273491345958576,0.878092876070424,0.7554597494309409,-0.2825552651693207,-1.6690993614607135,0.1414185955172306,2.4034451173676383,1.0273381002308042,0.0008432031430265539,0.0005743998362899973,-0.00011537967799343366,0.00036494901625279375,0.00011188301898289845,0.0002112525360546521,0.00025445112216844533,0.0,0.0,0.0,0.0,0.0,0.0,0.0,-2.433684300306993e-05,-0.00015774630526876887,-3.812114407092393e-05,-5.475973585467031e-05,9.528169721079172e-06,-0.000127034064545839,-1.1034365053452788e-05,-0.0008432031430265539,-0.0005743998362899973,0.00011537967799343366,-0.00036494901625279375,-0.00011188301898289845,-0.0002112525360546521,-0.00025445112216844533,0.7560665011405945,46.59957504272461,5.564480304718018,-19.535249710083008,-0.7665916085243225,-2.3724398612976074,0.20724813640117645,0
30,0.14500069618225098,-0.7560665011405945,-46.59957504272461,-5.564480304718018,19.535249710083008,0.7665916085243225,2.3724398612976074,-0.20724813640117645,0.0,0.0,0.0,0.0,0.0,0.0,0.0,-0.7729465169667764,-0.25009665801287134,-0.4298944436693095,0.34717988958527723,0.18476794866114604,0.11404138681230976,-0.18909190840617,0.878117212913427,0.7556174957362096,-0.2825171440252498,-1.6690446017248588,0.14140906734750952,2.403572151432184,1.0273491345958576,0.878092876070424,0.7554597494309409,-0.2825552651693207,-1.6690993614607135,0.1414185955172306,2.4034451173676383,1.0273381002308042,0.0008432031430265539,0.0005743998362899973,-0.00011537967799343366,0.00036494901625279375,0.00011188301898289845,0.0002112525360546521,0.00025445112216844533,0.0,0.0,0.0,0.0,0.0,0.0,0.0,-2.433684300306993e-05,-0.00015774630526876887,-3.812114407092393e-05,-5.475973585467031e-05,9.528169721079172e-06,-0.000127034064545839,-1.1034365053452788e-05,-0.0008432031430265539,-0.0005743998362899973,0.00011537967799343366,-0.00036494901625279375,-0.00011188301898289845,-0.0002112525360546521,-0.00025445112216844533,0.7560665011405945,46.59957504272461,5.564480304718018,-19.535249710083008,-0.7665916085243225,-2.3724398612976074,0.20724813640117645,0
31,0.1499643325805664,-0.7560665011405945,-46.59957504272461,-5.564480304718018,19.559053421020508,0.7730002999305725,2.3788485527038574,-0.18710653483867645,0.0,0.0,0.0,0.0,0.0,0.0,0.0,-0.7781723565582416,-0.2529469670265706,-0.43187377379329467,0.34691471470800395,0.1847580489646161,0.11443884040559457,-0.19061386429348018,0.8781168243833346,0.7556174123037935,-0.2825170643101809,-1.669046272160714,0.14140519268771207,2.4035710867428146,1.0273468966401285,0.878092876070424,0.7554597494309409,-0.2825552651693207,-1.6690993614607135,0.1414185955172306,2.4034451173676383,1.0273381002308042,-4.680137844329727e-05,0.00030279167102501546,-0.00035711495198682163,-0.00029901037111783806,2.0322715612256945e-05,0.0002854569259707118,-0.0003506811476822395,0.0,0.0,0.0,0.0,0.0,0.0,0.0,-2.3948312910637704e-05,-0.00015766287285268188,-3.820085913980309e-05,-5.308929999947587e-05,1.3402829518532888e-05,-0.00012596937517628248,-8.796409324274279e-06,4.680137844329727e-05,-0.00030279167102501546,0.00035711495198682163,0.00029901037111783806,-2.0322715612256945e-05,-0.0002854569259707118,0.0003506811476822395,0.7560665011405945,46.59957504272461,5.564480304718018,-19.559053421020508,-0.7730002999305725,-2.3788485527038574,0.18710653483867645,0
32,0.1557760238647461,-0.7560665011405945,-46.59957504272461,-5.564480304718018,19.559053421020508,0.7730002999305725,2.3788485527038574,-0.18710653483867645,0.0,0.0,0.0,0.0,0.0,0.0,0.0,-0.7781723565582416,-0.2529469670265706,-0.43187377379329467,0.34691471470800395,0.1847580489646161,0.11443884040559457,-0.19061386429348018,0.8781168243833346,0.7556174123037935,-0.2825170643101809,-1.669046272160714,0.14140519268771207,2.4035710867428146,1.0273468966401285,0.878092876070424,0.7554597494309409,-0.2825552651693207,-1.6690993614607135,0.1414185955172306,2.4034451173676383,1.0273381002308042,-4.680137844329727e-05,0.00030279167102501546,-0.00035711495198682163,-0.00029901037111783806,2.0322715612256945e-05,0.0002854569259707118,-0.0003506811476822395,0.0,0.0,0.0,0.0,0.0,0.0,0.0,-2.3948312910637704e-05,-0.00015766287285268188,-3.820085913980309e-05,-5.308929999947587e-05,1.3402829518532888e-05,-0.00012596937517628248,-8.796409324274279e-06,4.680137844329727e-05,-0.00030279167102501546,0.00035711495198682163,0.00029901037111783806,-2.0322715612256945e-05,-0.0002854569259707118,0.0003506811476822395,0.7560665011405945,46.59957504272461,5.564480304718018,-19.559053421020508,-0.7730002999305725,-2.3788485527038574,0.18710653483867645,0
33,0.1600017547607422,-0.7560665011405945,-46.59957504272461,-5.564480304718018,19.559053421020508,0.7730002999305725,2.3788485527038574,-0.18710653483867645,0.0,0.0,0.0,0.0,0.0,0.0,0.0,-0.7781723565582416,-0.2529469670265706,-0.43187377379329467,0.34691471470800395,0.1847580489646161,0.11443884040559457,-0.19061386429348018,0.8781168243833346,0.7556174123037935,-0.2825170643101809,-1.669046272160714,0.14140519268771207,2.4035710867428146,1.0273468966401285,0.878092876070424,0.7554597494309409,-0.2825552651693207,-1.6690993614607135,0.1414185955172306,2.4034451173676383,1.0273381002308042,-4.680137844329727e-05,0.00030279167102501546,-0.00035711495198682163,-0.00029901037111783806,2.0322715612256945e-05,0.0002854569259707118,-0.0003506811476822395,0.0,0.0,0.0,0.0,0.0,0.0,0.0,-2.3948312910637704e-05,-0.00015766287285268188,-3.820085913980309e-05,-5.308929999947587e-05,1.3402829518532888e-05,-0.00012596937517628248,-8.796409324274279e-06,4.680137844329727e-05,-0.00030279167102501546,0.00035711495198682163,0.00029901037111783806,-2.0322715612256945e-05,-0.0002854569259707118,0.0003506811476822395,0.7560665011405945,46.59957504272461,5.564480304718018,-19.559053421020508,-0.7730002999305725,-2.3788485527038574,0.18710653483867645,0
34,0.16502094268798828,-0.7560665011405945,-46.59957504272461,-5.564480304718018,19.559053421020508,0.7730002999305725,2.3788485527038574,-0.18710653483867645,0.0,0.0,0.0,0.0,0.0,0.0,0.0,-0.7781723565582416,-0.2529469670265706,-0.43187377379329467,0.34691471470800395,0.1847580489646161,0.11443884040559457,-0.19061386429348018,0.8781168243833346,0.7556174123037935,-0.2825170643101809,-1.669046272160714,0.14140519268771207,2.4035710867428146,1.0273468966401285,0.878092876070424,0.7554597494309409,-0.2825552651693207,-1.6690993614607135,0.1414185955172306,2.4034451173676383,1.0273381002308042,-4.680137844329727e-05,0.00030279167102501546,-0.00035711495198682163,-0.00029901037111783806,2.0322715612256945e-05,0.0002854569259707118,-0.0003506811476822395,0.0,0.0,0.0,0.0,0.0,0.0,0.0,-2.3948312910637704e-05,-0.00015766287285268188,-3.820085913980309e-05,-5.308929999947587e-05,1.3402829518532888e-05,-0.00012596937517628248,-8.796409324274279e-06,4.680137844329727e-05,-0.00030279167102501546,0.00035711495198682163,0.00029901037111783806,-2.0322715612256945e-05,-0.0002854569259707118,0.0003506811476822395,0.7560665011405945,46.59957504272461,5.564480304718018,-19.559053421020508,-0.7730002999305725,-2.3788485527038574,0.18710653483867645,0
35,0.1699972152709961,-0.8076412081718445,-46.59957504272461,-5.635891437530518,19.559053421020508,0.7665916085243225,2.3788485527038574,-0.15964071452617645,0.0,0.0,0.0,0.0,0.0,0.0,0.0,-0.7924189657956126,-0.2545658410595022,-0.44067518274760115,0.34273823086445104,0.18558369622453194,0.11499050430804272,-0.1906247570140497,0.8781201198441717,0.7556167801543205,-0.2825121334561713,-1.669046272160714,0.14140975751333715,2.4035704974607874,1.027343844882316,0.878092876070424,0.7554597494309409,-0.2825552651693207,-1.6690993614607135,0.1414185955172306,2.4034451173676383,1.0273381002308042,0.0003992199045141856,-7.113517277825003e-05,0.0006701486045192881,-0.0005855780221680855,0.0001821152171846272,0.0001710621234839715,-0.001364929846638874,0.0,0.0,0.0,0.0,0.0,0.0,0.0,-2.7243773747742672e-05,-0.00015703072337969193,-4.313171314940245e-05,-5.308929999947587e-05,8.838003893452129e-06,-0.0001253800931491078,-5.744651511818688e-06,-0.0003992199045141856,7.113517277825003e-05,-0.0006701486045192881,0.0005855780221680855,-0.0001821152171846272,-0.0001710621234839715,0.001364929846638874,0.8076412081718445,46.59957504272461,5.635891437530518,-19.559053421020508,-0.7665916085243225,-2.3788485527038574,0.15964071452617645,0
36,0.1750187873840332,-0.8076412081718445,-46.59957504272461,-5.635891437530518,19.559053421020508,0.7665916085243225,2.3788485527038574,-0.15964071452617645,0.0,0.0,0.0,0.0,0.0,0.0,0.0,-0.7924189657956126,-0.2545658410595022,-0.44067518274760115,0.34273823086445104,0.18558369622453194,0.11499050430804272,-0.1906247570140497,0.8781201198441717,0.7556167801543205,-0.2825121334561713,-1.669046272160714,0.14140975751333715,2.4035704974607874,1.027343844882316,0.878092876070424,0.7554597494309409,-0.2825552651693207,-1.6690993614607135,0.1414185955172306,2.4034451173676383,1.0273381002308042,0.0003992199045141856,-7.113517277825003e-05,0.0006701486045192881,-0.0005855780221680855,0.0001821152171846272,0.0001710621234839715,-0.001364929846638874,0.0,0.0,0.0,0.0,0.0,0.0,0.0,-2.7243773747742672e-05,-0.00015703072337969193,-4.313171314940245e-05,-5.308929999947587e-05,8.838003893452129e-06,-0.0001253800931491078,-5.744651511818688e-06,-0.0003992199045141856,7.113517277825003e-05,-0.0006701486045192881,0.0005855780221680855,-0.0001821152171846272,-0.0001710621234839715,0.001364929846638874,0.8076412081718445,46.59957504272461,5.635891437530518,-19.559053421020508,-0.7665916085243225,-2.3788485527038574,0.15964071452617645,0
37,0.17999696731567383,-0.8076412081718445,-46.59957504272461,-5.588284015655518,19.586824417114258,0.7665916085243225,2.3916659355163574,-0.19351522624492645,0.0,0.0,0.0,0.0,0.0,0.0,0.0,-0.7709234635301855,-0.23922994978728307,-0.42081304777188905,0.3341611246098755,0.18532982390021194,0.11417023926642453,-0.1895754715434729,0.878120126819385,0.7556174836327324,-0.28251332892451164,-1.6690482211115614,0.1414058594055504,2.40357179429604,1.0273476087169515,0.878092876070424,0.7554597494309409,-0.2825552651693207,-1.6690993614607135,0.1414185955172306,2.4034451173676383,1.0273381002308042,4.753690947756631e-06,0.0007744606179966288,-0.0004117590813668414,-0.0012458412551426897,0.00023750736164710872,-0.0003264394280289383,0.000527225045300597,0.0,0.0,0.0,0.0,0.0,0.0,0.0,-2.7250748961038518e-05,-0.0001577342017915484,-4.193624480908209e-05,-5.1140349152101194e-05,1.2736111680206053e-05,-0.0001266769284016256,-9.508486147336015e-06,-4.753690947756631e-06,-0.0007744606179966288,0.0004117590813668414,0.0012458412551426897,-0.00023750736164710872,0.0003264394280289383,-0.000527225045300597,0.8076412081718445,46.59957504272461,5.588284015655518,-19.586824417114258,-0.7665916085243225,-2.3916659355163574,0.19351522624492645,0
38,0.18499469757080078,-0.8076412081718445,-46.59957504272461,-5.588284015655518,19.586824417114258,0.7665916085243225,2.3916659355163574,-0.19351522624492645,0.0,0.0,0.0,0.0,0.0,0.0,0.0,-0.7709234635301855,-0.23922994978728307,-0.42081304777188905,0.3341611246098755,0.18532982390021194,0.11417023926642453,-0.1895754715434729,0.878120126819385,0.7556174836327324,-0.28251332892451164,-1.6690482211115614,0.1414058594055504,2.40357179429604,1.0273476087169515,0.878092876070424,0.7554597494309409,-0.2825552651693207,-1.6690993614607135,0.1414185955172306,2.4034451173676383,1.0273381002308042,4.753690947756631e-06,0.0007744606179966288,-0.0004117590813668414,-0.0012458412551426897,0.00023750736164710872,-0.0003264394280289383,0.000527225045300597,0.0,0.0,0.0,0.0,0.0,0.0,0.0,-2.7250748961038518e-05,-0.0001577342017915484,-4.193624480908209e-05,-5.1140349152101194e-05,1.2736111680206053e-05,-0.0001266769284016256,-9.508486147336015e-06,-4.753690947756631e-06,-0.0007744606179966288,0.0004117590813668414,0.0012458412551426897,-0.00023750736164710872,0.0003264394280289383,-0.000527225045300597,0.8076412081718445,46.59957504272461,5.588284015655518,-19.586824417114258,-0.7665916085243225,-2.3916659355163574,0.19351522624492645,0
39,0.18999981880187988,-0.7560665011405945,-46.54800033569336,-5.612087726593018,19.559053421020508,0.7730002999305725,2.3852572441101074,-0.15964071452617645,0.0,0.0,0.0,0.0,0.0,0.0,0.0,-0.7718041232924648,-0.2444952402255434,-0.41931987847992064,0.33573493026576834,0.18531793573217006,0.11539829497894391,-0.18900673935732087,0.8781186437156302,0.755613069848316,-0.28251281522394417,-1.6690462721607158,0.14140791633789337,2.403572611564395,1.027343844882316,0.878092876070424,0.7554597494309409,-0.2825552651693207,-1.6690993614607135,0.1414185955172306,2.4034451173676383,1.0273381002308042,-0.0010612210026325552,-0.0006549674930549495,-4.750890387271882e-05,-0.0003691631757189668,-1.1013686077213161e-05,-6.640256280941055e-05,-0.001086009672099967,0.0,0.0,0.0,0.0,0.0,0.0,0.0,-2.576764520623165e-05,-0.0001533204173751468,-4.2449945376554776e-05,-5.308929999769951e-05,1.0679179337225175e-05,-0.00012749419675683882,-5.744651511818688e-06,0.0010612210026325552,0.0006549674930549495,4.750890387271882e-05,0.0003691631757189668,1.1013686077213161e-05,6.640256280941055e-05,0.001086009672099967,0.7560665011405945,46.54800033569336,5.612087726593018,-19.559053421020508,-0.7730002999305725,-2.3852572441101074,0.15964071452617645,0
40,0.1950080394744873,-0.7560665011405945,-46.54800033569336,-5.612087726593018,19.559053421020508,0.7730002999305725,2.3852572441101074,-0.15964071452617645,0.0,0.0,0.0,0.0,0.0,0.0,0.0,-0.7718041232924648,-0.2444952402255434,-0.41931987847992064,0.33573493026576834,0.18531793573217006,0.11539829497894391,-0.18900673935732087,0.8781186437156302,0.755613069848316,-0.28251281522394417,-1.6690462721607158,0.14140791633789337,2.403572611564395,1.027343844882316,0.878092876070424,0.7554597494309409,-0.2825552651693207,-1.6690993614607135,0.1414185955172306,2.4034451173676383,1.0273381002308042,-0.0010612210026325552,-0.0006549674930549495,-4.750890387271882e-05,-0.0003691631757189668,-1.1013686077213161e-05,-6.640256280941055e-05,-0.001086009672099967,0.0,0.0,0.0,0.0,0.0,0.0,0.0,-2.576764520623165e-05,-0.0001533204173751468,-4.2449945376554776e-05,-5.308929999769951e-05,1.0679179337225175e-05,-0.00012749419675683882,-5.744651511818688e-06,0.0010612210026325552,0.0006549674930549495,4.750890387271882e-05,0.0003691631757189668,1.1013686077213161e-05,6.640256280941055e-05,0.001086009672099967,0.7560665011405945,46.54800033569336,5.612087726593018,-19.559053421020508,-0.7730002999305725,-2.3852572441101074,0.15964071452617645,0
41,0.1999974250793457,-0.7838374972343445,-46.50039291381836,-5.588284015655518,19.535249710083008,0.7730002999305725,2.3788485527038574,-0.20724813640117645,0.0,0.0,0.0,0.0,0.0,0.0,0.0,-0.7761120173387485,-0.2356017107255855,-0.4208213504782104,0.3321694539811746,0.18496781894375003,0.11545054737670989,-0.18828045850310604,0.8781185381618656,0.7556083805046165,-0.2825130905040735,-1.6690446017248586,0.14140893122243745,2.403570394258939,1.0273491345958576,0.878092876070424,0.7554597494309409,-0.2825552651693207,-1.6690993614607135,0.1414185955172306,2.4034451173676383,1.0273381002308042,-0.00040686100218190706,-0.0011227178127164782,-0.00010455132992903309,-8.835341905183047e-05,-0.0003360595668625793,-1.658788580222737e-05,0.0008654493147968515,0.0,0.0,0.0,0.0,0.0,0.0,0.0,-2.566209144161391e-05,-0.00014863107367568684,-4.2174665247196597e-05,-5.4759735854892355e-05,9.66429479315467e-06,-0.0001252768913007074,-1.1034365053452788e-05,0.00040686100218190706,0.0011227178127164782,0.00010455132992903309,8.835341905183047e-05,0.0003360595668625793,1.658788580222737e-05,-0.0008654493147968515,0.7838374972343445,46.50039291381836,5.588284015655518,-19.535249710083008,-0.7730002999305725,-2.3788485527038574,0.20724813640117645,0
42,0.20508837699890137,-0.7838374972343445,-46.50039291381836,-5.588284015655518,19.535249710083008,0.7730002999305725,2.3788485527038574,-0.20724813640117645,0.0,0.0,0.0,0.0,0.0,0.0,0.0,-0.7761120173387485,-0.2356017107255855,-0.4208213504782104,0.3321694539811746,0.18496781894375003,0.11545054737670989,-0.18828045850310604,0.8781185381618656,0.7556083805046165,-0.2825130905040735,-1.6690446017248586,0.14140893122243745,2.403570394258939,1.0273491345958576,0.878092876070424,0.7554597494309409,-0.2825552651693207,-1.6690993614607135,0.1414185955172306,2.4034451173676383,1.0273381002308042,-0.00040686100218190706,-0.0011227178127164782,-0.00010455132992903309,-8.835341905183047e-05,-0.0003360595668625793,-1.658788580222737e-05,0.0008654493147968515,0.0,0.0,0.0,0.0,0.0,0.0,0.0,-2.566209144161391e-05,-0.00014863107367568684,-4.2174665247196597e-05,-5.4759735854892355e-05,9.66429479315467e-06,-0.0001252768913007074,-1.1034365053452788e-05,0.00040686100218190706,0.0011227178127164782,0.00010455132992903309,8.835341905183047e-05,0.0003360595668625793,1.658788580222737e-05,-0.0008654493147968515,0.7838374972343445,46.50039291381836,5.588284015655518,-19.535249710083008,-0.7730002999305725,-2.3788485527038574,0.20724813640117645,0
43,0.2099618911743164,-0.8592159152030945,-46.57577133178711,-5.588284015655518,19.559053421020508,0.7730002999305725,2.3916659355163574,-0.17337362468242645,0.0,0.0,0.0,0.0,0.0,0.0,0.0,-0.7871124010265911,-0.2347305255623416,-0.4263952731619684,0.33494979868074315,0.18453131236922082,0.11518793658394352,-0.18696232853071024,0.8781262365742252,0.7556133348129042,-0.282513055134866,-1.6690462986516672,0.14140800124730984,2.4035728409054697,1.0273453708164033,0.878092876070424,0.7554597494309409,-0.2825552651693207,-1.6690993614607135,0.1414185955172306,2.4034451173676383,1.0273381002308042,0.0013076172411984254,0.0010934445956122974,-0.00013987185995438476,-0.00038980630840329295,-0.00014303610460443387,-0.00031988611644753393,-0.0008809333956589502,0.0,0.0,0.0,0.0,0.0,0.0,0.0,-3.3360503801205255e-05,-0.00015358538196330596,-4.221003445470384e-05,-5.3062809046267034e-05,1.0594269920755073e-05,-0.00012772353783141455,-7.27058559912841e-06,-0.0013076172411984254,-0.0010934445956122974,0.00013987185995438476,0.00038980630840329295,0.00014303610460443387,0.00031988611644753393,0.0008809333956589502,0.8592159152030945,46.57577133178711,5.588284015655518,-19.559053421020508,-0.7730002999305725,-2.3916659355163574,0.17337362468242645,0
44,0.214996337890625,-0.8592159152030945,-46.57577133178711,-5.588284015655518,19.559053421020508,0.7730002999305725,2.3916659355163574,-0.17337362468242645,0.0,0.0,0.0,0.0,0.0,0.0,0.0,-0.7871124010265911,-0.2347305255623416,-0.4263952731619684,0.33494979868074315,0.18453131236922082,0.11518793658394352,-0.18696232853071024,0.8781262365742252,0.7556133348129042,-0.282513055134866,-1.6690462986516672,0.14140800124730984,2.4035728409054697,1.0273453708164033,0.878092876070424,0.7554597494309409,-0.2825552651693207,-1.6690993614607135,0.1414185955172306,2.4034451173676383,1.0273381002308042,0.0013076172411984254,0.0010934445956122974,-0.00013987185995438476,-0.00038980630840329295,-0.00014303610460443387,-0.00031988611644753393,-0.0008809333956589502,0.0,0.0,0.0,0.0,0.0,0.0,0.0,-3.3360503801205255e-05,-0.00015358538196330596,-4.221003445470384e-05,-5.3062809046267034e-05,1.0594269920755073e-05,-0.00012772353783141455,-7.27058559912841e-06,-0.0013076172411984254,-0.0010934445956122974,0.00013987185995438476,0.00038980630840329295,0.00014303610460443387,0.00031988611644753393,0.0008809333956589502,0.8592159152030945,46.57577133178711,5.588284015655518,-19.559053421020508,-0.7730002999305725,-2.3916659355163574,0.17337362468242645,0
45,0.2199535369873047,-0.7838374972343445,-46.52419662475586,-5.635891437530518,19.511445999145508,0.7730002999305725,2.3788485527038574,-0.19351522624492645,0.0,0.0,0.0,0.0,0.0,0.0,0.0,-0.8027072424559574,-0.2434038822954207,-0.43423368695145564,0.3417522309940255,0.18524124640470324,0.11628383224942933,-0.18598507710516998,0.8781184595954384,0.7556100503949623,-0.28251117017522104,-1.6690429312891528,0.14140579077369286,2.4035700309967707,1.0273476087169517,0.878092876070424,0.7554597494309409,-0.2825552651693207,-1.6690993614607135,0.1414185955172306,2.4034451173676383,1.0273381002308042,-0.0009394391634542819,-0.0006650462762693519,0.0005526677417006051,0.0007996830752132293,4.4277683152735434e-05,0.00016326784098519894,0.0006965541800542821,0.0,0.0,0.0,0.0,0.0,0.0,0.0,-2.558352501447203e-05,-0.00015030096402146587,-4.409499409968598e-05,-5.643017156065078e-05,1.280474353773653e-05,-0.0001249136291323616,-9.50848614755806e-06,0.0009394391634542819,0.0006650462762693519,-0.0005526677417006051,-0.0007996830752132293,-4.4277683152735434e-05,-0.00016326784098519894,-0.0006965541800542821,0.7838374972343445,46.52419662475586,5.635891437530518,-19.511445999145508,-0.7730002999305725,-2.3788485527038574,0.19351522624492645,0
46,0.2250216007232666,-0.7838374972343445,-46.52419662475586,-5.635891437530518,19.511445999145508,0.7730002999305725,2.3788485527038574,-0.19351522624492645,0.0,0.0,0.0,0.0,0.0,0.0,0.0,-0.8027072424559574,-0.2434038822954207,-0.43423368695145564,0.3417522309940255,0.18524124640470324,0.11628383224942933,-0.18598507710516998,0.8781184595954384,0.7556100503949623,-0.28251117017522104,-1.6690429312891528,0.14140579077369286,2.4035700309967707,1.0273476087169517,0.878092876070424,0.7554597494309409,-0.2825552651693207,-1.6690993614607135,0.1414185955172306,2.4034451173676383,1.0273381002308042,-0.0009394391634542819,-0.0006650462762693519,0.0005526677417006051,0.0007996830752132293,4.4277683152735434e-05,0.00016326784098519894,0.0006965541800542821,0.0,0.0,0.0,0.0,0.0,0.0,0.0,-2.558352501447203e-05,-0.00015030096402146587,-4.409499409968598e-05,-5.643017156065078e-05,1.280474353773653e-05,-0.0001249136291323616,-9.50848614755806e-06,0.0009394391634542819,0.0006650462762693519,-0.0005526677417006051,-0.0007996830752132293,-4.4277683152735434e-05,-0.00016326784098519894,-0.0006965541800542821,0.7838374972343445,46.52419662475586,5.635891437530518,-19.511445999145508,-0.7730002999305725,-2.3788485527038574,0.19351522624492645,0
47,0.23002266883850098,-0.7322627902030945,-46.62337875366211,-5.588284015655518,19.559053421020508,0.7665916085243225,2.3788485527038574,-0.22098104655742645,0.0,0.0,0.0,0.0,0.0,0.0,0.0,-0.7774833521716563,-0.23861234932376021,-0.41624805308044055,0.34167124516178626,0.18542247561480577,0.11575725602943832,-0.18561543264098015,0.8781177951896677,0.7556190471154992,-0.2825154746862858,-1.6690462752131696,0.14140980120548766,2.4035700308651986,1.027350660474764,0.878092876070424,0.7554597494309409,-0.2825552651693207,-1.6690993614607135,0.1414185955172306,2.4034451173676383,1.0273381002308042,-0.001068466315757287,0.0009216797476063759,-0.00021144515660683703,-0.0007928793863518353,0.0001608276484936294,5.653126990051684e-05,0.0018840908170166771,0.0,0.0,0.0,0.0,0.0,0.0,0.0,-2.491911924373813e-05,-0.00015929768455835713,-3.979048303492938e-05,-5.308624754385427e-05,8.794311742943428e-06,-0.00012491349756027503,-1.2560243959791606e-05,0.001068466315757287,-0.0009216797476063759,0.00021144515660683703,0.0007928793863518353,-0.0001608276484936294,-5.653126990051684e-05,-0.0018840908170166771,0.7322627902030945,46.62337875366211,5.588284015655518,-19.559053421020508,-0.7665916085243225,-2.3788485527038574,0.22098104655742645,0
48,0.23501920700073242,-0.7322627902030945,-46.62337875366211,-5.588284015655518,19.559053421020508,0.7665916085243225,2.3788485527038574,-0.22098104655742645,0.0,0.0,0.0,0.0,0.0,0.0,0.0,-0.7774833521716563,-0.23861234932376021,-0.41624805308044055,0.34167124516178626,0.18542247561480577,0.11575725602943832,-0.18561543264098015,0.8781177951896677,0.7556190471154992,-0.2825154746862858,-1.6690462752131696,0.14140980120548766,2.4035700308651986,1.027350660474764,0.878092876070424,0.7554597494309409,-0.2825552651693207,-1.6690993614607135,0.1414185955172306,2.4034451173676383,1.0273381002308042,-0.001068466315757287,0.0009216797476063759,-0.00021144515660683703,-0.0007928793863518353,0.0001608276484936294,5.653126990051684e-05,0.0018840908170166771,0.0,0.0,0.0,0.0,0.0,0.0,0.0,-2.491911924373813e-05,-0.00015929768455835713,-3.979048303492938e-05,-5.308624754385427e-05,8.794311742943428e-06,-0.00012491349756027503,-1.2560243959791606e-05,0.001068466315757287,-0.0009216797476063759,0.00021144515660683703,0.0007928793863518353,-0.0001608276484936294,-5.653126990051684e-05,-0.0018840908170166771,0.7322627902030945,46.62337875366211,5.588284015655518,-19.559053421020508,-0.7665916085243225,-2.3788485527038574,0.22098104655742645,0
49,0.24000000953674316,-0.7084590792655945,-46.57577133178711,-5.536709308624268,19.535249710083008,0.7665916085243225,2.3916659355163574,-0.17337362468242645,0.0,0.0,0.0,0.0,0.0,0.0,0.0,-0.7775470472724509,-0.23443872246224176,-0.4211633985849844,0.3355262715757531,0.1853678360748012,0.11482033172511605,-0.18506771866100416,0.8781131833541187,0.7556158219100803,-0.28251906736809657,-1.669044601728897,0.14140658594993902,2.403568602297042,1.0273453707612223,0.878092876070424,0.7554597494309409,-0.2825552651693207,-1.6690993614607135,0.1414185955172306,2.4034451173676383,1.0273381002308042,-0.0011577947854753113,-5.922942354687761e-05,-0.0006550563939222063,-0.0002479008770642319,0.00017708621880821936,-0.00034659686158134773,-0.000971510669882946,0.0,0.0,0.0,0.0,0.0,0.0,0.0,-2.030728369473156e-05,-0.00015607247913940192,-3.6197801224158166e-05,-5.4759731816567125e-05,1.200956729158209e-05,-0.00012348492940361666,-7.270530418157506e-06,0.0011577947854753113,5.922942354687761e-05,0.0006550563939222063,0.0002479008770642319,-0.00017708621880821936,0.00034659686158134773,0.000971510669882946,0.7084590792655945,46.57577133178711,5.536709308624268,-19.535249710083008,-0.7665916085243225,-2.3916659355163574,0.17337362468242645,0
50,0.24499940872192383,-0.7084590792655945,-46.57577133178711,-5.536709308624268,19.535249710083008,0.7665916085243225,2.3916659355163574,-0.17337362468242645,0.0,0.0,0.0,0.0,0.0,0.0,0.0,-0.7775470472724509,-0.23443872246224176,-0.4211633985849844,0.3355262715757531,0.1853678360748012,0.11482033172511605,-0.18506771866100416,0.8781131833541187,0.7556158219100803,-0.28251906736809657,-1.669044601728897,0.14140658594993902,2.403568602297042,1.0273453707612223,0.878092876070424,0.7554597494309409,-0.2825552651693207,-1.6690993614607135,0.1414185955172306,2.4034451173676383,1.0273381002308042,-0.0011577947854753113,-5.922942354687761e-05,-0.0006550563939222063,-0.0002479008770642319,0.00017708621880821936,-0.00034659686158134773,-0.000971510669882946,0.0,0.0,0.0,0.0,0.0,0.0,0.0,-2.030728369473156e-05,-0.00015607247913940192,-3.6197801224158166e-05,-5.4759731816567125e-05,1.200956729158209e-05,-0.00012348492940361666,-7.270530418157506e-06,0.0011577947854753113,5.922942354687761e-05,0.0006550563939222063,0.0002479008770642319,-0.00017708621880821936,0.00034659686158134773,0.000971510669882946,0.7084590792655945,46.57577133178711,5.536709308624268,-19.535249710083008,-0.7665916085243225,-2.3916659355163574,0.17337362468242645,0
51,0.2499525547027588,-0.7084590792655945,-46.57577133178711,-5.536709308624268,19.535249710083008,0.7665916085243225,2.3916659355163574,-0.17337362468242645,0.0,0.0,0.0,0.0,0.0,0.0,0.0,-0.7775470472724509,-0.23443872246224176,-0.4211633985849844,0.3355262715757531,0.1853678360748012,0.11482033172511605,-0.18506771866100416,0.8781131833541187,0.7556158219100803,-0.28251906736809657,-1.669044601728897,0.14140658594993902,2.403568602297042,1.0273453707612223,0.878092876070424,0.7554597494309409,-0.2825552651693207,-1.6690993614607135,0.1414185955172306,2.4034451173676383,1.0273381002308042,-0.0011577947854753113,-5.922942354687761e-05,-0.0006550563939222063,-0.0002479008770642319,0.00017708621880821936,-0.00034659686158134773,-0.000971510669882946,0.0,0.0,0.0,0.0,0.0,0.0,0.0,-2.030728369473156e-05,-0.00015607247913940192,-3.6197801224158166e-05,-5.4759731816567125e-05,1.200956729158209e-05,-0.00012348492940361666,-7.270530418157506e-06,0.0011577947854753113,5.922942354687761e-05,0.0006550563939222063,0.0002479008770642319,-0.00017708621880821936,0.00034659686158134773,0.000971510669882946,0.7084590792655945,46.57577133178711,5.536709308624268,-19.535249710083008,-0.7665916085243225,-2.3916659355163574,0.17337362468242645,0
52,0.25577378273010254,-0.7084590792655945,-46.57577133178711,-5.536709308624268,19.535249710083008,0.7665916085243225,2.3916659355163574,-0.17337362468242645,0.0,0.0,0.0,0.0,0.0,0.0,0.0,-0.7775470472724509,-0.23443872246224176,-0.4211633985849844,0.3355262715757531,0.1853678360748012,0.11482033172511605,-0.18506771866100416,0.8781131833541187,0.7556158219100803,-0.28251906736809657,-1.669044601728897,0.14140658594993902,2.403568602297042,1.0273453707612223,0.878092876070424,0.7554597494309409,-0.2825552651693207,-1.6690993614607135,0.1414185955172306,2.4034451173676383,1.0273381002308042,-0.0011577947854753113,-5.922942354687761e-05,-0.0006550563939222063,-0.0002479008770642319,0.00017708621880821936,-0.00034659686158134773,-0.000971510669882946,0.0,0.0,0.0,0.0,0.0,0.0,0.0,-2.030728369473156e-05,-0.00015607247913940192,-3.6197801224158166e-05,-5.4759731816567125e-05,1.200956729158209e-05,-0.00012348492940361666,-7.270530418157506e-06,0.0011577947854753113,5.922942354687761e-05,0.0006550563939222063,0.0002479008770642319,-0.00017708621880821936,0.00034659686158134773,0.000971510669882946,0.7084590792655945,46.57577133178711,5.536709308624268,-19.535249710083008,-0.7665916085243225,-2.3916659355163574,0.17337362468242645,0
53,0.2600088119506836,-0.7560665011405945,-46.59957504272461,-5.588284015655518,19.559053421020508,0.7665916085243225,2.3788485527038574,-0.14590780436992645,0.0,0.0,0.0,0.0,0.0,0.0,0.0,-0.7831511939183246,-0.24231166249297634,-0.426693965105815,0.33742518796437376,0.18546746956184768,0.11576130460024206,-0.1858507431477653,0.8781186443700103,0.7556146306809691,-0.2825151567998363,-1.6690462724877628,0.1414059006598041,2.403570039694145,1.0273423190034099,0.878092876070424,0.7554597494309409,-0.2825552651693207,-1.6690993614607135,0.1414185955172306,2.4034451173676383,1.0273381002308042,0.0005786865730524358,0.00037173673279971924,0.00012372018935977308,-0.0006340210579048488,8.102775275507826e-05,-2.8199233525139597e-05,-0.001491292673645894,0.0,0.0,0.0,0.0,0.0,0.0,0.0,-2.5768299586337307e-05,-0.00015488125002827147,-4.01083694844262e-05,-5.308897295064341e-05,1.2694857426498452e-05,-0.00012492232650673785,-4.218772605701915e-06,-0.0005786865730524358,-0.00037173673279971924,-0.00012372018935977308,0.0006340210579048488,-8.102775275507826e-05,2.8199233525139597e-05,0.001491292673645894,0.7560665011405945,46.59957504272461,5.588284015655518,-19.559053421020508,-0.7665916085243225,-2.3788485527038574,0.14590780436992645,0
54,0.2650120258331299,-0.7560665011405945,-46.59957504272461,-5.588284015655518,19.559053421020508,0.7665916085243225,2.3788485527038574,-0.14590780436992645,0.0,0.0,0.0,0.0,0.0,0.0,0.0,-0.7831511939183246,-0.24231166249297634,-0.426693965105815,0.33742518796437376,0.18546746956184768,0.11576130460024206,-0.1858507431477653,0.8781186443700103,0.7556146306809691,-0.2825151567998363,-1.6690462724877628,0.1414059006598041,2.403570039694145,1.0273423190034099,0.878092876070424,0.7554597494309409,-0.2825552651693207,-1.6690993614607135,0.1414185955172306,2.4034451173676383,1.0273381002308042,0.0005786865730524358,0.00037173673279971924,0.00012372018935977308,-0.0006340210579048488,8.102775275507826e-05,-2.8199233525139597e-05,-0.001491292673645894,0.0,0.0,0.0,0.0,0.0,0.0,0.0,-2.5768299586337307e-05,-0.00015488125002827147,-4.01083694844262e-05,-5.308897295064341e-05,1.2694857426498452e-05,-0.00012492232650673785,-4.218772605701915e-06,-0.0005786865730524358,-0.00037173673279971924,-0.00012372018935977308,0.0006340210579048488,-8.102775275507826e-05,2.8199233525139597e-05,0.001491292673645894,0.7560665011405945,46.59957504272461,5.588284015655518,-19.559053421020508,-0.7665916085243225,-2.3788485527038574,0.14590780436992645,0
55,0.2700045108795166,-0.7560665011405945,-46.52419662475586,-5.564480304718018,19.535249710083008,0.7665916085243225,2.3852572441101074,-0.22830526530742645,0.0,0.0,0.0,0.0,0.0,0.0,0.0,-0.7789543501138101,-0.2366782811769675,-0.4250432770406315,0.3323197660868012,0.18506899510635091,0.11493483911698435,-0.18610375545343527,0.878118908782468,0.7556121225740786,-0.2825170626004711,-1.6690446017248604,0.1414097573513037,2.40357041341943,1.0273514742768473,0.878092876070424,0.7554597494309409,-0.2825552651693207,-1.6690993614607135,0.1414185955172306,2.4034451173676383,1.0273381002308042,3.277264462434761e-05,-0.0012387687524895584,-0.0002802430212465183,0.00022625216031959083,-2.945442397923344e-05,-0.00022416672024475146,0.002158642167997884,0.0,0.0,0.0,0.0,0.0,0.0,0.0,-2.6032712044044004e-05,-0.00015237314313776285,-3.8202568849621255e-05,-5.4759735853116e-05,8.838165926894348e-06,-0.00012529605179167902,-1.3374046043068688e-05,-3.277264462434761e-05,0.0012387687524895584,0.0002802430212465183,-0.00022625216031959083,2.945442397923344e-05,0.00022416672024475146,-0.002158642167997884,0.7560665011405945,46.52419662475586,5.564480304718018,-19.535249710083008,-0.7665916085243225,-2.3852572441101074,0.22830526530742645,0
56,0.27499866485595703,-0.7560665011405945,-46.52419662475586,-5.564480304718018,19.535249710083008,0.7665916085243225,2.3852572441101074,-0.22830526530742645,0.0,0.0,0.0,0.0,0.0,0.0,0.0,-0.7789543501138101,-0.2366782811769675,-0.4250432770406315,0.3323197660868012,0.18506899510635091,0.11493483911698435,-0.18610375545343527,0.878118908782468,0.7556121225740786,-0.2825170626004711,-1.6690446017248604,0.1414097573513037,2.40357041341943,1.0273514742768473,0.878092876070424,0.7554597494309409,-0.2825552651693207,-1.6690993614607135,0.1414185955172306,2.4034451173676383,1.0273381002308042,3.277264462434761e-05,-0.0012387687524895584,-0.0002802430212465183,0.00022625216031959083,-2.945442397923344e-05,-0.00022416672024475146,0.002158642167997884,0.0,0.0,0.0,0.0,0.0,0.0,0.0,-2.6032712044044004e-05,-0.00015237314313776285,-3.8202568849621255e-05,-5.4759735853116e-05,8.838165926894348e-06,-0.00012529605179167902,-1.3374046043068688e-05,-3.277264462434761e-05,0.0012387687524895584,0.0002802430212465183,-0.00022625216031959083,2.945442397923344e-05,0.00022416672024475146,-0.002158642167997884,0.7560665011405945,46.52419662475586,5.564480304718018,-19.535249710083008,-0.7665916085243225,-2.3852572441101074,0.22830526530742645,0
57,0.2800116539001465,-0.7838374972343445,-46.57577133178711,-5.612087726593018,19.535249710083008,0.7610984444618225,2.3852572441101074,-0.17337362468242645,0.0,0.0,0.0,0.0,0.0,0.0,0.0,-0.795676470201788,-0.24717297121208828,-0.4405319979721735,0.3364206711008147,0.1849727473271183,0.11552131438593216,-0.18633124096573542,0.878119161723307,0.75561574190412,-0.2825130585481001,-1.6690446017248586,0.14140647017269187,2.40357249474387,1.0273453707612223,0.878092876070424,0.7554597494309409,-0.2825552651693207,-1.6690993614607135,0.1414185955172306,2.4034451173676383,1.0273381002308042,-0.0003158468771699696,-0.00010896137490419522,-0.00012379310536097922,0.00023215752871670579,0.0003086658347299014,1.1939230709763648e-05,-0.0007997809267783361,0.0,0.0,0.0,0.0,0.0,0.0,0.0,-2.6285652882984678e-05,-0.0001559924731791007,-4.220662122061958e-05,-5.4759735854892355e-05,1.2125344538732596e-05,-0.00012737737623158552,-7.270530418157506e-06,0.0003158468771699696,0.00010896137490419522,0.00012379310536097922,-0.00023215752871670579,-0.0003086658347299014,-1.1939230709763648e-05,0.0007997809267783361,0.7838374972343445,46.57577133178711,5.612087726593018,-19.535249710083008,-0.7610984444618225,-2.3852572441101074,0.17337362468242645,0
58,0.2849571704864502,-0.7838374972343445,-46.57577133178711,-5.612087726593018,19.535249710083008,0.7610984444618225,2.3852572441101074,-0.17337362468242645,0.0,0.0,0.0,0.0,0.0,0.0,0.0,-0.795676470201788,-0.24717297121208828,-0.4405319979721735,0.3364206711008147,0.1849727473271183,0.11552131438593216,-0.18633124096573542,0.878119161723307,0.75561574190412,-0.2825130585481001,-1.6690446017248586,0.14140647017269187,2.40357249474387,1.0273453707612223,0.878092876070424,0.7554597494309409,-0.2825552651693207,-1.6690993614607135,0.1414185955172306,2.4034451173676383,1.0273381002308042,-0.0003158468771699696,-0.00010896137490419522,-0.00012379310536097922,0.00023215752871670579,0.0003086658347299014,1.1939230709763648e-05,-0.0007997809267783361,0.0,0.0,0.0,0.0,0.0,0.0,0.0,-2.6285652882984678e-05,-0.0001559924731791007,-4.220662122061958e-05,-5.4759735854892355e-05,1.2125344538732596e-05,-0.00012737737623158552,-7.270530418157506e-06,0.0003158468771699696,0.00010896137490419522,0.00012379310536097922,-0.00023215752871670579,-0.0003086658347299014,-1.1939230709763648e-05,0.0007997809267783361,0.7838374972343445,46.57577133178711,5.612087726593018,-19.535249710083008,-0.7610984444618225,-2.3852572441101074,0.17337362468242645,0
59,0.29001832008361816,-0.7838374972343445,-46.54800033569336,-5.612087726593018,19.511445999145508,0.7665916085243225,2.3788485527038574,-0.20083944499492645,0.0,0.0,0.0,0.0,0.0,0.0,0.0,-0.7661782169588094,-0.23055184192168612,-0.4181913293897357,0.33080872078359413,0.1837899768485762,0.11408066437356608,-0.18723632320498443,0.8781213429203067,0.7556117264042354,-0.2825107043377286,-1.6690436465447407,0.1414099937240831,2.4035746327693697,1.0273484225190348,0.878092876070424,0.7554597494309409,-0.2825552651693207,-1.6690993614607135,0.1414185955172306,2.4034451173676383,1.0273381002308042,0.0002546158547950722,-3.193438631743593e-05,5.207649142247887e-07,0.0007594329956216631,7.915999556862711e-05,-0.00010521414366220892,0.000713153115166651,0.0,0.0,0.0,0.0,0.0,0.0,0.0,-2.8466849882780032e-05,-0.00015197697329449866,-4.456083159209978e-05,-5.571491597278211e-05,8.6017931474891e-06,-0.00012951540173133935,-1.0322288230613097e-05,-0.0002546158547950722,3.193438631743593e-05,-5.207649142247887e-07,-0.0007594329956216631,-7.915999556862711e-05,0.00010521414366220892,-0.000713153115166651,0.7838374972343445,46.54800033569336,5.612087726593018,-19.511445999145508,-0.7665916085243225,-2.3788485527038574,0.20083944499492645,0
60,0.2950015068054199,-0.7838374972343445,-46.54800033569336,-5.612087726593018,19.511445999145508,0.7665916085243225,2.3788485527038574,-0.20083944499492645,0.0,0.0,0.0,0.0,0.0,0.0,0.0,-0.7661782169588094,-0.23055184192168612,-0.4181913293897357,0.33080872078359413,0.1837899768485762,0.11408066437356608,-0.18723632320498443,0.8781213429203067,0.7556117264042354,-0.2825107043377286,-1.6690436465447407,0.1414099937240831,2.4035746327693697,1.0273484225190348,0.878092876070424,0.7554597494309409,-0.2825552651693207,-1.6690993614607135,0.1414185955172306,2.4034451173676383,1.0273381002308042,0.0002546158547950722,-3.193438631743593e-05,5.207649142247887e-07,0.0007594329956216631,7.915999556862711e-05,-0.00010521414366220892,0.000713153115166651,0.0,0.0,0.0,0.0,0.0,0.0,0.0,-2.8466849882780032e-05,-0.00015197697329449866,-4.456083159209978e-05,-5.571491597278211e-05,8.6017931474891e-06,-0.00012951540173133935,-1.0322288230613097e-05,-0.0002546158547950722,3.193438631743593e-05,-5.207649142247887e-07,-0.0007594329956216631,-7.915999556862711e-05,0.00010521414366220892,-0.000713153115166651,0.7838374972343445,46.54800033569336,5.612087726593018,-19.511445999145508,-0.7665916085243225,-2.3788485527038574,0.20083944499492645,0
61,0.29999876022338867,-0.7560665011405945,-46.57577133178711,-5.588284015655518,19.535249710083008,0.7665916085243225,2.3852572441101074,-0.15231649577617645,0.0,0.0,0.0,0.0,0.0,0.0,0.0,-0.7794653781765625,-0.23748215073847803,-0.42792767181637725,0.33500515377877926,0.1837314788078176,0.11420666543331265,-0.1877840251720944,0.8781165774737993,0.7556148598415119,-0.28251543920760047,-1.6690446017288962,0.14140980203524517,2.4035724933142544,1.0273430310802327,0.878092876070424,0.7554597494309409,-0.2825552651693207,-1.6690993614607135,0.1414185955172306,2.4034451173676383,1.0273381002308042,-0.0010627351818442456,0.0004268006584596207,-0.0004978328419452437,0.00041079448476388184,8.466550535088542e-05,-0.0001915810752985244,-0.0012707617194752283,0.0,0.0,0.0,0.0,0.0,0.0,0.0,-2.370140337537574e-05,-0.00015511041057103547,-3.982596172025232e-05,-5.475973181723326e-05,8.793481985430729e-06,-0.00012737594661604845,-4.930849428541606e-06,0.0010627351818442456,-0.0004268006584596207,0.0004978328419452437,-0.00041079448476388184,-8.466550535088542e-05,0.0001915810752985244,0.0012707617194752283,0.7560665011405945,46.57577133178711,5.588284015655518,-19.535249710083008,-0.7665916085243225,-2.3852572441101074,0.15231649577617645,0
62,0.30500054359436035,-0.7560665011405945,-46.57577133178711,-5.588284015655518,19.535249710083008,0.7665916085243225,2.3852572441101074,-0.15231649577617645,0.0,0.0,0.0,0.0,0.0,0.0,0.0,-0.7794653781765625,-0.23748215073847803,-0.42792767181637725,0.33500515377877926,0.1837314788078176,0.11420666543331265,-0.1877840251720944,0.8781165774737993,0.7556148598415119,-0.28251543920760047,-1.6690446017288962,0.14140980203524517,2.4035724933142544,1.0273430310802327,0.878092876070424,0.7554597494309409,-0.2825552651693207,-1.6690993614607135,0.1414185955172306,2.4034451173676383,1.0273381002308042,-0.0010627351818442456,0.0004268006584596207,-0.0004978328419452437,0.00041079448476388184,8.466550535088542e-05,-0.0001915810752985244,-0.0012707617194752283,0.0,0.0,0.0,0.0,0.0,0.0,0.0,-2.370140337537574e-05,-0.00015511041057103547,-3.982596172025232e-05,-5.475973181723326e-05,8.793481985430729e-06,-0.00012737594661604845,-4.930849428541606e-06,0.0010627351818442456,-0.0004268006584596207,0.0004978328419452437,-0.00041079448476388184,-8.466550535088542e-05,0.0001915810752985244,0.0012707617194752283,0.7560665011405945,46.57577133178711,5.588284015655518,-19.535249710083008,-0.7665916085243225,-2.3852572441101074,0.15231649577617645,0
63,0.31000542640686035,-0.7838374972343445,-46.54800033569336,-5.588284015655518,19.535249710083008,0.7665916085243225,2.3852572441101074,-0.20724813640117645,0.0,0.0,0.0,0.0,0.0,0.0,0.0,-0.7869715286320901,-0.23544269189452646,-0.43186657665736,0.33501132834813435,0.1838917384539071,0.11381410052453203,-0.18758782964790782,0.8781184732814854,0.7556107503766046,-0.2825154736013626,-1.6690446017248586,0.14140540458892034,2.403569711211026,1.0273491345958576,0.878092876070424,0.7554597494309409,-0.2825552651693207,-1.6690993614607135,0.1414185955172306,2.4034451173676383,1.0273381002308042,-0.0009998309465274002,-7.837678895338169e-05,-0.00024068598710861694,-0.0001633910516712162,7.626654923688769e-05,-0.00034634493911231987,0.0006590720902568685,0.0,0.0,0.0,0.0,0.0,0.0,0.0,-2.5597211061434422e-05,-0.00015100094566378175,-3.979156795813621e-05,-5.4759735854892355e-05,1.3190928310258254e-05,-0.0001245938433878102,-1.1034365053452788e-05,0.0009998309465274002,7.837678895338169e-05,0.00024068598710861694,0.0001633910516712162,-7.626654923688769e-05,0.00034634493911231987,-0.0006590720902568685,0.7838374972343445,46.54800033569336,5.588284015655518,-19.535249710083008,-0.7665916085243225,-2.3852572441101074,0.20724813640117645,0
64,0.31501317024230957,-0.7838374972343445,-46.54800033569336,-5.588284015655518,19.535249710083008,0.7665916085243225,2.3852572441101074,-0.20724813640117645,0.0,0.0,0.0,0.0,0.0,0.0,0.0,-0.7869715286320901,-0.23544269189452646,-0.43186657665736,0.33501132834813435,0.1838917384539071,0.11381410052453203,-0.18758782964790782,0.8781184732814854,0.7556107503766046,-0.2825154736013626,-1.6690446017248586,0.14140540458892034,2.403569711211026,1.0273491345958576,0.878092876070424,0.7554597494309409,-0.2825552651693207,-1.6690993614607135,0.1414185955172306,2.4034451173676383,1.0273381002308042,-0.0009998309465274002,-7.837678895338169e-05,-0.00024068598710861694,-0.0001633910516712162,7.626654923688769e-05,-0.00034634493911231987,0.0006590720902568685,0.0,0.0,0.0,0.0,0.0,0.0,0.0,-2.5597211061434422e-05,-0.00015100094566378175,-3.979156795813621e-05,-5.4759735854892355e-05,1.3190928310258254e-05,-0.0001245938433878102,-1.1034365053452788e-05,0.0009998309465274002,7.837678895338169e-05,0.00024068598710861694,0.0001633910516712162,-7.626654923688769e-05,0.00034634493911231987,-0.0006590720902568685,0.7838374972343445,46.54800033569336,5.588284015655518,-19.535249710083008,-0.7665916085243225,-2.3852572441101074,0.20724813640117645,0
65,0.3200044631958008,-0.8076412081718445,-46.54800033569336,-5.612087726593018,19.610628128051758,0.7665916085243225,2.3916659355163574,-0.20724813640117645,0.0,0.0,0.0,0.0,0.0,0.0,0.0,-0.7903015652620359,-0.23839932925298887,-0.43001198458988177,0.3390477855701782,0.18418999386137574,0.11449636808384174,-0.18859077740041508,0.8781204731642046,0.7556109884559381,-0.2825130788616139,-1.6690498924195467,0.14140579970718867,2.4035696663518964,1.0273491345958576,0.878092876070424,0.7554597494309409,-0.2825552651693207,-1.6690993614607135,0.1414185955172306,2.4034451173676383,1.0273381002308042,-0.0003175232206823248,-0.00031149866189356037,2.4978341469493066e-05,-0.0014456028091929612,0.00023175631858636273,-0.00034283620986760497,0.000816820227186333,0.0,0.0,0.0,0.0,0.0,0.0,0.0,-2.7597093780640236e-05,-0.00015123902499725173,-4.2186307706804094e-05,-4.9469041166760874e-05,1.279581004193231e-05,-0.00012454898425806604,-1.1034365053452788e-05,0.0003175232206823248,0.00031149866189356037,-2.4978341469493066e-05,0.0014456028091929612,-0.00023175631858636273,0.00034283620986760497,-0.000816820227186333,0.8076412081718445,46.54800033569336,5.612087726593018,-19.610628128051758,-0.7665916085243225,-2.3916659355163574,0.20724813640117645,0
66,0.32501935958862305,-0.8076412081718445,-46.54800033569336,-5.612087726593018,19.610628128051758,0.7665916085243225,2.3916659355163574,-0.20724813640117645,0.0,0.0,0.0,0.0,0.0,0.0,0.0,-0.7903015652620359,-0.23839932925298887,-0.43001198458988177,0.3390477855701782,0.18418999386137574,0.11449636808384174,-0.18859077740041508,0.8781204731642046,0.7556109884559381,-0.2825130788616139,-1.6690498924195467,0.14140579970718867,2.4035696663518964,1.0273491345958576,0.878092876070424,0.7554597494309409,-0.2825552651693207,-1.6690993614607135,0.1414185955172306,2.4034451173676383,1.0273381002308042,-0.0003175232206823248,-0.00031149866189356037,2.4978341469493066e-05,-0.0014456028091929612,0.00023175631858636273,-0.00034283620986760497,0.000816820227186333,0.0,0.0,0.0,0.0,0.0,0.0,0.0,-2.7597093780640236e-05,-0.00015123902499725173,-4.2186307706804094e-05,-4.9469041166760874e-05,1.279581004193231e-05,-0.00012454898425806604,-1.1034365053452788e-05,0.0003175232206823248,0.00031149866189356037,-2.4978341469493066e-05,0.0014456028091929612,-0.00023175631858636273,0.00034283620986760497,-0.000816820227186333,0.8076412081718445,46.54800033569336,5.612087726593018,-19.610628128051758,-0.7665916085243225,-2.3916659355163574,0.20724813640117645,0
67,0.32995128631591797,-0.8354122042655945,-46.57577133178711,-5.588284015655518,19.535249710083008,0.7784934639930725,2.3724398612976074,-0.14590780436992645,0.0,0.0,0.0,0.0,0.0,0.0,0.0,-0.7904467975117795,-0.23651420878477547,-0.4292467177816357,0.3405946488450525,0.18417038547796952,0.11534196100794025,-0.1880649058792347,0.8781230472525338,0.7556157193216065,-0.28251544816033874,-1.6690446017612028,0.14140871449810175,2.4035707430556728,1.0273423190034099,0.878092876070424,0.7554597494309409,-0.2825552651693207,-1.6690993614607135,0.1414185955172306,2.4034451173676383,1.0273381002308042,0.0007862186631099815,0.0001823767848275471,-0.0008758302997229743,0.0006035766320055482,-0.00029744368583279777,0.00039809434776745853,-0.002047665824095969,0.0,0.0,0.0,0.0,0.0,0.0,0.0,-3.017118210979497e-05,-0.0001559698906656859,-3.9817008981979374e-05,-5.475969951063142e-05,9.881019128854529e-06,-0.0001256256880344253,-4.218772605701915e-06,-0.0007862186631099815,-0.0001823767848275471,0.0008758302997229743,-0.0006035766320055482,0.00029744368583279777,-0.00039809434776745853,0.002047665824095969,0.8354122042655945,46.57577133178711,5.588284015655518,-19.535249710083008,-0.7784934639930725,-2.3724398612976074,0.14590780436992645,0
68,0.3349943161010742,-0.8354122042655945,-46.57577133178711,-5.588284015655518,19.535249710083008,0.7784934639930725,2.3724398612976074,-0.14590780436992645,0.0,0.0,0.0,0.0,0.0,0.0,0.0,-0.7904467975117795,-0.23651420878477547,-0.4292467177816357,0.3405946488450525,0.18417038547796952,0.11534196100794025,-0.1880649058792347,0.8781230472525338,0.7556157193216065,-0.28251544816033874,-1.6690446017612028,0.14140871449810175,2.4035707430556728,1.0273423190034099,0.878092876070424,0.7554597494309409,-0.2825552651693207,-1.6690993614607135,0.1414185955172306,2.4034451173676383,1.0273381002308042,0.0007862186631099815,0.0001823767848275471,-0.0008758302997229743,0.0006035766320055482,-0.00029744368583279777,0.00039809434776745853,-0.002047665824095969,0.0,0.0,0.0,0.0,0.0,0.0,0.0,-3.017118210979497e-05,-0.0001559698906656859,-3.9817008981979374e-05,-5.475969951063142e-05,9.881019128854529e-06,-0.0001256256880344253,-4.218772605701915e-06,-0.0007862186631099815,-0.0001823767848275471,0.0008758302997229743,-0.0006035766320055482,0.00029744368583279777,-0.00039809434776745853,0.002047665824095969,0.8354122042655945,46.57577133178711,5.588284015655518,-19.535249710083008,-0.7784934639930725,-2.3724398612976074,0.14590780436992645,0
69,0.34000635147094727,-0.8076412081718445,-46.57577133178711,-5.612087726593018,19.535249710083008,0.7665916085243225,2.3852572441101074,-0.20083944499492645,0.0,0.0,0.0,0.0,0.0,0.0,0.0,-0.7868561953176285,-0.22745260005209506,-0.42875016069309096,0.3375183672535593,0.18412878165352364,0.11447469075443646,-0.1870829379568577,0.8781201212650793,0.7556133346791164,-0.28251139059919833,-1.6690446017248588,0.14140977049748635,2.403569432272965,1.0273484225190348,0.878092876070424,0.7554597494309409,-0.2825552651693207,-1.6690993614607135,0.1414185955172306,2.4034451173676383,1.0273381002308042,0.0003394890352685144,0.0003986099189339014,-0.00022100410561304683,0.00022712278739871991,0.00018305382580632103,-0.00036168022621655885,0.000986542162137421,0.0,0.0,0.0,0.0,0.0,0.0,0.0,-2.7245194655356464e-05,-0.0001535852481755473,-4.387457012239304e-05,-5.475973585467031e-05,8.825019744251872e-06,-0.00012431490532671674,-1.0322288230613097e-05,-0.0003394890352685144,-0.0003986099189339014,0.00022100410561304683,-0.00022712278739871991,-0.00018305382580632103,0.00036168022621655885,-0.000986542162137421,0.8076412081718445,46.57577133178711,5.612087726593018,-19.535249710083008,-0.7665916085243225,-2.3852572441101074,0.20083944499492645,0
70,0.3450281620025635,-0.8076412081718445,-46.57577133178711,-5.612087726593018,19.535249710083008,0.7665916085243225,2.3852572441101074,-0.20083944499492645,0.0,0.0,0.0,0.0,0.0,0.0,0.0,-0.7868561953176285,-0.22745260005209506,-0.42875016069309096,0.3375183672535593,0.18412878165352364,0.11447469075443646,-0.1870829379568577,0.8781201212650793,0.7556133346791164,-0.28251139059919833,-1.6690446017248588,0.14140977049748635,2.403569432272965,1.0273484225190348,0.878092876070424,0.7554597494309409,-0.2825552651693207,-1.6690993614607135,0.1414185955172306,2.4034451173676383,1.0273381002308042,0.0003394890352685144,0.0003986099189339014,-0.00022100410561304683,0.00022712278739871991,0.00018305382580632103,-0.00036168022621655885,0.000986542162137421,0.0,0.0,0.0,0.0,0.0,0.0,0.0,-2.7245194655356464e-05,-0.0001535852481755473,-4.387457012239304e-05,-5.475973585467031e-05,8.825019744251872e-06,-0.00012431490532671674,-1.0322288230613097e-05,-0.0003394890352685144,-0.0003986099189339014,0.00022100410561304683,-0.00022712278739871991,-0.00018305382580632103,0.00036168022621655885,-0.000986542162137421,0.8076412081718445,46.57577133178711,5.612087726593018,-19.535249710083008,-0.7665916085243225,-2.3852572441101074,0.20083944499492645,0
71,0.3500199317932129,-0.7838374972343445,-46.54800033569336,-5.588284015655518,19.535249710083008,0.7665916085243225,2.3852572441101074,-0.21457235515117645,0.0,0.0,0.0,0.0,0.0,0.0,0.0,-0.7704653281640754,-0.24006545695548484,-0.4226303942308156,0.3462811321739425,0.1840089698218858,0.11557642080582763,-0.18627857540849965,0.878118458273153,0.7556128403552163,-0.28251471970410263,-1.6690446017248586,0.1414069398522333,2.403569314536035,1.0273499483979411,0.878092876070424,0.7554597494309409,-0.2825552651693207,-1.6690993614607135,0.1414185955172306,2.4034451173676383,1.0273381002308042,0.0005186805108028384,-0.0005971186533672704,-0.00023508100144642425,0.000343055330969777,-6.165788715644536e-05,-0.00010612486471281534,0.0014707532275845011,0.0,0.0,0.0,0.0,0.0,0.0,0.0,-2.558220272907974e-05,-0.00015309092427540083,-4.0545465218089216e-05,-5.4759735854892355e-05,1.1655664997306525e-05,-0.00012419716839673356,-1.1848167136951915e-05,-0.0005186805108028384,0.0005971186533672704,0.00023508100144642425,-0.000343055330969777,6.165788715644536e-05,0.00010612486471281534,-0.0014707532275845011,0.7838374972343445,46.54800033569336,5.588284015655518,-19.535249710083008,-0.7665916085243225,-2.3852572441101074,0.21457235515117645,0
72,0.3550231456756592,-0.7838374972343445,-46.54800033569336,-5.588284015655518,19.535249710083008,0.7665916085243225,2.3852572441101074,-0.21457235515117645,0.0,0.0,0.0,0.0,0.0,0.0,0.0,-0.7704653281640754,-0.24006545695548484,-0.4226303942308156,0.3462811321739425,0.1840089698218858,0.11557642080582763,-0.18627857540849965,0.878118458273153,0.7556128403552163,-0.28251471970410263,-1.6690446017248586,0.1414069398522333,2.403569314536035,1.0273499483979411,0.878092876070424,0.7554597494309409,-0.2825552651693207,-1.6690993614607135,0.1414185955172306,2.4034451173676383,1.0273381002308042,0.0005186805108028384,-0.0005971186533672704,-0.00023508100144642425,0.000343055330969777,-6.165788715644536e-05,-0.00010612486471281534,0.0014707532275845011,0.0,0.0,0.0,0.0,0.0,0.0,0.0,-2.558220272907974e-05,-0.00015309092427540083,-4.0545465218089216e-05,-5.4759735854892355e-05,1.1655664997306525e-05,-0.00012419716839673356,-1.1848167136951915e-05,-0.0005186805108028384,0.0005971186533672704,0.00023508100144642425,-0.000343055330969777,6.165788715644536e-05,0.00010612486471281534,-0.0014707532275845011,0.7838374972343445,46.54800033569336,5.588284015655518,-19.535249710083008,-0.7665916085243225,-2.3852572441101074,0.21457235515117645,0
73,0.3600027561187744,-0.7322627902030945,-46.54800033569336,-5.588284015655518,19.535249710083008,0.7665916085243225,2.3916659355163574,-0.17978231608867645,0.0,0.0,0.0,0.0,0.0,0.0,0.0,-0.7719066481738656,-0.22365018066363526,-0.42576982324418483,0.33632514743914027,0.183362368523073,0.11471646530855571,-0.1850779035974305,0.8781148540034149,0.7556137940377434,-0.2825133197265464,-1.669044601833875,0.14140555751047496,2.403569661935171,1.0273460828380452,0.878092876070424,0.7554597494309409,-0.2825552651693207,-1.6690993614607135,0.1414185955172306,2.4034451173676383,1.0273381002308042,4.194548018503915e-05,0.00015179472206715912,0.00029194964718655213,1.1811546057257812e-05,6.549785713788937e-05,-0.00029931137757421904,-0.0002417081507993166,0.0,0.0,0.0,0.0,0.0,0.0,0.0,-2.1977932990968618e-05,-0.00015404460680257248,-4.19454427743049e-05,-5.4759626838540854e-05,1.3038006755644593e-05,-0.00012454456753285825,-7.982607240997197e-06,-4.194548018503915e-05,-0.00015179472206715912,-0.00029194964718655213,-1.1811546057257812e-05,-6.549785713788937e-05,0.00029931137757421904,0.0002417081507993166,0.7322627902030945,46.54800033569336,5.588284015655518,-19.535249710083008,-0.7665916085243225,-2.3916659355163574,0.17978231608867645,0
74,0.36499977111816406,-0.7322627902030945,-46.54800033569336,-5.588284015655518,19.535249710083008,0.7665916085243225,2.3916659355163574,-0.17978231608867645,0.0,0.0,0.0,0.0,0.0,0.0,0.0,-0.7719066481738656,-0.22365018066363526,-0.42576982324418483,0.33632514743914027,0.183362368523073,0.11471646530855571,-0.1850779035974305,0.8781148540034149,0.7556137940377434,-0.2825133197265464,-1.669044601833875,0.14140555751047496,2.403569661935171,1.0273460828380452,0.878092876070424,0.7554597494309409,-0.2825552651693207,-1.6690993614607135,0.1414185955172306,2.4034451173676383,1.0273381002308042,4.194548018503915e-05,0.00015179472206715912,0.00029194964718655213,1.1811546057257812e-05,6.549785713788937e-05,-0.00029931137757421904,-0.0002417081507993166,0.0,0.0,0.0,0.0,0.0,0.0,0.0,-2.1977932990968618e-05,-0.00015404460680257248,-4.19454427743049e-05,-5.4759626838540854e-05,1.3038006755644593e-05,-0.00012454456753285825,-7.982607240997197e-06,-4.194548018503915e-05,-0.00015179472206715912,-0.00029194964718655213,-1.1811546057257812e-05,-6.549785713788937e-05,0.00029931137757421904,0.0002417081507993166,0.7322627902030945,46.54800033569336,5.588284015655518,-19.535249710083008,-0.7665916085243225,-2.3916659355163574,0.17978231608867645,0
75,0.3699624538421631,-0.7322627902030945,-46.54800033569336,-5.588284015655518,19.535249710083008,0.7665916085243225,2.3916659355163574,-0.17978231608867645,0.0,0.0,0.0,0.0,0.0,0.0,0.0,-0.7719066481738656,-0.22365018066363526,-0.42576982324418483,0.33632514743914027,0.183362368523073,0.11471646530855571,-0.1850779035974305,0.8781148540034149,0.7556137940377434,-0.2825133197265464,-1.669044601833875,0.14140555751047496,2.403569661935171,1.0273460828380452,0.878092876070424,0.7554597494309409,-0.2825552651693207,-1.6690993614607135,0.1414185955172306,2.4034451173676383,1.0273381002308042,4.194548018503915e-05,0.00015179472206715912,0.00029194964718655213,1.1811546057257812e-05,6.549785713788937e-05,-0.00029931137757421904,-0.0002417081507993166,0.0,0.0,0.0,0.0,0.0,0.0,0.0,-2.1977932990968618e-05,-0.00015404460680257248,-4.19454427743049e-05,-5.4759626838540854e-05,1.3038006755644593e-05,-0.00012454456753285825,-7.982607240997197e-06,-4.194548018503915e-05,-0.00015179472206715912,-0.00029194964718655213,-1.1811546057257812e-05,-6.549785713788937e-05,0.00029931137757421904,0.0002417081507993166,0.7322627902030945,46.54800033569336,5.588284015655518,-19.535249710083008,-0.7665916085243225,-2.3916659355163574,0.17978231608867645,0
76,0.3750135898590088,-0.7322627902030945,-46.54800033569336,-5.588284015655518,19.535249710083008,0.7665916085243225,2.3916659355163574,-0.17978231608867645,0.0,0.0,0.0,0.0,0.0,0.0,0.0,-0.7719066481738656,-0.22365018066363526,-0.42576982324418483,0.33632514743914027,0.183362368523073,0.11471646530855571,-0.1850779035974305,0.8781148540034149,0.7556137940377434,-0.2825133197265464,-1.669044601833875,0.14140555751047496,2.403569661935171,1.0273460828380452,0.878092876070424,0.7554597494309409,-0.2825552651693207,-1.6690993614607135,0.1414185955172306,2.4034451173676383,1.0273381002308042,4.194548018503915e-05,0.00015179472206715912,0.00029194964718655213,1.1811546057257812e-05,6.549785713788937e-05,-0.00029931137757421904,-0.0002417081507993166,0.0,0.0,0.0,0.0,0.0,0.0,0.0,-2.1977932990968618e-05,-0.00015404460680257248,-4.19454427743049e-05,-5.4759626838540854e-05,1.3038006755644593e-05,-0.00012454456753285825,-7.982607240997197e-06,-4.194548018503915e-05,-0.00015179472206715912,-0.00029194964718655213,-1.1811546057257812e-05,-6.549785713788937e-05,0.00029931137757421904,0.0002417081507993166,0.7322627902030945,46.54800033569336,5.588284015655518,-19.535249710083008,-0.7665916085243225,-2.3916659355163574,0.17978231608867645,0
77,0.38000941276550293,-0.7838374972343445,-46.59957504272461,-5.536709308624268,19.535249710083008,0.7610984444618225,2.3788485527038574,-0.21457235515117645,0.0,0.0,0.0,0.0,0.0,0.0,0.0,-0.7800453467826904,-0.22651636182006055,-0.43437415731860146,0.3368638377214022,0.18368200869015863,0.1155262537440305,-0.1852003837850255,0.8781206010607137,0.7556167801543263,-0.282518855538668,-1.6690446105551768,0.1414061198991889,2.4035701834400953,1.0273499483979411,0.878092876070424,0.7554597494309409,-0.2825552651693207,-1.6690993614607135,0.1414185955172306,2.4034451173676383,1.0273381002308042,0.0011097664779360567,0.0015867061807267862,-0.0007078190980505713,-1.5526110570694633e-05,0.0003629018365688857,9.937549977930806e-05,0.0019266825147636714,0.0,0.0,0.0,0.0,0.0,0.0,0.0,-2.7724990289690332e-05,-0.0001570307233854651,-3.6409630652711744e-05,-5.475090553663797e-05,1.2475618041712933e-05,-0.00012506607245699186,-1.1848167136951915e-05,-0.0011097664779360567,-0.0015867061807267862,0.0007078190980505713,1.5526110570694633e-05,-0.0003629018365688857,-9.937549977930806e-05,-0.0019266825147636714,0.7838374972343445,46.59957504272461,5.536709308624268,-19.535249710083008,-0.7610984444618225,-2.3788485527038574,0.21457235515117645,0
78,0.3850252628326416,-0.7838374972343445,-46.59957504272461,-5.536709308624268,19.535249710083008,0.7610984444618225,2.3788485527038574,-0.21457235515117645,0.0,0.0,0.0,0.0,0.0,0.0,0.0,-0.7800453467826904,-0.22651636182006055,-0.43437415731860146,0.3368638377214022,0.18368200869015863,0.1155262537440305,-0.1852003837850255,0.8781206010607137,0.7556167801543263,-0.282518855538668,-1.6690446105551768,0.1414061198991889,2.4035701834400953,1.0273499483979411,0.878092876070424,0.7554597494309409,-0.2825552651693207,-1.6690993614607135,0.1414185955172306,2.4034451173676383,1.0273381002308042,0.0011097664779360567,0.0015867061807267862,-0.0007078190980505713,-1.5526110570694633e-05,0.0003629018365688857,9.937549977930806e-05,0.0019266825147636714,0.0,0.0,0.0,0.0,0.0,0.0,0.0,-2.7724990289690332e-05,-0.0001570307233854651,-3.6409630652711744e-05,-5.475090553663797e-05,1.2475618041712933e-05,-0.00012506607245699186,-1.1848167136951915e-05,-0.0011097664779360567,-0.0015867061807267862,0.0007078190980505713,1.5526110570694633e-05,-0.0003629018365688857,-9.937549977930806e-05,-0.0019266825147636714,0.7838374972343445,46.59957504272461,5.536709308624268,-19.535249710083008,-0.7610984444618225,-2.3788485527038574,0.21457235515117645,0
79,0.3900482654571533,-0.7560665011405945,-46.57577133178711,-5.612087726593018,19.535249710083008,0.7730002999305725,2.3852572441101074,-0.20724813640117645,0.0,0.0,0.0,0.0,0.0,0.0,0.0,-0.7955860309376187,-0.24314926407474247,-0.4457708308046697,0.3423399844147461,0.18467351886100994,0.11703222609397751,-0.1847764519683793,0.8781186787218471,0.7556157986977134,-0.2825130003322221,-1.6690446017249083,0.1414082721591794,2.4035703790195524,1.0273491345958576,0.878092876070424,0.7554597494309409,-0.2825552651693207,-1.6690993614607135,0.1414185955172306,2.4034451173676383,1.0273381002308042,-0.0005379673683491063,-0.00032951304639975673,0.0004156769314146986,0.00023679727008738303,-0.00016129530750272987,-0.00013793254782394648,0.0005036695837421661,0.0,0.0,0.0,0.0,0.0,0.0,0.0,-2.5802651423156853e-05,-0.00015604926677259545,-4.226483709862672e-05,-5.4759735805154364e-05,1.0323358051206322e-05,-0.0001252616519140659,-1.1034365053452788e-05,0.0005379673683491063,0.00032951304639975673,-0.0004156769314146986,-0.00023679727008738303,0.00016129530750272987,0.00013793254782394648,-0.0005036695837421661,0.7560665011405945,46.57577133178711,5.612087726593018,-19.535249710083008,-0.7730002999305725,-2.3852572441101074,0.20724813640117645,0
80,0.3950011730194092,-0.7560665011405945,-46.57577133178711,-5.612087726593018,19.535249710083008,0.7730002999305725,2.3852572441101074,-0.20724813640117645,0.0,0.0,0.0,0.0,0.0,0.0,0.0,-0.7955860309376187,-0.24314926407474247,-0.4457708308046697,0.3423399844147461,0.18467351886100994,0.11703222609397751,-0.1847764519683793,0.8781186787218471,0.7556157986977134,-0.2825130003322221,-1.6690446017249083,0.1414082721591794,2.4035703790195524,1.0273491345958576,0.878092876070424,0.7554597494309409,-0.2825552651693207,-1.6690993614607135,0.1414185955172306,2.4034451173676383,1.0273381002308042,-0.0005379673683491063,-0.00032951304639975673,0.0004156769314146986,0.00023679727008738303,-0.00016129530750272987,-0.00013793254782394648,0.0005036695837421661,0.0,0.0,0.0,0.0,0.0,0.0,0.0,-2.5802651423156853e-05,-0.00015604926677259545,-4.226483709862672e-05,-5.4759735805154364e-05,1.0323358051206322e-05,-0.0001252616519140659,-1.1034365053452788e-05,0.0005379673683491063,0.00032951304639975673,-0.0004156769314146986,-0.00023679727008738303,0.00016129530750272987,0.00013793254782394648,-0.0005036695837421661,0.7560665011405945,46.57577133178711,5.612087726593018,-19.535249710083008,-0.7730002999305725,-2.3852572441101074,0.20724813640117645,0
