rezayati/contactInterpretation/dataset/franka_main/labeled_data/link4/d2_7.csv
index,time,tau_J0,tau_J1,tau_J2,tau_J3,tau_J4,tau_J5,tau_J6,tau_J_d0,tau_J_d1,tau_J_d2,tau_J_d3,tau_J_d4,tau_J_d5,tau_J_d6,tau_ext0,tau_ext1,tau_ext2,tau_ext3,tau_ext4,tau_ext5,tau_ext6,q0,q1,q2,q3,q4,q5,q6,q_d0,q_d1,q_d2,q_d3,q_d4,q_d5,q_d6,dq0,dq1,dq2,dq3,dq4,dq5,dq6,dq_d0,dq_d1,dq_d2,dq_d3,dq_d4,dq_d5,dq_d6,e0,e1,e2,e3,e4,e5,e6,de0,de1,de2,de3,de4,de5,de6,etau_J0,etau_J1,etau_J2,etau_J3,etau_J4,etau_J5,etau_J6,label
1,0.0,-0.14510458707809448,-11.949304580688477,1.2156097888946533,21.768831253051758,0.3793235421180725,2.5207552909851074,-0.22098104655742645,0.0,0.0,0.0,0.0,0.0,0.0,0.0,-0.1626977437007045,0.40513914168171794,0.060491090482436484,0.4680336689440373,-0.1536254805044819,0.12557208530082423,-0.21680054301966875,0.17268209687868755,-0.487325310962242,-0.11141077109282477,-1.9467017352957474,0.13361073372761406,2.595551071855757,0.9452491365985738,0.1728802376190821,-0.48752024683155326,-0.11147110072896137,-1.9463801863486305,0.1336059019074957,2.595550359778934,0.9452445589611904,-0.001322238288889369,0.00037588575185543876,0.0008288751099109426,0.00012049142714584557,0.00018689528901304268,0.00017916055502011075,0.00027186699559311603,0.0,0.0,0.0,0.0,0.0,0.0,0.0,0.00019814074039456453,-0.0001949358693112413,-6.0329636136599585e-05,0.00032154894711688975,-4.831820118372798e-06,-7.120768228396912e-07,-4.5776373833739115e-06,0.001322238288889369,-0.00037588575185543876,-0.0008288751099109426,-0.00012049142714584557,-0.00018689528901304268,-0.00017916055502011075,-0.00027186699559311603,0.14510458707809448,11.949304580688477,-1.2156097888946533,-21.768831253051758,-0.3793235421180725,-2.5207552909851074,0.22098104655742645,0
2,0.005005836486816406,-0.14510458707809448,-11.949304580688477,1.2156097888946533,21.768831253051758,0.3793235421180725,2.5207552909851074,-0.22098104655742645,0.0,0.0,0.0,0.0,0.0,0.0,0.0,-0.1626977437007045,0.40513914168171794,0.060491090482436484,0.4680336689440373,-0.1536254805044819,0.12557208530082423,-0.21680054301966875,0.17268209687868755,-0.487325310962242,-0.11141077109282477,-1.9467017352957474,0.13361073372761406,2.595551071855757,0.9452491365985738,0.1728802376190821,-0.48752024683155326,-0.11147110072896137,-1.9463801863486305,0.1336059019074957,2.595550359778934,0.9452445589611904,-0.001322238288889369,0.00037588575185543876,0.0008288751099109426,0.00012049142714584557,0.00018689528901304268,0.00017916055502011075,0.00027186699559311603,0.0,0.0,0.0,0.0,0.0,0.0,0.0,0.00019814074039456453,-0.0001949358693112413,-6.0329636136599585e-05,0.00032154894711688975,-4.831820118372798e-06,-7.120768228396912e-07,-4.5776373833739115e-06,0.001322238288889369,-0.00037588575185543876,-0.0008288751099109426,-0.00012049142714584557,-0.00018689528901304268,-0.00017916055502011075,-0.00027186699559311603,0.14510458707809448,11.949304580688477,-1.2156097888946533,-21.768831253051758,-0.3793235421180725,-2.5207552909851074,0.22098104655742645,0
3,0.010000944137573242,-0.17287558317184448,-11.973108291625977,1.2156097888946533,21.741060256958008,0.3793235421180725,2.5335726737976074,-0.17337362468242645,0.0,0.0,0.0,0.0,0.0,0.0,0.0,-0.16568903457651638,0.39006934333220467,0.06449511983305924,0.47110389109552175,-0.15347061901622253,0.12554049020578234,-0.21641319794734795,0.17268404572051868,-0.4873236405263867,-0.11141077109282477,-1.9466997864539164,0.13361072056389967,2.595549647702111,0.9452438468850322,0.1728802376190821,-0.48752024683155326,-0.11147110072896137,-1.9463801863486305,0.1336059019074957,2.595550359778934,0.9452445589611904,-0.0005553638729526285,-0.00032488621680742865,0.0006582347601419575,0.0005882997131890535,6.934702264587439e-05,-0.00011579420359860068,-0.0009355256652714289,0.0,0.0,0.0,0.0,0.0,0.0,0.0,0.00019619189856343033,-0.00019660630516654676,-6.0329636136599585e-05,0.0003196001052858666,-4.818656403976496e-06,7.120768228396912e-07,7.120761582601887e-07,0.0005553638729526285,0.00032488621680742865,-0.0006582347601419575,-0.0005882997131890535,-6.934702264587439e-05,0.00011579420359860068,0.0009355256652714289,0.17287558317184448,11.973108291625977,-1.2156097888946533,-21.741060256958008,-0.3793235421180725,-2.5335726737976074,0.17337362468242645,0
4,0.015002727508544922,-0.17287558317184448,-11.973108291625977,1.2156097888946533,21.741060256958008,0.3793235421180725,2.5335726737976074,-0.17337362468242645,0.0,0.0,0.0,0.0,0.0,0.0,0.0,-0.16568903457651638,0.39006934333220467,0.06449511983305924,0.47110389109552175,-0.15347061901622253,0.12554049020578234,-0.21641319794734795,0.17268404572051868,-0.4873236405263867,-0.11141077109282477,-1.9466997864539164,0.13361072056389967,2.595549647702111,0.9452438468850322,0.1728802376190821,-0.48752024683155326,-0.11147110072896137,-1.9463801863486305,0.1336059019074957,2.595550359778934,0.9452445589611904,-0.0005553638729526285,-0.00032488621680742865,0.0006582347601419575,0.0005882997131890535,6.934702264587439e-05,-0.00011579420359860068,-0.0009355256652714289,0.0,0.0,0.0,0.0,0.0,0.0,0.0,0.00019619189856343033,-0.00019660630516654676,-6.0329636136599585e-05,0.0003196001052858666,-4.818656403976496e-06,7.120768228396912e-07,7.120761582601887e-07,0.0005553638729526285,0.00032488621680742865,-0.0006582347601419575,-0.0005882997131890535,-6.934702264587439e-05,0.00011579420359860068,0.0009355256652714289,0.17287558317184448,11.973108291625977,-1.2156097888946533,-21.741060256958008,-0.3793235421180725,-2.5335726737976074,0.17337362468242645,0
5,0.020000219345092773,-0.12130087614059448,-11.949304580688477,1.2909882068634033,21.693452835083008,0.3793235421180725,2.5271639823913574,-0.17978231608867645,0.0,0.0,0.0,0.0,0.0,0.0,0.0,-0.15896983445325366,0.39307702530204824,0.0761504023096686,0.4648409978729918,-0.15380756217269176,0.12532820752320237,-0.21422916720645643,0.17268042644283227,-0.487325310962242,-0.11141606080636643,-1.9466964455822058,0.13361037830725056,2.595550359778934,0.945244558961855,0.1728802376190821,-0.48752024683155326,-0.11147110072896137,-1.9463801863486305,0.1336059019074957,2.595550359778934,0.9452445589611904,-0.0004222936935117517,-0.0007453264255876679,-0.00025876858025570973,0.0020124694459934312,4.399161706851984e-05,7.100776264844583e-05,-0.0009210955505657429,0.0,0.0,0.0,0.0,0.0,0.0,0.0,0.00019981117624984224,-0.0001949358693112413,-5.503992259493773e-05,0.00031625923357525565,-4.476399754871352e-06,0.0,-6.645795025406187e-13,0.0004222936935117517,0.0007453264255876679,0.00025876858025570973,-0.0020124694459934312,-4.399161706851984e-05,-7.100776264844583e-05,0.0009210955505657429,0.12130087614059448,11.949304580688477,-1.2909882068634033,-21.693452835083008,-0.3793235421180725,-2.5271639823913574,0.17978231608867645,0
6,0.025000333786010742,-0.12130087614059448,-11.949304580688477,1.2909882068634033,21.693452835083008,0.3793235421180725,2.5271639823913574,-0.17978231608867645,0.0,0.0,0.0,0.0,0.0,0.0,0.0,-0.15896983445325366,0.39307702530204824,0.0761504023096686,0.4648409978729918,-0.15380756217269176,0.12532820752320237,-0.21422916720645643,0.17268042644283227,-0.487325310962242,-0.11141606080636643,-1.9466964455822058,0.13361037830725056,2.595550359778934,0.945244558961855,0.1728802376190821,-0.48752024683155326,-0.11147110072896137,-1.9463801863486305,0.1336059019074957,2.595550359778934,0.9452445589611904,-0.0004222936935117517,-0.0007453264255876679,-0.00025876858025570973,0.0020124694459934312,4.399161706851984e-05,7.100776264844583e-05,-0.0009210955505657429,0.0,0.0,0.0,0.0,0.0,0.0,0.0,0.00019981117624984224,-0.0001949358693112413,-5.503992259493773e-05,0.00031625923357525565,-4.476399754871352e-06,0.0,-6.645795025406187e-13,0.0004222936935117517,0.0007453264255876679,0.00025876858025570973,-0.0020124694459934312,-4.399161706851984e-05,-7.100776264844583e-05,0.0009210955505657429,0.12130087614059448,11.949304580688477,-1.2909882068634033,-21.693452835083008,-0.3793235421180725,-2.5271639823913574,0.17978231608867645,0
7,0.029999732971191406,-0.14510458707809448,-11.901697158813477,1.2671844959259033,21.792634963989258,0.3793235421180725,2.5271639823913574,-0.17978231608867645,0.0,0.0,0.0,0.0,0.0,0.0,0.0,-0.15936053878160517,0.4041546797726375,0.07054139107578382,0.4567445002482177,-0.1533381858953406,0.12507769535901855,-0.21409953586317798,0.17268209687868755,-0.4873286518339525,-0.11141439037051117,-1.9467034057316026,0.13361073372560772,2.595550359778934,0.945244558961855,0.1728802376190821,-0.48752024683155326,-0.11147110072896137,-1.9463801863486305,0.1336059019074957,2.595550359778934,0.9452445589611904,0.0006278574225908487,-0.0004924902707727323,0.0006150753898223508,-0.0007413723000112216,0.007210955054191472,5.043601146598269e-05,-0.000790835904923808,0.0,0.0,0.0,0.0,0.0,0.0,0.0,0.00019814074039456453,-0.0001915949976007414,-5.671035845020156e-05,0.0003232193829720842,-4.831818112033259e-06,0.0,-6.645795025406187e-13,-0.0006278574225908487,0.0004924902707727323,-0.0006150753898223508,0.0007413723000112216,-0.007210955054191472,-5.043601146598269e-05,0.000790835904923808,0.14510458707809448,11.901697158813477,-1.2671844959259033,-21.792634963989258,-0.3793235421180725,-2.5271639823913574,0.17978231608867645,0
8,0.0350193977355957,-0.14510458707809448,-11.901697158813477,1.2671844959259033,21.792634963989258,0.3793235421180725,2.5271639823913574,-0.17978231608867645,0.0,0.0,0.0,0.0,0.0,0.0,0.0,-0.15936053878160517,0.4041546797726375,0.07054139107578382,0.4567445002482177,-0.1533381858953406,0.12507769535901855,-0.21409953586317798,0.17268209687868755,-0.4873286518339525,-0.11141439037051117,-1.9467034057316026,0.13361073372560772,2.595550359778934,0.945244558961855,0.1728802376190821,-0.48752024683155326,-0.11147110072896137,-1.9463801863486305,0.1336059019074957,2.595550359778934,0.9452445589611904,0.0006278574225908487,-0.0004924902707727323,0.0006150753898223508,-0.0007413723000112216,0.007210955054191472,5.043601146598269e-05,-0.000790835904923808,0.0,0.0,0.0,0.0,0.0,0.0,0.0,0.00019814074039456453,-0.0001915949976007414,-5.671035845020156e-05,0.0003232193829720842,-4.831818112033259e-06,0.0,-6.645795025406187e-13,-0.0006278574225908487,0.0004924902707727323,-0.0006150753898223508,0.0007413723000112216,-0.007210955054191472,-5.043601146598269e-05,0.000790835904923808,0.14510458707809448,11.901697158813477,-1.2671844959259033,-21.792634963989258,-0.3793235421180725,-2.5271639823913574,0.17978231608867645,0
9,0.040009498596191406,-0.14510458707809448,-11.901697158813477,1.2671844959259033,21.792634963989258,0.3793235421180725,2.5271639823913574,-0.17978231608867645,0.0,0.0,0.0,0.0,0.0,0.0,0.0,-0.15936053878160517,0.4041546797726375,0.07054139107578382,0.4567445002482177,-0.1533381858953406,0.12507769535901855,-0.21409953586317798,0.17268209687868755,-0.4873286518339525,-0.11141439037051117,-1.9467034057316026,0.13361073372560772,2.595550359778934,0.945244558961855,0.1728802376190821,-0.48752024683155326,-0.11147110072896137,-1.9463801863486305,0.1336059019074957,2.595550359778934,0.9452445589611904,0.0006278574225908487,-0.0004924902707727323,0.0006150753898223508,-0.0007413723000112216,0.007210955054191472,5.043601146598269e-05,-0.000790835904923808,0.0,0.0,0.0,0.0,0.0,0.0,0.0,0.00019814074039456453,-0.0001915949976007414,-5.671035845020156e-05,0.0003232193829720842,-4.831818112033259e-06,0.0,-6.645795025406187e-13,-0.0006278574225908487,0.0004924902707727323,-0.0006150753898223508,0.0007413723000112216,-0.007210955054191472,-5.043601146598269e-05,0.000790835904923808,0.14510458707809448,11.901697158813477,-1.2671844959259033,-21.792634963989258,-0.3793235421180725,-2.5271639823913574,0.17978231608867645,0
10,0.04501986503601074,-0.19667929410934448,-11.901697158813477,1.2909882068634033,21.741060256958008,0.3857322335243225,2.5271639823913574,-0.21457235515117645,0.0,0.0,0.0,0.0,0.0,0.0,0.0,-0.15456545056718057,0.40945076325096696,0.07033318572445124,0.4562329219461314,-0.15293626357872425,0.1256512877434966,-0.21374924654703556,0.17268571615637393,-0.4873286518339525,-0.11141606080636643,-1.9466997864539164,0.13361002165079114,2.595550359778934,0.9452484245217508,0.1728802376190821,-0.48752024683155326,-0.11147110072896137,-1.9463801863486305,0.1336059019074957,2.595550359778934,0.9452445589611904,0.0009804089411645648,0.0007275990504613077,-0.0003594293876361329,0.0003075598795534232,4.042332064869286e-05,-0.00012713466185173286,0.0005149983047288963,0.0,0.0,0.0,0.0,0.0,0.0,0.0,0.00019452146270818038,-0.0001915949976007414,-5.503992259493773e-05,0.0003196001052858666,-4.11974329544984e-06,0.0,-3.865560560423198e-06,-0.0009804089411645648,-0.0007275990504613077,0.0003594293876361329,-0.0003075598795534232,-4.042332064869286e-05,0.00012713466185173286,-0.0005149983047288963,0.19667929410934448,11.901697158813477,-1.2909882068634033,-21.741060256958008,-0.3857322335243225,-2.5271639823913574,0.21457235515117645,0
11,0.05026698112487793,-0.19667929410934448,-11.901697158813477,1.2909882068634033,21.741060256958008,0.3857322335243225,2.5271639823913574,-0.21457235515117645,0.0,0.0,0.0,0.0,0.0,0.0,0.0,-0.15456545056718057,0.40945076325096696,0.07033318572445124,0.4562329219461314,-0.15293626357872425,0.1256512877434966,-0.21374924654703556,0.17268571615637393,-0.4873286518339525,-0.11141606080636643,-1.9466997864539164,0.13361002165079114,2.595550359778934,0.9452484245217508,0.1728802376190821,-0.48752024683155326,-0.11147110072896137,-1.9463801863486305,0.1336059019074957,2.595550359778934,0.9452445589611904,0.0009804089411645648,0.0007275990504613077,-0.0003594293876361329,0.0003075598795534232,4.042332064869286e-05,-0.00012713466185173286,0.0005149983047288963,0.0,0.0,0.0,0.0,0.0,0.0,0.0,0.00019452146270818038,-0.0001915949976007414,-5.503992259493773e-05,0.0003196001052858666,-4.11974329544984e-06,0.0,-3.865560560423198e-06,-0.0009804089411645648,-0.0007275990504613077,0.0003594293876361329,-0.0003075598795534232,-4.042332064869286e-05,0.00012713466185173286,-0.0005149983047288963,0.19667929410934448,11.901697158813477,-1.2909882068634033,-21.741060256958008,-0.3857322335243225,-2.5271639823913574,0.21457235515117645,0
12,0.05500030517578125,-0.17287558317184448,-11.873926162719727,1.2433807849884033,21.741060256958008,0.3793235421180725,2.5207552909851074,-0.23471395671367645,0.0,0.0,0.0,0.0,0.0,0.0,0.0,-0.1568648489327696,0.4073341659794031,0.06765798016559231,0.4643629410572176,-0.15262567582864053,0.12614255399830898,-0.21342757291237074,0.17268404572051868,-0.4873327268988012,-0.11141271993465592,-1.9466997864539164,0.13361073372761406,2.595551071855757,0.94525066247748,0.1728802376190821,-0.48752024683155326,-0.11147110072896137,-1.9463801863486305,0.1336059019074957,2.595550359778934,0.9452445589611904,0.0002532461501147512,-2.9077395006575334e-05,0.00027079463542642197,0.0003821643846749907,-6.795489728453281e-05,0.0002423447639900087,0.001393182637759656,0.0,0.0,0.0,0.0,0.0,0.0,0.0,0.00019619189856343033,-0.00018751993275206713,-5.838079430545151e-05,0.0003196001052858666,-4.831820118372798e-06,-7.120768228396912e-07,-6.103516289601707e-06,-0.0002532461501147512,2.9077395006575334e-05,-0.00027079463542642197,-0.0003821643846749907,6.795489728453281e-05,-0.0002423447639900087,-0.001393182637759656,0.17287558317184448,11.873926162719727,-1.2433807849884033,-21.741060256958008,-0.3793235421180725,-2.5207552909851074,0.23471395671367645,0
13,0.0600132942199707,-0.17287558317184448,-11.873926162719727,1.2433807849884033,21.741060256958008,0.3793235421180725,2.5207552909851074,-0.23471395671367645,0.0,0.0,0.0,0.0,0.0,0.0,0.0,-0.1568648489327696,0.4073341659794031,0.06765798016559231,0.4643629410572176,-0.15262567582864053,0.12614255399830898,-0.21342757291237074,0.17268404572051868,-0.4873327268988012,-0.11141271993465592,-1.9466997864539164,0.13361073372761406,2.595551071855757,0.94525066247748,0.1728802376190821,-0.48752024683155326,-0.11147110072896137,-1.9463801863486305,0.1336059019074957,2.595550359778934,0.9452445589611904,0.0002532461501147512,-2.9077395006575334e-05,0.00027079463542642197,0.0003821643846749907,-6.795489728453281e-05,0.0002423447639900087,0.001393182637759656,0.0,0.0,0.0,0.0,0.0,0.0,0.0,0.00019619189856343033,-0.00018751993275206713,-5.838079430545151e-05,0.0003196001052858666,-4.831820118372798e-06,-7.120768228396912e-07,-6.103516289601707e-06,-0.0002532461501147512,2.9077395006575334e-05,-0.00027079463542642197,-0.0003821643846749907,6.795489728453281e-05,-0.0002423447639900087,-0.001393182637759656,0.17287558317184448,11.873926162719727,-1.2433807849884033,-21.741060256958008,-0.3793235421180725,-2.5207552909851074,0.23471395671367645,0
14,0.06500363349914551,-0.17287558317184448,-11.873926162719727,1.1918060779571533,21.741060256958008,0.3738303780555725,2.5271639823913574,-0.20724813640117645,0.0,0.0,0.0,0.0,0.0,0.0,0.0,-0.16083015583414337,0.40313801251520853,0.06602995228233614,0.4707637325728968,-0.15289774491244457,0.1269655274876886,-0.21288305653814574,0.17268404572051868,-0.4873306006877862,-0.11140910163130241,-1.9466997864539164,0.13361134407917655,2.595550359778934,0.9452476107196676,0.1728802376190821,-0.48752024683155326,-0.11147110072896137,-1.9463801863486305,0.1336059019074957,2.595550359778934,0.9452445589611904,-0.0005790896472597201,-0.0009153227231776297,0.0014533792580587509,0.0003501755274701157,0.00046784872868040327,-0.0001702903125368369,0.000443666012485373,0.0,0.0,0.0,0.0,0.0,0.0,0.0,0.00019619189856343033,-0.00018964614376704159,-6.199909765895739e-05,0.0003196001052858666,-5.442171680858365e-06,0.0,-3.051758477146116e-06,0.0005790896472597201,0.0009153227231776297,-0.0014533792580587509,-0.0003501755274701157,-0.00046784872868040327,0.0001702903125368369,-0.000443666012485373,0.17287558317184448,11.873926162719727,-1.1918060779571533,-21.741060256958008,-0.3738303780555725,-2.5271639823913574,0.20724813640117645,0
15,0.07000160217285156,-0.17287558317184448,-11.873926162719727,1.1918060779571533,21.741060256958008,0.3738303780555725,2.5271639823913574,-0.20724813640117645,0.0,0.0,0.0,0.0,0.0,0.0,0.0,-0.16083015583414337,0.40313801251520853,0.06602995228233614,0.4707637325728968,-0.15289774491244457,0.1269655274876886,-0.21288305653814574,0.17268404572051868,-0.4873306006877862,-0.11140910163130241,-1.9466997864539164,0.13361134407917655,2.595550359778934,0.9452476107196676,0.1728802376190821,-0.48752024683155326,-0.11147110072896137,-1.9463801863486305,0.1336059019074957,2.595550359778934,0.9452445589611904,-0.0005790896472597201,-0.0009153227231776297,0.0014533792580587509,0.0003501755274701157,0.00046784872868040327,-0.0001702903125368369,0.000443666012485373,0.0,0.0,0.0,0.0,0.0,0.0,0.0,0.00019619189856343033,-0.00018964614376704159,-6.199909765895739e-05,0.0003196001052858666,-5.442171680858365e-06,0.0,-3.051758477146116e-06,0.0005790896472597201,0.0009153227231776297,-0.0014533792580587509,-0.0003501755274701157,-0.00046784872868040327,0.0001702903125368369,-0.000443666012485373,0.17287558317184448,11.873926162719727,-1.1918060779571533,-21.741060256958008,-0.3738303780555725,-2.5271639823913574,0.20724813640117645,0
16,0.07500362396240234,-0.19667929410934448,-11.925500869750977,1.2909882068634033,21.792634963989258,0.3738303780555725,2.5335726737976074,-0.23471395671367645,0.0,0.0,0.0,0.0,0.0,0.0,0.0,-0.12310051301576806,0.41040560142035026,0.13446064657657703,0.46800056798995177,-0.15629395056173942,0.12510186332166945,-0.21170730319630435,0.17268571615637393,-0.48732700764376397,-0.11141606080637192,-1.9467034057316026,0.13361134407917655,2.59554964334146,0.94525066247748,0.1728802376190821,-0.48752024683155326,-0.11147110072896137,-1.9463801863486305,0.1336059019074957,2.595550359778934,0.9452445589611904,0.00018188574607454954,-0.0004561648981793061,-0.0023756840322774913,-0.0009141473999574167,0.0002799588292033107,-0.0001140820292076309,0.0015424504854053486,0.0,0.0,0.0,0.0,0.0,0.0,0.0,0.00019452146270818038,-0.00019323918778929583,-5.5039922589442125e-05,0.0003232193829720842,-5.442171680858365e-06,7.164374737911317e-07,-6.103516289601707e-06,-0.00018188574607454954,0.0004561648981793061,0.0023756840322774913,0.0009141473999574167,-0.0002799588292033107,0.0001140820292076309,-0.0015424504854053486,0.19667929410934448,11.925500869750977,-1.2909882068634033,-21.792634963989258,-0.3738303780555725,-2.5335726737976074,0.23471395671367645,0
17,0.08005094528198242,-0.19667929410934448,-11.925500869750977,1.2909882068634033,21.792634963989258,0.3738303780555725,2.5335726737976074,-0.23471395671367645,0.0,0.0,0.0,0.0,0.0,0.0,0.0,-0.12310051301576806,0.41040560142035026,0.13446064657657703,0.46800056798995177,-0.15629395056173942,0.12510186332166945,-0.21170730319630435,0.17268571615637393,-0.48732700764376397,-0.11141606080637192,-1.9467034057316026,0.13361134407917655,2.59554964334146,0.94525066247748,0.1728802376190821,-0.48752024683155326,-0.11147110072896137,-1.9463801863486305,0.1336059019074957,2.595550359778934,0.9452445589611904,0.00018188574607454954,-0.0004561648981793061,-0.0023756840322774913,-0.0009141473999574167,0.0002799588292033107,-0.0001140820292076309,0.0015424504854053486,0.0,0.0,0.0,0.0,0.0,0.0,0.0,0.00019452146270818038,-0.00019323918778929583,-5.5039922589442125e-05,0.0003232193829720842,-5.442171680858365e-06,7.164374737911317e-07,-6.103516289601707e-06,-0.00018188574607454954,0.0004561648981793061,0.0023756840322774913,0.0009141473999574167,-0.0002799588292033107,0.0001140820292076309,-0.0015424504854053486,0.19667929410934448,11.925500869750977,-1.2909882068634033,-21.792634963989258,-0.3738303780555725,-2.5335726737976074,0.23471395671367645,0
18,0.08499813079833984,-0.12130087614059448,-11.925500869750977,1.2909882068634033,21.768831253051758,0.3857322335243225,2.5271639823913574,-0.20724813640117645,0.0,0.0,0.0,0.0,0.0,0.0,0.0,-0.16189257901928142,0.41815045183513294,0.07139187068050865,0.4600144639982428,-0.153826967037895,0.1254936171714636,-0.21035767128843308,0.17268042655083912,-0.4873269813982454,-0.11141606080636643,-1.9467017352957474,0.13361002165079114,2.595550346696957,0.9452476107196676,0.1728802376190821,-0.48752024683155326,-0.11147110072896137,-1.9463801863486305,0.1336059019074957,2.595550359778934,0.9452445589611904,-0.0009014141651727755,-0.0007622066276438651,-0.0008035047754906441,-0.00013004225959963747,-0.00016065310919026276,0.0001497130771146601,0.00025841216558109074,0.0,0.0,0.0,0.0,0.0,0.0,0.0,0.00019981106824298878,-0.0001932654333078876,-5.503992259493773e-05,0.00032154894711688975,-4.11974329544984e-06,1.3081976835138676e-08,-3.051758477146116e-06,0.0009014141651727755,0.0007622066276438651,0.0008035047754906441,0.00013004225959963747,0.00016065310919026276,-0.0001497130771146601,-0.00025841216558109074,0.12130087614059448,11.925500869750977,-1.2909882068634033,-21.768831253051758,-0.3857322335243225,-2.5271639823913574,0.20724813640117645,0
19,0.08999943733215332,-0.12130087614059448,-11.925500869750977,1.2909882068634033,21.768831253051758,0.3857322335243225,2.5271639823913574,-0.20724813640117645,0.0,0.0,0.0,0.0,0.0,0.0,0.0,-0.16189257901928142,0.41815045183513294,0.07139187068050865,0.4600144639982428,-0.153826967037895,0.1254936171714636,-0.21035767128843308,0.17268042655083912,-0.4873269813982454,-0.11141606080636643,-1.9467017352957474,0.13361002165079114,2.595550346696957,0.9452476107196676,0.1728802376190821,-0.48752024683155326,-0.11147110072896137,-1.9463801863486305,0.1336059019074957,2.595550359778934,0.9452445589611904,-0.0009014141651727755,-0.0007622066276438651,-0.0008035047754906441,-0.00013004225959963747,-0.00016065310919026276,0.0001497130771146601,0.00025841216558109074,0.0,0.0,0.0,0.0,0.0,0.0,0.0,0.00019981106824298878,-0.0001932654333078876,-5.503992259493773e-05,0.00032154894711688975,-4.11974329544984e-06,1.3081976835138676e-08,-3.051758477146116e-06,0.0009014141651727755,0.0007622066276438651,0.0008035047754906441,0.00013004225959963747,0.00016065310919026276,-0.0001497130771146601,-0.00025841216558109074,0.12130087614059448,11.925500869750977,-1.2909882068634033,-21.768831253051758,-0.3857322335243225,-2.5271639823913574,0.20724813640117645,0
20,0.09499835968017578,-0.14510458707809448,-11.901697158813477,1.3147919178009033,21.741060256958008,0.3738303780555725,2.5335726737976074,-0.20083944499492645,0.0,0.0,0.0,0.0,0.0,0.0,0.0,-0.17197495070483282,0.420779428944595,0.05106496305409127,0.45785756639373365,-0.1532047023796693,0.12588237218070125,-0.20987990020006614,0.17268209687868813,-0.4873286518339525,-0.1114177312422217,-1.9466997864539164,0.13361134407917655,2.5955496477020374,0.9452468986428446,0.1728802376190821,-0.48752024683155326,-0.11147110072896137,-1.9463801863486305,0.1336059019074957,2.595550359778934,0.9452445589611904,1.1536396442597982e-06,-0.0004236886060584023,-0.0013588920021818335,0.0006141637490919921,0.00012130270965954054,-0.00015195816392862997,-5.600897384419396e-05,0.0,0.0,0.0,0.0,0.0,0.0,0.0,0.00019814074039398166,-0.0001915949976007414,-5.33694867396739e-05,0.0003196001052858666,-5.442171680858365e-06,7.120768965585e-07,-2.3396816541954024e-06,-1.1536396442597982e-06,0.0004236886060584023,0.0013588920021818335,-0.0006141637490919921,-0.00012130270965954054,0.00015195816392862997,5.600897384419396e-05,0.14510458707809448,11.901697158813477,-1.3147919178009033,-21.741060256958008,-0.3738303780555725,-2.5335726737976074,0.20083944499492645,0
21,0.10000252723693848,-0.14510458707809448,-11.901697158813477,1.3147919178009033,21.741060256958008,0.3738303780555725,2.5335726737976074,-0.20083944499492645,0.0,0.0,0.0,0.0,0.0,0.0,0.0,-0.17197495070483282,0.420779428944595,0.05106496305409127,0.45785756639373365,-0.1532047023796693,0.12588237218070125,-0.20987990020006614,0.17268209687868813,-0.4873286518339525,-0.1114177312422217,-1.9466997864539164,0.13361134407917655,2.5955496477020374,0.9452468986428446,0.1728802376190821,-0.48752024683155326,-0.11147110072896137,-1.9463801863486305,0.1336059019074957,2.595550359778934,0.9452445589611904,1.1536396442597982e-06,-0.0004236886060584023,-0.0013588920021818335,0.0006141637490919921,0.00012130270965954054,-0.00015195816392862997,-5.600897384419396e-05,0.0,0.0,0.0,0.0,0.0,0.0,0.0,0.00019814074039398166,-0.0001915949976007414,-5.33694867396739e-05,0.0003196001052858666,-5.442171680858365e-06,7.120768965585e-07,-2.3396816541954024e-06,-1.1536396442597982e-06,0.0004236886060584023,0.0013588920021818335,-0.0006141637490919921,-0.00012130270965954054,0.00015195816392862997,5.600897384419396e-05,0.14510458707809448,11.901697158813477,-1.3147919178009033,-21.741060256958008,-0.3738303780555725,-2.5335726737976074,0.20083944499492645,0
22,0.10499978065490723,-0.14510458707809448,-11.925500869750977,1.2671844959259033,21.792634963989258,0.3793235421180725,2.5271639823913574,-0.20083944499492645,0.0,0.0,0.0,0.0,0.0,0.0,0.0,-0.1753339444524078,0.40508841729223133,0.04393063548639162,0.4649656913262183,-0.15301661899890906,0.12725004384671054,-0.2104097882831295,0.17268209687868755,-0.48732698139809727,-0.11141439037051117,-1.9467034057316026,0.13361073372761406,2.595550359778934,0.9452501570300923,0.1728802376190821,-0.48752024683155326,-0.11147110072896137,-1.9463801863486305,0.1336059019074957,2.595550359778934,0.9452445589611904,-0.0006724769599139897,-5.915653201235031e-05,-0.0004846458513028932,-0.0007309873627037023,0.00010525636005839302,-0.00012430521781337675,-0.00040475430060554464,0.0,0.0,0.0,0.0,0.0,0.0,0.0,0.00019814074039456453,-0.00019326543345599134,-5.671035845020156e-05,0.0003232193829720842,-4.831820118372798e-06,0.0,-5.598068901879749e-06,0.0006724769599139897,5.915653201235031e-05,0.0004846458513028932,0.0007309873627037023,-0.00010525636005839302,0.00012430521781337675,0.00040475430060554464,0.14510458707809448,11.925500869750977,-1.2671844959259033,-21.792634963989258,-0.3793235421180725,-2.5271639823913574,0.20083944499492645,0
23,0.11000704765319824,-0.14510458707809448,-11.925500869750977,1.2671844959259033,21.792634963989258,0.3793235421180725,2.5271639823913574,-0.20083944499492645,0.0,0.0,0.0,0.0,0.0,0.0,0.0,-0.1753339444524078,0.40508841729223133,0.04393063548639162,0.4649656913262183,-0.15301661899890906,0.12725004384671054,-0.2104097882831295,0.17268209687868755,-0.48732698139809727,-0.11141439037051117,-1.9467034057316026,0.13361073372761406,2.595550359778934,0.9452501570300923,0.1728802376190821,-0.48752024683155326,-0.11147110072896137,-1.9463801863486305,0.1336059019074957,2.595550359778934,0.9452445589611904,-0.0006724769599139897,-5.915653201235031e-05,-0.0004846458513028932,-0.0007309873627037023,0.00010525636005839302,-0.00012430521781337675,-0.00040475430060554464,0.0,0.0,0.0,0.0,0.0,0.0,0.0,0.00019814074039456453,-0.00019326543345599134,-5.671035845020156e-05,0.0003232193829720842,-4.831820118372798e-06,0.0,-5.598068901879749e-06,0.0006724769599139897,5.915653201235031e-05,0.0004846458513028932,0.0007309873627037023,-0.00010525636005839302,0.00012430521781337675,0.00040475430060554464,0.14510458707809448,11.925500869750977,-1.2671844959259033,-21.792634963989258,-0.3793235421180725,-2.5271639823913574,0.20083944499492645,0
24,0.11500906944274902,-0.14510458707809448,-11.925500869750977,1.2671844959259033,21.792634963989258,0.3793235421180725,2.5271639823913574,-0.20083944499492645,0.0,0.0,0.0,0.0,0.0,0.0,0.0,-0.1753339444524078,0.40508841729223133,0.04393063548639162,0.4649656913262183,-0.15301661899890906,0.12725004384671054,-0.2104097882831295,0.17268209687868755,-0.48732698139809727,-0.11141439037051117,-1.9467034057316026,0.13361073372761406,2.595550359778934,0.9452501570300923,0.1728802376190821,-0.48752024683155326,-0.11147110072896137,-1.9463801863486305,0.1336059019074957,2.595550359778934,0.9452445589611904,-0.0006724769599139897,-5.915653201235031e-05,-0.0004846458513028932,-0.0007309873627037023,0.00010525636005839302,-0.00012430521781337675,-0.00040475430060554464,0.0,0.0,0.0,0.0,0.0,0.0,0.0,0.00019814074039456453,-0.00019326543345599134,-5.671035845020156e-05,0.0003232193829720842,-4.831820118372798e-06,0.0,-5.598068901879749e-06,0.0006724769599139897,5.915653201235031e-05,0.0004846458513028932,0.0007309873627037023,-0.00010525636005839302,0.00012430521781337675,0.00040475430060554464,0.14510458707809448,11.925500869750977,-1.2671844959259033,-21.792634963989258,-0.3793235421180725,-2.5271639823913574,0.20083944499492645,0
25,0.12000536918640137,-0.14510458707809448,-11.925500869750977,1.2671844959259033,21.792634963989258,0.3793235421180725,2.5271639823913574,-0.20083944499492645,0.0,0.0,0.0,0.0,0.0,0.0,0.0,-0.1753339444524078,0.40508841729223133,0.04393063548639162,0.4649656913262183,-0.15301661899890906,0.12725004384671054,-0.2104097882831295,0.17268209687868755,-0.48732698139809727,-0.11141439037051117,-1.9467034057316026,0.13361073372761406,2.595550359778934,0.9452501570300923,0.1728802376190821,-0.48752024683155326,-0.11147110072896137,-1.9463801863486305,0.1336059019074957,2.595550359778934,0.9452445589611904,-0.0006724769599139897,-5.915653201235031e-05,-0.0004846458513028932,-0.0007309873627037023,0.00010525636005839302,-0.00012430521781337675,-0.00040475430060554464,0.0,0.0,0.0,0.0,0.0,0.0,0.0,0.00019814074039456453,-0.00019326543345599134,-5.671035845020156e-05,0.0003232193829720842,-4.831820118372798e-06,0.0,-5.598068901879749e-06,0.0006724769599139897,5.915653201235031e-05,0.0004846458513028932,0.0007309873627037023,-0.00010525636005839302,0.00012430521781337675,0.00040475430060554464,0.14510458707809448,11.925500869750977,-1.2671844959259033,-21.792634963989258,-0.3793235421180725,-2.5271639823913574,0.20083944499492645,0
26,0.12500214576721191,-0.14510458707809448,-11.901697158813477,1.2433807849884033,21.768831253051758,0.3912253975868225,2.5271639823913574,-0.18710653483867645,0.0,0.0,0.0,0.0,0.0,0.0,0.0,-0.1673660491600517,0.4121760489275225,0.0557054862938927,0.4592103500421138,-0.1537607903099759,0.1255957895088923,-0.2114845971947062,0.17268209691468983,-0.4873286518339525,-0.11141271993465592,-1.9467017352957474,0.13360941129922865,2.595550359778934,0.9452464589114147,0.1728802376190821,-0.48752024683155326,-0.11147110072896137,-1.9463801863486305,0.1336059019074957,2.595550359778934,0.9452445589611904,-0.0007096853537130174,-0.000895898044747156,0.00027536119089687644,-0.0005154130173663833,-0.000540404232154932,1.31237594084689e-06,2.1806394568114473e-05,0.0,0.0,0.0,0.0,0.0,0.0,0.0,0.00019814070439228004,-0.0001915949976007414,-5.838079430545151e-05,0.00032154894711688975,-3.509391732964273e-06,0.0,-1.8999502242600386e-06,0.0007096853537130174,0.000895898044747156,-0.00027536119089687644,0.0005154130173663833,0.000540404232154932,-1.31237594084689e-06,-2.1806394568114473e-05,0.14510458707809448,11.901697158813477,-1.2433807849884033,-21.768831253051758,-0.3912253975868225,-2.5271639823913574,0.18710653483867645,0
27,0.13000273704528809,-0.14510458707809448,-11.901697158813477,1.2433807849884033,21.768831253051758,0.3912253975868225,2.5271639823913574,-0.18710653483867645,0.0,0.0,0.0,0.0,0.0,0.0,0.0,-0.1673660491600517,0.4121760489275225,0.0557054862938927,0.4592103500421138,-0.1537607903099759,0.1255957895088923,-0.2114845971947062,0.17268209691468983,-0.4873286518339525,-0.11141271993465592,-1.9467017352957474,0.13360941129922865,2.595550359778934,0.9452464589114147,0.1728802376190821,-0.48752024683155326,-0.11147110072896137,-1.9463801863486305,0.1336059019074957,2.595550359778934,0.9452445589611904,-0.0007096853537130174,-0.000895898044747156,0.00027536119089687644,-0.0005154130173663833,-0.000540404232154932,1.31237594084689e-06,2.1806394568114473e-05,0.0,0.0,0.0,0.0,0.0,0.0,0.0,0.00019814070439228004,-0.0001915949976007414,-5.838079430545151e-05,0.00032154894711688975,-3.509391732964273e-06,0.0,-1.8999502242600386e-06,0.0007096853537130174,0.000895898044747156,-0.00027536119089687644,0.0005154130173663833,0.000540404232154932,-1.31237594084689e-06,-2.1806394568114473e-05,0.14510458707809448,11.901697158813477,-1.2433807849884033,-21.768831253051758,-0.3912253975868225,-2.5271639823913574,0.18710653483867645,0
28,0.13499808311462402,-0.12130087614059448,-11.949304580688477,1.2909882068634033,21.768831253051758,0.3793235421180725,2.5335726737976074,-0.17337362468242645,0.0,0.0,0.0,0.0,0.0,0.0,0.0,-0.16508138465556862,0.3998097661856756,0.05933416447596596,0.46355144737868115,-0.15408744806446645,0.1265891788425494,-0.21038992903167106,0.17268042644283246,-0.487325310962242,-0.11141606080636643,-1.9467017352957474,0.13361073372761406,2.595549647702111,0.945244933020246,0.1728802376190821,-0.48752024683155326,-0.11147110072896137,-1.9463801863486305,0.1336059019074957,2.595550359778934,0.9452445589611904,-0.0005162181514270725,-0.00012017530732124672,-0.0007158752951920252,-0.00017670468426091382,0.0001686004733408141,-0.0003805413657022853,-0.0007200570531054806,0.0,0.0,0.0,0.0,0.0,0.0,0.0,0.00019981117624964795,-0.0001949358693112413,-5.503992259493773e-05,0.00032154894711688975,-4.831820118372798e-06,7.120768228396912e-07,-3.7405905561893604e-07,0.0005162181514270725,0.00012017530732124672,0.0007158752951920252,0.00017670468426091382,-0.0001686004733408141,0.0003805413657022853,0.0007200570531054806,0.12130087614059448,11.949304580688477,-1.2909882068634033,-21.768831253051758,-0.3793235421180725,-2.5335726737976074,0.17337362468242645,0
29,0.14000320434570312,-0.12130087614059448,-11.949304580688477,1.2909882068634033,21.768831253051758,0.3793235421180725,2.5335726737976074,-0.17337362468242645,0.0,0.0,0.0,0.0,0.0,0.0,0.0,-0.16508138465556862,0.3998097661856756,0.05933416447596596,0.46355144737868115,-0.15408744806446645,0.1265891788425494,-0.21038992903167106,0.17268042644283246,-0.487325310962242,-0.11141606080636643,-1.9467017352957474,0.13361073372761406,2.595549647702111,0.945244933020246,0.1728802376190821,-0.48752024683155326,-0.11147110072896137,-1.9463801863486305,0.1336059019074957,2.595550359778934,0.9452445589611904,-0.0005162181514270725,-0.00012017530732124672,-0.0007158752951920252,-0.00017670468426091382,0.0001686004733408141,-0.0003805413657022853,-0.0007200570531054806,0.0,0.0,0.0,0.0,0.0,0.0,0.0,0.00019981117624964795,-0.0001949358693112413,-5.503992259493773e-05,0.00032154894711688975,-4.831820118372798e-06,7.120768228396912e-07,-3.7405905561893604e-07,0.0005162181514270725,0.00012017530732124672,0.0007158752951920252,0.00017670468426091382,-0.0001686004733408141,0.0003805413657022853,0.0007200570531054806,0.12130087614059448,11.949304580688477,-1.2909882068634033,-21.768831253051758,-0.3793235421180725,-2.5335726737976074,0.17337362468242645,0
30,0.14499855041503906,-0.17287558317184448,-11.949304580688477,1.3147919178009033,21.741060256958008,0.3857322335243225,2.5271639823913574,-0.23471395671367645,0.0,0.0,0.0,0.0,0.0,0.0,0.0,-0.16091157086281604,0.3999418198895091,0.061528930310271665,0.4613439555549576,-0.15405074515916015,0.12643271478772047,-0.21066304123300764,0.17268404572051868,-0.487325310962242,-0.1114177312422217,-1.9466997864539164,0.13361002165079114,2.595550359778934,0.9452506624836113,0.1728802376190821,-0.48752024683155326,-0.11147110072896137,-1.9463801863486305,0.1336059019074957,2.595550359778934,0.9452445589611904,0.0005555320556902076,-0.00028385479332871457,-0.0009135235444119328,0.0004979569397284921,-0.0003721287456098625,1.2270226804163391e-05,0.0008501173453713605,0.0,0.0,0.0,0.0,0.0,0.0,0.0,0.00019619189856343033,-0.0001949358693112413,-5.33694867396739e-05,0.0003196001052858666,-4.11974329544984e-06,0.0,-6.103522420919383e-06,-0.0005555320556902076,0.00028385479332871457,0.0009135235444119328,-0.0004979569397284921,0.0003721287456098625,-1.2270226804163391e-05,-0.0008501173453713605,0.17287558317184448,11.949304580688477,-1.3147919178009033,-21.741060256958008,-0.3857322335243225,-2.5271639823913574,0.23471395671367645,0
31,0.15000104904174805,-0.17287558317184448,-11.949304580688477,1.3147919178009033,21.741060256958008,0.3857322335243225,2.5271639823913574,-0.23471395671367645,0.0,0.0,0.0,0.0,0.0,0.0,0.0,-0.16091157086281604,0.3999418198895091,0.061528930310271665,0.4613439555549576,-0.15405074515916015,0.12643271478772047,-0.21066304123300764,0.17268404572051868,-0.487325310962242,-0.1114177312422217,-1.9466997864539164,0.13361002165079114,2.595550359778934,0.9452506624836113,0.1728802376190821,-0.48752024683155326,-0.11147110072896137,-1.9463801863486305,0.1336059019074957,2.595550359778934,0.9452445589611904,0.0005555320556902076,-0.00028385479332871457,-0.0009135235444119328,0.0004979569397284921,-0.0003721287456098625,1.2270226804163391e-05,0.0008501173453713605,0.0,0.0,0.0,0.0,0.0,0.0,0.0,0.00019619189856343033,-0.0001949358693112413,-5.33694867396739e-05,0.0003196001052858666,-4.11974329544984e-06,0.0,-6.103522420919383e-06,-0.0005555320556902076,0.00028385479332871457,0.0009135235444119328,-0.0004979569397284921,0.0003721287456098625,-1.2270226804163391e-05,-0.0008501173453713605,0.17287558317184448,11.949304580688477,-1.3147919178009033,-21.741060256958008,-0.3857322335243225,-2.5271639823913574,0.23471395671367645,0
32,0.1550006866455078,-0.17287558317184448,-11.925500869750977,1.2433807849884033,21.768831253051758,0.3912253975868225,2.5207552909851074,-0.22830526530742645,0.0,0.0,0.0,0.0,0.0,0.0,0.0,-0.15491813523298853,0.4160385809134235,0.0682778501057621,0.45241705546132155,-0.15443700833446208,0.12452528740156328,-0.21307147934141843,0.17268404572051868,-0.48732698139809727,-0.11141271993465592,-1.9467017352957474,0.13360941129922865,2.595551071855757,0.9452499504006571,0.1728802376190821,-0.48752024683155326,-0.11147110072896137,-1.9463801863486305,0.1336059019074957,2.595550359778934,0.9452445589611904,0.0006468834049323519,0.00032956646289432936,0.0010449759381848892,-0.0004090396778194351,-0.00037916741277587714,-0.00011196340378232764,0.0011518802831249008,0.0,0.0,0.0,0.0,0.0,0.0,0.0,0.00019619189856343033,-0.00019326543345599134,-5.838079430545151e-05,0.00032154894711688975,-3.509391732964273e-06,-7.120768228396912e-07,-5.3914394666509935e-06,-0.0006468834049323519,-0.00032956646289432936,-0.0010449759381848892,0.0004090396778194351,0.00037916741277587714,0.00011196340378232764,-0.0011518802831249008,0.17287558317184448,11.925500869750977,-1.2433807849884033,-21.768831253051758,-0.3912253975868225,-2.5207552909851074,0.22830526530742645,0
33,0.1600024700164795,-0.17287558317184448,-11.925500869750977,1.2433807849884033,21.768831253051758,0.3912253975868225,2.5207552909851074,-0.22830526530742645,0.0,0.0,0.0,0.0,0.0,0.0,0.0,-0.15491813523298853,0.4160385809134235,0.0682778501057621,0.45241705546132155,-0.15443700833446208,0.12452528740156328,-0.21307147934141843,0.17268404572051868,-0.48732698139809727,-0.11141271993465592,-1.9467017352957474,0.13360941129922865,2.595551071855757,0.9452499504006571,0.1728802376190821,-0.48752024683155326,-0.11147110072896137,-1.9463801863486305,0.1336059019074957,2.595550359778934,0.9452445589611904,0.0006468834049323519,0.00032956646289432936,0.0010449759381848892,-0.0004090396778194351,-0.00037916741277587714,-0.00011196340378232764,0.0011518802831249008,0.0,0.0,0.0,0.0,0.0,0.0,0.0,0.00019619189856343033,-0.00019326543345599134,-5.838079430545151e-05,0.00032154894711688975,-3.509391732964273e-06,-7.120768228396912e-07,-5.3914394666509935e-06,-0.0006468834049323519,-0.00032956646289432936,-0.0010449759381848892,0.0004090396778194351,0.00037916741277587714,0.00011196340378232764,-0.0011518802831249008,0.17287558317184448,11.925500869750977,-1.2433807849884033,-21.768831253051758,-0.3912253975868225,-2.5207552909851074,0.22830526530742645,0
34,0.16500258445739746,-0.19667929410934448,-11.901697158813477,1.2671844959259033,21.741060256958008,0.3857322335243225,2.5271639823913574,-0.22830526530742645,0.0,0.0,0.0,0.0,0.0,0.0,0.0,-0.1622255621316136,0.35023453722116327,0.0627019646123375,0.5089065729915397,-0.15300049109144323,0.1318411963182965,-0.2132177892451167,0.17268571615637393,-0.48733077805697006,-0.11141439037051117,-1.9466997864539164,0.13361002165079114,2.595550359778934,0.9452499504006571,0.1728802376190821,-0.48752024683155326,-0.11147110072896137,-1.9463801863486305,0.1336059019074957,2.595550359778934,0.9452445589611904,0.0005737705345121672,-0.00026935767568804915,-0.0005689919058563774,-0.0008985809133674012,-1.57443671834595e-05,-4.5575365838519455e-05,0.0012215859723303964,0.0,0.0,0.0,0.0,0.0,0.0,0.0,0.00019452146270818038,-0.00018946877458320133,-5.671035845020156e-05,0.0003196001052858666,-4.11974329544984e-06,0.0,-5.3914394666509935e-06,-0.0005737705345121672,0.00026935767568804915,0.0005689919058563774,0.0008985809133674012,1.57443671834595e-05,4.5575365838519455e-05,-0.0012215859723303964,0.19667929410934448,11.901697158813477,-1.2671844959259033,-21.741060256958008,-0.3857322335243225,-2.5271639823913574,0.22830526530742645,0
35,0.17001891136169434,-0.19667929410934448,-11.901697158813477,1.2671844959259033,21.741060256958008,0.3857322335243225,2.5271639823913574,-0.22830526530742645,0.0,0.0,0.0,0.0,0.0,0.0,0.0,-0.1622255621316136,0.35023453722116327,0.0627019646123375,0.5089065729915397,-0.15300049109144323,0.1318411963182965,-0.2132177892451167,0.17268571615637393,-0.48733077805697006,-0.11141439037051117,-1.9466997864539164,0.13361002165079114,2.595550359778934,0.9452499504006571,0.1728802376190821,-0.48752024683155326,-0.11147110072896137,-1.9463801863486305,0.1336059019074957,2.595550359778934,0.9452445589611904,0.0005737705345121672,-0.00026935767568804915,-0.0005689919058563774,-0.0008985809133674012,-1.57443671834595e-05,-4.5575365838519455e-05,0.0012215859723303964,0.0,0.0,0.0,0.0,0.0,0.0,0.0,0.00019452146270818038,-0.00018946877458320133,-5.671035845020156e-05,0.0003196001052858666,-4.11974329544984e-06,0.0,-5.3914394666509935e-06,-0.0005737705345121672,0.00026935767568804915,0.0005689919058563774,0.0008985809133674012,1.57443671834595e-05,4.5575365838519455e-05,-0.0012215859723303964,0.19667929410934448,11.901697158813477,-1.2671844959259033,-21.741060256958008,-0.3857322335243225,-2.5271639823913574,0.22830526530742645,0
36,0.17500805854797363,-0.19667929410934448,-11.901697158813477,1.2156097888946533,21.768831253051758,0.3793235421180725,2.5335726737976074,-0.22098104655742645,0.0,0.0,0.0,0.0,0.0,0.0,0.0,-0.15899847373918982,0.4139261077195531,0.07173472016246657,0.4584769774399041,-0.15355253113715217,0.12459719237323306,-0.21400269776249015,0.1726864247893729,-0.4873286518379534,-0.11141077109282477,-1.9467017352957474,0.13361077321875733,2.595549647702111,0.9452491365985738,0.1728802376190821,-0.48752024683155326,-0.11147110072896137,-1.9463801863486305,0.1336059019074957,2.595550359778934,0.9452445589611904,0.0005311425857269246,0.00046139957946145005,0.0009234851988039126,-0.0006193498287317614,3.9044724609126646e-06,-0.0003164158245709653,0.00045062240667396265,0.0,0.0,0.0,0.0,0.0,0.0,0.0,0.00019381282970920566,-0.0001915949935998862,-6.0329636136599585e-05,0.00032154894711688975,-4.871311261644973e-06,7.120768228396912e-07,-4.5776373833739115e-06,-0.0005311425857269246,-0.00046139957946145005,-0.0009234851988039126,0.0006193498287317614,-3.9044724609126646e-06,0.0003164158245709653,-0.00045062240667396265,0.19667929410934448,11.901697158813477,-1.2156097888946533,-21.768831253051758,-0.3793235421180725,-2.5335726737976074,0.22098104655742645,0
37,0.18002533912658691,-0.19667929410934448,-11.901697158813477,1.2156097888946533,21.768831253051758,0.3793235421180725,2.5335726737976074,-0.22098104655742645,0.0,0.0,0.0,0.0,0.0,0.0,0.0,-0.15899847373918982,0.4139261077195531,0.07173472016246657,0.4584769774399041,-0.15355253113715217,0.12459719237323306,-0.21400269776249015,0.1726864247893729,-0.4873286518379534,-0.11141077109282477,-1.9467017352957474,0.13361077321875733,2.595549647702111,0.9452491365985738,0.1728802376190821,-0.48752024683155326,-0.11147110072896137,-1.9463801863486305,0.1336059019074957,2.595550359778934,0.9452445589611904,0.0005311425857269246,0.00046139957946145005,0.0009234851988039126,-0.0006193498287317614,3.9044724609126646e-06,-0.0003164158245709653,0.00045062240667396265,0.0,0.0,0.0,0.0,0.0,0.0,0.0,0.00019381282970920566,-0.0001915949935998862,-6.0329636136599585e-05,0.00032154894711688975,-4.871311261644973e-06,7.120768228396912e-07,-4.5776373833739115e-06,-0.0005311425857269246,-0.00046139957946145005,-0.0009234851988039126,0.0006193498287317614,-3.9044724609126646e-06,0.0003164158245709653,-0.00045062240667396265,0.19667929410934448,11.901697158813477,-1.2156097888946533,-21.768831253051758,-0.3793235421180725,-2.5335726737976074,0.22098104655742645,0
38,0.18500471115112305,-0.19667929410934448,-11.925500869750977,1.2156097888946533,21.768831253051758,0.3857322335243225,2.5207552909851074,-0.15964071452617645,0.0,0.0,0.0,0.0,0.0,0.0,0.0,-0.16104944551977676,0.41402363507158746,0.07333134574916764,0.4576434556933562,-0.15347093473619333,0.12442841197574904,-0.2147199157463248,0.17268571616037418,-0.48732698139809727,-0.11141077109282477,-1.9467017352957474,0.13361002165101407,2.595551071855757,0.9452423210061258,0.1728802376190821,-0.48752024683155326,-0.11147110072896137,-1.9463801863486305,0.1336059019074957,2.595550359778934,0.9452445589611904,0.0004511198857532651,-0.0001979126267202102,0.0013528548447103812,-0.0001019008379977016,-4.915477260342662e-05,6.859993880804451e-05,-0.001849556636526835,0.0,0.0,0.0,0.0,0.0,0.0,0.0,0.0001945214587079358,-0.00019326543345599134,-6.0329636136599585e-05,0.00032154894711688975,-4.119743518382624e-06,-7.120768228396912e-07,2.2379550645990065e-06,-0.0004511198857532651,0.0001979126267202102,-0.0013528548447103812,0.0001019008379977016,4.915477260342662e-05,-6.859993880804451e-05,0.001849556636526835,0.19667929410934448,11.925500869750977,-1.2156097888946533,-21.768831253051758,-0.3857322335243225,-2.5207552909851074,0.15964071452617645,0
39,0.19000601768493652,-0.19667929410934448,-11.925500869750977,1.2156097888946533,21.768831253051758,0.3857322335243225,2.5207552909851074,-0.15964071452617645,0.0,0.0,0.0,0.0,0.0,0.0,0.0,-0.16104944551977676,0.41402363507158746,0.07333134574916764,0.4576434556933562,-0.15347093473619333,0.12442841197574904,-0.2147199157463248,0.17268571616037418,-0.48732698139809727,-0.11141077109282477,-1.9467017352957474,0.13361002165101407,2.595551071855757,0.9452423210061258,0.1728802376190821,-0.48752024683155326,-0.11147110072896137,-1.9463801863486305,0.1336059019074957,2.595550359778934,0.9452445589611904,0.0004511198857532651,-0.0001979126267202102,0.0013528548447103812,-0.0001019008379977016,-4.915477260342662e-05,6.859993880804451e-05,-0.001849556636526835,0.0,0.0,0.0,0.0,0.0,0.0,0.0,0.0001945214587079358,-0.00019326543345599134,-6.0329636136599585e-05,0.00032154894711688975,-4.119743518382624e-06,-7.120768228396912e-07,2.2379550645990065e-06,-0.0004511198857532651,0.0001979126267202102,-0.0013528548447103812,0.0001019008379977016,4.915477260342662e-05,-6.859993880804451e-05,0.001849556636526835,0.19667929410934448,11.925500869750977,-1.2156097888946533,-21.768831253051758,-0.3857322335243225,-2.5207552909851074,0.15964071452617645,0
40,0.19671416282653809,-0.17287558317184448,-11.973108291625977,1.2433807849884033,21.741060256958008,0.3857322335243225,2.5271639823913574,-0.20083944499492645,0.0,0.0,0.0,0.0,0.0,0.0,0.0,-0.16190903288092953,0.4201131865234937,0.06938170161893598,0.4567653858265573,-0.15298441338852223,0.12349805696800496,-0.21327418415621138,0.17268404572051868,-0.4873236414984484,-0.11141271993465592,-1.9466997864539164,0.1336099821596479,2.595550359778934,0.9452468986428446,0.1728802376190821,-0.48752024683155326,-0.11147110072896137,-1.9463801863486305,0.1336059019074957,2.595550359778934,0.9452445589611904,0.0007197148353237426,0.0008185166215733746,0.00027577953605233666,0.0007204060645425007,7.320658285561441e-06,6.0276524582407315e-05,0.00043805453923305546,0.0,0.0,0.0,0.0,0.0,0.0,0.0,0.00019619189856343033,-0.00019660533310483785,-5.838079430545151e-05,0.0003196001052858666,-4.080252152205421e-06,0.0,-2.3396816541954024e-06,-0.0007197148353237426,-0.0008185166215733746,-0.00027577953605233666,-0.0007204060645425007,-7.320658285561441e-06,-6.0276524582407315e-05,-0.00043805453923305546,0.17287558317184448,11.973108291625977,-1.2433807849884033,-21.741060256958008,-0.3857322335243225,-2.5271639823913574,0.20083944499492645,0
41,0.20000362396240234,-0.17287558317184448,-11.973108291625977,1.2433807849884033,21.741060256958008,0.3857322335243225,2.5271639823913574,-0.20083944499492645,0.0,0.0,0.0,0.0,0.0,0.0,0.0,-0.16190903288092953,0.4201131865234937,0.06938170161893598,0.4567653858265573,-0.15298441338852223,0.12349805696800496,-0.21327418415621138,0.17268404572051868,-0.4873236414984484,-0.11141271993465592,-1.9466997864539164,0.1336099821596479,2.595550359778934,0.9452468986428446,0.1728802376190821,-0.48752024683155326,-0.11147110072896137,-1.9463801863486305,0.1336059019074957,2.595550359778934,0.9452445589611904,0.0007197148353237426,0.0008185166215733746,0.00027577953605233666,0.0007204060645425007,7.320658285561441e-06,6.0276524582407315e-05,0.00043805453923305546,0.0,0.0,0.0,0.0,0.0,0.0,0.0,0.00019619189856343033,-0.00019660533310483785,-5.838079430545151e-05,0.0003196001052858666,-4.080252152205421e-06,0.0,-2.3396816541954024e-06,-0.0007197148353237426,-0.0008185166215733746,-0.00027577953605233666,-0.0007204060645425007,-7.320658285561441e-06,-6.0276524582407315e-05,-0.00043805453923305546,0.17287558317184448,11.973108291625977,-1.2433807849884033,-21.741060256958008,-0.3857322335243225,-2.5271639823913574,0.20083944499492645,0
42,0.20500469207763672,-0.12130087614059448,-11.925500869750977,1.2671844959259033,21.741060256958008,0.3857322335243225,2.5271639823913574,-0.24112264811992645,0.0,0.0,0.0,0.0,0.0,0.0,0.0,-0.15662073028103426,0.4258214790439568,0.07021475486468413,0.45422791627609543,-0.1528832811072611,0.12295417195921389,-0.2123527075247826,0.17268042644283227,-0.4873291072970997,-0.11141439037051117,-1.9466997864539164,0.13361002165056823,2.595550359778934,0.945251374554303,0.1728802376190821,-0.48752024683155326,-0.11147110072896137,-1.9463801863486305,0.1336059019074957,2.595550359778934,0.9452445589611904,-0.00048601667813522666,-0.0002793487179236325,9.840899228484001e-05,0.0004553763101102355,-0.00015613332760984946,5.13329498135787e-05,0.0018726500284485677,0.0,0.0,0.0,0.0,0.0,0.0,0.0,0.00019981117624984224,-0.0001911395344535438,-5.671035845020156e-05,0.0003196001052858666,-4.1197430725448125e-06,0.0,-6.8155931125524205e-06,0.00048601667813522666,0.0002793487179236325,-9.840899228484001e-05,-0.0004553763101102355,0.00015613332760984946,-5.13329498135787e-05,-0.0018726500284485677,0.12130087614059448,11.925500869750977,-1.2671844959259033,-21.741060256958008,-0.3857322335243225,-2.5271639823913574,0.24112264811992645,0
43,0.21000242233276367,-0.12130087614059448,-11.925500869750977,1.2671844959259033,21.741060256958008,0.3857322335243225,2.5271639823913574,-0.24112264811992645,0.0,0.0,0.0,0.0,0.0,0.0,0.0,-0.15662073028103426,0.4258214790439568,0.07021475486468413,0.45422791627609543,-0.1528832811072611,0.12295417195921389,-0.2123527075247826,0.17268042644283227,-0.4873291072970997,-0.11141439037051117,-1.9466997864539164,0.13361002165056823,2.595550359778934,0.945251374554303,0.1728802376190821,-0.48752024683155326,-0.11147110072896137,-1.9463801863486305,0.1336059019074957,2.595550359778934,0.9452445589611904,-0.00048601667813522666,-0.0002793487179236325,9.840899228484001e-05,0.0004553763101102355,-0.00015613332760984946,5.13329498135787e-05,0.0018726500284485677,0.0,0.0,0.0,0.0,0.0,0.0,0.0,0.00019981117624984224,-0.0001911395344535438,-5.671035845020156e-05,0.0003196001052858666,-4.1197430725448125e-06,0.0,-6.8155931125524205e-06,0.00048601667813522666,0.0002793487179236325,-9.840899228484001e-05,-0.0004553763101102355,0.00015613332760984946,-5.13329498135787e-05,-0.0018726500284485677,0.12130087614059448,11.925500869750977,-1.2671844959259033,-21.741060256958008,-0.3857322335243225,-2.5271639823913574,0.24112264811992645,0
44,0.21500039100646973,-0.24825400114059448,-11.873926162719727,1.2433807849884033,21.768831253051758,0.3793235421180725,2.5271639823913574,-0.22098104655742645,0.0,0.0,0.0,0.0,0.0,0.0,0.0,-0.15808517101168143,0.4176457208755004,0.06481840338678843,0.45947351394417674,-0.152610830241733,0.12446134032981297,-0.21158062122475144,0.17268933543406034,-0.4873306006877844,-0.11141271993465592,-1.9467017352957474,0.13361073372761406,2.595550359778934,0.9452491365985738,0.1728802376190821,-0.48752024683155326,-0.11147110072896137,-1.9463801863486305,0.1336059019074957,2.595550359778934,0.9452445589611904,0.0016050313952092744,-0.0013068375202689882,0.0009488939048190984,-0.00025623404401906236,4.957214131324218e-06,-1.7500206412877775e-06,0.0007793742180704336,0.0,0.0,0.0,0.0,0.0,0.0,0.0,0.00019090218502176848,-0.00018964614376887345,-5.838079430545151e-05,0.00032154894711688975,-4.831820118372798e-06,0.0,-4.5776373833739115e-06,-0.0016050313952092744,0.0013068375202689882,-0.0009488939048190984,0.00025623404401906236,-4.957214131324218e-06,1.7500206412877775e-06,-0.0007793742180704336,0.24825400114059448,11.873926162719727,-1.2433807849884033,-21.768831253051758,-0.3793235421180725,-2.5271639823913574,0.22098104655742645,0
45,0.2199997901916504,-0.24825400114059448,-11.873926162719727,1.2433807849884033,21.768831253051758,0.3793235421180725,2.5271639823913574,-0.22098104655742645,0.0,0.0,0.0,0.0,0.0,0.0,0.0,-0.15808517101168143,0.4176457208755004,0.06481840338678843,0.45947351394417674,-0.152610830241733,0.12446134032981297,-0.21158062122475144,0.17268933543406034,-0.4873306006877844,-0.11141271993465592,-1.9467017352957474,0.13361073372761406,2.595550359778934,0.9452491365985738,0.1728802376190821,-0.48752024683155326,-0.11147110072896137,-1.9463801863486305,0.1336059019074957,2.595550359778934,0.9452445589611904,0.0016050313952092744,-0.0013068375202689882,0.0009488939048190984,-0.00025623404401906236,4.957214131324218e-06,-1.7500206412877775e-06,0.0007793742180704336,0.0,0.0,0.0,0.0,0.0,0.0,0.0,0.00019090218502176848,-0.00018964614376887345,-5.838079430545151e-05,0.00032154894711688975,-4.831820118372798e-06,0.0,-4.5776373833739115e-06,-0.0016050313952092744,0.0013068375202689882,-0.0009488939048190984,0.00025623404401906236,-4.957214131324218e-06,1.7500206412877775e-06,-0.0007793742180704336,0.24825400114059448,11.873926162719727,-1.2433807849884033,-21.768831253051758,-0.3793235421180725,-2.5271639823913574,0.22098104655742645,0
46,0.22500038146972656,-0.24825400114059448,-11.873926162719727,1.2909882068634033,21.717256546020508,0.3793235421180725,2.5207552909851074,-0.23471395671367645,0.0,0.0,0.0,0.0,0.0,0.0,0.0,-0.15808517101168143,0.4176457208755004,0.06481840338678843,0.46163270918535687,-0.1534728904870221,0.12503585084244628,-0.21197944985224834,0.17268933543406034,-0.4873306006877844,-0.11141606080636643,-1.946698116018061,0.13361073372761406,2.595551071855757,0.945247483563092,0.1728802376190821,-0.48752024683155326,-0.11147110072896137,-1.9463801863486305,0.1336059019074957,2.595550359778934,0.9452445589611904,0.0016050313952092744,-0.0013068375202689882,0.0009488939048190984,0.00098819225028206,0.0052912493493329285,0.00015066744039355802,0.0013267309421980712,0.0,0.0,0.0,0.0,0.0,0.0,0.0,0.00019090218502176848,-0.00018964614376887345,-5.503992259493773e-05,0.0003179296694304501,-4.831820118372798e-06,-7.120768228396912e-07,-2.9246019015438662e-06,-0.0016050313952092744,0.0013068375202689882,-0.0009488939048190984,-0.00098819225028206,-0.0052912493493329285,-0.00015066744039355802,-0.0013267309421980712,0.24825400114059448,11.873926162719727,-1.2909882068634033,-21.717256546020508,-0.3793235421180725,-2.5207552909851074,0.23471395671367645,0
47,0.22999978065490723,-0.24825400114059448,-11.873926162719727,1.2909882068634033,21.717256546020508,0.3793235421180725,2.5207552909851074,-0.23471395671367645,0.0,0.0,0.0,0.0,0.0,0.0,0.0,-0.15808517101168143,0.4176457208755004,0.06481840338678843,0.46163270918535687,-0.1534728904870221,0.12503585084244628,-0.21197944985224834,0.17268933543406034,-0.4873306006877844,-0.11141606080636643,-1.946698116018061,0.13361073372761406,2.595551071855757,0.945247483563092,0.1728802376190821,-0.48752024683155326,-0.11147110072896137,-1.9463801863486305,0.1336059019074957,2.595550359778934,0.9452445589611904,0.0016050313952092744,-0.0013068375202689882,0.0009488939048190984,0.00098819225028206,0.0052912493493329285,0.00015066744039355802,0.0013267309421980712,0.0,0.0,0.0,0.0,0.0,0.0,0.0,0.00019090218502176848,-0.00018964614376887345,-5.503992259493773e-05,0.0003179296694304501,-4.831820118372798e-06,-7.120768228396912e-07,-2.9246019015438662e-06,-0.0016050313952092744,0.0013068375202689882,-0.0009488939048190984,-0.00098819225028206,-0.0052912493493329285,-0.00015066744039355802,-0.0013267309421980712,0.24825400114059448,11.873926162719727,-1.2909882068634033,-21.717256546020508,-0.3793235421180725,-2.5207552909851074,0.23471395671367645,0
48,0.23501253128051758,-0.14510458707809448,-11.949304580688477,1.2909882068634033,21.717256546020508,0.3793235421180725,2.5207552909851074,-0.23471395671367645,0.0,0.0,0.0,0.0,0.0,0.0,0.0,-0.15537470183040733,0.41404268288911233,0.07731376659118908,0.46163270918535687,-0.1534728904870221,0.12503585084244628,-0.21197944985224834,0.17268209687868755,-0.487325310962242,-0.11141606080636643,-1.946698116018061,0.13361073372761406,2.595551071855757,0.945247483563092,0.1728802376190821,-0.48752024683155326,-0.11147110072896137,-1.9463801863486305,0.1336059019074957,2.595550359778934,0.9452445589611904,-0.0005987305863560673,0.0006185853239117467,-0.0005793182234284618,0.00098819225028206,0.0052912493493329285,0.00015066744039355802,0.0013267309421980712,0.0,0.0,0.0,0.0,0.0,0.0,0.0,0.00019814074039456453,-0.0001949358693112413,-5.503992259493773e-05,0.0003179296694304501,-4.831820118372798e-06,-7.120768228396912e-07,-2.9246019015438662e-06,0.0005987305863560673,-0.0006185853239117467,0.0005793182234284618,-0.00098819225028206,-0.0052912493493329285,-0.00015066744039355802,-0.0013267309421980712,0.14510458707809448,11.949304580688477,-1.2909882068634033,-21.717256546020508,-0.3793235421180725,-2.5207552909851074,0.23471395671367645,0
49,0.24001789093017578,-0.14510458707809448,-11.949304580688477,1.2909882068634033,21.717256546020508,0.3793235421180725,2.5207552909851074,-0.23471395671367645,0.0,0.0,0.0,0.0,0.0,0.0,0.0,-0.15537470183040733,0.41404268288911233,0.07731376659118908,0.46163270918535687,-0.1534728904870221,0.12503585084244628,-0.21197944985224834,0.17268209687868755,-0.487325310962242,-0.11141606080636643,-1.946698116018061,0.13361073372761406,2.595551071855757,0.945247483563092,0.1728802376190821,-0.48752024683155326,-0.11147110072896137,-1.9463801863486305,0.1336059019074957,2.595550359778934,0.9452445589611904,-0.0005987305863560673,0.0006185853239117467,-0.0005793182234284618,0.00098819225028206,0.0052912493493329285,0.00015066744039355802,0.0013267309421980712,0.0,0.0,0.0,0.0,0.0,0.0,0.0,0.00019814074039456453,-0.0001949358693112413,-5.503992259493773e-05,0.0003179296694304501,-4.831820118372798e-06,-7.120768228396912e-07,-2.9246019015438662e-06,0.0005987305863560673,-0.0006185853239117467,0.0005793182234284618,-0.00098819225028206,-0.0052912493493329285,-0.00015066744039355802,-0.0013267309421980712,0.14510458707809448,11.949304580688477,-1.2909882068634033,-21.717256546020508,-0.3793235421180725,-2.5207552909851074,0.23471395671367645,0
50,0.24503636360168457,-0.09352988004684448,-11.949304580688477,1.2909882068634033,21.768831253051758,0.3793235421180725,2.5335726737976074,-0.17978231608867645,0.0,0.0,0.0,0.0,0.0,0.0,0.0,-0.1665886902524047,0.40810498349188157,0.06738366809042508,0.4631296756738129,-0.15325859104757875,0.12567358987224087,-0.21309452490547504,0.17267847760100113,-0.487327436861239,-0.11141606080636643,-1.9467017352957474,0.13361073372761406,2.595549647702111,0.9452445589439099,0.1728802376190821,-0.48752024683155326,-0.11147110072896137,-1.9463801863486305,0.1336059019074957,2.595550359778934,0.9452445589611904,-0.0014776360360192959,0.0003325595899035692,-0.0012520254644273422,-0.00031615871048323635,0.0002502521414534913,-5.401129353547145e-05,-0.0010293354487296285,0.0,0.0,0.0,0.0,0.0,0.0,0.0,0.00020176001808097643,-0.00019280997031423386,-5.503992259493773e-05,0.00032154894711688975,-4.831820118372798e-06,7.120768228396912e-07,1.72805103559881e-11,0.0014776360360192959,-0.0003325595899035692,0.0012520254644273422,0.00031615871048323635,-0.0002502521414534913,5.401129353547145e-05,0.0010293354487296285,0.09352988004684448,11.949304580688477,-1.2909882068634033,-21.768831253051758,-0.3793235421180725,-2.5335726737976074,0.17978231608867645,0
51,0.25000500679016113,-0.09352988004684448,-11.949304580688477,1.2909882068634033,21.768831253051758,0.3793235421180725,2.5335726737976074,-0.17978231608867645,0.0,0.0,0.0,0.0,0.0,0.0,0.0,-0.1665886902524047,0.40810498349188157,0.06738366809042508,0.4631296756738129,-0.15325859104757875,0.12567358987224087,-0.21309452490547504,0.17267847760100113,-0.487327436861239,-0.11141606080636643,-1.9467017352957474,0.13361073372761406,2.595549647702111,0.9452445589439099,0.1728802376190821,-0.48752024683155326,-0.11147110072896137,-1.9463801863486305,0.1336059019074957,2.595550359778934,0.9452445589611904,-0.0014776360360192959,0.0003325595899035692,-0.0012520254644273422,-0.00031615871048323635,0.0002502521414534913,-5.401129353547145e-05,-0.0010293354487296285,0.0,0.0,0.0,0.0,0.0,0.0,0.0,0.00020176001808097643,-0.00019280997031423386,-5.503992259493773e-05,0.00032154894711688975,-4.831820118372798e-06,7.120768228396912e-07,1.72805103559881e-11,0.0014776360360192959,-0.0003325595899035692,0.0012520254644273422,0.00031615871048323635,-0.0002502521414534913,5.401129353547145e-05,0.0010293354487296285,0.09352988004684448,11.949304580688477,-1.2909882068634033,-21.768831253051758,-0.3793235421180725,-2.5335726737976074,0.17978231608867645,0
52,0.2550046443939209,-0.14510458707809448,-11.973108291625977,1.2909882068634033,21.741060256958008,0.3738303780555725,2.5143465995788574,-0.20083944499492645,0.0,0.0,0.0,0.0,0.0,0.0,0.0,-0.155911843529649,0.40279247771021065,0.07655790840586991,0.46391757223111185,-0.15332894413041953,0.12640671353465988,-0.21306128069887464,0.17268209687868755,-0.48732364053838745,-0.11141606080636643,-1.9466997864539164,0.13361134407917655,2.5955517839325797,0.9452468986428445,0.1728802376190821,-0.48752024683155326,-0.11147110072896137,-1.9463801863486305,0.1336059019074957,2.595550359778934,0.9452445589611904,0.00030745760429939304,0.0006946049901018356,-0.0001467539519651971,0.0006889737890400427,0.00020250084711220806,0.0003573333899438965,0.00011538460741180373,0.0,0.0,0.0,0.0,0.0,0.0,0.0,0.00019814074039456453,-0.00019660629316581302,-5.503992259493773e-05,0.0003196001052858666,-5.442171680858365e-06,-1.4241536456793824e-06,-2.33968165408438e-06,-0.00030745760429939304,-0.0006946049901018356,0.0001467539519651971,-0.0006889737890400427,-0.00020250084711220806,-0.0003573333899438965,-0.00011538460741180373,0.14510458707809448,11.973108291625977,-1.2909882068634033,-21.741060256958008,-0.3738303780555725,-2.5143465995788574,0.20083944499492645,0
53,0.2600107192993164,-0.14510458707809448,-11.973108291625977,1.2909882068634033,21.741060256958008,0.3738303780555725,2.5143465995788574,-0.20083944499492645,0.0,0.0,0.0,0.0,0.0,0.0,0.0,-0.155911843529649,0.40279247771021065,0.07655790840586991,0.46391757223111185,-0.15332894413041953,0.12640671353465988,-0.21306128069887464,0.17268209687868755,-0.48732364053838745,-0.11141606080636643,-1.9466997864539164,0.13361134407917655,2.5955517839325797,0.9452468986428445,0.1728802376190821,-0.48752024683155326,-0.11147110072896137,-1.9463801863486305,0.1336059019074957,2.595550359778934,0.9452445589611904,0.00030745760429939304,0.0006946049901018356,-0.0001467539519651971,0.0006889737890400427,0.00020250084711220806,0.0003573333899438965,0.00011538460741180373,0.0,0.0,0.0,0.0,0.0,0.0,0.0,0.00019814074039456453,-0.00019660629316581302,-5.503992259493773e-05,0.0003196001052858666,-5.442171680858365e-06,-1.4241536456793824e-06,-2.33968165408438e-06,-0.00030745760429939304,-0.0006946049901018356,0.0001467539519651971,-0.0006889737890400427,-0.00020250084711220806,-0.0003573333899438965,-0.00011538460741180373,0.14510458707809448,11.973108291625977,-1.2909882068634033,-21.741060256958008,-0.3738303780555725,-2.5143465995788574,0.20083944499492645,0
54,0.26500439643859863,-0.14510458707809448,-11.873926162719727,1.2156097888946533,21.717256546020508,0.3857322335243225,2.5399813652038574,-0.23471395671367645,0.0,0.0,0.0,0.0,0.0,0.0,0.0,-0.1569464520823273,0.40233751403570134,0.06740968821917952,0.4614045308621871,-0.15317298159836548,0.12595997624062139,-0.21328112678793956,0.17268209687868755,-0.4873306016478454,-0.11141077109282477,-1.946698116018061,0.13361002165079114,2.5955489356252883,0.94525066247748,0.1728802376190821,-0.48752024683155326,-0.11147110072896137,-1.9463801863486305,0.1336059019074957,2.595550359778934,0.9452445589611904,-3.4118537001174337e-05,-0.0017561410413488088,0.0012689075312691555,0.0012141302479430813,-0.0004789227339335028,-0.00031996477060688007,0.0014892583402158013,0.0,0.0,0.0,0.0,0.0,0.0,0.0,0.00019814074039456453,-0.00018964518370784278,-6.0329636136599585e-05,0.0003179296694304501,-4.11974329544984e-06,1.4241536456793824e-06,-6.103516289601707e-06,3.4118537001174337e-05,0.0017561410413488088,-0.0012689075312691555,-0.0012141302479430813,0.0004789227339335028,0.00031996477060688007,-0.0014892583402158013,0.14510458707809448,11.873926162719727,-1.2156097888946533,-21.717256546020508,-0.3857322335243225,-2.5399813652038574,0.23471395671367645,0
55,0.27001070976257324,-0.14510458707809448,-11.873926162719727,1.2156097888946533,21.717256546020508,0.3857322335243225,2.5399813652038574,-0.23471395671367645,0.0,0.0,0.0,0.0,0.0,0.0,0.0,-0.1569464520823273,0.40233751403570134,0.06740968821917952,0.4614045308621871,-0.15317298159836548,0.12595997624062139,-0.21328112678793956,0.17268209687868755,-0.4873306016478454,-0.11141077109282477,-1.946698116018061,0.13361002165079114,2.5955489356252883,0.94525066247748,0.1728802376190821,-0.48752024683155326,-0.11147110072896137,-1.9463801863486305,0.1336059019074957,2.595550359778934,0.9452445589611904,-3.4118537001174337e-05,-0.0017561410413488088,0.0012689075312691555,0.0012141302479430813,-0.0004789227339335028,-0.00031996477060688007,0.0014892583402158013,0.0,0.0,0.0,0.0,0.0,0.0,0.0,0.00019814074039456453,-0.00018964518370784278,-6.0329636136599585e-05,0.0003179296694304501,-4.11974329544984e-06,1.4241536456793824e-06,-6.103516289601707e-06,3.4118537001174337e-05,0.0017561410413488088,-0.0012689075312691555,-0.0012141302479430813,0.0004789227339335028,0.00031996477060688007,-0.0014892583402158013,0.14510458707809448,11.873926162719727,-1.2156097888946533,-21.717256546020508,-0.3857322335243225,-2.5399813652038574,0.23471395671367645,0
56,0.27542686462402344,-0.14510458707809448,-11.901697158813477,1.2433807849884033,21.717256546020508,0.3738303780555725,2.5207552909851074,-0.23471395671367645,0.0,0.0,0.0,0.0,0.0,0.0,0.0,-0.15506753969155643,0.4108644451941388,0.06803954245826975,0.45516444625115005,-0.1538513937803787,0.12576983027385577,-0.21268923696225325,0.17268209687868755,-0.48732865183395796,-0.11141271993465592,-1.946698116018061,0.13361134407917655,2.595551071855757,0.94525066247748,0.1728802376190821,-0.48752024683155326,-0.11147110072896137,-1.9463801863486305,0.1336059019074957,2.595550359778934,0.9452445589611904,-0.00045133489709814735,-0.00020993165843084306,0.0003023153356530924,0.0006472382057201499,-7.769355910738521e-06,0.00034478427653719576,0.0017546780402027313,0.0,0.0,0.0,0.0,0.0,0.0,0.0,0.00019814074039456453,-0.0001915949975953013,-5.838079430545151e-05,0.0003179296694304501,-5.442171680858365e-06,-7.120768228396912e-07,-6.103516289601707e-06,0.00045133489709814735,0.00020993165843084306,-0.0003023153356530924,-0.0006472382057201499,7.769355910738521e-06,-0.00034478427653719576,-0.0017546780402027313,0.14510458707809448,11.901697158813477,-1.2433807849884033,-21.717256546020508,-0.3738303780555725,-2.5207552909851074,0.23471395671367645,0
57,0.2800121307373047,-0.14510458707809448,-11.901697158813477,1.2433807849884033,21.717256546020508,0.3738303780555725,2.5207552909851074,-0.23471395671367645,0.0,0.0,0.0,0.0,0.0,0.0,0.0,-0.15506753969155643,0.4108644451941388,0.06803954245826975,0.45516444625115005,-0.1538513937803787,0.12576983027385577,-0.21268923696225325,0.17268209687868755,-0.48732865183395796,-0.11141271993465592,-1.946698116018061,0.13361134407917655,2.595551071855757,0.94525066247748,0.1728802376190821,-0.48752024683155326,-0.11147110072896137,-1.9463801863486305,0.1336059019074957,2.595550359778934,0.9452445589611904,-0.00045133489709814735,-0.00020993165843084306,0.0003023153356530924,0.0006472382057201499,-7.769355910738521e-06,0.00034478427653719576,0.0017546780402027313,0.0,0.0,0.0,0.0,0.0,0.0,0.0,0.00019814074039456453,-0.0001915949975953013,-5.838079430545151e-05,0.0003179296694304501,-5.442171680858365e-06,-7.120768228396912e-07,-6.103516289601707e-06,0.00045133489709814735,0.00020993165843084306,-0.0003023153356530924,-0.0006472382057201499,7.769355910738521e-06,-0.00034478427653719576,-0.0017546780402027313,0.14510458707809448,11.901697158813477,-1.2433807849884033,-21.717256546020508,-0.3738303780555725,-2.5207552909851074,0.23471395671367645,0
58,0.2850167751312256,-0.17287558317184448,-11.901697158813477,1.1918060779571533,21.792634963989258,0.3857322335243225,2.5271639823913574,-0.21457235515117645,0.0,0.0,0.0,0.0,0.0,0.0,0.0,-0.15927611811691514,0.4013046835859612,0.06531964494942229,0.4611132128224773,-0.15431558073347293,0.12724216919727577,-0.21132518524233887,0.17268404572051868,-0.4873286518339525,-0.1114091006569695,-1.9467034057316026,0.13361002165079114,2.595550359778934,0.9452484245217508,0.1728802376190821,-0.48752024683155326,-0.11147110072896137,-1.9463801863486305,0.1336059019074957,2.595550359778934,0.9452445589611904,-0.00023569762425329865,-0.0004968617796030122,0.0010199526245304894,-0.000914121874244995,-0.00018856991100891889,-0.00010395881840649849,0.00041278089861181556,0.0,0.0,0.0,0.0,0.0,0.0,0.0,0.00019619189856343033,-0.0001915949976007414,-6.200007199186341e-05,0.0003232193829720842,-4.11974329544984e-06,0.0,-3.865560560423198e-06,0.00023569762425329865,0.0004968617796030122,-0.0010199526245304894,0.000914121874244995,0.00018856991100891889,0.00010395881840649849,-0.00041278089861181556,0.17287558317184448,11.901697158813477,-1.1918060779571533,-21.792634963989258,-0.3857322335243225,-2.5271639823913574,0.21457235515117645,0
59,0.28999996185302734,-0.17287558317184448,-11.901697158813477,1.1918060779571533,21.792634963989258,0.3857322335243225,2.5271639823913574,-0.21457235515117645,0.0,0.0,0.0,0.0,0.0,0.0,0.0,-0.15927611811691514,0.4013046835859612,0.06531964494942229,0.4611132128224773,-0.15431558073347293,0.12724216919727577,-0.21132518524233887,0.17268404572051868,-0.4873286518339525,-0.1114091006569695,-1.9467034057316026,0.13361002165079114,2.595550359778934,0.9452484245217508,0.1728802376190821,-0.48752024683155326,-0.11147110072896137,-1.9463801863486305,0.1336059019074957,2.595550359778934,0.9452445589611904,-0.00023569762425329865,-0.0004968617796030122,0.0010199526245304894,-0.000914121874244995,-0.00018856991100891889,-0.00010395881840649849,0.00041278089861181556,0.0,0.0,0.0,0.0,0.0,0.0,0.0,0.00019619189856343033,-0.0001915949976007414,-6.200007199186341e-05,0.0003232193829720842,-4.11974329544984e-06,0.0,-3.865560560423198e-06,0.00023569762425329865,0.0004968617796030122,-0.0010199526245304894,0.000914121874244995,0.00018856991100891889,0.00010395881840649849,-0.00041278089861181556,0.17287558317184448,11.901697158813477,-1.1918060779571533,-21.792634963989258,-0.3857322335243225,-2.5271639823913574,0.21457235515117645,0
60,0.29503965377807617,-0.12130087614059448,-11.901697158813477,1.2671844959259033,21.717256546020508,0.3793235421180725,2.5271639823913574,-0.15964071452617645,0.0,0.0,0.0,0.0,0.0,0.0,0.0,-0.15986330515614655,0.4120888331327649,0.06884864268929652,0.45743749869809514,-0.15452331638124092,0.1260103531940662,-0.2100266971208374,0.17268042644283227,-0.4873286518339525,-0.11141439037051117,-1.946698116018061,0.13361061525418433,2.595550359778934,0.9452423210061258,0.1728802376190821,-0.48752024683155326,-0.11147110072896137,-1.9463801863486305,0.1336059019074957,2.595550359778934,0.9452445589611904,-0.0016355128454596194,-0.0005822264499886541,-0.0002606751694967385,0.0008100824944102461,-8.761979399512653e-05,-0.00012842118144019429,-0.0018375836032854382,0.0,0.0,0.0,0.0,0.0,0.0,0.0,0.00019981117624984224,-0.0001915949976007414,-5.671035845020156e-05,0.0003179296694304501,-4.7133466886395414e-06,0.0,2.2379550645990065e-06,0.0016355128454596194,0.0005822264499886541,0.0002606751694967385,-0.0008100824944102461,8.761979399512653e-05,0.00012842118144019429,0.0018375836032854382,0.12130087614059448,11.901697158813477,-1.2671844959259033,-21.717256546020508,-0.3793235421180725,-2.5271639823913574,0.15964071452617645,0
61,0.30000925064086914,-0.12130087614059448,-11.901697158813477,1.2671844959259033,21.717256546020508,0.3793235421180725,2.5271639823913574,-0.15964071452617645,0.0,0.0,0.0,0.0,0.0,0.0,0.0,-0.15986330515614655,0.4120888331327649,0.06884864268929652,0.45743749869809514,-0.15452331638124092,0.1260103531940662,-0.2100266971208374,0.17268042644283227,-0.4873286518339525,-0.11141439037051117,-1.946698116018061,0.13361061525418433,2.595550359778934,0.9452423210061258,0.1728802376190821,-0.48752024683155326,-0.11147110072896137,-1.9463801863486305,0.1336059019074957,2.595550359778934,0.9452445589611904,-0.0016355128454596194,-0.0005822264499886541,-0.0002606751694967385,0.0008100824944102461,-8.761979399512653e-05,-0.00012842118144019429,-0.0018375836032854382,0.0,0.0,0.0,0.0,0.0,0.0,0.0,0.00019981117624984224,-0.0001915949976007414,-5.671035845020156e-05,0.0003179296694304501,-4.7133466886395414e-06,0.0,2.2379550645990065e-06,0.0016355128454596194,0.0005822264499886541,0.0002606751694967385,-0.0008100824944102461,8.761979399512653e-05,0.00012842118144019429,0.0018375836032854382,0.12130087614059448,11.901697158813477,-1.2671844959259033,-21.717256546020508,-0.3793235421180725,-2.5271639823913574,0.15964071452617645,0
62,0.30000925064086914,-0.12130087614059448,-11.901697158813477,1.2671844959259033,21.717256546020508,0.3793235421180725,2.5271639823913574,-0.15964071452617645,0.0,0.0,0.0,0.0,0.0,0.0,0.0,-0.15986330515614655,0.4120888331327649,0.06884864268929652,0.45743749869809514,-0.15452331638124092,0.1260103531940662,-0.2100266971208374,0.17268042644283227,-0.4873286518339525,-0.11141439037051117,-1.946698116018061,0.13361061525418433,2.595550359778934,0.9452423210061258,0.1728802376190821,-0.48752024683155326,-0.11147110072896137,-1.9463801863486305,0.1336059019074957,2.595550359778934,0.9452445589611904,-0.0016355128454596194,-0.0005822264499886541,-0.0002606751694967385,0.0008100824944102461,-8.761979399512653e-05,-0.00012842118144019429,-0.0018375836032854382,0.0,0.0,0.0,0.0,0.0,0.0,0.0,0.00019981117624984224,-0.0001915949976007414,-5.671035845020156e-05,0.0003179296694304501,-4.7133466886395414e-06,0.0,2.2379550645990065e-06,0.0016355128454596194,0.0005822264499886541,0.0002606751694967385,-0.0008100824944102461,8.761979399512653e-05,0.00012842118144019429,0.0018375836032854382,0.12130087614059448,11.901697158813477,-1.2671844959259033,-21.717256546020508,-0.3793235421180725,-2.5271639823913574,0.15964071452617645,0
63,0.3100268840789795,-0.14510458707809448,-11.925500869750977,1.2433807849884033,21.768831253051758,0.3857322335243225,2.5207552909851074,-0.24844686686992645,0.0,0.0,0.0,0.0,0.0,0.0,0.0,-0.1590752654562043,0.41480083549553765,0.07214779218138505,0.45858040437486897,-0.1548098166269948,0.1255096322802272,-0.20879168370499096,0.17268209687868755,-0.48732698139809727,-0.11141271993465592,-1.9467017352957474,0.1336100084868538,2.595551071855757,0.9452521883563862,0.1728802376190821,-0.48752024683155326,-0.11147110072896137,-1.9463801863486305,0.1336059019074957,2.595550359778934,0.9452445589611904,0.00022864608222551624,0.0005034427485083462,0.0007000730257559002,-0.0004911138394420448,-0.00024458520994144483,0.00017540110791919623,0.002174575695826311,0.0,0.0,0.0,0.0,0.0,0.0,0.0,0.00019814074039456453,-0.00019326543345599134,-5.838079430545151e-05,0.00032154894711688975,-4.106579358120754e-06,-7.120768228396912e-07,-7.629395195829503e-06,-0.00022864608222551624,-0.0005034427485083462,-0.0007000730257559002,0.0004911138394420448,0.00024458520994144483,-0.00017540110791919623,-0.002174575695826311,0.14510458707809448,11.925500869750977,-1.2433807849884033,-21.768831253051758,-0.3857322335243225,-2.5207552909851074,0.24844686686992645,0
64,0.31501340866088867,-0.14510458707809448,-11.925500869750977,1.2433807849884033,21.768831253051758,0.3857322335243225,2.5207552909851074,-0.24844686686992645,0.0,0.0,0.0,0.0,0.0,0.0,0.0,-0.1590752654562043,0.41480083549553765,0.07214779218138505,0.45858040437486897,-0.1548098166269948,0.1255096322802272,-0.20879168370499096,0.17268209687868755,-0.48732698139809727,-0.11141271993465592,-1.9467017352957474,0.1336100084868538,2.595551071855757,0.9452521883563862,0.1728802376190821,-0.48752024683155326,-0.11147110072896137,-1.9463801863486305,0.1336059019074957,2.595550359778934,0.9452445589611904,0.00022864608222551624,0.0005034427485083462,0.0007000730257559002,-0.0004911138394420448,-0.00024458520994144483,0.00017540110791919623,0.002174575695826311,0.0,0.0,0.0,0.0,0.0,0.0,0.0,0.00019814074039456453,-0.00019326543345599134,-5.838079430545151e-05,0.00032154894711688975,-4.106579358120754e-06,-7.120768228396912e-07,-7.629395195829503e-06,-0.00022864608222551624,-0.0005034427485083462,-0.0007000730257559002,0.0004911138394420448,0.00024458520994144483,-0.00017540110791919623,-0.002174575695826311,0.14510458707809448,11.925500869750977,-1.2433807849884033,-21.768831253051758,-0.3857322335243225,-2.5207552909851074,0.24844686686992645,0
65,0.32000160217285156,-0.14510458707809448,-11.925500869750977,1.2433807849884033,21.768831253051758,0.3857322335243225,2.5207552909851074,-0.24844686686992645,0.0,0.0,0.0,0.0,0.0,0.0,0.0,-0.1590752654562043,0.41480083549553765,0.07214779218138505,0.45858040437486897,-0.1548098166269948,0.1255096322802272,-0.20879168370499096,0.17268209687868755,-0.48732698139809727,-0.11141271993465592,-1.9467017352957474,0.1336100084868538,2.595551071855757,0.9452521883563862,0.1728802376190821,-0.48752024683155326,-0.11147110072896137,-1.9463801863486305,0.1336059019074957,2.595550359778934,0.9452445589611904,0.00022864608222551624,0.0005034427485083462,0.0007000730257559002,-0.0004911138394420448,-0.00024458520994144483,0.00017540110791919623,0.002174575695826311,0.0,0.0,0.0,0.0,0.0,0.0,0.0,0.00019814074039456453,-0.00019326543345599134,-5.838079430545151e-05,0.00032154894711688975,-4.106579358120754e-06,-7.120768228396912e-07,-7.629395195829503e-06,-0.00022864608222551624,-0.0005034427485083462,-0.0007000730257559002,0.0004911138394420448,0.00024458520994144483,-0.00017540110791919623,-0.002174575695826311,0.14510458707809448,11.925500869750977,-1.2433807849884033,-21.768831253051758,-0.3857322335243225,-2.5207552909851074,0.24844686686992645,0
66,0.3250265121459961,-0.14510458707809448,-11.925500869750977,1.2433807849884033,21.768831253051758,0.3857322335243225,2.5207552909851074,-0.24844686686992645,0.0,0.0,0.0,0.0,0.0,0.0,0.0,-0.1590752654562043,0.41480083549553765,0.07214779218138505,0.45858040437486897,-0.1548098166269948,0.1255096322802272,-0.20879168370499096,0.17268209687868755,-0.48732698139809727,-0.11141271993465592,-1.9467017352957474,0.1336100084868538,2.595551071855757,0.9452521883563862,0.1728802376190821,-0.48752024683155326,-0.11147110072896137,-1.9463801863486305,0.1336059019074957,2.595550359778934,0.9452445589611904,0.00022864608222551624,0.0005034427485083462,0.0007000730257559002,-0.0004911138394420448,-0.00024458520994144483,0.00017540110791919623,0.002174575695826311,0.0,0.0,0.0,0.0,0.0,0.0,0.0,0.00019814074039456453,-0.00019326543345599134,-5.838079430545151e-05,0.00032154894711688975,-4.106579358120754e-06,-7.120768228396912e-07,-7.629395195829503e-06,-0.00022864608222551624,-0.0005034427485083462,-0.0007000730257559002,0.0004911138394420448,0.00024458520994144483,-0.00017540110791919623,-0.002174575695826311,0.14510458707809448,11.925500869750977,-1.2433807849884033,-21.768831253051758,-0.3857322335243225,-2.5207552909851074,0.24844686686992645,0
67,0.3299989700317383,-0.12130087614059448,-11.973108291625977,1.2909882068634033,21.768831253051758,0.3857322335243225,2.5271639823913574,-0.14590780436992645,0.0,0.0,0.0,0.0,0.0,0.0,0.0,-0.16323376092846303,0.40434830778119707,0.06260887986283722,0.46391631316758347,-0.15385695098138974,0.1259385985783144,-0.20908471876240023,0.17268042644283227,-0.48732364053838745,-0.11141606372936513,-1.9467017352957474,0.13361002165076638,2.595550359778934,0.9452407951272196,0.1728802376190821,-0.48752024683155326,-0.11147110072896137,-1.9463801863486305,0.1336059019074957,2.595550359778934,0.9452445589611904,-0.0006909426127340617,0.0007618047897649888,-0.0006430285295570089,-0.00013667003887047363,-0.0001896486702815519,-1.9402526637373055e-06,-0.00206040831445022,0.0,0.0,0.0,0.0,0.0,0.0,0.0,0.00019981117624984224,-0.00019660629316581302,-5.503699959623354e-05,0.00032154894711688975,-4.119743270691867e-06,0.0,3.763833970826802e-06,0.0006909426127340617,-0.0007618047897649888,0.0006430285295570089,0.00013667003887047363,0.0001896486702815519,1.9402526637373055e-06,0.00206040831445022,0.12130087614059448,11.973108291625977,-1.2909882068634033,-21.768831253051758,-0.3857322335243225,-2.5271639823913574,0.14590780436992645,0
68,0.33499836921691895,-0.12130087614059448,-11.973108291625977,1.2909882068634033,21.768831253051758,0.3857322335243225,2.5271639823913574,-0.14590780436992645,0.0,0.0,0.0,0.0,0.0,0.0,0.0,-0.16323376092846303,0.40434830778119707,0.06260887986283722,0.46391631316758347,-0.15385695098138974,0.1259385985783144,-0.20908471876240023,0.17268042644283227,-0.48732364053838745,-0.11141606372936513,-1.9467017352957474,0.13361002165076638,2.595550359778934,0.9452407951272196,0.1728802376190821,-0.48752024683155326,-0.11147110072896137,-1.9463801863486305,0.1336059019074957,2.595550359778934,0.9452445589611904,-0.0006909426127340617,0.0007618047897649888,-0.0006430285295570089,-0.00013667003887047363,-0.0001896486702815519,-1.9402526637373055e-06,-0.00206040831445022,0.0,0.0,0.0,0.0,0.0,0.0,0.0,0.00019981117624984224,-0.00019660629316581302,-5.503699959623354e-05,0.00032154894711688975,-4.119743270691867e-06,0.0,3.763833970826802e-06,0.0006909426127340617,-0.0007618047897649888,0.0006430285295570089,0.00013667003887047363,0.0001896486702815519,1.9402526637373055e-06,0.00206040831445022,0.12130087614059448,11.973108291625977,-1.2909882068634033,-21.768831253051758,-0.3857322335243225,-2.5271639823913574,0.14590780436992645,0
69,0.3399944305419922,-0.19667929410934448,-11.949304580688477,1.2671844959259033,21.768831253051758,0.3738303780555725,2.5207552909851074,-0.22830526530742645,0.0,0.0,0.0,0.0,0.0,0.0,0.0,-0.16011628216922177,0.40923592689829574,0.06320180522444192,0.45899374111022645,-0.15394284858038063,0.1251454059023873,-0.2074561858606977,0.17268571615637393,-0.4873253112862626,-0.11141439037051666,-1.9467017352957474,0.13361134407917655,2.595551071855757,0.9452499504006571,0.1728802376190821,-0.48752024683155326,-0.11147110072896137,-1.9463801863486305,0.1336059019074957,2.595550359778934,0.9452445589611904,0.0007132000357595191,5.1064707363284115e-05,0.00020678381249636719,-0.0007076130195638572,0.00037761943076952394,0.0002946514314673763,0.0009900572658788822,0.0,0.0,0.0,0.0,0.0,0.0,0.0,0.00019452146270818038,-0.00019493554529065316,-5.6710358444705955e-05,0.00032154894711688975,-5.442171680858365e-06,-7.120768228396912e-07,-5.3914394666509935e-06,-0.0007132000357595191,-5.1064707363284115e-05,-0.00020678381249636719,0.0007076130195638572,-0.00037761943076952394,-0.0002946514314673763,-0.0009900572658788822,0.19667929410934448,11.949304580688477,-1.2671844959259033,-21.768831253051758,-0.3738303780555725,-2.5207552909851074,0.22830526530742645,0
70,0.34499621391296387,-0.19667929410934448,-11.949304580688477,1.2671844959259033,21.768831253051758,0.3738303780555725,2.5207552909851074,-0.22830526530742645,0.0,0.0,0.0,0.0,0.0,0.0,0.0,-0.16011628216922177,0.40923592689829574,0.06320180522444192,0.45899374111022645,-0.15394284858038063,0.1251454059023873,-0.2074561858606977,0.17268571615637393,-0.4873253112862626,-0.11141439037051666,-1.9467017352957474,0.13361134407917655,2.595551071855757,0.9452499504006571,0.1728802376190821,-0.48752024683155326,-0.11147110072896137,-1.9463801863486305,0.1336059019074957,2.595550359778934,0.9452445589611904,0.0007132000357595191,5.1064707363284115e-05,0.00020678381249636719,-0.0007076130195638572,0.00037761943076952394,0.0002946514314673763,0.0009900572658788822,0.0,0.0,0.0,0.0,0.0,0.0,0.0,0.00019452146270818038,-0.00019493554529065316,-5.6710358444705955e-05,0.00032154894711688975,-5.442171680858365e-06,-7.120768228396912e-07,-5.3914394666509935e-06,-0.0007132000357595191,-5.1064707363284115e-05,-0.00020678381249636719,0.0007076130195638572,-0.00037761943076952394,-0.0002946514314673763,-0.0009900572658788822,0.19667929410934448,11.949304580688477,-1.2671844959259033,-21.768831253051758,-0.3738303780555725,-2.5207552909851074,0.22830526530742645,0
71,0.35001277923583984,-0.19667929410934448,-11.925500869750977,1.2671844959259033,21.741060256958008,0.3793235421180725,2.5143465995788574,-0.22098104655742645,0.0,0.0,0.0,0.0,0.0,0.0,0.0,-0.15800834092511504,0.41482793628739356,0.0683681585216386,0.4553830806689308,-0.1535567543216142,0.12504440666468564,-0.20846924600195152,0.17268571615637393,-0.48732698139809905,-0.11141439037051117,-1.9466997864539164,0.13361073372761406,2.5955517839325797,0.9452491365985738,0.1728802376190821,-0.48752024683155326,-0.11147110072896137,-1.9463801863486305,0.1336059019074957,2.595550359778934,0.9452445589611904,0.0010773502302010795,0.0001382728154774136,-0.00010333470824353765,0.0004918096682163825,0.0001191939817972639,0.0004227611005686037,-0.0004054403317640484,0.0,0.0,0.0,0.0,0.0,0.0,0.0,0.00019452146270818038,-0.00019326543345421499,-5.671035845020156e-05,0.0003196001052858666,-4.831820118372798e-06,-1.4241536456793824e-06,-4.5776373833739115e-06,-0.0010773502302010795,-0.0001382728154774136,0.00010333470824353765,-0.0004918096682163825,-0.0001191939817972639,-0.0004227611005686037,0.0004054403317640484,0.19667929410934448,11.925500869750977,-1.2671844959259033,-21.741060256958008,-0.3793235421180725,-2.5143465995788574,0.22098104655742645,0
72,0.3551340103149414,-0.19667929410934448,-11.925500869750977,1.2671844959259033,21.741060256958008,0.3793235421180725,2.5143465995788574,-0.22098104655742645,0.0,0.0,0.0,0.0,0.0,0.0,0.0,-0.15800834092511504,0.41482793628739356,0.0683681585216386,0.4553830806689308,-0.1535567543216142,0.12504440666468564,-0.20846924600195152,0.17268571615637393,-0.48732698139809905,-0.11141439037051117,-1.9466997864539164,0.13361073372761406,2.5955517839325797,0.9452491365985738,0.1728802376190821,-0.48752024683155326,-0.11147110072896137,-1.9463801863486305,0.1336059019074957,2.595550359778934,0.9452445589611904,0.0010773502302010795,0.0001382728154774136,-0.00010333470824353765,0.0004918096682163825,0.0001191939817972639,0.0004227611005686037,-0.0004054403317640484,0.0,0.0,0.0,0.0,0.0,0.0,0.0,0.00019452146270818038,-0.00019326543345421499,-5.671035845020156e-05,0.0003196001052858666,-4.831820118372798e-06,-1.4241536456793824e-06,-4.5776373833739115e-06,-0.0010773502302010795,-0.0001382728154774136,0.00010333470824353765,-0.0004918096682163825,-0.0001191939817972639,-0.0004227611005686037,0.0004054403317640484,0.19667929410934448,11.925500869750977,-1.2671844959259033,-21.741060256958008,-0.3793235421180725,-2.5143465995788574,0.22098104655742645,0
73,0.3608689308166504,-0.09352988004684448,-11.949304580688477,1.2156097888946533,21.768831253051758,0.3912253975868225,2.5207552909851074,-0.22098104655742645,0.0,0.0,0.0,0.0,0.0,0.0,0.0,-0.15352682903487133,0.44094982982377445,0.07223257996103244,0.42570044912167715,-0.15440864817096286,0.12049238785893501,-0.21018048738323492,0.17267847760100113,-0.487325310962242,-0.11141077109282477,-1.9467017352957474,0.13360941129922865,2.595551071855757,0.9452491365985738,0.1728802376190821,-0.48752024683155326,-0.11147110072896137,-1.9463801863486305,0.1336059019074957,2.595550359778934,0.9452445589611904,-0.0010911559094486669,0.0003527496572916418,0.0012852607592879156,-0.00018096275679842027,-0.0005860233998298249,0.0002244714013753168,0.0006212424788884217,0.0,0.0,0.0,0.0,0.0,0.0,0.0,0.00020176001808097643,-0.0001949358693112413,-6.0329636136599585e-05,0.00032154894711688975,-3.509391732964273e-06,-7.120768228396912e-07,-4.5776373833739115e-06,0.0010911559094486669,-0.0003527496572916418,-0.0012852607592879156,0.00018096275679842027,0.0005860233998298249,-0.0002244714013753168,-0.0006212424788884217,0.09352988004684448,11.949304580688477,-1.2156097888946533,-21.768831253051758,-0.3912253975868225,-2.5207552909851074,0.22098104655742645,0
74,0.3652176856994629,-0.09352988004684448,-11.949304580688477,1.2156097888946533,21.768831253051758,0.3912253975868225,2.5207552909851074,-0.22098104655742645,0.0,0.0,0.0,0.0,0.0,0.0,0.0,-0.15352682903487133,0.44094982982377445,0.07223257996103244,0.42570044912167715,-0.15440864817096286,0.12049238785893501,-0.21018048738323492,0.17267847760100113,-0.487325310962242,-0.11141077109282477,-1.9467017352957474,0.13360941129922865,2.595551071855757,0.9452491365985738,0.1728802376190821,-0.48752024683155326,-0.11147110072896137,-1.9463801863486305,0.1336059019074957,2.595550359778934,0.9452445589611904,-0.0010911559094486669,0.0003527496572916418,0.0012852607592879156,-0.00018096275679842027,-0.0005860233998298249,0.0002244714013753168,0.0006212424788884217,0.0,0.0,0.0,0.0,0.0,0.0,0.0,0.00020176001808097643,-0.0001949358693112413,-6.0329636136599585e-05,0.00032154894711688975,-3.509391732964273e-06,-7.120768228396912e-07,-4.5776373833739115e-06,0.0010911559094486669,-0.0003527496572916418,-0.0012852607592879156,0.00018096275679842027,0.0005860233998298249,-0.0002244714013753168,-0.0006212424788884217,0.09352988004684448,11.949304580688477,-1.2156097888946533,-21.768831253051758,-0.3912253975868225,-2.5207552909851074,0.22098104655742645,0
75,0.37001776695251465,-0.09352988004684448,-11.973108291625977,1.2909882068634033,21.768831253051758,0.3793235421180725,2.5207552909851074,-0.18710653483867645,0.0,0.0,0.0,0.0,0.0,0.0,0.0,-0.15115683834171362,0.39227029735941416,0.07181652104866248,0.4689464685375387,-0.15376258413620947,0.12676639850226168,-0.21176716411749377,0.17267847760100113,-0.4873236405263867,-0.11141606080636643,-1.9467017352957474,0.13361073372761406,2.595551071855757,0.9452453727639384,0.1728802376190821,-0.48752024683155326,-0.11147110072896137,-1.9463801863486305,0.1336059019074957,2.595550359778934,0.9452445589611904,-0.001018720231839844,0.0007087282960162084,-0.0005082199919625197,-5.1450356683873745e-05,-0.00011875165810790513,0.00020586303020241184,-0.0006894316259825489,0.0,0.0,0.0,0.0,0.0,0.0,0.0,0.00020176001808097643,-0.00019660630516654676,-5.503992259493773e-05,0.00032154894711688975,-4.831820118372798e-06,-7.120768228396912e-07,-8.138027479676069e-07,0.001018720231839844,-0.0007087282960162084,0.0005082199919625197,5.1450356683873745e-05,0.00011875165810790513,-0.00020586303020241184,0.0006894316259825489,0.09352988004684448,11.973108291625977,-1.2909882068634033,-21.768831253051758,-0.3793235421180725,-2.5207552909851074,0.18710653483867645,0
76,0.3749988079071045,-0.09352988004684448,-11.973108291625977,1.2909882068634033,21.768831253051758,0.3793235421180725,2.5207552909851074,-0.18710653483867645,0.0,0.0,0.0,0.0,0.0,0.0,0.0,-0.15115683834171362,0.39227029735941416,0.07181652104866248,0.4689464685375387,-0.15376258413620947,0.12676639850226168,-0.21176716411749377,0.17267847760100113,-0.4873236405263867,-0.11141606080636643,-1.9467017352957474,0.13361073372761406,2.595551071855757,0.9452453727639384,0.1728802376190821,-0.48752024683155326,-0.11147110072896137,-1.9463801863486305,0.1336059019074957,2.595550359778934,0.9452445589611904,-0.001018720231839844,0.0007087282960162084,-0.0005082199919625197,-5.1450356683873745e-05,-0.00011875165810790513,0.00020586303020241184,-0.0006894316259825489,0.0,0.0,0.0,0.0,0.0,0.0,0.0,0.00020176001808097643,-0.00019660630516654676,-5.503992259493773e-05,0.00032154894711688975,-4.831820118372798e-06,-7.120768228396912e-07,-8.138027479676069e-07,0.001018720231839844,-0.0007087282960162084,0.0005082199919625197,5.1450356683873745e-05,0.00011875165810790513,-0.00020586303020241184,0.0006894316259825489,0.09352988004684448,11.973108291625977,-1.2909882068634033,-21.768831253051758,-0.3793235421180725,-2.5207552909851074,0.18710653483867645,0
77,0.3800387382507324,-0.17287558317184448,-11.949304580688477,1.2156097888946533,21.792634963989258,0.3912253975868225,2.5143465995788574,-0.17337362468242645,0.0,0.0,0.0,0.0,0.0,0.0,0.0,-0.15587535756445384,0.39329218906862917,0.05977763545752582,0.46985447204886904,-0.1537549197002856,0.12671743570594643,-0.2118266002584487,0.17268404572051868,-0.487325310962242,-0.11141077109282477,-1.9467034057316026,0.13360941129922865,2.5955517839325797,0.9452438468850322,0.1728802376190821,-0.48752024683155326,-0.11147110072896137,-1.9463801863486305,0.1336059019074957,2.595550359778934,0.9452445589611904,-5.1397730058494015e-05,0.00016905417989113795,0.0007038619099201523,-0.0008029050404806581,-0.0003800987446673454,0.0005743021211222198,-0.0013508459415578662,0.0,0.0,0.0,0.0,0.0,0.0,0.0,0.00019619189856343033,-0.0001949358693112413,-6.0329636136599585e-05,0.0003232193829720842,-3.509391732964273e-06,-1.4241536456793824e-06,7.120761582601887e-07,5.1397730058494015e-05,-0.00016905417989113795,-0.0007038619099201523,0.0008029050404806581,0.0003800987446673454,-0.0005743021211222198,0.0013508459415578662,0.17287558317184448,11.949304580688477,-1.2156097888946533,-21.792634963989258,-0.3912253975868225,-2.5143465995788574,0.17337362468242645,0
78,0.38499927520751953,-0.17287558317184448,-11.949304580688477,1.2156097888946533,21.792634963989258,0.3912253975868225,2.5143465995788574,-0.17337362468242645,0.0,0.0,0.0,0.0,0.0,0.0,0.0,-0.15587535756445384,0.39329218906862917,0.05977763545752582,0.46985447204886904,-0.1537549197002856,0.12671743570594643,-0.2118266002584487,0.17268404572051868,-0.487325310962242,-0.11141077109282477,-1.9467034057316026,0.13360941129922865,2.5955517839325797,0.9452438468850322,0.1728802376190821,-0.48752024683155326,-0.11147110072896137,-1.9463801863486305,0.1336059019074957,2.595550359778934,0.9452445589611904,-5.1397730058494015e-05,0.00016905417989113795,0.0007038619099201523,-0.0008029050404806581,-0.0003800987446673454,0.0005743021211222198,-0.0013508459415578662,0.0,0.0,0.0,0.0,0.0,0.0,0.0,0.00019619189856343033,-0.0001949358693112413,-6.0329636136599585e-05,0.0003232193829720842,-3.509391732964273e-06,-1.4241536456793824e-06,7.120761582601887e-07,5.1397730058494015e-05,-0.00016905417989113795,-0.0007038619099201523,0.0008029050404806581,0.0003800987446673454,-0.0005743021211222198,0.0013508459415578662,0.17287558317184448,11.949304580688477,-1.2156097888946533,-21.792634963989258,-0.3912253975868225,-2.5143465995788574,0.17337362468242645,0
79,0.39003491401672363,-0.24825400114059448,-11.901697158813477,1.2156097888946533,21.768831253051758,0.3857322335243225,2.5207552909851074,-0.22098104655742645,0.0,0.0,0.0,0.0,0.0,0.0,0.0,-0.15306478501060558,0.3998881651563522,0.06483086329498047,0.46497584094018024,-0.15367818261433977,0.12560350855796884,-0.2113642756674125,0.17268933543406034,-0.4873286518339525,-0.11141077109282477,-1.9467017352957474,0.13361002165079114,2.595551071855757,0.9452491365985738,0.1728802376190821,-0.48752024683155326,-0.11147110072896137,-1.9463801863486305,0.1336059019074957,2.595550359778934,0.9452445589611904,0.001782507143523107,-0.0008528665009265614,0.000635911997165889,-0.0006128755779503646,-5.131691181013838e-05,0.00017315485472337217,0.0008257315758922892,0.0,0.0,0.0,0.0,0.0,0.0,0.0,0.00019090218502176848,-0.0001915949976007414,-6.0329636136599585e-05,0.00032154894711688975,-4.11974329544984e-06,-7.120768228396912e-07,-4.5776373833739115e-06,-0.001782507143523107,0.0008528665009265614,-0.000635911997165889,0.0006128755779503646,5.131691181013838e-05,-0.00017315485472337217,-0.0008257315758922892,0.24825400114059448,11.901697158813477,-1.2156097888946533,-21.768831253051758,-0.3857322335243225,-2.5207552909851074,0.22098104655742645,0
80,0.39500856399536133,-0.24825400114059448,-11.901697158813477,1.2156097888946533,21.768831253051758,0.3857322335243225,2.5207552909851074,-0.22098104655742645,0.0,0.0,0.0,0.0,0.0,0.0,0.0,-0.15306478501060558,0.3998881651563522,0.06483086329498047,0.46497584094018024,-0.15367818261433977,0.12560350855796884,-0.2113642756674125,0.17268933543406034,-0.4873286518339525,-0.11141077109282477,-1.9467017352957474,0.13361002165079114,2.595551071855757,0.9452491365985738,0.1728802376190821,-0.48752024683155326,-0.11147110072896137,-1.9463801863486305,0.1336059019074957,2.595550359778934,0.9452445589611904,0.001782507143523107,-0.0008528665009265614,0.000635911997165889,-0.0006128755779503646,-5.131691181013838e-05,0.00017315485472337217,0.0008257315758922892,0.0,0.0,0.0,0.0,0.0,0.0,0.0,0.00019090218502176848,-0.0001915949976007414,-6.0329636136599585e-05,0.00032154894711688975,-4.11974329544984e-06,-7.120768228396912e-07,-4.5776373833739115e-06,-0.001782507143523107,0.0008528665009265614,-0.000635911997165889,0.0006128755779503646,5.131691181013838e-05,-0.00017315485472337217,-0.0008257315758922892,0.24825400114059448,11.901697158813477,-1.2156097888946533,-21.768831253051758,-0.3857322335243225,-2.5207552909851074,0.22098104655742645,0
