rezayati/contactInterpretation/dataset/franka_main/labeled_data/link4/d2_8.csv
index,time,tau_J0,tau_J1,tau_J2,tau_J3,tau_J4,tau_J5,tau_J6,tau_J_d0,tau_J_d1,tau_J_d2,tau_J_d3,tau_J_d4,tau_J_d5,tau_J_d6,tau_ext0,tau_ext1,tau_ext2,tau_ext3,tau_ext4,tau_ext5,tau_ext6,q0,q1,q2,q3,q4,q5,q6,q_d0,q_d1,q_d2,q_d3,q_d4,q_d5,q_d6,dq0,dq1,dq2,dq3,dq4,dq5,dq6,dq_d0,dq_d1,dq_d2,dq_d3,dq_d4,dq_d5,dq_d6,e0,e1,e2,e3,e4,e5,e6,de0,de1,de2,de3,de4,de5,de6,etau_J0,etau_J1,etau_J2,etau_J3,etau_J4,etau_J5,etau_J6,label
1,0.0,-0.3514034152030945,-22.819665908813477,-0.1253325641155243,14.131807327270508,0.11198955774307251,2.1517977714538574,-0.37845176458358765,0.0,0.0,0.0,0.0,0.0,0.0,0.0,-0.36643817968346637,-0.01734795703562529,-0.21808739224979232,0.28845698416125315,-0.11296306694884796,-0.04363561290020197,-0.3731818345854748,1.6756175592112958,0.05252635179977575,0.030049254975036566,-2.7523878849765655,0.03425285527441792,2.7663720106018914,0.7691801014364419,1.6754973547542302,0.052104326824870026,0.029969505109285054,-2.752394845125968,0.0342448039870148,2.7663679543071322,0.7691630533470046,0.00035439976617781215,0.00040005711039683083,7.490919822064321e-05,0.000475028128375843,0.00017301300093774618,-0.0004730476754377882,0.00011892181602099055,0.0,0.0,0.0,0.0,0.0,0.0,0.0,-0.00012020445706562022,-0.0004220249749057256,-7.974986575151263e-05,-6.960149402601701e-06,-8.051287403117169e-06,-4.056294759191559e-06,-1.7048089437254887e-05,-0.00035439976617781215,-0.00040005711039683083,-7.490919822064321e-05,-0.000475028128375843,-0.00017301300093774618,0.0004730476754377882,-0.00011892181602099055,0.3514034152030945,22.819665908813477,0.1253325641155243,-14.131807327270508,-0.11198955774307251,-2.1517977714538574,0.37845176458358765,0
2,0.00501561164855957,-0.3514034152030945,-22.819665908813477,-0.1253325641155243,14.131807327270508,0.11198955774307251,2.1517977714538574,-0.37845176458358765,0.0,0.0,0.0,0.0,0.0,0.0,0.0,-0.36643817968346637,-0.01734795703562529,-0.21808739224979232,0.28845698416125315,-0.11296306694884796,-0.04363561290020197,-0.3731818345854748,1.6756175592112958,0.05252635179977575,0.030049254975036566,-2.7523878849765655,0.03425285527441792,2.7663720106018914,0.7691801014364419,1.6754973547542302,0.052104326824870026,0.029969505109285054,-2.752394845125968,0.0342448039870148,2.7663679543071322,0.7691630533470046,0.00035439976617781215,0.00040005711039683083,7.490919822064321e-05,0.000475028128375843,0.00017301300093774618,-0.0004730476754377882,0.00011892181602099055,0.0,0.0,0.0,0.0,0.0,0.0,0.0,-0.00012020445706562022,-0.0004220249749057256,-7.974986575151263e-05,-6.960149402601701e-06,-8.051287403117169e-06,-4.056294759191559e-06,-1.7048089437254887e-05,-0.00035439976617781215,-0.00040005711039683083,-7.490919822064321e-05,-0.000475028128375843,-0.00017301300093774618,0.0004730476754377882,-0.00011892181602099055,0.3514034152030945,22.819665908813477,0.1253325641155243,-14.131807327270508,-0.11198955774307251,-2.1517977714538574,0.37845176458358765,0
3,0.009968280792236328,-0.3752071261405945,-22.819665908813477,-0.1253325641155243,14.179414749145508,0.12389141321182251,2.1389803886413574,-0.35831016302108765,0.0,0.0,0.0,0.0,0.0,0.0,0.0,-0.36813770995510914,-0.029787800745286388,-0.2221475327158075,0.2983225388776705,-0.11273290120639907,-0.040783822917729765,-0.37373226560498835,1.6756192296471513,0.05252643461787409,0.030049254975036566,-2.752391225848281,0.03425153268377078,2.766373434755537,0.7691783344310581,1.6754973547542302,0.052104326824870026,0.029969505109285054,-2.752394845125968,0.0342448039870148,2.7663679543071322,0.7691630533470046,-9.112504841341426e-05,-0.0008832480769070209,-7.04221975412149e-05,-0.0011692174267605403,-0.00013208991111028973,-0.0003490894233125699,-0.0005436583919928756,0.0,0.0,0.0,0.0,0.0,0.0,0.0,-0.0001218748929210367,-0.00042210779300406315,-7.974986575151263e-05,-3.6192776868837484e-06,-6.728696755976815e-06,-5.480448404870941e-06,-1.528108405346451e-05,9.112504841341426e-05,0.0008832480769070209,7.04221975412149e-05,0.0011692174267605403,0.00013208991111028973,0.0003490894233125699,0.0005436583919928756,0.3752071261405945,22.819665908813477,0.1253325641155243,-14.179414749145508,-0.12389141321182251,-2.1389803886413574,0.35831016302108765,0
4,0.014965295791625977,-0.3752071261405945,-22.819665908813477,-0.1253325641155243,14.179414749145508,0.12389141321182251,2.1389803886413574,-0.35831016302108765,0.0,0.0,0.0,0.0,0.0,0.0,0.0,-0.36813770995510914,-0.029787800745286388,-0.2221475327158075,0.2983225388776705,-0.11273290120639907,-0.040783822917729765,-0.37373226560498835,1.6756192296471513,0.05252643461787409,0.030049254975036566,-2.752391225848281,0.03425153268377078,2.766373434755537,0.7691783344310581,1.6754973547542302,0.052104326824870026,0.029969505109285054,-2.752394845125968,0.0342448039870148,2.7663679543071322,0.7691630533470046,-9.112504841341426e-05,-0.0008832480769070209,-7.04221975412149e-05,-0.0011692174267605403,-0.00013208991111028973,-0.0003490894233125699,-0.0005436583919928756,0.0,0.0,0.0,0.0,0.0,0.0,0.0,-0.0001218748929210367,-0.00042210779300406315,-7.974986575151263e-05,-3.6192776868837484e-06,-6.728696755976815e-06,-5.480448404870941e-06,-1.528108405346451e-05,9.112504841341426e-05,0.0008832480769070209,7.04221975412149e-05,0.0011692174267605403,0.00013208991111028973,0.0003490894233125699,0.0005436583919928756,0.3752071261405945,22.819665908813477,0.1253325641155243,-14.179414749145508,-0.12389141321182251,-2.1389803886413574,0.35831016302108765,0
5,0.01996445655822754,-0.3752071261405945,-22.819665908813477,-0.1253325641155243,14.179414749145508,0.12389141321182251,2.1389803886413574,-0.35831016302108765,0.0,0.0,0.0,0.0,0.0,0.0,0.0,-0.36813770995510914,-0.029787800745286388,-0.2221475327158075,0.2983225388776705,-0.11273290120639907,-0.040783822917729765,-0.37373226560498835,1.6756192296471513,0.05252643461787409,0.030049254975036566,-2.752391225848281,0.03425153268377078,2.766373434755537,0.7691783344310581,1.6754973547542302,0.052104326824870026,0.029969505109285054,-2.752394845125968,0.0342448039870148,2.7663679543071322,0.7691630533470046,-9.112504841341426e-05,-0.0008832480769070209,-7.04221975412149e-05,-0.0011692174267605403,-0.00013208991111028973,-0.0003490894233125699,-0.0005436583919928756,0.0,0.0,0.0,0.0,0.0,0.0,0.0,-0.0001218748929210367,-0.00042210779300406315,-7.974986575151263e-05,-3.6192776868837484e-06,-6.728696755976815e-06,-5.480448404870941e-06,-1.528108405346451e-05,9.112504841341426e-05,0.0008832480769070209,7.04221975412149e-05,0.0011692174267605403,0.00013208991111028973,0.0003490894233125699,0.0005436583919928756,0.3752071261405945,22.819665908813477,0.1253325641155243,-14.179414749145508,-0.12389141321182251,-2.1389803886413574,0.35831016302108765,0
6,0.02496814727783203,-0.3752071261405945,-22.819665908813477,-0.1253325641155243,14.179414749145508,0.12389141321182251,2.1389803886413574,-0.35831016302108765,0.0,0.0,0.0,0.0,0.0,0.0,0.0,-0.36813770995510914,-0.029787800745286388,-0.2221475327158075,0.2983225388776705,-0.11273290120639907,-0.040783822917729765,-0.37373226560498835,1.6756192296471513,0.05252643461787409,0.030049254975036566,-2.752391225848281,0.03425153268377078,2.766373434755537,0.7691783344310581,1.6754973547542302,0.052104326824870026,0.029969505109285054,-2.752394845125968,0.0342448039870148,2.7663679543071322,0.7691630533470046,-9.112504841341426e-05,-0.0008832480769070209,-7.04221975412149e-05,-0.0011692174267605403,-0.00013208991111028973,-0.0003490894233125699,-0.0005436583919928756,0.0,0.0,0.0,0.0,0.0,0.0,0.0,-0.0001218748929210367,-0.00042210779300406315,-7.974986575151263e-05,-3.6192776868837484e-06,-6.728696755976815e-06,-5.480448404870941e-06,-1.528108405346451e-05,9.112504841341426e-05,0.0008832480769070209,7.04221975412149e-05,0.0011692174267605403,0.00013208991111028973,0.0003490894233125699,0.0005436583919928756,0.3752071261405945,22.819665908813477,0.1253325641155243,-14.179414749145508,-0.12389141321182251,-2.1389803886413574,0.35831016302108765,0
7,0.029967546463012695,-0.3752071261405945,-22.847436904907227,-0.1253325641155243,14.155611038208008,0.1293845772743225,2.1325716972351074,-0.38577598333358765,0.0,0.0,0.0,0.0,0.0,0.0,0.0,-0.3637842756576565,-0.01928583174674681,-0.21715919170930506,0.2895799068781474,-0.11227016409353288,-0.043511390472411045,-0.37331148058463587,1.6756192296471513,0.052528310349118895,0.030049255083295777,-2.752389555412426,0.03425092233220736,2.7663741468323604,0.7691810722246759,1.6754973547542302,0.052104326824870026,0.029969505109285054,-2.752394845125968,0.0342448039870148,2.7663679543071322,0.7691630533470046,0.000516003009661434,0.0002960090789473493,-0.00020059092532028025,0.00042346249543455096,-0.0001806389389293433,0.0004328666812434808,0.00010437637003637661,0.0,0.0,0.0,0.0,0.0,0.0,0.0,-0.0001218748929210367,-0.0004239835242488693,-7.974997401072326e-05,-5.289713542300234e-06,-6.118345192561436e-06,-6.192525228154722e-06,-1.8018877671277522e-05,-0.000516003009661434,-0.0002960090789473493,0.00020059092532028025,-0.00042346249543455096,0.0001806389389293433,-0.0004328666812434808,-0.00010437637003637661,0.3752071261405945,22.847436904907227,0.1253325641155243,-14.155611038208008,-0.1293845772743225,-2.1325716972351074,0.38577598333358765,0
8,0.03575325012207031,-0.3752071261405945,-22.847436904907227,-0.1253325641155243,14.155611038208008,0.1293845772743225,2.1325716972351074,-0.38577598333358765,0.0,0.0,0.0,0.0,0.0,0.0,0.0,-0.3637842756576565,-0.01928583174674681,-0.21715919170930506,0.2895799068781474,-0.11227016409353288,-0.043511390472411045,-0.37331148058463587,1.6756192296471513,0.052528310349118895,0.030049255083295777,-2.752389555412426,0.03425092233220736,2.7663741468323604,0.7691810722246759,1.6754973547542302,0.052104326824870026,0.029969505109285054,-2.752394845125968,0.0342448039870148,2.7663679543071322,0.7691630533470046,0.000516003009661434,0.0002960090789473493,-0.00020059092532028025,0.00042346249543455096,-0.0001806389389293433,0.0004328666812434808,0.00010437637003637661,0.0,0.0,0.0,0.0,0.0,0.0,0.0,-0.0001218748929210367,-0.0004239835242488693,-7.974997401072326e-05,-5.289713542300234e-06,-6.118345192561436e-06,-6.192525228154722e-06,-1.8018877671277522e-05,-0.000516003009661434,-0.0002960090789473493,0.00020059092532028025,-0.00042346249543455096,0.0001806389389293433,-0.0004328666812434808,-0.00010437637003637661,0.3752071261405945,22.847436904907227,0.1253325641155243,-14.155611038208008,-0.1293845772743225,-2.1325716972351074,0.38577598333358765,0
9,0.03996610641479492,-0.3236324191093445,-22.847436904907227,-0.1253325641155243,14.155611038208008,0.11748272180557251,2.1453890800476074,-0.39218467473983765,0.0,0.0,0.0,0.0,0.0,0.0,0.0,-0.36012915955136193,-0.016831136744519935,-0.2129748235837661,0.2840744466501093,-0.11189402542448963,-0.04407429031773058,-0.37423977510578305,1.6756156103694648,0.052528301579710085,0.030049254975037177,-2.752389555412426,0.03425224476059278,2.7663727226787143,0.7691847931487358,1.6754973547542302,0.052104326824870026,0.029969505109285054,-2.752394845125968,0.0342448039870148,2.7663679543071322,0.7691630533470046,-0.0012707443399428617,0.0007379219035590198,8.972851055750413e-05,-0.0002871220307153919,0.0043469392679263506,3.178111858347749e-05,0.0006702911647286054,0.0,0.0,0.0,0.0,0.0,0.0,0.0,-0.00011825561523459704,-0.0004239747548400591,-7.974986575212326e-05,-5.289713542300234e-06,-7.4407735779769e-06,-4.76837158203125e-06,-2.1739801731146535e-05,0.0012707443399428617,-0.0007379219035590198,-8.972851055750413e-05,0.0002871220307153919,-0.0043469392679263506,-3.178111858347749e-05,-0.0006702911647286054,0.3236324191093445,22.847436904907227,0.1253325641155243,-14.155611038208008,-0.11748272180557251,-2.1453890800476074,0.39218467473983765,0
10,0.04496574401855469,-0.3236324191093445,-22.847436904907227,-0.1253325641155243,14.155611038208008,0.11748272180557251,2.1453890800476074,-0.39218467473983765,0.0,0.0,0.0,0.0,0.0,0.0,0.0,-0.36012915955136193,-0.016831136744519935,-0.2129748235837661,0.2840744466501093,-0.11189402542448963,-0.04407429031773058,-0.37423977510578305,1.6756156103694648,0.052528301579710085,0.030049254975037177,-2.752389555412426,0.03425224476059278,2.7663727226787143,0.7691847931487358,1.6754973547542302,0.052104326824870026,0.029969505109285054,-2.752394845125968,0.0342448039870148,2.7663679543071322,0.7691630533470046,-0.0012707443399428617,0.0007379219035590198,8.972851055750413e-05,-0.0002871220307153919,0.0043469392679263506,3.178111858347749e-05,0.0006702911647286054,0.0,0.0,0.0,0.0,0.0,0.0,0.0,-0.00011825561523459704,-0.0004239747548400591,-7.974986575212326e-05,-5.289713542300234e-06,-7.4407735779769e-06,-4.76837158203125e-06,-2.1739801731146535e-05,0.0012707443399428617,-0.0007379219035590198,-8.972851055750413e-05,0.0002871220307153919,-0.0043469392679263506,-3.178111858347749e-05,-0.0006702911647286054,0.3236324191093445,22.847436904907227,0.1253325641155243,-14.155611038208008,-0.11748272180557251,-2.1453890800476074,0.39218467473983765,0
11,0.04996681213378906,-0.3514034152030945,-22.795862197875977,-0.1491362750530243,14.155611038208008,0.11748272180557251,2.1453890800476074,-0.37204307317733765,0.0,0.0,0.0,0.0,0.0,0.0,0.0,-0.3584403356161076,-0.021619537984523707,-0.2109218068347162,0.28803648109214997,-0.11145472623849653,-0.0423598110348781,-0.3752921302966433,1.6756175592112958,0.052524707742888775,0.03005092541089183,-2.752389552578003,0.03425224476059278,2.7663727226787143,0.7691825552099917,1.6754973547542302,0.052104326824870026,0.029969505109285054,-2.752394845125968,0.0342448039870148,2.7663679543071322,0.7691630533470046,0.00033788071719043913,-0.0008080600774586413,0.00037549853086760095,-0.000165094658401214,0.0003262295685908202,-0.00010123265200554916,-0.000150674950405186,0.0,0.0,0.0,0.0,0.0,0.0,0.0,-0.00012020445706562022,-0.00042038091801874927,-8.142030160677646e-05,-5.29254796521883e-06,-7.4407735779769e-06,-4.76837158203125e-06,-1.9501862987048035e-05,-0.00033788071719043913,0.0008080600774586413,-0.00037549853086760095,0.000165094658401214,-0.0003262295685908202,0.00010123265200554916,0.000150674950405186,0.3514034152030945,22.795862197875977,0.1491362750530243,-14.155611038208008,-0.11748272180557251,-2.1453890800476074,0.37204307317733765,0
12,0.054981231689453125,-0.3514034152030945,-22.795862197875977,-0.1491362750530243,14.155611038208008,0.11748272180557251,2.1453890800476074,-0.37204307317733765,0.0,0.0,0.0,0.0,0.0,0.0,0.0,-0.3584403356161076,-0.021619537984523707,-0.2109218068347162,0.28803648109214997,-0.11145472623849653,-0.0423598110348781,-0.3752921302966433,1.6756175592112958,0.052524707742888775,0.03005092541089183,-2.752389552578003,0.03425224476059278,2.7663727226787143,0.7691825552099917,1.6754973547542302,0.052104326824870026,0.029969505109285054,-2.752394845125968,0.0342448039870148,2.7663679543071322,0.7691630533470046,0.00033788071719043913,-0.0008080600774586413,0.00037549853086760095,-0.000165094658401214,0.0003262295685908202,-0.00010123265200554916,-0.000150674950405186,0.0,0.0,0.0,0.0,0.0,0.0,0.0,-0.00012020445706562022,-0.00042038091801874927,-8.142030160677646e-05,-5.29254796521883e-06,-7.4407735779769e-06,-4.76837158203125e-06,-1.9501862987048035e-05,-0.00033788071719043913,0.0008080600774586413,-0.00037549853086760095,0.000165094658401214,-0.0003262295685908202,0.00010123265200554916,0.000150674950405186,0.3514034152030945,22.795862197875977,0.1491362750530243,-14.155611038208008,-0.11748272180557251,-2.1453890800476074,0.37204307317733765,0
13,0.06076240539550781,-0.3514034152030945,-22.795862197875977,-0.09756157547235489,14.131807327270508,0.1293845772743225,2.1389803886413574,-0.39950889348983765,0.0,0.0,0.0,0.0,0.0,0.0,0.0,-0.36131699105942694,-0.016477449562368844,-0.21835727900049878,0.28764118975186653,-0.11109179387436632,-0.04236228256921204,-0.3766060978668441,1.6756175592112958,0.05252468425078359,0.030047306133728274,-2.752387884976555,0.03425092233220736,2.766373434755537,0.7691824299914832,1.6754973547542302,0.052104326824870026,0.029969505109285054,-2.752394845125968,0.0342448039870148,2.7663679543071322,0.7691630533470046,-0.00045221108925468995,-0.00033522159427297536,-0.0008463318240306314,0.00032863861431460333,-0.00048163082190826924,0.0002452111775319196,0.0006685277469638996,0.0,0.0,0.0,0.0,0.0,0.0,0.0,-0.00012020445706562022,-0.0004203574259135645,-7.780102444322062e-05,-6.960149413259842e-06,-6.118345192561436e-06,-5.480448404870941e-06,-1.9376644478596994e-05,0.00045221108925468995,0.00033522159427297536,0.0008463318240306314,-0.00032863861431460333,0.00048163082190826924,-0.0002452111775319196,-0.0006685277469638996,0.3514034152030945,22.795862197875977,0.09756157547235489,-14.131807327270508,-0.1293845772743225,-2.1389803886413574,0.39950889348983765,0
14,0.06496858596801758,-0.3514034152030945,-22.795862197875977,-0.09756157547235489,14.131807327270508,0.1293845772743225,2.1389803886413574,-0.39950889348983765,0.0,0.0,0.0,0.0,0.0,0.0,0.0,-0.36131699105942694,-0.016477449562368844,-0.21835727900049878,0.28764118975186653,-0.11109179387436632,-0.04236228256921204,-0.3766060978668441,1.6756175592112958,0.05252468425078359,0.030047306133728274,-2.752387884976555,0.03425092233220736,2.766373434755537,0.7691824299914832,1.6754973547542302,0.052104326824870026,0.029969505109285054,-2.752394845125968,0.0342448039870148,2.7663679543071322,0.7691630533470046,-0.00045221108925468995,-0.00033522159427297536,-0.0008463318240306314,0.00032863861431460333,-0.00048163082190826924,0.0002452111775319196,0.0006685277469638996,0.0,0.0,0.0,0.0,0.0,0.0,0.0,-0.00012020445706562022,-0.0004203574259135645,-7.780102444322062e-05,-6.960149413259842e-06,-6.118345192561436e-06,-5.480448404870941e-06,-1.9376644478596994e-05,0.00045221108925468995,0.00033522159427297536,0.0008463318240306314,-0.00032863861431460333,0.00048163082190826924,-0.0002452111775319196,-0.0006685277469638996,0.3514034152030945,22.795862197875977,0.09756157547235489,-14.131807327270508,-0.1293845772743225,-2.1389803886413574,0.39950889348983765,0
15,0.07017159461975098,-0.3752071261405945,-22.847436904907227,-0.1491362750530243,14.131807327270508,0.12389141321182251,2.1517977714538574,-0.39950889348983765,0.0,0.0,0.0,0.0,0.0,0.0,0.0,-0.360889440008463,-0.023336363576348735,-0.21772046178525548,0.2926528821553155,-0.11120739412756896,-0.041174645751586275,-0.37746981784654016,1.6756192296471513,0.05252830060533869,0.03005092541089183,-2.752387884976571,0.03425153268376986,2.7663720106018914,0.769182781248192,1.6754973547542302,0.052104326824870026,0.029969505109285054,-2.752394845125968,0.0342448039870148,2.7663679543071322,0.7691630533470046,0.0002891753714507017,0.00014617552161639666,0.0002674255186374238,0.00044809665461199177,-0.0003062253634725682,-0.00030643645302504515,0.0007628950879263338,0.0,0.0,0.0,0.0,0.0,0.0,0.0,-0.0001218748929210367,-0.000423973780468663,-8.142030160677646e-05,-6.96014939727263e-06,-6.728696755060881e-06,-4.056294759191559e-06,-1.9727901187316377e-05,-0.0002891753714507017,-0.00014617552161639666,-0.0002674255186374238,-0.00044809665461199177,0.0003062253634725682,0.00030643645302504515,-0.0007628950879263338,0.3752071261405945,22.847436904907227,0.1491362750530243,-14.131807327270508,-0.12389141321182251,-2.1517977714538574,0.39950889348983765,0
16,0.07492899894714355,-0.3752071261405945,-22.847436904907227,-0.1491362750530243,14.131807327270508,0.12389141321182251,2.1517977714538574,-0.39950889348983765,0.0,0.0,0.0,0.0,0.0,0.0,0.0,-0.360889440008463,-0.023336363576348735,-0.21772046178525548,0.2926528821553155,-0.11120739412756896,-0.041174645751586275,-0.37746981784654016,1.6756192296471513,0.05252830060533869,0.03005092541089183,-2.752387884976571,0.03425153268376986,2.7663720106018914,0.769182781248192,1.6754973547542302,0.052104326824870026,0.029969505109285054,-2.752394845125968,0.0342448039870148,2.7663679543071322,0.7691630533470046,0.0002891753714507017,0.00014617552161639666,0.0002674255186374238,0.00044809665461199177,-0.0003062253634725682,-0.00030643645302504515,0.0007628950879263338,0.0,0.0,0.0,0.0,0.0,0.0,0.0,-0.0001218748929210367,-0.000423973780468663,-8.142030160677646e-05,-6.96014939727263e-06,-6.728696755060881e-06,-4.056294759191559e-06,-1.9727901187316377e-05,-0.0002891753714507017,-0.00014617552161639666,-0.0002674255186374238,-0.00044809665461199177,0.0003062253634725682,0.00030643645302504515,-0.0007628950879263338,0.3752071261405945,22.847436904907227,0.1491362750530243,-14.131807327270508,-0.12389141321182251,-2.1517977714538574,0.39950889348983765,0
17,0.07996845245361328,-0.3514034152030945,-22.819665908813477,-0.1729399859905243,14.155611038208008,0.11748272180557251,2.1517977714538574,-0.38577598333358765,0.0,0.0,0.0,0.0,0.0,0.0,0.0,-0.3600638188225856,-0.01710460485339397,-0.21794289813644674,0.2886235370123604,-0.11194974550728555,-0.04146940995653654,-0.3775995534957487,1.6756175592112958,0.05252643371571379,0.030052595846747094,-2.752389555412426,0.03425224476059278,2.7663720236838434,0.7691809152405109,1.6754973547542302,0.052104326824870026,0.029969505109285054,-2.752394845125968,0.0342448039870148,2.7663679543071322,0.7691630533470046,-0.00035700183809093727,-0.0002642091663105557,0.0009197740376518657,-0.00014051721141778123,3.4212739556429874e-05,-0.0001295078876243856,0.00044837688517205003,0.0,0.0,0.0,0.0,0.0,0.0,0.0,-0.00012020445706562022,-0.0004221068908437653,-8.309073746204029e-05,-5.289713542300234e-06,-7.4407735779769e-06,-4.069376711157702e-06,-1.786189350627687e-05,0.00035700183809093727,0.0002642091663105557,-0.0009197740376518657,0.00014051721141778123,-3.4212739556429874e-05,0.0001295078876243856,-0.00044837688517205003,0.3514034152030945,22.819665908813477,0.1729399859905243,-14.155611038208008,-0.11748272180557251,-2.1517977714538574,0.38577598333358765,0
18,0.08491706848144531,-0.3514034152030945,-22.819665908813477,-0.1729399859905243,14.155611038208008,0.11748272180557251,2.1517977714538574,-0.38577598333358765,0.0,0.0,0.0,0.0,0.0,0.0,0.0,-0.3600638188225856,-0.01710460485339397,-0.21794289813644674,0.2886235370123604,-0.11194974550728555,-0.04146940995653654,-0.3775995534957487,1.6756175592112958,0.05252643371571379,0.030052595846747094,-2.752389555412426,0.03425224476059278,2.7663720236838434,0.7691809152405109,1.6754973547542302,0.052104326824870026,0.029969505109285054,-2.752394845125968,0.0342448039870148,2.7663679543071322,0.7691630533470046,-0.00035700183809093727,-0.0002642091663105557,0.0009197740376518657,-0.00014051721141778123,3.4212739556429874e-05,-0.0001295078876243856,0.00044837688517205003,0.0,0.0,0.0,0.0,0.0,0.0,0.0,-0.00012020445706562022,-0.0004221068908437653,-8.309073746204029e-05,-5.289713542300234e-06,-7.4407735779769e-06,-4.069376711157702e-06,-1.786189350627687e-05,0.00035700183809093727,0.0002642091663105557,-0.0009197740376518657,0.00014051721141778123,-3.4212739556429874e-05,0.0001295078876243856,-0.00044837688517205003,0.3514034152030945,22.819665908813477,0.1729399859905243,-14.155611038208008,-0.11748272180557251,-2.1517977714538574,0.38577598333358765,0
19,0.08997130393981934,-0.4029781222343445,-22.772058486938477,-0.1253325641155243,14.179414749145508,0.11198955774307251,2.1453890800476074,-0.34457725286483765,0.0,0.0,0.0,0.0,0.0,0.0,0.0,-0.3632586183942294,-0.0223453298900684,-0.2230118844433987,0.28948852195274344,-0.11211565616612607,-0.04072650894503776,-0.37727236210645393,1.6756211784889823,0.0525252206792587,0.030049254975036566,-2.752391225848281,0.03425285511215528,2.766372722678788,0.7691763245199199,1.6754973547542302,0.052104326824870026,0.029969505109285054,-2.752394845125968,0.0342448039870148,2.7663679543071322,0.7691630533470046,0.0006783332848901175,-0.0013034925544775954,-0.00028892160407450004,-0.0005705064379365988,0.00019705201280146442,-0.00012150120322046128,-0.0007423072116577907,0.0,0.0,0.0,0.0,0.0,0.0,0.0,-0.00012382373475205988,-0.00042089385438867644,-7.974986575151263e-05,-3.6192776868837484e-06,-8.051125140476345e-06,-4.768371655750059e-06,-1.3271172915274576e-05,-0.0006783332848901175,0.0013034925544775954,0.00028892160407450004,0.0005705064379365988,-0.00019705201280146442,0.00012150120322046128,0.0007423072116577907,0.4029781222343445,22.772058486938477,0.1253325641155243,-14.179414749145508,-0.11198955774307251,-2.1453890800476074,0.34457725286483765,0
20,0.09492874145507812,-0.4029781222343445,-22.772058486938477,-0.1253325641155243,14.179414749145508,0.11198955774307251,2.1453890800476074,-0.34457725286483765,0.0,0.0,0.0,0.0,0.0,0.0,0.0,-0.3632586183942294,-0.0223453298900684,-0.2230118844433987,0.28948852195274344,-0.11211565616612607,-0.04072650894503776,-0.37727236210645393,1.6756211784889823,0.0525252206792587,0.030049254975036566,-2.752391225848281,0.03425285511215528,2.766372722678788,0.7691763245199199,1.6754973547542302,0.052104326824870026,0.029969505109285054,-2.752394845125968,0.0342448039870148,2.7663679543071322,0.7691630533470046,0.0006783332848901175,-0.0013034925544775954,-0.00028892160407450004,-0.0005705064379365988,0.00019705201280146442,-0.00012150120322046128,-0.0007423072116577907,0.0,0.0,0.0,0.0,0.0,0.0,0.0,-0.00012382373475205988,-0.00042089385438867644,-7.974986575151263e-05,-3.6192776868837484e-06,-8.051125140476345e-06,-4.768371655750059e-06,-1.3271172915274576e-05,-0.0006783332848901175,0.0013034925544775954,0.00028892160407450004,0.0005705064379365988,-0.00019705201280146442,0.00012150120322046128,0.0007423072116577907,0.4029781222343445,22.772058486938477,0.1253325641155243,-14.179414749145508,-0.11198955774307251,-2.1453890800476074,0.34457725286483765,0
21,0.09996199607849121,-0.2998287081718445,-22.772058486938477,-0.09756157547235489,14.131807327270508,0.12389141321182251,2.1517977714538574,-0.33725303411483765,0.0,0.0,0.0,0.0,0.0,0.0,0.0,-0.35969694831760507,-0.02137555684473671,-0.2184640165741482,0.28936080843848183,-0.11350629029439485,-0.041797612401984104,-0.3754239396717279,1.6756139399336096,0.05252524991294116,0.030047306133728274,-2.7523878848715926,0.03425153266572666,2.7663720106018914,0.7691755107177627,1.6754973547542302,0.052104326824870026,0.029969505109285054,-2.752394845125968,0.0342448039870148,2.7663679543071322,0.7691630533470046,-0.0010149017295745801,-0.0010843549796310669,-0.0007700728279383377,0.0006727813185733914,-0.0003896417311794836,-0.00032318598127066827,-0.0009772400360144875,0.0,0.0,0.0,0.0,0.0,0.0,0.0,-0.0001165851793794026,-0.0004209230880711373,-7.780102444322062e-05,-6.960254375520947e-06,-6.728678711862002e-06,-4.056294759191559e-06,-1.245737075805664e-05,0.0010149017295745801,0.0010843549796310669,0.0007700728279383377,-0.0006727813185733914,0.0003896417311794836,0.00032318598127066827,0.0009772400360144875,0.2998287081718445,22.772058486938477,0.09756157547235489,-14.131807327270508,-0.12389141321182251,-2.1517977714538574,0.33725303411483765,0
22,0.10501742362976074,-0.2998287081718445,-22.772058486938477,-0.09756157547235489,14.131807327270508,0.12389141321182251,2.1517977714538574,-0.33725303411483765,0.0,0.0,0.0,0.0,0.0,0.0,0.0,-0.35969694831760507,-0.02137555684473671,-0.2184640165741482,0.28936080843848183,-0.11350629029439485,-0.041797612401984104,-0.3754239396717279,1.6756139399336096,0.05252524991294116,0.030047306133728274,-2.7523878848715926,0.03425153266572666,2.7663720106018914,0.7691755107177627,1.6754973547542302,0.052104326824870026,0.029969505109285054,-2.752394845125968,0.0342448039870148,2.7663679543071322,0.7691630533470046,-0.0010149017295745801,-0.0010843549796310669,-0.0007700728279383377,0.0006727813185733914,-0.0003896417311794836,-0.00032318598127066827,-0.0009772400360144875,0.0,0.0,0.0,0.0,0.0,0.0,0.0,-0.0001165851793794026,-0.0004209230880711373,-7.780102444322062e-05,-6.960254375520947e-06,-6.728678711862002e-06,-4.056294759191559e-06,-1.245737075805664e-05,0.0010149017295745801,0.0010843549796310669,0.0007700728279383377,-0.0006727813185733914,0.0003896417311794836,0.00032318598127066827,0.0009772400360144875,0.2998287081718445,22.772058486938477,0.09756157547235489,-14.131807327270508,-0.12389141321182251,-2.1517977714538574,0.33725303411483765,0
23,0.10998654365539551,-0.3514034152030945,-22.795862197875977,-0.1253325641155243,14.131807327270508,0.11198955774307251,2.1453890800476074,-0.33725303411483765,0.0,0.0,0.0,0.0,0.0,0.0,0.0,-0.35783998392121785,-0.02016509382772743,-0.2201576592443656,0.2898046849471646,-0.11381517503233389,-0.04246072397521614,-0.37150444452675174,1.6756175592112958,0.05252468425484759,0.030049254975036566,-2.752387884976571,0.03425285511215524,2.7663727226787143,0.7691755151322486,1.6754973547542302,0.052104326824870026,0.029969505109285054,-2.752394845125968,0.0342448039870148,2.7663679543071322,0.7691630533470046,0.0006869283801179456,-0.0003350071841412814,-0.0002694051606432777,0.000315031390407021,0.00015925435370106,-0.0001586399592210898,-0.00047446193865479015,0.0,0.0,0.0,0.0,0.0,0.0,0.0,-0.00012020445706562022,-0.00042035742997756365,-7.974986575151263e-05,-6.96014939727263e-06,-8.05112514044165e-06,-4.76837158203125e-06,-1.246178524394459e-05,-0.0006869283801179456,0.0003350071841412814,0.0002694051606432777,-0.000315031390407021,-0.00015925435370106,0.0001586399592210898,0.00047446193865479015,0.3514034152030945,22.795862197875977,0.1253325641155243,-14.131807327270508,-0.11198955774307251,-2.1453890800476074,0.33725303411483765,0
24,0.11499595642089844,-0.3514034152030945,-22.795862197875977,-0.1253325641155243,14.131807327270508,0.11198955774307251,2.1453890800476074,-0.33725303411483765,0.0,0.0,0.0,0.0,0.0,0.0,0.0,-0.35783998392121785,-0.02016509382772743,-0.2201576592443656,0.2898046849471646,-0.11381517503233389,-0.04246072397521614,-0.37150444452675174,1.6756175592112958,0.05252468425484759,0.030049254975036566,-2.752387884976571,0.03425285511215524,2.7663727226787143,0.7691755151322486,1.6754973547542302,0.052104326824870026,0.029969505109285054,-2.752394845125968,0.0342448039870148,2.7663679543071322,0.7691630533470046,0.0006869283801179456,-0.0003350071841412814,-0.0002694051606432777,0.000315031390407021,0.00015925435370106,-0.0001586399592210898,-0.00047446193865479015,0.0,0.0,0.0,0.0,0.0,0.0,0.0,-0.00012020445706562022,-0.00042035742997756365,-7.974986575151263e-05,-6.96014939727263e-06,-8.05112514044165e-06,-4.76837158203125e-06,-1.246178524394459e-05,-0.0006869283801179456,0.0003350071841412814,0.0002694051606432777,-0.000315031390407021,-0.00015925435370106,0.0001586399592210898,0.00047446193865479015,0.3514034152030945,22.795862197875977,0.1253325641155243,-14.131807327270508,-0.11198955774307251,-2.1453890800476074,0.33725303411483765,0
25,0.11997389793395996,-0.3514034152030945,-22.795862197875977,-0.1253325641155243,14.131807327270508,0.11198955774307251,2.1453890800476074,-0.33725303411483765,0.0,0.0,0.0,0.0,0.0,0.0,0.0,-0.35783998392121785,-0.02016509382772743,-0.2201576592443656,0.2898046849471646,-0.11381517503233389,-0.04246072397521614,-0.37150444452675174,1.6756175592112958,0.05252468425484759,0.030049254975036566,-2.752387884976571,0.03425285511215524,2.7663727226787143,0.7691755151322486,1.6754973547542302,0.052104326824870026,0.029969505109285054,-2.752394845125968,0.0342448039870148,2.7663679543071322,0.7691630533470046,0.0006869283801179456,-0.0003350071841412814,-0.0002694051606432777,0.000315031390407021,0.00015925435370106,-0.0001586399592210898,-0.00047446193865479015,0.0,0.0,0.0,0.0,0.0,0.0,0.0,-0.00012020445706562022,-0.00042035742997756365,-7.974986575151263e-05,-6.96014939727263e-06,-8.05112514044165e-06,-4.76837158203125e-06,-1.246178524394459e-05,-0.0006869283801179456,0.0003350071841412814,0.0002694051606432777,-0.000315031390407021,-0.00015925435370106,0.0001586399592210898,0.00047446193865479015,0.3514034152030945,22.795862197875977,0.1253325641155243,-14.131807327270508,-0.11198955774307251,-2.1453890800476074,0.33725303411483765,0
26,0.12503790855407715,-0.3514034152030945,-22.795862197875977,-0.1253325641155243,14.131807327270508,0.11198955774307251,2.1453890800476074,-0.33725303411483765,0.0,0.0,0.0,0.0,0.0,0.0,0.0,-0.35783998392121785,-0.02016509382772743,-0.2201576592443656,0.2898046849471646,-0.11381517503233389,-0.04246072397521614,-0.37150444452675174,1.6756175592112958,0.05252468425484759,0.030049254975036566,-2.752387884976571,0.03425285511215524,2.7663727226787143,0.7691755151322486,1.6754973547542302,0.052104326824870026,0.029969505109285054,-2.752394845125968,0.0342448039870148,2.7663679543071322,0.7691630533470046,0.0006869283801179456,-0.0003350071841412814,-0.0002694051606432777,0.000315031390407021,0.00015925435370106,-0.0001586399592210898,-0.00047446193865479015,0.0,0.0,0.0,0.0,0.0,0.0,0.0,-0.00012020445706562022,-0.00042035742997756365,-7.974986575151263e-05,-6.96014939727263e-06,-8.05112514044165e-06,-4.76837158203125e-06,-1.246178524394459e-05,-0.0006869283801179456,0.0003350071841412814,0.0002694051606432777,-0.000315031390407021,-0.00015925435370106,0.0001586399592210898,0.00047446193865479015,0.3514034152030945,22.795862197875977,0.1253325641155243,-14.131807327270508,-0.11198955774307251,-2.1453890800476074,0.33725303411483765,0
27,0.12996315956115723,-0.4029781222343445,-22.795862197875977,-0.1491362750530243,14.179414749145508,0.11198955774307251,2.1325716972351074,-0.33084434270858765,0.0,0.0,0.0,0.0,0.0,0.0,0.0,-0.3552361071726536,-0.019706427287903457,-0.22102868959657743,0.2917849854899453,-0.11408305797712164,-0.04232860943470187,-0.36829205361993983,1.6756211784889823,0.05252468165242994,0.03005092541089183,-2.7523891510506604,0.03425285511215528,2.7663741468323604,0.7691749309140371,1.6754973547542302,0.052104326824870026,0.029969505109285054,-2.752394845125968,0.0342448039870148,2.7663679543071322,0.7691630533470046,0.0015117459385506325,-0.0005841412539897522,0.0002947148948199317,-0.0005797237881437544,0.00022998177575824102,0.000600995525859901,-0.0016189981043850613,0.0,0.0,0.0,0.0,0.0,0.0,0.0,-0.00012382373475205988,-0.0004203548275599142,-8.142030160677646e-05,-5.694075307705049e-06,-8.051125140476345e-06,-6.192525228154722e-06,-1.1877567032470004e-05,-0.0015117459385506325,0.0005841412539897522,-0.0002947148948199317,0.0005797237881437544,-0.00022998177575824102,-0.000600995525859901,0.0016189981043850613,0.4029781222343445,22.795862197875977,0.1491362750530243,-14.179414749145508,-0.11198955774307251,-2.1325716972351074,0.33084434270858765,0
28,0.13496756553649902,-0.4029781222343445,-22.795862197875977,-0.1491362750530243,14.179414749145508,0.11198955774307251,2.1325716972351074,-0.33084434270858765,0.0,0.0,0.0,0.0,0.0,0.0,0.0,-0.3552361071726536,-0.019706427287903457,-0.22102868959657743,0.2917849854899453,-0.11408305797712164,-0.04232860943470187,-0.36829205361993983,1.6756211784889823,0.05252468165242994,0.03005092541089183,-2.7523891510506604,0.03425285511215528,2.7663741468323604,0.7691749309140371,1.6754973547542302,0.052104326824870026,0.029969505109285054,-2.752394845125968,0.0342448039870148,2.7663679543071322,0.7691630533470046,0.0015117459385506325,-0.0005841412539897522,0.0002947148948199317,-0.0005797237881437544,0.00022998177575824102,0.000600995525859901,-0.0016189981043850613,0.0,0.0,0.0,0.0,0.0,0.0,0.0,-0.00012382373475205988,-0.0004203548275599142,-8.142030160677646e-05,-5.694075307705049e-06,-8.051125140476345e-06,-6.192525228154722e-06,-1.1877567032470004e-05,-0.0015117459385506325,0.0005841412539897522,-0.0002947148948199317,0.0005797237881437544,-0.00022998177575824102,-0.000600995525859901,0.0016189981043850613,0.4029781222343445,22.795862197875977,0.1491362750530243,-14.179414749145508,-0.11198955774307251,-2.1325716972351074,0.33084434270858765,0
29,0.13996505737304688,-0.4029781222343445,-22.819665908813477,-0.1253325641155243,14.131807327270508,0.1293845772743225,2.1389803886413574,-0.40591758489608765,0.0,0.0,0.0,0.0,0.0,0.0,0.0,-0.3562494302002603,-0.014084465951035777,-0.22086354881306944,0.2850249380844657,-0.11425753163269453,-0.04362129183467182,-0.3680769210427233,1.6756211784889823,0.05252635176349288,0.030049254975036566,-2.752387884964859,0.03425092233220736,2.766373434755537,0.7691831401130407,1.6754973547542302,0.052104326824870026,0.029969505109285054,-2.752394845125968,0.0342448039870148,2.7663679543071322,0.7691630533470046,0.0008077377802749129,1.431675581282323e-06,-0.0006113185984831119,3.578784650994585e-05,-0.00030772361022436245,0.00023157267003317747,0.0013648495210173885,0.0,0.0,0.0,0.0,0.0,0.0,0.0,-0.00012382373475205988,-0.00042202493862285306,-7.974986575151263e-05,-6.960161109237362e-06,-6.118345192561436e-06,-5.480448404870941e-06,-2.0086766036042647e-05,-0.0008077377802749129,-1.431675581282323e-06,0.0006113185984831119,-3.578784650994585e-05,0.00030772361022436245,-0.00023157267003317747,-0.0013648495210173885,0.4029781222343445,22.819665908813477,0.1253325641155243,-14.131807327270508,-0.1293845772743225,-2.1389803886413574,0.40591758489608765,0
30,0.14498519897460938,-0.4029781222343445,-22.819665908813477,-0.1253325641155243,14.131807327270508,0.1293845772743225,2.1389803886413574,-0.40591758489608765,0.0,0.0,0.0,0.0,0.0,0.0,0.0,-0.3562494302002603,-0.014084465951035777,-0.22086354881306944,0.2850249380844657,-0.11425753163269453,-0.04362129183467182,-0.3680769210427233,1.6756211784889823,0.05252635176349288,0.030049254975036566,-2.752387884964859,0.03425092233220736,2.766373434755537,0.7691831401130407,1.6754973547542302,0.052104326824870026,0.029969505109285054,-2.752394845125968,0.0342448039870148,2.7663679543071322,0.7691630533470046,0.0008077377802749129,1.431675581282323e-06,-0.0006113185984831119,3.578784650994585e-05,-0.00030772361022436245,0.00023157267003317747,0.0013648495210173885,0.0,0.0,0.0,0.0,0.0,0.0,0.0,-0.00012382373475205988,-0.00042202493862285306,-7.974986575151263e-05,-6.960161109237362e-06,-6.118345192561436e-06,-5.480448404870941e-06,-2.0086766036042647e-05,-0.0008077377802749129,-1.431675581282323e-06,0.0006113185984831119,-3.578784650994585e-05,0.00030772361022436245,-0.00023157267003317747,-0.0013648495210173885,0.4029781222343445,22.819665908813477,0.1253325641155243,-14.131807327270508,-0.1293845772743225,-2.1389803886413574,0.40591758489608765,0
31,0.15000009536743164,-0.4267818331718445,-22.819665908813477,-0.1491362750530243,14.179414749145508,0.12389141321182251,2.1517977714538574,-0.33725303411483765,0.0,0.0,0.0,0.0,0.0,0.0,0.0,-0.3619446864932113,-0.02091691336794525,-0.22462360319166558,0.28947858004035076,-0.11354548853252601,-0.04325175078146392,-0.36772153414630193,1.6756228489248377,0.05252848587731809,0.03005092541089183,-2.752391225848281,0.03425153268376986,2.7663720106018914,0.7691756284553326,1.6754973547542302,0.052104326824870026,0.029969505109285054,-2.752394845125968,0.0342448039870148,2.7663679543071322,0.7691630533470046,0.0008326951437669253,-0.0004810905343128786,4.4590596094289785e-05,-0.0005099199975792947,-0.00010927019361996737,-0.0005561889006499649,-0.0009048860206073393,0.0,0.0,0.0,0.0,0.0,0.0,0.0,-0.00012549417060747636,-0.00042415905244806706,-8.142030160677646e-05,-3.6192776868837484e-06,-6.728696755060881e-06,-4.056294759191559e-06,-1.2575108327972373e-05,-0.0008326951437669253,0.0004810905343128786,-4.4590596094289785e-05,0.0005099199975792947,0.00010927019361996737,0.0005561889006499649,0.0009048860206073393,0.4267818331718445,22.819665908813477,0.1491362750530243,-14.179414749145508,-0.12389141321182251,-2.1517977714538574,0.33725303411483765,0
32,0.15499544143676758,-0.4267818331718445,-22.819665908813477,-0.1491362750530243,14.179414749145508,0.12389141321182251,2.1517977714538574,-0.33725303411483765,0.0,0.0,0.0,0.0,0.0,0.0,0.0,-0.3619446864932113,-0.02091691336794525,-0.22462360319166558,0.28947858004035076,-0.11354548853252601,-0.04325175078146392,-0.36772153414630193,1.6756228489248377,0.05252848587731809,0.03005092541089183,-2.752391225848281,0.03425153268376986,2.7663720106018914,0.7691756284553326,1.6754973547542302,0.052104326824870026,0.029969505109285054,-2.752394845125968,0.0342448039870148,2.7663679543071322,0.7691630533470046,0.0008326951437669253,-0.0004810905343128786,4.4590596094289785e-05,-0.0005099199975792947,-0.00010927019361996737,-0.0005561889006499649,-0.0009048860206073393,0.0,0.0,0.0,0.0,0.0,0.0,0.0,-0.00012549417060747636,-0.00042415905244806706,-8.142030160677646e-05,-3.6192776868837484e-06,-6.728696755060881e-06,-4.056294759191559e-06,-1.2575108327972373e-05,-0.0008326951437669253,0.0004810905343128786,-4.4590596094289785e-05,0.0005099199975792947,0.00010927019361996737,0.0005561889006499649,0.0009048860206073393,0.4267818331718445,22.819665908813477,0.1491362750530243,-14.179414749145508,-0.12389141321182251,-2.1517977714538574,0.33725303411483765,0
33,0.16004180908203125,-0.3514034152030945,-22.847436904907227,-0.1253325641155243,14.207185745239258,0.11748272180557251,2.1389803886413574,-0.36471885442733765,0.0,0.0,0.0,0.0,0.0,0.0,0.0,-0.36345451866594786,-0.0139957814620058,-0.21903140348112868,0.28223352227032955,-0.11384349658024091,-0.045663046394161175,-0.3663439414133027,1.6756175592112958,0.05253051917737835,0.030049254975036566,-2.7523931661868435,0.03425224476059278,2.766373434755537,0.7691817414440201,1.6754973547542302,0.052104326824870026,0.029969505109285054,-2.752394845125968,0.0342448039870148,2.7663679543071322,0.7691630533470046,-0.00046200359862633486,0.0010353174134421755,-0.0004661698591578377,-0.001648423421105218,0.00013412977901554058,0.00014395289329638316,-0.0003598552116434988,0.0,0.0,0.0,0.0,0.0,0.0,0.0,-0.00012020445706562022,-0.00042619235250832693,-7.974986575151263e-05,-1.6789391246163632e-06,-7.4407735779769e-06,-5.480448404870941e-06,-1.8688097015440164e-05,0.00046200359862633486,-0.0010353174134421755,0.0004661698591578377,0.001648423421105218,-0.00013412977901554058,-0.00014395289329638316,0.0003598552116434988,0.3514034152030945,22.847436904907227,0.1253325641155243,-14.207185745239258,-0.11748272180557251,-2.1389803886413574,0.36471885442733765,0
34,0.16501808166503906,-0.3514034152030945,-22.847436904907227,-0.1253325641155243,14.207185745239258,0.11748272180557251,2.1389803886413574,-0.36471885442733765,0.0,0.0,0.0,0.0,0.0,0.0,0.0,-0.36345451866594786,-0.0139957814620058,-0.21903140348112868,0.28223352227032955,-0.11384349658024091,-0.045663046394161175,-0.3663439414133027,1.6756175592112958,0.05253051917737835,0.030049254975036566,-2.7523931661868435,0.03425224476059278,2.766373434755537,0.7691817414440201,1.6754973547542302,0.052104326824870026,0.029969505109285054,-2.752394845125968,0.0342448039870148,2.7663679543071322,0.7691630533470046,-0.00046200359862633486,0.0010353174134421755,-0.0004661698591578377,-0.001648423421105218,0.00013412977901554058,0.00014395289329638316,-0.0003598552116434988,0.0,0.0,0.0,0.0,0.0,0.0,0.0,-0.00012020445706562022,-0.00042619235250832693,-7.974986575151263e-05,-1.6789391246163632e-06,-7.4407735779769e-06,-5.480448404870941e-06,-1.8688097015440164e-05,0.00046200359862633486,-0.0010353174134421755,0.0004661698591578377,0.001648423421105218,-0.00013412977901554058,-0.00014395289329638316,0.0003598552116434988,0.3514034152030945,22.847436904907227,0.1253325641155243,-14.207185745239258,-0.11748272180557251,-2.1389803886413574,0.36471885442733765,0
35,0.16997933387756348,-0.3752071261405945,-22.871240615844727,-0.1491362750530243,14.179414749145508,0.1293845772743225,2.1261630058288574,-0.35098594427108765,0.0,0.0,0.0,0.0,0.0,0.0,0.0,-0.36758960621283066,-0.021797243471063068,-0.22332474292783377,0.2888584268901371,-0.11281607890610952,-0.04492868744589848,-0.3669937896076475,1.6756192296471513,0.05253005387199779,0.03005092541089183,-2.7523912258482333,0.03425092233220736,2.766374858909183,0.7691770763449878,1.6754973547542302,0.052104326824870026,0.029969505109285054,-2.752394845125968,0.0342448039870148,2.7663679543071322,0.7691630533470046,0.00032276376237754434,0.0011571055785303253,0.0004234572836684932,-0.0009550580106219781,-0.0002108028928750623,0.00041628769132798937,-0.0010053226345740171,0.0,0.0,0.0,0.0,0.0,0.0,0.0,-0.0001218748929210367,-0.00042572704712776077,-8.142030160677646e-05,-3.619277734845383e-06,-6.118345192561436e-06,-6.904602050994413e-06,-1.4022997983142993e-05,-0.00032276376237754434,-0.0011571055785303253,-0.0004234572836684932,0.0009550580106219781,0.0002108028928750623,-0.00041628769132798937,0.0010053226345740171,0.3752071261405945,22.871240615844727,0.1491362750530243,-14.179414749145508,-0.1293845772743225,-2.1261630058288574,0.35098594427108765,0
36,0.17497611045837402,-0.3752071261405945,-22.871240615844727,-0.1491362750530243,14.179414749145508,0.1293845772743225,2.1261630058288574,-0.35098594427108765,0.0,0.0,0.0,0.0,0.0,0.0,0.0,-0.36758960621283066,-0.021797243471063068,-0.22332474292783377,0.2888584268901371,-0.11281607890610952,-0.04492868744589848,-0.3669937896076475,1.6756192296471513,0.05253005387199779,0.03005092541089183,-2.7523912258482333,0.03425092233220736,2.766374858909183,0.7691770763449878,1.6754973547542302,0.052104326824870026,0.029969505109285054,-2.752394845125968,0.0342448039870148,2.7663679543071322,0.7691630533470046,0.00032276376237754434,0.0011571055785303253,0.0004234572836684932,-0.0009550580106219781,-0.0002108028928750623,0.00041628769132798937,-0.0010053226345740171,0.0,0.0,0.0,0.0,0.0,0.0,0.0,-0.0001218748929210367,-0.00042572704712776077,-8.142030160677646e-05,-3.619277734845383e-06,-6.118345192561436e-06,-6.904602050994413e-06,-1.4022997983142993e-05,-0.00032276376237754434,-0.0011571055785303253,-0.0004234572836684932,0.0009550580106219781,0.0002108028928750623,-0.00041628769132798937,0.0010053226345740171,0.3752071261405945,22.871240615844727,0.1491362750530243,-14.179414749145508,-0.1293845772743225,-2.1261630058288574,0.35098594427108765,0
37,0.179962158203125,-0.3752071261405945,-22.819665908813477,-0.1729399859905243,14.131807327270508,0.12389141321182251,2.1517977714538574,-0.37845176458358765,0.0,0.0,0.0,0.0,0.0,0.0,0.0,-0.3664424274681723,-0.024700270348407424,-0.22174006304011415,0.29211481202092693,-0.11192774972321458,-0.04491825438605312,-0.36741197717622365,1.6756192296471513,0.05252919584262678,0.030052595846747094,-2.752387884976571,0.03425153122227051,2.7663720106018914,0.7691801014371068,1.6754973547542302,0.052104326824870026,0.029969505109285054,-2.752394845125968,0.0342448039870148,2.7663679543071322,0.7691630533470046,0.00033937886753246637,-0.0005612866590656992,0.0010490283925993164,0.0006165734470315811,-0.0002093026414337722,-0.00045933481694699415,0.0009016802271922888,0.0,0.0,0.0,0.0,0.0,0.0,0.0,-0.0001218748929210367,-0.00042486901775675573,-8.309073746204029e-05,-6.96014939727263e-06,-6.7272352557087856e-06,-4.056294759191559e-06,-1.7048090102167457e-05,-0.00033937886753246637,0.0005612866590656992,-0.0010490283925993164,-0.0006165734470315811,0.0002093026414337722,0.00045933481694699415,-0.0009016802271922888,0.3752071261405945,22.819665908813477,0.1729399859905243,-14.131807327270508,-0.12389141321182251,-2.1517977714538574,0.37845176458358765,0
38,0.18498611450195312,-0.3752071261405945,-22.819665908813477,-0.1729399859905243,14.131807327270508,0.12389141321182251,2.1517977714538574,-0.37845176458358765,0.0,0.0,0.0,0.0,0.0,0.0,0.0,-0.3664424274681723,-0.024700270348407424,-0.22174006304011415,0.29211481202092693,-0.11192774972321458,-0.04491825438605312,-0.36741197717622365,1.6756192296471513,0.05252919584262678,0.030052595846747094,-2.752387884976571,0.03425153122227051,2.7663720106018914,0.7691801014371068,1.6754973547542302,0.052104326824870026,0.029969505109285054,-2.752394845125968,0.0342448039870148,2.7663679543071322,0.7691630533470046,0.00033937886753246637,-0.0005612866590656992,0.0010490283925993164,0.0006165734470315811,-0.0002093026414337722,-0.00045933481694699415,0.0009016802271922888,0.0,0.0,0.0,0.0,0.0,0.0,0.0,-0.0001218748929210367,-0.00042486901775675573,-8.309073746204029e-05,-6.96014939727263e-06,-6.7272352557087856e-06,-4.056294759191559e-06,-1.7048090102167457e-05,-0.00033937886753246637,0.0005612866590656992,-0.0010490283925993164,-0.0006165734470315811,0.0002093026414337722,0.00045933481694699415,-0.0009016802271922888,0.3752071261405945,22.819665908813477,0.1729399859905243,-14.131807327270508,-0.12389141321182251,-2.1517977714538574,0.37845176458358765,0
39,0.18996620178222656,-0.3752071261405945,-22.795862197875977,-0.1729399859905243,14.155611038208008,0.11198955774307251,2.1389803886413574,-0.33725303411483765,0.0,0.0,0.0,0.0,0.0,0.0,0.0,-0.3736303216064683,-0.021417396150297086,-0.22566528917072348,0.2896289975637072,-0.11130278114107152,-0.04575159592106647,-0.36677348371988117,1.6756192296471513,0.05252468430277579,0.030052595846747094,-2.752389555412426,0.034252855112147026,2.766373434755537,0.7691755107178365,1.6754973547542302,0.052104326824870026,0.029969505109285054,-2.752394845125968,0.0342448039870148,2.7663679543071322,0.7691630533470046,-0.00047790845000820055,-0.0008079016453160335,0.0005947801722822297,0.00010008579925544826,0.0004546281271197078,5.193082768400306e-06,-0.0007989233444873925,0.0,0.0,0.0,0.0,0.0,0.0,0.0,-0.0001218748929210367,-0.0004203574779057667,-8.309073746204029e-05,-5.289713542300234e-06,-8.051125132226e-06,-5.480448404870941e-06,-1.2457370831886472e-05,0.00047790845000820055,0.0008079016453160335,-0.0005947801722822297,-0.00010008579925544826,-0.0004546281271197078,-5.193082768400306e-06,0.0007989233444873925,0.3752071261405945,22.795862197875977,0.1729399859905243,-14.155611038208008,-0.11198955774307251,-2.1389803886413574,0.33725303411483765,0
40,0.195526123046875,-0.3752071261405945,-22.795862197875977,-0.1729399859905243,14.155611038208008,0.11198955774307251,2.1389803886413574,-0.33725303411483765,0.0,0.0,0.0,0.0,0.0,0.0,0.0,-0.3736303216064683,-0.021417396150297086,-0.22566528917072348,0.2896289975637072,-0.11130278114107152,-0.04575159592106647,-0.36677348371988117,1.6756192296471513,0.05252468430277579,0.030052595846747094,-2.752389555412426,0.034252855112147026,2.766373434755537,0.7691755107178365,1.6754973547542302,0.052104326824870026,0.029969505109285054,-2.752394845125968,0.0342448039870148,2.7663679543071322,0.7691630533470046,-0.00047790845000820055,-0.0008079016453160335,0.0005947801722822297,0.00010008579925544826,0.0004546281271197078,5.193082768400306e-06,-0.0007989233444873925,0.0,0.0,0.0,0.0,0.0,0.0,0.0,-0.0001218748929210367,-0.0004203574779057667,-8.309073746204029e-05,-5.289713542300234e-06,-8.051125132226e-06,-5.480448404870941e-06,-1.2457370831886472e-05,0.00047790845000820055,0.0008079016453160335,-0.0005947801722822297,-0.00010008579925544826,-0.0004546281271197078,-5.193082768400306e-06,0.0007989233444873925,0.3752071261405945,22.795862197875977,0.1729399859905243,-14.155611038208008,-0.11198955774307251,-2.1389803886413574,0.33725303411483765,0
41,0.20046043395996094,-0.4029781222343445,-22.847436904907227,-0.1491362750530243,14.155611038208008,0.1293845772743225,2.1389803886413574,-0.37204307317733765,0.0,0.0,0.0,0.0,0.0,0.0,0.0,-0.370695926236811,-0.018904411238010895,-0.22210270102693436,0.2884207061483582,-0.11173666721975924,-0.046258264790649484,-0.3657101685029111,1.6756211784889823,0.052530466980399725,0.03005092541089183,-2.752389555412426,0.03425092233220736,2.766373434755537,0.7691793893596107,1.6754973547542302,0.052104326824870026,0.029969505109285054,-2.752394845125968,0.0342448039870148,2.7663679543071322,0.7691630533470046,0.0008941453637942103,0.0008095440489211903,0.00015723673932765942,5.348633463050226e-05,-4.5302005662562115e-05,8.595831519003011e-05,-0.0001940206817496156,0.0,0.0,0.0,0.0,0.0,0.0,0.0,-0.00012382373475205988,-0.0004261401555296987,-8.142030160677646e-05,-5.289713542300234e-06,-6.118345192561436e-06,-5.480448404870941e-06,-1.6336012606088524e-05,-0.0008941453637942103,-0.0008095440489211903,-0.00015723673932765942,-5.348633463050226e-05,4.5302005662562115e-05,-8.595831519003011e-05,0.0001940206817496156,0.4029781222343445,22.847436904907227,0.1491362750530243,-14.155611038208008,-0.1293845772743225,-2.1389803886413574,0.37204307317733765,0
42,0.20497536659240723,-0.4029781222343445,-22.847436904907227,-0.1491362750530243,14.155611038208008,0.1293845772743225,2.1389803886413574,-0.37204307317733765,0.0,0.0,0.0,0.0,0.0,0.0,0.0,-0.370695926236811,-0.018904411238010895,-0.22210270102693436,0.2884207061483582,-0.11173666721975924,-0.046258264790649484,-0.3657101685029111,1.6756211784889823,0.052530466980399725,0.03005092541089183,-2.752389555412426,0.03425092233220736,2.766373434755537,0.7691793893596107,1.6754973547542302,0.052104326824870026,0.029969505109285054,-2.752394845125968,0.0342448039870148,2.7663679543071322,0.7691630533470046,0.0008941453637942103,0.0008095440489211903,0.00015723673932765942,5.348633463050226e-05,-4.5302005662562115e-05,8.595831519003011e-05,-0.0001940206817496156,0.0,0.0,0.0,0.0,0.0,0.0,0.0,-0.00012382373475205988,-0.0004261401555296987,-8.142030160677646e-05,-5.289713542300234e-06,-6.118345192561436e-06,-5.480448404870941e-06,-1.6336012606088524e-05,-0.0008941453637942103,-0.0008095440489211903,-0.00015723673932765942,-5.348633463050226e-05,4.5302005662562115e-05,-8.595831519003011e-05,0.0001940206817496156,0.4029781222343445,22.847436904907227,0.1491362750530243,-14.155611038208008,-0.1293845772743225,-2.1389803886413574,0.37204307317733765,0
43,0.20998311042785645,-0.3752071261405945,-22.847436904907227,-0.09756157547235489,14.131807327270508,0.11748272180557251,2.1453890800476074,-0.38577598333358765,0.0,0.0,0.0,0.0,0.0,0.0,0.0,-0.3708936505899019,-0.013941995751206769,-0.225542499320713,0.28717902585029587,-0.11049495772224391,-0.04612245970397255,-0.3671364779895016,1.6756192296471513,0.052528625094865396,0.030047306133728274,-2.752387884976571,0.03425224476059278,2.7663727226787143,0.7691809021567863,1.6754973547542302,0.052104326824870026,0.029969505109285054,-2.752394845125968,0.0342448039870148,2.7663679543071322,0.7691630533470046,0.00017660214798383034,0.001222746605359957,-0.0010115319687783641,0.00034910827470813357,0.0002092129970995747,-0.00014389366225217603,0.0005265597508533318,0.0,0.0,0.0,0.0,0.0,0.0,0.0,-0.0001218748929210367,-0.00042429826999536985,-7.780102444322062e-05,-6.96014939727263e-06,-7.4407735779769e-06,-4.76837158203125e-06,-1.7848809781617625e-05,-0.00017660214798383034,-0.001222746605359957,0.0010115319687783641,-0.00034910827470813357,-0.0002092129970995747,0.00014389366225217603,-0.0005265597508533318,0.3752071261405945,22.847436904907227,0.09756157547235489,-14.131807327270508,-0.11748272180557251,-2.1453890800476074,0.38577598333358765,0
44,0.21500253677368164,-0.3752071261405945,-22.847436904907227,-0.09756157547235489,14.131807327270508,0.11748272180557251,2.1453890800476074,-0.38577598333358765,0.0,0.0,0.0,0.0,0.0,0.0,0.0,-0.3708936505899019,-0.013941995751206769,-0.225542499320713,0.28717902585029587,-0.11049495772224391,-0.04612245970397255,-0.3671364779895016,1.6756192296471513,0.052528625094865396,0.030047306133728274,-2.752387884976571,0.03425224476059278,2.7663727226787143,0.7691809021567863,1.6754973547542302,0.052104326824870026,0.029969505109285054,-2.752394845125968,0.0342448039870148,2.7663679543071322,0.7691630533470046,0.00017660214798383034,0.001222746605359957,-0.0010115319687783641,0.00034910827470813357,0.0002092129970995747,-0.00014389366225217603,0.0005265597508533318,0.0,0.0,0.0,0.0,0.0,0.0,0.0,-0.0001218748929210367,-0.00042429826999536985,-7.780102444322062e-05,-6.96014939727263e-06,-7.4407735779769e-06,-4.76837158203125e-06,-1.7848809781617625e-05,-0.00017660214798383034,-0.001222746605359957,0.0010115319687783641,-0.00034910827470813357,-0.0002092129970995747,0.00014389366225217603,-0.0005265597508533318,0.3752071261405945,22.847436904907227,0.09756157547235489,-14.131807327270508,-0.11748272180557251,-2.1453890800476074,0.38577598333358765,0
45,0.22000455856323242,-0.3514034152030945,-22.847436904907227,-0.1253325641155243,14.155611038208008,0.12389141321182251,2.1325716972351074,-0.39218467473983765,0.0,0.0,0.0,0.0,0.0,0.0,0.0,-0.3660106988300663,-0.017650728454187112,-0.22109397384331161,0.2850545524956573,-0.11084838317597545,-0.045945226832934144,-0.36748290846256204,1.6756175592112958,0.05252904012460332,0.030049254975036566,-2.752389555412426,0.03425153268376986,2.7663741468323604,0.769181615686938,1.6754973547542302,0.052104326824870026,0.029969505109285054,-2.752394845125968,0.0342448039870148,2.7663679543071322,0.7691630533470046,-0.00011458124190083693,0.00030886296286360875,0.00032713997401782234,-0.0007698184232206807,-0.00019362580786655792,0.0002572648655245998,0.0008212770107715106,0.0,0.0,0.0,0.0,0.0,0.0,0.0,-0.00012020445706562022,-0.0004247132997332939,-7.974986575151263e-05,-5.289713542300234e-06,-6.728696755060881e-06,-6.192525228154722e-06,-1.8562339933358984e-05,0.00011458124190083693,-0.00030886296286360875,-0.00032713997401782234,0.0007698184232206807,0.00019362580786655792,-0.0002572648655245998,-0.0008212770107715106,0.3514034152030945,22.847436904907227,0.1253325641155243,-14.155611038208008,-0.12389141321182251,-2.1325716972351074,0.39218467473983765,0
46,0.22502470016479492,-0.3514034152030945,-22.847436904907227,-0.1253325641155243,14.155611038208008,0.12389141321182251,2.1325716972351074,-0.39218467473983765,0.0,0.0,0.0,0.0,0.0,0.0,0.0,-0.3660106988300663,-0.017650728454187112,-0.22109397384331161,0.2850545524956573,-0.11084838317597545,-0.045945226832934144,-0.36748290846256204,1.6756175592112958,0.05252904012460332,0.030049254975036566,-2.752389555412426,0.03425153268376986,2.7663741468323604,0.769181615686938,1.6754973547542302,0.052104326824870026,0.029969505109285054,-2.752394845125968,0.0342448039870148,2.7663679543071322,0.7691630533470046,-0.00011458124190083693,0.00030886296286360875,0.00032713997401782234,-0.0007698184232206807,-0.00019362580786655792,0.0002572648655245998,0.0008212770107715106,0.0,0.0,0.0,0.0,0.0,0.0,0.0,-0.00012020445706562022,-0.0004247132997332939,-7.974986575151263e-05,-5.289713542300234e-06,-6.728696755060881e-06,-6.192525228154722e-06,-1.8562339933358984e-05,0.00011458124190083693,-0.00030886296286360875,-0.00032713997401782234,0.0007698184232206807,0.00019362580786655792,-0.0002572648655245998,-0.0008212770107715106,0.3514034152030945,22.847436904907227,0.1253325641155243,-14.155611038208008,-0.12389141321182251,-2.1325716972351074,0.39218467473983765,0
47,0.23001360893249512,-0.4029781222343445,-22.871240615844727,-0.1491362750530243,14.179414749145508,0.11748272180557251,2.1389803886413574,-0.38577598333358765,0.0,0.0,0.0,0.0,0.0,0.0,0.0,-0.3715351998279852,-0.01974581681844434,-0.22365874855489654,0.2899751597844835,-0.11038067374495053,-0.04570710040505232,-0.36599366508426817,1.6756211784889823,0.05253291742803946,0.03005092541089183,-2.752391225848281,0.03425224476059278,2.766373434755537,0.7691809023180786,1.6754973547542302,0.052104326824870026,0.029969505109285054,-2.752394845125968,0.0342448039870148,2.7663679543071322,0.7691630533470046,0.000776098869785153,0.0010430209743620444,0.00027288568307914213,-0.0004664741034700034,9.752973160719934e-05,-0.00012603785097639836,0.0009190184427830279,0.0,0.0,0.0,0.0,0.0,0.0,0.0,-0.00012382373475205988,-0.00042859060316943753,-8.142030160677646e-05,-3.6192776868837484e-06,-7.4407735779769e-06,-5.480448404870941e-06,-1.7848971073930464e-05,-0.000776098869785153,-0.0010430209743620444,-0.00027288568307914213,0.0004664741034700034,-9.752973160719934e-05,0.00012603785097639836,-0.0009190184427830279,0.4029781222343445,22.871240615844727,0.1491362750530243,-14.179414749145508,-0.11748272180557251,-2.1389803886413574,0.38577598333358765,0
48,0.2349855899810791,-0.4029781222343445,-22.871240615844727,-0.1491362750530243,14.179414749145508,0.11748272180557251,2.1389803886413574,-0.38577598333358765,0.0,0.0,0.0,0.0,0.0,0.0,0.0,-0.3715351998279852,-0.01974581681844434,-0.22365874855489654,0.2899751597844835,-0.11038067374495053,-0.04570710040505232,-0.36599366508426817,1.6756211784889823,0.05253291742803946,0.03005092541089183,-2.752391225848281,0.03425224476059278,2.766373434755537,0.7691809023180786,1.6754973547542302,0.052104326824870026,0.029969505109285054,-2.752394845125968,0.0342448039870148,2.7663679543071322,0.7691630533470046,0.000776098869785153,0.0010430209743620444,0.00027288568307914213,-0.0004664741034700034,9.752973160719934e-05,-0.00012603785097639836,0.0009190184427830279,0.0,0.0,0.0,0.0,0.0,0.0,0.0,-0.00012382373475205988,-0.00042859060316943753,-8.142030160677646e-05,-3.6192776868837484e-06,-7.4407735779769e-06,-5.480448404870941e-06,-1.7848971073930464e-05,-0.000776098869785153,-0.0010430209743620444,-0.00027288568307914213,0.0004664741034700034,-9.752973160719934e-05,0.00012603785097639836,-0.0009190184427830279,0.4029781222343445,22.871240615844727,0.1491362750530243,-14.179414749145508,-0.11748272180557251,-2.1389803886413574,0.38577598333358765,0
49,0.23996615409851074,-0.4029781222343445,-22.871240615844727,-0.1491362750530243,14.179414749145508,0.11748272180557251,2.1389803886413574,-0.38577598333358765,0.0,0.0,0.0,0.0,0.0,0.0,0.0,-0.3715351998279852,-0.01974581681844434,-0.22365874855489654,0.2899751597844835,-0.11038067374495053,-0.04570710040505232,-0.36599366508426817,1.6756211784889823,0.05253291742803946,0.03005092541089183,-2.752391225848281,0.03425224476059278,2.766373434755537,0.7691809023180786,1.6754973547542302,0.052104326824870026,0.029969505109285054,-2.752394845125968,0.0342448039870148,2.7663679543071322,0.7691630533470046,0.000776098869785153,0.0010430209743620444,0.00027288568307914213,-0.0004664741034700034,9.752973160719934e-05,-0.00012603785097639836,0.0009190184427830279,0.0,0.0,0.0,0.0,0.0,0.0,0.0,-0.00012382373475205988,-0.00042859060316943753,-8.142030160677646e-05,-3.6192776868837484e-06,-7.4407735779769e-06,-5.480448404870941e-06,-1.7848971073930464e-05,-0.000776098869785153,-0.0010430209743620444,-0.00027288568307914213,0.0004664741034700034,-9.752973160719934e-05,0.00012603785097639836,-0.0009190184427830279,0.4029781222343445,22.871240615844727,0.1491362750530243,-14.179414749145508,-0.11748272180557251,-2.1389803886413574,0.38577598333358765,0
50,0.24496817588806152,-0.3236324191093445,-22.819665908813477,-0.1491362750530243,14.155611038208008,0.1293845772743225,2.1389803886413574,-0.36471885442733765,0.0,0.0,0.0,0.0,0.0,0.0,0.0,-0.36349386232359343,-0.021517006621312878,-0.2142448550990249,0.2859518503285791,-0.11258955313343255,-0.046627315925461967,-0.36615432226708383,1.6756156103694648,0.052527097253050645,0.03005092541089183,-2.752389555412426,0.03425092233220736,2.766373434755537,0.7691785625294114,1.6754973547542302,0.052104326824870026,0.029969505109285054,-2.752394845125968,0.0342448039870148,2.7663679543071322,0.7691630533470046,-0.0009421516619630831,-0.000327123315361652,0.00014088444049811604,-0.0001841415380236469,0.002585619497931255,-3.184199689086887e-05,-7.46289102633403e-05,0.0,0.0,0.0,0.0,0.0,0.0,0.0,-0.00011825561523459704,-0.00042277042818061883,-8.142030160677646e-05,-5.289713542300234e-06,-6.118345192561436e-06,-5.480448404870941e-06,-1.5509182406781008e-05,0.0009421516619630831,0.000327123315361652,-0.00014088444049811604,0.0001841415380236469,-0.002585619497931255,3.184199689086887e-05,7.46289102633403e-05,0.3236324191093445,22.819665908813477,0.1491362750530243,-14.155611038208008,-0.1293845772743225,-2.1389803886413574,0.36471885442733765,0
51,0.24996256828308105,-0.3236324191093445,-22.819665908813477,-0.1491362750530243,14.155611038208008,0.1293845772743225,2.1389803886413574,-0.36471885442733765,0.0,0.0,0.0,0.0,0.0,0.0,0.0,-0.36349386232359343,-0.021517006621312878,-0.2142448550990249,0.2859518503285791,-0.11258955313343255,-0.046627315925461967,-0.36615432226708383,1.6756156103694648,0.052527097253050645,0.03005092541089183,-2.752389555412426,0.03425092233220736,2.766373434755537,0.7691785625294114,1.6754973547542302,0.052104326824870026,0.029969505109285054,-2.752394845125968,0.0342448039870148,2.7663679543071322,0.7691630533470046,-0.0009421516619630831,-0.000327123315361652,0.00014088444049811604,-0.0001841415380236469,0.002585619497931255,-3.184199689086887e-05,-7.46289102633403e-05,0.0,0.0,0.0,0.0,0.0,0.0,0.0,-0.00011825561523459704,-0.00042277042818061883,-8.142030160677646e-05,-5.289713542300234e-06,-6.118345192561436e-06,-5.480448404870941e-06,-1.5509182406781008e-05,0.0009421516619630831,0.000327123315361652,-0.00014088444049811604,0.0001841415380236469,-0.002585619497931255,3.184199689086887e-05,7.46289102633403e-05,0.3236324191093445,22.819665908813477,0.1491362750530243,-14.155611038208008,-0.1293845772743225,-2.1389803886413574,0.36471885442733765,0
52,0.25496482849121094,-0.3236324191093445,-22.819665908813477,-0.1491362750530243,14.155611038208008,0.1293845772743225,2.1389803886413574,-0.36471885442733765,0.0,0.0,0.0,0.0,0.0,0.0,0.0,-0.36349386232359343,-0.021517006621312878,-0.2142448550990249,0.2859518503285791,-0.11258955313343255,-0.046627315925461967,-0.36615432226708383,1.6756156103694648,0.052527097253050645,0.03005092541089183,-2.752389555412426,0.03425092233220736,2.766373434755537,0.7691785625294114,1.6754973547542302,0.052104326824870026,0.029969505109285054,-2.752394845125968,0.0342448039870148,2.7663679543071322,0.7691630533470046,-0.0009421516619630831,-0.000327123315361652,0.00014088444049811604,-0.0001841415380236469,0.002585619497931255,-3.184199689086887e-05,-7.46289102633403e-05,0.0,0.0,0.0,0.0,0.0,0.0,0.0,-0.00011825561523459704,-0.00042277042818061883,-8.142030160677646e-05,-5.289713542300234e-06,-6.118345192561436e-06,-5.480448404870941e-06,-1.5509182406781008e-05,0.0009421516619630831,0.000327123315361652,-0.00014088444049811604,0.0001841415380236469,-0.002585619497931255,3.184199689086887e-05,7.46289102633403e-05,0.3236324191093445,22.819665908813477,0.1491362750530243,-14.155611038208008,-0.1293845772743225,-2.1389803886413574,0.36471885442733765,0
53,0.25997233390808105,-0.3236324191093445,-22.819665908813477,-0.1491362750530243,14.155611038208008,0.1293845772743225,2.1389803886413574,-0.36471885442733765,0.0,0.0,0.0,0.0,0.0,0.0,0.0,-0.36349386232359343,-0.021517006621312878,-0.2142448550990249,0.2859518503285791,-0.11258955313343255,-0.046627315925461967,-0.36615432226708383,1.6756156103694648,0.052527097253050645,0.03005092541089183,-2.752389555412426,0.03425092233220736,2.766373434755537,0.7691785625294114,1.6754973547542302,0.052104326824870026,0.029969505109285054,-2.752394845125968,0.0342448039870148,2.7663679543071322,0.7691630533470046,-0.0009421516619630831,-0.000327123315361652,0.00014088444049811604,-0.0001841415380236469,0.002585619497931255,-3.184199689086887e-05,-7.46289102633403e-05,0.0,0.0,0.0,0.0,0.0,0.0,0.0,-0.00011825561523459704,-0.00042277042818061883,-8.142030160677646e-05,-5.289713542300234e-06,-6.118345192561436e-06,-5.480448404870941e-06,-1.5509182406781008e-05,0.0009421516619630831,0.000327123315361652,-0.00014088444049811604,0.0001841415380236469,-0.002585619497931255,3.184199689086887e-05,7.46289102633403e-05,0.3236324191093445,22.819665908813477,0.1491362750530243,-14.155611038208008,-0.1293845772743225,-2.1389803886413574,0.36471885442733765,0
54,0.2650136947631836,-0.3514034152030945,-22.795862197875977,-0.1491362750530243,14.179414749145508,0.12389141321182251,2.1389803886413574,-0.34457725286483765,0.0,0.0,0.0,0.0,0.0,0.0,0.0,-0.36864909129404,-0.025809594409195866,-0.2206357917010895,0.29385832110335036,-0.11190250168689304,-0.04509083761429248,-0.3663649979329487,1.6756175592112958,0.052524944511142965,0.03005092541089183,-2.752391225848281,0.03425153268376986,2.766373434755537,0.7691763245198543,1.6754973547542302,0.052104326824870026,0.029969505109285054,-2.752394845125968,0.0342448039870148,2.7663679543071322,0.7691630533470046,-0.0008501684159506874,-0.0009322546349665411,0.00033431396779208484,-0.00013346691326696848,0.00016692812179738375,0.00025738873918706816,-0.0007977364351512598,0.0,0.0,0.0,0.0,0.0,0.0,0.0,-0.00012020445706562022,-0.0004206176862729394,-8.142030160677646e-05,-3.6192776868837484e-06,-6.728696755060881e-06,-5.480448404870941e-06,-1.3271172849660395e-05,0.0008501684159506874,0.0009322546349665411,-0.00033431396779208484,0.00013346691326696848,-0.00016692812179738375,-0.00025738873918706816,0.0007977364351512598,0.3514034152030945,22.795862197875977,0.1491362750530243,-14.179414749145508,-0.12389141321182251,-2.1389803886413574,0.34457725286483765,0
55,0.27001404762268066,-0.3514034152030945,-22.795862197875977,-0.1491362750530243,14.179414749145508,0.12389141321182251,2.1389803886413574,-0.34457725286483765,0.0,0.0,0.0,0.0,0.0,0.0,0.0,-0.36864909129404,-0.025809594409195866,-0.2206357917010895,0.29385832110335036,-0.11190250168689304,-0.04509083761429248,-0.3663649979329487,1.6756175592112958,0.052524944511142965,0.03005092541089183,-2.752391225848281,0.03425153268376986,2.766373434755537,0.7691763245198543,1.6754973547542302,0.052104326824870026,0.029969505109285054,-2.752394845125968,0.0342448039870148,2.7663679543071322,0.7691630533470046,-0.0008501684159506874,-0.0009322546349665411,0.00033431396779208484,-0.00013346691326696848,0.00016692812179738375,0.00025738873918706816,-0.0007977364351512598,0.0,0.0,0.0,0.0,0.0,0.0,0.0,-0.00012020445706562022,-0.0004206176862729394,-8.142030160677646e-05,-3.6192776868837484e-06,-6.728696755060881e-06,-5.480448404870941e-06,-1.3271172849660395e-05,0.0008501684159506874,0.0009322546349665411,-0.00033431396779208484,0.00013346691326696848,-0.00016692812179738375,-0.00025738873918706816,0.0007977364351512598,0.3514034152030945,22.795862197875977,0.1491362750530243,-14.179414749145508,-0.12389141321182251,-2.1389803886413574,0.34457725286483765,0
56,0.2750091552734375,-0.3752071261405945,-22.795862197875977,-0.1729399859905243,14.179414749145508,0.11748272180557251,2.1453890800476074,-0.38577598333358765,0.0,0.0,0.0,0.0,0.0,0.0,0.0,-0.34312576698571845,-0.01916620650592029,-0.19374514168891452,0.2879413959220687,-0.11408261564172179,-0.046021769573109945,-0.3658294853591716,1.6756192296471513,0.0525250009102183,0.03005330613543067,-2.752391225848281,0.03425224476059278,2.766372369466004,0.7691809021745099,1.6754973547542302,0.052104326824870026,0.029969505109285054,-2.752394845125968,0.0342448039870148,2.7663679543071322,0.7691630533470046,0.00011096416617957064,-0.0005021275264807475,0.0004592910938128272,-0.0007341698986176661,4.348562670101147e-05,-5.368596881358337e-05,0.000576055710885412,0.0,0.0,0.0,0.0,0.0,0.0,0.0,-0.0001218748929210367,-0.00042067408534827294,-8.380102614561485e-05,-3.6192776868837484e-06,-7.4407735779769e-06,-4.415158871839964e-06,-1.784882750521799e-05,-0.00011096416617957064,0.0005021275264807475,-0.0004592910938128272,0.0007341698986176661,-4.348562670101147e-05,5.368596881358337e-05,-0.000576055710885412,0.3752071261405945,22.795862197875977,0.1729399859905243,-14.179414749145508,-0.11748272180557251,-2.1453890800476074,0.38577598333358765,0
57,0.2799673080444336,-0.3752071261405945,-22.795862197875977,-0.1729399859905243,14.179414749145508,0.11748272180557251,2.1453890800476074,-0.38577598333358765,0.0,0.0,0.0,0.0,0.0,0.0,0.0,-0.34312576698571845,-0.01916620650592029,-0.19374514168891452,0.2879413959220687,-0.11408261564172179,-0.046021769573109945,-0.3658294853591716,1.6756192296471513,0.0525250009102183,0.03005330613543067,-2.752391225848281,0.03425224476059278,2.766372369466004,0.7691809021745099,1.6754973547542302,0.052104326824870026,0.029969505109285054,-2.752394845125968,0.0342448039870148,2.7663679543071322,0.7691630533470046,0.00011096416617957064,-0.0005021275264807475,0.0004592910938128272,-0.0007341698986176661,4.348562670101147e-05,-5.368596881358337e-05,0.000576055710885412,0.0,0.0,0.0,0.0,0.0,0.0,0.0,-0.0001218748929210367,-0.00042067408534827294,-8.380102614561485e-05,-3.6192776868837484e-06,-7.4407735779769e-06,-4.415158871839964e-06,-1.784882750521799e-05,-0.00011096416617957064,0.0005021275264807475,-0.0004592910938128272,0.0007341698986176661,-4.348562670101147e-05,5.368596881358337e-05,-0.000576055710885412,0.3752071261405945,22.795862197875977,0.1729399859905243,-14.179414749145508,-0.11748272180557251,-2.1453890800476074,0.38577598333358765,0
58,0.2849905490875244,-0.3752071261405945,-22.819665908813477,-0.1253325641155243,14.155611038208008,0.10558086633682251,2.1453890800476074,-0.39950889348983765,0.0,0.0,0.0,0.0,0.0,0.0,0.0,-0.37479432754272274,-0.018314071988855297,-0.22507097440529403,0.2890783539236519,-0.11180546026120028,-0.04507558610532916,-0.36496931487926826,1.6756192296471513,0.05252706205397867,0.030049254979046168,-2.752389555412426,0.03425356718897819,2.7663727226767203,0.7691824280354712,1.6754973547542302,0.052104326824870026,0.029969505109285054,-2.752394845125968,0.0342448039870148,2.7663679543071322,0.7691630533470046,0.0004788196649933254,0.00016077925477059375,-0.00031741069150550044,-0.00033552719653511383,0.000469690149228589,-0.00018516081970008789,0.0014582891978384455,0.0,0.0,0.0,0.0,0.0,0.0,0.0,-0.0001218748929210367,-0.00042273522910864225,-7.974986976111431e-05,-5.289713542300234e-06,-8.763201963392364e-06,-4.768369588070698e-06,-1.9374688466577972e-05,-0.0004788196649933254,-0.00016077925477059375,0.00031741069150550044,0.00033552719653511383,-0.000469690149228589,0.00018516081970008789,-0.0014582891978384455,0.3752071261405945,22.819665908813477,0.1253325641155243,-14.155611038208008,-0.10558086633682251,-2.1453890800476074,0.39950889348983765,0
59,0.28997063636779785,-0.3752071261405945,-22.819665908813477,-0.1253325641155243,14.155611038208008,0.10558086633682251,2.1453890800476074,-0.39950889348983765,0.0,0.0,0.0,0.0,0.0,0.0,0.0,-0.37479432754272274,-0.018314071988855297,-0.22507097440529403,0.2890783539236519,-0.11180546026120028,-0.04507558610532916,-0.36496931487926826,1.6756192296471513,0.05252706205397867,0.030049254979046168,-2.752389555412426,0.03425356718897819,2.7663727226767203,0.7691824280354712,1.6754973547542302,0.052104326824870026,0.029969505109285054,-2.752394845125968,0.0342448039870148,2.7663679543071322,0.7691630533470046,0.0004788196649933254,0.00016077925477059375,-0.00031741069150550044,-0.00033552719653511383,0.000469690149228589,-0.00018516081970008789,0.0014582891978384455,0.0,0.0,0.0,0.0,0.0,0.0,0.0,-0.0001218748929210367,-0.00042273522910864225,-7.974986976111431e-05,-5.289713542300234e-06,-8.763201963392364e-06,-4.768369588070698e-06,-1.9374688466577972e-05,-0.0004788196649933254,-0.00016077925477059375,0.00031741069150550044,0.00033552719653511383,-0.000469690149228589,0.00018516081970008789,-0.0014582891978384455,0.3752071261405945,22.819665908813477,0.1253325641155243,-14.155611038208008,-0.10558086633682251,-2.1453890800476074,0.39950889348983765,0
60,0.2949638366699219,-0.3236324191093445,-22.847436904907227,-0.1491362750530243,14.179414749145508,0.11748272180557251,2.1453890800476074,-0.33084434270858765,0.0,0.0,0.0,0.0,0.0,0.0,0.0,-0.37440013418096035,-0.021512473373367407,-0.22654464654522227,0.29336051428548016,-0.11255155705709628,-0.043322587794894035,-0.3645368624134251,1.6756156103694648,0.05253054677144226,0.030050925410891854,-2.752391225848281,0.03425224476059278,2.766372722678714,0.769174811722892,1.6754973547542302,0.052104326824870026,0.029969505109285054,-2.752394845125968,0.0342448039870148,2.7663679543071322,0.7691630533470046,-0.0009011685310561001,0.000330878444318065,0.0009927675025005126,-0.00036834008322101183,-5.629748085540856e-05,-1.757627483810496e-05,-0.0012977565115201747,0.0,0.0,0.0,0.0,0.0,0.0,0.0,-0.00011825561523459704,-0.0004262199465722358,-8.142030160680075e-05,-3.6192776868837484e-06,-7.4407735779769e-06,-4.768371581587161e-06,-1.1758375887405137e-05,0.0009011685310561001,-0.000330878444318065,-0.0009927675025005126,0.00036834008322101183,5.629748085540856e-05,1.757627483810496e-05,0.0012977565115201747,0.3236324191093445,22.847436904907227,0.1491362750530243,-14.179414749145508,-0.11748272180557251,-2.1453890800476074,0.33084434270858765,0
61,0.29998302459716797,-0.3236324191093445,-22.847436904907227,-0.1491362750530243,14.179414749145508,0.11748272180557251,2.1453890800476074,-0.33084434270858765,0.0,0.0,0.0,0.0,0.0,0.0,0.0,-0.37440013418096035,-0.021512473373367407,-0.22654464654522227,0.29336051428548016,-0.11255155705709628,-0.043322587794894035,-0.3645368624134251,1.6756156103694648,0.05253054677144226,0.030050925410891854,-2.752391225848281,0.03425224476059278,2.766372722678714,0.769174811722892,1.6754973547542302,0.052104326824870026,0.029969505109285054,-2.752394845125968,0.0342448039870148,2.7663679543071322,0.7691630533470046,-0.0009011685310561001,0.000330878444318065,0.0009927675025005126,-0.00036834008322101183,-5.629748085540856e-05,-1.757627483810496e-05,-0.0012977565115201747,0.0,0.0,0.0,0.0,0.0,0.0,0.0,-0.00011825561523459704,-0.0004262199465722358,-8.142030160680075e-05,-3.6192776868837484e-06,-7.4407735779769e-06,-4.768371581587161e-06,-1.1758375887405137e-05,0.0009011685310561001,-0.000330878444318065,-0.0009927675025005126,0.00036834008322101183,5.629748085540856e-05,1.757627483810496e-05,0.0012977565115201747,0.3236324191093445,22.847436904907227,0.1491362750530243,-14.179414749145508,-0.11748272180557251,-2.1453890800476074,0.33084434270858765,0
62,0.3049740791320801,-0.3752071261405945,-22.847436904907227,-0.1491362750530243,14.155611038208008,0.11748272180557251,2.1582064628601074,-0.36471885442733765,0.0,0.0,0.0,0.0,0.0,0.0,0.0,-0.37810782016331596,-0.0234564615640606,-0.2298383550584704,0.29369259688157956,-0.11248638337627954,-0.042503835234988414,-0.3640680437793017,1.6756192296471513,0.052528625070857315,0.03005092541089183,-2.752389555412426,0.03425224476059278,2.766371298525068,0.7691796221137784,1.6754973547542302,0.052104326824870026,0.029969505109285054,-2.752394845125968,0.0342448039870148,2.7663679543071322,0.7691630533470046,-0.00040256495366280113,-7.761553182381157e-05,0.0005943835975662774,-0.00018402541186231478,8.356835130441978e-05,-0.000516480703121229,-0.0003692280567843467,0.0,0.0,0.0,0.0,0.0,0.0,0.0,-0.0001218748929210367,-0.0004242982459872896,-8.142030160677646e-05,-5.289713542300234e-06,-7.4407735779769e-06,-3.3442179359077784e-06,-1.65687667738057e-05,0.00040256495366280113,7.761553182381157e-05,-0.0005943835975662774,0.00018402541186231478,-8.356835130441978e-05,0.000516480703121229,0.0003692280567843467,0.3752071261405945,22.847436904907227,0.1491362750530243,-14.155611038208008,-0.11748272180557251,-2.1582064628601074,0.36471885442733765,0
63,0.3100306987762451,-0.3752071261405945,-22.847436904907227,-0.1491362750530243,14.155611038208008,0.11748272180557251,2.1582064628601074,-0.36471885442733765,0.0,0.0,0.0,0.0,0.0,0.0,0.0,-0.37810782016331596,-0.0234564615640606,-0.2298383550584704,0.29369259688157956,-0.11248638337627954,-0.042503835234988414,-0.3640680437793017,1.6756192296471513,0.052528625070857315,0.03005092541089183,-2.752389555412426,0.03425224476059278,2.766371298525068,0.7691796221137784,1.6754973547542302,0.052104326824870026,0.029969505109285054,-2.752394845125968,0.0342448039870148,2.7663679543071322,0.7691630533470046,-0.00040256495366280113,-7.761553182381157e-05,0.0005943835975662774,-0.00018402541186231478,8.356835130441978e-05,-0.000516480703121229,-0.0003692280567843467,0.0,0.0,0.0,0.0,0.0,0.0,0.0,-0.0001218748929210367,-0.0004242982459872896,-8.142030160677646e-05,-5.289713542300234e-06,-7.4407735779769e-06,-3.3442179359077784e-06,-1.65687667738057e-05,0.00040256495366280113,7.761553182381157e-05,-0.0005943835975662774,0.00018402541186231478,-8.356835130441978e-05,0.000516480703121229,0.0003692280567843467,0.3752071261405945,22.847436904907227,0.1491362750530243,-14.155611038208008,-0.11748272180557251,-2.1582064628601074,0.36471885442733765,0
64,0.3149838447570801,-0.3752071261405945,-22.847436904907227,-0.1491362750530243,14.155611038208008,0.11748272180557251,2.1517977714538574,-0.39950889348983765,0.0,0.0,0.0,0.0,0.0,0.0,0.0,-0.3735950121260848,-0.019110350610368563,-0.22436867335066046,0.2904516165728619,-0.11309468894613209,-0.042191987516714644,-0.363644882287242,1.6756192296471513,0.0525283045044854,0.03005092541089183,-2.752389555412426,0.03425224476059278,2.766372010601891,0.7691824280414528,1.6754973547542302,0.052104326824870026,0.029969505109285054,-2.752394845125968,0.0342448039870148,2.7663679543071322,0.7691630533470046,0.00042659411872413564,0.0004400885603035094,0.00013123836445295067,0.0001585255839648676,-0.009339221449988442,-0.0003766109954661747,0.0014739246173794307,0.0,0.0,0.0,0.0,0.0,0.0,0.0,-0.0001218748929210367,-0.00042397767961537686,-8.142030160677646e-05,-5.289713542300234e-06,-7.4407735779769e-06,-4.05629475874747e-06,-1.937469444812656e-05,-0.00042659411872413564,-0.0004400885603035094,-0.00013123836445295067,-0.0001585255839648676,0.009339221449988442,0.0003766109954661747,-0.0014739246173794307,0.3752071261405945,22.847436904907227,0.1491362750530243,-14.155611038208008,-0.11748272180557251,-2.1517977714538574,0.39950889348983765,0
65,0.3199958801269531,-0.3752071261405945,-22.847436904907227,-0.1491362750530243,14.155611038208008,0.11748272180557251,2.1517977714538574,-0.39950889348983765,0.0,0.0,0.0,0.0,0.0,0.0,0.0,-0.3735950121260848,-0.019110350610368563,-0.22436867335066046,0.2904516165728619,-0.11309468894613209,-0.042191987516714644,-0.363644882287242,1.6756192296471513,0.0525283045044854,0.03005092541089183,-2.752389555412426,0.03425224476059278,2.766372010601891,0.7691824280414528,1.6754973547542302,0.052104326824870026,0.029969505109285054,-2.752394845125968,0.0342448039870148,2.7663679543071322,0.7691630533470046,0.00042659411872413564,0.0004400885603035094,0.00013123836445295067,0.0001585255839648676,-0.009339221449988442,-0.0003766109954661747,0.0014739246173794307,0.0,0.0,0.0,0.0,0.0,0.0,0.0,-0.0001218748929210367,-0.00042397767961537686,-8.142030160677646e-05,-5.289713542300234e-06,-7.4407735779769e-06,-4.05629475874747e-06,-1.937469444812656e-05,-0.00042659411872413564,-0.0004400885603035094,-0.00013123836445295067,-0.0001585255839648676,0.009339221449988442,0.0003766109954661747,-0.0014739246173794307,0.3752071261405945,22.847436904907227,0.1491362750530243,-14.155611038208008,-0.11748272180557251,-2.1517977714538574,0.39950889348983765,0
66,0.3249630928039551,-0.3752071261405945,-22.819665908813477,-0.09756157547235489,14.155611038208008,0.11748272180557251,2.1453890800476074,-0.35098594427108765,0.0,0.0,0.0,0.0,0.0,0.0,0.0,-0.37212070955231175,-0.017475768243492545,-0.22522359754991497,0.2878800485561816,-0.11276174788111586,-0.04232600376918919,-0.36405705256662196,1.6756192296471513,0.052527070857279125,0.030047305159395375,-2.752388866647642,0.03425224476059278,2.766372722678714,0.769177036596669,1.6754973547542302,0.052104326824870026,0.029969505109285054,-2.752394845125968,0.0342448039870148,2.7663679543071322,0.7691630533470046,0.0003973282753883093,0.00029946611973704674,-0.0007214215969128647,-0.0002629143969494734,-0.00037109266910566834,-0.00011397509614317569,-0.0003257738317524467,0.0,0.0,0.0,0.0,0.0,0.0,0.0,-0.0001218748929210367,-0.0004227440324090989,-7.780005011032154e-05,-5.9784783261740415e-06,-7.4407735779769e-06,-4.768371581587161e-06,-1.3983249664395458e-05,-0.0003973282753883093,-0.00029946611973704674,0.0007214215969128647,0.0002629143969494734,0.00037109266910566834,0.00011397509614317569,0.0003257738317524467,0.3752071261405945,22.819665908813477,0.09756157547235489,-14.155611038208008,-0.11748272180557251,-2.1453890800476074,0.35098594427108765,0
67,0.32996654510498047,-0.3752071261405945,-22.819665908813477,-0.09756157547235489,14.155611038208008,0.11748272180557251,2.1453890800476074,-0.35098594427108765,0.0,0.0,0.0,0.0,0.0,0.0,0.0,-0.37212070955231175,-0.017475768243492545,-0.22522359754991497,0.2878800485561816,-0.11276174788111586,-0.04232600376918919,-0.36405705256662196,1.6756192296471513,0.052527070857279125,0.030047305159395375,-2.752388866647642,0.03425224476059278,2.766372722678714,0.769177036596669,1.6754973547542302,0.052104326824870026,0.029969505109285054,-2.752394845125968,0.0342448039870148,2.7663679543071322,0.7691630533470046,0.0003973282753883093,0.00029946611973704674,-0.0007214215969128647,-0.0002629143969494734,-0.00037109266910566834,-0.00011397509614317569,-0.0003257738317524467,0.0,0.0,0.0,0.0,0.0,0.0,0.0,-0.0001218748929210367,-0.0004227440324090989,-7.780005011032154e-05,-5.9784783261740415e-06,-7.4407735779769e-06,-4.768371581587161e-06,-1.3983249664395458e-05,-0.0003973282753883093,-0.00029946611973704674,0.0007214215969128647,0.0002629143969494734,0.00037109266910566834,0.00011397509614317569,0.0003257738317524467,0.3752071261405945,22.819665908813477,0.09756157547235489,-14.155611038208008,-0.11748272180557251,-2.1453890800476074,0.35098594427108765,0
68,0.3349745273590088,-0.3752071261405945,-22.819665908813477,-0.1253325641155243,14.155611038208008,0.11748272180557251,2.1325716972351074,-0.31711143255233765,0.0,0.0,0.0,0.0,0.0,0.0,0.0,-0.36460069526480043,-0.02278097532939847,-0.21720008175257732,0.2884690755487302,-0.1145956821161689,-0.041377885037307695,-0.365368395227379,1.6756192296471513,0.05252716760896468,0.030049254975031067,-2.752389555408538,0.03425224476059278,2.76637414683236,0.7691732727620335,1.6754973547542302,0.052104326824870026,0.029969505109285054,-2.752394845125968,0.0342448039870148,2.7663679543071322,0.7691630533470046,0.0006080398519175227,-0.00015280146523662246,-0.00022416955962197224,-1.9984656341120176e-05,0.001330224028883021,0.0002794620126824098,-0.0020266781128977737,0.0,0.0,0.0,0.0,0.0,0.0,0.0,-0.0001218748929210367,-0.00042284078409465103,-7.974986574601356e-05,-5.289717430301266e-06,-7.4407735779769e-06,-6.192525227710632e-06,-1.0219415028878132e-05,-0.0006080398519175227,0.00015280146523662246,0.00022416955962197224,1.9984656341120176e-05,-0.001330224028883021,-0.0002794620126824098,0.0020266781128977737,0.3752071261405945,22.819665908813477,0.1253325641155243,-14.155611038208008,-0.11748272180557251,-2.1325716972351074,0.31711143255233765,0
69,0.3399667739868164,-0.3752071261405945,-22.819665908813477,-0.1253325641155243,14.155611038208008,0.11748272180557251,2.1325716972351074,-0.31711143255233765,0.0,0.0,0.0,0.0,0.0,0.0,0.0,-0.36460069526480043,-0.02278097532939847,-0.21720008175257732,0.2884690755487302,-0.1145956821161689,-0.041377885037307695,-0.365368395227379,1.6756192296471513,0.05252716760896468,0.030049254975031067,-2.752389555408538,0.03425224476059278,2.76637414683236,0.7691732727620335,1.6754973547542302,0.052104326824870026,0.029969505109285054,-2.752394845125968,0.0342448039870148,2.7663679543071322,0.7691630533470046,0.0006080398519175227,-0.00015280146523662246,-0.00022416955962197224,-1.9984656341120176e-05,0.001330224028883021,0.0002794620126824098,-0.0020266781128977737,0.0,0.0,0.0,0.0,0.0,0.0,0.0,-0.0001218748929210367,-0.00042284078409465103,-7.974986574601356e-05,-5.289717430301266e-06,-7.4407735779769e-06,-6.192525227710632e-06,-1.0219415028878132e-05,-0.0006080398519175227,0.00015280146523662246,0.00022416955962197224,1.9984656341120176e-05,-0.001330224028883021,-0.0002794620126824098,0.0020266781128977737,0.3752071261405945,22.819665908813477,0.1253325641155243,-14.155611038208008,-0.11748272180557251,-2.1325716972351074,0.31711143255233765,0
70,0.3450162410736084,-0.3236324191093445,-22.819665908813477,-0.1253325641155243,14.131807327270508,0.11748272180557251,2.1453890800476074,-0.36471885442733765,0.0,0.0,0.0,0.0,0.0,0.0,0.0,-0.3680964626600378,-0.018831071985132095,-0.22055288200287335,0.2871866709821297,-0.1135485835809519,-0.042347167232304445,-0.3649580603363169,1.6756156103694648,0.052528732099455855,0.030049254975036566,-2.752387882142148,0.03425224476059278,2.766372722678714,0.7691785625294104,1.6754973547542302,0.052104326824870026,0.029969505109285054,-2.752394845125968,0.0342448039870148,2.7663679543071322,0.7691630533470046,-0.0008600134669000173,-0.00010829183024119304,-0.0002639503538234537,0.0002272877764771791,-9.754311900161326e-05,-0.00023279353649355812,-6.40793396689147e-05,0.0,0.0,0.0,0.0,0.0,0.0,0.0,-0.00011825561523459704,-0.000424405274585829,-7.974986575151263e-05,-6.962983820191226e-06,-7.4407735779769e-06,-4.768371581587161e-06,-1.5509182405781807e-05,0.0008600134669000173,0.00010829183024119304,0.0002639503538234537,-0.0002272877764771791,9.754311900161326e-05,0.00023279353649355812,6.40793396689147e-05,0.3236324191093445,22.819665908813477,0.1253325641155243,-14.131807327270508,-0.11748272180557251,-2.1453890800476074,0.36471885442733765,0
71,0.35001444816589355,-0.3236324191093445,-22.819665908813477,-0.1253325641155243,14.131807327270508,0.11748272180557251,2.1453890800476074,-0.36471885442733765,0.0,0.0,0.0,0.0,0.0,0.0,0.0,-0.3680964626600378,-0.018831071985132095,-0.22055288200287335,0.2871866709821297,-0.1135485835809519,-0.042347167232304445,-0.3649580603363169,1.6756156103694648,0.052528732099455855,0.030049254975036566,-2.752387882142148,0.03425224476059278,2.766372722678714,0.7691785625294104,1.6754973547542302,0.052104326824870026,0.029969505109285054,-2.752394845125968,0.0342448039870148,2.7663679543071322,0.7691630533470046,-0.0008600134669000173,-0.00010829183024119304,-0.0002639503538234537,0.0002272877764771791,-9.754311900161326e-05,-0.00023279353649355812,-6.40793396689147e-05,0.0,0.0,0.0,0.0,0.0,0.0,0.0,-0.00011825561523459704,-0.000424405274585829,-7.974986575151263e-05,-6.962983820191226e-06,-7.4407735779769e-06,-4.768371581587161e-06,-1.5509182405781807e-05,0.0008600134669000173,0.00010829183024119304,0.0002639503538234537,-0.0002272877764771791,9.754311900161326e-05,0.00023279353649355812,6.40793396689147e-05,0.3236324191093445,22.819665908813477,0.1253325641155243,-14.131807327270508,-0.11748272180557251,-2.1453890800476074,0.36471885442733765,0
72,0.35500454902648926,-0.3236324191093445,-22.819665908813477,-0.1253325641155243,14.131807327270508,0.11748272180557251,2.1453890800476074,-0.36471885442733765,0.0,0.0,0.0,0.0,0.0,0.0,0.0,-0.3680964626600378,-0.018831071985132095,-0.22055288200287335,0.2871866709821297,-0.1135485835809519,-0.042347167232304445,-0.3649580603363169,1.6756156103694648,0.052528732099455855,0.030049254975036566,-2.752387882142148,0.03425224476059278,2.766372722678714,0.7691785625294104,1.6754973547542302,0.052104326824870026,0.029969505109285054,-2.752394845125968,0.0342448039870148,2.7663679543071322,0.7691630533470046,-0.0008600134669000173,-0.00010829183024119304,-0.0002639503538234537,0.0002272877764771791,-9.754311900161326e-05,-0.00023279353649355812,-6.40793396689147e-05,0.0,0.0,0.0,0.0,0.0,0.0,0.0,-0.00011825561523459704,-0.000424405274585829,-7.974986575151263e-05,-6.962983820191226e-06,-7.4407735779769e-06,-4.768371581587161e-06,-1.5509182405781807e-05,0.0008600134669000173,0.00010829183024119304,0.0002639503538234537,-0.0002272877764771791,9.754311900161326e-05,0.00023279353649355812,6.40793396689147e-05,0.3236324191093445,22.819665908813477,0.1253325641155243,-14.131807327270508,-0.11748272180557251,-2.1453890800476074,0.36471885442733765,0
73,0.3600456714630127,-0.3236324191093445,-22.819665908813477,-0.1253325641155243,14.131807327270508,0.11748272180557251,2.1453890800476074,-0.36471885442733765,0.0,0.0,0.0,0.0,0.0,0.0,0.0,-0.3680964626600378,-0.018831071985132095,-0.22055288200287335,0.2871866709821297,-0.1135485835809519,-0.042347167232304445,-0.3649580603363169,1.6756156103694648,0.052528732099455855,0.030049254975036566,-2.752387882142148,0.03425224476059278,2.766372722678714,0.7691785625294104,1.6754973547542302,0.052104326824870026,0.029969505109285054,-2.752394845125968,0.0342448039870148,2.7663679543071322,0.7691630533470046,-0.0008600134669000173,-0.00010829183024119304,-0.0002639503538234537,0.0002272877764771791,-9.754311900161326e-05,-0.00023279353649355812,-6.40793396689147e-05,0.0,0.0,0.0,0.0,0.0,0.0,0.0,-0.00011825561523459704,-0.000424405274585829,-7.974986575151263e-05,-6.962983820191226e-06,-7.4407735779769e-06,-4.768371581587161e-06,-1.5509182405781807e-05,0.0008600134669000173,0.00010829183024119304,0.0002639503538234537,-0.0002272877764771791,9.754311900161326e-05,0.00023279353649355812,6.40793396689147e-05,0.3236324191093445,22.819665908813477,0.1253325641155243,-14.131807327270508,-0.11748272180557251,-2.1453890800476074,0.36471885442733765,0
74,0.3649716377258301,-0.3236324191093445,-22.795862197875977,-0.1729399859905243,14.179414749145508,0.12389141321182251,2.1325716972351074,-0.35098594427108765,0.0,0.0,0.0,0.0,0.0,0.0,0.0,-0.3685350061776739,-0.021012389987561456,-0.2237941765699571,0.291118541605383,-0.11387976240828622,-0.04243760388391869,-0.3636435711448124,1.6756156103694648,0.05252681231462009,0.030052595846747094,-2.752390996259876,0.03425153268376986,2.76637414683236,0.7691805687237696,1.6754973547542302,0.052104326824870026,0.029969505109285054,-2.752394845125968,0.0342448039870148,2.7663679543071322,0.7691630533470046,-0.0010720758818689696,-0.00102383685341557,0.0008507992656684527,-0.0004977729746192413,-0.0002768243620858757,0.00017222599667980653,-0.0005618198939272927,0.0,0.0,0.0,0.0,0.0,0.0,0.0,-0.00011825561523459704,-0.0004224854897500671,-8.309073746204029e-05,-3.848866092059922e-06,-6.728696755060881e-06,-6.192525227710632e-06,-1.7515376764976054e-05,0.0010720758818689696,0.00102383685341557,-0.0008507992656684527,0.0004977729746192413,0.0002768243620858757,-0.00017222599667980653,0.0005618198939272927,0.3236324191093445,22.795862197875977,0.1729399859905243,-14.179414749145508,-0.12389141321182251,-2.1325716972351074,0.35098594427108765,0
75,0.3699812889099121,-0.3236324191093445,-22.795862197875977,-0.1729399859905243,14.179414749145508,0.12389141321182251,2.1325716972351074,-0.35098594427108765,0.0,0.0,0.0,0.0,0.0,0.0,0.0,-0.3685350061776739,-0.021012389987561456,-0.2237941765699571,0.291118541605383,-0.11387976240828622,-0.04243760388391869,-0.3636435711448124,1.6756156103694648,0.05252681231462009,0.030052595846747094,-2.752390996259876,0.03425153268376986,2.76637414683236,0.7691805687237696,1.6754973547542302,0.052104326824870026,0.029969505109285054,-2.752394845125968,0.0342448039870148,2.7663679543071322,0.7691630533470046,-0.0010720758818689696,-0.00102383685341557,0.0008507992656684527,-0.0004977729746192413,-0.0002768243620858757,0.00017222599667980653,-0.0005618198939272927,0.0,0.0,0.0,0.0,0.0,0.0,0.0,-0.00011825561523459704,-0.0004224854897500671,-8.309073746204029e-05,-3.848866092059922e-06,-6.728696755060881e-06,-6.192525227710632e-06,-1.7515376764976054e-05,0.0010720758818689696,0.00102383685341557,-0.0008507992656684527,0.0004977729746192413,0.0002768243620858757,-0.00017222599667980653,0.0005618198939272927,0.3236324191093445,22.795862197875977,0.1729399859905243,-14.179414749145508,-0.12389141321182251,-2.1325716972351074,0.35098594427108765,0
76,0.37497639656066895,-0.3514034152030945,-22.819665908813477,-0.1729399859905243,14.131807327270508,0.11748272180557251,2.1453890800476074,-0.39218467473983765,0.0,0.0,0.0,0.0,0.0,0.0,0.0,-0.3654984412653347,-0.01760000570820108,-0.22397338891850804,0.2874344289937837,-0.11452431727483628,-0.04393711950176062,-0.363085285367075,1.6756175592112958,0.052526588526831106,0.030052595846747094,-2.752387859466716,0.03425224475457838,2.766372722678714,0.769181672376136,1.6754973547542302,0.052104326824870026,0.029969505109285054,-2.752394845125968,0.0342448039870148,2.7663679543071322,0.7691630533470046,-0.0005100077172062122,-8.089256156043064e-06,0.001231690602677549,0.00029136101243759974,-0.00016302098486199103,-0.0001459521738622958,0.0009659618035932609,0.0,0.0,0.0,0.0,0.0,0.0,0.0,-0.00012020445706562022,-0.0004222617019610797,-8.309073746204029e-05,-6.9856592519457195e-06,-7.440767563579587e-06,-4.768371581587161e-06,-1.8619029131361486e-05,0.0005100077172062122,8.089256156043064e-06,-0.001231690602677549,-0.00029136101243759974,0.00016302098486199103,0.0001459521738622958,-0.0009659618035932609,0.3514034152030945,22.819665908813477,0.1729399859905243,-14.131807327270508,-0.11748272180557251,-2.1453890800476074,0.39218467473983765,0
77,0.37999439239501953,-0.3514034152030945,-22.819665908813477,-0.1729399859905243,14.131807327270508,0.11748272180557251,2.1453890800476074,-0.39218467473983765,0.0,0.0,0.0,0.0,0.0,0.0,0.0,-0.3654984412653347,-0.01760000570820108,-0.22397338891850804,0.2874344289937837,-0.11452431727483628,-0.04393711950176062,-0.363085285367075,1.6756175592112958,0.052526588526831106,0.030052595846747094,-2.752387859466716,0.03425224475457838,2.766372722678714,0.769181672376136,1.6754973547542302,0.052104326824870026,0.029969505109285054,-2.752394845125968,0.0342448039870148,2.7663679543071322,0.7691630533470046,-0.0005100077172062122,-8.089256156043064e-06,0.001231690602677549,0.00029136101243759974,-0.00016302098486199103,-0.0001459521738622958,0.0009659618035932609,0.0,0.0,0.0,0.0,0.0,0.0,0.0,-0.00012020445706562022,-0.0004222617019610797,-8.309073746204029e-05,-6.9856592519457195e-06,-7.440767563579587e-06,-4.768371581587161e-06,-1.8619029131361486e-05,0.0005100077172062122,8.089256156043064e-06,-0.001231690602677549,-0.00029136101243759974,0.00016302098486199103,0.0001459521738622958,-0.0009659618035932609,0.3514034152030945,22.819665908813477,0.1729399859905243,-14.131807327270508,-0.11748272180557251,-2.1453890800476074,0.39218467473983765,0
78,0.3849923610687256,-0.3752071261405945,-22.847436904907227,-0.09756157547235489,14.155611038208008,0.1293845772743225,2.1389803886413574,-0.37845176458358765,0.0,0.0,0.0,0.0,0.0,0.0,0.0,-0.36317264630762547,-0.018859403557344938,-0.21831120517508962,0.28802194829864136,-0.11498686215075977,-0.04384645955199548,-0.3640699747070263,1.6756192296471513,0.05253043439570814,0.030047306133728274,-2.752389555412282,0.03425092233220733,2.7663734347555367,0.7691800883548097,1.6754973547542302,0.052104326824870026,0.029969505109285054,-2.752394845125968,0.0342448039870148,2.7663679543071322,0.7691630533470046,0.0007514704510957587,0.0008588305710493278,-0.00037954286374654783,2.2124022814897412e-05,-0.0002663761350443591,-5.494830821699389e-05,0.0009215829444970059,0.0,0.0,0.0,0.0,0.0,0.0,0.0,-0.0001218748929210367,-0.00042610757083811485,-7.780102444322062e-05,-5.289713686185138e-06,-6.118345192526742e-06,-5.480448404426852e-06,-1.7035007805032976e-05,-0.0007514704510957587,-0.0008588305710493278,0.00037954286374654783,-2.2124022814897412e-05,0.0002663761350443591,5.494830821699389e-05,-0.0009215829444970059,0.3752071261405945,22.847436904907227,0.09756157547235489,-14.155611038208008,-0.1293845772743225,-2.1389803886413574,0.37845176458358765,0
79,0.3899881839752197,-0.3752071261405945,-22.847436904907227,-0.09756157547235489,14.155611038208008,0.1293845772743225,2.1389803886413574,-0.37845176458358765,0.0,0.0,0.0,0.0,0.0,0.0,0.0,-0.36317264630762547,-0.018859403557344938,-0.21831120517508962,0.28802194829864136,-0.11498686215075977,-0.04384645955199548,-0.3640699747070263,1.6756192296471513,0.05253043439570814,0.030047306133728274,-2.752389555412282,0.03425092233220733,2.7663734347555367,0.7691800883548097,1.6754973547542302,0.052104326824870026,0.029969505109285054,-2.752394845125968,0.0342448039870148,2.7663679543071322,0.7691630533470046,0.0007514704510957587,0.0008588305710493278,-0.00037954286374654783,2.2124022814897412e-05,-0.0002663761350443591,-5.494830821699389e-05,0.0009215829444970059,0.0,0.0,0.0,0.0,0.0,0.0,0.0,-0.0001218748929210367,-0.00042610757083811485,-7.780102444322062e-05,-5.289713686185138e-06,-6.118345192526742e-06,-5.480448404426852e-06,-1.7035007805032976e-05,-0.0007514704510957587,-0.0008588305710493278,0.00037954286374654783,-2.2124022814897412e-05,0.0002663761350443591,5.494830821699389e-05,-0.0009215829444970059,0.3752071261405945,22.847436904907227,0.09756157547235489,-14.155611038208008,-0.1293845772743225,-2.1389803886413574,0.37845176458358765,0
