rezayati/contactInterpretation/dataset/franka_main/labeled_data/link4/d3_4.csv
index,time,tau_J0,tau_J1,tau_J2,tau_J3,tau_J4,tau_J5,tau_J6,tau_J_d0,tau_J_d1,tau_J_d2,tau_J_d3,tau_J_d4,tau_J_d5,tau_J_d6,tau_ext0,tau_ext1,tau_ext2,tau_ext3,tau_ext4,tau_ext5,tau_ext6,q0,q1,q2,q3,q4,q5,q6,q_d0,q_d1,q_d2,q_d3,q_d4,q_d5,q_d6,dq0,dq1,dq2,dq3,dq4,dq5,dq6,dq_d0,dq_d1,dq_d2,dq_d3,dq_d4,dq_d5,dq_d6,e0,e1,e2,e3,e4,e5,e6,de0,de1,de2,de3,de4,de5,de6,etau_J0,etau_J1,etau_J2,etau_J3,etau_J4,etau_J5,etau_J6,label
1,0.0,-0.3236324191093445,-19.792627334594727,-0.3990752398967743,20.106538772583008,0.5761619210243225,2.4758944511413574,-0.18710653483867645,0.0,0.0,0.0,0.0,0.0,0.0,0.0,-0.37897945641876246,-0.10015610593817983,-0.23641421676279645,0.3785464935755377,-0.015591765610801488,0.09216818019915334,-0.20234741625005095,1.2135038988673894,-0.2202936518234119,-0.007498167299611071,-2.604068541710837,-0.10895748696724572,2.4681206106082163,0.8264673228181071,1.2134413937687574,-0.2202432315892585,-0.0075118285948192216,-2.6038483821997875,-0.10888392708698907,2.4681821257803174,0.826474908251239,-0.0011287499582369387,-0.001039273333626802,1.2289324105689534e-05,0.0015652237272352396,-0.00028114079309309796,-0.0002727642583075089,-4.324876594033042e-05,0.0,0.0,0.0,0.0,0.0,0.0,0.0,-6.250509863203746e-05,5.0420234153414345e-05,-1.3661295208150341e-05,0.00022015951104936704,7.355988025664617e-05,6.15151721010676e-05,7.585433131951369e-06,0.0011287499582369387,0.001039273333626802,-1.2289324105689534e-05,-0.0015652237272352396,0.00028114079309309796,0.0002727642583075089,4.324876594033042e-05,0.3236324191093445,19.792627334594727,0.3990752398967743,-20.106538772583008,-0.5761619210243225,-2.4758944511413574,0.18710653483867645,0
2,0.005002737045288086,-0.3236324191093445,-19.792627334594727,-0.3990752398967743,20.106538772583008,0.5761619210243225,2.4758944511413574,-0.18710653483867645,0.0,0.0,0.0,0.0,0.0,0.0,0.0,-0.37897945641876246,-0.10015610593817983,-0.23641421676279645,0.3785464935755377,-0.015591765610801488,0.09216818019915334,-0.20234741625005095,1.2135038988673894,-0.2202936518234119,-0.007498167299611071,-2.604068541710837,-0.10895748696724572,2.4681206106082163,0.8264673228181071,1.2134413937687574,-0.2202432315892585,-0.0075118285948192216,-2.6038483821997875,-0.10888392708698907,2.4681821257803174,0.826474908251239,-0.0011287499582369387,-0.001039273333626802,1.2289324105689534e-05,0.0015652237272352396,-0.00028114079309309796,-0.0002727642583075089,-4.324876594033042e-05,0.0,0.0,0.0,0.0,0.0,0.0,0.0,-6.250509863203746e-05,5.0420234153414345e-05,-1.3661295208150341e-05,0.00022015951104936704,7.355988025664617e-05,6.15151721010676e-05,7.585433131951369e-06,0.0011287499582369387,0.001039273333626802,-1.2289324105689534e-05,-0.0015652237272352396,0.00028114079309309796,0.0002727642583075089,4.324876594033042e-05,0.3236324191093445,19.792627334594727,0.3990752398967743,-20.106538772583008,-0.5761619210243225,-2.4758944511413574,0.18710653483867645,0
3,0.010001897811889648,-0.3514034152030945,-19.868005752563477,-0.3713042438030243,20.154146194458008,0.5697532296180725,2.4630770683288574,-0.17978231608867645,0.0,0.0,0.0,0.0,0.0,0.0,0.0,-0.38070816683694564,-0.10374622906796162,-0.2378797190342725,0.37954848529561175,-0.015017719267399763,0.09190631103633551,-0.2011683269197261,1.2135058477092204,-0.22028836210987024,-0.007502246799943059,-2.6040718825825473,-0.10895677489042281,2.468122034761641,0.8264665090698589,1.2134413937687574,-0.2202432315892585,-0.0075118285948192216,-2.6038483821997875,-0.10888392708698907,2.4681821257803174,0.826474908251239,-0.00011914574073502113,0.00012789436684362517,-0.0011693006945888453,4.7901164151184054e-05,-0.00044859060320147413,1.4092204890963752e-05,-0.010360329071722744,0.0,0.0,0.0,0.0,0.0,0.0,0.0,-6.445394046306063e-05,4.513052061175249e-05,-9.58179487616298e-06,0.00022350038275975592,7.284780343373709e-05,6.009101867654465e-05,8.39918138018092e-06,0.00011914574073502113,-0.00012789436684362517,0.0011693006945888453,-4.7901164151184054e-05,0.00044859060320147413,-1.4092204890963752e-05,0.010360329071722744,0.3514034152030945,19.868005752563477,0.3713042438030243,-20.154146194458008,-0.5697532296180725,-2.4630770683288574,0.17978231608867645,0
4,0.015005111694335938,-0.3514034152030945,-19.868005752563477,-0.3713042438030243,20.154146194458008,0.5697532296180725,2.4630770683288574,-0.17978231608867645,0.0,0.0,0.0,0.0,0.0,0.0,0.0,-0.38070816683694564,-0.10374622906796162,-0.2378797190342725,0.37954848529561175,-0.015017719267399763,0.09190631103633551,-0.2011683269197261,1.2135058477092204,-0.22028836210987024,-0.007502246799943059,-2.6040718825825473,-0.10895677489042281,2.468122034761641,0.8264665090698589,1.2134413937687574,-0.2202432315892585,-0.0075118285948192216,-2.6038483821997875,-0.10888392708698907,2.4681821257803174,0.826474908251239,-0.00011914574073502113,0.00012789436684362517,-0.0011693006945888453,4.7901164151184054e-05,-0.00044859060320147413,1.4092204890963752e-05,-0.010360329071722744,0.0,0.0,0.0,0.0,0.0,0.0,0.0,-6.445394046306063e-05,4.513052061175249e-05,-9.58179487616298e-06,0.00022350038275975592,7.284780343373709e-05,6.009101867654465e-05,8.39918138018092e-06,0.00011914574073502113,-0.00012789436684362517,0.0011693006945888453,-4.7901164151184054e-05,0.00044859060320147413,-1.4092204890963752e-05,0.010360329071722744,0.3514034152030945,19.868005752563477,0.3713042438030243,-20.154146194458008,-0.5697532296180725,-2.4630770683288574,0.17978231608867645,0
5,0.019997596740722656,-0.3236324191093445,-19.816431045532227,-0.3990752398967743,20.130342483520508,0.5761619210243225,2.4493441581726074,-0.15964071452617645,0.0,0.0,0.0,0.0,0.0,0.0,0.0,-0.3732641934131769,-0.1055833623193775,-0.23036008497344349,0.37683106550217366,-0.015547153089802696,0.09193239280883847,-0.20108650314942503,1.2135038988673894,-0.22029198138755665,-0.0074980913193920685,-2.6040702121466923,-0.10895748696724572,2.468123573722499,0.8264642710602949,1.2134413937687574,-0.2202432315892585,-0.0075118285948192216,-2.6038483821997875,-0.10888392708698907,2.4681821257803174,0.826474908251239,-0.00038540032110404027,-0.0012945762177480925,-0.00024031418759224782,0.0005864845259737308,-0.0003541636369962182,0.0006957331548045317,-0.002721434375863025,0.0,0.0,0.0,0.0,0.0,0.0,0.0,-6.250509863203746e-05,4.874979829816439e-05,-1.3737275427153084e-05,0.00022182994690478353,7.355988025664617e-05,5.855205781823969e-05,1.0637190944184916e-05,0.00038540032110404027,0.0012945762177480925,0.00024031418759224782,-0.0005864845259737308,0.0003541636369962182,-0.0006957331548045317,0.002721434375863025,0.3236324191093445,19.816431045532227,0.3990752398967743,-20.130342483520508,-0.5761619210243225,-2.4493441581726074,0.15964071452617645,0
6,0.024999618530273438,-0.3236324191093445,-19.816431045532227,-0.3990752398967743,20.130342483520508,0.5761619210243225,2.4493441581726074,-0.15964071452617645,0.0,0.0,0.0,0.0,0.0,0.0,0.0,-0.3732641934131769,-0.1055833623193775,-0.23036008497344349,0.37683106550217366,-0.015547153089802696,0.09193239280883847,-0.20108650314942503,1.2135038988673894,-0.22029198138755665,-0.0074980913193920685,-2.6040702121466923,-0.10895748696724572,2.468123573722499,0.8264642710602949,1.2134413937687574,-0.2202432315892585,-0.0075118285948192216,-2.6038483821997875,-0.10888392708698907,2.4681821257803174,0.826474908251239,-0.00038540032110404027,-0.0012945762177480925,-0.00024031418759224782,0.0005864845259737308,-0.0003541636369962182,0.0006957331548045317,-0.002721434375863025,0.0,0.0,0.0,0.0,0.0,0.0,0.0,-6.250509863203746e-05,4.874979829816439e-05,-1.3737275427153084e-05,0.00022182994690478353,7.355988025664617e-05,5.855205781823969e-05,1.0637190944184916e-05,0.00038540032110404027,0.0012945762177480925,0.00024031418759224782,-0.0005864845259737308,0.0003541636369962182,-0.0006957331548045317,0.002721434375863025,0.3236324191093445,19.816431045532227,0.3990752398967743,-20.130342483520508,-0.5761619210243225,-2.4493441581726074,0.15964071452617645,0
7,0.029998302459716797,-0.3236324191093445,-19.844202041625977,-0.3990752398967743,20.154146194458008,0.5697532296180725,2.4493441581726074,-0.18710653483867645,0.0,0.0,0.0,0.0,0.0,0.0,0.0,-0.3639138211176609,-0.10705530907970581,-0.22122505817653332,0.37635174472859406,-0.016162860583927966,0.09197561825271425,-0.2023995039336608,1.2135038988673894,-0.22029003254572552,-0.007498326159117014,-2.6040718825825473,-0.10895642002202846,2.468123560640621,0.8264673228181071,1.2134413937687574,-0.2202432315892585,-0.0075118285948192216,-2.6038483821997875,-0.10888392708698907,2.4681821257803174,0.826474908251239,-0.00034535194882875307,0.00014324577380160565,0.0001240883590493861,0.00016889820513375992,-0.00012633315407287708,0.0007165317690839511,0.0021711814986852844,0.0,0.0,0.0,0.0,0.0,0.0,0.0,-6.250509863203746e-05,4.68009564670302e-05,-1.3502435702207258e-05,0.00022350038275975592,7.249293503938659e-05,5.856513969648702e-05,7.585433131951369e-06,0.00034535194882875307,-0.00014324577380160565,-0.0001240883590493861,-0.00016889820513375992,0.00012633315407287708,-0.0007165317690839511,-0.0021711814986852844,0.3236324191093445,19.844202041625977,0.3990752398967743,-20.154146194458008,-0.5697532296180725,-2.4493441581726074,0.18710653483867645,0
8,0.03500795364379883,-0.3236324191093445,-19.844202041625977,-0.3990752398967743,20.154146194458008,0.5697532296180725,2.4493441581726074,-0.18710653483867645,0.0,0.0,0.0,0.0,0.0,0.0,0.0,-0.3639138211176609,-0.10705530907970581,-0.22122505817653332,0.37635174472859406,-0.016162860583927966,0.09197561825271425,-0.2023995039336608,1.2135038988673894,-0.22029003254572552,-0.007498326159117014,-2.6040718825825473,-0.10895642002202846,2.468123560640621,0.8264673228181071,1.2134413937687574,-0.2202432315892585,-0.0075118285948192216,-2.6038483821997875,-0.10888392708698907,2.4681821257803174,0.826474908251239,-0.00034535194882875307,0.00014324577380160565,0.0001240883590493861,0.00016889820513375992,-0.00012633315407287708,0.0007165317690839511,0.0021711814986852844,0.0,0.0,0.0,0.0,0.0,0.0,0.0,-6.250509863203746e-05,4.68009564670302e-05,-1.3502435702207258e-05,0.00022350038275975592,7.249293503938659e-05,5.856513969648702e-05,7.585433131951369e-06,0.00034535194882875307,-0.00014324577380160565,-0.0001240883590493861,-0.00016889820513375992,0.00012633315407287708,-0.0007165317690839511,-0.0021711814986852844,0.3236324191093445,19.844202041625977,0.3990752398967743,-20.154146194458008,-0.5697532296180725,-2.4493441581726074,0.18710653483867645,0
9,0.04058098793029785,-0.3752071261405945,-19.816431045532227,-0.3713042438030243,20.106538772583008,0.5642600655555725,2.4566683769226074,-0.16604940593242645,0.0,0.0,0.0,0.0,0.0,0.0,0.0,-0.3634017519747927,-0.10128335218776399,-0.22077074619867426,0.3731516340818455,-0.016220489408693823,0.09171467542060854,-0.20136991602180232,1.2135075181450758,-0.22029198138755665,-0.007500782483597016,-2.604068541710837,-0.10895616453685708,2.4681227468384637,0.8264649874977682,1.2134413937687574,-0.2202432315892585,-0.0075118285948192216,-2.6038483821997875,-0.10888392708698907,2.4681821257803174,0.826474908251239,0.00015791148612008874,8.076462229955955e-05,-0.0007620707806936716,0.0006805486370769576,5.4605153787829246e-06,6.783503795906187e-05,-0.0012604950846101068,0.0,0.0,0.0,0.0,0.0,0.0,0.0,-6.612437631847712e-05,4.874979829816439e-05,-1.1046111222205723e-05,0.00022015951104936704,7.223744986800673e-05,5.937894185370496e-05,9.920753470837873e-06,-0.00015791148612008874,-8.076462229955955e-05,0.0007620707806936716,-0.0006805486370769576,-5.4605153787829246e-06,-6.783503795906187e-05,0.0012604950846101068,0.3752071261405945,19.816431045532227,0.3713042438030243,-20.106538772583008,-0.5642600655555725,-2.4566683769226074,0.16604940593242645,0
10,0.04500079154968262,-0.3752071261405945,-19.816431045532227,-0.3713042438030243,20.106538772583008,0.5642600655555725,2.4566683769226074,-0.16604940593242645,0.0,0.0,0.0,0.0,0.0,0.0,0.0,-0.3634017519747927,-0.10128335218776399,-0.22077074619867426,0.3731516340818455,-0.016220489408693823,0.09171467542060854,-0.20136991602180232,1.2135075181450758,-0.22029198138755665,-0.007500782483597016,-2.604068541710837,-0.10895616453685708,2.4681227468384637,0.8264649874977682,1.2134413937687574,-0.2202432315892585,-0.0075118285948192216,-2.6038483821997875,-0.10888392708698907,2.4681821257803174,0.826474908251239,0.00015791148612008874,8.076462229955955e-05,-0.0007620707806936716,0.0006805486370769576,5.4605153787829246e-06,6.783503795906187e-05,-0.0012604950846101068,0.0,0.0,0.0,0.0,0.0,0.0,0.0,-6.612437631847712e-05,4.874979829816439e-05,-1.1046111222205723e-05,0.00022015951104936704,7.223744986800673e-05,5.937894185370496e-05,9.920753470837873e-06,-0.00015791148612008874,-8.076462229955955e-05,0.0007620707806936716,-0.0006805486370769576,-5.4605153787829246e-06,-6.783503795906187e-05,0.0012604950846101068,0.3752071261405945,19.816431045532227,0.3713042438030243,-20.106538772583008,-0.5642600655555725,-2.4566683769226074,0.16604940593242645,0
11,0.049959659576416016,-0.3752071261405945,-19.844202041625977,-0.4704863727092743,20.181917190551758,0.5761619210243225,2.4630770683288574,-0.20083944499492645,0.0,0.0,0.0,0.0,0.0,0.0,0.0,-0.3733915820408052,-0.10713236428287819,-0.225747941334005,0.37983702231254074,-0.01599837016602047,0.09245281025856635,-0.20104279131415845,1.2135075181450758,-0.22029003254572552,-0.0074931559543732025,-2.6040738314243783,-0.10895855157242879,2.468122034761641,0.826468848697038,1.2134413937687574,-0.2202432315892585,-0.0075118285948192216,-2.6038483821997875,-0.10888392708698907,2.4681821257803174,0.826474908251239,-0.0008728837229217512,0.00036347583235263434,0.0004068459230423749,-0.0006347351556610318,-0.00023349325701993532,-1.4120785006998926e-05,-0.005332204463479391,0.0,0.0,0.0,0.0,0.0,0.0,0.0,-6.612437631847712e-05,4.68009564670302e-05,-1.8672640446019094e-05,0.0002254492245907791,7.462448543971156e-05,6.009101867654465e-05,6.059554201076622e-06,0.0008728837229217512,-0.00036347583235263434,-0.0004068459230423749,0.0006347351556610318,0.00023349325701993532,1.4120785006998926e-05,0.005332204463479391,0.3752071261405945,19.844202041625977,0.4704863727092743,-20.181917190551758,-0.5761619210243225,-2.4630770683288574,0.20083944499492645,0
12,0.05499911308288574,-0.3752071261405945,-19.844202041625977,-0.4704863727092743,20.181917190551758,0.5761619210243225,2.4630770683288574,-0.20083944499492645,0.0,0.0,0.0,0.0,0.0,0.0,0.0,-0.3733915820408052,-0.10713236428287819,-0.225747941334005,0.37983702231254074,-0.01599837016602047,0.09245281025856635,-0.20104279131415845,1.2135075181450758,-0.22029003254572552,-0.0074931559543732025,-2.6040738314243783,-0.10895855157242879,2.468122034761641,0.826468848697038,1.2134413937687574,-0.2202432315892585,-0.0075118285948192216,-2.6038483821997875,-0.10888392708698907,2.4681821257803174,0.826474908251239,-0.0008728837229217512,0.00036347583235263434,0.0004068459230423749,-0.0006347351556610318,-0.00023349325701993532,-1.4120785006998926e-05,-0.005332204463479391,0.0,0.0,0.0,0.0,0.0,0.0,0.0,-6.612437631847712e-05,4.68009564670302e-05,-1.8672640446019094e-05,0.0002254492245907791,7.462448543971156e-05,6.009101867654465e-05,6.059554201076622e-06,0.0008728837229217512,-0.00036347583235263434,-0.0004068459230423749,0.0006347351556610318,0.00023349325701993532,1.4120785006998926e-05,0.005332204463479391,0.3752071261405945,19.844202041625977,0.4704863727092743,-20.181917190551758,-0.5761619210243225,-2.4630770683288574,0.20083944499492645,0
13,0.060010671615600586,-0.4505855441093445,-19.844202041625977,-0.5220611095428467,20.106538772583008,0.5697532296180725,2.4758944511413574,-0.22830526530742645,0.0,0.0,0.0,0.0,0.0,0.0,0.0,-0.3794715948961605,-0.10072042786483988,-0.2290392783876161,0.3753918833698593,-0.015689561745072116,0.09175650023330231,-0.20261020089129322,1.2135128078586175,-0.22029003254572552,-0.007489461116913251,-2.604068541710837,-0.10895677489643255,2.468120610607995,0.8264719004548258,1.2134413937687574,-0.2202432315892585,-0.0075118285948192216,-2.6038483821997875,-0.10888392708698907,2.4681821257803174,0.826474908251239,0.0004570884707991802,9.797068338382831e-05,0.000910140033259497,0.0012517209246432294,0.00942891294556676,-0.000501471411788518,0.0010884975507180676,0.0,0.0,0.0,0.0,0.0,0.0,0.0,-7.141408986011122e-05,4.68009564670302e-05,-2.2367477905970573e-05,0.00022015951104936704,7.284780944347147e-05,6.151517232222403e-05,3.0077964132679824e-06,-0.0004570884707991802,-9.797068338382831e-05,-0.000910140033259497,-0.0012517209246432294,-0.00942891294556676,0.000501471411788518,-0.0010884975507180676,0.4505855441093445,19.844202041625977,0.5220611095428467,-20.106538772583008,-0.5697532296180725,-2.4758944511413574,0.22830526530742645,0
14,0.06499862670898438,-0.4505855441093445,-19.844202041625977,-0.5220611095428467,20.106538772583008,0.5697532296180725,2.4758944511413574,-0.22830526530742645,0.0,0.0,0.0,0.0,0.0,0.0,0.0,-0.3794715948961605,-0.10072042786483988,-0.2290392783876161,0.3753918833698593,-0.015689561745072116,0.09175650023330231,-0.20261020089129322,1.2135128078586175,-0.22029003254572552,-0.007489461116913251,-2.604068541710837,-0.10895677489643255,2.468120610607995,0.8264719004548258,1.2134413937687574,-0.2202432315892585,-0.0075118285948192216,-2.6038483821997875,-0.10888392708698907,2.4681821257803174,0.826474908251239,0.0004570884707991802,9.797068338382831e-05,0.000910140033259497,0.0012517209246432294,0.00942891294556676,-0.000501471411788518,0.0010884975507180676,0.0,0.0,0.0,0.0,0.0,0.0,0.0,-7.141408986011122e-05,4.68009564670302e-05,-2.2367477905970573e-05,0.00022015951104936704,7.284780944347147e-05,6.151517232222403e-05,3.0077964132679824e-06,-0.0004570884707991802,-9.797068338382831e-05,-0.000910140033259497,-0.0012517209246432294,-0.00942891294556676,0.000501471411788518,-0.0010884975507180676,0.4505855441093445,19.844202041625977,0.5220611095428467,-20.106538772583008,-0.5697532296180725,-2.4758944511413574,0.22830526530742645,0
15,0.07000970840454102,-0.4029781222343445,-19.844202041625977,-0.4704863727092743,20.154146194458008,0.5761619210243225,2.4566683769226074,-0.22098104655742645,0.0,0.0,0.0,0.0,0.0,0.0,0.0,-0.37977143040692785,-0.1087973561652529,-0.23058958934961363,0.37838258812385434,-0.016387267179579983,0.09331849393255227,-0.2032520151332277,1.2135094669869069,-0.22029003254572552,-0.007493183335775011,-2.6040718825825473,-0.10895748696724576,2.468122748292014,0.8264710866527425,1.2134413937687574,-0.2202432315892585,-0.0075118285948192216,-2.6038483821997875,-0.10888392708698907,2.4681821257803174,0.826474908251239,-0.000180201704249901,-0.0007362572862433663,-0.00014883910711113564,0.00033257601208625784,0.00011656812226156307,0.00034619908763808467,-0.0008962516797765367,0.0,0.0,0.0,0.0,0.0,0.0,0.0,-6.807321814950029e-05,4.68009564670302e-05,-1.8645259044210855e-05,0.00022350038275975592,7.35598802566878e-05,5.937748830353584e-05,3.8215984965450644e-06,0.000180201704249901,0.0007362572862433663,0.00014883910711113564,-0.00033257601208625784,-0.00011656812226156307,-0.00034619908763808467,0.0008962516797765367,0.4029781222343445,19.844202041625977,0.4704863727092743,-20.154146194458008,-0.5761619210243225,-2.4566683769226074,0.22098104655742645,0
16,0.07500886917114258,-0.4029781222343445,-19.844202041625977,-0.4704863727092743,20.154146194458008,0.5761619210243225,2.4566683769226074,-0.22098104655742645,0.0,0.0,0.0,0.0,0.0,0.0,0.0,-0.37977143040692785,-0.1087973561652529,-0.23058958934961363,0.37838258812385434,-0.016387267179579983,0.09331849393255227,-0.2032520151332277,1.2135094669869069,-0.22029003254572552,-0.007493183335775011,-2.6040718825825473,-0.10895748696724576,2.468122748292014,0.8264710866527425,1.2134413937687574,-0.2202432315892585,-0.0075118285948192216,-2.6038483821997875,-0.10888392708698907,2.4681821257803174,0.826474908251239,-0.000180201704249901,-0.0007362572862433663,-0.00014883910711113564,0.00033257601208625784,0.00011656812226156307,0.00034619908763808467,-0.0008962516797765367,0.0,0.0,0.0,0.0,0.0,0.0,0.0,-6.807321814950029e-05,4.68009564670302e-05,-1.8645259044210855e-05,0.00022350038275975592,7.35598802566878e-05,5.937748830353584e-05,3.8215984965450644e-06,0.000180201704249901,0.0007362572862433663,0.00014883910711113564,-0.00033257601208625784,-0.00011656812226156307,-0.00034619908763808467,0.0008962516797765367,0.4029781222343445,19.844202041625977,0.4704863727092743,-20.154146194458008,-0.5761619210243225,-2.4566683769226074,0.22098104655742645,0
17,0.07995891571044922,-0.4029781222343445,-19.844202041625977,-0.4704863727092743,20.154146194458008,0.5761619210243225,2.4566683769226074,-0.22098104655742645,0.0,0.0,0.0,0.0,0.0,0.0,0.0,-0.37977143040692785,-0.1087973561652529,-0.23058958934961363,0.37838258812385434,-0.016387267179579983,0.09331849393255227,-0.2032520151332277,1.2135094669869069,-0.22029003254572552,-0.007493183335775011,-2.6040718825825473,-0.10895748696724576,2.468122748292014,0.8264710866527425,1.2134413937687574,-0.2202432315892585,-0.0075118285948192216,-2.6038483821997875,-0.10888392708698907,2.4681821257803174,0.826474908251239,-0.000180201704249901,-0.0007362572862433663,-0.00014883910711113564,0.00033257601208625784,0.00011656812226156307,0.00034619908763808467,-0.0008962516797765367,0.0,0.0,0.0,0.0,0.0,0.0,0.0,-6.807321814950029e-05,4.68009564670302e-05,-1.8645259044210855e-05,0.00022350038275975592,7.35598802566878e-05,5.937748830353584e-05,3.8215984965450644e-06,0.000180201704249901,0.0007362572862433663,0.00014883910711113564,-0.00033257601208625784,-0.00011656812226156307,-0.00034619908763808467,0.0008962516797765367,0.4029781222343445,19.844202041625977,0.4704863727092743,-20.154146194458008,-0.5761619210243225,-2.4566683769226074,0.22098104655742645,0
18,0.08495068550109863,-0.4029781222343445,-19.844202041625977,-0.4704863727092743,20.154146194458008,0.5761619210243225,2.4566683769226074,-0.22098104655742645,0.0,0.0,0.0,0.0,0.0,0.0,0.0,-0.37977143040692785,-0.1087973561652529,-0.23058958934961363,0.37838258812385434,-0.016387267179579983,0.09331849393255227,-0.2032520151332277,1.2135094669869069,-0.22029003254572552,-0.007493183335775011,-2.6040718825825473,-0.10895748696724576,2.468122748292014,0.8264710866527425,1.2134413937687574,-0.2202432315892585,-0.0075118285948192216,-2.6038483821997875,-0.10888392708698907,2.4681821257803174,0.826474908251239,-0.000180201704249901,-0.0007362572862433663,-0.00014883910711113564,0.00033257601208625784,0.00011656812226156307,0.00034619908763808467,-0.0008962516797765367,0.0,0.0,0.0,0.0,0.0,0.0,0.0,-6.807321814950029e-05,4.68009564670302e-05,-1.8645259044210855e-05,0.00022350038275975592,7.35598802566878e-05,5.937748830353584e-05,3.8215984965450644e-06,0.000180201704249901,0.0007362572862433663,0.00014883910711113564,-0.00033257601208625784,-0.00011656812226156307,-0.00034619908763808467,0.0008962516797765367,0.4029781222343445,19.844202041625977,0.4704863727092743,-20.154146194458008,-0.5761619210243225,-2.4566683769226074,0.22098104655742645,0
19,0.09000229835510254,-0.4029781222343445,-19.816431045532227,-0.3990752398967743,20.130342483520508,0.5761619210243225,2.4694857597351074,-0.18710653483867645,0.0,0.0,0.0,0.0,0.0,0.0,0.0,-0.383888498243653,-0.10174727569625998,-0.23899809715054846,0.3746659898371373,-0.016071698293879833,0.09166812144609743,-0.20269456950421727,1.2135094669869069,-0.22029198138755665,-0.007498088384945941,-2.6040702121466923,-0.10895749134833702,2.468121322684826,0.8264673228181071,1.2134413937687574,-0.2202432315892585,-0.0075118285948192216,-2.6038483821997875,-0.10888392708698907,2.4681821257803174,0.826474908251239,0.000405464987655416,-0.0007006724516259397,-0.0008364341727449989,0.0009046272666234747,-0.0001273882742831352,-0.0003368424130264255,-0.0005356694622751655,0.0,0.0,0.0,0.0,0.0,0.0,0.0,-6.807321814950029e-05,4.874979829816439e-05,-1.3740209873280146e-05,0.00022182994690478353,7.356426134794147e-05,6.0803095491390735e-05,7.585433131951369e-06,-0.000405464987655416,0.0007006724516259397,0.0008364341727449989,-0.0009046272666234747,0.0001273882742831352,0.0003368424130264255,0.0005356694622751655,0.4029781222343445,19.816431045532227,0.3990752398967743,-20.130342483520508,-0.5761619210243225,-2.4694857597351074,0.18710653483867645,0
20,0.09537577629089355,-0.4029781222343445,-19.816431045532227,-0.3990752398967743,20.130342483520508,0.5761619210243225,2.4694857597351074,-0.18710653483867645,0.0,0.0,0.0,0.0,0.0,0.0,0.0,-0.383888498243653,-0.10174727569625998,-0.23899809715054846,0.3746659898371373,-0.016071698293879833,0.09166812144609743,-0.20269456950421727,1.2135094669869069,-0.22029198138755665,-0.007498088384945941,-2.6040702121466923,-0.10895749134833702,2.468121322684826,0.8264673228181071,1.2134413937687574,-0.2202432315892585,-0.0075118285948192216,-2.6038483821997875,-0.10888392708698907,2.4681821257803174,0.826474908251239,0.000405464987655416,-0.0007006724516259397,-0.0008364341727449989,0.0009046272666234747,-0.0001273882742831352,-0.0003368424130264255,-0.0005356694622751655,0.0,0.0,0.0,0.0,0.0,0.0,0.0,-6.807321814950029e-05,4.874979829816439e-05,-1.3740209873280146e-05,0.00022182994690478353,7.356426134794147e-05,6.0803095491390735e-05,7.585433131951369e-06,-0.000405464987655416,0.0007006724516259397,0.0008364341727449989,-0.0009046272666234747,0.0001273882742831352,0.0003368424130264255,0.0005356694622751655,0.4029781222343445,19.816431045532227,0.3990752398967743,-20.130342483520508,-0.5761619210243225,-2.4694857597351074,0.18710653483867645,0
21,0.1000051498413086,-0.3514034152030945,-19.844202041625977,-0.3990752398967743,20.130342483520508,0.5761619210243225,2.4630770683288574,-0.17337362468242645,0.0,0.0,0.0,0.0,0.0,0.0,0.0,-0.3812004449317239,-0.09705681882757607,-0.23616315572983781,0.3668072824954237,-0.01680119726649336,0.09039007591663815,-0.20247310032229293,1.2135058477092204,-0.22029003254572552,-0.007500230594166238,-2.6040702121466923,-0.10895429315172125,2.468122034761641,0.8264657969392009,1.2134413937687574,-0.2202432315892585,-0.0075118285948192216,-2.6038483821997875,-0.10888392708698907,2.4681821257803174,0.826474908251239,-6.261817602442253e-05,0.0005327674813077847,-0.00022853242440707238,-0.0001416042719319481,0.0014599204524143523,1.6674534939832248e-05,-0.0008681595402139965,0.0,0.0,0.0,0.0,0.0,0.0,0.0,-6.445394046306063e-05,4.68009564670302e-05,-1.159800065298356e-05,0.00022182994690478353,7.036606473218021e-05,6.009101867654465e-05,9.111312038179165e-06,6.261817602442253e-05,-0.0005327674813077847,0.00022853242440707238,0.0001416042719319481,-0.0014599204524143523,-1.6674534939832248e-05,0.0008681595402139965,0.3514034152030945,19.844202041625977,0.3990752398967743,-20.130342483520508,-0.5761619210243225,-2.4630770683288574,0.17337362468242645,0
22,0.10499906539916992,-0.3514034152030945,-19.844202041625977,-0.3990752398967743,20.130342483520508,0.5761619210243225,2.4630770683288574,-0.17337362468242645,0.0,0.0,0.0,0.0,0.0,0.0,0.0,-0.3812004449317239,-0.09705681882757607,-0.23616315572983781,0.3668072824954237,-0.01680119726649336,0.09039007591663815,-0.20247310032229293,1.2135058477092204,-0.22029003254572552,-0.007500230594166238,-2.6040702121466923,-0.10895429315172125,2.468122034761641,0.8264657969392009,1.2134413937687574,-0.2202432315892585,-0.0075118285948192216,-2.6038483821997875,-0.10888392708698907,2.4681821257803174,0.826474908251239,-6.261817602442253e-05,0.0005327674813077847,-0.00022853242440707238,-0.0001416042719319481,0.0014599204524143523,1.6674534939832248e-05,-0.0008681595402139965,0.0,0.0,0.0,0.0,0.0,0.0,0.0,-6.445394046306063e-05,4.68009564670302e-05,-1.159800065298356e-05,0.00022182994690478353,7.036606473218021e-05,6.009101867654465e-05,9.111312038179165e-06,6.261817602442253e-05,-0.0005327674813077847,0.00022853242440707238,0.0001416042719319481,-0.0014599204524143523,-1.6674534939832248e-05,0.0008681595402139965,0.3514034152030945,19.844202041625977,0.3990752398967743,-20.130342483520508,-0.5761619210243225,-2.4630770683288574,0.17337362468242645,0
23,0.10999274253845215,-0.3514034152030945,-19.844202041625977,-0.4228789508342743,20.181917190551758,0.5697532296180725,2.4630770683288574,-0.15964071452617645,0.0,0.0,0.0,0.0,0.0,0.0,0.0,-0.37460567016429813,-0.10710403066258625,-0.2296668473538411,0.37844858624583544,-0.015218869772245826,0.0924996169321591,-0.20115588183099634,1.2135058477092204,-0.22029003254572552,-0.007499258990046,-2.6040738314243783,-0.10895677487239364,2.468122034761641,0.8264642710602945,1.2134413937687574,-0.2202432315892585,-0.0075118285948192216,-2.6038483821997875,-0.10888392708698907,2.4681821257803174,0.826474908251239,0.00036912616691580177,0.0001179888082848475,0.0013157547452488697,-0.0005305042462433936,9.76817989240891e-05,-0.00018717609696205397,-0.0018951097659635028,0.0,0.0,0.0,0.0,0.0,0.0,0.0,-6.445394046306063e-05,4.68009564670302e-05,-1.2569604773221554e-05,0.0002254492245907791,7.284778540456172e-05,6.009101867654465e-05,1.0637190944517982e-05,-0.00036912616691580177,-0.0001179888082848475,-0.0013157547452488697,0.0005305042462433936,-9.76817989240891e-05,0.00018717609696205397,0.0018951097659635028,0.3514034152030945,19.844202041625977,0.4228789508342743,-20.181917190551758,-0.5697532296180725,-2.4630770683288574,0.15964071452617645,0
24,0.11501550674438477,-0.3514034152030945,-19.844202041625977,-0.4228789508342743,20.181917190551758,0.5697532296180725,2.4630770683288574,-0.15964071452617645,0.0,0.0,0.0,0.0,0.0,0.0,0.0,-0.37460567016429813,-0.10710403066258625,-0.2296668473538411,0.37844858624583544,-0.015218869772245826,0.0924996169321591,-0.20115588183099634,1.2135058477092204,-0.22029003254572552,-0.007499258990046,-2.6040738314243783,-0.10895677487239364,2.468122034761641,0.8264642710602945,1.2134413937687574,-0.2202432315892585,-0.0075118285948192216,-2.6038483821997875,-0.10888392708698907,2.4681821257803174,0.826474908251239,0.00036912616691580177,0.0001179888082848475,0.0013157547452488697,-0.0005305042462433936,9.76817989240891e-05,-0.00018717609696205397,-0.0018951097659635028,0.0,0.0,0.0,0.0,0.0,0.0,0.0,-6.445394046306063e-05,4.68009564670302e-05,-1.2569604773221554e-05,0.0002254492245907791,7.284778540456172e-05,6.009101867654465e-05,1.0637190944517982e-05,-0.00036912616691580177,-0.0001179888082848475,-0.0013157547452488697,0.0005305042462433936,-9.76817989240891e-05,0.00018717609696205397,0.0018951097659635028,0.3514034152030945,19.844202041625977,0.4228789508342743,-20.181917190551758,-0.5697532296180725,-2.4630770683288574,0.15964071452617645,0
25,0.12001943588256836,-0.3514034152030945,-19.868005752563477,-0.3990752398967743,20.154146194458008,0.5697532296180725,2.4566683769226074,-0.17978231608867645,0.0,0.0,0.0,0.0,0.0,0.0,0.0,-0.3706734183563216,-0.10553267073208311,-0.22597238398785247,0.37598715850170844,-0.01537678234233523,0.09160531847052754,-0.2025756074793962,1.2135058477092204,-0.22028836210987024,-0.0074981237959884225,-2.6040718825825473,-0.10895677489042271,2.4681227468384637,0.8264665090160237,1.2134413937687574,-0.2202432315892585,-0.0075118285948192216,-2.6038483821997875,-0.10888392708698907,2.4681821257803174,0.826474908251239,-4.3217146016076735e-05,0.0001332189968981246,-0.000178775484180957,0.0003352503569225644,0.0012525893072009072,0.00014586934303699074,-0.0003287821068932656,0.0,0.0,0.0,0.0,0.0,0.0,0.0,-6.445394046306063e-05,4.513052061175249e-05,-1.3704798830799052e-05,0.00022350038275975592,7.284780343363995e-05,5.937894185370496e-05,8.399235215339473e-06,4.3217146016076735e-05,-0.0001332189968981246,0.000178775484180957,-0.0003352503569225644,-0.0012525893072009072,-0.00014586934303699074,0.0003287821068932656,0.3514034152030945,19.868005752563477,0.3990752398967743,-20.154146194458008,-0.5697532296180725,-2.4566683769226074,0.17978231608867645,0
26,0.12501072883605957,-0.3514034152030945,-19.868005752563477,-0.3990752398967743,20.154146194458008,0.5697532296180725,2.4566683769226074,-0.17978231608867645,0.0,0.0,0.0,0.0,0.0,0.0,0.0,-0.3706734183563216,-0.10553267073208311,-0.22597238398785247,0.37598715850170844,-0.01537678234233523,0.09160531847052754,-0.2025756074793962,1.2135058477092204,-0.22028836210987024,-0.0074981237959884225,-2.6040718825825473,-0.10895677489042271,2.4681227468384637,0.8264665090160237,1.2134413937687574,-0.2202432315892585,-0.0075118285948192216,-2.6038483821997875,-0.10888392708698907,2.4681821257803174,0.826474908251239,-4.3217146016076735e-05,0.0001332189968981246,-0.000178775484180957,0.0003352503569225644,0.0012525893072009072,0.00014586934303699074,-0.0003287821068932656,0.0,0.0,0.0,0.0,0.0,0.0,0.0,-6.445394046306063e-05,4.513052061175249e-05,-1.3704798830799052e-05,0.00022350038275975592,7.284780343363995e-05,5.937894185370496e-05,8.399235215339473e-06,4.3217146016076735e-05,-0.0001332189968981246,0.000178775484180957,-0.0003352503569225644,-0.0012525893072009072,-0.00014586934303699074,0.0003287821068932656,0.3514034152030945,19.868005752563477,0.3990752398967743,-20.154146194458008,-0.5697532296180725,-2.4566683769226074,0.17978231608867645,0
27,0.12999606132507324,-0.3514034152030945,-19.816431045532227,-0.4228789508342743,20.154146194458008,0.5578513741493225,2.4694857597351074,-0.17978231608867645,0.0,0.0,0.0,0.0,0.0,0.0,0.0,-0.3732750185985012,-0.09872515604764183,-0.22538074974750008,0.3750807542454642,-0.013426666016584602,0.09043668268558772,-0.20200718687351496,1.2135058477092204,-0.22029198138755665,-0.007496681918357321,-2.6040718825825473,-0.10895545246203739,2.4681213270454685,0.8264654493778943,1.2134413937687574,-0.2202432315892585,-0.0075118285948192216,-2.6038483821997875,-0.10888392708698907,2.4681821257803174,0.826474908251239,-0.00015943811332665711,-0.00046460091531611567,0.00015969269184086304,7.694626594529753e-05,-0.0007269341962044974,-5.789753330033244e-05,-0.0010679287308031674,0.0,0.0,0.0,0.0,0.0,0.0,0.0,-6.445394046306063e-05,4.874979829816439e-05,-1.5146676461900987e-05,0.00022350038275975592,7.152537504831469e-05,6.079873484887699e-05,9.458873344692087e-06,0.00015943811332665711,0.00046460091531611567,-0.00015969269184086304,-7.694626594529753e-05,0.0007269341962044974,5.789753330033244e-05,0.0010679287308031674,0.3514034152030945,19.816431045532227,0.4228789508342743,-20.154146194458008,-0.5578513741493225,-2.4694857597351074,0.17978231608867645,0
28,0.13500738143920898,-0.3514034152030945,-19.816431045532227,-0.4228789508342743,20.154146194458008,0.5578513741493225,2.4694857597351074,-0.17978231608867645,0.0,0.0,0.0,0.0,0.0,0.0,0.0,-0.3732750185985012,-0.09872515604764183,-0.22538074974750008,0.3750807542454642,-0.013426666016584602,0.09043668268558772,-0.20200718687351496,1.2135058477092204,-0.22029198138755665,-0.007496681918357321,-2.6040718825825473,-0.10895545246203739,2.4681213270454685,0.8264654493778943,1.2134413937687574,-0.2202432315892585,-0.0075118285948192216,-2.6038483821997875,-0.10888392708698907,2.4681821257803174,0.826474908251239,-0.00015943811332665711,-0.00046460091531611567,0.00015969269184086304,7.694626594529753e-05,-0.0007269341962044974,-5.789753330033244e-05,-0.0010679287308031674,0.0,0.0,0.0,0.0,0.0,0.0,0.0,-6.445394046306063e-05,4.874979829816439e-05,-1.5146676461900987e-05,0.00022350038275975592,7.152537504831469e-05,6.079873484887699e-05,9.458873344692087e-06,0.00015943811332665711,0.00046460091531611567,-0.00015969269184086304,-7.694626594529753e-05,0.0007269341962044974,5.789753330033244e-05,0.0010679287308031674,0.3514034152030945,19.816431045532227,0.4228789508342743,-20.154146194458008,-0.5578513741493225,-2.4694857597351074,0.17978231608867645,0
29,0.14000821113586426,-0.3752071261405945,-19.816431045532227,-0.4466826617717743,20.205720901489258,0.5697532296180725,2.4566683769226074,-0.20083944499492645,0.0,0.0,0.0,0.0,0.0,0.0,0.0,-0.3705660803590867,-0.10476072435356618,-0.22072977512866462,0.3753591788071021,-0.014419186702115486,0.09142967423495692,-0.20288825094240456,1.2135075181087371,-0.22029198138755665,-0.007495537005688627,-2.6040755018602337,-0.10895677489042281,2.468122746838488,0.8264688486910317,1.2134413937687574,-0.2202432315892585,-0.0075118285948192216,-2.6038483821997875,-0.10888392708698907,2.4681821257803174,0.826474908251239,-0.0002903704107292769,-0.0007023629556829516,0.0005303314656252365,-0.0014108624344878118,-0.00020973785568492598,0.00021065804480459074,4.076051275815029e-05,0.0,0.0,0.0,0.0,0.0,0.0,0.0,-6.61243399797673e-05,4.874979829816439e-05,-1.6291589130594877e-05,0.00022711966044619558,7.284780343373709e-05,5.937894182928005e-05,6.0595602073831856e-06,0.0002903704107292769,0.0007023629556829516,-0.0005303314656252365,0.0014108624344878118,0.00020973785568492598,-0.00021065804480459074,-4.076051275815029e-05,0.3752071261405945,19.816431045532227,0.4466826617717743,-20.205720901489258,-0.5697532296180725,-2.4566683769226074,0.20083944499492645,0
30,0.14500689506530762,-0.3752071261405945,-19.816431045532227,-0.4466826617717743,20.205720901489258,0.5697532296180725,2.4566683769226074,-0.20083944499492645,0.0,0.0,0.0,0.0,0.0,0.0,0.0,-0.3705660803590867,-0.10476072435356618,-0.22072977512866462,0.3753591788071021,-0.014419186702115486,0.09142967423495692,-0.20288825094240456,1.2135075181087371,-0.22029198138755665,-0.007495537005688627,-2.6040755018602337,-0.10895677489042281,2.468122746838488,0.8264688486910317,1.2134413937687574,-0.2202432315892585,-0.0075118285948192216,-2.6038483821997875,-0.10888392708698907,2.4681821257803174,0.826474908251239,-0.0002903704107292769,-0.0007023629556829516,0.0005303314656252365,-0.0014108624344878118,-0.00020973785568492598,0.00021065804480459074,4.076051275815029e-05,0.0,0.0,0.0,0.0,0.0,0.0,0.0,-6.61243399797673e-05,4.874979829816439e-05,-1.6291589130594877e-05,0.00022711966044619558,7.284780343373709e-05,5.937894182928005e-05,6.0595602073831856e-06,0.0002903704107292769,0.0007023629556829516,-0.0005303314656252365,0.0014108624344878118,0.00020973785568492598,-0.00021065804480459074,-4.076051275815029e-05,0.3752071261405945,19.816431045532227,0.4466826617717743,-20.205720901489258,-0.5697532296180725,-2.4566683769226074,0.20083944499492645,0
31,0.14994263648986816,-0.3752071261405945,-19.816431045532227,-0.4466826617717743,20.181917190551758,0.5697532296180725,2.4758944511413574,-0.22098104655742645,0.0,0.0,0.0,0.0,0.0,0.0,0.0,-0.3730990338917459,-0.10923126008795578,-0.22329300722852252,0.3784928572048225,-0.014869157723133762,0.09190252204163488,-0.20381363485436887,1.2135075171639294,-0.22029198138755665,-0.007495063154960418,-2.6040738314243783,-0.10895677489042281,2.4681206498538515,0.8264710866527425,1.2134413937687574,-0.2202432315892585,-0.0075118285948192216,-2.6038483821997875,-0.10888392708698907,2.4681821257803174,0.826474908251239,-0.0005102986050685175,-0.0008731859746608727,9.395901933152435e-05,-0.0004420444098472107,0.00022405326062399788,-0.0005283250409104127,0.0014740838950089608,0.0,0.0,0.0,0.0,0.0,0.0,0.0,-6.612339517197974e-05,4.874979829816439e-05,-1.676543985880321e-05,0.0002254492245907791,7.284780343373709e-05,6.147592646588151e-05,3.8215984965450644e-06,0.0005102986050685175,0.0008731859746608727,-9.395901933152435e-05,0.0004420444098472107,-0.00022405326062399788,0.0005283250409104127,-0.0014740838950089608,0.3752071261405945,19.816431045532227,0.4466826617717743,-20.181917190551758,-0.5697532296180725,-2.4758944511413574,0.22098104655742645,0
32,0.1549968719482422,-0.3752071261405945,-19.816431045532227,-0.4466826617717743,20.181917190551758,0.5697532296180725,2.4758944511413574,-0.22098104655742645,0.0,0.0,0.0,0.0,0.0,0.0,0.0,-0.3730990338917459,-0.10923126008795578,-0.22329300722852252,0.3784928572048225,-0.014869157723133762,0.09190252204163488,-0.20381363485436887,1.2135075171639294,-0.22029198138755665,-0.007495063154960418,-2.6040738314243783,-0.10895677489042281,2.4681206498538515,0.8264710866527425,1.2134413937687574,-0.2202432315892585,-0.0075118285948192216,-2.6038483821997875,-0.10888392708698907,2.4681821257803174,0.826474908251239,-0.0005102986050685175,-0.0008731859746608727,9.395901933152435e-05,-0.0004420444098472107,0.00022405326062399788,-0.0005283250409104127,0.0014740838950089608,0.0,0.0,0.0,0.0,0.0,0.0,0.0,-6.612339517197974e-05,4.874979829816439e-05,-1.676543985880321e-05,0.0002254492245907791,7.284780343373709e-05,6.147592646588151e-05,3.8215984965450644e-06,0.0005102986050685175,0.0008731859746608727,-9.395901933152435e-05,0.0004420444098472107,-0.00022405326062399788,0.0005283250409104127,-0.0014740838950089608,0.3752071261405945,19.816431045532227,0.4466826617717743,-20.181917190551758,-0.5697532296180725,-2.4758944511413574,0.22098104655742645,0
33,0.1600477695465088,-0.3752071261405945,-19.768823623657227,-0.4466826617717743,20.181917190551758,0.5642600655555725,2.4823031425476074,-0.21457235515117645,0.0,0.0,0.0,0.0,0.0,0.0,0.0,-0.3762819261407336,-0.09943882291382396,-0.22763740631121954,0.37396103937969827,-0.014373101849580879,0.091155457612685,-0.20407193161708118,1.2135075181450705,-0.22029532225926718,-0.007494747586579683,-2.6040738314243783,-0.10895616453886031,2.468119898531393,0.8264703745759195,1.2134413937687574,-0.2202432315892585,-0.0075118285948192216,-2.6038483821997875,-0.10888392708698907,2.4681821257803174,0.826474908251239,-0.0005296715695425172,-0.0014562447577717826,-0.00028813081816336355,-0.0007423008170511178,0.0001528771077349065,-0.0005747259219740123,0.0007927026028936837,0.0,0.0,0.0,0.0,0.0,0.0,0.0,-6.612437631314805e-05,5.209067000869205e-05,-1.708100823953878e-05,0.0002254492245907791,7.223745187123765e-05,6.222724892435139e-05,4.533675319495778e-06,0.0005296715695425172,0.0014562447577717826,0.00028813081816336355,0.0007423008170511178,-0.0001528771077349065,0.0005747259219740123,-0.0007927026028936837,0.3752071261405945,19.768823623657227,0.4466826617717743,-20.181917190551758,-0.5642600655555725,-2.4823031425476074,0.21457235515117645,0
34,0.1650092601776123,-0.3752071261405945,-19.768823623657227,-0.4466826617717743,20.181917190551758,0.5642600655555725,2.4823031425476074,-0.21457235515117645,0.0,0.0,0.0,0.0,0.0,0.0,0.0,-0.3762819261407336,-0.09943882291382396,-0.22763740631121954,0.37396103937969827,-0.014373101849580879,0.091155457612685,-0.20407193161708118,1.2135075181450705,-0.22029532225926718,-0.007494747586579683,-2.6040738314243783,-0.10895616453886031,2.468119898531393,0.8264703745759195,1.2134413937687574,-0.2202432315892585,-0.0075118285948192216,-2.6038483821997875,-0.10888392708698907,2.4681821257803174,0.826474908251239,-0.0005296715695425172,-0.0014562447577717826,-0.00028813081816336355,-0.0007423008170511178,0.0001528771077349065,-0.0005747259219740123,0.0007927026028936837,0.0,0.0,0.0,0.0,0.0,0.0,0.0,-6.612437631314805e-05,5.209067000869205e-05,-1.708100823953878e-05,0.0002254492245907791,7.223745187123765e-05,6.222724892435139e-05,4.533675319495778e-06,0.0005296715695425172,0.0014562447577717826,0.00028813081816336355,0.0007423008170511178,-0.0001528771077349065,0.0005747259219740123,-0.0007927026028936837,0.3752071261405945,19.768823623657227,0.4466826617717743,-20.181917190551758,-0.5642600655555725,-2.4823031425476074,0.21457235515117645,0
35,0.1699986457824707,-0.4267818331718445,-19.844202041625977,-0.4704863727092743,20.130342483520508,0.5642600655555725,2.4758944511413574,-0.23471395671367645,0.0,0.0,0.0,0.0,0.0,0.0,0.0,-0.3795839181848331,-0.12857214870073944,-0.23472253896642975,0.4174590164774762,-0.0134953779090907,0.09852346535019194,-0.20304720688122024,1.2135111374227623,-0.22029003254572552,-0.007493165800319569,-2.6040702121466923,-0.10895615139558645,2.468120610607995,0.8264736721697781,1.2134413937687574,-0.2202432315892585,-0.0075118285948192216,-2.6038483821997875,-0.10888392708698907,2.4681821257803174,0.826474908251239,0.0006528367641062233,0.0001470140852350647,0.0007283727565773141,-6.204397600689565e-05,0.0001748653137770567,-0.0005104166516907256,0.0010497375483216353,0.0,0.0,0.0,0.0,0.0,0.0,0.0,-6.974365400491678e-05,4.68009564670302e-05,-1.866279449965272e-05,0.00022182994690478353,7.22243085973795e-05,6.151517232222403e-05,1.2360814609646553e-06,-0.0006528367641062233,-0.0001470140852350647,-0.0007283727565773141,6.204397600689565e-05,-0.0001748653137770567,0.0005104166516907256,-0.0010497375483216353,0.4267818331718445,19.844202041625977,0.4704863727092743,-20.130342483520508,-0.5642600655555725,-2.4758944511413574,0.23471395671367645,0
36,0.17499661445617676,-0.4267818331718445,-19.844202041625977,-0.4704863727092743,20.130342483520508,0.5642600655555725,2.4758944511413574,-0.23471395671367645,0.0,0.0,0.0,0.0,0.0,0.0,0.0,-0.3795839181848331,-0.12857214870073944,-0.23472253896642975,0.4174590164774762,-0.0134953779090907,0.09852346535019194,-0.20304720688122024,1.2135111374227623,-0.22029003254572552,-0.007493165800319569,-2.6040702121466923,-0.10895615139558645,2.468120610607995,0.8264736721697781,1.2134413937687574,-0.2202432315892585,-0.0075118285948192216,-2.6038483821997875,-0.10888392708698907,2.4681821257803174,0.826474908251239,0.0006528367641062233,0.0001470140852350647,0.0007283727565773141,-6.204397600689565e-05,0.0001748653137770567,-0.0005104166516907256,0.0010497375483216353,0.0,0.0,0.0,0.0,0.0,0.0,0.0,-6.974365400491678e-05,4.68009564670302e-05,-1.866279449965272e-05,0.00022182994690478353,7.22243085973795e-05,6.151517232222403e-05,1.2360814609646553e-06,-0.0006528367641062233,-0.0001470140852350647,-0.0007283727565773141,6.204397600689565e-05,-0.0001748653137770567,0.0005104166516907256,-0.0010497375483216353,0.4267818331718445,19.844202041625977,0.4704863727092743,-20.130342483520508,-0.5642600655555725,-2.4758944511413574,0.23471395671367645,0
37,0.180009126663208,-0.3752071261405945,-19.844202041625977,-0.3990752398967743,20.181917190551758,0.5761619210243225,2.4694857597351074,-0.22098104655742645,0.0,0.0,0.0,0.0,0.0,0.0,0.0,-0.38151019103720146,-0.09671874335089634,-0.2332562822034274,0.3713998398507552,-0.014796573364883454,0.09193281812300583,-0.20285926150246228,1.2135075181450758,-0.22029003254572552,-0.007500220203296938,-2.6040738314243783,-0.10895748258608025,2.468121322684818,0.8264710866587242,1.2134413937687574,-0.2202432315892585,-0.0075118285948192216,-2.6038483821997875,-0.10888392708698907,2.4681821257803174,0.826474908251239,-0.00020390322119782716,0.0003277803944380269,-0.0009492554661103826,-0.0009523215313525422,-0.0002480500080208012,-0.0002658631945197474,0.0010858550743100945,0.0,0.0,0.0,0.0,0.0,0.0,0.0,-6.612437631847712e-05,4.68009564670302e-05,-1.1608391522283969e-05,0.0002254492245907791,7.355549909117409e-05,6.080309549938434e-05,3.821592514885452e-06,0.00020390322119782716,-0.0003277803944380269,0.0009492554661103826,0.0009523215313525422,0.0002480500080208012,0.0002658631945197474,-0.0010858550743100945,0.3752071261405945,19.844202041625977,0.3990752398967743,-20.181917190551758,-0.5761619210243225,-2.4694857597351074,0.22098104655742645,0
38,0.1849956512451172,-0.3752071261405945,-19.844202041625977,-0.3990752398967743,20.181917190551758,0.5761619210243225,2.4694857597351074,-0.22098104655742645,0.0,0.0,0.0,0.0,0.0,0.0,0.0,-0.38151019103720146,-0.09671874335089634,-0.2332562822034274,0.3713998398507552,-0.014796573364883454,0.09193281812300583,-0.20285926150246228,1.2135075181450758,-0.22029003254572552,-0.007500220203296938,-2.6040738314243783,-0.10895748258608025,2.468121322684818,0.8264710866587242,1.2134413937687574,-0.2202432315892585,-0.0075118285948192216,-2.6038483821997875,-0.10888392708698907,2.4681821257803174,0.826474908251239,-0.00020390322119782716,0.0003277803944380269,-0.0009492554661103826,-0.0009523215313525422,-0.0002480500080208012,-0.0002658631945197474,0.0010858550743100945,0.0,0.0,0.0,0.0,0.0,0.0,0.0,-6.612437631847712e-05,4.68009564670302e-05,-1.1608391522283969e-05,0.0002254492245907791,7.355549909117409e-05,6.080309549938434e-05,3.821592514885452e-06,0.00020390322119782716,-0.0003277803944380269,0.0009492554661103826,0.0009523215313525422,0.0002480500080208012,0.0002658631945197474,-0.0010858550743100945,0.3752071261405945,19.844202041625977,0.3990752398967743,-20.181917190551758,-0.5761619210243225,-2.4694857597351074,0.22098104655742645,0
39,0.1900029182434082,-0.3514034152030945,-19.868005752563477,-0.4228789508342743,20.130342483520508,0.5761619210243225,2.4630770683288574,-0.21457235515117645,0.0,0.0,0.0,0.0,0.0,0.0,0.0,-0.37876006359096637,-0.09253611117441979,-0.2306914833740835,0.3676698551660656,-0.015102244210398446,0.0912832922104542,-0.2025619028653149,1.2135058477092204,-0.22028836210987024,-0.007497154448883988,-2.6040702121466923,-0.10895748712948364,2.468122034761641,0.8264703745759195,1.2134413937687574,-0.2202432315892585,-0.0075118285948192216,-2.6038483821997875,-0.10888392708698907,2.4681821257803174,0.826474908251239,-2.124730944262786e-06,0.0007578321812614804,9.122428607172597e-05,0.0008933686386454741,-0.00020599034465932278,0.00011491644318388951,-0.00013902746012696836,0.0,0.0,0.0,0.0,0.0,0.0,0.0,-6.445394046306063e-05,4.513052061175249e-05,-1.4674145935233626e-05,0.00022182994690478353,7.356004249456372e-05,6.009101867654465e-05,4.533675319495778e-06,2.124730944262786e-06,-0.0007578321812614804,-9.122428607172597e-05,-0.0008933686386454741,0.00020599034465932278,-0.00011491644318388951,0.00013902746012696836,0.3514034152030945,19.868005752563477,0.4228789508342743,-20.130342483520508,-0.5761619210243225,-2.4630770683288574,0.21457235515117645,0
40,0.19501829147338867,-0.3514034152030945,-19.868005752563477,-0.4228789508342743,20.130342483520508,0.5761619210243225,2.4630770683288574,-0.21457235515117645,0.0,0.0,0.0,0.0,0.0,0.0,0.0,-0.37876006359096637,-0.09253611117441979,-0.2306914833740835,0.3676698551660656,-0.015102244210398446,0.0912832922104542,-0.2025619028653149,1.2135058477092204,-0.22028836210987024,-0.007497154448883988,-2.6040702121466923,-0.10895748712948364,2.468122034761641,0.8264703745759195,1.2134413937687574,-0.2202432315892585,-0.0075118285948192216,-2.6038483821997875,-0.10888392708698907,2.4681821257803174,0.826474908251239,-2.124730944262786e-06,0.0007578321812614804,9.122428607172597e-05,0.0008933686386454741,-0.00020599034465932278,0.00011491644318388951,-0.00013902746012696836,0.0,0.0,0.0,0.0,0.0,0.0,0.0,-6.445394046306063e-05,4.513052061175249e-05,-1.4674145935233626e-05,0.00022182994690478353,7.356004249456372e-05,6.009101867654465e-05,4.533675319495778e-06,2.124730944262786e-06,-0.0007578321812614804,-9.122428607172597e-05,-0.0008933686386454741,0.00020599034465932278,-0.00011491644318388951,0.00013902746012696836,0.3514034152030945,19.868005752563477,0.4228789508342743,-20.130342483520508,-0.5761619210243225,-2.4630770683288574,0.21457235515117645,0
41,0.19995546340942383,-0.3236324191093445,-19.816431045532227,-0.3713042438030243,20.130342483520508,0.5642600655555725,2.4566683769226074,-0.17978231608867645,0.0,0.0,0.0,0.0,0.0,0.0,0.0,-0.3727620309626114,-0.089470152479449,-0.2275131193058857,0.3623543537974564,-0.014814839728975623,0.09045474153331827,-0.20370833913310804,1.2135038988673894,-0.22029198138755665,-0.00750216873237002,-2.6040702121466923,-0.10895616453886306,2.4681227468384637,0.8264665090160237,1.2134413937687574,-0.2202432315892585,-0.0075118285948192216,-2.6038483821997875,-0.10888392708698907,2.4681821257803174,0.826474908251239,-0.00018610288330885304,-0.0006079378252420024,-0.00014495493676989802,-0.00012343904143950193,0.00012932235787932838,5.043416544694326e-05,-0.0011199106270109612,0.0,0.0,0.0,0.0,0.0,0.0,0.0,-6.250509863203746e-05,4.874979829816439e-05,-9.659862449201868e-06,0.00022182994690478353,7.223745187398545e-05,5.937894185370496e-05,8.399235215339473e-06,0.00018610288330885304,0.0006079378252420024,0.00014495493676989802,0.00012343904143950193,-0.00012932235787932838,-5.043416544694326e-05,0.0011199106270109612,0.3236324191093445,19.816431045532227,0.3713042438030243,-20.130342483520508,-0.5642600655555725,-2.4566683769226074,0.17978231608867645,0
42,0.20499563217163086,-0.3236324191093445,-19.816431045532227,-0.3713042438030243,20.130342483520508,0.5642600655555725,2.4566683769226074,-0.17978231608867645,0.0,0.0,0.0,0.0,0.0,0.0,0.0,-0.3727620309626114,-0.089470152479449,-0.2275131193058857,0.3623543537974564,-0.014814839728975623,0.09045474153331827,-0.20370833913310804,1.2135038988673894,-0.22029198138755665,-0.00750216873237002,-2.6040702121466923,-0.10895616453886306,2.4681227468384637,0.8264665090160237,1.2134413937687574,-0.2202432315892585,-0.0075118285948192216,-2.6038483821997875,-0.10888392708698907,2.4681821257803174,0.826474908251239,-0.00018610288330885304,-0.0006079378252420024,-0.00014495493676989802,-0.00012343904143950193,0.00012932235787932838,5.043416544694326e-05,-0.0011199106270109612,0.0,0.0,0.0,0.0,0.0,0.0,0.0,-6.250509863203746e-05,4.874979829816439e-05,-9.659862449201868e-06,0.00022182994690478353,7.223745187398545e-05,5.937894185370496e-05,8.399235215339473e-06,0.00018610288330885304,0.0006079378252420024,0.00014495493676989802,0.00012343904143950193,-0.00012932235787932838,-5.043416544694326e-05,0.0011199106270109612,0.3236324191093445,19.816431045532227,0.3713042438030243,-20.130342483520508,-0.5642600655555725,-2.4566683769226074,0.17978231608867645,0
43,0.21001315116882324,-0.3236324191093445,-19.816431045532227,-0.3713042438030243,20.130342483520508,0.5642600655555725,2.4566683769226074,-0.17978231608867645,0.0,0.0,0.0,0.0,0.0,0.0,0.0,-0.3727620309626114,-0.089470152479449,-0.2275131193058857,0.3623543537974564,-0.014814839728975623,0.09045474153331827,-0.20370833913310804,1.2135038988673894,-0.22029198138755665,-0.00750216873237002,-2.6040702121466923,-0.10895616453886306,2.4681227468384637,0.8264665090160237,1.2134413937687574,-0.2202432315892585,-0.0075118285948192216,-2.6038483821997875,-0.10888392708698907,2.4681821257803174,0.826474908251239,-0.00018610288330885304,-0.0006079378252420024,-0.00014495493676989802,-0.00012343904143950193,0.00012932235787932838,5.043416544694326e-05,-0.0011199106270109612,0.0,0.0,0.0,0.0,0.0,0.0,0.0,-6.250509863203746e-05,4.874979829816439e-05,-9.659862449201868e-06,0.00022182994690478353,7.223745187398545e-05,5.937894185370496e-05,8.399235215339473e-06,0.00018610288330885304,0.0006079378252420024,0.00014495493676989802,0.00012343904143950193,-0.00012932235787932838,-5.043416544694326e-05,0.0011199106270109612,0.3236324191093445,19.816431045532227,0.3713042438030243,-20.130342483520508,-0.5642600655555725,-2.4566683769226074,0.17978231608867645,0
44,0.21499919891357422,-0.3236324191093445,-19.816431045532227,-0.3713042438030243,20.130342483520508,0.5642600655555725,2.4566683769226074,-0.17978231608867645,0.0,0.0,0.0,0.0,0.0,0.0,0.0,-0.3727620309626114,-0.089470152479449,-0.2275131193058857,0.3623543537974564,-0.014814839728975623,0.09045474153331827,-0.20370833913310804,1.2135038988673894,-0.22029198138755665,-0.00750216873237002,-2.6040702121466923,-0.10895616453886306,2.4681227468384637,0.8264665090160237,1.2134413937687574,-0.2202432315892585,-0.0075118285948192216,-2.6038483821997875,-0.10888392708698907,2.4681821257803174,0.826474908251239,-0.00018610288330885304,-0.0006079378252420024,-0.00014495493676989802,-0.00012343904143950193,0.00012932235787932838,5.043416544694326e-05,-0.0011199106270109612,0.0,0.0,0.0,0.0,0.0,0.0,0.0,-6.250509863203746e-05,4.874979829816439e-05,-9.659862449201868e-06,0.00022182994690478353,7.223745187398545e-05,5.937894185370496e-05,8.399235215339473e-06,0.00018610288330885304,0.0006079378252420024,0.00014495493676989802,0.00012343904143950193,-0.00012932235787932838,-5.043416544694326e-05,0.0011199106270109612,0.3236324191093445,19.816431045532227,0.3713042438030243,-20.130342483520508,-0.5642600655555725,-2.4566683769226074,0.17978231608867645,0
45,0.22000479698181152,-0.3752071261405945,-19.816431045532227,-0.3990752398967743,20.106538772583008,0.5578513741493225,2.4630770683288574,-0.21457235515117645,0.0,0.0,0.0,0.0,0.0,0.0,0.0,-0.3762760671714002,-0.09625847048102466,-0.23113550919584833,0.36859157708281615,-0.014347153785207017,0.09041605322528017,-0.2034959385500454,1.2135075180360597,-0.22029198138755665,-0.007498798545500662,-2.604068541710837,-0.10895545229977475,2.468122034761641,0.8264703745759195,1.2134413937687574,-0.2202432315892585,-0.0075118285948192216,-2.6038483821997875,-0.10888392708698907,2.4681821257803174,0.826474908251239,0.0003937621360455576,-0.0006550329965159102,5.49414191065676e-05,0.001080877909922281,0.0004218247908788521,-8.435652000291469e-05,0.000561922413859273,0.0,0.0,0.0,0.0,0.0,0.0,0.0,-6.612426730234766e-05,4.874979829816439e-05,-1.3030049318559465e-05,0.00022015951104936704,7.15252127856808e-05,6.009101867654465e-05,4.533675319495778e-06,-0.0003937621360455576,0.0006550329965159102,-5.49414191065676e-05,-0.001080877909922281,-0.0004218247908788521,8.435652000291469e-05,-0.000561922413859273,0.3752071261405945,19.816431045532227,0.3990752398967743,-20.106538772583008,-0.5578513741493225,-2.4630770683288574,0.21457235515117645,0
46,0.22501254081726074,-0.3752071261405945,-19.816431045532227,-0.3990752398967743,20.106538772583008,0.5578513741493225,2.4630770683288574,-0.21457235515117645,0.0,0.0,0.0,0.0,0.0,0.0,0.0,-0.3762760671714002,-0.09625847048102466,-0.23113550919584833,0.36859157708281615,-0.014347153785207017,0.09041605322528017,-0.2034959385500454,1.2135075180360597,-0.22029198138755665,-0.007498798545500662,-2.604068541710837,-0.10895545229977475,2.468122034761641,0.8264703745759195,1.2134413937687574,-0.2202432315892585,-0.0075118285948192216,-2.6038483821997875,-0.10888392708698907,2.4681821257803174,0.826474908251239,0.0003937621360455576,-0.0006550329965159102,5.49414191065676e-05,0.001080877909922281,0.0004218247908788521,-8.435652000291469e-05,0.000561922413859273,0.0,0.0,0.0,0.0,0.0,0.0,0.0,-6.612426730234766e-05,4.874979829816439e-05,-1.3030049318559465e-05,0.00022015951104936704,7.15252127856808e-05,6.009101867654465e-05,4.533675319495778e-06,-0.0003937621360455576,0.0006550329965159102,-5.49414191065676e-05,-0.001080877909922281,-0.0004218247908788521,8.435652000291469e-05,-0.000561922413859273,0.3752071261405945,19.816431045532227,0.3990752398967743,-20.106538772583008,-0.5578513741493225,-2.4630770683288574,0.21457235515117645,0
47,0.22999954223632812,-0.3752071261405945,-19.792627334594727,-0.3990752398967743,20.130342483520508,0.5697532296180725,2.4630770683288574,-0.15964071452617645,0.0,0.0,0.0,0.0,0.0,0.0,0.0,-0.3680680547654481,-0.09980524319843179,-0.21967742665723733,0.370901978617219,-0.014902314962546957,0.09087000724704379,-0.20291387222205326,1.2135075181450758,-0.2202936518234119,-0.007498089660549435,-2.6040702121466923,-0.1089567748904225,2.468122034761641,0.8264642710602945,1.2134413937687574,-0.2202432315892585,-0.0075118285948192216,-2.6038483821997875,-0.10888392708698907,2.4681821257803174,0.826474908251239,0.0003899557847147125,-0.0010681488792298867,-3.118895635766311e-05,0.0007906639081990345,0.00010609981920422411,0.0001056613754955774,-0.0018766600385882644,0.0,0.0,0.0,0.0,0.0,0.0,0.0,-6.612437631847712e-05,5.0420234153414345e-05,-1.3738934269786653e-05,0.00022182994690478353,7.284780343343178e-05,6.009101867654465e-05,1.0637190944517982e-05,-0.0003899557847147125,0.0010681488792298867,3.118895635766311e-05,-0.0007906639081990345,-0.00010609981920422411,-0.0001056613754955774,0.0018766600385882644,0.3752071261405945,19.792627334594727,0.3990752398967743,-20.130342483520508,-0.5697532296180725,-2.4630770683288574,0.15964071452617645,0
48,0.23502326011657715,-0.3752071261405945,-19.792627334594727,-0.3990752398967743,20.130342483520508,0.5697532296180725,2.4630770683288574,-0.15964071452617645,0.0,0.0,0.0,0.0,0.0,0.0,0.0,-0.3680680547654481,-0.09980524319843179,-0.21967742665723733,0.370901978617219,-0.014902314962546957,0.09087000724704379,-0.20291387222205326,1.2135075181450758,-0.2202936518234119,-0.007498089660549435,-2.6040702121466923,-0.1089567748904225,2.468122034761641,0.8264642710602945,1.2134413937687574,-0.2202432315892585,-0.0075118285948192216,-2.6038483821997875,-0.10888392708698907,2.4681821257803174,0.826474908251239,0.0003899557847147125,-0.0010681488792298867,-3.118895635766311e-05,0.0007906639081990345,0.00010609981920422411,0.0001056613754955774,-0.0018766600385882644,0.0,0.0,0.0,0.0,0.0,0.0,0.0,-6.612437631847712e-05,5.0420234153414345e-05,-1.3738934269786653e-05,0.00022182994690478353,7.284780343343178e-05,6.009101867654465e-05,1.0637190944517982e-05,-0.0003899557847147125,0.0010681488792298867,3.118895635766311e-05,-0.0007906639081990345,-0.00010609981920422411,-0.0001056613754955774,0.0018766600385882644,0.3752071261405945,19.792627334594727,0.3990752398967743,-20.130342483520508,-0.5697532296180725,-2.4630770683288574,0.15964071452617645,0
49,0.23995280265808105,-0.4267818331718445,-19.868005752563477,-0.4466826617717743,20.181917190551758,0.5642600655555725,2.4758944511413574,-0.16604940593242645,0.0,0.0,0.0,0.0,0.0,0.0,0.0,-0.37418849930137177,-0.0983018748330666,-0.220584145103348,0.3683620811361115,-0.015093186562119571,0.09075784967457563,-0.20192400844253183,1.2135111374227623,-0.22028836210987024,-0.007495785098162965,-2.6040738314243783,-0.10895616015776903,2.468120610607995,0.8264650223829741,1.2134413937687574,-0.2202432315892585,-0.0075118285948192216,-2.6038483821997875,-0.10888392708698907,2.4681821257803174,0.826474908251239,0.000901060606101454,0.0008134317703399503,4.689219628224023e-05,-0.000896995552722573,0.00015542706651109866,-0.0005185663387707927,-0.00142924378766052,0.0,0.0,0.0,0.0,0.0,0.0,0.0,-6.974365400491678e-05,4.513052061175249e-05,-1.604349665625636e-05,0.0002254492245907791,7.223307077995622e-05,6.151517232222403e-05,9.885868264891684e-06,-0.000901060606101454,-0.0008134317703399503,-4.689219628224023e-05,0.000896995552722573,-0.00015542706651109866,0.0005185663387707927,0.00142924378766052,0.4267818331718445,19.868005752563477,0.4466826617717743,-20.181917190551758,-0.5642600655555725,-2.4758944511413574,0.16604940593242645,0
50,0.24500370025634766,-0.4267818331718445,-19.868005752563477,-0.4466826617717743,20.181917190551758,0.5642600655555725,2.4758944511413574,-0.16604940593242645,0.0,0.0,0.0,0.0,0.0,0.0,0.0,-0.37418849930137177,-0.0983018748330666,-0.220584145103348,0.3683620811361115,-0.015093186562119571,0.09075784967457563,-0.20192400844253183,1.2135111374227623,-0.22028836210987024,-0.007495785098162965,-2.6040738314243783,-0.10895616015776903,2.468120610607995,0.8264650223829741,1.2134413937687574,-0.2202432315892585,-0.0075118285948192216,-2.6038483821997875,-0.10888392708698907,2.4681821257803174,0.826474908251239,0.000901060606101454,0.0008134317703399503,4.689219628224023e-05,-0.000896995552722573,0.00015542706651109866,-0.0005185663387707927,-0.00142924378766052,0.0,0.0,0.0,0.0,0.0,0.0,0.0,-6.974365400491678e-05,4.513052061175249e-05,-1.604349665625636e-05,0.0002254492245907791,7.223307077995622e-05,6.151517232222403e-05,9.885868264891684e-06,-0.000901060606101454,-0.0008134317703399503,-4.689219628224023e-05,0.000896995552722573,-0.00015542706651109866,0.0005185663387707927,0.00142924378766052,0.4267818331718445,19.868005752563477,0.4466826617717743,-20.181917190551758,-0.5642600655555725,-2.4758944511413574,0.16604940593242645,0
51,0.2500464916229248,-0.4029781222343445,-19.816431045532227,-0.4466826617717743,20.154146194458008,0.5761619210243225,2.4630770683288574,-0.22098104655742645,0.0,0.0,0.0,0.0,0.0,0.0,0.0,-0.37736379695831407,-0.09780698872557665,-0.22213388768680056,0.3677714685415897,-0.0157957677935284,0.09106789465392755,-0.20136870867295875,1.2135094669869069,-0.22029198138755665,-0.007496956991691787,-2.6040718825825473,-0.10895748698526667,2.468122034761641,0.8264710866528163,1.2134413937687574,-0.2202432315892585,-0.0075118285948192216,-2.6038483821997875,-0.10888392708698907,2.4681821257803174,0.826474908251239,-0.0003708670861378493,-0.0003977632112314802,-0.00016991622993182495,-0.00036375586146664824,-0.00018224637957840867,0.00012359369273693888,0.0008417917988186213,0.0,0.0,0.0,0.0,0.0,0.0,0.0,-6.807321814950029e-05,4.874979829816439e-05,-1.4871603127434782e-05,0.00022350038275975592,7.355989827759202e-05,6.009101867654465e-05,3.821598422715233e-06,0.0003708670861378493,0.0003977632112314802,0.00016991622993182495,0.00036375586146664824,0.00018224637957840867,-0.00012359369273693888,-0.0008417917988186213,0.4029781222343445,19.816431045532227,0.4466826617717743,-20.154146194458008,-0.5761619210243225,-2.4630770683288574,0.22098104655742645,0
52,0.25539398193359375,-0.4029781222343445,-19.816431045532227,-0.4466826617717743,20.154146194458008,0.5761619210243225,2.4630770683288574,-0.22098104655742645,0.0,0.0,0.0,0.0,0.0,0.0,0.0,-0.37736379695831407,-0.09780698872557665,-0.22213388768680056,0.3677714685415897,-0.0157957677935284,0.09106789465392755,-0.20136870867295875,1.2135094669869069,-0.22029198138755665,-0.007496956991691787,-2.6040718825825473,-0.10895748698526667,2.468122034761641,0.8264710866528163,1.2134413937687574,-0.2202432315892585,-0.0075118285948192216,-2.6038483821997875,-0.10888392708698907,2.4681821257803174,0.826474908251239,-0.0003708670861378493,-0.0003977632112314802,-0.00016991622993182495,-0.00036375586146664824,-0.00018224637957840867,0.00012359369273693888,0.0008417917988186213,0.0,0.0,0.0,0.0,0.0,0.0,0.0,-6.807321814950029e-05,4.874979829816439e-05,-1.4871603127434782e-05,0.00022350038275975592,7.355989827759202e-05,6.009101867654465e-05,3.821598422715233e-06,0.0003708670861378493,0.0003977632112314802,0.00016991622993182495,0.00036375586146664824,0.00018224637957840867,-0.00012359369273693888,-0.0008417917988186213,0.4029781222343445,19.816431045532227,0.4466826617717743,-20.154146194458008,-0.5761619210243225,-2.4630770683288574,0.22098104655742645,0
53,0.26004958152770996,-0.4267818331718445,-19.792627334594727,-0.3990752398967743,20.154146194458008,0.5816550850868225,2.4566683769226074,-0.17337362468242645,0.0,0.0,0.0,0.0,0.0,0.0,0.0,-0.37839267016969674,-0.09832947274046525,-0.2222206680228236,0.36818458522907377,-0.016040151280668716,0.09159086527154736,-0.20186158375058252,1.2135111374227623,-0.2202936518234119,-0.007498170192777419,-2.6040718825825473,-0.10895809731880833,2.4681227468384637,0.8264657969392009,1.2134413937687574,-0.2202432315892585,-0.0075118285948192216,-2.6038483821997875,-0.10888392708698907,2.4681821257803174,0.826474908251239,0.000641521474408246,-0.0007218121480127484,-0.0013097497081608204,-0.0004610346630126709,0.006588293984960656,0.00018872251502822187,-0.0011717653499675753,0.0,0.0,0.0,0.0,0.0,0.0,0.0,-6.974365400491678e-05,5.0420234153414345e-05,-1.3658402041802353e-05,0.00022350038275975592,7.417023181925664e-05,5.937894185370496e-05,9.111312038179165e-06,-0.000641521474408246,0.0007218121480127484,0.0013097497081608204,0.0004610346630126709,-0.006588293984960656,-0.00018872251502822187,0.0011717653499675753,0.4267818331718445,19.792627334594727,0.3990752398967743,-20.154146194458008,-0.5816550850868225,-2.4566683769226074,0.17337362468242645,0
54,0.2650127410888672,-0.4267818331718445,-19.792627334594727,-0.3990752398967743,20.154146194458008,0.5816550850868225,2.4566683769226074,-0.17337362468242645,0.0,0.0,0.0,0.0,0.0,0.0,0.0,-0.37839267016969674,-0.09832947274046525,-0.2222206680228236,0.36818458522907377,-0.016040151280668716,0.09159086527154736,-0.20186158375058252,1.2135111374227623,-0.2202936518234119,-0.007498170192777419,-2.6040718825825473,-0.10895809731880833,2.4681227468384637,0.8264657969392009,1.2134413937687574,-0.2202432315892585,-0.0075118285948192216,-2.6038483821997875,-0.10888392708698907,2.4681821257803174,0.826474908251239,0.000641521474408246,-0.0007218121480127484,-0.0013097497081608204,-0.0004610346630126709,0.006588293984960656,0.00018872251502822187,-0.0011717653499675753,0.0,0.0,0.0,0.0,0.0,0.0,0.0,-6.974365400491678e-05,5.0420234153414345e-05,-1.3658402041802353e-05,0.00022350038275975592,7.417023181925664e-05,5.937894185370496e-05,9.111312038179165e-06,-0.000641521474408246,0.0007218121480127484,0.0013097497081608204,0.0004610346630126709,-0.006588293984960656,-0.00018872251502822187,0.0011717653499675753,0.4267818331718445,19.792627334594727,0.3990752398967743,-20.154146194458008,-0.5816550850868225,-2.4566683769226074,0.17337362468242645,0
55,0.26999592781066895,-0.4029781222343445,-19.844202041625977,-0.4228789508342743,20.130342483520508,0.5761619210243225,2.4694857597351074,-0.17978231608867645,0.0,0.0,0.0,0.0,0.0,0.0,0.0,-0.3815612595720163,-0.09760804935865494,-0.2273284176772581,0.36943439279928414,-0.015697452063481263,0.09152783614656564,-0.20209534197104614,1.2135094669869069,-0.22029003254572552,-0.007496419211792775,-2.6040702121466923,-0.10895748696724573,2.468121322684818,0.8264665090160237,1.2134413937687574,-0.2202432315892585,-0.0075118285948192216,-2.6038483821997875,-0.10888392708698907,2.4681821257803174,0.826474908251239,0.000539497741201481,0.0005107531447621415,-0.0006054575737297136,0.0002637075784328762,1.3271091413198384e-05,-0.0006020994247915298,-0.0011384416574788774,0.0,0.0,0.0,0.0,0.0,0.0,0.0,-6.807321814950029e-05,4.68009564670302e-05,-1.540938302644658e-05,0.00022182994690478353,7.355988025666005e-05,6.080309549938434e-05,8.399235215339473e-06,-0.000539497741201481,-0.0005107531447621415,0.0006054575737297136,-0.0002637075784328762,-1.3271091413198384e-05,0.0006020994247915298,0.0011384416574788774,0.4029781222343445,19.844202041625977,0.4228789508342743,-20.130342483520508,-0.5761619210243225,-2.4694857597351074,0.17978231608867645,0
56,0.27501606941223145,-0.4029781222343445,-19.844202041625977,-0.4228789508342743,20.130342483520508,0.5761619210243225,2.4694857597351074,-0.17978231608867645,0.0,0.0,0.0,0.0,0.0,0.0,0.0,-0.3815612595720163,-0.09760804935865494,-0.2273284176772581,0.36943439279928414,-0.015697452063481263,0.09152783614656564,-0.20209534197104614,1.2135094669869069,-0.22029003254572552,-0.007496419211792775,-2.6040702121466923,-0.10895748696724573,2.468121322684818,0.8264665090160237,1.2134413937687574,-0.2202432315892585,-0.0075118285948192216,-2.6038483821997875,-0.10888392708698907,2.4681821257803174,0.826474908251239,0.000539497741201481,0.0005107531447621415,-0.0006054575737297136,0.0002637075784328762,1.3271091413198384e-05,-0.0006020994247915298,-0.0011384416574788774,0.0,0.0,0.0,0.0,0.0,0.0,0.0,-6.807321814950029e-05,4.68009564670302e-05,-1.540938302644658e-05,0.00022182994690478353,7.355988025666005e-05,6.080309549938434e-05,8.399235215339473e-06,-0.000539497741201481,-0.0005107531447621415,0.0006054575737297136,-0.0002637075784328762,-1.3271091413198384e-05,0.0006020994247915298,0.0011384416574788774,0.4029781222343445,19.844202041625977,0.4228789508342743,-20.130342483520508,-0.5761619210243225,-2.4694857597351074,0.17978231608867645,0
57,0.2800312042236328,-0.4029781222343445,-19.844202041625977,-0.4228789508342743,20.181917190551758,0.5697532296180725,2.4630770683288574,-0.19351522624492645,0.0,0.0,0.0,0.0,0.0,0.0,0.0,-0.38293252853926735,-0.09422480422811626,-0.23491488010690184,0.37187636765894067,-0.014609701660307459,0.09118266175150462,-0.2028411867675756,1.2135094669869069,-0.22029003254572552,-0.007497364826021211,-2.6040738317393144,-0.10895677337597151,2.468122034761641,0.82646803489493,1.2134413937687574,-0.2202432315892585,-0.0075118285948192216,-2.6038483821997875,-0.10888392708698907,2.4681821257803174,0.826474908251239,0.0007604260094489639,0.00034500480522724783,-0.00030720234042437263,-0.0007921308656882362,4.824438605924853e-05,0.00010973084809394333,-0.0009195153733489235,0.0,0.0,0.0,0.0,0.0,0.0,0.0,-6.807321814950029e-05,4.68009564670302e-05,-1.4463768798010646e-05,0.0002254495395268563,7.284628898243661e-05,6.009101867654465e-05,6.8733563090006555e-06,-0.0007604260094489639,-0.00034500480522724783,0.00030720234042437263,0.0007921308656882362,-4.824438605924853e-05,-0.00010973084809394333,0.0009195153733489235,0.4029781222343445,19.844202041625977,0.4228789508342743,-20.181917190551758,-0.5697532296180725,-2.4630770683288574,0.19351522624492645,0
58,0.28502821922302246,-0.4029781222343445,-19.844202041625977,-0.4228789508342743,20.181917190551758,0.5697532296180725,2.4630770683288574,-0.19351522624492645,0.0,0.0,0.0,0.0,0.0,0.0,0.0,-0.38293252853926735,-0.09422480422811626,-0.23491488010690184,0.37187636765894067,-0.014609701660307459,0.09118266175150462,-0.2028411867675756,1.2135094669869069,-0.22029003254572552,-0.007497364826021211,-2.6040738317393144,-0.10895677337597151,2.468122034761641,0.82646803489493,1.2134413937687574,-0.2202432315892585,-0.0075118285948192216,-2.6038483821997875,-0.10888392708698907,2.4681821257803174,0.826474908251239,0.0007604260094489639,0.00034500480522724783,-0.00030720234042437263,-0.0007921308656882362,4.824438605924853e-05,0.00010973084809394333,-0.0009195153733489235,0.0,0.0,0.0,0.0,0.0,0.0,0.0,-6.807321814950029e-05,4.68009564670302e-05,-1.4463768798010646e-05,0.0002254495395268563,7.284628898243661e-05,6.009101867654465e-05,6.8733563090006555e-06,-0.0007604260094489639,-0.00034500480522724783,0.00030720234042437263,0.0007921308656882362,-4.824438605924853e-05,-0.00010973084809394333,0.0009195153733489235,0.4029781222343445,19.844202041625977,0.4228789508342743,-20.181917190551758,-0.5697532296180725,-2.4630770683288574,0.19351522624492645,0
59,0.2900121212005615,-0.3514034152030945,-19.891809463500977,-0.4228789508342743,20.154146194458008,0.5642600655555725,2.4630770683288574,-0.17337362468242645,0.0,0.0,0.0,0.0,0.0,0.0,0.0,-0.3793133615618441,-0.09938543183275896,-0.23387688441207466,0.3741401417117682,-0.014145840585017996,0.09185956653535807,-0.2045472747997267,1.2135058477092204,-0.220286691674015,-0.007496657568728796,-2.6040718826875278,-0.10895616453885176,2.468122034761641,0.8264657969392009,1.2134413937687574,-0.2202432315892585,-0.0075118285948192216,-2.6038483821997875,-0.10888392708698907,2.4681821257803174,0.826474908251239,-0.0005634161419034797,0.0007907270850162461,0.00012159257934912817,-6.422705102353623e-05,0.0002560655169445969,-3.093317217615328e-05,-0.0012605941653740951,0.0,0.0,0.0,0.0,0.0,0.0,0.0,-6.445394046306063e-05,4.346008475650254e-05,-1.5171026090425414e-05,0.00022350048774022468,7.223745186268893e-05,6.009101867654465e-05,9.111312038179165e-06,0.0005634161419034797,-0.0007907270850162461,-0.00012159257934912817,6.422705102353623e-05,-0.0002560655169445969,3.093317217615328e-05,0.0012605941653740951,0.3514034152030945,19.891809463500977,0.4228789508342743,-20.154146194458008,-0.5642600655555725,-2.4630770683288574,0.17337362468242645,0
60,0.29500865936279297,-0.3514034152030945,-19.891809463500977,-0.4228789508342743,20.154146194458008,0.5642600655555725,2.4630770683288574,-0.17337362468242645,0.0,0.0,0.0,0.0,0.0,0.0,0.0,-0.3793133615618441,-0.09938543183275896,-0.23387688441207466,0.3741401417117682,-0.014145840585017996,0.09185956653535807,-0.2045472747997267,1.2135058477092204,-0.220286691674015,-0.007496657568728796,-2.6040718826875278,-0.10895616453885176,2.468122034761641,0.8264657969392009,1.2134413937687574,-0.2202432315892585,-0.0075118285948192216,-2.6038483821997875,-0.10888392708698907,2.4681821257803174,0.826474908251239,-0.0005634161419034797,0.0007907270850162461,0.00012159257934912817,-6.422705102353623e-05,0.0002560655169445969,-3.093317217615328e-05,-0.0012605941653740951,0.0,0.0,0.0,0.0,0.0,0.0,0.0,-6.445394046306063e-05,4.346008475650254e-05,-1.5171026090425414e-05,0.00022350048774022468,7.223745186268893e-05,6.009101867654465e-05,9.111312038179165e-06,0.0005634161419034797,-0.0007907270850162461,-0.00012159257934912817,6.422705102353623e-05,-0.0002560655169445969,3.093317217615328e-05,0.0012605941653740951,0.3514034152030945,19.891809463500977,0.4228789508342743,-20.154146194458008,-0.5642600655555725,-2.4630770683288574,0.17337362468242645,0
61,0.30000948905944824,-0.3514034152030945,-19.891809463500977,-0.4228789508342743,20.154146194458008,0.5642600655555725,2.4630770683288574,-0.17337362468242645,0.0,0.0,0.0,0.0,0.0,0.0,0.0,-0.3793133615618441,-0.09938543183275896,-0.23387688441207466,0.3741401417117682,-0.014145840585017996,0.09185956653535807,-0.2045472747997267,1.2135058477092204,-0.220286691674015,-0.007496657568728796,-2.6040718826875278,-0.10895616453885176,2.468122034761641,0.8264657969392009,1.2134413937687574,-0.2202432315892585,-0.0075118285948192216,-2.6038483821997875,-0.10888392708698907,2.4681821257803174,0.826474908251239,-0.0005634161419034797,0.0007907270850162461,0.00012159257934912817,-6.422705102353623e-05,0.0002560655169445969,-3.093317217615328e-05,-0.0012605941653740951,0.0,0.0,0.0,0.0,0.0,0.0,0.0,-6.445394046306063e-05,4.346008475650254e-05,-1.5171026090425414e-05,0.00022350048774022468,7.223745186268893e-05,6.009101867654465e-05,9.111312038179165e-06,0.0005634161419034797,-0.0007907270850162461,-0.00012159257934912817,6.422705102353623e-05,-0.0002560655169445969,3.093317217615328e-05,0.0012605941653740951,0.3514034152030945,19.891809463500977,0.4228789508342743,-20.154146194458008,-0.5642600655555725,-2.4630770683288574,0.17337362468242645,0
62,0.3049585819244385,-0.3514034152030945,-19.891809463500977,-0.4228789508342743,20.154146194458008,0.5642600655555725,2.4630770683288574,-0.17337362468242645,0.0,0.0,0.0,0.0,0.0,0.0,0.0,-0.3793133615618441,-0.09938543183275896,-0.23387688441207466,0.3741401417117682,-0.014145840585017996,0.09185956653535807,-0.2045472747997267,1.2135058477092204,-0.220286691674015,-0.007496657568728796,-2.6040718826875278,-0.10895616453885176,2.468122034761641,0.8264657969392009,1.2134413937687574,-0.2202432315892585,-0.0075118285948192216,-2.6038483821997875,-0.10888392708698907,2.4681821257803174,0.826474908251239,-0.0005634161419034797,0.0007907270850162461,0.00012159257934912817,-6.422705102353623e-05,0.0002560655169445969,-3.093317217615328e-05,-0.0012605941653740951,0.0,0.0,0.0,0.0,0.0,0.0,0.0,-6.445394046306063e-05,4.346008475650254e-05,-1.5171026090425414e-05,0.00022350048774022468,7.223745186268893e-05,6.009101867654465e-05,9.111312038179165e-06,0.0005634161419034797,-0.0007907270850162461,-0.00012159257934912817,6.422705102353623e-05,-0.0002560655169445969,3.093317217615328e-05,0.0012605941653740951,0.3514034152030945,19.891809463500977,0.4228789508342743,-20.154146194458008,-0.5642600655555725,-2.4630770683288574,0.17337362468242645,0
63,0.3100316524505615,-0.3752071261405945,-19.868005752563477,-0.4228789508342743,20.154146194458008,0.5697532296180725,2.4694857597351074,-0.20724813640117645,0.0,0.0,0.0,0.0,0.0,0.0,0.0,-0.37905777150167796,-0.1022095519784804,-0.23151352808865597,0.3733553799113268,-0.014046263490459322,0.09203729572430967,-0.20350945878210808,1.2135075181450758,-0.22028836210987024,-0.007498812475119946,-2.6040718825825477,-0.10895677781115035,2.468121322684818,0.8264695607738363,1.2134413937687574,-0.2202432315892585,-0.0075118285948192216,-2.6038483821997875,-0.10888392708698907,2.4681821257803174,0.826474908251239,0.0002912089676912697,1.1546901765504817e-06,-6.625207121207892e-05,9.090275686763286e-05,0.00012127915307601447,-4.561937917468785e-05,0.0003352137450911255,0.0,0.0,0.0,0.0,0.0,0.0,0.0,-6.612437631847712e-05,4.513052061175249e-05,-1.3016119699275908e-05,0.0002235003827602,7.285072416127192e-05,6.080309549938434e-05,5.34747740277286e-06,-0.0002912089676912697,-1.1546901765504817e-06,6.625207121207892e-05,-9.090275686763286e-05,-0.00012127915307601447,4.561937917468785e-05,-0.0003352137450911255,0.3752071261405945,19.868005752563477,0.4228789508342743,-20.154146194458008,-0.5697532296180725,-2.4694857597351074,0.20724813640117645,0
64,0.31501054763793945,-0.3752071261405945,-19.868005752563477,-0.4228789508342743,20.154146194458008,0.5697532296180725,2.4694857597351074,-0.20724813640117645,0.0,0.0,0.0,0.0,0.0,0.0,0.0,-0.37905777150167796,-0.1022095519784804,-0.23151352808865597,0.3733553799113268,-0.014046263490459322,0.09203729572430967,-0.20350945878210808,1.2135075181450758,-0.22028836210987024,-0.007498812475119946,-2.6040718825825477,-0.10895677781115035,2.468121322684818,0.8264695607738363,1.2134413937687574,-0.2202432315892585,-0.0075118285948192216,-2.6038483821997875,-0.10888392708698907,2.4681821257803174,0.826474908251239,0.0002912089676912697,1.1546901765504817e-06,-6.625207121207892e-05,9.090275686763286e-05,0.00012127915307601447,-4.561937917468785e-05,0.0003352137450911255,0.0,0.0,0.0,0.0,0.0,0.0,0.0,-6.612437631847712e-05,4.513052061175249e-05,-1.3016119699275908e-05,0.0002235003827602,7.285072416127192e-05,6.080309549938434e-05,5.34747740277286e-06,-0.0002912089676912697,-1.1546901765504817e-06,6.625207121207892e-05,-9.090275686763286e-05,-0.00012127915307601447,4.561937917468785e-05,-0.0003352137450911255,0.3752071261405945,19.868005752563477,0.4228789508342743,-20.154146194458008,-0.5697532296180725,-2.4694857597351074,0.20724813640117645,0
65,0.31501054763793945,-0.3752071261405945,-19.868005752563477,-0.4228789508342743,20.154146194458008,0.5697532296180725,2.4694857597351074,-0.20724813640117645,0.0,0.0,0.0,0.0,0.0,0.0,0.0,-0.37905777150167796,-0.1022095519784804,-0.23151352808865597,0.3733553799113268,-0.014046263490459322,0.09203729572430967,-0.20350945878210808,1.2135075181450758,-0.22028836210987024,-0.007498812475119946,-2.6040718825825477,-0.10895677781115035,2.468121322684818,0.8264695607738363,1.2134413937687574,-0.2202432315892585,-0.0075118285948192216,-2.6038483821997875,-0.10888392708698907,2.4681821257803174,0.826474908251239,0.0002912089676912697,1.1546901765504817e-06,-6.625207121207892e-05,9.090275686763286e-05,0.00012127915307601447,-4.561937917468785e-05,0.0003352137450911255,0.0,0.0,0.0,0.0,0.0,0.0,0.0,-6.612437631847712e-05,4.513052061175249e-05,-1.3016119699275908e-05,0.0002235003827602,7.285072416127192e-05,6.080309549938434e-05,5.34747740277286e-06,-0.0002912089676912697,-1.1546901765504817e-06,6.625207121207892e-05,-9.090275686763286e-05,-0.00012127915307601447,4.561937917468785e-05,-0.0003352137450911255,0.3752071261405945,19.868005752563477,0.4228789508342743,-20.154146194458008,-0.5697532296180725,-2.4694857597351074,0.20724813640117645,0
66,0.3250119686126709,-0.3514034152030945,-19.816431045532227,-0.4228789508342743,20.130342483520508,0.5642600655555725,2.4566683769226074,-0.21457235515117645,0.0,0.0,0.0,0.0,0.0,0.0,0.0,-0.37109028883425466,-0.10763214615117797,-0.22291408218796202,0.37524103881197934,-0.01403509660816224,0.09324250163768297,-0.20321038139335335,1.2135058477092204,-0.22029198138755665,-0.007496657892619551,-2.6040702121466923,-0.10895616453886582,2.4681227468384637,0.8264703745759195,1.2134413937687574,-0.2202432315892585,-0.0075118285948192216,-2.6038483821997875,-0.10888392708698907,2.4681821257803174,0.826474908251239,5.723992735674874e-06,-0.0009630092004693568,0.0006670511008952783,0.0009578880464589959,0.00014534452612681236,0.0003828740108913675,0.00043614575255090157,0.0,0.0,0.0,0.0,0.0,0.0,0.0,-6.445394046306063e-05,4.874979829816439e-05,-1.517070219967092e-05,0.00022182994690478353,7.223745187674713e-05,5.937894185370496e-05,4.533675319495778e-06,-5.723992735674874e-06,0.0009630092004693568,-0.0006670511008952783,-0.0009578880464589959,-0.00014534452612681236,-0.0003828740108913675,-0.00043614575255090157,0.3514034152030945,19.816431045532227,0.4228789508342743,-20.130342483520508,-0.5642600655555725,-2.4566683769226074,0.21457235515117645,0
67,0.3299996852874756,-0.3514034152030945,-19.816431045532227,-0.4228789508342743,20.130342483520508,0.5642600655555725,2.4566683769226074,-0.21457235515117645,0.0,0.0,0.0,0.0,0.0,0.0,0.0,-0.37109028883425466,-0.10763214615117797,-0.22291408218796202,0.37524103881197934,-0.01403509660816224,0.09324250163768297,-0.20321038139335335,1.2135058477092204,-0.22029198138755665,-0.007496657892619551,-2.6040702121466923,-0.10895616453886582,2.4681227468384637,0.8264703745759195,1.2134413937687574,-0.2202432315892585,-0.0075118285948192216,-2.6038483821997875,-0.10888392708698907,2.4681821257803174,0.826474908251239,5.723992735674874e-06,-0.0009630092004693568,0.0006670511008952783,0.0009578880464589959,0.00014534452612681236,0.0003828740108913675,0.00043614575255090157,0.0,0.0,0.0,0.0,0.0,0.0,0.0,-6.445394046306063e-05,4.874979829816439e-05,-1.517070219967092e-05,0.00022182994690478353,7.223745187674713e-05,5.937894185370496e-05,4.533675319495778e-06,-5.723992735674874e-06,0.0009630092004693568,-0.0006670511008952783,-0.0009578880464589959,-0.00014534452612681236,-0.0003828740108913675,-0.00043614575255090157,0.3514034152030945,19.816431045532227,0.4228789508342743,-20.130342483520508,-0.5642600655555725,-2.4566683769226074,0.21457235515117645,0
68,0.33499693870544434,-0.3752071261405945,-19.792627334594727,-0.4228789508342743,20.130342483520508,0.5697532296180725,2.4566683769226074,-0.22830526530742645,0.0,0.0,0.0,0.0,0.0,0.0,0.0,-0.3720814569881192,-0.10969403927475625,-0.2248522486457949,0.37406339337911176,-0.013646695278592599,0.09303614214546514,-0.20326416114745322,1.2135075181450758,-0.2202936518234119,-0.007499350264607879,-2.6040702121466923,-0.10895677489042283,2.4681227468384637,0.8264719004548258,1.2134413937687574,-0.2202432315892585,-0.0075118285948192216,-2.6038483821997875,-0.10888392708698907,2.4681821257803174,0.826474908251239,0.0003012306337816468,-0.0013936612946083944,0.00024989373077363556,0.00026654249244942047,2.588235915171463e-05,0.00016213912807691317,0.0010287120490705065,0.0,0.0,0.0,0.0,0.0,0.0,0.0,-6.612437631847712e-05,5.0420234153414345e-05,-1.247833021134244e-05,0.00022182994690478353,7.284780343375097e-05,5.937894185370496e-05,3.0077964132679824e-06,-0.0003012306337816468,0.0013936612946083944,-0.00024989373077363556,-0.00026654249244942047,-2.588235915171463e-05,-0.00016213912807691317,-0.0010287120490705065,0.3752071261405945,19.792627334594727,0.4228789508342743,-20.130342483520508,-0.5697532296180725,-2.4566683769226074,0.22830526530742645,0
69,0.3399984836578369,-0.3752071261405945,-19.792627334594727,-0.4228789508342743,20.130342483520508,0.5697532296180725,2.4566683769226074,-0.22830526530742645,0.0,0.0,0.0,0.0,0.0,0.0,0.0,-0.3720814569881192,-0.10969403927475625,-0.2248522486457949,0.37406339337911176,-0.013646695278592599,0.09303614214546514,-0.20326416114745322,1.2135075181450758,-0.2202936518234119,-0.007499350264607879,-2.6040702121466923,-0.10895677489042283,2.4681227468384637,0.8264719004548258,1.2134413937687574,-0.2202432315892585,-0.0075118285948192216,-2.6038483821997875,-0.10888392708698907,2.4681821257803174,0.826474908251239,0.0003012306337816468,-0.0013936612946083944,0.00024989373077363556,0.00026654249244942047,2.588235915171463e-05,0.00016213912807691317,0.0010287120490705065,0.0,0.0,0.0,0.0,0.0,0.0,0.0,-6.612437631847712e-05,5.0420234153414345e-05,-1.247833021134244e-05,0.00022182994690478353,7.284780343375097e-05,5.937894185370496e-05,3.0077964132679824e-06,-0.0003012306337816468,0.0013936612946083944,-0.00024989373077363556,-0.00026654249244942047,-2.588235915171463e-05,-0.00016213912807691317,-0.0010287120490705065,0.3752071261405945,19.792627334594727,0.4228789508342743,-20.130342483520508,-0.5697532296180725,-2.4566683769226074,0.22830526530742645,0
70,0.34500789642333984,-0.3752071261405945,-19.844202041625977,-0.4466826617717743,20.154146194458008,0.5761619210243225,2.4630770683288574,-0.21457235515117645,0.0,0.0,0.0,0.0,0.0,0.0,0.0,-0.37346489811111655,-0.10825241699546351,-0.22659492429571257,0.3776761548588363,-0.013193074473173362,0.09272168459023397,-0.2046827561752508,1.2135075181450758,-0.22029003254572552,-0.007495773352260005,-2.6040718825825473,-0.10895748696724573,2.468122034761641,0.8264703745759195,1.2134413937687574,-0.2202432315892585,-0.0075118285948192216,-2.6038483821997875,-0.10888392708698907,2.4681821257803174,0.826474908251239,1.225211650990179e-05,0.0005308002350817443,0.00039963251161445867,6.36136293102473e-05,7.71039557867911e-06,-0.00012458566975403048,0.0005941181463049083,0.0,0.0,0.0,0.0,0.0,0.0,0.0,-6.612437631847712e-05,4.68009564670302e-05,-1.6055242559216698e-05,0.00022350038275975592,7.355988025666005e-05,6.009101867654465e-05,4.533675319495778e-06,-1.225211650990179e-05,-0.0005308002350817443,-0.00039963251161445867,-6.36136293102473e-05,-7.71039557867911e-06,0.00012458566975403048,-0.0005941181463049083,0.3752071261405945,19.844202041625977,0.4466826617717743,-20.154146194458008,-0.5761619210243225,-2.4630770683288574,0.21457235515117645,0
71,0.3499948978424072,-0.3752071261405945,-19.844202041625977,-0.4466826617717743,20.154146194458008,0.5761619210243225,2.4630770683288574,-0.21457235515117645,0.0,0.0,0.0,0.0,0.0,0.0,0.0,-0.37346489811111655,-0.10825241699546351,-0.22659492429571257,0.3776761548588363,-0.013193074473173362,0.09272168459023397,-0.2046827561752508,1.2135075181450758,-0.22029003254572552,-0.007495773352260005,-2.6040718825825473,-0.10895748696724573,2.468122034761641,0.8264703745759195,1.2134413937687574,-0.2202432315892585,-0.0075118285948192216,-2.6038483821997875,-0.10888392708698907,2.4681821257803174,0.826474908251239,1.225211650990179e-05,0.0005308002350817443,0.00039963251161445867,6.36136293102473e-05,7.71039557867911e-06,-0.00012458566975403048,0.0005941181463049083,0.0,0.0,0.0,0.0,0.0,0.0,0.0,-6.612437631847712e-05,4.68009564670302e-05,-1.6055242559216698e-05,0.00022350038275975592,7.355988025666005e-05,6.009101867654465e-05,4.533675319495778e-06,-1.225211650990179e-05,-0.0005308002350817443,-0.00039963251161445867,-6.36136293102473e-05,-7.71039557867911e-06,0.00012458566975403048,-0.0005941181463049083,0.3752071261405945,19.844202041625977,0.4466826617717743,-20.154146194458008,-0.5761619210243225,-2.4630770683288574,0.21457235515117645,0
72,0.35494184494018555,-0.4029781222343445,-19.792627334594727,-0.4228789508342743,20.154146194458008,0.5761619210243225,2.4630770683288574,-0.18710653483867645,0.0,0.0,0.0,0.0,0.0,0.0,0.0,-0.37746558952031745,-0.10734728941264314,-0.23210695768613737,0.3796881053778133,-0.012736453408839526,0.09239897120215096,-0.20573172490196,1.2135094669869069,-0.2202936518234119,-0.007496497910102013,-2.6040718825825473,-0.10895748696724573,2.468122034761641,0.8264673228181071,1.2134413937687574,-0.2202432315892585,-0.0075118285948192216,-2.6038483821997875,-0.10888392708698907,2.4681821257803174,0.826474908251239,-0.0002632570261446907,-0.0007692800078838524,-0.0005795755229122255,-0.00017425703555349267,-9.978763510935256e-05,6.141964529523266e-05,-0.001017138227684922,0.0,0.0,0.0,0.0,0.0,0.0,0.0,-6.807321814950029e-05,5.0420234153414345e-05,-1.533068471720831e-05,0.00022350038275975592,7.355988025666005e-05,6.009101867654465e-05,7.585433131951369e-06,0.0002632570261446907,0.0007692800078838524,0.0005795755229122255,0.00017425703555349267,9.978763510935256e-05,-6.141964529523266e-05,0.001017138227684922,0.4029781222343445,19.792627334594727,0.4228789508342743,-20.154146194458008,-0.5761619210243225,-2.4630770683288574,0.18710653483867645,0
73,0.3600170612335205,-0.4029781222343445,-19.792627334594727,-0.4228789508342743,20.154146194458008,0.5761619210243225,2.4630770683288574,-0.18710653483867645,0.0,0.0,0.0,0.0,0.0,0.0,0.0,-0.37746558952031745,-0.10734728941264314,-0.23210695768613737,0.3796881053778133,-0.012736453408839526,0.09239897120215096,-0.20573172490196,1.2135094669869069,-0.2202936518234119,-0.007496497910102013,-2.6040718825825473,-0.10895748696724573,2.468122034761641,0.8264673228181071,1.2134413937687574,-0.2202432315892585,-0.0075118285948192216,-2.6038483821997875,-0.10888392708698907,2.4681821257803174,0.826474908251239,-0.0002632570261446907,-0.0007692800078838524,-0.0005795755229122255,-0.00017425703555349267,-9.978763510935256e-05,6.141964529523266e-05,-0.001017138227684922,0.0,0.0,0.0,0.0,0.0,0.0,0.0,-6.807321814950029e-05,5.0420234153414345e-05,-1.533068471720831e-05,0.00022350038275975592,7.355988025666005e-05,6.009101867654465e-05,7.585433131951369e-06,0.0002632570261446907,0.0007692800078838524,0.0005795755229122255,0.00017425703555349267,9.978763510935256e-05,-6.141964529523266e-05,0.001017138227684922,0.4029781222343445,19.792627334594727,0.4228789508342743,-20.154146194458008,-0.5761619210243225,-2.4630770683288574,0.18710653483867645,0
74,0.36499786376953125,-0.4505855441093445,-19.844202041625977,-0.4228789508342743,20.154146194458008,0.5642600655555725,2.4630770683288574,-0.22830526530742645,0.0,0.0,0.0,0.0,0.0,0.0,0.0,-0.37659139849338097,-0.09534159961280254,-0.23015293750000493,0.37492516842563234,-0.012678438307572242,0.09228805664015106,-0.2064004946542318,1.2135128078586175,-0.22029003254572552,-0.007497136866686107,-2.6040718825825473,-0.10895616015776903,2.468122034761641,0.8264719004548258,1.2134413937687574,-0.2202432315892585,-0.0075118285948192216,-2.6038483821997875,-0.10888392708698907,2.4681821257803174,0.826474908251239,0.0013628249000517444,0.0008950044431997036,-0.0007542771565263641,-0.00027097508214295597,0.00022832583427888253,0.0002495184084291758,0.0011746583593958448,0.0,0.0,0.0,0.0,0.0,0.0,0.0,-7.141408986011122e-05,4.68009564670302e-05,-1.4691728133114403e-05,0.00022350038275975592,7.223307077995622e-05,6.009101867654465e-05,3.0077964132679824e-06,-0.0013628249000517444,-0.0008950044431997036,0.0007542771565263641,0.00027097508214295597,-0.00022832583427888253,-0.0002495184084291758,-0.0011746583593958448,0.4505855441093445,19.844202041625977,0.4228789508342743,-20.154146194458008,-0.5642600655555725,-2.4630770683288574,0.22830526530742645,0
75,0.3699991703033447,-0.4505855441093445,-19.844202041625977,-0.4228789508342743,20.154146194458008,0.5642600655555725,2.4630770683288574,-0.22830526530742645,0.0,0.0,0.0,0.0,0.0,0.0,0.0,-0.37659139849338097,-0.09534159961280254,-0.23015293750000493,0.37492516842563234,-0.012678438307572242,0.09228805664015106,-0.2064004946542318,1.2135128078586175,-0.22029003254572552,-0.007497136866686107,-2.6040718825825473,-0.10895616015776903,2.468122034761641,0.8264719004548258,1.2134413937687574,-0.2202432315892585,-0.0075118285948192216,-2.6038483821997875,-0.10888392708698907,2.4681821257803174,0.826474908251239,0.0013628249000517444,0.0008950044431997036,-0.0007542771565263641,-0.00027097508214295597,0.00022832583427888253,0.0002495184084291758,0.0011746583593958448,0.0,0.0,0.0,0.0,0.0,0.0,0.0,-7.141408986011122e-05,4.68009564670302e-05,-1.4691728133114403e-05,0.00022350038275975592,7.223307077995622e-05,6.009101867654465e-05,3.0077964132679824e-06,-0.0013628249000517444,-0.0008950044431997036,0.0007542771565263641,0.00027097508214295597,-0.00022832583427888253,-0.0002495184084291758,-0.0011746583593958448,0.4505855441093445,19.844202041625977,0.4228789508342743,-20.154146194458008,-0.5642600655555725,-2.4630770683288574,0.22830526530742645,0
76,0.37501072883605957,-0.3752071261405945,-19.868005752563477,-0.4704863727092743,20.130342483520508,0.5697532296180725,2.4758944511413574,-0.22098104655742645,0.0,0.0,0.0,0.0,0.0,0.0,0.0,-0.38413657682121544,-0.10246657221584053,-0.236234812175642,0.3791348794009464,-0.012909242025505958,0.09341644777597118,-0.20611843584745956,1.2135075181450758,-0.22028836210987024,-0.007495216368085906,-2.6040702121466923,-0.10895677635076186,2.468120610607995,0.8264710474068858,1.2134413937687574,-0.2202432315892585,-0.0075118285948192216,-2.6038483821997875,-0.10888392708698907,2.4681821257803174,0.826474908251239,-0.0008304289755430031,0.00046063068329818405,0.0003694374134873999,0.0003174316626496301,-9.143380527674549e-05,-0.0005985138670514787,0.000907897387280473,0.0,0.0,0.0,0.0,0.0,0.0,0.0,-6.612437631847712e-05,4.513052061175249e-05,-1.6612226733315333e-05,0.00022182994690478353,7.284926377278123e-05,6.151517232222403e-05,3.860844353220649e-06,0.0008304289755430031,-0.00046063068329818405,-0.0003694374134873999,-0.0003174316626496301,9.143380527674549e-05,0.0005985138670514787,-0.000907897387280473,0.3752071261405945,19.868005752563477,0.4704863727092743,-20.130342483520508,-0.5697532296180725,-2.4758944511413574,0.22098104655742645,0
77,0.3800013065338135,-0.3752071261405945,-19.868005752563477,-0.4704863727092743,20.130342483520508,0.5697532296180725,2.4758944511413574,-0.22098104655742645,0.0,0.0,0.0,0.0,0.0,0.0,0.0,-0.38413657682121544,-0.10246657221584053,-0.236234812175642,0.3791348794009464,-0.012909242025505958,0.09341644777597118,-0.20611843584745956,1.2135075181450758,-0.22028836210987024,-0.007495216368085906,-2.6040702121466923,-0.10895677635076186,2.468120610607995,0.8264710474068858,1.2134413937687574,-0.2202432315892585,-0.0075118285948192216,-2.6038483821997875,-0.10888392708698907,2.4681821257803174,0.826474908251239,-0.0008304289755430031,0.00046063068329818405,0.0003694374134873999,0.0003174316626496301,-9.143380527674549e-05,-0.0005985138670514787,0.000907897387280473,0.0,0.0,0.0,0.0,0.0,0.0,0.0,-6.612437631847712e-05,4.513052061175249e-05,-1.6612226733315333e-05,0.00022182994690478353,7.284926377278123e-05,6.151517232222403e-05,3.860844353220649e-06,0.0008304289755430031,-0.00046063068329818405,-0.0003694374134873999,-0.0003174316626496301,9.143380527674549e-05,0.0005985138670514787,-0.000907897387280473,0.3752071261405945,19.868005752563477,0.4704863727092743,-20.130342483520508,-0.5697532296180725,-2.4758944511413574,0.22098104655742645,0
78,0.38499951362609863,-0.4029781222343445,-19.891809463500977,-0.4228789508342743,20.130342483520508,0.5642600655555725,2.4630770683288574,-0.15964071452617645,0.0,0.0,0.0,0.0,0.0,0.0,0.0,-0.3772410866709561,-0.10225665316961313,-0.2280240828788383,0.37734499885923695,-0.01395741546441429,0.09329617045697872,-0.20543524866923624,1.2135094669869069,-0.220286691674015,-0.007496418922830141,-2.6040702121466923,-0.10895616453888506,2.468122034761641,0.8264642710596299,1.2134413937687574,-0.2202432315892585,-0.0075118285948192216,-2.6038483821997875,-0.10888392708698907,2.4681821257803174,0.826474908251239,0.0011361542552181998,0.0006412556700988439,-3.7101838032543116e-05,0.0006907910955033207,0.00034150393777503693,0.0001209201552618326,-0.001964110889341948,0.0,0.0,0.0,0.0,0.0,0.0,0.0,-6.807321814950029e-05,4.346008475650254e-05,-1.5409671989080782e-05,0.00022182994690478353,7.223745189598174e-05,6.009101867654465e-05,1.0637191609097485e-05,-0.0011361542552181998,-0.0006412556700988439,3.7101838032543116e-05,-0.0006907910955033207,-0.00034150393777503693,-0.0001209201552618326,0.001964110889341948,0.4029781222343445,19.891809463500977,0.4228789508342743,-20.130342483520508,-0.5642600655555725,-2.4630770683288574,0.15964071452617645,0
79,0.3899555206298828,-0.4029781222343445,-19.891809463500977,-0.4228789508342743,20.130342483520508,0.5642600655555725,2.4630770683288574,-0.15964071452617645,0.0,0.0,0.0,0.0,0.0,0.0,0.0,-0.3772410866709561,-0.10225665316961313,-0.2280240828788383,0.37734499885923695,-0.01395741546441429,0.09329617045697872,-0.20543524866923624,1.2135094669869069,-0.220286691674015,-0.007496418922830141,-2.6040702121466923,-0.10895616453888506,2.468122034761641,0.8264642710596299,1.2134413937687574,-0.2202432315892585,-0.0075118285948192216,-2.6038483821997875,-0.10888392708698907,2.4681821257803174,0.826474908251239,0.0011361542552181998,0.0006412556700988439,-3.7101838032543116e-05,0.0006907910955033207,0.00034150393777503693,0.0001209201552618326,-0.001964110889341948,0.0,0.0,0.0,0.0,0.0,0.0,0.0,-6.807321814950029e-05,4.346008475650254e-05,-1.5409671989080782e-05,0.00022182994690478353,7.223745189598174e-05,6.009101867654465e-05,1.0637191609097485e-05,-0.0011361542552181998,-0.0006412556700988439,3.7101838032543116e-05,-0.0006907910955033207,-0.00034150393777503693,-0.0001209201552618326,0.001964110889341948,0.4029781222343445,19.891809463500977,0.4228789508342743,-20.130342483520508,-0.5642600655555725,-2.4630770683288574,0.15964071452617645,0
