rezayati/contactInterpretation/dataset/franka_main/labeled_data/link4/d3_5.csv
index,time,tau_J0,tau_J1,tau_J2,tau_J3,tau_J4,tau_J5,tau_J6,tau_J_d0,tau_J_d1,tau_J_d2,tau_J_d3,tau_J_d4,tau_J_d5,tau_J_d6,tau_ext0,tau_ext1,tau_ext2,tau_ext3,tau_ext4,tau_ext5,tau_ext6,q0,q1,q2,q3,q4,q5,q6,q_d0,q_d1,q_d2,q_d3,q_d4,q_d5,q_d6,dq0,dq1,dq2,dq3,dq4,dq5,dq6,dq_d0,dq_d1,dq_d2,dq_d3,dq_d4,dq_d5,dq_d6,e0,e1,e2,e3,e4,e5,e6,de0,de1,de2,de3,de4,de5,de6,etau_J0,etau_J1,etau_J2,etau_J3,etau_J4,etau_J5,etau_J6,label
1,0.0,-0.6568843722343445,-46.34963607788086,-5.564480304718018,19.535249710083008,0.7427878975868225,2.4044833183288574,-0.13217489421367645,0.0,0.0,0.0,0.0,0.0,0.0,0.0,-0.6539442784144832,0.001546393477991472,-0.41610890329574274,0.3128761464162391,0.15827644386930492,0.1412189726991913,-0.14624676871487471,0.8780518357599956,0.7553890153232372,-0.2826098002238142,-1.6691086171133473,0.1414176132083774,2.4034472972046146,1.0273407931245035,0.878092876070424,0.7554597494309409,-0.2825552651693207,-1.6690993614607135,0.1414185955172306,2.4034451173676383,1.0273381002308042,0.0008724110936887586,0.0003627651998184735,-0.00020710130854815906,-1.388387828614785e-05,-0.00015410876880098367,0.003194045948772096,-0.000448830220032926,0.0,0.0,0.0,0.0,0.0,0.0,0.0,4.10403104283974e-05,7.073410770364053e-05,5.45350544934875e-05,9.255652633877176e-06,9.823088532034951e-07,-2.1798369762571213e-06,-2.692893699363097e-06,-0.0008724110936887586,-0.0003627651998184735,0.00020710130854815906,1.388387828614785e-05,0.00015410876880098367,-0.003194045948772096,0.000448830220032926,0.6568843722343445,46.34963607788086,5.564480304718018,-19.535249710083008,-0.7427878975868225,-2.4044833183288574,0.13217489421367645,0
2,0.0050013065338134766,-0.6806880831718445,-46.30202865600586,-5.564480304718018,19.535249710083008,0.7427878975868225,2.4108920097351074,-0.15964071452617645,0.0,0.0,0.0,0.0,0.0,0.0,0.0,-0.6423512086952036,0.00206339382503723,-0.4105569026220681,0.3132965876565387,0.15753400382943536,0.14238504245450564,-0.14691782761676045,0.8780537459197432,0.7553856744515267,-0.2826098005478824,-1.6691086171133473,0.1414179686285831,2.4034465415215305,1.027343844882316,0.878092876070424,0.7554597494309409,-0.2825552651693207,-1.6690993614607135,0.1414185955172306,2.4034451173676383,1.0273381002308042,0.0011708660200903098,-0.0008668802713935953,-0.00019625866781973098,-0.0003733109894449452,-2.7932638531160085e-05,0.0002851132869375765,0.0005687769269351378,0.0,0.0,0.0,0.0,0.0,0.0,0.0,3.91301506807995e-05,7.407497941414043e-05,5.4535378561648695e-05,9.255652633877176e-06,6.268886474924962e-07,-1.4241538921488939e-06,-5.744651511818688e-06,-0.0011708660200903098,0.0008668802713935953,0.00019625866781973098,0.0003733109894449452,2.7932638531160085e-05,-0.0002851132869375765,-0.0005687769269351378,0.6806880831718445,46.30202865600586,5.564480304718018,-19.535249710083008,-0.7427878975868225,-2.4108920097351074,0.15964071452617645,0
3,0.009994983673095703,-0.6806880831718445,-46.30202865600586,-5.564480304718018,19.535249710083008,0.7427878975868225,2.4108920097351074,-0.15964071452617645,0.0,0.0,0.0,0.0,0.0,0.0,0.0,-0.6423512086952036,0.00206339382503723,-0.4105569026220681,0.3132965876565387,0.15753400382943536,0.14238504245450564,-0.14691782761676045,0.8780537459197432,0.7553856744515267,-0.2826098005478824,-1.6691086171133473,0.1414179686285831,2.4034465415215305,1.027343844882316,0.878092876070424,0.7554597494309409,-0.2825552651693207,-1.6690993614607135,0.1414185955172306,2.4034451173676383,1.0273381002308042,0.0011708660200903098,-0.0008668802713935953,-0.00019625866781973098,-0.0003733109894449452,-2.7932638531160085e-05,0.0002851132869375765,0.0005687769269351378,0.0,0.0,0.0,0.0,0.0,0.0,0.0,3.91301506807995e-05,7.407497941414043e-05,5.4535378561648695e-05,9.255652633877176e-06,6.268886474924962e-07,-1.4241538921488939e-06,-5.744651511818688e-06,-0.0011708660200903098,0.0008668802713935953,0.00019625866781973098,0.0003733109894449452,2.7932638531160085e-05,-0.0002851132869375765,-0.0005687769269351378,0.6806880831718445,46.30202865600586,5.564480304718018,-19.535249710083008,-0.7427878975868225,-2.4108920097351074,0.15964071452617645,0
4,0.014993667602539062,-0.6053096652030945,-46.30202865600586,-5.564480304718018,19.459871292114258,0.7427878975868225,2.4044833183288574,-0.17337362468242645,0.0,0.0,0.0,0.0,0.0,0.0,0.0,-0.6319786688945104,0.001271268588995315,-0.4022820603736238,0.31692695818149536,0.15765403826913418,0.14400991201149171,-0.1473680857983013,0.878047648538323,0.7553856744515267,-0.28260980054788415,-1.6691033273998057,0.14141761321030025,2.4034472535981073,1.0273453707612223,0.878092876070424,0.7554597494309409,-0.2825552651693207,-1.6690993614607135,0.1414185955172306,2.4034451173676383,1.0273381002308042,-0.0008099038777613092,-0.0003272168994967805,-0.0005668792303647912,0.0013450636745970688,0.00014958813141291002,0.0002420090546056354,0.0010033364172055239,0.0,0.0,0.0,0.0,0.0,0.0,0.0,4.5227532101010937e-05,7.407497941414043e-05,5.453537856342505e-05,3.965939092243076e-06,9.823069303527276e-07,-2.136230468963163e-06,-7.270530418157506e-06,0.0008099038777613092,0.0003272168994967805,0.0005668792303647912,-0.0013450636745970688,-0.00014958813141291002,-0.0002420090546056354,-0.0010033364172055239,0.6053096652030945,46.30202865600586,5.564480304718018,-19.459871292114258,-0.7427878975868225,-2.4044833183288574,0.17337362468242645,0
5,0.019994020462036133,-0.6053096652030945,-46.30202865600586,-5.564480304718018,19.459871292114258,0.7427878975868225,2.4044833183288574,-0.17337362468242645,0.0,0.0,0.0,0.0,0.0,0.0,0.0,-0.6319786688945104,0.001271268588995315,-0.4022820603736238,0.31692695818149536,0.15765403826913418,0.14400991201149171,-0.1473680857983013,0.878047648538323,0.7553856744515267,-0.28260980054788415,-1.6691033273998057,0.14141761321030025,2.4034472535981073,1.0273453707612223,0.878092876070424,0.7554597494309409,-0.2825552651693207,-1.6690993614607135,0.1414185955172306,2.4034451173676383,1.0273381002308042,-0.0008099038777613092,-0.0003272168994967805,-0.0005668792303647912,0.0013450636745970688,0.00014958813141291002,0.0002420090546056354,0.0010033364172055239,0.0,0.0,0.0,0.0,0.0,0.0,0.0,4.5227532101010937e-05,7.407497941414043e-05,5.453537856342505e-05,3.965939092243076e-06,9.823069303527276e-07,-2.136230468963163e-06,-7.270530418157506e-06,0.0008099038777613092,0.0003272168994967805,0.0005668792303647912,-0.0013450636745970688,-0.00014958813141291002,-0.0002420090546056354,-0.0010033364172055239,0.6053096652030945,46.30202865600586,5.564480304718018,-19.459871292114258,-0.7427878975868225,-2.4044833183288574,0.17337362468242645,0
6,0.024994850158691406,-0.7084590792655945,-46.27822494506836,-5.588284015655518,19.511445999145508,0.7546897530555725,2.4173007011413574,-0.11844198405742645,0.0,0.0,0.0,0.0,0.0,0.0,0.0,-0.6456795495553175,-0.007573836073151807,-0.41068725157216335,0.321630264340625,0.1589450909158091,0.1449369232205563,-0.14667342676855216,0.8780556888735085,0.7553840040156715,-0.2826057680020323,-1.6691069551807611,0.1414162907799085,2.4034458294444616,1.0273392672455972,0.878092876070424,0.7554597494309409,-0.2825552651693207,-1.6690993614607135,0.1414185955172306,2.4034451173676383,1.0273381002308042,0.0008763897285239224,-0.0009586962690031646,0.00029851777866765085,0.0004076952626603907,-0.00020701334440283416,-0.0002933644851775728,-0.0006163593805971674,0.0,0.0,0.0,0.0,0.0,0.0,0.0,3.7187196915478005e-05,7.574541526933487e-05,5.0502832711574186e-05,7.593720047660568e-06,2.3047373221007916e-06,-7.120768232837804e-07,-1.1670147930242791e-06,-0.0008763897285239224,0.0009586962690031646,-0.00029851777866765085,-0.0004076952626603907,0.00020701334440283416,0.0002933644851775728,0.0006163593805971674,0.7084590792655945,46.27822494506836,5.588284015655518,-19.511445999145508,-0.7546897530555725,-2.4173007011413574,0.11844198405742645,0
7,0.029994726181030273,-0.7084590792655945,-46.27822494506836,-5.588284015655518,19.511445999145508,0.7546897530555725,2.4173007011413574,-0.11844198405742645,0.0,0.0,0.0,0.0,0.0,0.0,0.0,-0.6456795495553175,-0.007573836073151807,-0.41068725157216335,0.321630264340625,0.1589450909158091,0.1449369232205563,-0.14667342676855216,0.8780556888735085,0.7553840040156715,-0.2826057680020323,-1.6691069551807611,0.1414162907799085,2.4034458294444616,1.0273392672455972,0.878092876070424,0.7554597494309409,-0.2825552651693207,-1.6690993614607135,0.1414185955172306,2.4034451173676383,1.0273381002308042,0.0008763897285239224,-0.0009586962690031646,0.00029851777866765085,0.0004076952626603907,-0.00020701334440283416,-0.0002933644851775728,-0.0006163593805971674,0.0,0.0,0.0,0.0,0.0,0.0,0.0,3.7187196915478005e-05,7.574541526933487e-05,5.0502832711574186e-05,7.593720047660568e-06,2.3047373221007916e-06,-7.120768232837804e-07,-1.1670147930242791e-06,-0.0008763897285239224,0.0009586962690031646,-0.00029851777866765085,-0.0004076952626603907,0.00020701334440283416,0.0002933644851775728,0.0006163593805971674,0.7084590792655945,46.27822494506836,5.588284015655518,-19.511445999145508,-0.7546897530555725,-2.4173007011413574,0.11844198405742645,0
8,0.03499650955200195,-0.6806880831718445,-46.32583236694336,-5.588284015655518,19.487642288208008,0.7491965889930725,2.4173007011413574,-0.15231649577617645,0.0,0.0,0.0,0.0,0.0,0.0,0.0,-0.6414396067981291,-0.0033142814736640026,-0.40299303923670116,0.32075617334152035,0.1592939350401761,0.14502136657430253,-0.14441975077177302,0.8780537490300456,0.755387344887382,-0.2826081300626925,-1.669105276241685,0.14141690113147098,2.4034458294444616,1.0273433931232603,0.878092876070424,0.7554597494309409,-0.2825552651693207,-1.6690993614607135,0.1414185955172306,2.4034451173676383,1.0273381002308042,0.0002560889057607393,0.00021130557814474888,0.00025911752247828834,0.0007675256617918543,-6.383201898184326e-05,-0.00019014011876897257,0.0009389168243908162,0.0,0.0,0.0,0.0,0.0,0.0,0.0,3.912704037833947e-05,7.240454355883497e-05,5.2864893371751265e-05,5.914780971449929e-06,1.6943857596152245e-06,-7.120768232837804e-07,-5.292892456099096e-06,-0.0002560889057607393,-0.00021130557814474888,-0.00025911752247828834,-0.0007675256617918543,6.383201898184326e-05,0.00019014011876897257,-0.0009389168243908162,0.6806880831718445,46.32583236694336,5.588284015655518,-19.487642288208008,-0.7491965889930725,-2.4173007011413574,0.15231649577617645,0
9,0.040006160736083984,-0.6806880831718445,-46.32583236694336,-5.588284015655518,19.487642288208008,0.7491965889930725,2.4173007011413574,-0.15231649577617645,0.0,0.0,0.0,0.0,0.0,0.0,0.0,-0.6414396067981291,-0.0033142814736640026,-0.40299303923670116,0.32075617334152035,0.1592939350401761,0.14502136657430253,-0.14441975077177302,0.8780537490300456,0.755387344887382,-0.2826081300626925,-1.669105276241685,0.14141690113147098,2.4034458294444616,1.0273433931232603,0.878092876070424,0.7554597494309409,-0.2825552651693207,-1.6690993614607135,0.1414185955172306,2.4034451173676383,1.0273381002308042,0.0002560889057607393,0.00021130557814474888,0.00025911752247828834,0.0007675256617918543,-6.383201898184326e-05,-0.00019014011876897257,0.0009389168243908162,0.0,0.0,0.0,0.0,0.0,0.0,0.0,3.912704037833947e-05,7.240454355883497e-05,5.2864893371751265e-05,5.914780971449929e-06,1.6943857596152245e-06,-7.120768232837804e-07,-5.292892456099096e-06,-0.0002560889057607393,-0.00021130557814474888,-0.00025911752247828834,-0.0007675256617918543,6.383201898184326e-05,0.00019014011876897257,-0.0009389168243908162,0.6806880831718445,46.32583236694336,5.588284015655518,-19.487642288208008,-0.7491965889930725,-2.4173007011413574,0.15231649577617645,0
10,0.045000553131103516,-0.6568843722343445,-46.32583236694336,-5.588284015655518,19.535249710083008,0.7372947335243225,2.4044833183288574,-0.16604940593242645,0.0,0.0,0.0,0.0,0.0,0.0,0.0,-0.6412939387871434,0.0005329642736779472,-0.400114846735585,0.32077418432151916,0.15930201929536036,0.14496945087363902,-0.14259156439837245,0.8780520516127148,0.755387344887382,-0.28260600421303184,-1.6691086171133473,0.14141822355985642,2.4034472535981073,1.0273445564753036,0.878092876070424,0.7554597494309409,-0.2825552651693207,-1.6690993614607135,0.1414185955172306,2.4034451173676383,1.0273381002308042,0.00035635660226745124,0.00014169990773420376,-9.977196551590099e-05,-0.0005360132198436555,0.0002043796030524013,0.00023420942705229187,0.0012515341406963891,0.0,0.0,0.0,0.0,0.0,0.0,0.0,4.0824457709143225e-05,7.240454355883497e-05,5.073904371111215e-05,9.255652633877176e-06,3.719573741789439e-07,-2.136230468963163e-06,-6.456244499464248e-06,-0.00035635660226745124,-0.00014169990773420376,9.977196551590099e-05,0.0005360132198436555,-0.0002043796030524013,-0.00023420942705229187,-0.0012515341406963891,0.6568843722343445,46.32583236694336,5.588284015655518,-19.535249710083008,-0.7372947335243225,-2.4044833183288574,0.16604940593242645,0
11,0.04996299743652344,-0.6568843722343445,-46.32583236694336,-5.588284015655518,19.535249710083008,0.7372947335243225,2.4044833183288574,-0.16604940593242645,0.0,0.0,0.0,0.0,0.0,0.0,0.0,-0.6412939387871434,0.0005329642736779472,-0.400114846735585,0.32077418432151916,0.15930201929536036,0.14496945087363902,-0.14259156439837245,0.8780520516127148,0.755387344887382,-0.28260600421303184,-1.6691086171133473,0.14141822355985642,2.4034472535981073,1.0273445564753036,0.878092876070424,0.7554597494309409,-0.2825552651693207,-1.6690993614607135,0.1414185955172306,2.4034451173676383,1.0273381002308042,0.00035635660226745124,0.00014169990773420376,-9.977196551590099e-05,-0.0005360132198436555,0.0002043796030524013,0.00023420942705229187,0.0012515341406963891,0.0,0.0,0.0,0.0,0.0,0.0,0.0,4.0824457709143225e-05,7.240454355883497e-05,5.073904371111215e-05,9.255652633877176e-06,3.719573741789439e-07,-2.136230468963163e-06,-6.456244499464248e-06,-0.00035635660226745124,-0.00014169990773420376,9.977196551590099e-05,0.0005360132198436555,-0.0002043796030524013,-0.00023420942705229187,-0.0012515341406963891,0.6568843722343445,46.32583236694336,5.588284015655518,-19.535249710083008,-0.7372947335243225,-2.4044833183288574,0.16604940593242645,0
12,0.05499529838562012,-0.6806880831718445,-46.32583236694336,-5.588284015655518,19.487642288208008,0.7491965889930725,2.4173007011413574,-0.12485067546367645,0.0,0.0,0.0,0.0,0.0,0.0,0.0,-0.6542507953733658,-0.0064795719769865125,-0.4111638703535021,0.3236509365360006,0.1590616290983739,0.14545592396250182,-0.14253607413082064,0.8780515635263024,0.755387344887382,-0.28260789086483645,-1.669105276241637,0.14141690161901596,2.4034458294444616,1.0273399793224176,0.878092876070424,0.7554597494309409,-0.2825552651693207,-1.6690993614607135,0.1414185955172306,2.4034451173676383,1.0273381002308042,0.0006980343288708056,-0.00035515182331370253,-0.00043740722334146957,0.0007505050099807664,-0.0002384128446365679,-0.00024276297596086596,-0.0010021760448929164,0.0,0.0,0.0,0.0,0.0,0.0,0.0,4.131254412154117e-05,7.240454355883497e-05,5.262569551572893e-05,5.914780923488294e-06,1.6938982146386117e-06,-7.120768232837804e-07,-1.8790916134214797e-06,-0.0006980343288708056,0.00035515182331370253,0.00043740722334146957,-0.0007505050099807664,0.0002384128446365679,0.00024276297596086596,0.0010021760448929164,0.6806880831718445,46.32583236694336,5.588284015655518,-19.487642288208008,-0.7491965889930725,-2.4173007011413574,0.12485067546367645,0
13,0.060003042221069336,-0.6806880831718445,-46.32583236694336,-5.588284015655518,19.487642288208008,0.7491965889930725,2.4173007011413574,-0.12485067546367645,0.0,0.0,0.0,0.0,0.0,0.0,0.0,-0.6542507953733658,-0.0064795719769865125,-0.4111638703535021,0.3236509365360006,0.1590616290983739,0.14545592396250182,-0.14253607413082064,0.8780515635263024,0.755387344887382,-0.28260789086483645,-1.669105276241637,0.14141690161901596,2.4034458294444616,1.0273399793224176,0.878092876070424,0.7554597494309409,-0.2825552651693207,-1.6690993614607135,0.1414185955172306,2.4034451173676383,1.0273381002308042,0.0006980343288708056,-0.00035515182331370253,-0.00043740722334146957,0.0007505050099807664,-0.0002384128446365679,-0.00024276297596086596,-0.0010021760448929164,0.0,0.0,0.0,0.0,0.0,0.0,0.0,4.131254412154117e-05,7.240454355883497e-05,5.262569551572893e-05,5.914780923488294e-06,1.6938982146386117e-06,-7.120768232837804e-07,-1.8790916134214797e-06,-0.0006980343288708056,0.00035515182331370253,0.00043740722334146957,-0.0007505050099807664,0.0002384128446365679,0.00024276297596086596,0.0010021760448929164,0.6806880831718445,46.32583236694336,5.588284015655518,-19.487642288208008,-0.7491965889930725,-2.4173007011413574,0.12485067546367645,0
14,0.06500077247619629,-0.6568843722343445,-46.27822494506836,-5.536709308624268,19.535249710083008,0.7372947335243225,2.4108920097351074,-0.16604940593242645,0.0,0.0,0.0,0.0,0.0,0.0,0.0,-0.6409924343340164,0.006019491224178544,-0.4019072380498564,0.3168049033555853,0.15882535183675964,0.1445291554185822,-0.14361750746466298,0.8780513230991637,0.7553840040156715,-0.28261174938836475,-1.6691086171133473,0.14141822361403084,2.4034476011594137,1.0273445177132825,0.878092876070424,0.7554597494309409,-0.2825552651693207,-1.6690993614607135,0.1414185955172306,2.4034451173676383,1.0273381002308042,0.0005784402190093772,-0.0011232744604871073,-0.0011864847423074703,-0.0002208507335293283,0.00036794165455435635,-2.444862246880749e-05,0.0008652722795878149,0.0,0.0,0.0,0.0,0.0,0.0,0.0,4.155297126029467e-05,7.574541526933487e-05,5.648421904402845e-05,9.255652633877176e-06,3.719031997639899e-07,-2.483791775365063e-06,-6.417482478315861e-06,-0.0005784402190093772,0.0011232744604871073,0.0011864847423074703,0.0002208507335293283,-0.00036794165455435635,2.444862246880749e-05,-0.0008652722795878149,0.6568843722343445,46.27822494506836,5.536709308624268,-19.535249710083008,-0.7372947335243225,-2.4108920097351074,0.16604940593242645,0
15,0.06999897956848145,-0.6568843722343445,-46.27822494506836,-5.536709308624268,19.535249710083008,0.7372947335243225,2.4108920097351074,-0.16604940593242645,0.0,0.0,0.0,0.0,0.0,0.0,0.0,-0.6409924343340164,0.006019491224178544,-0.4019072380498564,0.3168049033555853,0.15882535183675964,0.1445291554185822,-0.14361750746466298,0.8780513230991637,0.7553840040156715,-0.28261174938836475,-1.6691086171133473,0.14141822361403084,2.4034476011594137,1.0273445177132825,0.878092876070424,0.7554597494309409,-0.2825552651693207,-1.6690993614607135,0.1414185955172306,2.4034451173676383,1.0273381002308042,0.0005784402190093772,-0.0011232744604871073,-0.0011864847423074703,-0.0002208507335293283,0.00036794165455435635,-2.444862246880749e-05,0.0008652722795878149,0.0,0.0,0.0,0.0,0.0,0.0,0.0,4.155297126029467e-05,7.574541526933487e-05,5.648421904402845e-05,9.255652633877176e-06,3.719031997639899e-07,-2.483791775365063e-06,-6.417482478315861e-06,-0.0005784402190093772,0.0011232744604871073,0.0011864847423074703,0.0002208507335293283,-0.00036794165455435635,2.444862246880749e-05,-0.0008652722795878149,0.6568843722343445,46.27822494506836,5.536709308624268,-19.535249710083008,-0.7372947335243225,-2.4108920097351074,0.16604940593242645,0
16,0.07499885559082031,-0.6568843722343445,-46.27822494506836,-5.536709308624268,19.535249710083008,0.7372947335243225,2.4108920097351074,-0.16604940593242645,0.0,0.0,0.0,0.0,0.0,0.0,0.0,-0.6409924343340164,0.006019491224178544,-0.4019072380498564,0.3168049033555853,0.15882535183675964,0.1445291554185822,-0.14361750746466298,0.8780513230991637,0.7553840040156715,-0.28261174938836475,-1.6691086171133473,0.14141822361403084,2.4034476011594137,1.0273445177132825,0.878092876070424,0.7554597494309409,-0.2825552651693207,-1.6690993614607135,0.1414185955172306,2.4034451173676383,1.0273381002308042,0.0005784402190093772,-0.0011232744604871073,-0.0011864847423074703,-0.0002208507335293283,0.00036794165455435635,-2.444862246880749e-05,0.0008652722795878149,0.0,0.0,0.0,0.0,0.0,0.0,0.0,4.155297126029467e-05,7.574541526933487e-05,5.648421904402845e-05,9.255652633877176e-06,3.719031997639899e-07,-2.483791775365063e-06,-6.417482478315861e-06,-0.0005784402190093772,0.0011232744604871073,0.0011864847423074703,0.0002208507335293283,-0.00036794165455435635,2.444862246880749e-05,-0.0008652722795878149,0.6568843722343445,46.27822494506836,5.536709308624268,-19.535249710083008,-0.7372947335243225,-2.4108920097351074,0.16604940593242645,0
17,0.07999610900878906,-0.6568843722343445,-46.27822494506836,-5.536709308624268,19.535249710083008,0.7372947335243225,2.4108920097351074,-0.16604940593242645,0.0,0.0,0.0,0.0,0.0,0.0,0.0,-0.6409924343340164,0.006019491224178544,-0.4019072380498564,0.3168049033555853,0.15882535183675964,0.1445291554185822,-0.14361750746466298,0.8780513230991637,0.7553840040156715,-0.28261174938836475,-1.6691086171133473,0.14141822361403084,2.4034476011594137,1.0273445177132825,0.878092876070424,0.7554597494309409,-0.2825552651693207,-1.6690993614607135,0.1414185955172306,2.4034451173676383,1.0273381002308042,0.0005784402190093772,-0.0011232744604871073,-0.0011864847423074703,-0.0002208507335293283,0.00036794165455435635,-2.444862246880749e-05,0.0008652722795878149,0.0,0.0,0.0,0.0,0.0,0.0,0.0,4.155297126029467e-05,7.574541526933487e-05,5.648421904402845e-05,9.255652633877176e-06,3.719031997639899e-07,-2.483791775365063e-06,-6.417482478315861e-06,-0.0005784402190093772,0.0011232744604871073,0.0011864847423074703,0.0002208507335293283,-0.00036794165455435635,2.444862246880749e-05,-0.0008652722795878149,0.6568843722343445,46.27822494506836,5.536709308624268,-19.535249710083008,-0.7372947335243225,-2.4108920097351074,0.16604940593242645,0
18,0.08504056930541992,-0.6291133761405945,-46.32583236694336,-5.564480304718018,19.511445999145508,0.7427878975868225,2.4108920097351074,-0.14590780436992645,0.0,0.0,0.0,0.0,0.0,0.0,0.0,-0.6386491021243599,-9.236427639012965e-05,-0.4018801134518675,0.3199158372484846,0.15923941208443712,0.1444515993378836,-0.14591550293803854,0.878050120744809,0.755387344887382,-0.2826098002238636,-1.6691069466774922,0.14141761326246566,2.403446541523278,1.027342319003336,0.878092876070424,0.7554597494309409,-0.2825552651693207,-1.6690993614607135,0.1414185955172306,2.4034451173676383,1.0273381002308042,0.00023887223518495268,-0.00035768530318955284,0.00015433683016106184,0.0004132782731304642,1.3391188819589204e-05,-0.00010880727907886142,0.00010376582269981135,0.0,0.0,0.0,0.0,0.0,0.0,0.0,4.275532561492934e-05,7.240454355883497e-05,5.4535054542892425e-05,7.585216778682735e-06,9.822547649418478e-07,-1.4241556396399346e-06,-4.218772531761061e-06,-0.00023887223518495268,0.00035768530318955284,-0.00015433683016106184,-0.0004132782731304642,-1.3391188819589204e-05,0.00010880727907886142,-0.00010376582269981135,0.6291133761405945,46.32583236694336,5.564480304718018,-19.511445999145508,-0.7427878975868225,-2.4108920097351074,0.14590780436992645,0
19,0.08999848365783691,-0.6291133761405945,-46.32583236694336,-5.564480304718018,19.511445999145508,0.7427878975868225,2.4108920097351074,-0.14590780436992645,0.0,0.0,0.0,0.0,0.0,0.0,0.0,-0.6386491021243599,-9.236427639012965e-05,-0.4018801134518675,0.3199158372484846,0.15923941208443712,0.1444515993378836,-0.14591550293803854,0.878050120744809,0.755387344887382,-0.2826098002238636,-1.6691069466774922,0.14141761326246566,2.403446541523278,1.027342319003336,0.878092876070424,0.7554597494309409,-0.2825552651693207,-1.6690993614607135,0.1414185955172306,2.4034451173676383,1.0273381002308042,0.00023887223518495268,-0.00035768530318955284,0.00015433683016106184,0.0004132782731304642,1.3391188819589204e-05,-0.00010880727907886142,0.00010376582269981135,0.0,0.0,0.0,0.0,0.0,0.0,0.0,4.275532561492934e-05,7.240454355883497e-05,5.4535054542892425e-05,7.585216778682735e-06,9.822547649418478e-07,-1.4241556396399346e-06,-4.218772531761061e-06,-0.00023887223518495268,0.00035768530318955284,-0.00015433683016106184,-0.0004132782731304642,-1.3391188819589204e-05,0.00010880727907886142,-0.00010376582269981135,0.6291133761405945,46.32583236694336,5.564480304718018,-19.511445999145508,-0.7427878975868225,-2.4108920097351074,0.14590780436992645,0
20,0.0957639217376709,-0.6291133761405945,-46.32583236694336,-5.564480304718018,19.511445999145508,0.7427878975868225,2.4108920097351074,-0.13858358561992645,0.0,0.0,0.0,0.0,0.0,0.0,0.0,-0.6386216677488589,0.0015648147638608935,-0.4001351786181675,0.3163754561325877,0.15906181317308477,0.14346632538005014,-0.1467870466679802,0.8780479352548752,0.755387344887382,-0.2826097742662134,-1.6691069466774922,0.1414176132082942,2.4034465415212845,1.027341867244354,0.878092876070424,0.7554597494309409,-0.2825552651693207,-1.6690993614607135,0.1414185955172306,2.4034451173676383,1.0273381002308042,0.00028022304501275043,0.0001594222335608691,2.095469928327966e-06,3.050202891682666e-05,-7.770896377717364e-05,-0.00014981779273044921,-0.0003630225836088011,0.0,0.0,0.0,0.0,0.0,0.0,0.0,4.494081554873297e-05,7.240454355883497e-05,5.450909689269645e-05,7.585216778682735e-06,9.823089363869553e-07,-1.4241536461234716e-06,-3.7670135497602786e-06,-0.00028022304501275043,-0.0001594222335608691,-2.095469928327966e-06,-3.050202891682666e-05,7.770896377717364e-05,0.00014981779273044921,0.0003630225836088011,0.6291133761405945,46.32583236694336,5.564480304718018,-19.511445999145508,-0.7427878975868225,-2.4108920097351074,0.13858358561992645,0
21,0.10000300407409668,-0.6291133761405945,-46.32583236694336,-5.564480304718018,19.511445999145508,0.7427878975868225,2.4108920097351074,-0.13858358561992645,0.0,0.0,0.0,0.0,0.0,0.0,0.0,-0.6386216677488589,0.0015648147638608935,-0.4001351786181675,0.3163754561325877,0.15906181317308477,0.14346632538005014,-0.1467870466679802,0.8780479352548752,0.755387344887382,-0.2826097742662134,-1.6691069466774922,0.1414176132082942,2.4034465415212845,1.027341867244354,0.878092876070424,0.7554597494309409,-0.2825552651693207,-1.6690993614607135,0.1414185955172306,2.4034451173676383,1.0273381002308042,0.00028022304501275043,0.0001594222335608691,2.095469928327966e-06,3.050202891682666e-05,-7.770896377717364e-05,-0.00014981779273044921,-0.0003630225836088011,0.0,0.0,0.0,0.0,0.0,0.0,0.0,4.494081554873297e-05,7.240454355883497e-05,5.450909689269645e-05,7.585216778682735e-06,9.823089363869553e-07,-1.4241536461234716e-06,-3.7670135497602786e-06,-0.00028022304501275043,-0.0001594222335608691,-2.095469928327966e-06,-3.050202891682666e-05,7.770896377717364e-05,0.00014981779273044921,0.0003630225836088011,0.6291133761405945,46.32583236694336,5.564480304718018,-19.511445999145508,-0.7427878975868225,-2.4108920097351074,0.13858358561992645,0
22,0.1050269603729248,-0.5815059542655945,-46.34963607788086,-5.588284015655518,19.511445999145508,0.7427878975868225,2.4108920097351074,-0.10470907390117645,0.0,0.0,0.0,0.0,0.0,0.0,0.0,-0.6408256165239734,0.004387933253963625,-0.4015954286685934,0.31394003192864317,0.15892935595555954,0.14323429983837777,-0.14709853287557015,0.8780467887325004,0.7553890153232372,-0.28260813011158387,-1.6691069466774922,0.14142116741118607,2.4034465546032364,1.0273377413728224,0.878092876070424,0.7554597494309409,-0.2825552651693207,-1.6690993614607135,0.1414185955172306,2.4034451173676383,1.0273381002308042,-0.0006829304230540755,0.0008916608886051461,0.0006245155255150943,0.0003198832232159159,-9.89469234458443e-05,-0.00018233870963652813,-0.0020968684228015928,0.0,0.0,0.0,0.0,0.0,0.0,0.0,4.6087337923550464e-05,7.073410770364053e-05,5.28649422631422e-05,7.585216778682735e-06,-2.571893955471971e-06,-1.4372355980896145e-06,3.588579817748183e-07,0.0006829304230540755,-0.0008916608886051461,-0.0006245155255150943,-0.0003198832232159159,9.89469234458443e-05,0.00018233870963652813,0.0020968684228015928,0.5815059542655945,46.34963607788086,5.588284015655518,-19.511445999145508,-0.7427878975868225,-2.4108920097351074,0.10470907390117645,0
23,0.11001420021057129,-0.5815059542655945,-46.34963607788086,-5.588284015655518,19.511445999145508,0.7427878975868225,2.4108920097351074,-0.10470907390117645,0.0,0.0,0.0,0.0,0.0,0.0,0.0,-0.6408256165239734,0.004387933253963625,-0.4015954286685934,0.31394003192864317,0.15892935595555954,0.14323429983837777,-0.14709853287557015,0.8780467887325004,0.7553890153232372,-0.28260813011158387,-1.6691069466774922,0.14142116741118607,2.4034465546032364,1.0273377413728224,0.878092876070424,0.7554597494309409,-0.2825552651693207,-1.6690993614607135,0.1414185955172306,2.4034451173676383,1.0273381002308042,-0.0006829304230540755,0.0008916608886051461,0.0006245155255150943,0.0003198832232159159,-9.89469234458443e-05,-0.00018233870963652813,-0.0020968684228015928,0.0,0.0,0.0,0.0,0.0,0.0,0.0,4.6087337923550464e-05,7.073410770364053e-05,5.28649422631422e-05,7.585216778682735e-06,-2.571893955471971e-06,-1.4372355980896145e-06,3.588579817748183e-07,0.0006829304230540755,-0.0008916608886051461,-0.0006245155255150943,-0.0003198832232159159,9.89469234458443e-05,0.00018233870963652813,0.0020968684228015928,0.5815059542655945,46.34963607788086,5.588284015655518,-19.511445999145508,-0.7427878975868225,-2.4108920097351074,0.10470907390117645,0
24,0.11501264572143555,-0.6291133761405945,-46.32583236694336,-5.588284015655518,19.511445999145508,0.7546897530555725,2.4108920097351074,-0.14590780436992645,0.0,0.0,0.0,0.0,0.0,0.0,0.0,-0.6316835136618186,-0.0029340653591623756,-0.3993204529567828,0.3205667235505678,0.1589388906374432,0.14393789671390955,-0.1473929381517774,0.8780501196112049,0.755387344887382,-0.28260742147902995,-1.6691069466774922,0.1414166476695205,2.403446541539254,1.0273423190034099,0.878092876070424,0.7554597494309409,-0.2825552651693207,-1.6690993614607135,0.1414185955172306,2.4034451173676383,1.0273381002308042,0.0005628388156570125,0.0002845318007271794,0.0006091319329168427,0.0004687275276393314,-0.0003700220920513692,0.0001619818351082954,-0.000514486265315285,0.0,0.0,0.0,0.0,0.0,0.0,0.0,4.275645921902882e-05,7.240454355883497e-05,5.215630970922813e-05,7.585216778682735e-06,1.9478477100987046e-06,-1.424171615749259e-06,-4.218772605701915e-06,-0.0005628388156570125,-0.0002845318007271794,-0.0006091319329168427,-0.0004687275276393314,0.0003700220920513692,-0.0001619818351082954,0.000514486265315285,0.6291133761405945,46.32583236694336,5.588284015655518,-19.511445999145508,-0.7546897530555725,-2.4108920097351074,0.14590780436992645,0
25,0.11995697021484375,-0.6291133761405945,-46.32583236694336,-5.588284015655518,19.511445999145508,0.7546897530555725,2.4108920097351074,-0.14590780436992645,0.0,0.0,0.0,0.0,0.0,0.0,0.0,-0.6316835136618186,-0.0029340653591623756,-0.3993204529567828,0.3205667235505678,0.1589388906374432,0.14393789671390955,-0.1473929381517774,0.8780501196112049,0.755387344887382,-0.28260742147902995,-1.6691069466774922,0.1414166476695205,2.403446541539254,1.0273423190034099,0.878092876070424,0.7554597494309409,-0.2825552651693207,-1.6690993614607135,0.1414185955172306,2.4034451173676383,1.0273381002308042,0.0005628388156570125,0.0002845318007271794,0.0006091319329168427,0.0004687275276393314,-0.0003700220920513692,0.0001619818351082954,-0.000514486265315285,0.0,0.0,0.0,0.0,0.0,0.0,0.0,4.275645921902882e-05,7.240454355883497e-05,5.215630970922813e-05,7.585216778682735e-06,1.9478477100987046e-06,-1.424171615749259e-06,-4.218772605701915e-06,-0.0005628388156570125,-0.0002845318007271794,-0.0006091319329168427,-0.0004687275276393314,0.0003700220920513692,-0.0001619818351082954,0.000514486265315285,0.6291133761405945,46.32583236694336,5.588284015655518,-19.511445999145508,-0.7546897530555725,-2.4108920097351074,0.14590780436992645,0
26,0.125,-0.6568843722343445,-46.27822494506836,-5.588284015655518,19.511445999145508,0.7491965889930725,2.4173007011413574,-0.17337362468242645,0.0,0.0,0.0,0.0,0.0,0.0,0.0,-0.6523578786939253,0.004720104339983826,-0.41344826643739474,0.3161990583915112,0.15969494872666767,0.14367824831418116,-0.14809859088743374,0.8780520516126575,0.7553840040156715,-0.28260813010802865,-1.6691069466774922,0.14141690113348562,2.4034458294444616,1.0273453709267655,0.878092876070424,0.7554597494309409,-0.2825552651693207,-1.6690993614607135,0.1414185955172306,2.4034451173676383,1.0273381002308042,-6.853266629264264e-05,-0.0007381269139642883,-1.227918547206852e-05,0.00034335909813616033,-0.00030694187921078233,-0.00021884071079051036,0.0011365382005730583,0.0,0.0,0.0,0.0,0.0,0.0,0.0,4.082445776643073e-05,7.574541526933487e-05,5.286493870793052e-05,7.585216778682735e-06,1.6943837449767685e-06,-7.120768232837804e-07,-7.270695961292262e-06,6.853266629264264e-05,0.0007381269139642883,1.227918547206852e-05,-0.00034335909813616033,0.00030694187921078233,0.00021884071079051036,-0.0011365382005730583,0.6568843722343445,46.27822494506836,5.588284015655518,-19.511445999145508,-0.7491965889930725,-2.4173007011413574,0.17337362468242645,0
27,0.12995147705078125,-0.6568843722343445,-46.27822494506836,-5.588284015655518,19.511445999145508,0.7491965889930725,2.4173007011413574,-0.17337362468242645,0.0,0.0,0.0,0.0,0.0,0.0,0.0,-0.6523578786939253,0.004720104339983826,-0.41344826643739474,0.3161990583915112,0.15969494872666767,0.14367824831418116,-0.14809859088743374,0.8780520516126575,0.7553840040156715,-0.28260813010802865,-1.6691069466774922,0.14141690113348562,2.4034458294444616,1.0273453709267655,0.878092876070424,0.7554597494309409,-0.2825552651693207,-1.6690993614607135,0.1414185955172306,2.4034451173676383,1.0273381002308042,-6.853266629264264e-05,-0.0007381269139642883,-1.227918547206852e-05,0.00034335909813616033,-0.00030694187921078233,-0.00021884071079051036,0.0011365382005730583,0.0,0.0,0.0,0.0,0.0,0.0,0.0,4.082445776643073e-05,7.574541526933487e-05,5.286493870793052e-05,7.585216778682735e-06,1.6943837449767685e-06,-7.120768232837804e-07,-7.270695961292262e-06,6.853266629264264e-05,0.0007381269139642883,1.227918547206852e-05,-0.00034335909813616033,0.00030694187921078233,0.00021884071079051036,-0.0011365382005730583,0.6568843722343445,46.27822494506836,5.588284015655518,-19.511445999145508,-0.7491965889930725,-2.4173007011413574,0.17337362468242645,0
28,0.1349947452545166,-0.6806880831718445,-46.34963607788086,-5.564480304718018,19.487642288208008,0.7491965889930725,2.4044833183288574,-0.12485067546367645,0.0,0.0,0.0,0.0,0.0,0.0,0.0,-0.6436907775998076,-0.004151893181195321,-0.4073662242670278,0.320276668207859,0.1591460007239486,0.1448139478067256,-0.14863097886597207,0.8780527776579805,0.7553890153232372,-0.28260980054788415,-1.669105276241637,0.14141690113147098,2.4034472535981073,1.0273399793224212,0.878092876070424,0.7554597494309409,-0.2825552651693207,-1.6690993614607135,0.1414185955172306,2.4034451173676383,1.0273381002308042,0.0004293981792093187,0.0006272895670199627,-0.0009250218029532978,0.0006407261846451711,-0.00029595319874483206,0.0002835596756644258,-0.00042171388222579805,0.0,0.0,0.0,0.0,0.0,0.0,0.0,4.009841244345669e-05,7.073410770364053e-05,5.453537856342505e-05,5.914780923488294e-06,1.6943857596152245e-06,-2.136230468963163e-06,-1.8790916169741934e-06,-0.0004293981792093187,-0.0006272895670199627,0.0009250218029532978,-0.0006407261846451711,0.00029595319874483206,-0.0002835596756644258,0.00042171388222579805,0.6806880831718445,46.34963607788086,5.564480304718018,-19.487642288208008,-0.7491965889930725,-2.4044833183288574,0.12485067546367645,0
29,0.1399991512298584,-0.6806880831718445,-46.34963607788086,-5.564480304718018,19.487642288208008,0.7491965889930725,2.4044833183288574,-0.12485067546367645,0.0,0.0,0.0,0.0,0.0,0.0,0.0,-0.6436907775998076,-0.004151893181195321,-0.4073662242670278,0.320276668207859,0.1591460007239486,0.1448139478067256,-0.14863097886597207,0.8780527776579805,0.7553890153232372,-0.28260980054788415,-1.669105276241637,0.14141690113147098,2.4034472535981073,1.0273399793224212,0.878092876070424,0.7554597494309409,-0.2825552651693207,-1.6690993614607135,0.1414185955172306,2.4034451173676383,1.0273381002308042,0.0004293981792093187,0.0006272895670199627,-0.0009250218029532978,0.0006407261846451711,-0.00029595319874483206,0.0002835596756644258,-0.00042171388222579805,0.0,0.0,0.0,0.0,0.0,0.0,0.0,4.009841244345669e-05,7.073410770364053e-05,5.453537856342505e-05,5.914780923488294e-06,1.6943857596152245e-06,-2.136230468963163e-06,-1.8790916169741934e-06,-0.0004293981792093187,-0.0006272895670199627,0.0009250218029532978,-0.0006407261846451711,0.00029595319874483206,-0.0002835596756644258,0.00042171388222579805,0.6806880831718445,46.34963607788086,5.564480304718018,-19.487642288208008,-0.7491965889930725,-2.4044833183288574,0.12485067546367645,0
30,0.14499998092651367,-0.6806880831718445,-46.37740707397461,-5.588284015655518,19.459871292114258,0.7372947335243225,2.4108920097351074,-0.15231649577617645,0.0,0.0,0.0,0.0,0.0,0.0,0.0,-0.6448815340358774,0.0014622085331587099,-0.40643779099126154,0.31676711894232346,0.15886296175274878,0.1447110483006985,-0.14728877559504902,0.8780513206762665,0.7553909641650683,-0.28260742147902995,-1.6691033273998057,0.14141857898014562,2.4034465415212845,1.0273430310802327,0.878092876070424,0.7554597494309409,-0.2825552651693207,-1.6690993614607135,0.1414185955172306,2.4034451173676383,1.0273381002308042,0.0002552861566406014,0.0015405339175997145,-0.00020834976494611465,0.001574119634035276,0.0002505151212473941,-6.67015384413235e-05,-0.0035683357256651857,0.0,0.0,0.0,0.0,0.0,0.0,0.0,4.155539415751086e-05,6.878526587250633e-05,5.215630970922813e-05,3.965939092243076e-06,1.65370849791735e-08,-1.4241536461234716e-06,-4.930849428541606e-06,-0.0002552861566406014,-0.0015405339175997145,0.00020834976494611465,-0.001574119634035276,-0.0002505151212473941,6.67015384413235e-05,0.0035683357256651857,0.6806880831718445,46.37740707397461,5.588284015655518,-19.459871292114258,-0.7372947335243225,-2.4108920097351074,0.15231649577617645,0
31,0.14995789527893066,-0.6806880831718445,-46.37740707397461,-5.588284015655518,19.459871292114258,0.7372947335243225,2.4108920097351074,-0.15231649577617645,0.0,0.0,0.0,0.0,0.0,0.0,0.0,-0.6448815340358774,0.0014622085331587099,-0.40643779099126154,0.31676711894232346,0.15886296175274878,0.1447110483006985,-0.14728877559504902,0.8780513206762665,0.7553909641650683,-0.28260742147902995,-1.6691033273998057,0.14141857898014562,2.4034465415212845,1.0273430310802327,0.878092876070424,0.7554597494309409,-0.2825552651693207,-1.6690993614607135,0.1414185955172306,2.4034451173676383,1.0273381002308042,0.0002552861566406014,0.0015405339175997145,-0.00020834976494611465,0.001574119634035276,0.0002505151212473941,-6.67015384413235e-05,-0.0035683357256651857,0.0,0.0,0.0,0.0,0.0,0.0,0.0,4.155539415751086e-05,6.878526587250633e-05,5.215630970922813e-05,3.965939092243076e-06,1.65370849791735e-08,-1.4241536461234716e-06,-4.930849428541606e-06,-0.0002552861566406014,-0.0015405339175997145,0.00020834976494611465,-0.001574119634035276,-0.0002505151212473941,6.67015384413235e-05,0.0035683357256651857,0.6806880831718445,46.37740707397461,5.588284015655518,-19.459871292114258,-0.7372947335243225,-2.4108920097351074,0.15231649577617645,0
32,0.15500187873840332,-0.6568843722343445,-46.32583236694336,-5.564480304718018,19.487642288208008,0.7372947335243225,2.4044833183288574,-0.11111776530742645,0.0,0.0,0.0,0.0,0.0,0.0,0.0,-0.6441620969222421,-0.0019582250906053093,-0.4028803197832253,0.3165435511727651,0.15778077937758234,0.144402651204966,-0.14530103918179732,0.8780520785896718,0.755387344887382,-0.2826098002225302,-1.669105276241637,0.1414182235605252,2.4034472535981073,1.027338453443514,0.878092876070424,0.7554597494309409,-0.2825552651693207,-1.6690993614607135,0.1414185955172306,2.4034451173676383,1.0273381002308042,-0.00018223557674386937,-0.0004901202462814288,-0.00022811043110202158,0.0009068833195107688,0.00014254661165186602,0.00011690922407505131,-0.0019344313755387094,0.0,0.0,0.0,0.0,0.0,0.0,0.0,4.0797480752141624e-05,7.240454355883497e-05,5.453505320945906e-05,5.914780923488294e-06,3.7195670540834946e-07,-2.136230468963163e-06,-3.532127097471971e-07,0.00018223557674386937,0.0004901202462814288,0.00022811043110202158,-0.0009068833195107688,-0.00014254661165186602,-0.00011690922407505131,0.0019344313755387094,0.6568843722343445,46.32583236694336,5.564480304718018,-19.487642288208008,-0.7372947335243225,-2.4044833183288574,0.11111776530742645,0
33,0.16001224517822266,-0.6568843722343445,-46.32583236694336,-5.564480304718018,19.487642288208008,0.7372947335243225,2.4044833183288574,-0.11111776530742645,0.0,0.0,0.0,0.0,0.0,0.0,0.0,-0.6441620969222421,-0.0019582250906053093,-0.4028803197832253,0.3165435511727651,0.15778077937758234,0.144402651204966,-0.14530103918179732,0.8780520785896718,0.755387344887382,-0.2826098002225302,-1.669105276241637,0.1414182235605252,2.4034472535981073,1.027338453443514,0.878092876070424,0.7554597494309409,-0.2825552651693207,-1.6690993614607135,0.1414185955172306,2.4034451173676383,1.0273381002308042,-0.00018223557674386937,-0.0004901202462814288,-0.00022811043110202158,0.0009068833195107688,0.00014254661165186602,0.00011690922407505131,-0.0019344313755387094,0.0,0.0,0.0,0.0,0.0,0.0,0.0,4.0797480752141624e-05,7.240454355883497e-05,5.453505320945906e-05,5.914780923488294e-06,3.7195670540834946e-07,-2.136230468963163e-06,-3.532127097471971e-07,0.00018223557674386937,0.0004901202462814288,0.00022811043110202158,-0.0009068833195107688,-0.00014254661165186602,-0.00011690922407505131,0.0019344313755387094,0.6568843722343445,46.32583236694336,5.564480304718018,-19.487642288208008,-0.7372947335243225,-2.4044833183288574,0.11111776530742645,0
34,0.16500091552734375,-0.6291133761405945,-46.32583236694336,-5.612087726593018,19.487642288208008,0.7372947335243225,2.3980746269226074,-0.17337362468242645,0.0,0.0,0.0,0.0,0.0,0.0,0.0,-0.642257253633113,-0.003965130585421692,-0.3981688096702211,0.3180084122052066,0.15741994585009061,0.14366541203759223,-0.144691679183364,0.8780479161568909,0.755387344887382,-0.2826064567239844,-1.669105276241637,0.14141857898014562,2.4034480834125,1.0273453707612223,0.878092876070424,0.7554597494309409,-0.2825552651693207,-1.6690993614607135,0.1414185955172306,2.4034451173676383,1.0273381002308042,7.600532524895601e-05,-1.1710701550734953e-05,0.00010735978644147397,0.001140110531477293,0.00025995125630265463,0.00035762515345817713,0.0012741003024756472,0.0,0.0,0.0,0.0,0.0,0.0,0.0,4.4959913533038076e-05,7.240454355883497e-05,5.1191554663654326e-05,5.914780923488294e-06,1.65370849791735e-08,-2.9660448617185864e-06,-7.270530418157506e-06,-7.600532524895601e-05,1.1710701550734953e-05,-0.00010735978644147397,-0.001140110531477293,-0.00025995125630265463,-0.00035762515345817713,-0.0012741003024756472,0.6291133761405945,46.32583236694336,5.612087726593018,-19.487642288208008,-0.7372947335243225,-2.3980746269226074,0.17337362468242645,0
35,0.1699998378753662,-0.6291133761405945,-46.32583236694336,-5.612087726593018,19.487642288208008,0.7372947335243225,2.3980746269226074,-0.17337362468242645,0.0,0.0,0.0,0.0,0.0,0.0,0.0,-0.642257253633113,-0.003965130585421692,-0.3981688096702211,0.3180084122052066,0.15741994585009061,0.14366541203759223,-0.144691679183364,0.8780479161568909,0.755387344887382,-0.2826064567239844,-1.669105276241637,0.14141857898014562,2.4034480834125,1.0273453707612223,0.878092876070424,0.7554597494309409,-0.2825552651693207,-1.6690993614607135,0.1414185955172306,2.4034451173676383,1.0273381002308042,7.600532524895601e-05,-1.1710701550734953e-05,0.00010735978644147397,0.001140110531477293,0.00025995125630265463,0.00035762515345817713,0.0012741003024756472,0.0,0.0,0.0,0.0,0.0,0.0,0.0,4.4959913533038076e-05,7.240454355883497e-05,5.1191554663654326e-05,5.914780923488294e-06,1.65370849791735e-08,-2.9660448617185864e-06,-7.270530418157506e-06,-7.600532524895601e-05,1.1710701550734953e-05,-0.00010735978644147397,-0.001140110531477293,-0.00025995125630265463,-0.00035762515345817713,-0.0012741003024756472,0.6291133761405945,46.32583236694336,5.612087726593018,-19.487642288208008,-0.7372947335243225,-2.3980746269226074,0.17337362468242645,0
36,0.175767183303833,-0.6053096652030945,-46.30202865600586,-5.564480304718018,19.559053421020508,0.7491965889930725,2.4044833183288574,-0.14590780436992645,0.0,0.0,0.0,0.0,0.0,0.0,0.0,-0.6557688188328638,-0.01286358634539658,-0.41257471749498903,0.3225703097363189,0.15790704035496014,0.14382326191430705,-0.14449018207906686,0.8780484583047432,0.7553856744515267,-0.28260980022384696,-1.6691102875492028,0.14141701960690706,2.4034472535987716,1.0273423190034099,0.878092876070424,0.7554597494309409,-0.2825552651693207,-1.6690993614607135,0.1414185955172306,2.4034451173676383,1.0273381002308042,-0.001089725834476933,-0.001227297103913362,-0.0005925538868800723,-0.0005374829733009146,-0.00035258433962012296,0.000345921096113627,0.0002596971129902991,0.0,0.0,0.0,0.0,0.0,0.0,0.0,4.4417765680759835e-05,7.407497941414043e-05,5.453505452623908e-05,1.0926088489293662e-05,1.5759103235424288e-06,-2.1362311333206208e-06,-4.218772605701915e-06,0.001089725834476933,0.001227297103913362,0.0005925538868800723,0.0005374829733009146,0.00035258433962012296,-0.000345921096113627,-0.0002596971129902991,0.6053096652030945,46.30202865600586,5.564480304718018,-19.559053421020508,-0.7491965889930725,-2.4044833183288574,0.14590780436992645,0
37,0.18028593063354492,-0.6053096652030945,-46.30202865600586,-5.564480304718018,19.559053421020508,0.7491965889930725,2.4044833183288574,-0.14590780436992645,0.0,0.0,0.0,0.0,0.0,0.0,0.0,-0.6557688188328638,-0.01286358634539658,-0.41257471749498903,0.3225703097363189,0.15790704035496014,0.14382326191430705,-0.14449018207906686,0.8780484583047432,0.7553856744515267,-0.28260980022384696,-1.6691102875492028,0.14141701960690706,2.4034472535987716,1.0273423190034099,0.878092876070424,0.7554597494309409,-0.2825552651693207,-1.6690993614607135,0.1414185955172306,2.4034451173676383,1.0273381002308042,-0.001089725834476933,-0.001227297103913362,-0.0005925538868800723,-0.0005374829733009146,-0.00035258433962012296,0.000345921096113627,0.0002596971129902991,0.0,0.0,0.0,0.0,0.0,0.0,0.0,4.4417765680759835e-05,7.407497941414043e-05,5.453505452623908e-05,1.0926088489293662e-05,1.5759103235424288e-06,-2.1362311333206208e-06,-4.218772605701915e-06,0.001089725834476933,0.001227297103913362,0.0005925538868800723,0.0005374829733009146,0.00035258433962012296,-0.000345921096113627,-0.0002596971129902991,0.6053096652030945,46.30202865600586,5.564480304718018,-19.559053421020508,-0.7491965889930725,-2.4044833183288574,0.14590780436992645,0
38,0.18500661849975586,-0.6053096652030945,-46.30202865600586,-5.564480304718018,19.559053421020508,0.7491965889930725,2.4044833183288574,-0.14590780436992645,0.0,0.0,0.0,0.0,0.0,0.0,0.0,-0.6557688188328638,-0.01286358634539658,-0.41257471749498903,0.3225703097363189,0.15790704035496014,0.14382326191430705,-0.14449018207906686,0.8780484583047432,0.7553856744515267,-0.28260980022384696,-1.6691102875492028,0.14141701960690706,2.4034472535987716,1.0273423190034099,0.878092876070424,0.7554597494309409,-0.2825552651693207,-1.6690993614607135,0.1414185955172306,2.4034451173676383,1.0273381002308042,-0.001089725834476933,-0.001227297103913362,-0.0005925538868800723,-0.0005374829733009146,-0.00035258433962012296,0.000345921096113627,0.0002596971129902991,0.0,0.0,0.0,0.0,0.0,0.0,0.0,4.4417765680759835e-05,7.407497941414043e-05,5.453505452623908e-05,1.0926088489293662e-05,1.5759103235424288e-06,-2.1362311333206208e-06,-4.218772605701915e-06,0.001089725834476933,0.001227297103913362,0.0005925538868800723,0.0005374829733009146,0.00035258433962012296,-0.000345921096113627,-0.0002596971129902991,0.6053096652030945,46.30202865600586,5.564480304718018,-19.559053421020508,-0.7491965889930725,-2.4044833183288574,0.14590780436992645,0
39,0.1900014877319336,-0.6053096652030945,-46.37740707397461,-5.564480304718018,19.559053421020508,0.7427878975868225,2.4108920097351074,-0.14590780436992645,0.0,0.0,0.0,0.0,0.0,0.0,0.0,-0.6409605754447131,0.0005053497418141837,-0.402689021841733,0.3165595425939366,0.15698156767621702,0.14261759304232544,-0.1459163912499595,0.8780484562075666,0.7553909641650683,-0.2826097995758206,-1.6691102875492028,0.14141761320896268,2.4034465415212845,1.0273423190034099,0.878092876070424,0.7554597494309409,-0.2825552651693207,-1.6690993614607135,0.1414185955172306,2.4034451173676383,1.0273381002308042,-0.0005970847722832701,0.0009695368255848317,-0.0002912584813229831,-0.0008711682095945399,-8.143123568420772e-05,-0.00029920635600808065,1.0200424024295709e-05,0.0,0.0,0.0,0.0,0.0,0.0,0.0,4.4419862857414394e-05,6.878526587250633e-05,5.453440649988428e-05,1.0926088489293662e-05,9.823082679216721e-07,-1.4241536461234716e-06,-4.218772605701915e-06,0.0005970847722832701,-0.0009695368255848317,0.0002912584813229831,0.0008711682095945399,8.143123568420772e-05,0.00029920635600808065,-1.0200424024295709e-05,0.6053096652030945,46.37740707397461,5.564480304718018,-19.559053421020508,-0.7427878975868225,-2.4108920097351074,0.14590780436992645,0
40,0.19504880905151367,-0.6053096652030945,-46.37740707397461,-5.564480304718018,19.559053421020508,0.7427878975868225,2.4108920097351074,-0.14590780436992645,0.0,0.0,0.0,0.0,0.0,0.0,0.0,-0.6409605754447131,0.0005053497418141837,-0.402689021841733,0.3165595425939366,0.15698156767621702,0.14261759304232544,-0.1459163912499595,0.8780484562075666,0.7553909641650683,-0.2826097995758206,-1.6691102875492028,0.14141761320896268,2.4034465415212845,1.0273423190034099,0.878092876070424,0.7554597494309409,-0.2825552651693207,-1.6690993614607135,0.1414185955172306,2.4034451173676383,1.0273381002308042,-0.0005970847722832701,0.0009695368255848317,-0.0002912584813229831,-0.0008711682095945399,-8.143123568420772e-05,-0.00029920635600808065,1.0200424024295709e-05,0.0,0.0,0.0,0.0,0.0,0.0,0.0,4.4419862857414394e-05,6.878526587250633e-05,5.453440649988428e-05,1.0926088489293662e-05,9.823082679216721e-07,-1.4241536461234716e-06,-4.218772605701915e-06,0.0005970847722832701,-0.0009695368255848317,0.0002912584813229831,0.0008711682095945399,8.143123568420772e-05,0.00029920635600808065,-1.0200424024295709e-05,0.6053096652030945,46.37740707397461,5.564480304718018,-19.559053421020508,-0.7427878975868225,-2.4108920097351074,0.14590780436992645,0
41,0.1999516487121582,-0.5815059542655945,-46.30202865600586,-5.588284015655518,19.535249710083008,0.7427878975868225,2.4108920097351074,-0.11111776530742645,0.0,0.0,0.0,0.0,0.0,0.0,0.0,-0.629218241555089,0.0019721766199489454,-0.3968042002870964,0.3192522609773413,0.15660767477495613,0.14277741634450705,-0.14655709012650447,0.8780459524533623,0.7553856744515267,-0.28260813007602115,-1.6691086171133473,0.1414179686285831,2.403446542005801,1.027338453443514,0.878092876070424,0.7554597494309409,-0.2825552651693207,-1.6690993614607135,0.1414185955172306,2.4034451173676383,1.0273381002308042,-0.0004703612336870796,-0.0003300096734791057,0.0008879995887966847,3.9981038496204985e-05,-7.066934603484918e-05,-7.462746378598278e-06,-0.0017045986298016944,0.0,0.0,0.0,0.0,0.0,0.0,0.0,4.692361706171155e-05,7.407497941414043e-05,5.2864906700422765e-05,9.255652633877176e-06,6.268886474924962e-07,-1.4246381625504512e-06,-3.532127097471971e-07,0.0004703612336870796,0.0003300096734791057,-0.0008879995887966847,-3.9981038496204985e-05,7.066934603484918e-05,7.462746378598278e-06,0.0017045986298016944,0.5815059542655945,46.30202865600586,5.588284015655518,-19.535249710083008,-0.7427878975868225,-2.4108920097351074,0.11111776530742645,0
42,0.205003023147583,-0.5815059542655945,-46.30202865600586,-5.588284015655518,19.535249710083008,0.7427878975868225,2.4108920097351074,-0.11111776530742645,0.0,0.0,0.0,0.0,0.0,0.0,0.0,-0.629218241555089,0.0019721766199489454,-0.3968042002870964,0.3192522609773413,0.15660767477495613,0.14277741634450705,-0.14655709012650447,0.8780459524533623,0.7553856744515267,-0.28260813007602115,-1.6691086171133473,0.1414179686285831,2.403446542005801,1.027338453443514,0.878092876070424,0.7554597494309409,-0.2825552651693207,-1.6690993614607135,0.1414185955172306,2.4034451173676383,1.0273381002308042,-0.0004703612336870796,-0.0003300096734791057,0.0008879995887966847,3.9981038496204985e-05,-7.066934603484918e-05,-7.462746378598278e-06,-0.0017045986298016944,0.0,0.0,0.0,0.0,0.0,0.0,0.0,4.692361706171155e-05,7.407497941414043e-05,5.2864906700422765e-05,9.255652633877176e-06,6.268886474924962e-07,-1.4246381625504512e-06,-3.532127097471971e-07,0.0004703612336870796,0.0003300096734791057,-0.0008879995887966847,-3.9981038496204985e-05,7.066934603484918e-05,7.462746378598278e-06,0.0017045986298016944,0.5815059542655945,46.30202865600586,5.588284015655518,-19.535249710083008,-0.7427878975868225,-2.4108920097351074,0.11111776530742645,0
43,0.21000361442565918,-0.5815059542655945,-46.30202865600586,-5.588284015655518,19.535249710083008,0.7427878975868225,2.4108920097351074,-0.11111776530742645,0.0,0.0,0.0,0.0,0.0,0.0,0.0,-0.629218241555089,0.0019721766199489454,-0.3968042002870964,0.3192522609773413,0.15660767477495613,0.14277741634450705,-0.14655709012650447,0.8780459524533623,0.7553856744515267,-0.28260813007602115,-1.6691086171133473,0.1414179686285831,2.403446542005801,1.027338453443514,0.878092876070424,0.7554597494309409,-0.2825552651693207,-1.6690993614607135,0.1414185955172306,2.4034451173676383,1.0273381002308042,-0.0004703612336870796,-0.0003300096734791057,0.0008879995887966847,3.9981038496204985e-05,-7.066934603484918e-05,-7.462746378598278e-06,-0.0017045986298016944,0.0,0.0,0.0,0.0,0.0,0.0,0.0,4.692361706171155e-05,7.407497941414043e-05,5.2864906700422765e-05,9.255652633877176e-06,6.268886474924962e-07,-1.4246381625504512e-06,-3.532127097471971e-07,0.0004703612336870796,0.0003300096734791057,-0.0008879995887966847,-3.9981038496204985e-05,7.066934603484918e-05,7.462746378598278e-06,0.0017045986298016944,0.5815059542655945,46.30202865600586,5.588284015655518,-19.535249710083008,-0.7427878975868225,-2.4108920097351074,0.11111776530742645,0
44,0.21500039100646973,-0.5815059542655945,-46.30202865600586,-5.588284015655518,19.535249710083008,0.7427878975868225,2.4108920097351074,-0.11111776530742645,0.0,0.0,0.0,0.0,0.0,0.0,0.0,-0.629218241555089,0.0019721766199489454,-0.3968042002870964,0.3192522609773413,0.15660767477495613,0.14277741634450705,-0.14655709012650447,0.8780459524533623,0.7553856744515267,-0.28260813007602115,-1.6691086171133473,0.1414179686285831,2.403446542005801,1.027338453443514,0.878092876070424,0.7554597494309409,-0.2825552651693207,-1.6690993614607135,0.1414185955172306,2.4034451173676383,1.0273381002308042,-0.0004703612336870796,-0.0003300096734791057,0.0008879995887966847,3.9981038496204985e-05,-7.066934603484918e-05,-7.462746378598278e-06,-0.0017045986298016944,0.0,0.0,0.0,0.0,0.0,0.0,0.0,4.692361706171155e-05,7.407497941414043e-05,5.2864906700422765e-05,9.255652633877176e-06,6.268886474924962e-07,-1.4246381625504512e-06,-3.532127097471971e-07,0.0004703612336870796,0.0003300096734791057,-0.0008879995887966847,-3.9981038496204985e-05,7.066934603484918e-05,7.462746378598278e-06,0.0017045986298016944,0.5815059542655945,46.30202865600586,5.588284015655518,-19.535249710083008,-0.7427878975868225,-2.4108920097351074,0.11111776530742645,0
45,0.21999788284301758,-0.6291133761405945,-46.30202865600586,-5.588284015655518,19.535249710083008,0.7427878975868225,2.4108920097351074,-0.17978231608867645,0.0,0.0,0.0,0.0,0.0,0.0,0.0,-0.6354092095881179,-0.0010802337346577787,-0.40302930252113917,0.3215363529793157,0.15690019442904007,0.143406276125249,-0.14715884828252507,0.878050048803109,0.7553856744515267,-0.2826081038663621,-1.6691086171133473,0.14141761759820506,2.403446541521287,1.0273460828380452,0.878092876070424,0.7554597494309409,-0.2825552651693207,-1.6690993614607135,0.1414185955172306,2.4034451173676383,1.0273381002308042,0.0003662415951975562,-0.0003520902848457761,0.0009027315701722835,-0.000529644935045407,8.354317042542003e-05,6.0828173606641935e-05,0.001633043315859907,0.0,0.0,0.0,0.0,0.0,0.0,0.0,4.2827267314970996e-05,7.407497941414043e-05,5.2838697041368565e-05,9.255652633877176e-06,9.779190255354564e-07,-1.4241536487880069e-06,-7.982607240997197e-06,-0.0003662415951975562,0.0003520902848457761,-0.0009027315701722835,0.000529644935045407,-8.354317042542003e-05,-6.0828173606641935e-05,-0.001633043315859907,0.6291133761405945,46.30202865600586,5.588284015655518,-19.535249710083008,-0.7427878975868225,-2.4108920097351074,0.17978231608867645,0
46,0.22495436668395996,-0.6291133761405945,-46.30202865600586,-5.588284015655518,19.535249710083008,0.7427878975868225,2.4108920097351074,-0.17978231608867645,0.0,0.0,0.0,0.0,0.0,0.0,0.0,-0.6354092095881179,-0.0010802337346577787,-0.40302930252113917,0.3215363529793157,0.15690019442904007,0.143406276125249,-0.14715884828252507,0.878050048803109,0.7553856744515267,-0.2826081038663621,-1.6691086171133473,0.14141761759820506,2.403446541521287,1.0273460828380452,0.878092876070424,0.7554597494309409,-0.2825552651693207,-1.6690993614607135,0.1414185955172306,2.4034451173676383,1.0273381002308042,0.0003662415951975562,-0.0003520902848457761,0.0009027315701722835,-0.000529644935045407,8.354317042542003e-05,6.0828173606641935e-05,0.001633043315859907,0.0,0.0,0.0,0.0,0.0,0.0,0.0,4.2827267314970996e-05,7.407497941414043e-05,5.2838697041368565e-05,9.255652633877176e-06,9.779190255354564e-07,-1.4241536487880069e-06,-7.982607240997197e-06,-0.0003662415951975562,0.0003520902848457761,-0.0009027315701722835,0.000529644935045407,-8.354317042542003e-05,-6.0828173606641935e-05,-0.001633043315859907,0.6291133761405945,46.30202865600586,5.588284015655518,-19.535249710083008,-0.7427878975868225,-2.4108920097351074,0.17978231608867645,0
47,0.2300100326538086,-0.6568843722343445,-46.34963607788086,-5.512905597686768,19.535249710083008,0.7427878975868225,2.4108920097351074,-0.16604940593242645,0.0,0.0,0.0,0.0,0.0,0.0,0.0,-0.63267938046331,0.0010122548933151289,-0.4024523072392434,0.3229375025739479,0.15710552234767286,0.14402787583887983,-0.14733768415174278,0.8780520485772988,0.7553890153232372,-0.2826134198254225,-1.6691086171133473,0.14141761320831867,2.4034465415212845,1.027344556959139,0.878092876070424,0.7554597494309409,-0.2825552651693207,-1.6690993614607135,0.1414185955172306,2.4034451173676383,1.0273381002308042,0.0007709880127011902,0.0008553014771124757,-0.0015614264141283586,-0.0002583477624997993,-0.00010326598280365317,-4.075589342193826e-05,-0.0037554231720371193,0.0,0.0,0.0,0.0,0.0,0.0,0.0,4.0827493125172865e-05,7.073410770364053e-05,5.815465610176096e-05,9.255652633877176e-06,9.823089119342931e-07,-1.4241536461234716e-06,-6.456728334880424e-06,-0.0007709880127011902,-0.0008553014771124757,0.0015614264141283586,0.0002583477624997993,0.00010326598280365317,4.075589342193826e-05,0.0037554231720371193,0.6568843722343445,46.34963607788086,5.512905597686768,-19.535249710083008,-0.7427878975868225,-2.4108920097351074,0.16604940593242645,0
48,0.23499393463134766,-0.6568843722343445,-46.34963607788086,-5.512905597686768,19.535249710083008,0.7427878975868225,2.4108920097351074,-0.16604940593242645,0.0,0.0,0.0,0.0,0.0,0.0,0.0,-0.63267938046331,0.0010122548933151289,-0.4024523072392434,0.3229375025739479,0.15710552234767286,0.14402787583887983,-0.14733768415174278,0.8780520485772988,0.7553890153232372,-0.2826134198254225,-1.6691086171133473,0.14141761320831867,2.4034465415212845,1.027344556959139,0.878092876070424,0.7554597494309409,-0.2825552651693207,-1.6690993614607135,0.1414185955172306,2.4034451173676383,1.0273381002308042,0.0007709880127011902,0.0008553014771124757,-0.0015614264141283586,-0.0002583477624997993,-0.00010326598280365317,-4.075589342193826e-05,-0.0037554231720371193,0.0,0.0,0.0,0.0,0.0,0.0,0.0,4.0827493125172865e-05,7.073410770364053e-05,5.815465610176096e-05,9.255652633877176e-06,9.823089119342931e-07,-1.4241536461234716e-06,-6.456728334880424e-06,-0.0007709880127011902,-0.0008553014771124757,0.0015614264141283586,0.0002583477624997993,0.00010326598280365317,4.075589342193826e-05,0.0037554231720371193,0.6568843722343445,46.34963607788086,5.512905597686768,-19.535249710083008,-0.7427878975868225,-2.4108920097351074,0.16604940593242645,0
49,0.24000883102416992,-0.7084590792655945,-46.27822494506836,-5.635891437530518,19.586824417114258,0.7546897530555725,2.4173007011413574,-0.10470907390117645,0.0,0.0,0.0,0.0,0.0,0.0,0.0,-0.6378270731007781,-0.008165199967733749,-0.4051010965495315,0.32723456956115377,0.1577431336477741,0.1443685900307,-0.14813346850968134,0.8780555899456524,0.7553840040156715,-0.2826047892403184,-1.6691122363910338,0.14141630838569938,2.4034458294444616,1.027337741366691,0.878092876070424,0.7554597494309409,-0.2825552651693207,-1.6690993614607135,0.1414185955172306,2.4034451173676383,1.0273381002308042,0.0015340602158454373,-0.0015204418200120593,0.0013878979462017135,-0.001174708369674452,-0.000476363670542218,-0.00035563128790513086,-0.0018729939816739215,0.0,0.0,0.0,0.0,0.0,0.0,0.0,3.72861247716072e-05,7.574541526933487e-05,4.9524070997675196e-05,1.2874930320316835e-05,2.2871315312200657e-06,-7.120768232837804e-07,3.588641130924941e-07,-0.0015340602158454373,0.0015204418200120593,-0.0013878979462017135,0.001174708369674452,0.000476363670542218,0.00035563128790513086,0.0018729939816739215,0.7084590792655945,46.27822494506836,5.635891437530518,-19.586824417114258,-0.7546897530555725,-2.4173007011413574,0.10470907390117645,0
50,0.24498939514160156,-0.7084590792655945,-46.27822494506836,-5.635891437530518,19.586824417114258,0.7546897530555725,2.4173007011413574,-0.10470907390117645,0.0,0.0,0.0,0.0,0.0,0.0,0.0,-0.6378270731007781,-0.008165199967733749,-0.4051010965495315,0.32723456956115377,0.1577431336477741,0.1443685900307,-0.14813346850968134,0.8780555899456524,0.7553840040156715,-0.2826047892403184,-1.6691122363910338,0.14141630838569938,2.4034458294444616,1.027337741366691,0.878092876070424,0.7554597494309409,-0.2825552651693207,-1.6690993614607135,0.1414185955172306,2.4034451173676383,1.0273381002308042,0.0015340602158454373,-0.0015204418200120593,0.0013878979462017135,-0.001174708369674452,-0.000476363670542218,-0.00035563128790513086,-0.0018729939816739215,0.0,0.0,0.0,0.0,0.0,0.0,0.0,3.72861247716072e-05,7.574541526933487e-05,4.9524070997675196e-05,1.2874930320316835e-05,2.2871315312200657e-06,-7.120768232837804e-07,3.588641130924941e-07,-0.0015340602158454373,0.0015204418200120593,-0.0013878979462017135,0.001174708369674452,0.000476363670542218,0.00035563128790513086,0.0018729939816739215,0.7084590792655945,46.27822494506836,5.635891437530518,-19.586824417114258,-0.7546897530555725,-2.4173007011413574,0.10470907390117645,0
51,0.24999618530273438,-0.6568843722343445,-46.30202865600586,-5.588284015655518,19.535249710083008,0.7372947335243225,2.4044833183288574,-0.11844198405742645,0.0,0.0,0.0,0.0,0.0,0.0,0.0,-0.6362073975255431,0.0007561143307088958,-0.4005653728431458,0.32121013186838054,0.15727539085932724,0.1431375316339509,-0.1479270934576658,0.8780520785924135,0.7553856744515267,-0.2826081301120289,-1.6691086171133473,0.14141822356015457,2.4034472535981073,1.0273392672455972,0.878092876070424,0.7554597494309409,-0.2825552651693207,-1.6690993614607135,0.1414185955172306,2.4034451173676383,1.0273381002308042,-0.0002218685713170814,-0.001212141728917179,0.0002403940876578422,-0.0004084300093328403,0.00021852224987951708,0.00013202990654897028,-0.00046692891052350243,0.0,0.0,0.0,0.0,0.0,0.0,0.0,4.0797478010445865e-05,7.407497941414043e-05,5.28649427081751e-05,9.255652633877176e-06,3.7195707602855066e-07,-2.136230468963163e-06,-1.1670147930242791e-06,0.0002218685713170814,0.001212141728917179,-0.0002403940876578422,0.0004084300093328403,-0.00021852224987951708,-0.00013202990654897028,0.00046692891052350243,0.6568843722343445,46.30202865600586,5.588284015655518,-19.535249710083008,-0.7372947335243225,-2.4044833183288574,0.11844198405742645,0
52,0.25499606132507324,-0.6568843722343445,-46.30202865600586,-5.588284015655518,19.535249710083008,0.7372947335243225,2.4044833183288574,-0.11844198405742645,0.0,0.0,0.0,0.0,0.0,0.0,0.0,-0.6362073975255431,0.0007561143307088958,-0.4005653728431458,0.32121013186838054,0.15727539085932724,0.1431375316339509,-0.1479270934576658,0.8780520785924135,0.7553856744515267,-0.2826081301120289,-1.6691086171133473,0.14141822356015457,2.4034472535981073,1.0273392672455972,0.878092876070424,0.7554597494309409,-0.2825552651693207,-1.6690993614607135,0.1414185955172306,2.4034451173676383,1.0273381002308042,-0.0002218685713170814,-0.001212141728917179,0.0002403940876578422,-0.0004084300093328403,0.00021852224987951708,0.00013202990654897028,-0.00046692891052350243,0.0,0.0,0.0,0.0,0.0,0.0,0.0,4.0797478010445865e-05,7.407497941414043e-05,5.28649427081751e-05,9.255652633877176e-06,3.7195707602855066e-07,-2.136230468963163e-06,-1.1670147930242791e-06,0.0002218685713170814,0.001212141728917179,-0.0002403940876578422,0.0004084300093328403,-0.00021852224987951708,-0.00013202990654897028,0.00046692891052350243,0.6568843722343445,46.30202865600586,5.588284015655518,-19.535249710083008,-0.7372947335243225,-2.4044833183288574,0.11844198405742645,0
53,0.2599935531616211,-0.6806880831718445,-46.40121078491211,-5.588284015655518,19.487642288208008,0.7427878975868225,2.3980746269226074,-0.14590780436992645,0.0,0.0,0.0,0.0,0.0,0.0,0.0,-0.6429293774780421,-0.03814898979261894,-0.4072187169999572,0.3479511416766189,0.15786213389349302,0.14741532093781412,-0.1477608735956205,0.8780535058632531,0.7553926346009237,-0.28260780641547384,-1.669105276241637,0.1414176132082939,2.40344831888764,1.0273423190034099,0.878092876070424,0.7554597494309409,-0.2825552651693207,-1.6690993614607135,0.1414185955172306,2.4034451173676383,1.0273381002308042,-0.00028632724889693996,0.0014050544314769856,0.00010885732469105184,-0.002643482049784465,-7.990077328464601e-05,0.000501522786672242,-0.0003699123115877571,0.0,0.0,0.0,0.0,0.0,0.0,0.0,3.937020717081907e-05,6.711483001720087e-05,5.254124615311495e-05,5.914780923488294e-06,9.823089366922666e-07,-3.201520001550051e-06,-4.218772605701915e-06,0.00028632724889693996,-0.0014050544314769856,-0.00010885732469105184,0.002643482049784465,7.990077328464601e-05,-0.000501522786672242,0.0003699123115877571,0.6806880831718445,46.40121078491211,5.588284015655518,-19.487642288208008,-0.7427878975868225,-2.3980746269226074,0.14590780436992645,0
54,0.26499366760253906,-0.6806880831718445,-46.40121078491211,-5.588284015655518,19.487642288208008,0.7427878975868225,2.3980746269226074,-0.14590780436992645,0.0,0.0,0.0,0.0,0.0,0.0,0.0,-0.6429293774780421,-0.03814898979261894,-0.4072187169999572,0.3479511416766189,0.15786213389349302,0.14741532093781412,-0.1477608735956205,0.8780535058632531,0.7553926346009237,-0.28260780641547384,-1.669105276241637,0.1414176132082939,2.40344831888764,1.0273423190034099,0.878092876070424,0.7554597494309409,-0.2825552651693207,-1.6690993614607135,0.1414185955172306,2.4034451173676383,1.0273381002308042,-0.00028632724889693996,0.0014050544314769856,0.00010885732469105184,-0.002643482049784465,-7.990077328464601e-05,0.000501522786672242,-0.0003699123115877571,0.0,0.0,0.0,0.0,0.0,0.0,0.0,3.937020717081907e-05,6.711483001720087e-05,5.254124615311495e-05,5.914780923488294e-06,9.823089366922666e-07,-3.201520001550051e-06,-4.218772605701915e-06,0.00028632724889693996,-0.0014050544314769856,-0.00010885732469105184,0.002643482049784465,7.990077328464601e-05,-0.000501522786672242,0.0003699123115877571,0.6806880831718445,46.40121078491211,5.588284015655518,-19.487642288208008,-0.7427878975868225,-2.3980746269226074,0.14590780436992645,0
55,0.26995396614074707,-0.6291133761405945,-46.27822494506836,-5.564480304718018,19.559053421020508,0.7491965889930725,2.4173007011413574,-0.16604940593242645,0.0,0.0,0.0,0.0,0.0,0.0,0.0,-0.6395419204519157,-0.017000402890208932,-0.39704119749752065,0.33368028771805064,0.15719066179463426,0.1452559945384698,-0.14856385185691534,0.8780501297510372,0.7553840040156715,-0.2826098005460569,-1.6691102875492028,0.14141690113147098,2.403445829446455,1.027344556959139,0.878092876070424,0.7554597494309409,-0.2825552651693207,-1.6690993614607135,0.1414185955172306,2.4034451173676383,1.0273381002308042,-0.0011396077543203644,-0.001213220262432667,-8.721527664052616e-05,-0.0012020100807719923,-0.00023305420133561084,-0.00045669587600816365,0.0004447901558520192,0.0,0.0,0.0,0.0,0.0,0.0,0.0,4.274631938672169e-05,7.574541526933487e-05,5.453537673616449e-05,1.0926088489293662e-05,1.6943857596152245e-06,-7.120788168002434e-07,-6.456728334880424e-06,0.0011396077543203644,0.001213220262432667,8.721527664052616e-05,0.0012020100807719923,0.00023305420133561084,0.00045669587600816365,-0.0004447901558520192,0.6291133761405945,46.27822494506836,5.564480304718018,-19.559053421020508,-0.7491965889930725,-2.4173007011413574,0.16604940593242645,0
56,0.27499866485595703,-0.6291133761405945,-46.27822494506836,-5.564480304718018,19.559053421020508,0.7491965889930725,2.4173007011413574,-0.16604940593242645,0.0,0.0,0.0,0.0,0.0,0.0,0.0,-0.6395419204519157,-0.017000402890208932,-0.39704119749752065,0.33368028771805064,0.15719066179463426,0.1452559945384698,-0.14856385185691534,0.8780501297510372,0.7553840040156715,-0.2826098005460569,-1.6691102875492028,0.14141690113147098,2.403445829446455,1.027344556959139,0.878092876070424,0.7554597494309409,-0.2825552651693207,-1.6690993614607135,0.1414185955172306,2.4034451173676383,1.0273381002308042,-0.0011396077543203644,-0.001213220262432667,-8.721527664052616e-05,-0.0012020100807719923,-0.00023305420133561084,-0.00045669587600816365,0.0004447901558520192,0.0,0.0,0.0,0.0,0.0,0.0,0.0,4.274631938672169e-05,7.574541526933487e-05,5.453537673616449e-05,1.0926088489293662e-05,1.6943857596152245e-06,-7.120788168002434e-07,-6.456728334880424e-06,0.0011396077543203644,0.001213220262432667,8.721527664052616e-05,0.0012020100807719923,0.00023305420133561084,0.00045669587600816365,-0.0004447901558520192,0.6291133761405945,46.27822494506836,5.564480304718018,-19.559053421020508,-0.7491965889930725,-2.4173007011413574,0.16604940593242645,0
57,0.27999258041381836,-0.6568843722343445,-46.30202865600586,-5.612087726593018,19.511445999145508,0.7427878975868225,2.4173007011413574,-0.18710653483867645,0.0,0.0,0.0,0.0,0.0,0.0,0.0,-0.6570396149129011,0.007505645962605102,-0.4027993227290721,0.31242358868290704,0.15743061145474233,0.14222338362292128,-0.14956679804235362,0.8780520785942412,0.7553856744515267,-0.2826064593521531,-1.6691069466774922,0.1414176132082939,2.4034458294444616,1.0273468966401285,0.878092876070424,0.7554597494309409,-0.2825552651693207,-1.6690993614607135,0.1414185955172306,2.4034451173676383,1.0273381002308042,-0.00013384997096331245,-0.00025851688311118263,0.000547206722813116,0.0005288965446333477,0.00016802878110906276,-0.00024103562247856195,0.0017615279872175023,0.0,0.0,0.0,0.0,0.0,0.0,0.0,4.079747618279672e-05,7.407497941414043e-05,5.119418283239252e-05,7.585216778682735e-06,9.823089366922666e-07,-7.120768232837804e-07,-8.796409324274279e-06,0.00013384997096331245,0.00025851688311118263,-0.000547206722813116,-0.0005288965446333477,-0.00016802878110906276,0.00024103562247856195,-0.0017615279872175023,0.6568843722343445,46.30202865600586,5.612087726593018,-19.511445999145508,-0.7427878975868225,-2.4173007011413574,0.18710653483867645,0
58,0.2850065231323242,-0.6568843722343445,-46.30202865600586,-5.612087726593018,19.511445999145508,0.7427878975868225,2.4173007011413574,-0.18710653483867645,0.0,0.0,0.0,0.0,0.0,0.0,0.0,-0.6570396149129011,0.007505645962605102,-0.4027993227290721,0.31242358868290704,0.15743061145474233,0.14222338362292128,-0.14956679804235362,0.8780520785942412,0.7553856744515267,-0.2826064593521531,-1.6691069466774922,0.1414176132082939,2.4034458294444616,1.0273468966401285,0.878092876070424,0.7554597494309409,-0.2825552651693207,-1.6690993614607135,0.1414185955172306,2.4034451173676383,1.0273381002308042,-0.00013384997096331245,-0.00025851688311118263,0.000547206722813116,0.0005288965446333477,0.00016802878110906276,-0.00024103562247856195,0.0017615279872175023,0.0,0.0,0.0,0.0,0.0,0.0,0.0,4.079747618279672e-05,7.407497941414043e-05,5.119418283239252e-05,7.585216778682735e-06,9.823089366922666e-07,-7.120768232837804e-07,-8.796409324274279e-06,0.00013384997096331245,0.00025851688311118263,-0.000547206722813116,-0.0005288965446333477,-0.00016802878110906276,0.00024103562247856195,-0.0017615279872175023,0.6568843722343445,46.30202865600586,5.612087726593018,-19.511445999145508,-0.7427878975868225,-2.4173007011413574,0.18710653483867645,0
59,0.2900407314300537,-0.6806880831718445,-46.30202865600586,-5.564480304718018,19.511445999145508,0.7372947335243225,2.4108920097351074,-0.13217489421367645,0.0,0.0,0.0,0.0,0.0,0.0,0.0,-0.6515596281010437,0.0032188935694818115,-0.40082246415076495,0.3173148991602538,0.1580177062760024,0.1427212398319241,-0.1502459158910689,0.8780537486969912,0.7553856744515267,-0.2826097218108788,-1.6691069466774922,0.14141822355985642,2.4034465415212845,1.0273407931245035,0.878092876070424,0.7554597494309409,-0.2825552651693207,-1.6690993614607135,0.1414185955172306,2.4034451173676383,1.0273381002308042,0.0007571105925959909,-0.0003803870164277582,-0.0002795673742979274,0.00044987343113825747,0.00018892696219420616,-0.00012803877331699317,-0.0006657315955319451,0.0,0.0,0.0,0.0,0.0,0.0,0.0,3.912737343281236e-05,7.407497941414043e-05,5.4456641558064955e-05,7.585216778682735e-06,3.719573741789439e-07,-1.4241536461234716e-06,-2.692893699363097e-06,-0.0007571105925959909,0.0003803870164277582,0.0002795673742979274,-0.00044987343113825747,-0.00018892696219420616,0.00012803877331699317,0.0006657315955319451,0.6806880831718445,46.30202865600586,5.564480304718018,-19.511445999145508,-0.7372947335243225,-2.4108920097351074,0.13217489421367645,0
60,0.2949948310852051,-0.6806880831718445,-46.30202865600586,-5.564480304718018,19.511445999145508,0.7372947335243225,2.4108920097351074,-0.13217489421367645,0.0,0.0,0.0,0.0,0.0,0.0,0.0,-0.6515596281010437,0.0032188935694818115,-0.40082246415076495,0.3173148991602538,0.1580177062760024,0.1427212398319241,-0.1502459158910689,0.8780537486969912,0.7553856744515267,-0.2826097218108788,-1.6691069466774922,0.14141822355985642,2.4034465415212845,1.0273407931245035,0.878092876070424,0.7554597494309409,-0.2825552651693207,-1.6690993614607135,0.1414185955172306,2.4034451173676383,1.0273381002308042,0.0007571105925959909,-0.0003803870164277582,-0.0002795673742979274,0.00044987343113825747,0.00018892696219420616,-0.00012803877331699317,-0.0006657315955319451,0.0,0.0,0.0,0.0,0.0,0.0,0.0,3.912737343281236e-05,7.407497941414043e-05,5.4456641558064955e-05,7.585216778682735e-06,3.719573741789439e-07,-1.4241536461234716e-06,-2.692893699363097e-06,-0.0007571105925959909,0.0003803870164277582,0.0002795673742979274,-0.00044987343113825747,-0.00018892696219420616,0.00012803877331699317,0.0006657315955319451,0.6806880831718445,46.30202865600586,5.564480304718018,-19.511445999145508,-0.7372947335243225,-2.4108920097351074,0.13217489421367645,0
61,0.2999556064605713,-0.5815059542655945,-46.32583236694336,-5.564480304718018,19.535249710083008,0.7427878975868225,2.4173007011413574,-0.17978231608867645,0.0,0.0,0.0,0.0,0.0,0.0,0.0,-0.6419226097495632,0.010066251459164031,-0.3949705162790479,0.31481209747077815,0.15814591044019288,0.14223323810613,-0.14991179731128773,0.8780467049381722,0.7553871064688029,-0.28260980022371546,-1.6691086171133473,0.14141761467092884,2.403445830898012,1.0273460828380452,0.878092876070424,0.7554597494309409,-0.2825552651693207,-1.6690993614607135,0.1414185955172306,2.4034451173676383,1.0273381002308042,-0.0010586537783645942,4.2959233983742314e-05,2.5323304527852047e-05,-0.0003481458281004009,-1.6454867483993285e-05,-0.0002502266572461049,0.0012232594156055684,0.0,0.0,0.0,0.0,0.0,0.0,0.0,4.617113225180436e-05,7.264296213793653e-05,5.453505439473316e-05,9.255652633877176e-06,9.80846301762428e-07,-7.135303734528975e-07,-7.982607240997197e-06,0.0010586537783645942,-4.2959233983742314e-05,-2.5323304527852047e-05,0.0003481458281004009,1.6454867483993285e-05,0.0002502266572461049,-0.0012232594156055684,0.5815059542655945,46.32583236694336,5.564480304718018,-19.535249710083008,-0.7427878975868225,-2.4173007011413574,0.17978231608867645,0
62,0.30499768257141113,-0.5815059542655945,-46.32583236694336,-5.564480304718018,19.535249710083008,0.7427878975868225,2.4173007011413574,-0.17978231608867645,0.0,0.0,0.0,0.0,0.0,0.0,0.0,-0.6419226097495632,0.010066251459164031,-0.3949705162790479,0.31481209747077815,0.15814591044019288,0.14223323810613,-0.14991179731128773,0.8780467049381722,0.7553871064688029,-0.28260980022371546,-1.6691086171133473,0.14141761467092884,2.403445830898012,1.0273460828380452,0.878092876070424,0.7554597494309409,-0.2825552651693207,-1.6690993614607135,0.1414185955172306,2.4034451173676383,1.0273381002308042,-0.0010586537783645942,4.2959233983742314e-05,2.5323304527852047e-05,-0.0003481458281004009,-1.6454867483993285e-05,-0.0002502266572461049,0.0012232594156055684,0.0,0.0,0.0,0.0,0.0,0.0,0.0,4.617113225180436e-05,7.264296213793653e-05,5.453505439473316e-05,9.255652633877176e-06,9.80846301762428e-07,-7.135303734528975e-07,-7.982607240997197e-06,0.0010586537783645942,-4.2959233983742314e-05,-2.5323304527852047e-05,0.0003481458281004009,1.6454867483993285e-05,0.0002502266572461049,-0.0012232594156055684,0.5815059542655945,46.32583236694336,5.564480304718018,-19.535249710083008,-0.7427878975868225,-2.4173007011413574,0.17978231608867645,0
63,0.3099942207336426,-0.6053096652030945,-46.34963607788086,-5.536709308624268,19.511445999145508,0.7427878975868225,2.4108920097351074,-0.14590780436992645,0.0,0.0,0.0,0.0,0.0,0.0,0.0,-0.6445170054636747,-0.034309481690571186,-0.4063020425164309,0.346313006790618,0.15924234932427914,0.1479516667973943,-0.14969662753169563,0.8780484503222388,0.7553890153218913,-0.2826117493897135,-1.669106946992428,0.14142081199090512,2.4034465415212924,1.0273423190034099,0.878092876070424,0.7554597494309409,-0.2825552651693207,-1.6690993614607135,0.1414185955172306,2.4034451173676383,1.0273381002308042,-0.00039331050890495145,0.0006173283857326565,-0.000634978668695932,-0.0023607909780889824,-4.669580353441709e-05,-2.6436226105228662e-05,0.00014192132915942778,0.0,0.0,0.0,0.0,0.0,0.0,0.0,4.442574818519507e-05,7.07341090495639e-05,5.648422039278289e-05,7.5855317145379075e-06,-2.2164736745156066e-06,-1.4241536541170774e-06,-4.218772605701915e-06,0.00039331050890495145,-0.0006173283857326565,0.000634978668695932,0.0023607909780889824,4.669580353441709e-05,2.6436226105228662e-05,-0.00014192132915942778,0.6053096652030945,46.34963607788086,5.536709308624268,-19.511445999145508,-0.7427878975868225,-2.4108920097351074,0.14590780436992645,0
64,0.3151357173919678,-0.6053096652030945,-46.34963607788086,-5.536709308624268,19.511445999145508,0.7427878975868225,2.4108920097351074,-0.14590780436992645,0.0,0.0,0.0,0.0,0.0,0.0,0.0,-0.6445170054636747,-0.034309481690571186,-0.4063020425164309,0.346313006790618,0.15924234932427914,0.1479516667973943,-0.14969662753169563,0.8780484503222388,0.7553890153218913,-0.2826117493897135,-1.669106946992428,0.14142081199090512,2.4034465415212924,1.0273423190034099,0.878092876070424,0.7554597494309409,-0.2825552651693207,-1.6690993614607135,0.1414185955172306,2.4034451173676383,1.0273381002308042,-0.00039331050890495145,0.0006173283857326565,-0.000634978668695932,-0.0023607909780889824,-4.669580353441709e-05,-2.6436226105228662e-05,0.00014192132915942778,0.0,0.0,0.0,0.0,0.0,0.0,0.0,4.442574818519507e-05,7.07341090495639e-05,5.648422039278289e-05,7.5855317145379075e-06,-2.2164736745156066e-06,-1.4241536541170774e-06,-4.218772605701915e-06,0.00039331050890495145,-0.0006173283857326565,0.000634978668695932,0.0023607909780889824,4.669580353441709e-05,2.6436226105228662e-05,-0.00014192132915942778,0.6053096652030945,46.34963607788086,5.536709308624268,-19.511445999145508,-0.7427878975868225,-2.4108920097351074,0.14590780436992645,0
65,0.31999707221984863,-0.6053096652030945,-46.32583236694336,-5.564480304718018,19.487642288208008,0.7427878975868225,2.3916659355163574,-0.15231649577617645,0.0,0.0,0.0,0.0,0.0,0.0,0.0,-0.6347229191405022,-0.021691722592489485,-0.3989652302648314,0.3306294941286659,0.1586882466724413,0.14554840571585823,-0.14949491333135895,0.8780477278173766,0.755387344887382,-0.2826090919148852,-1.6691052762416376,0.14141761321431295,2.4034486777696977,1.0273430444892337,0.878092876070424,0.7554597494309409,-0.2825552651693207,-1.6690993614607135,0.1414185955172306,2.4034451173676383,1.0273381002308042,-0.00016101589226595522,-0.0007362435229252305,0.0006549762691056294,0.0011349708689063834,-0.00010469394289599313,0.0005991286782126883,0.0003345284535142159,0.0,0.0,0.0,0.0,0.0,0.0,0.0,4.51482530473557e-05,7.240454355883497e-05,5.3826745564478085e-05,5.914780924154428e-06,9.823029176458942e-07,-3.560402059399337e-06,-4.944258429562254e-06,0.00016101589226595522,0.0007362435229252305,-0.0006549762691056294,-0.0011349708689063834,0.00010469394289599313,-0.0005991286782126883,-0.0003345284535142159,0.6053096652030945,46.32583236694336,5.564480304718018,-19.487642288208008,-0.7427878975868225,-2.3916659355163574,0.15231649577617645,0
66,0.32495617866516113,-0.6053096652030945,-46.32583236694336,-5.564480304718018,19.487642288208008,0.7427878975868225,2.3916659355163574,-0.15231649577617645,0.0,0.0,0.0,0.0,0.0,0.0,0.0,-0.6347229191405022,-0.021691722592489485,-0.3989652302648314,0.3306294941286659,0.1586882466724413,0.14554840571585823,-0.14949491333135895,0.8780477278173766,0.755387344887382,-0.2826090919148852,-1.6691052762416376,0.14141761321431295,2.4034486777696977,1.0273430444892337,0.878092876070424,0.7554597494309409,-0.2825552651693207,-1.6690993614607135,0.1414185955172306,2.4034451173676383,1.0273381002308042,-0.00016101589226595522,-0.0007362435229252305,0.0006549762691056294,0.0011349708689063834,-0.00010469394289599313,0.0005991286782126883,0.0003345284535142159,0.0,0.0,0.0,0.0,0.0,0.0,0.0,4.51482530473557e-05,7.240454355883497e-05,5.3826745564478085e-05,5.914780924154428e-06,9.823029176458942e-07,-3.560402059399337e-06,-4.944258429562254e-06,0.00016101589226595522,0.0007362435229252305,-0.0006549762691056294,-0.0011349708689063834,0.00010469394289599313,-0.0005991286782126883,-0.0003345284535142159,0.6053096652030945,46.32583236694336,5.564480304718018,-19.487642288208008,-0.7427878975868225,-2.3916659355163574,0.15231649577617645,0
67,0.32999396324157715,-0.6568843722343445,-46.37740707397461,-5.564480304718018,19.487642288208008,0.7372947335243225,2.4108920097351074,-0.11844198405742645,0.0,0.0,0.0,0.0,0.0,0.0,0.0,-0.6526496217640955,0.007717100252916998,-0.4067280591979778,0.3072146467505761,0.158503826123064,0.14182118868604962,-0.1486708128714464,0.8780498930864702,0.7553909641650683,-0.2826098005438839,-1.669105276241637,0.14141822355985645,2.403446542005801,1.027339267245673,0.878092876070424,0.7554597494309409,-0.2825552651693207,-1.6690993614607135,0.1414185955172306,2.4034451173676383,1.0273381002308042,0.0008165716261433848,0.0006077542275619543,-0.00017071123137496228,0.0010255322936650244,0.000313832614019895,-6.796840946560626e-05,-0.0015379454851478591,0.0,0.0,0.0,0.0,0.0,0.0,0.0,4.298298395377653e-05,6.878526587250633e-05,5.453537456318047e-05,5.914780923488294e-06,3.7195737415118835e-07,-1.4246381625504512e-06,-1.1670148687414894e-06,-0.0008165716261433848,-0.0006077542275619543,0.00017071123137496228,-0.0010255322936650244,-0.000313832614019895,6.796840946560626e-05,0.0015379454851478591,0.6568843722343445,46.37740707397461,5.564480304718018,-19.487642288208008,-0.7372947335243225,-2.4108920097351074,0.11844198405742645,0
68,0.33501482009887695,-0.6568843722343445,-46.37740707397461,-5.564480304718018,19.487642288208008,0.7372947335243225,2.4108920097351074,-0.11844198405742645,0.0,0.0,0.0,0.0,0.0,0.0,0.0,-0.6526496217640955,0.007717100252916998,-0.4067280591979778,0.3072146467505761,0.158503826123064,0.14182118868604962,-0.1486708128714464,0.8780498930864702,0.7553909641650683,-0.2826098005438839,-1.669105276241637,0.14141822355985645,2.403446542005801,1.027339267245673,0.878092876070424,0.7554597494309409,-0.2825552651693207,-1.6690993614607135,0.1414185955172306,2.4034451173676383,1.0273381002308042,0.0008165716261433848,0.0006077542275619543,-0.00017071123137496228,0.0010255322936650244,0.000313832614019895,-6.796840946560626e-05,-0.0015379454851478591,0.0,0.0,0.0,0.0,0.0,0.0,0.0,4.298298395377653e-05,6.878526587250633e-05,5.453537456318047e-05,5.914780923488294e-06,3.7195737415118835e-07,-1.4246381625504512e-06,-1.1670148687414894e-06,-0.0008165716261433848,-0.0006077542275619543,0.00017071123137496228,-0.0010255322936650244,-0.000313832614019895,6.796840946560626e-05,0.0015379454851478591,0.6568843722343445,46.37740707397461,5.564480304718018,-19.487642288208008,-0.7372947335243225,-2.4108920097351074,0.11844198405742645,0
69,0.3400092124938965,-0.6568843722343445,-46.37740707397461,-5.564480304718018,19.487642288208008,0.7372947335243225,2.4108920097351074,-0.11844198405742645,0.0,0.0,0.0,0.0,0.0,0.0,0.0,-0.6526496217640955,0.007717100252916998,-0.4067280591979778,0.3072146467505761,0.158503826123064,0.14182118868604962,-0.1486708128714464,0.8780498930864702,0.7553909641650683,-0.2826098005438839,-1.669105276241637,0.14141822355985645,2.403446542005801,1.027339267245673,0.878092876070424,0.7554597494309409,-0.2825552651693207,-1.6690993614607135,0.1414185955172306,2.4034451173676383,1.0273381002308042,0.0008165716261433848,0.0006077542275619543,-0.00017071123137496228,0.0010255322936650244,0.000313832614019895,-6.796840946560626e-05,-0.0015379454851478591,0.0,0.0,0.0,0.0,0.0,0.0,0.0,4.298298395377653e-05,6.878526587250633e-05,5.453537456318047e-05,5.914780923488294e-06,3.7195737415118835e-07,-1.4246381625504512e-06,-1.1670148687414894e-06,-0.0008165716261433848,-0.0006077542275619543,0.00017071123137496228,-0.0010255322936650244,-0.000313832614019895,6.796840946560626e-05,0.0015379454851478591,0.6568843722343445,46.37740707397461,5.564480304718018,-19.487642288208008,-0.7372947335243225,-2.4108920097351074,0.11844198405742645,0
70,0.3454923629760742,-0.6568843722343445,-46.37740707397461,-5.564480304718018,19.487642288208008,0.7372947335243225,2.4108920097351074,-0.11844198405742645,0.0,0.0,0.0,0.0,0.0,0.0,0.0,-0.6526496217640955,0.007717100252916998,-0.4067280591979778,0.3072146467505761,0.158503826123064,0.14182118868604962,-0.1486708128714464,0.8780498930864702,0.7553909641650683,-0.2826098005438839,-1.669105276241637,0.14141822355985645,2.403446542005801,1.027339267245673,0.878092876070424,0.7554597494309409,-0.2825552651693207,-1.6690993614607135,0.1414185955172306,2.4034451173676383,1.0273381002308042,0.0008165716261433848,0.0006077542275619543,-0.00017071123137496228,0.0010255322936650244,0.000313832614019895,-6.796840946560626e-05,-0.0015379454851478591,0.0,0.0,0.0,0.0,0.0,0.0,0.0,4.298298395377653e-05,6.878526587250633e-05,5.453537456318047e-05,5.914780923488294e-06,3.7195737415118835e-07,-1.4246381625504512e-06,-1.1670148687414894e-06,-0.0008165716261433848,-0.0006077542275619543,0.00017071123137496228,-0.0010255322936650244,-0.000313832614019895,6.796840946560626e-05,0.0015379454851478591,0.6568843722343445,46.37740707397461,5.564480304718018,-19.487642288208008,-0.7372947335243225,-2.4108920097351074,0.11844198405742645,0
71,0.3500046730041504,-0.6568843722343445,-46.34963607788086,-5.536709308624268,19.535249710083008,0.7427878975868225,2.4108920097351074,-0.15964071452617645,0.0,0.0,0.0,0.0,0.0,0.0,0.0,-0.6546308542338823,0.014772220476497525,-0.4062430887794538,0.30439597098937765,0.15806936404835728,0.14119152281870015,-0.14767462894212277,0.878051835637131,0.7553890153232372,-0.28261151285469505,-1.6691086171133473,0.1414176263720083,2.4034465416827926,1.027343844882316,0.878092876070424,0.7554597494309409,-0.2825552651693207,-1.6690993614607135,0.1414185955172306,2.4034451173676383,1.0273381002308042,-3.128315442309594e-05,0.0005613047753694223,-0.0011427942084781516,-0.000139653733035407,-0.00014990917478214754,1.3906199287455355e-05,0.0005044470071443149,0.0,0.0,0.0,0.0,0.0,0.0,0.0,4.1040433293004774e-05,7.073410770364053e-05,5.624768537432212e-05,9.255652633877176e-06,9.69145222295964e-07,-1.4243151542636667e-06,-5.744651511818688e-06,3.128315442309594e-05,-0.0005613047753694223,0.0011427942084781516,0.000139653733035407,0.00014990917478214754,-1.3906199287455355e-05,-0.0005044470071443149,0.6568843722343445,46.34963607788086,5.536709308624268,-19.535249710083008,-0.7427878975868225,-2.4108920097351074,0.15964071452617645,0
72,0.3549959659576416,-0.6568843722343445,-46.34963607788086,-5.536709308624268,19.535249710083008,0.7427878975868225,2.4108920097351074,-0.15964071452617645,0.0,0.0,0.0,0.0,0.0,0.0,0.0,-0.6546308542338823,0.014772220476497525,-0.4062430887794538,0.30439597098937765,0.15806936404835728,0.14119152281870015,-0.14767462894212277,0.878051835637131,0.7553890153232372,-0.28261151285469505,-1.6691086171133473,0.1414176263720083,2.4034465416827926,1.027343844882316,0.878092876070424,0.7554597494309409,-0.2825552651693207,-1.6690993614607135,0.1414185955172306,2.4034451173676383,1.0273381002308042,-3.128315442309594e-05,0.0005613047753694223,-0.0011427942084781516,-0.000139653733035407,-0.00014990917478214754,1.3906199287455355e-05,0.0005044470071443149,0.0,0.0,0.0,0.0,0.0,0.0,0.0,4.1040433293004774e-05,7.073410770364053e-05,5.624768537432212e-05,9.255652633877176e-06,9.69145222295964e-07,-1.4243151542636667e-06,-5.744651511818688e-06,3.128315442309594e-05,-0.0005613047753694223,0.0011427942084781516,0.000139653733035407,0.00014990917478214754,-1.3906199287455355e-05,-0.0005044470071443149,0.6568843722343445,46.34963607788086,5.536709308624268,-19.535249710083008,-0.7427878975868225,-2.4108920097351074,0.15964071452617645,0
73,0.36000514030456543,-0.6053096652030945,-46.32583236694336,-5.564480304718018,19.487642288208008,0.7491965889930725,2.4108920097351074,-0.09738485515117645,0.0,0.0,0.0,0.0,0.0,0.0,0.0,-0.6345277795482427,0.019163669317507803,-0.3905620531938168,0.30636734846768227,0.15760685500408167,0.1413457150182339,-0.14761539100402665,0.8780484589820781,0.755387344887382,-0.2826075871619965,-1.669105276241637,0.1414169011315453,2.4034465807671417,1.0273369275646078,0.878092876070424,0.7554597494309409,-0.2825552651693207,-1.6690993614607135,0.1414185955172306,2.4034451173676383,1.0273381002308042,-0.0009269357036708223,0.0007241429060645368,-0.0004744196460105791,0.0007437106280139184,-6.001695059167953e-05,5.685454118081241e-05,-0.001963961947273378,0.0,0.0,0.0,0.0,0.0,0.0,0.0,4.4417088345904965e-05,7.240454355883497e-05,5.2321992675796736e-05,5.914780923488294e-06,1.6943856853135486e-06,-1.463399503354168e-06,1.1726661963695761e-06,0.0009269357036708223,-0.0007241429060645368,0.0004744196460105791,-0.0007437106280139184,6.001695059167953e-05,-5.685454118081241e-05,0.001963961947273378,0.6053096652030945,46.32583236694336,5.564480304718018,-19.487642288208008,-0.7491965889930725,-2.4108920097351074,0.09738485515117645,0
74,0.36500048637390137,-0.6053096652030945,-46.32583236694336,-5.564480304718018,19.487642288208008,0.7491965889930725,2.4108920097351074,-0.09738485515117645,0.0,0.0,0.0,0.0,0.0,0.0,0.0,-0.6345277795482427,0.019163669317507803,-0.3905620531938168,0.30636734846768227,0.15760685500408167,0.1413457150182339,-0.14761539100402665,0.8780484589820781,0.755387344887382,-0.2826075871619965,-1.669105276241637,0.1414169011315453,2.4034465807671417,1.0273369275646078,0.878092876070424,0.7554597494309409,-0.2825552651693207,-1.6690993614607135,0.1414185955172306,2.4034451173676383,1.0273381002308042,-0.0009269357036708223,0.0007241429060645368,-0.0004744196460105791,0.0007437106280139184,-6.001695059167953e-05,5.685454118081241e-05,-0.001963961947273378,0.0,0.0,0.0,0.0,0.0,0.0,0.0,4.4417088345904965e-05,7.240454355883497e-05,5.2321992675796736e-05,5.914780923488294e-06,1.6943856853135486e-06,-1.463399503354168e-06,1.1726661963695761e-06,0.0009269357036708223,-0.0007241429060645368,0.0004744196460105791,-0.0007437106280139184,6.001695059167953e-05,-5.685454118081241e-05,0.001963961947273378,0.6053096652030945,46.32583236694336,5.564480304718018,-19.487642288208008,-0.7491965889930725,-2.4108920097351074,0.09738485515117645,0
75,0.37002110481262207,-0.6568843722343445,-46.32583236694336,-5.588284015655518,19.511445999145508,0.7491965889930725,2.4108920097351074,-0.17337362468242645,0.0,0.0,0.0,0.0,0.0,0.0,0.0,-0.6436662981703384,-0.010144983425439897,-0.40102703071981993,0.32277587366671423,0.15908407730536026,0.1436256017021936,-0.14748872511382133,0.8780519706681336,0.755387344887382,-0.28260600409253045,-1.6691069466774922,0.14141701960490072,2.4034465415215056,1.0273453707612223,0.878092876070424,0.7554597494309409,-0.2825552651693207,-1.6690993614607135,0.1414185955172306,2.4034451173676383,1.0273381002308042,-7.246207536006857e-06,-0.00029206654424246127,0.000416897953844959,0.0006549067100903199,-0.00017518190482762486,-0.00010147912125608266,0.0011127692876005688,0.0,0.0,0.0,0.0,0.0,0.0,0.0,4.090540229040318e-05,7.240454355883497e-05,5.0738923209725506e-05,7.585216778682735e-06,1.5759123298819677e-06,-1.4241538672798981e-06,-7.270530418157506e-06,7.246207536006857e-06,0.00029206654424246127,-0.000416897953844959,-0.0006549067100903199,0.00017518190482762486,0.00010147912125608266,-0.0011127692876005688,0.6568843722343445,46.32583236694336,5.588284015655518,-19.511445999145508,-0.7491965889930725,-2.4108920097351074,0.17337362468242645,0
76,0.3750190734863281,-0.6568843722343445,-46.32583236694336,-5.588284015655518,19.511445999145508,0.7491965889930725,2.4108920097351074,-0.17337362468242645,0.0,0.0,0.0,0.0,0.0,0.0,0.0,-0.6436662981703384,-0.010144983425439897,-0.40102703071981993,0.32277587366671423,0.15908407730536026,0.1436256017021936,-0.14748872511382133,0.8780519706681336,0.755387344887382,-0.28260600409253045,-1.6691069466774922,0.14141701960490072,2.4034465415215056,1.0273453707612223,0.878092876070424,0.7554597494309409,-0.2825552651693207,-1.6690993614607135,0.1414185955172306,2.4034451173676383,1.0273381002308042,-7.246207536006857e-06,-0.00029206654424246127,0.000416897953844959,0.0006549067100903199,-0.00017518190482762486,-0.00010147912125608266,0.0011127692876005688,0.0,0.0,0.0,0.0,0.0,0.0,0.0,4.090540229040318e-05,7.240454355883497e-05,5.0738923209725506e-05,7.585216778682735e-06,1.5759123298819677e-06,-1.4241538672798981e-06,-7.270530418157506e-06,7.246207536006857e-06,0.00029206654424246127,-0.000416897953844959,-0.0006549067100903199,0.00017518190482762486,0.00010147912125608266,-0.0011127692876005688,0.6568843722343445,46.32583236694336,5.588284015655518,-19.511445999145508,-0.7491965889930725,-2.4108920097351074,0.17337362468242645,0
77,0.37999987602233887,-0.6291133761405945,-46.32583236694336,-5.564480304718018,19.535249710083008,0.7427878975868225,2.4108920097351074,-0.13217489421367645,0.0,0.0,0.0,0.0,0.0,0.0,0.0,-0.6462445964348379,0.0013979254090113055,-0.40069063668889143,0.31912846786329646,0.1592526471378349,0.14279356859369083,-0.147430274998986,0.8780479412502116,0.755387344887382,-0.28260979632361527,-1.6691086171133473,0.14141761320896268,2.4034465415212845,1.0273407931245035,0.878092876070424,0.7554597494309409,-0.2825552651693207,-1.6690993614607135,0.1414185955172306,2.4034451173676383,1.0273381002308042,-0.0004136277684042238,-0.0002819758710356854,-0.0003019553403094709,0.0002528839680299022,-5.335850308226539e-05,6.871722625683544e-05,-0.0003780557111042445,0.0,0.0,0.0,0.0,0.0,0.0,0.0,4.493482021239448e-05,7.240454355883497e-05,5.4531154294545914e-05,9.255652633877176e-06,9.823082679216721e-07,-1.4241536461234716e-06,-2.692893699363097e-06,0.0004136277684042238,0.0002819758710356854,0.0003019553403094709,-0.0002528839680299022,5.335850308226539e-05,-6.871722625683544e-05,0.0003780557111042445,0.6291133761405945,46.32583236694336,5.564480304718018,-19.535249710083008,-0.7427878975868225,-2.4108920097351074,0.13217489421367645,0
78,0.38500356674194336,-0.6291133761405945,-46.32583236694336,-5.564480304718018,19.535249710083008,0.7427878975868225,2.4108920097351074,-0.13217489421367645,0.0,0.0,0.0,0.0,0.0,0.0,0.0,-0.6462445964348379,0.0013979254090113055,-0.40069063668889143,0.31912846786329646,0.1592526471378349,0.14279356859369083,-0.147430274998986,0.8780479412502116,0.755387344887382,-0.28260979632361527,-1.6691086171133473,0.14141761320896268,2.4034465415212845,1.0273407931245035,0.878092876070424,0.7554597494309409,-0.2825552651693207,-1.6690993614607135,0.1414185955172306,2.4034451173676383,1.0273381002308042,-0.0004136277684042238,-0.0002819758710356854,-0.0003019553403094709,0.0002528839680299022,-5.335850308226539e-05,6.871722625683544e-05,-0.0003780557111042445,0.0,0.0,0.0,0.0,0.0,0.0,0.0,4.493482021239448e-05,7.240454355883497e-05,5.4531154294545914e-05,9.255652633877176e-06,9.823082679216721e-07,-1.4241536461234716e-06,-2.692893699363097e-06,0.0004136277684042238,0.0002819758710356854,0.0003019553403094709,-0.0002528839680299022,5.335850308226539e-05,-6.871722625683544e-05,0.0003780557111042445,0.6291133761405945,46.32583236694336,5.564480304718018,-19.535249710083008,-0.7427878975868225,-2.4108920097351074,0.13217489421367645,0
79,0.39002323150634766,-0.6806880831718445,-46.34963607788086,-5.588284015655518,19.487642288208008,0.7427878975868225,2.4108920097351074,-0.09097616374492645,0.0,0.0,0.0,0.0,0.0,0.0,0.0,-0.6541942886190009,0.005080041666306292,-0.4050746576758109,0.31637012073238474,0.1592961212537089,0.14279936144345845,-0.14643570146886875,0.8780537490177422,0.7553890153232372,-0.2826080513750052,-1.669105276241637,0.14141765269943715,2.4034465415212845,1.0273362154877848,0.878092876070424,0.7554597494309409,-0.2825552651693207,-1.6690993614607135,0.1414185955172306,2.4034451173676383,1.0273381002308042,0.0005434584325746874,0.00041646992268365164,0.0003111108113724248,0.0007967406047500012,3.914823631797802e-05,-8.128370092500252e-05,-0.001993579703270729,0.0,0.0,0.0,0.0,0.0,0.0,0.0,3.912705268172001e-05,7.073410770364053e-05,5.2786205684496323e-05,5.914780923488294e-06,9.428177934478477e-07,-1.4241536461234716e-06,1.884743019431312e-06,-0.0005434584325746874,-0.00041646992268365164,-0.0003111108113724248,-0.0007967406047500012,-3.914823631797802e-05,8.128370092500252e-05,0.001993579703270729,0.6806880831718445,46.34963607788086,5.588284015655518,-19.487642288208008,-0.7427878975868225,-2.4108920097351074,0.09097616374492645,0
80,0.3950388431549072,-0.6806880831718445,-46.34963607788086,-5.588284015655518,19.487642288208008,0.7427878975868225,2.4108920097351074,-0.09097616374492645,0.0,0.0,0.0,0.0,0.0,0.0,0.0,-0.6541942886190009,0.005080041666306292,-0.4050746576758109,0.31637012073238474,0.1592961212537089,0.14279936144345845,-0.14643570146886875,0.8780537490177422,0.7553890153232372,-0.2826080513750052,-1.669105276241637,0.14141765269943715,2.4034465415212845,1.0273362154877848,0.878092876070424,0.7554597494309409,-0.2825552651693207,-1.6690993614607135,0.1414185955172306,2.4034451173676383,1.0273381002308042,0.0005434584325746874,0.00041646992268365164,0.0003111108113724248,0.0007967406047500012,3.914823631797802e-05,-8.128370092500252e-05,-0.001993579703270729,0.0,0.0,0.0,0.0,0.0,0.0,0.0,3.912705268172001e-05,7.073410770364053e-05,5.2786205684496323e-05,5.914780923488294e-06,9.428177934478477e-07,-1.4241536461234716e-06,1.884743019431312e-06,-0.0005434584325746874,-0.00041646992268365164,-0.0003111108113724248,-0.0007967406047500012,-3.914823631797802e-05,8.128370092500252e-05,0.001993579703270729,0.6806880831718445,46.34963607788086,5.588284015655518,-19.487642288208008,-0.7427878975868225,-2.4108920097351074,0.09097616374492645,0
