rezayati/contactInterpretation/dataset/franka_main/labeled_data/link4/d3_6.csv
index,time,tau_J0,tau_J1,tau_J2,tau_J3,tau_J4,tau_J5,tau_J6,tau_J_d0,tau_J_d1,tau_J_d2,tau_J_d3,tau_J_d4,tau_J_d5,tau_J_d6,tau_ext0,tau_ext1,tau_ext2,tau_ext3,tau_ext4,tau_ext5,tau_ext6,q0,q1,q2,q3,q4,q5,q6,q_d0,q_d1,q_d2,q_d3,q_d4,q_d5,q_d6,dq0,dq1,dq2,dq3,dq4,dq5,dq6,dq_d0,dq_d1,dq_d2,dq_d3,dq_d4,dq_d5,dq_d6,e0,e1,e2,e3,e4,e5,e6,de0,de1,de2,de3,de4,de5,de6,etau_J0,etau_J1,etau_J2,etau_J3,etau_J4,etau_J5,etau_J6,label
1,0.0,0.08103066682815552,-18.352502822875977,1.0410492420196533,18.269685745239258,0.8022971749305725,2.2689852714538574,-0.19351522624492645,0.0,0.0,0.0,0.0,0.0,0.0,0.0,0.08843725421001904,0.381296541268573,0.23187518656664582,0.5957142456569247,0.37438826440089806,0.05924909522736943,-0.19669509436611912,-0.6090663910706838,-0.05735491713829208,-0.666507880541602,-2.5946782700388535,-0.055686359859169594,2.507955211692386,0.876317664296426,-0.6090851748156966,-0.05753196718556838,-0.666603097082616,-2.5945565370258534,-0.05562143941554,2.507976027223799,0.8763108487046415,3.522939223170607e-05,-0.0005614625429656337,0.0003939196499683287,-0.0010034675123512435,-0.00016303586278565148,-0.0006018247285140635,-0.0003725101123567469,0.0,0.0,0.0,0.0,0.0,0.0,0.0,-1.8783745012740383e-05,-0.0001770500472763059,-9.521654101396493e-05,0.00012173301300011374,6.492044362959443e-05,2.0815531412754495e-05,-6.8155917845036385e-06,-3.522939223170607e-05,0.0005614625429656337,-0.0003939196499683287,0.0010034675123512435,0.00016303586278565148,0.0006018247285140635,0.0003725101123567469,-0.08103066682815552,18.352502822875977,-1.0410492420196533,-18.269685745239258,-0.8022971749305725,-2.2689852714538574,0.19351522624492645,0
2,0.004990339279174805,0.08103066682815552,-18.352502822875977,1.0410492420196533,18.269685745239258,0.8022971749305725,2.2689852714538574,-0.19351522624492645,0.0,0.0,0.0,0.0,0.0,0.0,0.0,0.08843725421001904,0.381296541268573,0.23187518656664582,0.5957142456569247,0.37438826440089806,0.05924909522736943,-0.19669509436611912,-0.6090663910706838,-0.05735491713829208,-0.666507880541602,-2.5946782700388535,-0.055686359859169594,2.507955211692386,0.876317664296426,-0.6090851748156966,-0.05753196718556838,-0.666603097082616,-2.5945565370258534,-0.05562143941554,2.507976027223799,0.8763108487046415,3.522939223170607e-05,-0.0005614625429656337,0.0003939196499683287,-0.0010034675123512435,-0.00016303586278565148,-0.0006018247285140635,-0.0003725101123567469,0.0,0.0,0.0,0.0,0.0,0.0,0.0,-1.8783745012740383e-05,-0.0001770500472763059,-9.521654101396493e-05,0.00012173301300011374,6.492044362959443e-05,2.0815531412754495e-05,-6.8155917845036385e-06,-3.522939223170607e-05,0.0005614625429656337,-0.0003939196499683287,0.0010034675123512435,0.00016303586278565148,0.0006018247285140635,0.0003725101123567469,-0.08103066682815552,18.352502822875977,-1.0410492420196533,-18.269685745239258,-0.8022971749305725,-2.2689852714538574,0.19351522624492645,0
3,0.010010480880737305,0.08103066682815552,-18.304895401000977,1.0172455310821533,18.198274612426758,0.8022971749305725,2.2488436698913574,-0.22098104655742645,0.0,0.0,0.0,0.0,0.0,0.0,0.0,0.0836438386428116,0.37418765265090975,0.22878962981677892,0.5898970693228262,0.3745907170062584,0.06009707623568192,-0.19624293148621091,-0.6090663910706838,-0.057358258010002605,-0.6665062100816704,-2.5946732587312398,-0.05568636002143132,2.5079574496481154,0.876320716054903,-0.6090851748156966,-0.05753196718556838,-0.666603097082616,-2.5945565370258534,-0.05562143941554,2.507976027223799,0.8763108487046415,-0.00020220465836168374,-0.0005499129152114014,0.00048419373300759066,0.0007560674553431802,-0.0001412384815624266,-9.29108353425341e-05,0.0009570670854957774,0.0,0.0,0.0,0.0,0.0,0.0,0.0,-1.8783745012740383e-05,-0.00017370917556577825,-9.68870009455669e-05,0.00011672170538634674,6.492060589131932e-05,1.8577575683575986e-05,-9.867350261538732e-06,0.00020220465836168374,0.0005499129152114014,-0.00048419373300759066,-0.0007560674553431802,0.0001412384815624266,9.29108353425341e-05,-0.0009570670854957774,-0.08103066682815552,18.304895401000977,-1.0172455310821533,-18.198274612426758,-0.8022971749305725,-2.2488436698913574,0.22098104655742645,0
4,0.014998435974121094,0.08103066682815552,-18.304895401000977,1.0172455310821533,18.198274612426758,0.8022971749305725,2.2488436698913574,-0.22098104655742645,0.0,0.0,0.0,0.0,0.0,0.0,0.0,0.0836438386428116,0.37418765265090975,0.22878962981677892,0.5898970693228262,0.3745907170062584,0.06009707623568192,-0.19624293148621091,-0.6090663910706838,-0.057358258010002605,-0.6665062100816704,-2.5946732587312398,-0.05568636002143132,2.5079574496481154,0.876320716054903,-0.6090851748156966,-0.05753196718556838,-0.666603097082616,-2.5945565370258534,-0.05562143941554,2.507976027223799,0.8763108487046415,-0.00020220465836168374,-0.0005499129152114014,0.00048419373300759066,0.0007560674553431802,-0.0001412384815624266,-9.29108353425341e-05,0.0009570670854957774,0.0,0.0,0.0,0.0,0.0,0.0,0.0,-1.8783745012740383e-05,-0.00017370917556577825,-9.68870009455669e-05,0.00011672170538634674,6.492060589131932e-05,1.8577575683575986e-05,-9.867350261538732e-06,0.00020220465836168374,0.0005499129152114014,-0.00048419373300759066,-0.0007560674553431802,0.0001412384815624266,9.29108353425341e-05,-0.0009570670854957774,-0.08103066682815552,18.304895401000977,-1.0172455310821533,-18.198274612426758,-0.8022971749305725,-2.2488436698913574,0.22098104655742645,0
5,0.01999068260192871,0.05722695589065552,-18.253320693969727,1.0688202381134033,18.245882034301758,0.8087058663368225,2.2296175956726074,-0.22830526530742645,0.0,0.0,0.0,0.0,0.0,0.0,0.0,0.08363134274670553,0.36625055621306546,0.22928202966952996,0.5917642409109815,0.37455193864116404,0.060219090281283694,-0.19590410991797635,-0.6090647206348285,-0.05736187728768901,-0.6665098293956955,-2.59467659960295,-0.05568707209825515,2.507959585878584,0.8763215298569863,-0.6090851748156966,-0.05753196718556838,-0.666603097082616,-2.5945565370258534,-0.05562143941554,2.507976027223799,0.8763108487046415,0.0005105697659853355,-0.0007608340240919318,-0.0005811816355922537,-0.0007705921408852048,-0.00016360013441832125,0.00039216051056290674,0.0012700760595614185,0.0,0.0,0.0,0.0,0.0,0.0,0.0,-2.0454180868045846e-05,-0.00017008989787937329,-9.326768692052845e-05,0.00012006257709673562,6.563268271515127e-05,1.6441345215056913e-05,-1.0681152344815814e-05,-0.0005105697659853355,0.0007608340240919318,0.0005811816355922537,0.0007705921408852048,0.00016360013441832125,-0.00039216051056290674,-0.0012700760595614185,-0.05722695589065552,18.253320693969727,-1.0688202381134033,-18.245882034301758,-0.8087058663368225,-2.2296175956726074,0.22830526530742645,0
6,0.024990081787109375,0.05722695589065552,-18.253320693969727,1.0688202381134033,18.245882034301758,0.8087058663368225,2.2296175956726074,-0.22830526530742645,0.0,0.0,0.0,0.0,0.0,0.0,0.0,0.08363134274670553,0.36625055621306546,0.22928202966952996,0.5917642409109815,0.37455193864116404,0.060219090281283694,-0.19590410991797635,-0.6090647206348285,-0.05736187728768901,-0.6665098293956955,-2.59467659960295,-0.05568707209825515,2.507959585878584,0.8763215298569863,-0.6090851748156966,-0.05753196718556838,-0.666603097082616,-2.5945565370258534,-0.05562143941554,2.507976027223799,0.8763108487046415,0.0005105697659853355,-0.0007608340240919318,-0.0005811816355922537,-0.0007705921408852048,-0.00016360013441832125,0.00039216051056290674,0.0012700760595614185,0.0,0.0,0.0,0.0,0.0,0.0,0.0,-2.0454180868045846e-05,-0.00017008989787937329,-9.326768692052845e-05,0.00012006257709673562,6.563268271515127e-05,1.6441345215056913e-05,-1.0681152344815814e-05,-0.0005105697659853355,0.0007608340240919318,0.0005811816355922537,0.0007705921408852048,0.00016360013441832125,-0.00039216051056290674,-0.0012700760595614185,-0.05722695589065552,18.253320693969727,-1.0688202381134033,-18.245882034301758,-0.8087058663368225,-2.2296175956726074,0.22830526530742645,0
7,0.02998971939086914,0.13260537385940552,-18.253320693969727,0.9934418201446533,18.198274612426758,0.8141990303993225,2.2296175956726074,-0.21457235515117645,0.0,0.0,0.0,0.0,0.0,0.0,0.0,0.08592810658887866,0.37923557318967843,0.23277820919823122,0.5907617764459503,0.3749249480070388,0.05863212550259781,-0.19631170468551618,-0.6090700103483702,-0.05736187728768901,-0.6665045357575683,-2.5946732587312398,-0.05568768244981765,2.507959585878584,0.8763200039780801,-0.6090851748156966,-0.05753196718556838,-0.666603097082616,-2.5945565370258534,-0.05562143941554,2.507976027223799,0.8763108487046415,-0.0011794761886724328,0.0008064451770870296,0.001893311718925711,0.00021002899841920608,-0.0006193572319530013,0.0003154611653319555,0.000689859976234912,0.0,0.0,0.0,0.0,0.0,0.0,0.0,-1.5164467326411746e-05,-0.00017008989787937329,-9.856132504770798e-05,0.00011672170538634674,6.624303427765071e-05,1.6441345215056913e-05,-9.155273438588019e-06,0.0011794761886724328,-0.0008064451770870296,-0.001893311718925711,-0.00021002899841920608,0.0006193572319530013,-0.0003154611653319555,-0.000689859976234912,-0.13260537385940552,18.253320693969727,-0.9934418201446533,-18.198274612426758,-0.8141990303993225,-2.2296175956726074,0.21457235515117645,0
8,0.0349884033203125,0.13260537385940552,-18.253320693969727,0.9934418201446533,18.198274612426758,0.8141990303993225,2.2296175956726074,-0.21457235515117645,0.0,0.0,0.0,0.0,0.0,0.0,0.0,0.08592810658887866,0.37923557318967843,0.23277820919823122,0.5907617764459503,0.3749249480070388,0.05863212550259781,-0.19631170468551618,-0.6090700103483702,-0.05736187728768901,-0.6665045357575683,-2.5946732587312398,-0.05568768244981765,2.507959585878584,0.8763200039780801,-0.6090851748156966,-0.05753196718556838,-0.666603097082616,-2.5945565370258534,-0.05562143941554,2.507976027223799,0.8763108487046415,-0.0011794761886724328,0.0008064451770870296,0.001893311718925711,0.00021002899841920608,-0.0006193572319530013,0.0003154611653319555,0.000689859976234912,0.0,0.0,0.0,0.0,0.0,0.0,0.0,-1.5164467326411746e-05,-0.00017008989787937329,-9.856132504770798e-05,0.00011672170538634674,6.624303427765071e-05,1.6441345215056913e-05,-9.155273438588019e-06,0.0011794761886724328,-0.0008064451770870296,-0.001893311718925711,-0.00021002899841920608,0.0006193572319530013,-0.0003154611653319555,-0.000689859976234912,-0.13260537385940552,18.253320693969727,-0.9934418201446533,-18.198274612426758,-0.8141990303993225,-2.2296175956726074,0.21457235515117645,0
9,0.03999733924865723,0.16037636995315552,-18.229516983032227,1.0410492420196533,18.222078323364258,0.8022971749305725,2.2488436698913574,-0.22098104655742645,0.0,0.0,0.0,0.0,0.0,0.0,0.0,0.07929541750779773,0.3818054043597196,0.2276648353843235,0.6004503075058015,0.37566068744903897,0.05957569392426764,-0.19649746888435754,-0.6090719591902013,-0.057363547723544274,-0.6665078707423782,-2.594674929167095,-0.055686359859169594,2.5079574496481154,0.876320716054903,-0.6090851748156966,-0.05753196718556838,-0.666603097082616,-2.5945565370258534,-0.05562143941554,2.507976027223799,0.8763108487046415,-0.0018894953591516409,-0.0004012534666200326,0.0002769514688330765,-2.7925923833480494e-05,-0.00021119090663755574,-9.84893649166497e-05,0.000824273798566221,0.0,0.0,0.0,0.0,0.0,0.0,0.0,-1.321562549527755e-05,-0.00016841946202410946,-9.522634023784171e-05,0.00011839214124176323,6.492044362959443e-05,1.8577575683575986e-05,-9.867350261538732e-06,0.0018894953591516409,0.0004012534666200326,-0.0002769514688330765,2.7925923833480494e-05,0.00021119090663755574,9.84893649166497e-05,-0.000824273798566221,-0.16037636995315552,18.229516983032227,-1.0410492420196533,-18.222078323364258,-0.8022971749305725,-2.2488436698913574,0.22098104655742645,0
10,0.045003652572631836,0.16037636995315552,-18.229516983032227,1.0410492420196533,18.222078323364258,0.8022971749305725,2.2488436698913574,-0.22098104655742645,0.0,0.0,0.0,0.0,0.0,0.0,0.0,0.07929541750779773,0.3818054043597196,0.2276648353843235,0.6004503075058015,0.37566068744903897,0.05957569392426764,-0.19649746888435754,-0.6090719591902013,-0.057363547723544274,-0.6665078707423782,-2.594674929167095,-0.055686359859169594,2.5079574496481154,0.876320716054903,-0.6090851748156966,-0.05753196718556838,-0.666603097082616,-2.5945565370258534,-0.05562143941554,2.507976027223799,0.8763108487046415,-0.0018894953591516409,-0.0004012534666200326,0.0002769514688330765,-2.7925923833480494e-05,-0.00021119090663755574,-9.84893649166497e-05,0.000824273798566221,0.0,0.0,0.0,0.0,0.0,0.0,0.0,-1.321562549527755e-05,-0.00016841946202410946,-9.522634023784171e-05,0.00011839214124176323,6.492044362959443e-05,1.8577575683575986e-05,-9.867350261538732e-06,0.0018894953591516409,0.0004012534666200326,-0.0002769514688330765,2.7925923833480494e-05,0.00021119090663755574,9.84893649166497e-05,-0.000824273798566221,-0.16037636995315552,18.229516983032227,-1.0410492420196533,-18.222078323364258,-0.8022971749305725,-2.2488436698913574,0.22098104655742645,0
11,0.05009651184082031,0.16037636995315552,-18.229516983032227,1.0410492420196533,18.222078323364258,0.8022971749305725,2.2488436698913574,-0.22098104655742645,0.0,0.0,0.0,0.0,0.0,0.0,0.0,0.07929541750779773,0.3818054043597196,0.2276648353843235,0.6004503075058015,0.37566068744903897,0.05957569392426764,-0.19649746888435754,-0.6090719591902013,-0.057363547723544274,-0.6665078707423782,-2.594674929167095,-0.055686359859169594,2.5079574496481154,0.876320716054903,-0.6090851748156966,-0.05753196718556838,-0.666603097082616,-2.5945565370258534,-0.05562143941554,2.507976027223799,0.8763108487046415,-0.0018894953591516409,-0.0004012534666200326,0.0002769514688330765,-2.7925923833480494e-05,-0.00021119090663755574,-9.84893649166497e-05,0.000824273798566221,0.0,0.0,0.0,0.0,0.0,0.0,0.0,-1.321562549527755e-05,-0.00016841946202410946,-9.522634023784171e-05,0.00011839214124176323,6.492044362959443e-05,1.8577575683575986e-05,-9.867350261538732e-06,0.0018894953591516409,0.0004012534666200326,-0.0002769514688330765,2.7925923833480494e-05,0.00021119090663755574,9.84893649166497e-05,-0.000824273798566221,-0.16037636995315552,18.229516983032227,-1.0410492420196533,-18.222078323364258,-0.8022971749305725,-2.2488436698913574,0.22098104655742645,0
12,0.054990530014038086,0.08103066682815552,-18.277124404907227,1.0926239490509033,18.222078323364258,0.7903953194618225,2.2296175956726074,-0.20083944499492645,0.0,0.0,0.0,0.0,0.0,0.0,0.0,0.08165177666975998,0.3861402567748281,0.2323481118133353,0.6006315011312731,0.37550522781779705,0.05970100598462224,-0.1964719729972796,-0.6090663910706838,-0.057360206851833746,-0.6665114202496196,-2.594674929167095,-0.05568499816322431,2.507959585878584,0.8763184780991738,-0.6090851748156966,-0.05753196718556838,-0.666603097082616,-2.5945565370258534,-0.05562143941554,2.507976027223799,0.8763108487046415,0.0003741461905443183,-0.0002748646457682836,-0.0007785562044095726,0.0003106107334554715,0.00027811414435014917,0.0005189294378657784,0.0005818880043238872,0.0,0.0,0.0,0.0,0.0,0.0,0.0,-1.8783745012740383e-05,-0.00017176033373463712,-9.167683299637908e-05,0.00011839214124176323,6.355874768430858e-05,1.6441345215056913e-05,-7.629394532360223e-06,-0.0003741461905443183,0.0002748646457682836,0.0007785562044095726,-0.0003106107334554715,-0.00027811414435014917,-0.0005189294378657784,-0.0005818880043238872,-0.08103066682815552,18.277124404907227,-1.0926239490509033,-18.222078323364258,-0.7903953194618225,-2.2296175956726074,0.20083944499492645,0
13,0.05999445915222168,0.08103066682815552,-18.277124404907227,1.0926239490509033,18.222078323364258,0.7903953194618225,2.2296175956726074,-0.20083944499492645,0.0,0.0,0.0,0.0,0.0,0.0,0.0,0.08165177666975998,0.3861402567748281,0.2323481118133353,0.6006315011312731,0.37550522781779705,0.05970100598462224,-0.1964719729972796,-0.6090663910706838,-0.057360206851833746,-0.6665114202496196,-2.594674929167095,-0.05568499816322431,2.507959585878584,0.8763184780991738,-0.6090851748156966,-0.05753196718556838,-0.666603097082616,-2.5945565370258534,-0.05562143941554,2.507976027223799,0.8763108487046415,0.0003741461905443183,-0.0002748646457682836,-0.0007785562044095726,0.0003106107334554715,0.00027811414435014917,0.0005189294378657784,0.0005818880043238872,0.0,0.0,0.0,0.0,0.0,0.0,0.0,-1.8783745012740383e-05,-0.00017176033373463712,-9.167683299637908e-05,0.00011839214124176323,6.355874768430858e-05,1.6441345215056913e-05,-7.629394532360223e-06,-0.0003741461905443183,0.0002748646457682836,0.0007785562044095726,-0.0003106107334554715,-0.00027811414435014917,-0.0005189294378657784,-0.0005818880043238872,-0.08103066682815552,18.277124404907227,-1.0926239490509033,-18.222078323364258,-0.7903953194618225,-2.2296175956726074,0.20083944499492645,0
14,0.06499052047729492,0.08103066682815552,-18.352502822875977,1.0172455310821533,18.245882034301758,0.7903953194618225,2.2552523612976074,-0.21457235515117645,0.0,0.0,0.0,0.0,0.0,0.0,0.0,0.0838079632714754,0.3849356482969566,0.23515178697495184,0.6024176712418317,0.37491233731676155,0.05968994150352644,-0.1956857088342106,-0.6090663910706838,-0.05735491713829208,-0.6665062012872424,-2.59467659960295,-0.05568468272442988,2.5079568553088625,0.8763199516502713,-0.6090851748156966,-0.05753196718556838,-0.666603097082616,-2.5945565370258534,-0.05562143941554,2.507976027223799,0.8763108487046415,0.0007967296427799487,0.0010432315763971116,0.0005658971344770056,1.0314323962129983e-05,5.18340624795599e-05,-0.00026328342692792363,0.0014741764199544326,0.0,0.0,0.0,0.0,0.0,0.0,0.0,-1.8783745012740383e-05,-0.0001770500472763059,-9.689579537364157e-05,0.00012006257709673562,6.324330888988344e-05,1.9171914936499945e-05,-9.102945629835268e-06,-0.0007967296427799487,-0.0010432315763971116,-0.0005658971344770056,-1.0314323962129983e-05,-5.18340624795599e-05,0.00026328342692792363,-0.0014741764199544326,-0.08103066682815552,18.352502822875977,-1.0172455310821533,-18.245882034301758,-0.7903953194618225,-2.2552523612976074,0.21457235515117645,0
15,0.06998872756958008,0.08103066682815552,-18.352502822875977,1.0172455310821533,18.245882034301758,0.7903953194618225,2.2552523612976074,-0.21457235515117645,0.0,0.0,0.0,0.0,0.0,0.0,0.0,0.0838079632714754,0.3849356482969566,0.23515178697495184,0.6024176712418317,0.37491233731676155,0.05968994150352644,-0.1956857088342106,-0.6090663910706838,-0.05735491713829208,-0.6665062012872424,-2.59467659960295,-0.05568468272442988,2.5079568553088625,0.8763199516502713,-0.6090851748156966,-0.05753196718556838,-0.666603097082616,-2.5945565370258534,-0.05562143941554,2.507976027223799,0.8763108487046415,0.0007967296427799487,0.0010432315763971116,0.0005658971344770056,1.0314323962129983e-05,5.18340624795599e-05,-0.00026328342692792363,0.0014741764199544326,0.0,0.0,0.0,0.0,0.0,0.0,0.0,-1.8783745012740383e-05,-0.0001770500472763059,-9.689579537364157e-05,0.00012006257709673562,6.324330888988344e-05,1.9171914936499945e-05,-9.102945629835268e-06,-0.0007967296427799487,-0.0010432315763971116,-0.0005658971344770056,-1.0314323962129983e-05,-5.18340624795599e-05,0.00026328342692792363,-0.0014741764199544326,-0.08103066682815552,18.352502822875977,-1.0172455310821533,-18.245882034301758,-0.7903953194618225,-2.2552523612976074,0.21457235515117645,0
16,0.07498955726623535,0.08103066682815552,-18.304895401000977,1.1164276599884033,18.198274612426758,0.7968040108680725,2.2296175956726074,-0.20083944499492645,0.0,0.0,0.0,0.0,0.0,0.0,0.0,0.09299542386434373,0.3883959702440372,0.24231628118787052,0.5965737819436681,0.3735341444001765,0.05948667558428113,-0.19440392266781342,-0.6090663910706838,-0.057358258010002605,-0.6665131702673563,-2.5946732587312398,-0.05568574966786649,2.5079595858792487,0.8763152991844905,-0.6090851748156966,-0.05753196718556838,-0.666603097082616,-2.5945565370258534,-0.05562143941554,2.507976027223799,0.8763108487046415,0.00048731830773252483,0.0004075831653911544,-0.0014584636646178494,0.0004004459998465485,-3.868636827565399e-05,0.0003887839365560779,0.0014142773089507116,0.0,0.0,0.0,0.0,0.0,0.0,0.0,-1.8783745012740383e-05,-0.00017370917556577825,-8.992681525965551e-05,0.00011672170538634674,6.431025232649101e-05,1.6441344550255366e-05,-4.450479848983058e-06,-0.00048731830773252483,-0.0004075831653911544,0.0014584636646178494,-0.0004004459998465485,3.868636827565399e-05,-0.0003887839365560779,-0.0014142773089507116,-0.08103066682815552,18.304895401000977,-1.1164276599884033,-18.198274612426758,-0.7968040108680725,-2.2296175956726074,0.20083944499492645,0
17,0.0799872875213623,0.08103066682815552,-18.304895401000977,1.1164276599884033,18.198274612426758,0.7968040108680725,2.2296175956726074,-0.20083944499492645,0.0,0.0,0.0,0.0,0.0,0.0,0.0,0.09299542386434373,0.3883959702440372,0.24231628118787052,0.5965737819436681,0.3735341444001765,0.05948667558428113,-0.19440392266781342,-0.6090663910706838,-0.057358258010002605,-0.6665131702673563,-2.5946732587312398,-0.05568574966786649,2.5079595858792487,0.8763152991844905,-0.6090851748156966,-0.05753196718556838,-0.666603097082616,-2.5945565370258534,-0.05562143941554,2.507976027223799,0.8763108487046415,0.00048731830773252483,0.0004075831653911544,-0.0014584636646178494,0.0004004459998465485,-3.868636827565399e-05,0.0003887839365560779,0.0014142773089507116,0.0,0.0,0.0,0.0,0.0,0.0,0.0,-1.8783745012740383e-05,-0.00017370917556577825,-8.992681525965551e-05,0.00011672170538634674,6.431025232649101e-05,1.6441344550255366e-05,-4.450479848983058e-06,-0.00048731830773252483,-0.0004075831653911544,0.0014584636646178494,-0.0004004459998465485,3.868636827565399e-05,-0.0003887839365560779,-0.0014142773089507116,-0.08103066682815552,18.304895401000977,-1.1164276599884033,-18.198274612426758,-0.7968040108680725,-2.2296175956726074,0.20083944499492645,0
18,0.08585834503173828,0.08103066682815552,-18.304895401000977,1.1164276599884033,18.198274612426758,0.7968040108680725,2.2296175956726074,-0.20083944499492645,0.0,0.0,0.0,0.0,0.0,0.0,0.0,0.09299542386434373,0.3883959702440372,0.24231628118787052,0.5965737819436681,0.3735341444001765,0.05948667558428113,-0.19440392266781342,-0.6090663910706838,-0.057358258010002605,-0.6665131702673563,-2.5946732587312398,-0.05568574966786649,2.5079595858792487,0.8763152991844905,-0.6090851748156966,-0.05753196718556838,-0.666603097082616,-2.5945565370258534,-0.05562143941554,2.507976027223799,0.8763108487046415,0.00048731830773252483,0.0004075831653911544,-0.0014584636646178494,0.0004004459998465485,-3.868636827565399e-05,0.0003887839365560779,0.0014142773089507116,0.0,0.0,0.0,0.0,0.0,0.0,0.0,-1.8783745012740383e-05,-0.00017370917556577825,-8.992681525965551e-05,0.00011672170538634674,6.431025232649101e-05,1.6441344550255366e-05,-4.450479848983058e-06,-0.00048731830773252483,-0.0004075831653911544,0.0014584636646178494,-0.0004004459998465485,3.868636827565399e-05,-0.0003887839365560779,-0.0014142773089507116,-0.08103066682815552,18.304895401000977,-1.1164276599884033,-18.198274612426758,-0.7968040108680725,-2.2296175956726074,0.20083944499492645,0
19,0.08998799324035645,0.08103066682815552,-18.304895401000977,1.1164276599884033,18.198274612426758,0.7968040108680725,2.2296175956726074,-0.20083944499492645,0.0,0.0,0.0,0.0,0.0,0.0,0.0,0.09299542386434373,0.3883959702440372,0.24231628118787052,0.5965737819436681,0.3735341444001765,0.05948667558428113,-0.19440392266781342,-0.6090663910706838,-0.057358258010002605,-0.6665131702673563,-2.5946732587312398,-0.05568574966786649,2.5079595858792487,0.8763152991844905,-0.6090851748156966,-0.05753196718556838,-0.666603097082616,-2.5945565370258534,-0.05562143941554,2.507976027223799,0.8763108487046415,0.00048731830773252483,0.0004075831653911544,-0.0014584636646178494,0.0004004459998465485,-3.868636827565399e-05,0.0003887839365560779,0.0014142773089507116,0.0,0.0,0.0,0.0,0.0,0.0,0.0,-1.8783745012740383e-05,-0.00017370917556577825,-8.992681525965551e-05,0.00011672170538634674,6.431025232649101e-05,1.6441344550255366e-05,-4.450479848983058e-06,-0.00048731830773252483,-0.0004075831653911544,0.0014584636646178494,-0.0004004459998465485,3.868636827565399e-05,-0.0003887839365560779,-0.0014142773089507116,-0.08103066682815552,18.304895401000977,-1.1164276599884033,-18.198274612426758,-0.7968040108680725,-2.2296175956726074,0.20083944499492645,0
20,0.09498786926269531,0.08103066682815552,-18.277124404907227,1.0172455310821533,18.245882034301758,0.7903953194618225,2.2424349784851074,-0.17978231608867645,0.0,0.0,0.0,0.0,0.0,0.0,0.0,0.08710366570541447,0.3833058574803503,0.2380492419891207,0.5975214850487675,0.3735883598983668,0.05953674591077949,-0.19218531546512116,-0.6090663910706838,-0.057360206851833746,-0.6665062101180093,-2.59467659960295,-0.055681843777497596,2.5079581617249382,0.8763161384002393,-0.6090851748156966,-0.05753196718556838,-0.666603097082616,-2.5945565370258534,-0.05562143941554,2.507976027223799,0.8763108487046415,6.0571091731722024e-05,-9.726654495982548e-05,0.00016252536770838458,-0.0007607790240646273,0.00042203240097625255,-0.00013098504483573803,-0.00025743033048746347,0.0,0.0,0.0,0.0,0.0,0.0,0.0,-1.8783745012740383e-05,-0.00017176033373463712,-9.688696460674606e-05,0.00012006257709673562,6.0404361957595853e-05,1.7865498860736295e-05,-5.289695597765487e-06,-6.0571091731722024e-05,9.726654495982548e-05,-0.00016252536770838458,0.0007607790240646273,-0.00042203240097625255,0.00013098504483573803,0.00025743033048746347,-0.08103066682815552,18.277124404907227,-1.0172455310821533,-18.245882034301758,-0.7903953194618225,-2.2424349784851074,0.17978231608867645,0
21,0.09998703002929688,0.08103066682815552,-18.277124404907227,1.0172455310821533,18.245882034301758,0.7903953194618225,2.2424349784851074,-0.17978231608867645,0.0,0.0,0.0,0.0,0.0,0.0,0.0,0.08710366570541447,0.3833058574803503,0.2380492419891207,0.5975214850487675,0.3735883598983668,0.05953674591077949,-0.19218531546512116,-0.6090663910706838,-0.057360206851833746,-0.6665062101180093,-2.59467659960295,-0.055681843777497596,2.5079581617249382,0.8763161384002393,-0.6090851748156966,-0.05753196718556838,-0.666603097082616,-2.5945565370258534,-0.05562143941554,2.507976027223799,0.8763108487046415,6.0571091731722024e-05,-9.726654495982548e-05,0.00016252536770838458,-0.0007607790240646273,0.00042203240097625255,-0.00013098504483573803,-0.00025743033048746347,0.0,0.0,0.0,0.0,0.0,0.0,0.0,-1.8783745012740383e-05,-0.00017176033373463712,-9.688696460674606e-05,0.00012006257709673562,6.0404361957595853e-05,1.7865498860736295e-05,-5.289695597765487e-06,-6.0571091731722024e-05,9.726654495982548e-05,-0.00016252536770838458,0.0007607790240646273,-0.00042203240097625255,0.00013098504483573803,0.00025743033048746347,-0.08103066682815552,18.277124404907227,-1.0172455310821533,-18.245882034301758,-0.7903953194618225,-2.2424349784851074,0.17978231608867645,0
22,0.10498881340026855,0.03342324495315552,-18.277124404907227,0.9934418201446533,18.170503616333008,0.8087058663368225,2.2424349784851074,-0.18710653483867645,0.0,0.0,0.0,0.0,0.0,0.0,0.0,0.08173177141569903,0.3747221641730137,0.23212021015401216,0.6002884880844245,0.37322140283527283,0.05975935611537586,-0.19367716483703945,-0.6090630501989732,-0.057360206851833746,-0.6665038244264166,-2.5946713098894088,-0.055687058936952104,2.5079581617249382,0.8763169522202676,-0.6090851748156966,-0.05753196718556838,-0.666603097082616,-2.5945565370258534,-0.05562143941554,2.507976027223799,0.8763108487046415,0.0006297339759000225,-0.0008777386324060485,0.0008026959179282866,0.0011335559790831525,-0.0003459638313027611,1.9215243859380387e-05,-0.0007432201279996556,0.0,0.0,0.0,0.0,0.0,0.0,0.0,-2.212461672335131e-05,-0.00017176033373463712,-9.927265619935621e-05,0.00011477286355532357,6.561952141210387e-05,1.7865498860736295e-05,-6.1035156261324275e-06,-0.0006297339759000225,0.0008777386324060485,-0.0008026959179282866,-0.0011335559790831525,0.0003459638313027611,-1.9215243859380387e-05,0.0007432201279996556,-0.03342324495315552,18.277124404907227,-0.9934418201446533,-18.170503616333008,-0.8087058663368225,-2.2424349784851074,0.18710653483867645,0
23,0.10999345779418945,0.03342324495315552,-18.277124404907227,0.9934418201446533,18.170503616333008,0.8087058663368225,2.2424349784851074,-0.18710653483867645,0.0,0.0,0.0,0.0,0.0,0.0,0.0,0.08173177141569903,0.3747221641730137,0.23212021015401216,0.6002884880844245,0.37322140283527283,0.05975935611537586,-0.19367716483703945,-0.6090630501989732,-0.057360206851833746,-0.6665038244264166,-2.5946713098894088,-0.055687058936952104,2.5079581617249382,0.8763169522202676,-0.6090851748156966,-0.05753196718556838,-0.666603097082616,-2.5945565370258534,-0.05562143941554,2.507976027223799,0.8763108487046415,0.0006297339759000225,-0.0008777386324060485,0.0008026959179282866,0.0011335559790831525,-0.0003459638313027611,1.9215243859380387e-05,-0.0007432201279996556,0.0,0.0,0.0,0.0,0.0,0.0,0.0,-2.212461672335131e-05,-0.00017176033373463712,-9.927265619935621e-05,0.00011477286355532357,6.561952141210387e-05,1.7865498860736295e-05,-6.1035156261324275e-06,-0.0006297339759000225,0.0008777386324060485,-0.0008026959179282866,-0.0011335559790831525,0.0003459638313027611,-1.9215243859380387e-05,0.0007432201279996556,-0.03342324495315552,18.277124404907227,-0.9934418201446533,-18.170503616333008,-0.8087058663368225,-2.2424349784851074,0.18710653483867645,0
24,0.11500072479248047,0.03342324495315552,-18.304895401000977,0.9934418201446533,18.170503616333008,0.7968040108680725,2.2424349784851074,-0.20083944499492645,0.0,0.0,0.0,0.0,0.0,0.0,0.0,0.07938026374548755,0.37929542067978356,0.2295179136064539,0.5958626609728457,0.37361720399082354,0.05906826261172752,-0.1949677706265901,-0.6090630501989732,-0.057358258010002605,-0.6665045396781164,-2.5946713098894088,-0.05568574966979544,2.5079581617249382,0.8763184774531516,-0.6090851748156966,-0.05753196718556838,-0.666603097082616,-2.5945565370258534,-0.05562143941554,2.507976027223799,0.8763108487046415,0.0007447598760859169,-1.2715564382975328e-05,0.0009386106257487984,0.0011688119646174886,0.00012717097641455185,8.286706689128627e-05,0.0005599951280868458,0.0,0.0,0.0,0.0,0.0,0.0,0.0,-2.212461672335131e-05,-0.00017370917556577825,-9.85574044995996e-05,0.00011477286355532357,6.431025425544107e-05,1.7865498860736295e-05,-7.628748510124517e-06,-0.0007447598760859169,1.2715564382975328e-05,-0.0009386106257487984,-0.0011688119646174886,-0.00012717097641455185,-8.286706689128627e-05,-0.0005599951280868458,-0.03342324495315552,18.304895401000977,-0.9934418201446533,-18.170503616333008,-0.7968040108680725,-2.2424349784851074,0.20083944499492645,0
25,0.12009191513061523,0.03342324495315552,-18.304895401000977,0.9934418201446533,18.170503616333008,0.7968040108680725,2.2424349784851074,-0.20083944499492645,0.0,0.0,0.0,0.0,0.0,0.0,0.0,0.07938026374548755,0.37929542067978356,0.2295179136064539,0.5958626609728457,0.37361720399082354,0.05906826261172752,-0.1949677706265901,-0.6090630501989732,-0.057358258010002605,-0.6665045396781164,-2.5946713098894088,-0.05568574966979544,2.5079581617249382,0.8763184774531516,-0.6090851748156966,-0.05753196718556838,-0.666603097082616,-2.5945565370258534,-0.05562143941554,2.507976027223799,0.8763108487046415,0.0007447598760859169,-1.2715564382975328e-05,0.0009386106257487984,0.0011688119646174886,0.00012717097641455185,8.286706689128627e-05,0.0005599951280868458,0.0,0.0,0.0,0.0,0.0,0.0,0.0,-2.212461672335131e-05,-0.00017370917556577825,-9.85574044995996e-05,0.00011477286355532357,6.431025425544107e-05,1.7865498860736295e-05,-7.628748510124517e-06,-0.0007447598760859169,1.2715564382975328e-05,-0.0009386106257487984,-0.0011688119646174886,-0.00012717097641455185,-8.286706689128627e-05,-0.0005599951280868458,-0.03342324495315552,18.304895401000977,-0.9934418201446533,-18.170503616333008,-0.7968040108680725,-2.2424349784851074,0.20083944499492645,0
26,0.12499213218688965,0.08103066682815552,-18.253320693969727,1.0172455310821533,18.198274612426758,0.8141990303993225,2.2424349784851074,-0.20083944499492645,0.0,0.0,0.0,0.0,0.0,0.0,0.0,0.08374010189290003,0.3812116235746259,0.23331491972035343,0.5925333681909206,0.37371390977899277,0.059278416601831155,-0.19406289081181002,-0.6090663910706838,-0.05736187728768901,-0.6665059716630914,-2.5946732587312398,-0.05568768244981765,2.5079581617249382,0.87631847664562,-0.6090851748156966,-0.05753196718556838,-0.666603097082616,-2.5945565370258534,-0.05562143941554,2.507976027223799,0.8763108487046415,-9.589058659948675e-06,-0.0008513057715644634,0.0006485272912088657,0.00023104861194688114,-0.0005276140239635072,8.855119082553154e-05,0.00021684023295670985,0.0,0.0,0.0,0.0,0.0,0.0,0.0,-1.8783745012740383e-05,-0.00017008989787937329,-9.712541952455744e-05,0.00011672170538634674,6.624303427765071e-05,1.7865498860736295e-05,-7.62794097852737e-06,9.589058659948675e-06,0.0008513057715644634,-0.0006485272912088657,-0.00023104861194688114,0.0005276140239635072,-8.855119082553154e-05,-0.00021684023295670985,-0.08103066682815552,18.253320693969727,-1.0172455310821533,-18.198274612426758,-0.8141990303993225,-2.2424349784851074,0.20083944499492645,0
27,0.1299879550933838,0.08103066682815552,-18.253320693969727,1.0172455310821533,18.198274612426758,0.8141990303993225,2.2424349784851074,-0.20083944499492645,0.0,0.0,0.0,0.0,0.0,0.0,0.0,0.08374010189290003,0.3812116235746259,0.23331491972035343,0.5925333681909206,0.37371390977899277,0.059278416601831155,-0.19406289081181002,-0.6090663910706838,-0.05736187728768901,-0.6665059716630914,-2.5946732587312398,-0.05568768244981765,2.5079581617249382,0.87631847664562,-0.6090851748156966,-0.05753196718556838,-0.666603097082616,-2.5945565370258534,-0.05562143941554,2.507976027223799,0.8763108487046415,-9.589058659948675e-06,-0.0008513057715644634,0.0006485272912088657,0.00023104861194688114,-0.0005276140239635072,8.855119082553154e-05,0.00021684023295670985,0.0,0.0,0.0,0.0,0.0,0.0,0.0,-1.8783745012740383e-05,-0.00017008989787937329,-9.712541952455744e-05,0.00011672170538634674,6.624303427765071e-05,1.7865498860736295e-05,-7.62794097852737e-06,9.589058659948675e-06,0.0008513057715644634,-0.0006485272912088657,-0.00023104861194688114,0.0005276140239635072,-8.855119082553154e-05,-0.00021684023295670985,-0.08103066682815552,18.253320693969727,-1.0172455310821533,-18.198274612426758,-0.8141990303993225,-2.2424349784851074,0.20083944499492645,0
28,0.13499212265014648,0.05722695589065552,-18.229516983032227,1.0926239490509033,18.269685745239258,0.7968040108680725,2.2552523612976074,-0.17978231608867645,0.0,0.0,0.0,0.0,0.0,0.0,0.0,0.08013256286186636,0.3837588459141743,0.2293424539769686,0.5898233063481323,0.3744786570648441,0.0600988211708044,-0.1937447473512669,-0.6090647206348285,-0.057363547723544274,-0.6665114985220096,-2.594678270073798,-0.05568538890593278,2.5079567375712926,0.8763161382566705,-0.6090851748156966,-0.05753196718556838,-0.666603097082616,-2.5945565370258534,-0.05562143941554,2.507976027223799,0.8763108487046415,0.000828298854321641,-0.0009746218377486226,-0.0010563800989462527,-0.0015520392039454142,-1.628049395702072e-05,-0.0004227577195466062,-0.00059439017648354,0.0,0.0,0.0,0.0,0.0,0.0,0.0,-2.0454180868045846e-05,-0.00016841946202410946,-9.159856060636518e-05,0.00012173304794460549,6.394949039278258e-05,1.9289652506415678e-05,-5.289552029053013e-06,-0.000828298854321641,0.0009746218377486226,0.0010563800989462527,0.0015520392039454142,1.628049395702072e-05,0.0004227577195466062,0.00059439017648354,-0.05722695589065552,18.229516983032227,-1.0926239490509033,-18.269685745239258,-0.7968040108680725,-2.2552523612976074,0.17978231608867645,0
29,0.13999080657958984,0.05722695589065552,-18.229516983032227,1.0926239490509033,18.269685745239258,0.7968040108680725,2.2552523612976074,-0.17978231608867645,0.0,0.0,0.0,0.0,0.0,0.0,0.0,0.08013256286186636,0.3837588459141743,0.2293424539769686,0.5898233063481323,0.3744786570648441,0.0600988211708044,-0.1937447473512669,-0.6090647206348285,-0.057363547723544274,-0.6665114985220096,-2.594678270073798,-0.05568538890593278,2.5079567375712926,0.8763161382566705,-0.6090851748156966,-0.05753196718556838,-0.666603097082616,-2.5945565370258534,-0.05562143941554,2.507976027223799,0.8763108487046415,0.000828298854321641,-0.0009746218377486226,-0.0010563800989462527,-0.0015520392039454142,-1.628049395702072e-05,-0.0004227577195466062,-0.00059439017648354,0.0,0.0,0.0,0.0,0.0,0.0,0.0,-2.0454180868045846e-05,-0.00016841946202410946,-9.159856060636518e-05,0.00012173304794460549,6.394949039278258e-05,1.9289652506415678e-05,-5.289552029053013e-06,-0.000828298854321641,0.0009746218377486226,0.0010563800989462527,0.0015520392039454142,1.628049395702072e-05,0.0004227577195466062,0.00059439017648354,-0.05722695589065552,18.229516983032227,-1.0926239490509033,-18.269685745239258,-0.7968040108680725,-2.2552523612976074,0.17978231608867645,0
30,0.1449902057647705,0.08103066682815552,-18.277124404907227,1.0410492420196533,18.198274612426758,0.8022971749305725,2.2424349784851074,-0.22098104655742645,0.0,0.0,0.0,0.0,0.0,0.0,0.0,0.07886000165051706,0.38558226541118457,0.23014995866646623,0.5932871404875334,0.3748830434571105,0.06115179917297353,-0.19427492761724968,-0.6090663910706838,-0.057360206851833746,-0.6665078805538571,-2.5946732587312398,-0.055682811335452144,2.5079581617249382,0.8763207160549021,-0.6090851748156966,-0.05753196718556838,-0.666603097082616,-2.5945565370258534,-0.05562143941554,2.507976027223799,0.8763108487046415,-8.911483461494409e-05,0.0008461241489615598,0.0008025867406442835,0.000711799317388525,-0.00022648725777125908,-0.00016898349930599183,0.001223404557905824,0.0,0.0,0.0,0.0,0.0,0.0,0.0,-1.8783745012740383e-05,-0.00017176033373463712,-9.521652875887909e-05,0.00011672170538634674,6.137191991214402e-05,1.7865498860736295e-05,-9.867350260650554e-06,8.911483461494409e-05,-0.0008461241489615598,-0.0008025867406442835,-0.000711799317388525,0.00022648725777125908,0.00016898349930599183,-0.001223404557905824,-0.08103066682815552,18.277124404907227,-1.0410492420196533,-18.198274612426758,-0.8022971749305725,-2.2424349784851074,0.22098104655742645,0
31,0.14998650550842285,0.08103066682815552,-18.277124404907227,1.0410492420196533,18.198274612426758,0.8022971749305725,2.2424349784851074,-0.22098104655742645,0.0,0.0,0.0,0.0,0.0,0.0,0.0,0.07886000165051706,0.38558226541118457,0.23014995866646623,0.5932871404875334,0.3748830434571105,0.06115179917297353,-0.19427492761724968,-0.6090663910706838,-0.057360206851833746,-0.6665078805538571,-2.5946732587312398,-0.055682811335452144,2.5079581617249382,0.8763207160549021,-0.6090851748156966,-0.05753196718556838,-0.666603097082616,-2.5945565370258534,-0.05562143941554,2.507976027223799,0.8763108487046415,-8.911483461494409e-05,0.0008461241489615598,0.0008025867406442835,0.000711799317388525,-0.00022648725777125908,-0.00016898349930599183,0.001223404557905824,0.0,0.0,0.0,0.0,0.0,0.0,0.0,-1.8783745012740383e-05,-0.00017176033373463712,-9.521652875887909e-05,0.00011672170538634674,6.137191991214402e-05,1.7865498860736295e-05,-9.867350260650554e-06,8.911483461494409e-05,-0.0008461241489615598,-0.0008025867406442835,-0.000711799317388525,0.00022648725777125908,0.00016898349930599183,-0.001223404557905824,-0.08103066682815552,18.277124404907227,-1.0410492420196533,-18.198274612426758,-0.8022971749305725,-2.2424349784851074,0.22098104655742645,0
32,0.15498685836791992,0.08103066682815552,-18.277124404907227,1.0688202381134033,18.222078323364258,0.8087058663368225,2.2424349784851074,-0.17337362468242645,0.0,0.0,0.0,0.0,0.0,0.0,0.0,0.0871015768471006,0.3885937999468388,0.23911107941691515,0.591808302622033,0.3743159846283242,0.05990752744267823,-0.19477848389579058,-0.6090663910706838,-0.057360206851833746,-0.6665098293956956,-2.594674929167095,-0.05568707155136992,2.5079581617249382,0.8763154263413614,-0.6090851748156966,-0.05753196718556838,-0.666603097082616,-2.5945565370258534,-0.05562143941554,2.507976027223799,0.8763108487046415,0.0009934675464868365,-2.0475967783160393e-05,-1.7213938191965376e-05,-0.00041807310939767135,-0.00020259931386220657,-0.00019041300393189982,-0.0005399554677029576,0.0,0.0,0.0,0.0,0.0,0.0,0.0,-1.8783745012740383e-05,-0.00017176033373463712,-9.326768692041743e-05,0.00011839214124176323,6.563213582991972e-05,1.7865498860736295e-05,-4.577636719904632e-06,-0.0009934675464868365,2.0475967783160393e-05,1.7213938191965376e-05,0.00041807310939767135,0.00020259931386220657,0.00019041300393189982,0.0005399554677029576,-0.08103066682815552,18.277124404907227,-1.0688202381134033,-18.222078323364258,-0.8087058663368225,-2.2424349784851074,0.17337362468242645,0
33,0.1599900722503662,0.08103066682815552,-18.277124404907227,1.0688202381134033,18.222078323364258,0.8087058663368225,2.2424349784851074,-0.17337362468242645,0.0,0.0,0.0,0.0,0.0,0.0,0.0,0.0871015768471006,0.3885937999468388,0.23911107941691515,0.591808302622033,0.3743159846283242,0.05990752744267823,-0.19477848389579058,-0.6090663910706838,-0.057360206851833746,-0.6665098293956956,-2.594674929167095,-0.05568707155136992,2.5079581617249382,0.8763154263413614,-0.6090851748156966,-0.05753196718556838,-0.666603097082616,-2.5945565370258534,-0.05562143941554,2.507976027223799,0.8763108487046415,0.0009934675464868365,-2.0475967783160393e-05,-1.7213938191965376e-05,-0.00041807310939767135,-0.00020259931386220657,-0.00019041300393189982,-0.0005399554677029576,0.0,0.0,0.0,0.0,0.0,0.0,0.0,-1.8783745012740383e-05,-0.00017176033373463712,-9.326768692041743e-05,0.00011839214124176323,6.563213582991972e-05,1.7865498860736295e-05,-4.577636719904632e-06,-0.0009934675464868365,2.0475967783160393e-05,1.7213938191965376e-05,0.00041807310939767135,0.00020259931386220657,0.00019041300393189982,0.0005399554677029576,-0.08103066682815552,18.277124404907227,-1.0688202381134033,-18.222078323364258,-0.8087058663368225,-2.2424349784851074,0.17337362468242645,0
34,0.16506171226501465,0.10880166292190552,-18.304895401000977,1.0926239490509033,18.269685745239258,0.7903953194618225,2.2360262870788574,-0.15231649577617645,0.0,0.0,0.0,0.0,0.0,0.0,0.0,0.08721145642819857,0.38228723007229787,0.23778527050480988,0.5948075806590827,0.3751064518043114,0.060016457037076476,-0.19383889529183876,-0.609068339912515,-0.057358258010002605,-0.6665114733284848,-2.5946782700388056,-0.05568503757501661,2.507958873801761,0.8763130866603718,-0.6090851748156966,-0.05753196718556838,-0.666603097082616,-2.5945565370258534,-0.05562143941554,2.507976027223799,0.8763108487046415,-0.0002509524551800068,-0.00016168787911736868,-0.00033074910157634486,-0.0010886137379478144,0.0005268231287610079,0.0004301377394295242,-0.0017167863491483395,0.0,0.0,0.0,0.0,0.0,0.0,0.0,-1.6834903181606187e-05,-0.00017370917556577825,-9.162375413118706e-05,0.00012173301295215211,6.359815947661052e-05,1.7153422037896604e-05,-2.237955730288732e-06,0.0002509524551800068,0.00016168787911736868,0.00033074910157634486,0.0010886137379478144,-0.0005268231287610079,-0.0004301377394295242,0.0017167863491483395,-0.10880166292190552,18.304895401000977,-1.0926239490509033,-18.269685745239258,-0.7903953194618225,-2.2360262870788574,0.15231649577617645,0
35,0.16999149322509766,0.10880166292190552,-18.304895401000977,1.0926239490509033,18.269685745239258,0.7903953194618225,2.2360262870788574,-0.15231649577617645,0.0,0.0,0.0,0.0,0.0,0.0,0.0,0.08721145642819857,0.38228723007229787,0.23778527050480988,0.5948075806590827,0.3751064518043114,0.060016457037076476,-0.19383889529183876,-0.609068339912515,-0.057358258010002605,-0.6665114733284848,-2.5946782700388056,-0.05568503757501661,2.507958873801761,0.8763130866603718,-0.6090851748156966,-0.05753196718556838,-0.666603097082616,-2.5945565370258534,-0.05562143941554,2.507976027223799,0.8763108487046415,-0.0002509524551800068,-0.00016168787911736868,-0.00033074910157634486,-0.0010886137379478144,0.0005268231287610079,0.0004301377394295242,-0.0017167863491483395,0.0,0.0,0.0,0.0,0.0,0.0,0.0,-1.6834903181606187e-05,-0.00017370917556577825,-9.162375413118706e-05,0.00012173301295215211,6.359815947661052e-05,1.7153422037896604e-05,-2.237955730288732e-06,0.0002509524551800068,0.00016168787911736868,0.00033074910157634486,0.0010886137379478144,-0.0005268231287610079,-0.0004301377394295242,0.0017167863491483395,-0.10880166292190552,18.304895401000977,-1.0926239490509033,-18.269685745239258,-0.7903953194618225,-2.2360262870788574,0.15231649577617645,0
36,0.1750962734222412,0.08103066682815552,-18.328699111938477,1.0410492420196533,18.198274612426758,0.7903953194618225,2.2488436698913574,-0.18710653483867645,0.0,0.0,0.0,0.0,0.0,0.0,0.0,0.08849813843835824,0.3822156672653532,0.24203644307539599,0.592592136138617,0.37503644095057925,0.060130475442367944,-0.19270953563835042,-0.6090663910706838,-0.05735658757414734,-0.6665078805537149,-2.594673259676047,-0.05568503753895917,2.5079574496481154,0.8763169520587621,-0.6090851748156966,-0.05753196718556838,-0.666603097082616,-2.5945565370258534,-0.05562143941554,2.507976027223799,0.8763108487046415,0.0001762308280821791,0.0005812027044879892,0.0002811090747599829,0.0006605130250538951,0.00036643842378989653,0.0001371042091395588,-0.00013929302351168557,0.0,0.0,0.0,0.0,0.0,0.0,0.0,-1.8783745012740383e-05,-0.00017537961142104208,-9.521652890109866e-05,0.00011672265019369021,6.359812341916876e-05,1.8577575683575986e-05,-6.103354120656768e-06,-0.0001762308280821791,-0.0005812027044879892,-0.0002811090747599829,-0.0006605130250538951,-0.00036643842378989653,-0.0001371042091395588,0.00013929302351168557,-0.08103066682815552,18.328699111938477,-1.0410492420196533,-18.198274612426758,-0.7903953194618225,-2.2488436698913574,0.18710653483867645,0
37,0.17999553680419922,0.08103066682815552,-18.328699111938477,1.0410492420196533,18.198274612426758,0.7903953194618225,2.2488436698913574,-0.18710653483867645,0.0,0.0,0.0,0.0,0.0,0.0,0.0,0.08849813843835824,0.3822156672653532,0.24203644307539599,0.592592136138617,0.37503644095057925,0.060130475442367944,-0.19270953563835042,-0.6090663910706838,-0.05735658757414734,-0.6665078805537149,-2.594673259676047,-0.05568503753895917,2.5079574496481154,0.8763169520587621,-0.6090851748156966,-0.05753196718556838,-0.666603097082616,-2.5945565370258534,-0.05562143941554,2.507976027223799,0.8763108487046415,0.0001762308280821791,0.0005812027044879892,0.0002811090747599829,0.0006605130250538951,0.00036643842378989653,0.0001371042091395588,-0.00013929302351168557,0.0,0.0,0.0,0.0,0.0,0.0,0.0,-1.8783745012740383e-05,-0.00017537961142104208,-9.521652890109866e-05,0.00011672265019369021,6.359812341916876e-05,1.8577575683575986e-05,-6.103354120656768e-06,-0.0001762308280821791,-0.0005812027044879892,-0.0002811090747599829,-0.0006605130250538951,-0.00036643842378989653,-0.0001371042091395588,0.00013929302351168557,-0.08103066682815552,18.328699111938477,-1.0410492420196533,-18.198274612426758,-0.7903953194618225,-2.2488436698913574,0.18710653483867645,0
38,0.18502068519592285,0.08103066682815552,-18.304895401000977,1.0688202381134033,18.198274612426758,0.7968040108680725,2.2424349784851074,-0.16604940593242645,0.0,0.0,0.0,0.0,0.0,0.0,0.0,0.08684193428547118,0.3829452955151215,0.2414681916319424,0.5896008821157244,0.37522163820228455,0.06116837310009276,-0.1930590478686619,-0.6090663910706838,-0.057358258010002605,-0.6665090863408099,-2.594675325025597,-0.055685745234690595,2.5079581617249382,0.8763146125392771,-0.6090851748156966,-0.05753196718556838,-0.666603097082616,-2.5945565370258534,-0.05562143941554,2.507976027223799,0.8763108487046415,-0.00011100534751919273,0.0005180001379029136,-0.0005503889637816598,0.0005895593387147983,2.0046434665635724e-05,0.00023684572493557084,-0.0009217626588247558,0.0,0.0,0.0,0.0,0.0,0.0,0.0,-1.8783745012740383e-05,-0.00017370917556577825,-9.401074180614977e-05,0.00011878799974374132,6.430581915059519e-05,1.7865498860736295e-05,-3.763834635628349e-06,0.00011100534751919273,-0.0005180001379029136,0.0005503889637816598,-0.0005895593387147983,-2.0046434665635724e-05,-0.00023684572493557084,0.0009217626588247558,-0.08103066682815552,18.304895401000977,-1.0688202381134033,-18.198274612426758,-0.7968040108680725,-2.2424349784851074,0.16604940593242645,0
39,0.18999528884887695,0.08103066682815552,-18.304895401000977,1.0688202381134033,18.198274612426758,0.7968040108680725,2.2424349784851074,-0.16604940593242645,0.0,0.0,0.0,0.0,0.0,0.0,0.0,0.08684193428547118,0.3829452955151215,0.2414681916319424,0.5896008821157244,0.37522163820228455,0.06116837310009276,-0.1930590478686619,-0.6090663910706838,-0.057358258010002605,-0.6665090863408099,-2.594675325025597,-0.055685745234690595,2.5079581617249382,0.8763146125392771,-0.6090851748156966,-0.05753196718556838,-0.666603097082616,-2.5945565370258534,-0.05562143941554,2.507976027223799,0.8763108487046415,-0.00011100534751919273,0.0005180001379029136,-0.0005503889637816598,0.0005895593387147983,2.0046434665635724e-05,0.00023684572493557084,-0.0009217626588247558,0.0,0.0,0.0,0.0,0.0,0.0,0.0,-1.8783745012740383e-05,-0.00017370917556577825,-9.401074180614977e-05,0.00011878799974374132,6.430581915059519e-05,1.7865498860736295e-05,-3.763834635628349e-06,0.00011100534751919273,-0.0005180001379029136,0.0005503889637816598,-0.0005895593387147983,-2.0046434665635724e-05,-0.00023684572493557084,0.0009217626588247558,-0.08103066682815552,18.304895401000977,-1.0688202381134033,-18.198274612426758,-0.7968040108680725,-2.2424349784851074,0.16604940593242645,0
40,0.1949937343597412,0.03342324495315552,-18.253320693969727,0.9934418201446533,18.269685745239258,0.7968040108680725,2.2360262870788574,-0.16604940593242645,0.0,0.0,0.0,0.0,0.0,0.0,0.0,0.07657435233537832,0.3739550697660014,0.2293904931269533,0.592954670622166,0.3752767337350794,0.06280232043567693,-0.1928630183679794,-0.6090630501989732,-0.05736187728768901,-0.6665045396779594,-2.5946782700504696,-0.0556857496698447,2.507958873801761,0.876314612539278,-0.6090851748156966,-0.05753196718556838,-0.666603097082616,-2.5945565370258534,-0.05562143941554,2.507976027223799,0.8763108487046415,0.00038406912174332556,-0.000997591169602207,0.0002800314111233949,-0.0014149598323614017,0.00011361470596140618,0.0003766501612354507,-0.001004558141012844,0.0,0.0,0.0,0.0,0.0,0.0,0.0,-2.212461672335131e-05,-0.00017008989787937329,-9.855740465658513e-05,0.0001217330246161552,6.431025430470028e-05,1.7153422037896604e-05,-3.7638346365165276e-06,-0.00038406912174332556,0.000997591169602207,-0.0002800314111233949,0.0014149598323614017,-0.00011361470596140618,-0.0003766501612354507,0.001004558141012844,-0.03342324495315552,18.253320693969727,-0.9934418201446533,-18.269685745239258,-0.7968040108680725,-2.2360262870788574,0.16604940593242645,0
41,0.1999959945678711,0.03342324495315552,-18.253320693969727,0.9934418201446533,18.269685745239258,0.7968040108680725,2.2360262870788574,-0.16604940593242645,0.0,0.0,0.0,0.0,0.0,0.0,0.0,0.07657435233537832,0.3739550697660014,0.2293904931269533,0.592954670622166,0.3752767337350794,0.06280232043567693,-0.1928630183679794,-0.6090630501989732,-0.05736187728768901,-0.6665045396779594,-2.5946782700504696,-0.0556857496698447,2.507958873801761,0.876314612539278,-0.6090851748156966,-0.05753196718556838,-0.666603097082616,-2.5945565370258534,-0.05562143941554,2.507976027223799,0.8763108487046415,0.00038406912174332556,-0.000997591169602207,0.0002800314111233949,-0.0014149598323614017,0.00011361470596140618,0.0003766501612354507,-0.001004558141012844,0.0,0.0,0.0,0.0,0.0,0.0,0.0,-2.212461672335131e-05,-0.00017008989787937329,-9.855740465658513e-05,0.0001217330246161552,6.431025430470028e-05,1.7153422037896604e-05,-3.7638346365165276e-06,-0.00038406912174332556,0.000997591169602207,-0.0002800314111233949,0.0014149598323614017,-0.00011361470596140618,-0.0003766501612354507,0.001004558141012844,-0.03342324495315552,18.253320693969727,-0.9934418201446533,-18.269685745239258,-0.7968040108680725,-2.2360262870788574,0.16604940593242645,0
42,0.20499348640441895,0.05722695589065552,-18.277124404907227,1.0172455310821533,18.222078323364258,0.7968040108680725,2.2488436698913574,-0.17978231608867645,0.0,0.0,0.0,0.0,0.0,0.0,0.0,0.08012665003191884,0.38786487227308136,0.23038207269774774,0.5819480527346924,0.3746633643389698,0.06006544784926818,-0.1925327883309255,-0.6090647206348285,-0.057360206851833746,-0.6665062101180093,-2.594674929167095,-0.05568574528877845,2.5079574496481154,0.8763161384181842,-0.6090851748156966,-0.05753196718556838,-0.666603097082616,-2.5945565370258534,-0.05562143941554,2.507976027223799,0.8763108487046415,8.961834319476161e-05,0.00044275952448343935,-9.7282719363718e-05,-0.0007258223701052684,0.0001943105200271326,0.005184705275323422,-0.0006084682935310702,0.0,0.0,0.0,0.0,0.0,0.0,0.0,-2.0454180868045846e-05,-0.00017176033373463712,-9.688696460674606e-05,0.00011839214124176323,6.430587323844744e-05,1.8577575683575986e-05,-5.289713542744323e-06,-8.961834319476161e-05,-0.00044275952448343935,9.7282719363718e-05,0.0007258223701052684,-0.0001943105200271326,-0.005184705275323422,0.0006084682935310702,-0.05722695589065552,18.277124404907227,-1.0172455310821533,-18.222078323364258,-0.7968040108680725,-2.2488436698913574,0.17978231608867645,0
43,0.21000385284423828,0.05722695589065552,-18.277124404907227,1.0172455310821533,18.222078323364258,0.7968040108680725,2.2488436698913574,-0.17978231608867645,0.0,0.0,0.0,0.0,0.0,0.0,0.0,0.08012665003191884,0.38786487227308136,0.23038207269774774,0.5819480527346924,0.3746633643389698,0.06006544784926818,-0.1925327883309255,-0.6090647206348285,-0.057360206851833746,-0.6665062101180093,-2.594674929167095,-0.05568574528877845,2.5079574496481154,0.8763161384181842,-0.6090851748156966,-0.05753196718556838,-0.666603097082616,-2.5945565370258534,-0.05562143941554,2.507976027223799,0.8763108487046415,8.961834319476161e-05,0.00044275952448343935,-9.7282719363718e-05,-0.0007258223701052684,0.0001943105200271326,0.005184705275323422,-0.0006084682935310702,0.0,0.0,0.0,0.0,0.0,0.0,0.0,-2.0454180868045846e-05,-0.00017176033373463712,-9.688696460674606e-05,0.00011839214124176323,6.430587323844744e-05,1.8577575683575986e-05,-5.289713542744323e-06,-8.961834319476161e-05,-0.00044275952448343935,9.7282719363718e-05,0.0007258223701052684,-0.0001943105200271326,-0.005184705275323422,0.0006084682935310702,-0.05722695589065552,18.277124404907227,-1.0172455310821533,-18.222078323364258,-0.7968040108680725,-2.2488436698913574,0.17978231608867645,0
44,0.21498489379882812,0.10880166292190552,-18.229516983032227,1.0410492420196533,18.222078323364258,0.8087058663368225,2.2424349784851074,-0.20724813640117645,0.0,0.0,0.0,0.0,0.0,0.0,0.0,0.07737404083379915,0.380874983472079,0.22693654343095565,0.5907256200352202,0.374828571698027,0.061893963865280135,-0.19281505335694396,-0.609068339912515,-0.057363547723544274,-0.6665071649710784,-2.594674929167095,-0.05568706771713913,2.5079581617249382,0.8763191901759968,-0.6090851748156966,-0.05753196718556838,-0.666603097082616,-2.5945565370258534,-0.05562143941554,2.507976027223799,0.8763108487046415,-0.001098806376995029,-0.0016387207495266122,2.5184061976366084e-05,-0.00016241530183318942,-0.00035209940515230676,0.00037592403353228125,7.888817874687885e-05,0.0,0.0,0.0,0.0,0.0,0.0,0.0,-1.6834903181606187e-05,-0.00016841946202410946,-9.593211153757775e-05,0.00011839214124176323,6.562830159913269e-05,1.7865498860736295e-05,-8.341471355310937e-06,0.001098806376995029,0.0016387207495266122,-2.5184061976366084e-05,0.00016241530183318942,0.00035209940515230676,-0.00037592403353228125,-7.888817874687885e-05,-0.10880166292190552,18.229516983032227,-1.0410492420196533,-18.222078323364258,-0.8087058663368225,-2.2424349784851074,0.20724813640117645,0
45,0.21998953819274902,0.10880166292190552,-18.229516983032227,1.0410492420196533,18.222078323364258,0.8087058663368225,2.2424349784851074,-0.20724813640117645,0.0,0.0,0.0,0.0,0.0,0.0,0.0,0.07737404083379915,0.380874983472079,0.22693654343095565,0.5907256200352202,0.374828571698027,0.061893963865280135,-0.19281505335694396,-0.609068339912515,-0.057363547723544274,-0.6665071649710784,-2.594674929167095,-0.05568706771713913,2.5079581617249382,0.8763191901759968,-0.6090851748156966,-0.05753196718556838,-0.666603097082616,-2.5945565370258534,-0.05562143941554,2.507976027223799,0.8763108487046415,-0.001098806376995029,-0.0016387207495266122,2.5184061976366084e-05,-0.00016241530183318942,-0.00035209940515230676,0.00037592403353228125,7.888817874687885e-05,0.0,0.0,0.0,0.0,0.0,0.0,0.0,-1.6834903181606187e-05,-0.00016841946202410946,-9.593211153757775e-05,0.00011839214124176323,6.562830159913269e-05,1.7865498860736295e-05,-8.341471355310937e-06,0.001098806376995029,0.0016387207495266122,-2.5184061976366084e-05,0.00016241530183318942,0.00035209940515230676,-0.00037592403353228125,-7.888817874687885e-05,-0.10880166292190552,18.229516983032227,-1.0410492420196533,-18.222078323364258,-0.8087058663368225,-2.2424349784851074,0.20724813640117645,0
46,0.22498655319213867,0.10880166292190552,-18.229516983032227,1.0410492420196533,18.222078323364258,0.8087058663368225,2.2424349784851074,-0.20724813640117645,0.0,0.0,0.0,0.0,0.0,0.0,0.0,0.07737404083379915,0.380874983472079,0.22693654343095565,0.5907256200352202,0.374828571698027,0.061893963865280135,-0.19281505335694396,-0.609068339912515,-0.057363547723544274,-0.6665071649710784,-2.594674929167095,-0.05568706771713913,2.5079581617249382,0.8763191901759968,-0.6090851748156966,-0.05753196718556838,-0.666603097082616,-2.5945565370258534,-0.05562143941554,2.507976027223799,0.8763108487046415,-0.001098806376995029,-0.0016387207495266122,2.5184061976366084e-05,-0.00016241530183318942,-0.00035209940515230676,0.00037592403353228125,7.888817874687885e-05,0.0,0.0,0.0,0.0,0.0,0.0,0.0,-1.6834903181606187e-05,-0.00016841946202410946,-9.593211153757775e-05,0.00011839214124176323,6.562830159913269e-05,1.7865498860736295e-05,-8.341471355310937e-06,0.001098806376995029,0.0016387207495266122,-2.5184061976366084e-05,0.00016241530183318942,0.00035209940515230676,-0.00037592403353228125,-7.888817874687885e-05,-0.10880166292190552,18.229516983032227,-1.0410492420196533,-18.222078323364258,-0.8087058663368225,-2.2424349784851074,0.20724813640117645,0
47,0.23007917404174805,0.10880166292190552,-18.229516983032227,1.0410492420196533,18.222078323364258,0.8087058663368225,2.2424349784851074,-0.20724813640117645,0.0,0.0,0.0,0.0,0.0,0.0,0.0,0.07737404083379915,0.380874983472079,0.22693654343095565,0.5907256200352202,0.374828571698027,0.061893963865280135,-0.19281505335694396,-0.609068339912515,-0.057363547723544274,-0.6665071649710784,-2.594674929167095,-0.05568706771713913,2.5079581617249382,0.8763191901759968,-0.6090851748156966,-0.05753196718556838,-0.666603097082616,-2.5945565370258534,-0.05562143941554,2.507976027223799,0.8763108487046415,-0.001098806376995029,-0.0016387207495266122,2.5184061976366084e-05,-0.00016241530183318942,-0.00035209940515230676,0.00037592403353228125,7.888817874687885e-05,0.0,0.0,0.0,0.0,0.0,0.0,0.0,-1.6834903181606187e-05,-0.00016841946202410946,-9.593211153757775e-05,0.00011839214124176323,6.562830159913269e-05,1.7865498860736295e-05,-8.341471355310937e-06,0.001098806376995029,0.0016387207495266122,-2.5184061976366084e-05,0.00016241530183318942,0.00035209940515230676,-0.00037592403353228125,-7.888817874687885e-05,-0.10880166292190552,18.229516983032227,-1.0410492420196533,-18.222078323364258,-0.8087058663368225,-2.2424349784851074,0.20724813640117645,0
48,0.23499178886413574,0.10880166292190552,-18.352502822875977,1.0688202381134033,18.198274612426758,0.7968040108680725,2.2424349784851074,-0.16604940593242645,0.0,0.0,0.0,0.0,0.0,0.0,0.0,0.07746696206697835,0.3790549181415118,0.22857961916663858,0.5957774379693376,0.3746922542416819,0.06311324757360431,-0.19525747198732957,-0.609068339912515,-0.05735491713829208,-0.6665098293553174,-2.5946732587312398,-0.055685618237106355,2.5079581617249382,0.876314612539278,-0.6090851748156966,-0.05753196718556838,-0.666603097082616,-2.5945565370258534,-0.05562143941554,2.507976027223799,0.8763108487046415,-3.318454242926716e-05,0.0012823382698856317,-0.0006258869437009843,0.0005530860519887339,-5.185503382390901e-05,0.0001329632929226691,-0.0015837796030231915,0.0,0.0,0.0,0.0,0.0,0.0,0.0,-1.6834903181606187e-05,-0.0001770500472763059,-9.32677272985627e-05,0.00011672170538634674,6.417882156635468e-05,1.7865498860736295e-05,-3.7638346365165276e-06,3.318454242926716e-05,-0.0012823382698856317,0.0006258869437009843,-0.0005530860519887339,5.185503382390901e-05,-0.0001329632929226691,0.0015837796030231915,-0.10880166292190552,18.352502822875977,-1.0688202381134033,-18.198274612426758,-0.7968040108680725,-2.2424349784851074,0.16604940593242645,0
49,0.2400190830230713,0.10880166292190552,-18.352502822875977,1.0688202381134033,18.198274612426758,0.7968040108680725,2.2424349784851074,-0.16604940593242645,0.0,0.0,0.0,0.0,0.0,0.0,0.0,0.07746696206697835,0.3790549181415118,0.22857961916663858,0.5957774379693376,0.3746922542416819,0.06311324757360431,-0.19525747198732957,-0.609068339912515,-0.05735491713829208,-0.6665098293553174,-2.5946732587312398,-0.055685618237106355,2.5079581617249382,0.876314612539278,-0.6090851748156966,-0.05753196718556838,-0.666603097082616,-2.5945565370258534,-0.05562143941554,2.507976027223799,0.8763108487046415,-3.318454242926716e-05,0.0012823382698856317,-0.0006258869437009843,0.0005530860519887339,-5.185503382390901e-05,0.0001329632929226691,-0.0015837796030231915,0.0,0.0,0.0,0.0,0.0,0.0,0.0,-1.6834903181606187e-05,-0.0001770500472763059,-9.32677272985627e-05,0.00011672170538634674,6.417882156635468e-05,1.7865498860736295e-05,-3.7638346365165276e-06,3.318454242926716e-05,-0.0012823382698856317,0.0006258869437009843,-0.0005530860519887339,5.185503382390901e-05,-0.0001329632929226691,0.0015837796030231915,-0.10880166292190552,18.352502822875977,-1.0688202381134033,-18.198274612426758,-0.7968040108680725,-2.2424349784851074,0.16604940593242645,0
50,0.2449939250946045,0.13260537385940552,-18.304895401000977,1.0688202381134033,18.222078323364258,0.7903953194618225,2.2488436698913574,-0.17978231608867645,0.0,0.0,0.0,0.0,0.0,0.0,0.0,0.08521110336976255,0.3753978974875632,0.2331873055081893,0.5974200486523754,0.37432955317651057,0.06326424693497043,-0.1960795344153037,-0.6090700103483702,-0.057358258010002605,-0.6665098293956954,-2.5946751587553565,-0.05568503272442567,2.507957449809621,0.8763161384181842,-0.6090851748156966,-0.05753196718556838,-0.666603097082616,-2.5945565370258534,-0.05562143941554,2.507976027223799,0.8763108487046415,-0.0001944208897051425,-0.00021922529184693678,7.078510957423926e-05,0.00019662818551006718,0.0002449423934250785,-0.00016371969104243773,-0.0010090625885823394,0.0,0.0,0.0,0.0,0.0,0.0,0.0,-1.5164467326411746e-05,-0.00017370917556577825,-9.326768692063947e-05,0.0001186217295030545,6.359330888566772e-05,1.8577414178100327e-05,-5.289713542744323e-06,0.0001944208897051425,0.00021922529184693678,-7.078510957423926e-05,-0.00019662818551006718,-0.0002449423934250785,0.00016371969104243773,0.0010090625885823394,-0.13260537385940552,18.304895401000977,-1.0688202381134033,-18.222078323364258,-0.7903953194618225,-2.2488436698913574,0.17978231608867645,0
51,0.24999022483825684,0.13260537385940552,-18.304895401000977,1.0688202381134033,18.222078323364258,0.7903953194618225,2.2488436698913574,-0.17978231608867645,0.0,0.0,0.0,0.0,0.0,0.0,0.0,0.08521110336976255,0.3753978974875632,0.2331873055081893,0.5974200486523754,0.37432955317651057,0.06326424693497043,-0.1960795344153037,-0.6090700103483702,-0.057358258010002605,-0.6665098293956954,-2.5946751587553565,-0.05568503272442567,2.507957449809621,0.8763161384181842,-0.6090851748156966,-0.05753196718556838,-0.666603097082616,-2.5945565370258534,-0.05562143941554,2.507976027223799,0.8763108487046415,-0.0001944208897051425,-0.00021922529184693678,7.078510957423926e-05,0.00019662818551006718,0.0002449423934250785,-0.00016371969104243773,-0.0010090625885823394,0.0,0.0,0.0,0.0,0.0,0.0,0.0,-1.5164467326411746e-05,-0.00017370917556577825,-9.326768692063947e-05,0.0001186217295030545,6.359330888566772e-05,1.8577414178100327e-05,-5.289713542744323e-06,0.0001944208897051425,0.00021922529184693678,-7.078510957423926e-05,-0.00019662818551006718,-0.0002449423934250785,0.00016371969104243773,0.0010090625885823394,-0.13260537385940552,18.304895401000977,-1.0688202381134033,-18.222078323364258,-0.7903953194618225,-2.2488436698913574,0.17978231608867645,0
52,0.2550032138824463,0.08103066682815552,-18.328699111938477,1.0410492420196533,18.222078323364258,0.8022971749305725,2.2360262870788574,-0.20083944499492645,0.0,0.0,0.0,0.0,0.0,0.0,0.0,0.09176680306349497,0.37869064642772365,0.23673921218608363,0.5911870576023245,0.3740889419058793,0.061874307888310005,-0.19633365184911916,-0.6090663910706838,-0.05735658757414734,-0.6665078010810048,-2.594674929168391,-0.05568634617499278,2.507958873801762,0.8763184780991738,-0.6090851748156966,-0.05753196718556838,-0.666603097082616,-2.5945565370258534,-0.05562143941554,2.507976027223799,0.8763108487046415,0.0011269304227337117,0.0010775245632743237,0.000927296518359307,-0.0003029271303918369,-0.000225433459616665,0.0003605510565105299,-0.0004340874491133539,0.0,0.0,0.0,0.0,0.0,0.0,0.0,-1.8783745012740383e-05,-0.00017537961142104208,-9.529600161117813e-05,0.00011839214253761554,6.49067594527819e-05,1.7153422037008426e-05,-7.629394532360223e-06,-0.0011269304227337117,-0.0010775245632743237,-0.000927296518359307,0.0003029271303918369,0.000225433459616665,-0.0003605510565105299,0.0004340874491133539,-0.08103066682815552,18.328699111938477,-1.0410492420196533,-18.222078323364258,-0.8022971749305725,-2.2360262870788574,0.20083944499492645,0
53,0.26001620292663574,0.08103066682815552,-18.328699111938477,1.0410492420196533,18.222078323364258,0.8022971749305725,2.2360262870788574,-0.20083944499492645,0.0,0.0,0.0,0.0,0.0,0.0,0.0,0.09176680306349497,0.37869064642772365,0.23673921218608363,0.5911870576023245,0.3740889419058793,0.061874307888310005,-0.19633365184911916,-0.6090663910706838,-0.05735658757414734,-0.6665078010810048,-2.594674929168391,-0.05568634617499278,2.507958873801762,0.8763184780991738,-0.6090851748156966,-0.05753196718556838,-0.666603097082616,-2.5945565370258534,-0.05562143941554,2.507976027223799,0.8763108487046415,0.0011269304227337117,0.0010775245632743237,0.000927296518359307,-0.0003029271303918369,-0.000225433459616665,0.0003605510565105299,-0.0004340874491133539,0.0,0.0,0.0,0.0,0.0,0.0,0.0,-1.8783745012740383e-05,-0.00017537961142104208,-9.529600161117813e-05,0.00011839214253761554,6.49067594527819e-05,1.7153422037008426e-05,-7.629394532360223e-06,-0.0011269304227337117,-0.0010775245632743237,-0.000927296518359307,0.0003029271303918369,0.000225433459616665,-0.0003605510565105299,0.0004340874491133539,-0.08103066682815552,18.328699111938477,-1.0410492420196533,-18.222078323364258,-0.8022971749305725,-2.2360262870788574,0.20083944499492645,0
54,0.26498866081237793,0.05722695589065552,-18.229516983032227,1.0926239490509033,18.198274612426758,0.8087058663368225,2.2424349784851074,-0.23471395671367645,0.0,0.0,0.0,0.0,0.0,0.0,0.0,0.09023936298694758,0.37840309812088996,0.23330469600547865,0.5934869662157586,0.37447884356082356,0.062037089596259865,-0.19684941185421206,-0.6090647206348285,-0.057363547723544274,-0.6665114968876631,-2.59467333526066,-0.055687072098176985,2.5079581617249382,0.8763222417723038,-0.6090851748156966,-0.05753196718556838,-0.666603097082616,-2.5945565370258534,-0.05562143941554,2.507976027223799,0.8763108487046415,0.0006184723130549018,-0.0007432639019727652,-0.0011488274223462774,0.0005616644832944102,-0.0002710931217187275,3.757250983164967e-05,0.0017358554960522265,0.0,0.0,0.0,0.0,0.0,0.0,0.0,-2.0454180868045846e-05,-0.00016841946202410946,-9.160019495291216e-05,0.0001167982348064811,6.563268263698463e-05,1.7865498860736295e-05,-1.1393067662290868e-05,-0.0006184723130549018,0.0007432639019727652,0.0011488274223462774,-0.0005616644832944102,0.0002710931217187275,-3.757250983164967e-05,-0.0017358554960522265,-0.05722695589065552,18.229516983032227,-1.0926239490509033,-18.198274612426758,-0.8087058663368225,-2.2424349784851074,0.23471395671367645,0
55,0.26999616622924805,0.05722695589065552,-18.229516983032227,1.0926239490509033,18.198274612426758,0.8087058663368225,2.2424349784851074,-0.23471395671367645,0.0,0.0,0.0,0.0,0.0,0.0,0.0,0.09023936298694758,0.37840309812088996,0.23330469600547865,0.5934869662157586,0.37447884356082356,0.062037089596259865,-0.19684941185421206,-0.6090647206348285,-0.057363547723544274,-0.6665114968876631,-2.59467333526066,-0.055687072098176985,2.5079581617249382,0.8763222417723038,-0.6090851748156966,-0.05753196718556838,-0.666603097082616,-2.5945565370258534,-0.05562143941554,2.507976027223799,0.8763108487046415,0.0006184723130549018,-0.0007432639019727652,-0.0011488274223462774,0.0005616644832944102,-0.0002710931217187275,3.757250983164967e-05,0.0017358554960522265,0.0,0.0,0.0,0.0,0.0,0.0,0.0,-2.0454180868045846e-05,-0.00016841946202410946,-9.160019495291216e-05,0.0001167982348064811,6.563268263698463e-05,1.7865498860736295e-05,-1.1393067662290868e-05,-0.0006184723130549018,0.0007432639019727652,0.0011488274223462774,-0.0005616644832944102,0.0002710931217187275,-3.757250983164967e-05,-0.0017358554960522265,-0.05722695589065552,18.229516983032227,-1.0926239490509033,-18.198274612426758,-0.8087058663368225,-2.2424349784851074,0.23471395671367645,0
56,0.2749965190887451,0.05722695589065552,-18.253320693969727,0.9934418201446533,18.222078323364258,0.7968040108680725,2.2360262870788574,-0.19351522624492645,0.0,0.0,0.0,0.0,0.0,0.0,0.0,0.08996950387376684,0.38233888936262006,0.23534237194744578,0.5969931143409919,0.3743758887449695,0.062172695632532846,-0.19707015146206272,-0.6090647206348285,-0.05736187728768901,-0.6665045308517864,-2.594674929168391,-0.055685749669869736,2.507958873801761,0.8763176642970879,-0.6090851748156966,-0.05753196718556838,-0.666603097082616,-2.5945565370258534,-0.05562143941554,2.507976027223799,0.8763108487046415,0.00046271711514185164,0.00041243544934311274,0.0007771855344750826,0.00026371856491127875,-0.00011821676812944157,0.00011378991380551054,0.0007420258902976622,0.0,0.0,0.0,0.0,0.0,0.0,0.0,-2.0454180868045846e-05,-0.00017008989787937329,-9.856623082959981e-05,0.00011839214253761554,6.43102543297358e-05,1.7153422037896604e-05,-6.815592446418606e-06,-0.00046271711514185164,-0.00041243544934311274,-0.0007771855344750826,-0.00026371856491127875,0.00011821676812944157,-0.00011378991380551054,-0.0007420258902976622,-0.05722695589065552,18.253320693969727,-0.9934418201446533,-18.222078323364258,-0.7968040108680725,-2.2360262870788574,0.19351522624492645,0
57,0.2799866199493408,0.05722695589065552,-18.253320693969727,0.9934418201446533,18.222078323364258,0.7968040108680725,2.2360262870788574,-0.19351522624492645,0.0,0.0,0.0,0.0,0.0,0.0,0.0,0.08996950387376684,0.38233888936262006,0.23534237194744578,0.5969931143409919,0.3743758887449695,0.062172695632532846,-0.19707015146206272,-0.6090647206348285,-0.05736187728768901,-0.6665045308517864,-2.594674929168391,-0.055685749669869736,2.507958873801761,0.8763176642970879,-0.6090851748156966,-0.05753196718556838,-0.666603097082616,-2.5945565370258534,-0.05562143941554,2.507976027223799,0.8763108487046415,0.00046271711514185164,0.00041243544934311274,0.0007771855344750826,0.00026371856491127875,-0.00011821676812944157,0.00011378991380551054,0.0007420258902976622,0.0,0.0,0.0,0.0,0.0,0.0,0.0,-2.0454180868045846e-05,-0.00017008989787937329,-9.856623082959981e-05,0.00011839214253761554,6.43102543297358e-05,1.7153422037896604e-05,-6.815592446418606e-06,-0.00046271711514185164,-0.00041243544934311274,-0.0007771855344750826,-0.00026371856491127875,0.00011821676812944157,-0.00011378991380551054,-0.0007420258902976622,-0.05722695589065552,18.253320693969727,-0.9934418201446533,-18.222078323364258,-0.7968040108680725,-2.2360262870788574,0.19351522624492645,0
58,0.2849879264831543,0.08103066682815552,-18.328699111938477,1.0688202381134033,18.198274612426758,0.8022971749305725,2.2360262870788574,-0.18710653483867645,0.0,0.0,0.0,0.0,0.0,0.0,0.0,0.08893952788645686,0.38406820939103753,0.23345859691210064,0.5979741367368797,0.3736286970822864,0.0611365680554198,-0.19574623976693484,-0.6090663910706838,-0.05735658757414734,-0.6665091141399085,-2.5946732587312398,-0.055686360021432235,2.507958873801761,0.8763169522202676,-0.6090851748156966,-0.05753196718556838,-0.666603097082616,-2.5945565370258534,-0.05562143941554,2.507976027223799,0.8763108487046415,-0.0007902072988371462,0.0012528354453732638,-0.000811192563590699,0.0003614702054197414,-0.00029578233970959343,0.0002585799968504089,-0.0006249643267232603,0.0,0.0,0.0,0.0,0.0,0.0,0.0,-1.8783745012740383e-05,-0.00017537961142104208,-9.39829427074601e-05,0.00011672170538634674,6.492060589223525e-05,1.7153422037896604e-05,-6.1035156261324275e-06,0.0007902072988371462,-0.0012528354453732638,0.000811192563590699,-0.0003614702054197414,0.00029578233970959343,-0.0002585799968504089,0.0006249643267232603,-0.08103066682815552,18.328699111938477,-1.0688202381134033,-18.198274612426758,-0.8022971749305725,-2.2360262870788574,0.18710653483867645,0
59,0.2899904251098633,0.08103066682815552,-18.328699111938477,1.0688202381134033,18.198274612426758,0.8022971749305725,2.2360262870788574,-0.18710653483867645,0.0,0.0,0.0,0.0,0.0,0.0,0.0,0.08893952788645686,0.38406820939103753,0.23345859691210064,0.5979741367368797,0.3736286970822864,0.0611365680554198,-0.19574623976693484,-0.6090663910706838,-0.05735658757414734,-0.6665091141399085,-2.5946732587312398,-0.055686360021432235,2.507958873801761,0.8763169522202676,-0.6090851748156966,-0.05753196718556838,-0.666603097082616,-2.5945565370258534,-0.05562143941554,2.507976027223799,0.8763108487046415,-0.0007902072988371462,0.0012528354453732638,-0.000811192563590699,0.0003614702054197414,-0.00029578233970959343,0.0002585799968504089,-0.0006249643267232603,0.0,0.0,0.0,0.0,0.0,0.0,0.0,-1.8783745012740383e-05,-0.00017537961142104208,-9.39829427074601e-05,0.00011672170538634674,6.492060589223525e-05,1.7153422037896604e-05,-6.1035156261324275e-06,0.0007902072988371462,-0.0012528354453732638,0.000811192563590699,-0.0003614702054197414,0.00029578233970959343,-0.0002585799968504089,0.0006249643267232603,-0.08103066682815552,18.328699111938477,-1.0688202381134033,-18.198274612426758,-0.8022971749305725,-2.2360262870788574,0.18710653483867645,0
60,0.29498934745788574,0.08103066682815552,-18.277124404907227,1.0172455310821533,18.198274612426758,0.7968040108680725,2.2552523612976074,-0.15964071452617645,0.0,0.0,0.0,0.0,0.0,0.0,0.0,0.08328591727370437,0.3811933311775444,0.2282269106510747,0.6012442031478232,0.37387379288556305,0.06106080197160834,-0.19511906811237217,-0.6090663910706838,-0.057360206851833746,-0.6665062101138222,-2.5946732587312398,-0.05568539480147538,2.5079567375712926,0.8763135471899285,-0.6090851748156966,-0.05753196718556838,-0.666603097082616,-2.5945565370258534,-0.05562143941554,2.507976027223799,0.8763108487046415,-0.00011056864327814554,-0.0008070477807163267,5.926703128135711e-05,0.000804406648172677,0.00015613101567413815,-0.00024963663579841903,-0.0015328151028771789,0.0,0.0,0.0,0.0,0.0,0.0,0.0,-1.8783745012740383e-05,-0.00017176033373463712,-9.688696879384118e-05,0.00011672170538634674,6.395538593537836e-05,1.9289652506415678e-05,-2.6984852870004516e-06,0.00011056864327814554,0.0008070477807163267,-5.926703128135711e-05,-0.000804406648172677,-0.00015613101567413815,0.00024963663579841903,0.0015328151028771789,-0.08103066682815552,18.277124404907227,-1.0172455310821533,-18.198274612426758,-0.7968040108680725,-2.2552523612976074,0.15964071452617645,0
61,0.2999906539916992,0.08103066682815552,-18.277124404907227,1.0172455310821533,18.198274612426758,0.7968040108680725,2.2552523612976074,-0.15964071452617645,0.0,0.0,0.0,0.0,0.0,0.0,0.0,0.08328591727370437,0.3811933311775444,0.2282269106510747,0.6012442031478232,0.37387379288556305,0.06106080197160834,-0.19511906811237217,-0.6090663910706838,-0.057360206851833746,-0.6665062101138222,-2.5946732587312398,-0.05568539480147538,2.5079567375712926,0.8763135471899285,-0.6090851748156966,-0.05753196718556838,-0.666603097082616,-2.5945565370258534,-0.05562143941554,2.507976027223799,0.8763108487046415,-0.00011056864327814554,-0.0008070477807163267,5.926703128135711e-05,0.000804406648172677,0.00015613101567413815,-0.00024963663579841903,-0.0015328151028771789,0.0,0.0,0.0,0.0,0.0,0.0,0.0,-1.8783745012740383e-05,-0.00017176033373463712,-9.688696879384118e-05,0.00011672170538634674,6.395538593537836e-05,1.9289652506415678e-05,-2.6984852870004516e-06,0.00011056864327814554,0.0008070477807163267,-5.926703128135711e-05,-0.000804406648172677,-0.00015613101567413815,0.00024963663579841903,0.0015328151028771789,-0.08103066682815552,18.277124404907227,-1.0172455310821533,-18.198274612426758,-0.7968040108680725,-2.2552523612976074,0.15964071452617645,0
62,0.30499720573425293,0.10880166292190552,-18.277124404907227,1.0172455310821533,18.245882034301758,0.7903953194618225,2.2424349784851074,-0.15964071452617645,0.0,0.0,0.0,0.0,0.0,0.0,0.0,0.08446307216056147,0.38187077608468567,0.2250428713862072,0.5986342473864271,0.3743247625403494,0.061061110304625146,-0.19545668476789688,-0.609068339912515,-0.057360206851833746,-0.6665062012876914,-2.59467659960295,-0.05568503758703709,2.5079581617249382,0.8763139004564724,-0.6090851748156966,-0.05753196718556838,-0.666603097082616,-2.5945565370258534,-0.05562143941554,2.507976027223799,0.8763108487046415,-0.0005613696857923551,-0.0006607993484761171,0.00024688728781392086,-0.00033778607943676486,0.0003141988462424269,0.00021236231335434932,-0.001659670685905145,0.0,0.0,0.0,0.0,0.0,0.0,0.0,-1.6834903181606187e-05,-0.00017176033373463712,-9.689579492455636e-05,0.00012006257709673562,6.359817149709235e-05,1.7865498860736295e-05,-3.0517518309070013e-06,0.0005613696857923551,0.0006607993484761171,-0.00024688728781392086,0.00033778607943676486,-0.0003141988462424269,-0.00021236231335434932,0.001659670685905145,-0.10880166292190552,18.277124404907227,-1.0172455310821533,-18.245882034301758,-0.7903953194618225,-2.2424349784851074,0.15964071452617645,0
63,0.30998682975769043,0.10880166292190552,-18.277124404907227,1.0172455310821533,18.245882034301758,0.7903953194618225,2.2424349784851074,-0.15964071452617645,0.0,0.0,0.0,0.0,0.0,0.0,0.0,0.08446307216056147,0.38187077608468567,0.2250428713862072,0.5986342473864271,0.3743247625403494,0.061061110304625146,-0.19545668476789688,-0.609068339912515,-0.057360206851833746,-0.6665062012876914,-2.59467659960295,-0.05568503758703709,2.5079581617249382,0.8763139004564724,-0.6090851748156966,-0.05753196718556838,-0.666603097082616,-2.5945565370258534,-0.05562143941554,2.507976027223799,0.8763108487046415,-0.0005613696857923551,-0.0006607993484761171,0.00024688728781392086,-0.00033778607943676486,0.0003141988462424269,0.00021236231335434932,-0.001659670685905145,0.0,0.0,0.0,0.0,0.0,0.0,0.0,-1.6834903181606187e-05,-0.00017176033373463712,-9.689579492455636e-05,0.00012006257709673562,6.359817149709235e-05,1.7865498860736295e-05,-3.0517518309070013e-06,0.0005613696857923551,0.0006607993484761171,-0.00024688728781392086,0.00033778607943676486,-0.0003141988462424269,-0.00021236231335434932,0.001659670685905145,-0.10880166292190552,18.277124404907227,-1.0172455310821533,-18.245882034301758,-0.7903953194618225,-2.2424349784851074,0.15964071452617645,0
64,0.31499576568603516,0.10880166292190552,-18.277124404907227,1.0172455310821533,18.245882034301758,0.7903953194618225,2.2424349784851074,-0.15964071452617645,0.0,0.0,0.0,0.0,0.0,0.0,0.0,0.08446307216056147,0.38187077608468567,0.2250428713862072,0.5986342473864271,0.3743247625403494,0.061061110304625146,-0.19545668476789688,-0.609068339912515,-0.057360206851833746,-0.6665062012876914,-2.59467659960295,-0.05568503758703709,2.5079581617249382,0.8763139004564724,-0.6090851748156966,-0.05753196718556838,-0.666603097082616,-2.5945565370258534,-0.05562143941554,2.507976027223799,0.8763108487046415,-0.0005613696857923551,-0.0006607993484761171,0.00024688728781392086,-0.00033778607943676486,0.0003141988462424269,0.00021236231335434932,-0.001659670685905145,0.0,0.0,0.0,0.0,0.0,0.0,0.0,-1.6834903181606187e-05,-0.00017176033373463712,-9.689579492455636e-05,0.00012006257709673562,6.359817149709235e-05,1.7865498860736295e-05,-3.0517518309070013e-06,0.0005613696857923551,0.0006607993484761171,-0.00024688728781392086,0.00033778607943676486,-0.0003141988462424269,-0.00021236231335434932,0.001659670685905145,-0.10880166292190552,18.277124404907227,-1.0172455310821533,-18.245882034301758,-0.7903953194618225,-2.2424349784851074,0.15964071452617645,0
65,0.3199920654296875,0.05722695589065552,-18.277124404907227,1.0688202381134033,18.222078323364258,0.8022971749305725,2.2424349784851074,-0.17337362468242645,0.0,0.0,0.0,0.0,0.0,0.0,0.0,0.08494320879649359,0.3793493041366497,0.2265889928901384,0.5958516868474291,0.3740897801837092,0.06059423323516243,-0.19541684912329318,-0.6090649590534076,-0.057360206851833746,-0.666509829395679,-2.594674929167095,-0.055686005153037864,2.5079581617249382,0.8763153086037915,-0.6090851748156966,-0.05753196718556838,-0.666603097082616,-2.5945565370258534,-0.05562143941554,2.507976027223799,0.8763108487046415,0.0002922403050552751,-0.0002905790880295079,-0.00013029259550141698,-0.00017135033071786115,-0.0002079800817024087,5.818179259678316e-05,-0.0012644150380743283,0.0,0.0,0.0,0.0,0.0,0.0,0.0,-2.0215762288944283e-05,-0.00017176033373463712,-9.326768693695975e-05,0.00011839214124176323,6.456573749786393e-05,1.7865498860736295e-05,-4.4598991499889e-06,-0.0002922403050552751,0.0002905790880295079,0.00013029259550141698,0.00017135033071786115,0.0002079800817024087,-5.818179259678316e-05,0.0012644150380743283,-0.05722695589065552,18.277124404907227,-1.0688202381134033,-18.222078323364258,-0.8022971749305725,-2.2424349784851074,0.17337362468242645,0
66,0.32500720024108887,0.05722695589065552,-18.277124404907227,1.0688202381134033,18.222078323364258,0.8022971749305725,2.2424349784851074,-0.17337362468242645,0.0,0.0,0.0,0.0,0.0,0.0,0.0,0.08494320879649359,0.3793493041366497,0.2265889928901384,0.5958516868474291,0.3740897801837092,0.06059423323516243,-0.19541684912329318,-0.6090649590534076,-0.057360206851833746,-0.666509829395679,-2.594674929167095,-0.055686005153037864,2.5079581617249382,0.8763153086037915,-0.6090851748156966,-0.05753196718556838,-0.666603097082616,-2.5945565370258534,-0.05562143941554,2.507976027223799,0.8763108487046415,0.0002922403050552751,-0.0002905790880295079,-0.00013029259550141698,-0.00017135033071786115,-0.0002079800817024087,5.818179259678316e-05,-0.0012644150380743283,0.0,0.0,0.0,0.0,0.0,0.0,0.0,-2.0215762288944283e-05,-0.00017176033373463712,-9.326768693695975e-05,0.00011839214124176323,6.456573749786393e-05,1.7865498860736295e-05,-4.4598991499889e-06,-0.0002922403050552751,0.0002905790880295079,0.00013029259550141698,0.00017135033071786115,0.0002079800817024087,-5.818179259678316e-05,0.0012644150380743283,-0.05722695589065552,18.277124404907227,-1.0688202381134033,-18.222078323364258,-0.8022971749305725,-2.2424349784851074,0.17337362468242645,0
67,0.3299872875213623,0.05722695589065552,-18.277124404907227,1.0688202381134033,18.222078323364258,0.8022971749305725,2.2424349784851074,-0.17337362468242645,0.0,0.0,0.0,0.0,0.0,0.0,0.0,0.08494320879649359,0.3793493041366497,0.2265889928901384,0.5958516868474291,0.3740897801837092,0.06059423323516243,-0.19541684912329318,-0.6090649590534076,-0.057360206851833746,-0.666509829395679,-2.594674929167095,-0.055686005153037864,2.5079581617249382,0.8763153086037915,-0.6090851748156966,-0.05753196718556838,-0.666603097082616,-2.5945565370258534,-0.05562143941554,2.507976027223799,0.8763108487046415,0.0002922403050552751,-0.0002905790880295079,-0.00013029259550141698,-0.00017135033071786115,-0.0002079800817024087,5.818179259678316e-05,-0.0012644150380743283,0.0,0.0,0.0,0.0,0.0,0.0,0.0,-2.0215762288944283e-05,-0.00017176033373463712,-9.326768693695975e-05,0.00011839214124176323,6.456573749786393e-05,1.7865498860736295e-05,-4.4598991499889e-06,-0.0002922403050552751,0.0002905790880295079,0.00013029259550141698,0.00017135033071786115,0.0002079800817024087,-5.818179259678316e-05,0.0012644150380743283,-0.05722695589065552,18.277124404907227,-1.0688202381134033,-18.222078323364258,-0.8022971749305725,-2.2424349784851074,0.17337362468242645,0
68,0.3349888324737549,0.05722695589065552,-18.277124404907227,1.0688202381134033,18.222078323364258,0.8022971749305725,2.2424349784851074,-0.17337362468242645,0.0,0.0,0.0,0.0,0.0,0.0,0.0,0.08494320879649359,0.3793493041366497,0.2265889928901384,0.5958516868474291,0.3740897801837092,0.06059423323516243,-0.19541684912329318,-0.6090649590534076,-0.057360206851833746,-0.666509829395679,-2.594674929167095,-0.055686005153037864,2.5079581617249382,0.8763153086037915,-0.6090851748156966,-0.05753196718556838,-0.666603097082616,-2.5945565370258534,-0.05562143941554,2.507976027223799,0.8763108487046415,0.0002922403050552751,-0.0002905790880295079,-0.00013029259550141698,-0.00017135033071786115,-0.0002079800817024087,5.818179259678316e-05,-0.0012644150380743283,0.0,0.0,0.0,0.0,0.0,0.0,0.0,-2.0215762288944283e-05,-0.00017176033373463712,-9.326768693695975e-05,0.00011839214124176323,6.456573749786393e-05,1.7865498860736295e-05,-4.4598991499889e-06,-0.0002922403050552751,0.0002905790880295079,0.00013029259550141698,0.00017135033071786115,0.0002079800817024087,-5.818179259678316e-05,0.0012644150380743283,-0.05722695589065552,18.277124404907227,-1.0688202381134033,-18.222078323364258,-0.8022971749305725,-2.2424349784851074,0.17337362468242645,0
69,0.3399946689605713,0.08103066682815552,-18.277124404907227,1.0926239490509033,18.198274612426758,0.7968040108680725,2.2488436698913574,-0.17978231608867645,0.0,0.0,0.0,0.0,0.0,0.0,0.0,0.08136543240817358,0.3793744770366464,0.22859815056303817,0.5941158814653532,0.3742223233909211,0.06006352968740822,-0.19570642229404328,-0.6090663910720296,-0.057360206851833746,-0.6665114998315509,-2.594675325025592,-0.055685710238044896,2.5079574496481154,0.8763161384175197,-0.6090851748156966,-0.05753196718556838,-0.666603097082616,-2.5945565370258534,-0.05562143941554,2.507976027223799,0.8763108487046415,-0.0003566049340594047,-0.00017498233303429156,-0.000797316125119915,0.00027104537065815004,0.0002723135198522539,-0.00025865795028552705,-0.0011511400358547984,0.0,0.0,0.0,0.0,0.0,0.0,0.0,-1.8783743666928032e-05,-0.00017176033373463712,-9.159725106511196e-05,0.00011878799973841225,6.427082250489574e-05,1.8577575683575986e-05,-5.289712878164821e-06,0.0003566049340594047,0.00017498233303429156,0.000797316125119915,-0.00027104537065815004,-0.0002723135198522539,0.00025865795028552705,0.0011511400358547984,-0.08103066682815552,18.277124404907227,-1.0926239490509033,-18.198274612426758,-0.7968040108680725,-2.2488436698913574,0.17978231608867645,0
70,0.344987154006958,0.08103066682815552,-18.277124404907227,1.0926239490509033,18.198274612426758,0.7968040108680725,2.2488436698913574,-0.17978231608867645,0.0,0.0,0.0,0.0,0.0,0.0,0.0,0.08136543240817358,0.3793744770366464,0.22859815056303817,0.5941158814653532,0.3742223233909211,0.06006352968740822,-0.19570642229404328,-0.6090663910720296,-0.057360206851833746,-0.6665114998315509,-2.594675325025592,-0.055685710238044896,2.5079574496481154,0.8763161384175197,-0.6090851748156966,-0.05753196718556838,-0.666603097082616,-2.5945565370258534,-0.05562143941554,2.507976027223799,0.8763108487046415,-0.0003566049340594047,-0.00017498233303429156,-0.000797316125119915,0.00027104537065815004,0.0002723135198522539,-0.00025865795028552705,-0.0011511400358547984,0.0,0.0,0.0,0.0,0.0,0.0,0.0,-1.8783743666928032e-05,-0.00017176033373463712,-9.159725106511196e-05,0.00011878799973841225,6.427082250489574e-05,1.8577575683575986e-05,-5.289712878164821e-06,0.0003566049340594047,0.00017498233303429156,0.000797316125119915,-0.00027104537065815004,-0.0002723135198522539,0.00025865795028552705,0.0011511400358547984,-0.08103066682815552,18.277124404907227,-1.0926239490509033,-18.198274612426758,-0.7968040108680725,-2.2488436698913574,0.17978231608867645,0
71,0.34999537467956543,0.13260537385940552,-18.253320693969727,1.0688202381134033,18.245882034301758,0.7849021553993225,2.2424349784851074,-0.22830526530742645,0.0,0.0,0.0,0.0,0.0,0.0,0.0,0.0852449560024107,0.3807420751046335,0.23487183534625547,0.5956201982207906,0.3747835564583556,0.06032572261347291,-0.19562197914668894,-0.6090700103483702,-0.05736187728768901,-0.6665076836284837,-2.594676599614614,-0.05568442718717418,2.5079581617249382,0.8763215298569863,-0.6090851748156966,-0.05753196718556838,-0.666603097082616,-2.5945565370258534,-0.05562143941554,2.507976027223799,0.8763108487046415,-0.0009134074749346323,-0.0004540148332649335,-0.00027433737355358486,-0.00031704109079181336,0.0005468664571676413,-4.9996657292374405e-05,0.0010937034553639103,0.0,0.0,0.0,0.0,0.0,0.0,0.0,-1.5164467326411746e-05,-0.00017008989787937329,-9.541345413233149e-05,0.00012006258876073872,6.298777163418062e-05,1.7865498860736295e-05,-1.0681152344815814e-05,0.0009134074749346323,0.0004540148332649335,0.00027433737355358486,0.00031704109079181336,-0.0005468664571676413,4.9996657292374405e-05,-0.0010937034553639103,-0.13260537385940552,18.253320693969727,-1.0688202381134033,-18.245882034301758,-0.7849021553993225,-2.2424349784851074,0.22830526530742645,0
72,0.35498905181884766,0.13260537385940552,-18.253320693969727,1.0688202381134033,18.245882034301758,0.7849021553993225,2.2424349784851074,-0.22830526530742645,0.0,0.0,0.0,0.0,0.0,0.0,0.0,0.0852449560024107,0.3807420751046335,0.23487183534625547,0.5956201982207906,0.3747835564583556,0.06032572261347291,-0.19562197914668894,-0.6090700103483702,-0.05736187728768901,-0.6665076836284837,-2.594676599614614,-0.05568442718717418,2.5079581617249382,0.8763215298569863,-0.6090851748156966,-0.05753196718556838,-0.666603097082616,-2.5945565370258534,-0.05562143941554,2.507976027223799,0.8763108487046415,-0.0009134074749346323,-0.0004540148332649335,-0.00027433737355358486,-0.00031704109079181336,0.0005468664571676413,-4.9996657292374405e-05,0.0010937034553639103,0.0,0.0,0.0,0.0,0.0,0.0,0.0,-1.5164467326411746e-05,-0.00017008989787937329,-9.541345413233149e-05,0.00012006258876073872,6.298777163418062e-05,1.7865498860736295e-05,-1.0681152344815814e-05,0.0009134074749346323,0.0004540148332649335,0.00027433737355358486,0.00031704109079181336,-0.0005468664571676413,4.9996657292374405e-05,-0.0010937034553639103,-0.13260537385940552,18.253320693969727,-1.0688202381134033,-18.245882034301758,-0.7849021553993225,-2.2424349784851074,0.22830526530742645,0
73,0.3599879741668701,0.08103066682815552,-18.253320693969727,1.0926239490509033,18.269685745239258,0.7903953194618225,2.2488436698913574,-0.20724813640117645,0.0,0.0,0.0,0.0,0.0,0.0,0.0,0.07916465132628935,0.3819047375943402,0.22833281947632278,0.596485645824054,0.37525087744004215,0.05947515191941638,-0.19481684875713398,-0.6090663910706838,-0.057361877251602605,-0.6665114997104218,-2.5946782700388056,-0.05568467834356087,2.5079574496481154,0.8763160098080586,-0.6090851748156966,-0.05753196718556838,-0.666603097082616,-2.5945565370258534,-0.05562143941554,2.507976027223799,0.8763108487046415,0.00018619934883037768,-0.0006583140735578895,-0.0014996098301752142,-0.0009610209080333791,0.000257956932912462,-0.00015096282326594926,0.0007094928248562745,0.0,0.0,0.0,0.0,0.0,0.0,0.0,-1.8783745012740383e-05,-0.00017008993396577798,-9.159737219421871e-05,0.00012173301295215211,6.323892802086867e-05,1.8577575683575986e-05,-5.161103417083979e-06,-0.00018619934883037768,0.0006583140735578895,0.0014996098301752142,0.0009610209080333791,-0.000257956932912462,0.00015096282326594926,-0.0007094928248562745,-0.08103066682815552,18.253320693969727,-1.0926239490509033,-18.269685745239258,-0.7903953194618225,-2.2488436698913574,0.20724813640117645,0
74,0.3649866580963135,0.08103066682815552,-18.253320693969727,1.0926239490509033,18.269685745239258,0.7903953194618225,2.2488436698913574,-0.20724813640117645,0.0,0.0,0.0,0.0,0.0,0.0,0.0,0.07916465132628935,0.3819047375943402,0.22833281947632278,0.596485645824054,0.37525087744004215,0.05947515191941638,-0.19481684875713398,-0.6090663910706838,-0.057361877251602605,-0.6665114997104218,-2.5946782700388056,-0.05568467834356087,2.5079574496481154,0.8763160098080586,-0.6090851748156966,-0.05753196718556838,-0.666603097082616,-2.5945565370258534,-0.05562143941554,2.507976027223799,0.8763108487046415,0.00018619934883037768,-0.0006583140735578895,-0.0014996098301752142,-0.0009610209080333791,0.000257956932912462,-0.00015096282326594926,0.0007094928248562745,0.0,0.0,0.0,0.0,0.0,0.0,0.0,-1.8783745012740383e-05,-0.00017008993396577798,-9.159737219421871e-05,0.00012173301295215211,6.323892802086867e-05,1.8577575683575986e-05,-5.161103417083979e-06,-0.00018619934883037768,0.0006583140735578895,0.0014996098301752142,0.0009610209080333791,-0.000257956932912462,0.00015096282326594926,-0.0007094928248562745,-0.08103066682815552,18.253320693969727,-1.0926239490509033,-18.269685745239258,-0.7903953194618225,-2.2488436698913574,0.20724813640117645,0
75,0.370023250579834,0.03342324495315552,-18.253320693969727,1.1164276599884033,18.198274612426758,0.7903953194618225,2.2488436698913574,-0.21457235515117645,0.0,0.0,0.0,0.0,0.0,0.0,0.0,0.08648463451360029,0.38360627319761614,0.23251154393224074,0.5991101081158507,0.3748396151576131,0.059134605250678554,-0.19388833806789668,-0.6090630501989732,-0.05736187728768881,-0.6665130907945459,-2.5946732842410465,-0.05568499670083349,2.5079574496481154,0.8763200039601269,-0.6090851748156966,-0.05753196718556838,-0.666603097082616,-2.5945565370258534,-0.05562143941554,2.507976027223799,0.8763108487046415,0.0011768744636910292,-0.0008825967262352415,-0.0016457998892826253,0.0005017876465298385,0.00042549176068527915,-0.00023373391332079147,0.0007998623439581219,0.0,0.0,0.0,0.0,0.0,0.0,0.0,-2.212461672335131e-05,-0.00017008989787957451,-9.000628807009914e-05,0.0001167472151930582,6.355728529348903e-05,1.8577575683575986e-05,-9.155255485393532e-06,-0.0011768744636910292,0.0008825967262352415,0.0016457998892826253,-0.0005017876465298385,-0.00042549176068527915,0.00023373391332079147,-0.0007998623439581219,-0.03342324495315552,18.253320693969727,-1.1164276599884033,-18.198274612426758,-0.7903953194618225,-2.2488436698913574,0.21457235515117645,0
76,0.37500667572021484,0.03342324495315552,-18.253320693969727,1.1164276599884033,18.198274612426758,0.7903953194618225,2.2488436698913574,-0.21457235515117645,0.0,0.0,0.0,0.0,0.0,0.0,0.0,0.08648463451360029,0.38360627319761614,0.23251154393224074,0.5991101081158507,0.3748396151576131,0.059134605250678554,-0.19388833806789668,-0.6090630501989732,-0.05736187728768881,-0.6665130907945459,-2.5946732842410465,-0.05568499670083349,2.5079574496481154,0.8763200039601269,-0.6090851748156966,-0.05753196718556838,-0.666603097082616,-2.5945565370258534,-0.05562143941554,2.507976027223799,0.8763108487046415,0.0011768744636910292,-0.0008825967262352415,-0.0016457998892826253,0.0005017876465298385,0.00042549176068527915,-0.00023373391332079147,0.0007998623439581219,0.0,0.0,0.0,0.0,0.0,0.0,0.0,-2.212461672335131e-05,-0.00017008989787957451,-9.000628807009914e-05,0.0001167472151930582,6.355728529348903e-05,1.8577575683575986e-05,-9.155255485393532e-06,-0.0011768744636910292,0.0008825967262352415,0.0016457998892826253,-0.0005017876465298385,-0.00042549176068527915,0.00023373391332079147,-0.0007998623439581219,-0.03342324495315552,18.253320693969727,-1.1164276599884033,-18.198274612426758,-0.7903953194618225,-2.2488436698913574,0.21457235515117645,0
77,0.37999486923217773,0.03342324495315552,-18.253320693969727,0.9934418201446533,18.222078323364258,0.8022971749305725,2.2488436698913574,-0.17978231608867645,0.0,0.0,0.0,0.0,0.0,0.0,0.0,0.08391503946228829,0.38403309624290544,0.231195222297641,0.5988274963955553,0.3751362043722434,0.05927611516659946,-0.19339658449018018,-0.6090630501989732,-0.05736187728768901,-0.6665023939144935,-2.594674929167239,-0.0556863600212014,2.5079574496481154,0.8763161382566786,-0.6090851748156966,-0.05753196718556838,-0.666603097082616,-2.5945565370258534,-0.05562143941554,2.507976027223799,0.8763108487046415,0.0011952741941330454,-0.0007812905331156403,0.0010992173112200406,-0.0003546852682278681,-6.811987895382486e-05,-0.0001922468772392052,-5.59596855474127e-05,0.0,0.0,0.0,0.0,0.0,0.0,0.0,-2.212461672335131e-05,-0.00017008989787937329,-0.00010070316812249569,0.00011839214138564813,6.492060566139907e-05,1.8577575683575986e-05,-5.289552037157641e-06,-0.0011952741941330454,0.0007812905331156403,-0.0010992173112200406,0.0003546852682278681,6.811987895382486e-05,0.0001922468772392052,5.59596855474127e-05,-0.03342324495315552,18.253320693969727,-0.9934418201446533,-18.222078323364258,-0.8022971749305725,-2.2488436698913574,0.17978231608867645,0
78,0.38498711585998535,0.03342324495315552,-18.253320693969727,0.9934418201446533,18.222078323364258,0.8022971749305725,2.2488436698913574,-0.17978231608867645,0.0,0.0,0.0,0.0,0.0,0.0,0.0,0.08391503946228829,0.38403309624290544,0.231195222297641,0.5988274963955553,0.3751362043722434,0.05927611516659946,-0.19339658449018018,-0.6090630501989732,-0.05736187728768901,-0.6665023939144935,-2.594674929167239,-0.0556863600212014,2.5079574496481154,0.8763161382566786,-0.6090851748156966,-0.05753196718556838,-0.666603097082616,-2.5945565370258534,-0.05562143941554,2.507976027223799,0.8763108487046415,0.0011952741941330454,-0.0007812905331156403,0.0010992173112200406,-0.0003546852682278681,-6.811987895382486e-05,-0.0001922468772392052,-5.59596855474127e-05,0.0,0.0,0.0,0.0,0.0,0.0,0.0,-2.212461672335131e-05,-0.00017008989787937329,-0.00010070316812249569,0.00011839214138564813,6.492060566139907e-05,1.8577575683575986e-05,-5.289552037157641e-06,-0.0011952741941330454,0.0007812905331156403,-0.0010992173112200406,0.0003546852682278681,6.811987895382486e-05,0.0001922468772392052,5.59596855474127e-05,-0.03342324495315552,18.253320693969727,-0.9934418201446533,-18.222078323364258,-0.8022971749305725,-2.2488436698913574,0.17978231608867645,0
79,0.3900330066680908,0.08103066682815552,-18.352502822875977,1.0688202381134033,18.222078323364258,0.7903953194618225,2.2360262870788574,-0.15964071452617645,0.0,0.0,0.0,0.0,0.0,0.0,0.0,0.09145098906315276,0.3821589941155523,0.23663104079093417,0.5995271917997268,0.37477551056398484,0.06012524594400205,-0.19322268639120266,-0.6090663910706838,-0.05735491713829208,-0.6665098293835827,-2.594674954676902,-0.0556850371062589,2.507958873801761,0.8763139004624542,-0.6090851748156966,-0.05753196718556838,-0.666603097082616,-2.5945565370258534,-0.05562143941554,2.507976027223799,0.8763108487046415,0.0004688420832832649,0.0014835788248286968,-0.0006376460987104836,-0.0002471499918075867,0.00024228568855648173,0.00023651914590088288,-0.0012632864003530675,0.0,0.0,0.0,0.0,0.0,0.0,0.0,-1.8783745012740383e-05,-0.0001770500472763059,-9.326769903328369e-05,0.00011841765104847468,6.359769071889732e-05,1.7153422037896604e-05,-3.0517578126776357e-06,-0.0004688420832832649,-0.0014835788248286968,0.0006376460987104836,0.0002471499918075867,-0.00024228568855648173,-0.00023651914590088288,0.0012632864003530675,-0.08103066682815552,18.352502822875977,-1.0688202381134033,-18.222078323364258,-0.7903953194618225,-2.2360262870788574,0.15964071452617645,0
