rezayati/contactInterpretation/dataset/franka_main/labeled_data/link4/d3_7.csv
index,time,tau_J0,tau_J1,tau_J2,tau_J3,tau_J4,tau_J5,tau_J6,tau_J_d0,tau_J_d1,tau_J_d2,tau_J_d3,tau_J_d4,tau_J_d5,tau_J_d6,tau_ext0,tau_ext1,tau_ext2,tau_ext3,tau_ext4,tau_ext5,tau_ext6,q0,q1,q2,q3,q4,q5,q6,q_d0,q_d1,q_d2,q_d3,q_d4,q_d5,q_d6,dq0,dq1,dq2,dq3,dq4,dq5,dq6,dq_d0,dq_d1,dq_d2,dq_d3,dq_d4,dq_d5,dq_d6,e0,e1,e2,e3,e4,e5,e6,de0,de1,de2,de3,de4,de5,de6,etau_J0,etau_J1,etau_J2,etau_J3,etau_J4,etau_J5,etau_J6,label
1,0.0,-0.14510458707809448,-11.949304580688477,1.3147919178009033,21.669649124145508,0.3674216866493225,2.5335726737976074,-0.17978231608867645,0.0,0.0,0.0,0.0,0.0,0.0,0.0,-0.16615664672632668,0.36730555201192977,0.11304244296311672,0.386245995524879,-0.16240989586232654,0.1256510422127964,-0.21192687024266413,0.17283443923137767,-0.4874627294707716,-0.11145916577136558,-1.9464710193098638,0.13361205610182783,2.595549647702111,0.945244558961855,0.1728802376190821,-0.48752024683155326,-0.11147110072896137,-1.9463801863486305,0.1336059019074957,2.595550359778934,0.9452445589611904,-0.0005447446597501014,-0.0007764389879778514,-0.000386585782318536,-2.4776496565487117e-06,0.00022249631551267968,-0.0003626816323354689,-0.0010754695622500457,0.0,0.0,0.0,0.0,0.0,0.0,0.0,4.579838770443767e-05,-5.751736078163372e-05,-1.1934957595785556e-05,9.08329612332448e-05,-6.154194332141927e-06,7.120768228396912e-07,-6.645795025406187e-13,0.0005447446597501014,0.0007764389879778514,0.000386585782318536,2.4776496565487117e-06,-0.00022249631551267968,0.0003626816323354689,0.0010754695622500457,0.14510458707809448,11.949304580688477,-1.3147919178009033,-21.669649124145508,-0.3674216866493225,-2.5335726737976074,0.17978231608867645,0
2,0.005004405975341797,-0.14510458707809448,-11.949304580688477,1.3147919178009033,21.669649124145508,0.3674216866493225,2.5335726737976074,-0.17978231608867645,0.0,0.0,0.0,0.0,0.0,0.0,0.0,-0.16615664672632668,0.36730555201192977,0.11304244296311672,0.386245995524879,-0.16240989586232654,0.1256510422127964,-0.21192687024266413,0.17283443923137767,-0.4874627294707716,-0.11145916577136558,-1.9464710193098638,0.13361205610182783,2.595549647702111,0.945244558961855,0.1728802376190821,-0.48752024683155326,-0.11147110072896137,-1.9463801863486305,0.1336059019074957,2.595550359778934,0.9452445589611904,-0.0005447446597501014,-0.0007764389879778514,-0.000386585782318536,-2.4776496565487117e-06,0.00022249631551267968,-0.0003626816323354689,-0.0010754695622500457,0.0,0.0,0.0,0.0,0.0,0.0,0.0,4.579838770443767e-05,-5.751736078163372e-05,-1.1934957595785556e-05,9.08329612332448e-05,-6.154194332141927e-06,7.120768228396912e-07,-6.645795025406187e-13,0.0005447446597501014,0.0007764389879778514,0.000386585782318536,2.4776496565487117e-06,-0.00022249631551267968,0.0003626816323354689,0.0010754695622500457,0.14510458707809448,11.949304580688477,-1.3147919178009033,-21.669649124145508,-0.3674216866493225,-2.5335726737976074,0.17978231608867645,0
3,0.00999760627746582,-0.14510458707809448,-11.949304580688477,1.3147919178009033,21.669649124145508,0.3674216866493225,2.5335726737976074,-0.17978231608867645,0.0,0.0,0.0,0.0,0.0,0.0,0.0,-0.16615664672632668,0.36730555201192977,0.11304244296311672,0.386245995524879,-0.16240989586232654,0.1256510422127964,-0.21192687024266413,0.17283443923137767,-0.4874627294707716,-0.11145916577136558,-1.9464710193098638,0.13361205610182783,2.595549647702111,0.945244558961855,0.1728802376190821,-0.48752024683155326,-0.11147110072896137,-1.9463801863486305,0.1336059019074957,2.595550359778934,0.9452445589611904,-0.0005447446597501014,-0.0007764389879778514,-0.000386585782318536,-2.4776496565487117e-06,0.00022249631551267968,-0.0003626816323354689,-0.0010754695622500457,0.0,0.0,0.0,0.0,0.0,0.0,0.0,4.579838770443767e-05,-5.751736078163372e-05,-1.1934957595785556e-05,9.08329612332448e-05,-6.154194332141927e-06,7.120768228396912e-07,-6.645795025406187e-13,0.0005447446597501014,0.0007764389879778514,0.000386585782318536,2.4776496565487117e-06,-0.00022249631551267968,0.0003626816323354689,0.0010754695622500457,0.14510458707809448,11.949304580688477,-1.3147919178009033,-21.669649124145508,-0.3674216866493225,-2.5335726737976074,0.17978231608867645,0
4,0.01499795913696289,-0.17287558317184448,-12.000879287719727,1.2671844959259033,21.669649124145508,0.3674216866493225,2.5335726737976074,-0.20083944499492645,0.0,0.0,0.0,0.0,0.0,0.0,0.0,-0.16559039123462618,0.36110280571741005,0.11502707425688591,0.39143518349337963,-0.1621206180390391,0.12583150663295442,-0.21123580151033977,0.1728343636006749,-0.4874591101930852,-0.11145377205760698,-1.9464710193098638,0.13361205615599916,2.595549647702111,0.9452468986428446,0.1728802376190821,-0.48752024683155326,-0.11147110072896137,-1.9463801863486305,0.1336059019074957,2.595550359778934,0.9452445589611904,-0.00023502676297302872,0.0005068070775333793,0.0013299076165123778,0.0006584444644647084,-0.0015826729003693947,-0.00027929282228766997,-3.1017147008152286e-05,0.0,0.0,0.0,0.0,0.0,0.0,0.0,4.5874018407221495e-05,-6.113663846807338e-05,-1.732867135438576e-05,9.08329612332448e-05,-6.154248503476012e-06,7.120768228396912e-07,-2.3396816541954024e-06,0.00023502676297302872,-0.0005068070775333793,-0.0013299076165123778,-0.0006584444644647084,0.0015826729003693947,0.00027929282228766997,3.1017147008152286e-05,0.17287558317184448,12.000879287719727,-1.2671844959259033,-21.669649124145508,-0.3674216866493225,-2.5335726737976074,0.20083944499492645,0
5,0.019995689392089844,-0.17287558317184448,-12.000879287719727,1.2671844959259033,21.669649124145508,0.3674216866493225,2.5335726737976074,-0.20083944499492645,0.0,0.0,0.0,0.0,0.0,0.0,0.0,-0.16559039123462618,0.36110280571741005,0.11502707425688591,0.39143518349337963,-0.1621206180390391,0.12583150663295442,-0.21123580151033977,0.1728343636006749,-0.4874591101930852,-0.11145377205760698,-1.9464710193098638,0.13361205615599916,2.595549647702111,0.9452468986428446,0.1728802376190821,-0.48752024683155326,-0.11147110072896137,-1.9463801863486305,0.1336059019074957,2.595550359778934,0.9452445589611904,-0.00023502676297302872,0.0005068070775333793,0.0013299076165123778,0.0006584444644647084,-0.0015826729003693947,-0.00027929282228766997,-3.1017147008152286e-05,0.0,0.0,0.0,0.0,0.0,0.0,0.0,4.5874018407221495e-05,-6.113663846807338e-05,-1.732867135438576e-05,9.08329612332448e-05,-6.154248503476012e-06,7.120768228396912e-07,-2.3396816541954024e-06,0.00023502676297302872,-0.0005068070775333793,-0.0013299076165123778,-0.0006584444644647084,0.0015826729003693947,0.00027929282228766997,3.1017147008152286e-05,0.17287558317184448,12.000879287719727,-1.2671844959259033,-21.669649124145508,-0.3674216866493225,-2.5335726737976074,0.20083944499492645,0
6,0.024996042251586914,-0.12130087614059448,-11.973108291625977,1.3147919178009033,21.641878128051758,0.3619285225868225,2.5271639823913574,-0.22830526530742645,0.0,0.0,0.0,0.0,0.0,0.0,0.0,-0.15711157805276024,0.3871831510012625,0.13108458078100899,0.37602134713811164,-0.1636148579802067,0.12317608817659051,-0.21154759469611395,0.17283097263805924,-0.4874610590349163,-0.11145679856906673,-1.9464690704680325,0.13361266650756198,2.595550359778934,0.9452499504006571,0.1728802376190821,-0.48752024683155326,-0.11147110072896137,-1.9463801863486305,0.1336059019074957,2.595550359778934,0.9452445589611904,-0.0008822686199045978,0.0005654811969555848,0.0004514543974393567,0.0009512021482834184,0.00031628169702146503,-8.695512678496611e-05,0.0014828610213131715,0.0,0.0,0.0,0.0,0.0,0.0,0.0,4.926498102286736e-05,-5.918779663693918e-05,-1.4302159894633015e-05,8.888411940199958e-05,-6.764600066294646e-06,0.0,-5.3914394666509935e-06,0.0008822686199045978,-0.0005654811969555848,-0.0004514543974393567,-0.0009512021482834184,-0.00031628169702146503,8.695512678496611e-05,-0.0014828610213131715,0.12130087614059448,11.973108291625977,-1.3147919178009033,-21.641878128051758,-0.3619285225868225,-2.5271639823913574,0.22830526530742645,0
7,0.030000686645507812,-0.12130087614059448,-11.973108291625977,1.3147919178009033,21.641878128051758,0.3619285225868225,2.5271639823913574,-0.22830526530742645,0.0,0.0,0.0,0.0,0.0,0.0,0.0,-0.15711157805276024,0.3871831510012625,0.13108458078100899,0.37602134713811164,-0.1636148579802067,0.12317608817659051,-0.21154759469611395,0.17283097263805924,-0.4874610590349163,-0.11145679856906673,-1.9464690704680325,0.13361266650756198,2.595550359778934,0.9452499504006571,0.1728802376190821,-0.48752024683155326,-0.11147110072896137,-1.9463801863486305,0.1336059019074957,2.595550359778934,0.9452445589611904,-0.0008822686199045978,0.0005654811969555848,0.0004514543974393567,0.0009512021482834184,0.00031628169702146503,-8.695512678496611e-05,0.0014828610213131715,0.0,0.0,0.0,0.0,0.0,0.0,0.0,4.926498102286736e-05,-5.918779663693918e-05,-1.4302159894633015e-05,8.888411940199958e-05,-6.764600066294646e-06,0.0,-5.3914394666509935e-06,0.0008822686199045978,-0.0005654811969555848,-0.0004514543974393567,-0.0009512021482834184,-0.00031628169702146503,8.695512678496611e-05,-0.0014828610213131715,0.12130087614059448,11.973108291625977,-1.3147919178009033,-21.641878128051758,-0.3619285225868225,-2.5271639823913574,0.22830526530742645,0
8,0.035003662109375,-0.12130087614059448,-11.973108291625977,1.3663666248321533,21.717256546020508,0.3793235421180725,2.5271639823913574,-0.19351522624492645,0.0,0.0,0.0,0.0,0.0,0.0,0.0,-0.16068854547670225,0.3633533540988068,0.12442721088824202,0.3883395473731815,-0.16295759373995333,0.12489215037672985,-0.21089655937247476,0.1728329926916237,-0.4874610590349163,-0.1114618382780001,-1.946474121762995,0.13361073372761406,2.595550359778934,0.9452460848407613,0.1728802376190821,-0.48752024683155326,-0.11147110072896137,-1.9463801863486305,0.1336059019074957,2.595550359778934,0.9452445589611904,-0.00018168142262345335,-7.079823970826407e-05,-0.001045791692492479,-0.0008240010352410375,-0.0002855490222769075,2.3177192202018985e-05,6.373475771731204e-06,0.0,0.0,0.0,0.0,0.0,0.0,0.0,4.724492745841746e-05,-5.918779663693918e-05,-9.262450961264324e-06,9.393541436453212e-05,-4.831820118372798e-06,0.0,-1.5258795709183204e-06,0.00018168142262345335,7.079823970826407e-05,0.001045791692492479,0.0008240010352410375,0.0002855490222769075,-2.3177192202018985e-05,-6.373475771731204e-06,0.12130087614059448,11.973108291625977,-1.3663666248321533,-21.717256546020508,-0.3793235421180725,-2.5271639823913574,0.19351522624492645,0
9,0.0400090217590332,-0.12130087614059448,-11.973108291625977,1.3663666248321533,21.717256546020508,0.3793235421180725,2.5271639823913574,-0.19351522624492645,0.0,0.0,0.0,0.0,0.0,0.0,0.0,-0.16068854547670225,0.3633533540988068,0.12442721088824202,0.3883395473731815,-0.16295759373995333,0.12489215037672985,-0.21089655937247476,0.1728329926916237,-0.4874610590349163,-0.1114618382780001,-1.946474121762995,0.13361073372761406,2.595550359778934,0.9452460848407613,0.1728802376190821,-0.48752024683155326,-0.11147110072896137,-1.9463801863486305,0.1336059019074957,2.595550359778934,0.9452445589611904,-0.00018168142262345335,-7.079823970826407e-05,-0.001045791692492479,-0.0008240010352410375,-0.0002855490222769075,2.3177192202018985e-05,6.373475771731204e-06,0.0,0.0,0.0,0.0,0.0,0.0,0.0,4.724492745841746e-05,-5.918779663693918e-05,-9.262450961264324e-06,9.393541436453212e-05,-4.831820118372798e-06,0.0,-1.5258795709183204e-06,0.00018168142262345335,7.079823970826407e-05,0.001045791692492479,0.0008240010352410375,0.0002855490222769075,-2.3177192202018985e-05,-6.373475771731204e-06,0.12130087614059448,11.973108291625977,-1.3663666248321533,-21.717256546020508,-0.3793235421180725,-2.5271639823913574,0.19351522624492645,0
10,0.04500317573547363,-0.19667929410934448,-11.973108291625977,1.3425629138946533,21.669649124145508,0.3793235421180725,2.5271639823913574,-0.17978231608867645,0.0,0.0,0.0,0.0,0.0,0.0,0.0,-0.16058740465574467,0.37026353957411356,0.11599225945828198,0.3844525209066207,-0.16245652604273403,0.12451473205167968,-0.20985928574005958,0.17283816090885273,-0.4874610590349163,-0.1114581146059668,-1.9464710193085177,0.13361073372761406,2.595550359778934,0.945244558961855,0.1728802376190821,-0.48752024683155326,-0.11147110072896137,-1.9463801863486305,0.1336059019074957,2.595550359778934,0.9452445589611904,0.001085868521234434,0.0007638514317492109,-0.0009247164194043996,0.0007334145609711048,-0.00034218541895345836,-3.607812575534874e-05,-0.0005092382632373862,0.0,0.0,0.0,0.0,0.0,0.0,0.0,4.207671022937731e-05,-5.918779663693918e-05,-1.2986122994565474e-05,9.083295988721041e-05,-4.831820118372798e-06,0.0,-6.645795025406187e-13,-0.001085868521234434,-0.0007638514317492109,0.0009247164194043996,-0.0007334145609711048,0.00034218541895345836,3.607812575534874e-05,0.0005092382632373862,0.19667929410934448,11.973108291625977,-1.3425629138946533,-21.669649124145508,-0.3793235421180725,-2.5271639823913574,0.17978231608867645,0
11,0.0500028133392334,-0.19667929410934448,-11.973108291625977,1.3425629138946533,21.669649124145508,0.3793235421180725,2.5271639823913574,-0.17978231608867645,0.0,0.0,0.0,0.0,0.0,0.0,0.0,-0.16058740465574467,0.37026353957411356,0.11599225945828198,0.3844525209066207,-0.16245652604273403,0.12451473205167968,-0.20985928574005958,0.17283816090885273,-0.4874610590349163,-0.1114581146059668,-1.9464710193085177,0.13361073372761406,2.595550359778934,0.945244558961855,0.1728802376190821,-0.48752024683155326,-0.11147110072896137,-1.9463801863486305,0.1336059019074957,2.595550359778934,0.9452445589611904,0.001085868521234434,0.0007638514317492109,-0.0009247164194043996,0.0007334145609711048,-0.00034218541895345836,-3.607812575534874e-05,-0.0005092382632373862,0.0,0.0,0.0,0.0,0.0,0.0,0.0,4.207671022937731e-05,-5.918779663693918e-05,-1.2986122994565474e-05,9.083295988721041e-05,-4.831820118372798e-06,0.0,-6.645795025406187e-13,-0.001085868521234434,-0.0007638514317492109,0.0009247164194043996,-0.0007334145609711048,0.00034218541895345836,3.607812575534874e-05,0.0005092382632373862,0.19667929410934448,11.973108291625977,-1.3425629138946533,-21.669649124145508,-0.3793235421180725,-2.5271639823913574,0.17978231608867645,0
12,0.05500030517578125,-0.14510458707809448,-11.949304580688477,1.2909882068634033,21.669649124145508,0.3674216866493225,2.5207552909851074,-0.19351522624492645,0.0,0.0,0.0,0.0,0.0,0.0,0.0,-0.15505938453712373,0.3774675034567009,0.12133000535861733,0.3820041885286241,-0.16232860639585361,0.12385525030399647,-0.2094009370045706,0.17283304422339346,-0.4874627294707716,-0.11145475838657262,-1.9464710193098635,0.13361204299228507,2.595551071855757,0.9452460848407613,0.1728802376190821,-0.48752024683155326,-0.11147110072896137,-1.9463801863486305,0.1336059019074957,2.595550359778934,0.9452445589611904,-0.00010209205008722331,0.0006880681200276503,0.0003821646573923449,2.88015077587359e-05,0.00022031325169058756,4.737304806804119e-05,-0.0005743823715531557,0.0,0.0,0.0,0.0,0.0,0.0,0.0,4.719339568864944e-05,-5.751736078163372e-05,-1.634234238874488e-05,9.083296123302276e-05,-6.141084789385021e-06,-7.120768228396912e-07,-1.5258795709183204e-06,0.00010209205008722331,-0.0006880681200276503,-0.0003821646573923449,-2.88015077587359e-05,-0.00022031325169058756,-4.737304806804119e-05,0.0005743823715531557,0.14510458707809448,11.949304580688477,-1.2909882068634033,-21.669649124145508,-0.3674216866493225,-2.5207552909851074,0.19351522624492645,0
13,0.059999942779541016,-0.14510458707809448,-11.949304580688477,1.2909882068634033,21.669649124145508,0.3674216866493225,2.5207552909851074,-0.19351522624492645,0.0,0.0,0.0,0.0,0.0,0.0,0.0,-0.15505938453712373,0.3774675034567009,0.12133000535861733,0.3820041885286241,-0.16232860639585361,0.12385525030399647,-0.2094009370045706,0.17283304422339346,-0.4874627294707716,-0.11145475838657262,-1.9464710193098635,0.13361204299228507,2.595551071855757,0.9452460848407613,0.1728802376190821,-0.48752024683155326,-0.11147110072896137,-1.9463801863486305,0.1336059019074957,2.595550359778934,0.9452445589611904,-0.00010209205008722331,0.0006880681200276503,0.0003821646573923449,2.88015077587359e-05,0.00022031325169058756,4.737304806804119e-05,-0.0005743823715531557,0.0,0.0,0.0,0.0,0.0,0.0,0.0,4.719339568864944e-05,-5.751736078163372e-05,-1.634234238874488e-05,9.083296123302276e-05,-6.141084789385021e-06,-7.120768228396912e-07,-1.5258795709183204e-06,0.00010209205008722331,-0.0006880681200276503,-0.0003821646573923449,-2.88015077587359e-05,-0.00022031325169058756,-4.737304806804119e-05,0.0005743823715531557,0.14510458707809448,11.949304580688477,-1.2909882068634033,-21.669649124145508,-0.3674216866493225,-2.5207552909851074,0.19351522624492645,0
14,0.06499576568603516,-0.17287558317184448,-11.925500869750977,1.3147919178009033,21.693452835083008,0.3738303780555725,2.5271639823913574,-0.16604940593242645,0.0,0.0,0.0,0.0,0.0,0.0,0.0,-0.15650553121979255,0.3723604821804692,0.11645854167468653,0.38669663276954663,-0.16168804583262314,0.12412920790404033,-0.20993868227226672,0.17283664203348356,-0.4874643999066269,-0.111458571706736,-1.9464726897457187,0.13361134407910225,2.595550359778934,0.9452430330829488,0.1728802376190821,-0.48752024683155326,-0.11147110072896137,-1.9463801863486305,0.1336059019074957,2.595550359778934,0.9452445589611904,0.0004780019933750028,-8.704904814622705e-05,-0.0006237762593972057,-0.0007495873980564313,5.670709866524738e-05,4.0917472692145145e-05,-0.0014781661916569364,0.0,0.0,0.0,0.0,0.0,0.0,0.0,4.359558559854926e-05,-5.584692492638377e-05,-1.2529022225371556e-05,9.25033970882172e-05,-5.442171606556689e-06,0.0,1.525878241648293e-06,-0.0004780019933750028,8.704904814622705e-05,0.0006237762593972057,0.0007495873980564313,-5.670709866524738e-05,-4.0917472692145145e-05,0.0014781661916569364,0.17287558317184448,11.925500869750977,-1.3147919178009033,-21.693452835083008,-0.3738303780555725,-2.5271639823913574,0.16604940593242645,0
15,0.06999754905700684,-0.17287558317184448,-11.925500869750977,1.3147919178009033,21.693452835083008,0.3738303780555725,2.5271639823913574,-0.16604940593242645,0.0,0.0,0.0,0.0,0.0,0.0,0.0,-0.15650553121979255,0.3723604821804692,0.11645854167468653,0.38669663276954663,-0.16168804583262314,0.12412920790404033,-0.20993868227226672,0.17283664203348356,-0.4874643999066269,-0.111458571706736,-1.9464726897457187,0.13361134407910225,2.595550359778934,0.9452430330829488,0.1728802376190821,-0.48752024683155326,-0.11147110072896137,-1.9463801863486305,0.1336059019074957,2.595550359778934,0.9452445589611904,0.0004780019933750028,-8.704904814622705e-05,-0.0006237762593972057,-0.0007495873980564313,5.670709866524738e-05,4.0917472692145145e-05,-0.0014781661916569364,0.0,0.0,0.0,0.0,0.0,0.0,0.0,4.359558559854926e-05,-5.584692492638377e-05,-1.2529022225371556e-05,9.25033970882172e-05,-5.442171606556689e-06,0.0,1.525878241648293e-06,-0.0004780019933750028,8.704904814622705e-05,0.0006237762593972057,0.0007495873980564313,-5.670709866524738e-05,-4.0917472692145145e-05,0.0014781661916569364,0.17287558317184448,11.925500869750977,-1.3147919178009033,-21.693452835083008,-0.3738303780555725,-2.5271639823913574,0.16604940593242645,0
16,0.07500004768371582,-0.14510458707809448,-12.024682998657227,1.2909882068634033,21.693452835083008,0.3674216866493225,2.5335726737976074,-0.23471395671367645,0.0,0.0,0.0,0.0,0.0,0.0,0.0,-0.15465982443143422,0.36843289466242135,0.12030891505843172,0.3906837217531321,-0.16091314773871862,0.12460476439444487,-0.20920520501589626,0.17283470205752333,-0.48745743975722994,-0.11145474216127257,-1.9464726897457187,0.13361205615599947,2.595549647702111,0.94525066247748,0.1728802376190821,-0.48752024683155326,-0.11147110072896137,-1.9463801863486305,0.1336059019074957,2.595550359778934,0.9452445589611904,-0.0008852890082606585,0.0016396270412772438,0.0008266202779396892,-0.0005246428070327844,0.0004236107123211553,-0.00040110247296848,0.0015079628888434767,0.0,0.0,0.0,0.0,0.0,0.0,0.0,4.553556155878491e-05,-6.280707432332333e-05,-1.6358567688792847e-05,9.25033970882172e-05,-6.154248503781323e-06,7.120768228396912e-07,-6.103516289601707e-06,0.0008852890082606585,-0.0016396270412772438,-0.0008266202779396892,0.0005246428070327844,-0.0004236107123211553,0.00040110247296848,-0.0015079628888434767,0.14510458707809448,12.024682998657227,-1.2909882068634033,-21.693452835083008,-0.3674216866493225,-2.5335726737976074,0.23471395671367645,0
17,0.07999753952026367,-0.14510458707809448,-12.024682998657227,1.2909882068634033,21.693452835083008,0.3674216866493225,2.5335726737976074,-0.23471395671367645,0.0,0.0,0.0,0.0,0.0,0.0,0.0,-0.15465982443143422,0.36843289466242135,0.12030891505843172,0.3906837217531321,-0.16091314773871862,0.12460476439444487,-0.20920520501589626,0.17283470205752333,-0.48745743975722994,-0.11145474216127257,-1.9464726897457187,0.13361205615599947,2.595549647702111,0.94525066247748,0.1728802376190821,-0.48752024683155326,-0.11147110072896137,-1.9463801863486305,0.1336059019074957,2.595550359778934,0.9452445589611904,-0.0008852890082606585,0.0016396270412772438,0.0008266202779396892,-0.0005246428070327844,0.0004236107123211553,-0.00040110247296848,0.0015079628888434767,0.0,0.0,0.0,0.0,0.0,0.0,0.0,4.553556155878491e-05,-6.280707432332333e-05,-1.6358567688792847e-05,9.25033970882172e-05,-6.154248503781323e-06,7.120768228396912e-07,-6.103516289601707e-06,0.0008852890082606585,-0.0016396270412772438,-0.0008266202779396892,0.0005246428070327844,-0.0004236107123211553,0.00040110247296848,-0.0015079628888434767,0.14510458707809448,12.024682998657227,-1.2909882068634033,-21.693452835083008,-0.3674216866493225,-2.5335726737976074,0.23471395671367645,0
18,0.08499717712402344,-0.17287558317184448,-11.973108291625977,1.3425629138946533,21.669649124145508,0.3738303780555725,2.5271639823913574,-0.22830526530742645,0.0,0.0,0.0,0.0,0.0,0.0,0.0,-0.15453585009329288,0.37949730200408993,0.12371907921130684,0.3847083047734823,-0.1606925698582394,0.12351013400295055,-0.20878282125531283,0.1728366154371526,-0.4874610590349163,-0.11145811459576961,-1.9464710193098635,0.13361134407917655,2.595550359778934,0.9452499504006571,0.1728802376190821,-0.48752024683155326,-0.11147110072896137,-1.9463801863486305,0.1336059019074957,2.595550359778934,0.9452445589611904,0.0007723907306388428,0.0004984193606959083,-0.0006090903690669436,0.00034297028965667436,-1.943441349220483e-05,-0.00012087867945685569,0.0009280092433914195,0.0,0.0,0.0,0.0,0.0,0.0,0.0,4.3622181929520165e-05,-5.918779663693918e-05,-1.2986133191755789e-05,9.083296123302276e-05,-5.442171680858365e-06,0.0,-5.3914394666509935e-06,-0.0007723907306388428,-0.0004984193606959083,0.0006090903690669436,-0.00034297028965667436,1.943441349220483e-05,0.00012087867945685569,-0.0009280092433914195,0.17287558317184448,11.973108291625977,-1.3425629138946533,-21.669649124145508,-0.3738303780555725,-2.5271639823913574,0.22830526530742645,0
19,0.08999490737915039,-0.17287558317184448,-11.973108291625977,1.3425629138946533,21.669649124145508,0.3738303780555725,2.5271639823913574,-0.22830526530742645,0.0,0.0,0.0,0.0,0.0,0.0,0.0,-0.15453585009329288,0.37949730200408993,0.12371907921130684,0.3847083047734823,-0.1606925698582394,0.12351013400295055,-0.20878282125531283,0.1728366154371526,-0.4874610590349163,-0.11145811459576961,-1.9464710193098635,0.13361134407917655,2.595550359778934,0.9452499504006571,0.1728802376190821,-0.48752024683155326,-0.11147110072896137,-1.9463801863486305,0.1336059019074957,2.595550359778934,0.9452445589611904,0.0007723907306388428,0.0004984193606959083,-0.0006090903690669436,0.00034297028965667436,-1.943441349220483e-05,-0.00012087867945685569,0.0009280092433914195,0.0,0.0,0.0,0.0,0.0,0.0,0.0,4.3622181929520165e-05,-5.918779663693918e-05,-1.2986133191755789e-05,9.083296123302276e-05,-5.442171680858365e-06,0.0,-5.3914394666509935e-06,-0.0007723907306388428,-0.0004984193606959083,0.0006090903690669436,-0.00034297028965667436,1.943441349220483e-05,0.00012087867945685569,-0.0009280092433914195,0.17287558317184448,11.973108291625977,-1.3425629138946533,-21.669649124145508,-0.3738303780555725,-2.5271639823913574,0.22830526530742645,0
20,0.09499669075012207,-0.17287558317184448,-11.949304580688477,1.3901703357696533,21.693452835083008,0.3793235421180725,2.5271639823913574,-0.21457235515117645,0.0,0.0,0.0,0.0,0.0,0.0,0.0,-0.15525549433626118,0.37031918959756027,0.123633418562028,0.38869362361793935,-0.16030765778568692,0.12439350524009692,-0.20928996448877976,0.17283664786610814,-0.4874627294707716,-0.11146145645215139,-1.9464726897457187,0.13361073372761406,2.595550359778934,0.9452484245217508,0.1728802376190821,-0.48752024683155326,-0.11147110072896137,-1.9463801863486305,0.1336059019074957,2.595550359778934,0.9452445589611904,0.0008035047605389505,-0.0005328287087190597,-0.0014877635195296279,-2.5004370149199977e-05,-0.0002293682731233912,6.81027773874658e-06,0.00012769566204637477,0.0,0.0,0.0,0.0,0.0,0.0,0.0,4.3589752973971496e-05,-5.751736078163372e-05,-9.644276809980812e-06,9.25033970882172e-05,-4.831820118372798e-06,0.0,-3.865560560423198e-06,-0.0008035047605389505,0.0005328287087190597,0.0014877635195296279,2.5004370149199977e-05,0.0002293682731233912,-6.81027773874658e-06,-0.00012769566204637477,0.17287558317184448,11.949304580688477,-1.3901703357696533,-21.693452835083008,-0.3793235421180725,-2.5271639823913574,0.21457235515117645,0
21,0.100433349609375,-0.17287558317184448,-11.949304580688477,1.3901703357696533,21.693452835083008,0.3793235421180725,2.5271639823913574,-0.21457235515117645,0.0,0.0,0.0,0.0,0.0,0.0,0.0,-0.15525549433626118,0.37031918959756027,0.123633418562028,0.38869362361793935,-0.16030765778568692,0.12439350524009692,-0.20928996448877976,0.17283664786610814,-0.4874627294707716,-0.11146145645215139,-1.9464726897457187,0.13361073372761406,2.595550359778934,0.9452484245217508,0.1728802376190821,-0.48752024683155326,-0.11147110072896137,-1.9463801863486305,0.1336059019074957,2.595550359778934,0.9452445589611904,0.0008035047605389505,-0.0005328287087190597,-0.0014877635195296279,-2.5004370149199977e-05,-0.0002293682731233912,6.81027773874658e-06,0.00012769566204637477,0.0,0.0,0.0,0.0,0.0,0.0,0.0,4.3589752973971496e-05,-5.751736078163372e-05,-9.644276809980812e-06,9.25033970882172e-05,-4.831820118372798e-06,0.0,-3.865560560423198e-06,-0.0008035047605389505,0.0005328287087190597,0.0014877635195296279,2.5004370149199977e-05,0.0002293682731233912,-6.81027773874658e-06,-0.00012769566204637477,0.17287558317184448,11.949304580688477,-1.3901703357696533,-21.693452835083008,-0.3793235421180725,-2.5271639823913574,0.21457235515117645,0
22,0.10500264167785645,-0.17287558317184448,-11.949304580688477,1.3901703357696533,21.693452835083008,0.3793235421180725,2.5271639823913574,-0.21457235515117645,0.0,0.0,0.0,0.0,0.0,0.0,0.0,-0.15525549433626118,0.37031918959756027,0.123633418562028,0.38869362361793935,-0.16030765778568692,0.12439350524009692,-0.20928996448877976,0.17283664786610814,-0.4874627294707716,-0.11146145645215139,-1.9464726897457187,0.13361073372761406,2.595550359778934,0.9452484245217508,0.1728802376190821,-0.48752024683155326,-0.11147110072896137,-1.9463801863486305,0.1336059019074957,2.595550359778934,0.9452445589611904,0.0008035047605389505,-0.0005328287087190597,-0.0014877635195296279,-2.5004370149199977e-05,-0.0002293682731233912,6.81027773874658e-06,0.00012769566204637477,0.0,0.0,0.0,0.0,0.0,0.0,0.0,4.3589752973971496e-05,-5.751736078163372e-05,-9.644276809980812e-06,9.25033970882172e-05,-4.831820118372798e-06,0.0,-3.865560560423198e-06,-0.0008035047605389505,0.0005328287087190597,0.0014877635195296279,2.5004370149199977e-05,0.0002293682731233912,-6.81027773874658e-06,-0.00012769566204637477,0.17287558317184448,11.949304580688477,-1.3901703357696533,-21.693452835083008,-0.3793235421180725,-2.5271639823913574,0.21457235515117645,0
23,0.11000370979309082,-0.17287558317184448,-11.925500869750977,1.2909882068634033,21.717256546020508,0.3793235421180725,2.5207552909851074,-0.24112264811992645,0.0,0.0,0.0,0.0,0.0,0.0,0.0,-0.15823496088913808,0.3771625369311126,0.12121196416373946,0.38331340442693906,-0.16104219252511626,0.12398546545564848,-0.20982549377877718,0.17283449569452944,-0.4874643999066269,-0.11145750697968698,-1.946474360181574,0.13361037830732486,2.595551071855757,0.945251374554303,0.1728802376190821,-0.48752024683155326,-0.11147110072896137,-1.9463801863486305,0.1336059019074957,2.595550359778934,0.9452445589611904,-3.1669962199346476e-05,-0.0006956284420550895,0.0004470786413641786,-0.0011341867470166008,0.00039750708644692965,0.00017756030534555223,0.001970591981391668,0.0,0.0,0.0,0.0,0.0,0.0,0.0,4.574192455267245e-05,-5.584692492638377e-05,-1.3593749274384836e-05,9.417383294341164e-05,-4.476399829173028e-06,-7.120768228396912e-07,-6.8155931125524205e-06,3.1669962199346476e-05,0.0006956284420550895,-0.0004470786413641786,0.0011341867470166008,-0.00039750708644692965,-0.00017756030534555223,-0.001970591981391668,0.17287558317184448,11.925500869750977,-1.2909882068634033,-21.717256546020508,-0.3793235421180725,-2.5207552909851074,0.24112264811992645,0
24,0.1150047779083252,-0.17287558317184448,-11.925500869750977,1.2909882068634033,21.717256546020508,0.3793235421180725,2.5207552909851074,-0.24112264811992645,0.0,0.0,0.0,0.0,0.0,0.0,0.0,-0.15823496088913808,0.3771625369311126,0.12121196416373946,0.38331340442693906,-0.16104219252511626,0.12398546545564848,-0.20982549377877718,0.17283449569452944,-0.4874643999066269,-0.11145750697968698,-1.946474360181574,0.13361037830732486,2.595551071855757,0.945251374554303,0.1728802376190821,-0.48752024683155326,-0.11147110072896137,-1.9463801863486305,0.1336059019074957,2.595550359778934,0.9452445589611904,-3.1669962199346476e-05,-0.0006956284420550895,0.0004470786413641786,-0.0011341867470166008,0.00039750708644692965,0.00017756030534555223,0.001970591981391668,0.0,0.0,0.0,0.0,0.0,0.0,0.0,4.574192455267245e-05,-5.584692492638377e-05,-1.3593749274384836e-05,9.417383294341164e-05,-4.476399829173028e-06,-7.120768228396912e-07,-6.8155931125524205e-06,3.1669962199346476e-05,0.0006956284420550895,-0.0004470786413641786,0.0011341867470166008,-0.00039750708644692965,-0.00017756030534555223,-0.001970591981391668,0.17287558317184448,11.925500869750977,-1.2909882068634033,-21.717256546020508,-0.3793235421180725,-2.5207552909851074,0.24112264811992645,0
25,0.12000679969787598,-0.12130087614059448,-11.949304580688477,1.3147919178009033,21.669649124145508,0.3857322335243225,2.5207552909851074,-0.17337362468242645,0.0,0.0,0.0,0.0,0.0,0.0,0.0,-0.15427647244524878,0.3782934860982557,0.12683246419047392,0.3842294371953167,-0.16094948655958788,0.12362745848613843,-0.2099526384440257,0.1728337313499862,-0.4874627294707716,-0.11145611329991499,-1.9464710222533028,0.1336100216487848,2.595551071855757,0.9452438468850322,0.1728802376190821,-0.48752024683155326,-0.11147110072896137,-1.9463801863486305,0.1336059019074957,2.595550359778934,0.9452445589611904,-0.0006094561199545992,-2.9730390672346034e-05,0.00037906882065448993,-0.00023756182098929883,-0.0006096957839390584,0.00014223560448522145,-0.0014372789494284494,0.0,0.0,0.0,0.0,0.0,0.0,0.0,4.650626909591393e-05,-5.751736078163372e-05,-1.4987429046375844e-05,9.083590467229286e-05,-4.119741289110301e-06,-7.120768228396912e-07,7.120761582601887e-07,0.0006094561199545992,2.9730390672346034e-05,-0.00037906882065448993,0.00023756182098929883,0.0006096957839390584,-0.00014223560448522145,0.0014372789494284494,0.12130087614059448,11.949304580688477,-1.3147919178009033,-21.669649124145508,-0.3857322335243225,-2.5207552909851074,0.17337362468242645,0
26,0.1250016689300537,-0.12130087614059448,-11.949304580688477,1.3147919178009033,21.669649124145508,0.3857322335243225,2.5207552909851074,-0.17337362468242645,0.0,0.0,0.0,0.0,0.0,0.0,0.0,-0.15427647244524878,0.3782934860982557,0.12683246419047392,0.3842294371953167,-0.16094948655958788,0.12362745848613843,-0.2099526384440257,0.1728337313499862,-0.4874627294707716,-0.11145611329991499,-1.9464710222533028,0.1336100216487848,2.595551071855757,0.9452438468850322,0.1728802376190821,-0.48752024683155326,-0.11147110072896137,-1.9463801863486305,0.1336059019074957,2.595550359778934,0.9452445589611904,-0.0006094561199545992,-2.9730390672346034e-05,0.00037906882065448993,-0.00023756182098929883,-0.0006096957839390584,0.00014223560448522145,-0.0014372789494284494,0.0,0.0,0.0,0.0,0.0,0.0,0.0,4.650626909591393e-05,-5.751736078163372e-05,-1.4987429046375844e-05,9.083590467229286e-05,-4.119741289110301e-06,-7.120768228396912e-07,7.120761582601887e-07,0.0006094561199545992,2.9730390672346034e-05,-0.00037906882065448993,0.00023756182098929883,0.0006096957839390584,-0.00014223560448522145,0.0014372789494284494,0.12130087614059448,11.949304580688477,-1.3147919178009033,-21.669649124145508,-0.3857322335243225,-2.5207552909851074,0.17337362468242645,0
27,0.12999606132507324,-0.12130087614059448,-11.949304580688477,1.3147919178009033,21.669649124145508,0.3857322335243225,2.5207552909851074,-0.17337362468242645,0.0,0.0,0.0,0.0,0.0,0.0,0.0,-0.15427647244524878,0.3782934860982557,0.12683246419047392,0.3842294371953167,-0.16094948655958788,0.12362745848613843,-0.2099526384440257,0.1728337313499862,-0.4874627294707716,-0.11145611329991499,-1.9464710222533028,0.1336100216487848,2.595551071855757,0.9452438468850322,0.1728802376190821,-0.48752024683155326,-0.11147110072896137,-1.9463801863486305,0.1336059019074957,2.595550359778934,0.9452445589611904,-0.0006094561199545992,-2.9730390672346034e-05,0.00037906882065448993,-0.00023756182098929883,-0.0006096957839390584,0.00014223560448522145,-0.0014372789494284494,0.0,0.0,0.0,0.0,0.0,0.0,0.0,4.650626909591393e-05,-5.751736078163372e-05,-1.4987429046375844e-05,9.083590467229286e-05,-4.119741289110301e-06,-7.120768228396912e-07,7.120761582601887e-07,0.0006094561199545992,2.9730390672346034e-05,-0.00037906882065448993,0.00023756182098929883,0.0006096957839390584,-0.00014223560448522145,0.0014372789494284494,0.12130087614059448,11.949304580688477,-1.3147919178009033,-21.669649124145508,-0.3857322335243225,-2.5207552909851074,0.17337362468242645,0
28,0.13499760627746582,-0.12130087614059448,-11.949304580688477,1.3147919178009033,21.669649124145508,0.3857322335243225,2.5207552909851074,-0.17337362468242645,0.0,0.0,0.0,0.0,0.0,0.0,0.0,-0.15427647244524878,0.3782934860982557,0.12683246419047392,0.3842294371953167,-0.16094948655958788,0.12362745848613843,-0.2099526384440257,0.1728337313499862,-0.4874627294707716,-0.11145611329991499,-1.9464710222533028,0.1336100216487848,2.595551071855757,0.9452438468850322,0.1728802376190821,-0.48752024683155326,-0.11147110072896137,-1.9463801863486305,0.1336059019074957,2.595550359778934,0.9452445589611904,-0.0006094561199545992,-2.9730390672346034e-05,0.00037906882065448993,-0.00023756182098929883,-0.0006096957839390584,0.00014223560448522145,-0.0014372789494284494,0.0,0.0,0.0,0.0,0.0,0.0,0.0,4.650626909591393e-05,-5.751736078163372e-05,-1.4987429046375844e-05,9.083590467229286e-05,-4.119741289110301e-06,-7.120768228396912e-07,7.120761582601887e-07,0.0006094561199545992,2.9730390672346034e-05,-0.00037906882065448993,0.00023756182098929883,0.0006096957839390584,-0.00014223560448522145,0.0014372789494284494,0.12130087614059448,11.949304580688477,-1.3147919178009033,-21.669649124145508,-0.3857322335243225,-2.5207552909851074,0.17337362468242645,0
29,0.1399979591369629,-0.17287558317184448,-11.973108291625977,1.3147919178009033,21.669649124145508,0.3738303780555725,2.5271639823913574,-0.17337362468242645,0.0,0.0,0.0,0.0,0.0,0.0,0.0,-0.15954961460380943,0.35267485324155157,0.11861411714914376,0.3977074747622595,-0.16056322033656467,0.12615883647721388,-0.21087784474538906,0.1728342505589299,-0.4874610590349163,-0.1114570615972202,-1.9464710193098802,0.13361134407917655,2.595550359778934,0.9452438468850322,0.1728802376190821,-0.48752024683155326,-0.11147110072896137,-1.9463801863486305,0.1336059019074957,2.595550359778934,0.9452445589611904,-4.9143076673686335e-05,-0.0004415338979391236,0.0001414048014221485,0.0005278416123025584,-5.230158495763163e-05,-4.60291881985353e-05,-0.00040051159211548337,0.0,0.0,0.0,0.0,0.0,0.0,0.0,4.598706015221388e-05,-5.918779663693918e-05,-1.4039131741166999e-05,9.08329612496761e-05,-5.442171680858365e-06,0.0,7.120761582601887e-07,4.9143076673686335e-05,0.0004415338979391236,-0.0001414048014221485,-0.0005278416123025584,5.230158495763163e-05,4.60291881985353e-05,0.00040051159211548337,0.17287558317184448,11.973108291625977,-1.3147919178009033,-21.669649124145508,-0.3738303780555725,-2.5271639823913574,0.17337362468242645,0
30,0.14541268348693848,-0.17287558317184448,-11.973108291625977,1.3147919178009033,21.669649124145508,0.3738303780555725,2.5271639823913574,-0.17337362468242645,0.0,0.0,0.0,0.0,0.0,0.0,0.0,-0.15954961460380943,0.35267485324155157,0.11861411714914376,0.3977074747622595,-0.16056322033656467,0.12615883647721388,-0.21087784474538906,0.1728342505589299,-0.4874610590349163,-0.1114570615972202,-1.9464710193098802,0.13361134407917655,2.595550359778934,0.9452438468850322,0.1728802376190821,-0.48752024683155326,-0.11147110072896137,-1.9463801863486305,0.1336059019074957,2.595550359778934,0.9452445589611904,-4.9143076673686335e-05,-0.0004415338979391236,0.0001414048014221485,0.0005278416123025584,-5.230158495763163e-05,-4.60291881985353e-05,-0.00040051159211548337,0.0,0.0,0.0,0.0,0.0,0.0,0.0,4.598706015221388e-05,-5.918779663693918e-05,-1.4039131741166999e-05,9.08329612496761e-05,-5.442171680858365e-06,0.0,7.120761582601887e-07,4.9143076673686335e-05,0.0004415338979391236,-0.0001414048014221485,-0.0005278416123025584,5.230158495763163e-05,4.60291881985353e-05,0.00040051159211548337,0.17287558317184448,11.973108291625977,-1.3147919178009033,-21.669649124145508,-0.3738303780555725,-2.5271639823913574,0.17337362468242645,0
31,0.14999985694885254,-0.17287558317184448,-11.973108291625977,1.3663666248321533,21.669649124145508,0.3674216866493225,2.5271639823913574,-0.17337362468242645,0.0,0.0,0.0,0.0,0.0,0.0,0.0,-0.15891177494211217,0.3648733329601486,0.11976426670326905,0.3894063014190539,-0.1608634884420341,0.12481449509960416,-0.20963663091209217,0.17283507312166468,-0.4874610590349163,-0.11145981170314082,-1.9464710193098638,0.13361205615599947,2.595550359778934,0.9452438468850322,0.1728802376190821,-0.48752024683155326,-0.11147110072896137,-1.9463801863486305,0.1336059019074957,2.595550359778934,0.9452445589611904,0.0005145914309456737,-1.8485268740637593e-05,-0.0015933025043823807,0.000450286488533064,0.00022106798000327244,-0.00025132088468447924,-0.0013068993657237846,0.0,0.0,0.0,0.0,0.0,0.0,0.0,4.516449741742701e-05,-5.918779663693918e-05,-1.128902582055169e-05,9.08329612332448e-05,-6.154248503781323e-06,0.0,7.120761582601887e-07,-0.0005145914309456737,1.8485268740637593e-05,0.0015933025043823807,-0.000450286488533064,-0.00022106798000327244,0.00025132088468447924,0.0013068993657237846,0.17287558317184448,11.973108291625977,-1.3663666248321533,-21.669649124145508,-0.3674216866493225,-2.5271639823913574,0.17337362468242645,0
32,0.15500664710998535,-0.17287558317184448,-11.973108291625977,1.3663666248321533,21.669649124145508,0.3674216866493225,2.5271639823913574,-0.17337362468242645,0.0,0.0,0.0,0.0,0.0,0.0,0.0,-0.15891177494211217,0.3648733329601486,0.11976426670326905,0.3894063014190539,-0.1608634884420341,0.12481449509960416,-0.20963663091209217,0.17283507312166468,-0.4874610590349163,-0.11145981170314082,-1.9464710193098638,0.13361205615599947,2.595550359778934,0.9452438468850322,0.1728802376190821,-0.48752024683155326,-0.11147110072896137,-1.9463801863486305,0.1336059019074957,2.595550359778934,0.9452445589611904,0.0005145914309456737,-1.8485268740637593e-05,-0.0015933025043823807,0.000450286488533064,0.00022106798000327244,-0.00025132088468447924,-0.0013068993657237846,0.0,0.0,0.0,0.0,0.0,0.0,0.0,4.516449741742701e-05,-5.918779663693918e-05,-1.128902582055169e-05,9.08329612332448e-05,-6.154248503781323e-06,0.0,7.120761582601887e-07,-0.0005145914309456737,1.8485268740637593e-05,0.0015933025043823807,-0.000450286488533064,-0.00022106798000327244,0.00025132088468447924,0.0013068993657237846,0.17287558317184448,11.973108291625977,-1.3663666248321533,-21.669649124145508,-0.3674216866493225,-2.5271639823913574,0.17337362468242645,0
33,0.16000080108642578,-0.19667929410934448,-11.973108291625977,1.3147919178009033,21.669649124145508,0.3793235421180725,2.5271639823913574,-0.20724813640117645,0.0,0.0,0.0,0.0,0.0,0.0,0.0,-0.1557456336714967,0.37681350433990213,0.12562579794721065,0.3810202579144851,-0.16096536488690696,0.12299735845816816,-0.21056990910443357,0.17283901818660455,-0.4874610590349163,-0.11145703391939524,-1.9464710193098638,0.13361073372761406,2.595550359778934,0.9452476107196676,0.1728802376190821,-0.48752024683155326,-0.11147110072896137,-1.9463801863486305,0.1336059019074957,2.595550359778934,0.9452445589611904,0.0010835643796742078,0.0003236196509738609,0.0004511406838709375,2.414995659954386e-05,-1.3378384086412169e-05,-0.0001406765353095432,0.00026577682619365197,0.0,0.0,0.0,0.0,0.0,0.0,0.0,4.121943247756277e-05,-5.918779663693918e-05,-1.406680956612949e-05,9.08329612332448e-05,-4.831820118372798e-06,0.0,-3.051758477146116e-06,-0.0010835643796742078,-0.0003236196509738609,-0.0004511406838709375,-2.414995659954386e-05,1.3378384086412169e-05,0.0001406765353095432,-0.00026577682619365197,0.19667929410934448,11.973108291625977,-1.3147919178009033,-21.669649124145508,-0.3793235421180725,-2.5271639823913574,0.20724813640117645,0
34,0.16541457176208496,-0.19667929410934448,-11.973108291625977,1.3147919178009033,21.669649124145508,0.3793235421180725,2.5271639823913574,-0.20724813640117645,0.0,0.0,0.0,0.0,0.0,0.0,0.0,-0.1557456336714967,0.37681350433990213,0.12562579794721065,0.3810202579144851,-0.16096536488690696,0.12299735845816816,-0.21056990910443357,0.17283901818660455,-0.4874610590349163,-0.11145703391939524,-1.9464710193098638,0.13361073372761406,2.595550359778934,0.9452476107196676,0.1728802376190821,-0.48752024683155326,-0.11147110072896137,-1.9463801863486305,0.1336059019074957,2.595550359778934,0.9452445589611904,0.0010835643796742078,0.0003236196509738609,0.0004511406838709375,2.414995659954386e-05,-1.3378384086412169e-05,-0.0001406765353095432,0.00026577682619365197,0.0,0.0,0.0,0.0,0.0,0.0,0.0,4.121943247756277e-05,-5.918779663693918e-05,-1.406680956612949e-05,9.08329612332448e-05,-4.831820118372798e-06,0.0,-3.051758477146116e-06,-0.0010835643796742078,-0.0003236196509738609,-0.0004511406838709375,-2.414995659954386e-05,1.3378384086412169e-05,0.0001406765353095432,-0.00026577682619365197,0.19667929410934448,11.973108291625977,-1.3147919178009033,-21.669649124145508,-0.3793235421180725,-2.5271639823913574,0.20724813640117645,0
35,0.17002058029174805,-0.17287558317184448,-11.925500869750977,1.2909882068634033,21.669649124145508,0.3738303780555725,2.5271639823913574,-0.15964071452617645,0.0,0.0,0.0,0.0,0.0,0.0,0.0,-0.16328585670716983,0.3774441055613262,0.12054934596272858,0.3789883909023846,-0.16005809169843388,0.12310916631154821,-0.21089536219038832,0.1728350458854178,-0.4874643999066269,-0.11145729273960361,-1.9464710193098638,0.13361134407917655,2.595550359778934,0.9452423210061258,0.1728802376190821,-0.48752024683155326,-0.11147110072896137,-1.9463801863486305,0.1336059019074957,2.595550359778934,0.9452445589611904,-0.0003307030593018844,-0.0005595298951328276,0.0009621453298252429,-0.0003301643525708646,-8.71080553433505e-06,6.0512522789372156e-06,-0.0017576678172606837,0.0,0.0,0.0,0.0,0.0,0.0,0.0,4.519173366432372e-05,-5.584692492638377e-05,-1.380798935775307e-05,9.08329612332448e-05,-5.442171680858365e-06,0.0,2.2379550645990065e-06,0.0003307030593018844,0.0005595298951328276,-0.0009621453298252429,0.0003301643525708646,8.71080553433505e-06,-6.0512522789372156e-06,0.0017576678172606837,0.17287558317184448,11.925500869750977,-1.2909882068634033,-21.669649124145508,-0.3738303780555725,-2.5271639823913574,0.15964071452617645,0
36,0.17499852180480957,-0.17287558317184448,-11.925500869750977,1.2909882068634033,21.669649124145508,0.3738303780555725,2.5271639823913574,-0.15964071452617645,0.0,0.0,0.0,0.0,0.0,0.0,0.0,-0.16328585670716983,0.3774441055613262,0.12054934596272858,0.3789883909023846,-0.16005809169843388,0.12310916631154821,-0.21089536219038832,0.1728350458854178,-0.4874643999066269,-0.11145729273960361,-1.9464710193098638,0.13361134407917655,2.595550359778934,0.9452423210061258,0.1728802376190821,-0.48752024683155326,-0.11147110072896137,-1.9463801863486305,0.1336059019074957,2.595550359778934,0.9452445589611904,-0.0003307030593018844,-0.0005595298951328276,0.0009621453298252429,-0.0003301643525708646,-8.71080553433505e-06,6.0512522789372156e-06,-0.0017576678172606837,0.0,0.0,0.0,0.0,0.0,0.0,0.0,4.519173366432372e-05,-5.584692492638377e-05,-1.380798935775307e-05,9.08329612332448e-05,-5.442171680858365e-06,0.0,2.2379550645990065e-06,0.0003307030593018844,0.0005595298951328276,-0.0009621453298252429,0.0003301643525708646,8.71080553433505e-06,-6.0512522789372156e-06,0.0017576678172606837,0.17287558317184448,11.925500869750977,-1.2909882068634033,-21.669649124145508,-0.3738303780555725,-2.5271639823913574,0.15964071452617645,0
37,0.18000006675720215,-0.17287558317184448,-11.901697158813477,1.3147919178009033,21.693452835083008,0.3738303780555725,2.5271639823913574,-0.17337362468242645,0.0,0.0,0.0,0.0,0.0,0.0,0.0,-0.16448740077360394,0.37475707213442744,0.12415700529639447,0.38296014299118936,-0.16031241470502397,0.12442257936270584,-0.20983610187371202,0.17283530325276764,-0.4874660703424821,-0.11145714208598803,-1.946472689745719,0.13361134407917655,2.595550359778934,0.9452437291474622,0.1728802376190821,-0.48752024683155326,-0.11147110072896137,-1.9463801863486305,0.1336059019074957,2.595550359778934,0.9452445589611904,0.00021530630127016972,-0.0005945117196187223,-0.00010182979252704039,-0.0003580610474280466,8.180844384030875e-07,-0.00023056001371841742,-0.0010876096198437944,0.0,0.0,0.0,0.0,0.0,0.0,0.0,4.493436631447523e-05,-5.4176489071133815e-05,-1.3958642973335711e-05,9.250339708843924e-05,-5.442171680858365e-06,0.0,8.29813728175921e-07,-0.00021530630127016972,0.0005945117196187223,0.00010182979252704039,0.0003580610474280466,-8.180844384030875e-07,0.00023056001371841742,0.0010876096198437944,0.17287558317184448,11.901697158813477,-1.3147919178009033,-21.693452835083008,-0.3738303780555725,-2.5271639823913574,0.17337362468242645,0
38,0.18500971794128418,-0.17287558317184448,-11.901697158813477,1.3147919178009033,21.693452835083008,0.3738303780555725,2.5271639823913574,-0.17337362468242645,0.0,0.0,0.0,0.0,0.0,0.0,0.0,-0.16448740077360394,0.37475707213442744,0.12415700529639447,0.38296014299118936,-0.16031241470502397,0.12442257936270584,-0.20983610187371202,0.17283530325276764,-0.4874660703424821,-0.11145714208598803,-1.946472689745719,0.13361134407917655,2.595550359778934,0.9452437291474622,0.1728802376190821,-0.48752024683155326,-0.11147110072896137,-1.9463801863486305,0.1336059019074957,2.595550359778934,0.9452445589611904,0.00021530630127016972,-0.0005945117196187223,-0.00010182979252704039,-0.0003580610474280466,8.180844384030875e-07,-0.00023056001371841742,-0.0010876096198437944,0.0,0.0,0.0,0.0,0.0,0.0,0.0,4.493436631447523e-05,-5.4176489071133815e-05,-1.3958642973335711e-05,9.250339708843924e-05,-5.442171680858365e-06,0.0,8.29813728175921e-07,-0.00021530630127016972,0.0005945117196187223,0.00010182979252704039,0.0003580610474280466,-8.180844384030875e-07,0.00023056001371841742,0.0010876096198437944,0.17287558317184448,11.901697158813477,-1.3147919178009033,-21.693452835083008,-0.3738303780555725,-2.5271639823913574,0.17337362468242645,0
39,0.19001173973083496,-0.19667929410934448,-11.925500869750977,1.2671844959259033,21.641878128051758,0.3738303780555725,2.5207552909851074,-0.22098104655742645,0.0,0.0,0.0,0.0,0.0,0.0,0.0,-0.16824443850590348,0.3708101645921825,0.11979591573035266,0.38589045363546826,-0.15983026665473282,0.1245870358988993,-0.20930300098125418,0.1728366557297819,-0.4874643999066269,-0.11145583666951069,-1.9464690704680325,0.13361134407917655,2.595551071855757,0.9452491365965799,0.1728802376190821,-0.48752024683155326,-0.11147110072896137,-1.9463801863486305,0.1336059019074957,2.595550359778934,0.9452445589611904,0.0006583972669308651,-0.0006040388106683048,0.0006299458511470496,0.0007505726952439125,0.00023828789558610298,0.0001067403006112905,0.0008363780022833925,0.0,0.0,0.0,0.0,0.0,0.0,0.0,4.358188930020379e-05,-5.584692492638377e-05,-1.5264059450681433e-05,8.888411940199958e-05,-5.442171680858365e-06,-7.120768228396912e-07,-4.5776353895243815e-06,-0.0006583972669308651,0.0006040388106683048,-0.0006299458511470496,-0.0007505726952439125,-0.00023828789558610298,-0.0001067403006112905,-0.0008363780022833925,0.19667929410934448,11.925500869750977,-1.2671844959259033,-21.641878128051758,-0.3738303780555725,-2.5207552909851074,0.22098104655742645,0
40,0.1964249610900879,-0.09352988004684448,-11.925500869750977,1.3147919178009033,21.669649124145508,0.3674216866493225,2.5207552909851074,-0.14590780436992645,0.0,0.0,0.0,0.0,0.0,0.0,0.0,-0.16246637061918676,0.37374633277758995,0.12784983547464324,0.38564572842563405,-0.1598377170562423,0.12402339653197451,-0.20899433193709854,0.1728311341580555,-0.4874643999066269,-0.11145856987836623,-1.9464710193098638,0.13361205615599947,2.595551071855757,0.9452407951272196,0.1728802376190821,-0.48752024683155326,-0.11147110072896137,-1.9463801863486305,0.1336059019074957,2.595550359778934,0.9452445589611904,-0.001279133962240964,-0.0007685049450700819,0.00018442282126972153,1.1037650755484243e-05,0.00022963611732209079,2.9164661529502744e-05,-0.001971134082986251,0.0,0.0,0.0,0.0,0.0,0.0,0.0,4.910346102660057e-05,-5.584692492638377e-05,-1.2530850595132703e-05,9.08329612332448e-05,-6.154248503781323e-06,-7.120768228396912e-07,3.763833970826802e-06,0.001279133962240964,0.0007685049450700819,-0.00018442282126972153,-1.1037650755484243e-05,-0.00022963611732209079,-2.9164661529502744e-05,0.001971134082986251,0.09352988004684448,11.925500869750977,-1.3147919178009033,-21.669649124145508,-0.3674216866493225,-2.5207552909851074,0.14590780436992645,0
41,0.20001554489135742,-0.09352988004684448,-11.925500869750977,1.3147919178009033,21.669649124145508,0.3674216866493225,2.5207552909851074,-0.14590780436992645,0.0,0.0,0.0,0.0,0.0,0.0,0.0,-0.16246637061918676,0.37374633277758995,0.12784983547464324,0.38564572842563405,-0.1598377170562423,0.12402339653197451,-0.20899433193709854,0.1728311341580555,-0.4874643999066269,-0.11145856987836623,-1.9464710193098638,0.13361205615599947,2.595551071855757,0.9452407951272196,0.1728802376190821,-0.48752024683155326,-0.11147110072896137,-1.9463801863486305,0.1336059019074957,2.595550359778934,0.9452445589611904,-0.001279133962240964,-0.0007685049450700819,0.00018442282126972153,1.1037650755484243e-05,0.00022963611732209079,2.9164661529502744e-05,-0.001971134082986251,0.0,0.0,0.0,0.0,0.0,0.0,0.0,4.910346102660057e-05,-5.584692492638377e-05,-1.2530850595132703e-05,9.08329612332448e-05,-6.154248503781323e-06,-7.120768228396912e-07,3.763833970826802e-06,0.001279133962240964,0.0007685049450700819,-0.00018442282126972153,-1.1037650755484243e-05,-0.00022963611732209079,-2.9164661529502744e-05,0.001971134082986251,0.09352988004684448,11.925500869750977,-1.3147919178009033,-21.669649124145508,-0.3674216866493225,-2.5207552909851074,0.14590780436992645,0
42,0.205003023147583,-0.09352988004684448,-11.925500869750977,1.3147919178009033,21.669649124145508,0.3674216866493225,2.5207552909851074,-0.14590780436992645,0.0,0.0,0.0,0.0,0.0,0.0,0.0,-0.16246637061918676,0.37374633277758995,0.12784983547464324,0.38564572842563405,-0.1598377170562423,0.12402339653197451,-0.20899433193709854,0.1728311341580555,-0.4874643999066269,-0.11145856987836623,-1.9464710193098638,0.13361205615599947,2.595551071855757,0.9452407951272196,0.1728802376190821,-0.48752024683155326,-0.11147110072896137,-1.9463801863486305,0.1336059019074957,2.595550359778934,0.9452445589611904,-0.001279133962240964,-0.0007685049450700819,0.00018442282126972153,1.1037650755484243e-05,0.00022963611732209079,2.9164661529502744e-05,-0.001971134082986251,0.0,0.0,0.0,0.0,0.0,0.0,0.0,4.910346102660057e-05,-5.584692492638377e-05,-1.2530850595132703e-05,9.08329612332448e-05,-6.154248503781323e-06,-7.120768228396912e-07,3.763833970826802e-06,0.001279133962240964,0.0007685049450700819,-0.00018442282126972153,-1.1037650755484243e-05,-0.00022963611732209079,-2.9164661529502744e-05,0.001971134082986251,0.09352988004684448,11.925500869750977,-1.3147919178009033,-21.669649124145508,-0.3674216866493225,-2.5207552909851074,0.14590780436992645,0
43,0.20995354652404785,-0.09352988004684448,-11.949304580688477,1.3425629138946533,21.693452835083008,0.3738303780555725,2.5271639823913574,-0.17337362468242645,0.0,0.0,0.0,0.0,0.0,0.0,0.0,-0.16278706718238617,0.37362027323670766,0.12108823868796381,0.3851639866363767,-0.1597206412439289,0.12383990295187569,-0.2091712380599054,0.17283104638186564,-0.4874627294707716,-0.11145883409866403,-1.946472689745719,0.13361134407917655,2.595550359778934,0.9452438468850322,0.1728802376190821,-0.48752024683155326,-0.11147110072896137,-1.9463801863486305,0.1336059019074957,2.595550359778934,0.9452445589611904,-0.001362886761585349,-0.0003312187447033483,-0.0006233466148311862,-0.00030449125060896077,9.824660857268649e-05,-4.535871392744017e-05,-0.0009921198494201827,0.0,0.0,0.0,0.0,0.0,0.0,0.0,4.919123721647267e-05,-5.751736078163372e-05,-1.2266630297338987e-05,9.250339708843924e-05,-5.442171680858365e-06,0.0,7.120761582601887e-07,0.001362886761585349,0.0003312187447033483,0.0006233466148311862,0.00030449125060896077,-9.824660857268649e-05,4.535871392744017e-05,0.0009921198494201827,0.09352988004684448,11.949304580688477,-1.3425629138946533,-21.693452835083008,-0.3738303780555725,-2.5271639823913574,0.17337362468242645,0
44,0.2149980068206787,-0.09352988004684448,-11.949304580688477,1.3425629138946533,21.693452835083008,0.3738303780555725,2.5271639823913574,-0.17337362468242645,0.0,0.0,0.0,0.0,0.0,0.0,0.0,-0.16278706718238617,0.37362027323670766,0.12108823868796381,0.3851639866363767,-0.1597206412439289,0.12383990295187569,-0.2091712380599054,0.17283104638186564,-0.4874627294707716,-0.11145883409866403,-1.946472689745719,0.13361134407917655,2.595550359778934,0.9452438468850322,0.1728802376190821,-0.48752024683155326,-0.11147110072896137,-1.9463801863486305,0.1336059019074957,2.595550359778934,0.9452445589611904,-0.001362886761585349,-0.0003312187447033483,-0.0006233466148311862,-0.00030449125060896077,9.824660857268649e-05,-4.535871392744017e-05,-0.0009921198494201827,0.0,0.0,0.0,0.0,0.0,0.0,0.0,4.919123721647267e-05,-5.751736078163372e-05,-1.2266630297338987e-05,9.250339708843924e-05,-5.442171680858365e-06,0.0,7.120761582601887e-07,0.001362886761585349,0.0003312187447033483,0.0006233466148311862,0.00030449125060896077,-9.824660857268649e-05,4.535871392744017e-05,0.0009921198494201827,0.09352988004684448,11.949304580688477,-1.3425629138946533,-21.693452835083008,-0.3738303780555725,-2.5271639823913574,0.17337362468242645,0
45,0.22000575065612793,-0.14510458707809448,-11.925500869750977,1.3425629138946533,21.669649124145508,0.3674216866493225,2.5271639823913574,-0.20083944499492645,0.0,0.0,0.0,0.0,0.0,0.0,0.0,-0.16001446505530728,0.3767022707402484,0.12089566360487045,0.383120329684199,-0.15970801406191584,0.12375649043427907,-0.20878811651831986,0.17283442945115704,-0.4874643999066269,-0.11145835135832755,-1.9464710193098638,0.1336120561740567,2.595550359778934,0.9452468986428446,0.1728802376190821,-0.48752024683155326,-0.11147110072896137,-1.9463801863486305,0.1336059019074957,2.595550359778934,0.9452445589611904,-0.00025313042210738064,-0.0008929672559947529,-0.000587857470395238,0.0003651364328004186,0.00025751482450469957,-0.00017497048432853028,-1.5562001563438807e-06,0.0,0.0,0.0,0.0,0.0,0.0,0.0,4.580816792507103e-05,-5.584692492638377e-05,-1.2749370633821644e-05,9.08329612332448e-05,-6.154266561003707e-06,0.0,-2.3396816541954024e-06,0.00025313042210738064,0.0008929672559947529,0.000587857470395238,-0.0003651364328004186,-0.00025751482450469957,0.00017497048432853028,1.5562001563438807e-06,0.14510458707809448,11.925500869750977,-1.3425629138946533,-21.669649124145508,-0.3674216866493225,-2.5271639823913574,0.20083944499492645,0
46,0.22499775886535645,-0.14510458707809448,-11.925500869750977,1.3425629138946533,21.669649124145508,0.3674216866493225,2.5271639823913574,-0.20083944499492645,0.0,0.0,0.0,0.0,0.0,0.0,0.0,-0.16001446505530728,0.3767022707402484,0.12089566360487045,0.383120329684199,-0.15970801406191584,0.12375649043427907,-0.20878811651831986,0.17283442945115704,-0.4874643999066269,-0.11145835135832755,-1.9464710193098638,0.1336120561740567,2.595550359778934,0.9452468986428446,0.1728802376190821,-0.48752024683155326,-0.11147110072896137,-1.9463801863486305,0.1336059019074957,2.595550359778934,0.9452445589611904,-0.00025313042210738064,-0.0008929672559947529,-0.000587857470395238,0.0003651364328004186,0.00025751482450469957,-0.00017497048432853028,-1.5562001563438807e-06,0.0,0.0,0.0,0.0,0.0,0.0,0.0,4.580816792507103e-05,-5.584692492638377e-05,-1.2749370633821644e-05,9.08329612332448e-05,-6.154266561003707e-06,0.0,-2.3396816541954024e-06,0.00025313042210738064,0.0008929672559947529,0.000587857470395238,-0.0003651364328004186,-0.00025751482450469957,0.00017497048432853028,1.5562001563438807e-06,0.14510458707809448,11.925500869750977,-1.3425629138946533,-21.669649124145508,-0.3674216866493225,-2.5271639823913574,0.20083944499492645,0
47,0.2299957275390625,-0.14510458707809448,-11.925500869750977,1.3425629138946533,21.669649124145508,0.3674216866493225,2.5271639823913574,-0.20083944499492645,0.0,0.0,0.0,0.0,0.0,0.0,0.0,-0.16001446505530728,0.3767022707402484,0.12089566360487045,0.383120329684199,-0.15970801406191584,0.12375649043427907,-0.20878811651831986,0.17283442945115704,-0.4874643999066269,-0.11145835135832755,-1.9464710193098638,0.1336120561740567,2.595550359778934,0.9452468986428446,0.1728802376190821,-0.48752024683155326,-0.11147110072896137,-1.9463801863486305,0.1336059019074957,2.595550359778934,0.9452445589611904,-0.00025313042210738064,-0.0008929672559947529,-0.000587857470395238,0.0003651364328004186,0.00025751482450469957,-0.00017497048432853028,-1.5562001563438807e-06,0.0,0.0,0.0,0.0,0.0,0.0,0.0,4.580816792507103e-05,-5.584692492638377e-05,-1.2749370633821644e-05,9.08329612332448e-05,-6.154266561003707e-06,0.0,-2.3396816541954024e-06,0.00025313042210738064,0.0008929672559947529,0.000587857470395238,-0.0003651364328004186,-0.00025751482450469957,0.00017497048432853028,1.5562001563438807e-06,0.14510458707809448,11.925500869750977,-1.3425629138946533,-21.669649124145508,-0.3674216866493225,-2.5271639823913574,0.20083944499492645,0
48,0.23499727249145508,-0.14510458707809448,-11.925500869750977,1.3425629138946533,21.669649124145508,0.3674216866493225,2.5271639823913574,-0.20083944499492645,0.0,0.0,0.0,0.0,0.0,0.0,0.0,-0.16001446505530728,0.3767022707402484,0.12089566360487045,0.383120329684199,-0.15970801406191584,0.12375649043427907,-0.20878811651831986,0.17283442945115704,-0.4874643999066269,-0.11145835135832755,-1.9464710193098638,0.1336120561740567,2.595550359778934,0.9452468986428446,0.1728802376190821,-0.48752024683155326,-0.11147110072896137,-1.9463801863486305,0.1336059019074957,2.595550359778934,0.9452445589611904,-0.00025313042210738064,-0.0008929672559947529,-0.000587857470395238,0.0003651364328004186,0.00025751482450469957,-0.00017497048432853028,-1.5562001563438807e-06,0.0,0.0,0.0,0.0,0.0,0.0,0.0,4.580816792507103e-05,-5.584692492638377e-05,-1.2749370633821644e-05,9.08329612332448e-05,-6.154266561003707e-06,0.0,-2.3396816541954024e-06,0.00025313042210738064,0.0008929672559947529,0.000587857470395238,-0.0003651364328004186,-0.00025751482450469957,0.00017497048432853028,1.5562001563438807e-06,0.14510458707809448,11.925500869750977,-1.3425629138946533,-21.669649124145508,-0.3674216866493225,-2.5271639823913574,0.20083944499492645,0
49,0.24003267288208008,-0.17287558317184448,-11.925500869750977,1.3147919178009033,21.669649124145508,0.3674216866493225,2.5271639823913574,-0.17978231608867645,0.0,0.0,0.0,0.0,0.0,0.0,0.0,-0.16164265464149505,0.3724614266056587,0.11872678740322143,0.38492809362351155,-0.15952175708349275,0.12395078557714563,-0.20830943678994512,0.17283506319704484,-0.4874643999066269,-0.11145711284154605,-1.9464710193098638,0.13361205664354456,2.595550359778934,0.9452445594584846,0.1728802376190821,-0.48752024683155326,-0.11147110072896137,-1.9463801863486305,0.1336059019074957,2.595550359778934,0.9452445589611904,-5.157720138489676e-05,-0.001182670719028812,-4.0365819032251685e-05,-6.413425065300223e-05,0.00038617633414628953,9.22269398579838e-05,-0.0009655623937676254,0.0,0.0,0.0,0.0,0.0,0.0,0.0,4.5174422037275175e-05,-5.584692492638377e-05,-1.398788741531487e-05,9.08329612332448e-05,-6.154736048868958e-06,0.0,-4.972942058145691e-10,5.157720138489676e-05,0.001182670719028812,4.0365819032251685e-05,6.413425065300223e-05,-0.00038617633414628953,-9.22269398579838e-05,0.0009655623937676254,0.17287558317184448,11.925500869750977,-1.3147919178009033,-21.669649124145508,-0.3674216866493225,-2.5271639823913574,0.17978231608867645,0
50,0.2450263500213623,-0.17287558317184448,-11.925500869750977,1.3147919178009033,21.669649124145508,0.3674216866493225,2.5271639823913574,-0.17978231608867645,0.0,0.0,0.0,0.0,0.0,0.0,0.0,-0.16164265464149505,0.3724614266056587,0.11872678740322143,0.38492809362351155,-0.15952175708349275,0.12395078557714563,-0.20830943678994512,0.17283506319704484,-0.4874643999066269,-0.11145711284154605,-1.9464710193098638,0.13361205664354456,2.595550359778934,0.9452445594584846,0.1728802376190821,-0.48752024683155326,-0.11147110072896137,-1.9463801863486305,0.1336059019074957,2.595550359778934,0.9452445589611904,-5.157720138489676e-05,-0.001182670719028812,-4.0365819032251685e-05,-6.413425065300223e-05,0.00038617633414628953,9.22269398579838e-05,-0.0009655623937676254,0.0,0.0,0.0,0.0,0.0,0.0,0.0,4.5174422037275175e-05,-5.584692492638377e-05,-1.398788741531487e-05,9.08329612332448e-05,-6.154736048868958e-06,0.0,-4.972942058145691e-10,5.157720138489676e-05,0.001182670719028812,4.0365819032251685e-05,6.413425065300223e-05,-0.00038617633414628953,-9.22269398579838e-05,0.0009655623937676254,0.17287558317184448,11.925500869750977,-1.3147919178009033,-21.669649124145508,-0.3674216866493225,-2.5271639823913574,0.17978231608867645,0
51,0.25000715255737305,-0.17287558317184448,-11.949304580688477,1.3147919178009033,21.669649124145508,0.3674216866493225,2.5207552909851074,-0.16604940593242645,0.0,0.0,0.0,0.0,0.0,0.0,0.0,-0.15847704595728274,0.3823963299290805,0.12425076362895456,0.38220285393975584,-0.15963874648822904,0.1239759474286049,-0.20884742925676525,0.17283519438195194,-0.4874627294707716,-0.1114585373924274,-1.9464710193098638,0.13361205615600225,2.595551071855757,0.9452430330829515,0.1728802376190821,-0.48752024683155326,-0.11147110072896137,-1.9463801863486305,0.1336059019074957,2.595550359778934,0.9452445589611904,0.0004463868532731125,0.00016928765632581014,-6.234409433755517e-05,0.0003249872637019984,0.00023404829561153267,0.00016152842253518021,-0.001653586517923019,0.0,0.0,0.0,0.0,0.0,0.0,0.0,4.504323713017122e-05,-5.751736078163372e-05,-1.2563336533960578e-05,9.08329612332448e-05,-6.154248506556881e-06,-7.120768228396912e-07,1.5258782388727354e-06,-0.0004463868532731125,-0.00016928765632581014,6.234409433755517e-05,-0.0003249872637019984,-0.00023404829561153267,-0.00016152842253518021,0.001653586517923019,0.17287558317184448,11.949304580688477,-1.3147919178009033,-21.669649124145508,-0.3674216866493225,-2.5207552909851074,0.16604940593242645,0
52,0.25501251220703125,-0.17287558317184448,-11.949304580688477,1.3147919178009033,21.669649124145508,0.3674216866493225,2.5207552909851074,-0.16604940593242645,0.0,0.0,0.0,0.0,0.0,0.0,0.0,-0.15847704595728274,0.3823963299290805,0.12425076362895456,0.38220285393975584,-0.15963874648822904,0.1239759474286049,-0.20884742925676525,0.17283519438195194,-0.4874627294707716,-0.1114585373924274,-1.9464710193098638,0.13361205615600225,2.595551071855757,0.9452430330829515,0.1728802376190821,-0.48752024683155326,-0.11147110072896137,-1.9463801863486305,0.1336059019074957,2.595550359778934,0.9452445589611904,0.0004463868532731125,0.00016928765632581014,-6.234409433755517e-05,0.0003249872637019984,0.00023404829561153267,0.00016152842253518021,-0.001653586517923019,0.0,0.0,0.0,0.0,0.0,0.0,0.0,4.504323713017122e-05,-5.751736078163372e-05,-1.2563336533960578e-05,9.08329612332448e-05,-6.154248506556881e-06,-7.120768228396912e-07,1.5258782388727354e-06,-0.0004463868532731125,-0.00016928765632581014,6.234409433755517e-05,-0.0003249872637019984,-0.00023404829561153267,-0.00016152842253518021,0.001653586517923019,0.17287558317184448,11.949304580688477,-1.3147919178009033,-21.669649124145508,-0.3674216866493225,-2.5207552909851074,0.16604940593242645,0
53,0.25995922088623047,-0.17287558317184448,-11.949304580688477,1.3663666248321533,21.741060256958008,0.3738303780555725,2.5143465995788574,-0.21457235515117645,0.0,0.0,0.0,0.0,0.0,0.0,0.0,-0.15936129704905194,0.3723593994586693,0.12290903537852854,0.39117710675970074,-0.15967935363859528,0.12486189004077443,-0.2094663057329144,0.1728349886656292,-0.4874627294707716,-0.11146263056480854,-1.9464760306174296,0.13361134407917657,2.5955517839325797,0.9452484245217508,0.1728802376190821,-0.48752024683155326,-0.11147110072896137,-1.9463801863486305,0.1336059019074957,2.595550359778934,0.9452445589611904,0.0003710220383289505,0.0001288426334545678,-0.0015025118749064448,-0.0012772903200675375,-4.82702060042535e-05,0.00048454431038369016,0.0008030034072828752,0.0,0.0,0.0,0.0,0.0,0.0,0.0,4.52489534528977e-05,-5.751736078163372e-05,-8.470164152826754e-06,9.584426879905017e-05,-5.442171680886121e-06,-1.4241536456793824e-06,-3.865560560423198e-06,-0.0003710220383289505,-0.0001288426334545678,0.0015025118749064448,0.0012772903200675375,4.82702060042535e-05,-0.00048454431038369016,-0.0008030034072828752,0.17287558317184448,11.949304580688477,-1.3663666248321533,-21.741060256958008,-0.3738303780555725,-2.5143465995788574,0.21457235515117645,0
54,0.2649962902069092,-0.17287558317184448,-11.949304580688477,1.3663666248321533,21.741060256958008,0.3738303780555725,2.5143465995788574,-0.21457235515117645,0.0,0.0,0.0,0.0,0.0,0.0,0.0,-0.15936129704905194,0.3723593994586693,0.12290903537852854,0.39117710675970074,-0.15967935363859528,0.12486189004077443,-0.2094663057329144,0.1728349886656292,-0.4874627294707716,-0.11146263056480854,-1.9464760306174296,0.13361134407917657,2.5955517839325797,0.9452484245217508,0.1728802376190821,-0.48752024683155326,-0.11147110072896137,-1.9463801863486305,0.1336059019074957,2.595550359778934,0.9452445589611904,0.0003710220383289505,0.0001288426334545678,-0.0015025118749064448,-0.0012772903200675375,-4.82702060042535e-05,0.00048454431038369016,0.0008030034072828752,0.0,0.0,0.0,0.0,0.0,0.0,0.0,4.52489534528977e-05,-5.751736078163372e-05,-8.470164152826754e-06,9.584426879905017e-05,-5.442171680886121e-06,-1.4241536456793824e-06,-3.865560560423198e-06,-0.0003710220383289505,-0.0001288426334545678,0.0015025118749064448,0.0012772903200675375,4.82702060042535e-05,-0.00048454431038369016,-0.0008030034072828752,0.17287558317184448,11.949304580688477,-1.3663666248321533,-21.741060256958008,-0.3738303780555725,-2.5143465995788574,0.21457235515117645,0
55,0.2700002193450928,-0.17287558317184448,-12.000879287719727,1.3147919178009033,21.669649124145508,0.3674216866493225,2.5207552909851074,-0.15231649577617645,0.0,0.0,0.0,0.0,0.0,0.0,0.0,-0.1633730791168042,0.37176647272053126,0.11859299601081336,0.39173262290367633,-0.15968180740132354,0.12506844063135217,-0.20916342269525154,0.17283436319675002,-0.4874591101930852,-0.11145832304990635,-1.9464710193098638,0.1336120561559995,2.595551071855757,0.9452415072040425,0.1728802376190821,-0.48752024683155326,-0.11147110072896137,-1.9463801863486305,0.1336059019074957,2.595550359778934,0.9452445589611904,-0.00015915174816862195,0.0007550183414075401,0.0003435637842818217,0.0002808593264966677,8.950435110993717e-05,0.000244568645211258,-0.0018790615579402233,0.0,0.0,0.0,0.0,0.0,0.0,0.0,4.587442233208727e-05,-6.113663846807338e-05,-1.2777679055012148e-05,9.08329612332448e-05,-6.154248503809079e-06,-7.120768228396912e-07,3.0517571478760885e-06,0.00015915174816862195,-0.0007550183414075401,-0.0003435637842818217,-0.0002808593264966677,-8.950435110993717e-05,-0.000244568645211258,0.0018790615579402233,0.17287558317184448,12.000879287719727,-1.3147919178009033,-21.669649124145508,-0.3674216866493225,-2.5207552909851074,0.15231649577617645,0
56,0.2749977111816406,-0.17287558317184448,-12.000879287719727,1.3147919178009033,21.669649124145508,0.3674216866493225,2.5207552909851074,-0.15231649577617645,0.0,0.0,0.0,0.0,0.0,0.0,0.0,-0.1633730791168042,0.37176647272053126,0.11859299601081336,0.39173262290367633,-0.15968180740132354,0.12506844063135217,-0.20916342269525154,0.17283436319675002,-0.4874591101930852,-0.11145832304990635,-1.9464710193098638,0.1336120561559995,2.595551071855757,0.9452415072040425,0.1728802376190821,-0.48752024683155326,-0.11147110072896137,-1.9463801863486305,0.1336059019074957,2.595550359778934,0.9452445589611904,-0.00015915174816862195,0.0007550183414075401,0.0003435637842818217,0.0002808593264966677,8.950435110993717e-05,0.000244568645211258,-0.0018790615579402233,0.0,0.0,0.0,0.0,0.0,0.0,0.0,4.587442233208727e-05,-6.113663846807338e-05,-1.2777679055012148e-05,9.08329612332448e-05,-6.154248503809079e-06,-7.120768228396912e-07,3.0517571478760885e-06,0.00015915174816862195,-0.0007550183414075401,-0.0003435637842818217,-0.0002808593264966677,-8.950435110993717e-05,-0.000244568645211258,0.0018790615579402233,0.17287558317184448,12.000879287719727,-1.3147919178009033,-21.669649124145508,-0.3674216866493225,-2.5207552909851074,0.15231649577617645,0
57,0.28002047538757324,-0.14510458707809448,-11.925500869750977,1.3147919178009033,21.641878128051758,0.3674216866493225,2.5335726737976074,-0.21457235515117645,0.0,0.0,0.0,0.0,0.0,0.0,0.0,-0.16148923257875183,0.3817157864371972,0.1251914124065841,0.3853304567190235,-0.16067774340829233,0.12404141651556645,-0.20892131275295314,0.17283548052166525,-0.4874643999066269,-0.11145822749283742,-1.9464690704680325,0.1336120561559995,2.595549647702111,0.9452483852758942,0.1728802376190821,-0.48752024683155326,-0.11147110072896137,-1.9463801863486305,0.1336059019074957,2.595550359778934,0.9452445589611904,-0.0007069020013962797,-0.0005153434128481888,0.00038258517816903173,0.0008075000175067362,0.0001523536804821711,-0.00040919176328055095,0.0007883918693429746,0.0,0.0,0.0,0.0,0.0,0.0,0.0,4.475709741685874e-05,-5.584692492638377e-05,-1.2873236123950305e-05,8.888411940199958e-05,-6.154248503809079e-06,7.120768228396912e-07,-3.826314703747613e-06,0.0007069020013962797,0.0005153434128481888,-0.00038258517816903173,-0.0008075000175067362,-0.0001523536804821711,0.00040919176328055095,-0.0007883918693429746,0.14510458707809448,11.925500869750977,-1.3147919178009033,-21.641878128051758,-0.3674216866493225,-2.5335726737976074,0.21457235515117645,0
58,0.28500914573669434,-0.14510458707809448,-11.925500869750977,1.3147919178009033,21.641878128051758,0.3674216866493225,2.5335726737976074,-0.21457235515117645,0.0,0.0,0.0,0.0,0.0,0.0,0.0,-0.16148923257875183,0.3817157864371972,0.1251914124065841,0.3853304567190235,-0.16067774340829233,0.12404141651556645,-0.20892131275295314,0.17283548052166525,-0.4874643999066269,-0.11145822749283742,-1.9464690704680325,0.1336120561559995,2.595549647702111,0.9452483852758942,0.1728802376190821,-0.48752024683155326,-0.11147110072896137,-1.9463801863486305,0.1336059019074957,2.595550359778934,0.9452445589611904,-0.0007069020013962797,-0.0005153434128481888,0.00038258517816903173,0.0008075000175067362,0.0001523536804821711,-0.00040919176328055095,0.0007883918693429746,0.0,0.0,0.0,0.0,0.0,0.0,0.0,4.475709741685874e-05,-5.584692492638377e-05,-1.2873236123950305e-05,8.888411940199958e-05,-6.154248503809079e-06,7.120768228396912e-07,-3.826314703747613e-06,0.0007069020013962797,0.0005153434128481888,-0.00038258517816903173,-0.0008075000175067362,-0.0001523536804821711,0.00040919176328055095,-0.0007883918693429746,0.14510458707809448,11.925500869750977,-1.3147919178009033,-21.641878128051758,-0.3674216866493225,-2.5335726737976074,0.21457235515117645,0
59,0.29000186920166016,-0.14510458707809448,-11.873926162719727,1.3147919178009033,21.641878128051758,0.3793235421180725,2.5335726737976074,-0.17337362468242645,0.0,0.0,0.0,0.0,0.0,0.0,0.0,-0.1625028962805299,0.3839168340867054,0.1251392264655097,0.3876819773864891,-0.16064813875728087,0.12432636305430539,-0.2088784766169838,0.17283545119753876,-0.48746801918431326,-0.11145892908054515,-1.9464690705770487,0.1336107337276141,2.595549647702111,0.9452438468848107,0.1728802376190821,-0.48752024683155326,-0.11147110072896137,-1.9463801863486305,0.1336059019074957,2.595550359778934,0.9452445589611904,-0.0004179383528330714,-0.001039217527634683,0.0004030383474543854,0.0014245749379396416,-0.00022512742132580106,-0.0002764660425363577,-0.0007799364873994842,0.0,0.0,0.0,0.0,0.0,0.0,0.0,4.478642154334689e-05,-5.222764723999962e-05,-1.2171648416214875e-05,8.888422841812904e-05,-4.831820118400554e-06,7.120768228396912e-07,7.120763797496821e-07,0.0004179383528330714,0.001039217527634683,-0.0004030383474543854,-0.0014245749379396416,0.00022512742132580106,0.0002764660425363577,0.0007799364873994842,0.14510458707809448,11.873926162719727,-1.3147919178009033,-21.641878128051758,-0.3793235421180725,-2.5335726737976074,0.17337362468242645,0
60,0.29500603675842285,-0.14510458707809448,-11.873926162719727,1.3147919178009033,21.641878128051758,0.3793235421180725,2.5335726737976074,-0.17337362468242645,0.0,0.0,0.0,0.0,0.0,0.0,0.0,-0.1625028962805299,0.3839168340867054,0.1251392264655097,0.3876819773864891,-0.16064813875728087,0.12432636305430539,-0.2088784766169838,0.17283545119753876,-0.48746801918431326,-0.11145892908054515,-1.9464690705770487,0.1336107337276141,2.595549647702111,0.9452438468848107,0.1728802376190821,-0.48752024683155326,-0.11147110072896137,-1.9463801863486305,0.1336059019074957,2.595550359778934,0.9452445589611904,-0.0004179383528330714,-0.001039217527634683,0.0004030383474543854,0.0014245749379396416,-0.00022512742132580106,-0.0002764660425363577,-0.0007799364873994842,0.0,0.0,0.0,0.0,0.0,0.0,0.0,4.478642154334689e-05,-5.222764723999962e-05,-1.2171648416214875e-05,8.888422841812904e-05,-4.831820118400554e-06,7.120768228396912e-07,7.120763797496821e-07,0.0004179383528330714,0.001039217527634683,-0.0004030383474543854,-0.0014245749379396416,0.00022512742132580106,0.0002764660425363577,0.0007799364873994842,0.14510458707809448,11.873926162719727,-1.3147919178009033,-21.641878128051758,-0.3793235421180725,-2.5335726737976074,0.17337362468242645,0
61,0.3000357151031494,-0.19667929410934448,-11.873926162719727,1.3663666248321533,21.693452835083008,0.3793235421180725,2.5207552909851074,-0.18710653483867645,0.0,0.0,0.0,0.0,0.0,0.0,0.0,-0.16488310939207546,0.3813827447323209,0.12446770841419126,0.3912337449585223,-0.160424042847414,0.1251081464972909,-0.20936667891639635,0.17283910546942569,-0.48746801918431326,-0.1114625603802969,-1.946472689745719,0.1336107337276141,2.595551071855757,0.9452453727639384,0.1728802376190821,-0.48752024683155326,-0.11147110072896137,-1.9463801863486305,0.1336059019074957,2.595550359778934,0.9452445589611904,0.0007288577378495898,-0.0012557269354926592,-0.001447636772872239,-0.00044051344197408734,-0.0003643345493295596,0.00017320691489708766,-0.0005854048389867964,0.0,0.0,0.0,0.0,0.0,0.0,0.0,4.113214965642542e-05,-5.222764723999962e-05,-8.540348664473618e-06,9.250339708843924e-05,-4.831820118400554e-06,-7.120768228396912e-07,-8.138027479676069e-07,-0.0007288577378495898,0.0012557269354926592,0.001447636772872239,0.00044051344197408734,0.0003643345493295596,-0.00017320691489708766,0.0005854048389867964,0.19667929410934448,11.873926162719727,-1.3663666248321533,-21.693452835083008,-0.3793235421180725,-2.5207552909851074,0.18710653483867645,0
62,0.3050088882446289,-0.19667929410934448,-11.873926162719727,1.3663666248321533,21.693452835083008,0.3793235421180725,2.5207552909851074,-0.18710653483867645,0.0,0.0,0.0,0.0,0.0,0.0,0.0,-0.16488310939207546,0.3813827447323209,0.12446770841419126,0.3912337449585223,-0.160424042847414,0.1251081464972909,-0.20936667891639635,0.17283910546942569,-0.48746801918431326,-0.1114625603802969,-1.946472689745719,0.1336107337276141,2.595551071855757,0.9452453727639384,0.1728802376190821,-0.48752024683155326,-0.11147110072896137,-1.9463801863486305,0.1336059019074957,2.595550359778934,0.9452445589611904,0.0007288577378495898,-0.0012557269354926592,-0.001447636772872239,-0.00044051344197408734,-0.0003643345493295596,0.00017320691489708766,-0.0005854048389867964,0.0,0.0,0.0,0.0,0.0,0.0,0.0,4.113214965642542e-05,-5.222764723999962e-05,-8.540348664473618e-06,9.250339708843924e-05,-4.831820118400554e-06,-7.120768228396912e-07,-8.138027479676069e-07,-0.0007288577378495898,0.0012557269354926592,0.001447636772872239,0.00044051344197408734,0.0003643345493295596,-0.00017320691489708766,0.0005854048389867964,0.19667929410934448,11.873926162719727,-1.3663666248321533,-21.693452835083008,-0.3793235421180725,-2.5207552909851074,0.18710653483867645,0
63,0.31000614166259766,-0.14510458707809448,-11.949304580688477,1.3147919178009033,21.693452835083008,0.3674216866493225,2.5335726737976074,-0.20724813640117645,0.0,0.0,0.0,0.0,0.0,0.0,0.0,-0.16807790060418748,0.38040488311494985,0.12015389106729173,0.3913815959317896,-0.16070678884678602,0.12478344164414254,-0.20823123148225986,0.17283301927914121,-0.4874627294707716,-0.11145822161062942,-1.946472689745719,0.1336120561559995,2.595549647648276,0.9452476107196676,0.1728802376190821,-0.48752024683155326,-0.11147110072896137,-1.9463801863486305,0.1336059019074957,2.595550359778934,0.9452445589611904,-0.0004286367979043141,1.3372304831736864e-05,-0.00020777476849492463,-0.0007840627946206793,-0.0007489601158788728,-0.00031186333793555595,0.00041530176899290584,0.0,0.0,0.0,0.0,0.0,0.0,0.0,4.7218339940896525e-05,-5.751736078163372e-05,-1.2879118331948769e-05,9.250339708843924e-05,-6.154248503809079e-06,7.121306579982445e-07,-3.051758477146116e-06,0.0004286367979043141,-1.3372304831736864e-05,0.00020777476849492463,0.0007840627946206793,0.0007489601158788728,0.00031186333793555595,-0.00041530176899290584,0.14510458707809448,11.949304580688477,-1.3147919178009033,-21.693452835083008,-0.3674216866493225,-2.5335726737976074,0.20724813640117645,0
64,0.31500864028930664,-0.14510458707809448,-11.949304580688477,1.3147919178009033,21.693452835083008,0.3674216866493225,2.5335726737976074,-0.20724813640117645,0.0,0.0,0.0,0.0,0.0,0.0,0.0,-0.16807790060418748,0.38040488311494985,0.12015389106729173,0.3913815959317896,-0.16070678884678602,0.12478344164414254,-0.20823123148225986,0.17283301927914121,-0.4874627294707716,-0.11145822161062942,-1.946472689745719,0.1336120561559995,2.595549647648276,0.9452476107196676,0.1728802376190821,-0.48752024683155326,-0.11147110072896137,-1.9463801863486305,0.1336059019074957,2.595550359778934,0.9452445589611904,-0.0004286367979043141,1.3372304831736864e-05,-0.00020777476849492463,-0.0007840627946206793,-0.0007489601158788728,-0.00031186333793555595,0.00041530176899290584,0.0,0.0,0.0,0.0,0.0,0.0,0.0,4.7218339940896525e-05,-5.751736078163372e-05,-1.2879118331948769e-05,9.250339708843924e-05,-6.154248503809079e-06,7.121306579982445e-07,-3.051758477146116e-06,0.0004286367979043141,-1.3372304831736864e-05,0.00020777476849492463,0.0007840627946206793,0.0007489601158788728,0.00031186333793555595,-0.00041530176899290584,0.14510458707809448,11.949304580688477,-1.3147919178009033,-21.693452835083008,-0.3674216866493225,-2.5335726737976074,0.20724813640117645,0
65,0.32000160217285156,-0.14510458707809448,-11.949304580688477,1.3147919178009033,21.693452835083008,0.3674216866493225,2.5335726737976074,-0.20724813640117645,0.0,0.0,0.0,0.0,0.0,0.0,0.0,-0.16807790060418748,0.38040488311494985,0.12015389106729173,0.3913815959317896,-0.16070678884678602,0.12478344164414254,-0.20823123148225986,0.17283301927914121,-0.4874627294707716,-0.11145822161062942,-1.946472689745719,0.1336120561559995,2.595549647648276,0.9452476107196676,0.1728802376190821,-0.48752024683155326,-0.11147110072896137,-1.9463801863486305,0.1336059019074957,2.595550359778934,0.9452445589611904,-0.0004286367979043141,1.3372304831736864e-05,-0.00020777476849492463,-0.0007840627946206793,-0.0007489601158788728,-0.00031186333793555595,0.00041530176899290584,0.0,0.0,0.0,0.0,0.0,0.0,0.0,4.7218339940896525e-05,-5.751736078163372e-05,-1.2879118331948769e-05,9.250339708843924e-05,-6.154248503809079e-06,7.121306579982445e-07,-3.051758477146116e-06,0.0004286367979043141,-1.3372304831736864e-05,0.00020777476849492463,0.0007840627946206793,0.0007489601158788728,0.00031186333793555595,-0.00041530176899290584,0.14510458707809448,11.949304580688477,-1.3147919178009033,-21.693452835083008,-0.3674216866493225,-2.5335726737976074,0.20724813640117645,0
66,0.3249983787536621,-0.14510458707809448,-11.949304580688477,1.3147919178009033,21.693452835083008,0.3674216866493225,2.5335726737976074,-0.20724813640117645,0.0,0.0,0.0,0.0,0.0,0.0,0.0,-0.16807790060418748,0.38040488311494985,0.12015389106729173,0.3913815959317896,-0.16070678884678602,0.12478344164414254,-0.20823123148225986,0.17283301927914121,-0.4874627294707716,-0.11145822161062942,-1.946472689745719,0.1336120561559995,2.595549647648276,0.9452476107196676,0.1728802376190821,-0.48752024683155326,-0.11147110072896137,-1.9463801863486305,0.1336059019074957,2.595550359778934,0.9452445589611904,-0.0004286367979043141,1.3372304831736864e-05,-0.00020777476849492463,-0.0007840627946206793,-0.0007489601158788728,-0.00031186333793555595,0.00041530176899290584,0.0,0.0,0.0,0.0,0.0,0.0,0.0,4.7218339940896525e-05,-5.751736078163372e-05,-1.2879118331948769e-05,9.250339708843924e-05,-6.154248503809079e-06,7.121306579982445e-07,-3.051758477146116e-06,0.0004286367979043141,-1.3372304831736864e-05,0.00020777476849492463,0.0007840627946206793,0.0007489601158788728,0.00031186333793555595,-0.00041530176899290584,0.14510458707809448,11.949304580688477,-1.3147919178009033,-21.693452835083008,-0.3674216866493225,-2.5335726737976074,0.20724813640117645,0
67,0.32999491691589355,-0.12130087614059448,-11.949304580688477,1.3147919178009033,21.693452835083008,0.3738303780555725,2.5271639823913574,-0.20724813640117645,0.0,0.0,0.0,0.0,0.0,0.0,0.0,-0.16068068058788146,0.37600758054791544,0.1307921849808285,0.39306363321935167,-0.1628969555831161,0.1251490759328611,-0.2072567257313211,0.17283346471972158,-0.4874627294707716,-0.11145711617176403,-1.946472689745719,0.13361134407917657,2.5955503597789336,0.9452476107196676,0.1728802376190821,-0.48752024683155326,-0.11147110072896137,-1.9463801863486305,0.1336059019074957,2.595550359778934,0.9452445589611904,-0.000777665766339231,-0.0005722681552356347,0.00040501105645985967,-0.00019748801765342666,-6.22924031245417e-05,6.441983188045373e-05,9.356200153107104e-06,0.0,0.0,0.0,0.0,0.0,0.0,0.0,4.677289936053097e-05,-5.751736078163372e-05,-1.3984557197338487e-05,9.250339708843924e-05,-5.442171680886121e-06,4.440892098500626e-16,-3.051758477146116e-06,0.000777665766339231,0.0005722681552356347,-0.00040501105645985967,0.00019748801765342666,6.22924031245417e-05,-6.441983188045373e-05,-9.356200153107104e-06,0.12130087614059448,11.949304580688477,-1.3147919178009033,-21.693452835083008,-0.3738303780555725,-2.5271639823913574,0.20724813640117645,0
68,0.3350038528442383,-0.12130087614059448,-11.949304580688477,1.3147919178009033,21.693452835083008,0.3738303780555725,2.5271639823913574,-0.20724813640117645,0.0,0.0,0.0,0.0,0.0,0.0,0.0,-0.16068068058788146,0.37600758054791544,0.1307921849808285,0.39306363321935167,-0.1628969555831161,0.1251490759328611,-0.2072567257313211,0.17283346471972158,-0.4874627294707716,-0.11145711617176403,-1.946472689745719,0.13361134407917657,2.5955503597789336,0.9452476107196676,0.1728802376190821,-0.48752024683155326,-0.11147110072896137,-1.9463801863486305,0.1336059019074957,2.595550359778934,0.9452445589611904,-0.000777665766339231,-0.0005722681552356347,0.00040501105645985967,-0.00019748801765342666,-6.22924031245417e-05,6.441983188045373e-05,9.356200153107104e-06,0.0,0.0,0.0,0.0,0.0,0.0,0.0,4.677289936053097e-05,-5.751736078163372e-05,-1.3984557197338487e-05,9.250339708843924e-05,-5.442171680886121e-06,4.440892098500626e-16,-3.051758477146116e-06,0.000777665766339231,0.0005722681552356347,-0.00040501105645985967,0.00019748801765342666,6.22924031245417e-05,-6.441983188045373e-05,-9.356200153107104e-06,0.12130087614059448,11.949304580688477,-1.3147919178009033,-21.693452835083008,-0.3738303780555725,-2.5271639823913574,0.20724813640117645,0
69,0.3399946689605713,-0.17287558317184448,-11.973108291625977,1.2671844959259033,21.693452835083008,0.3857322335243225,2.5335726737976074,-0.16604940593242645,0.0,0.0,0.0,0.0,0.0,0.0,0.0,-0.16713885118107005,0.3905803225294861,0.12110720921047813,0.38137833751337563,-0.16261802853766227,0.12373146350636653,-0.20766799518957768,0.172836650783175,-0.4874610590349163,-0.11145377305258247,-1.946472689745719,0.13361002165079117,2.595549647702111,0.9452430330829488,0.1728802376190821,-0.48752024683155326,-0.11147110072896137,-1.9463801863486305,0.1336059019074957,2.595550359778934,0.9452445589611904,-0.000175377661812412,0.0002672902952106706,0.0009096167112390434,-0.0007609994411654609,-0.0005183165598161629,-0.000282010303807974,-0.0014806082012460305,0.0,0.0,0.0,0.0,0.0,0.0,0.0,4.358683590710566e-05,-5.918779663693918e-05,-1.7327676378894874e-05,9.250339708843924e-05,-4.119743295477596e-06,7.120768228396912e-07,1.525878241648293e-06,0.000175377661812412,-0.0002672902952106706,-0.0009096167112390434,0.0007609994411654609,0.0005183165598161629,0.000282010303807974,0.0014806082012460305,0.17287558317184448,11.973108291625977,-1.2671844959259033,-21.693452835083008,-0.3857322335243225,-2.5335726737976074,0.16604940593242645,0
70,0.34500908851623535,-0.17287558317184448,-11.973108291625977,1.2671844959259033,21.693452835083008,0.3857322335243225,2.5335726737976074,-0.16604940593242645,0.0,0.0,0.0,0.0,0.0,0.0,0.0,-0.16713885118107005,0.3905803225294861,0.12110720921047813,0.38137833751337563,-0.16261802853766227,0.12373146350636653,-0.20766799518957768,0.172836650783175,-0.4874610590349163,-0.11145377305258247,-1.946472689745719,0.13361002165079117,2.595549647702111,0.9452430330829488,0.1728802376190821,-0.48752024683155326,-0.11147110072896137,-1.9463801863486305,0.1336059019074957,2.595550359778934,0.9452445589611904,-0.000175377661812412,0.0002672902952106706,0.0009096167112390434,-0.0007609994411654609,-0.0005183165598161629,-0.000282010303807974,-0.0014806082012460305,0.0,0.0,0.0,0.0,0.0,0.0,0.0,4.358683590710566e-05,-5.918779663693918e-05,-1.7327676378894874e-05,9.250339708843924e-05,-4.119743295477596e-06,7.120768228396912e-07,1.525878241648293e-06,0.000175377661812412,-0.0002672902952106706,-0.0009096167112390434,0.0007609994411654609,0.0005183165598161629,0.000282010303807974,0.0014806082012460305,0.17287558317184448,11.973108291625977,-1.2671844959259033,-21.693452835083008,-0.3857322335243225,-2.5335726737976074,0.16604940593242645,0
71,0.3499929904937744,-0.12130087614059448,-11.973108291625977,1.3147919178009033,21.641878128051758,0.3674216866493225,2.5271639823913574,-0.20083944499492645,0.0,0.0,0.0,0.0,0.0,0.0,0.0,-0.16102634307027314,0.3794957584924528,0.12900188788364342,0.3862706946471356,-0.16228410453097433,0.12453655438091076,-0.20748680548257084,0.1728309834876586,-0.4874610590349163,-0.11145893192508492,-1.9464690704680325,0.1336120561559995,2.595550359778934,0.9452468986428446,0.1728802376190821,-0.48752024683155326,-0.11147110072896137,-1.9463801863486305,0.1336059019074957,2.595550359778934,0.9452445589611904,-0.00038409847999088014,0.00017616211514782332,-8.223403189300898e-05,0.0008003155577645924,9.845943085886702e-05,-8.41325605427083e-05,0.00027719492877880737,0.0,0.0,0.0,0.0,0.0,0.0,0.0,4.925413142350954e-05,-5.918779663693918e-05,-1.2168803876444478e-05,8.888411940199958e-05,-6.154248503809079e-06,0.0,-2.3396816541954024e-06,0.00038409847999088014,-0.00017616211514782332,8.223403189300898e-05,-0.0008003155577645924,-9.845943085886702e-05,8.41325605427083e-05,-0.00027719492877880737,0.12130087614059448,11.973108291625977,-1.3147919178009033,-21.641878128051758,-0.3674216866493225,-2.5271639823913574,0.20083944499492645,0
72,0.35500383377075195,-0.12130087614059448,-11.973108291625977,1.3147919178009033,21.641878128051758,0.3674216866493225,2.5271639823913574,-0.20083944499492645,0.0,0.0,0.0,0.0,0.0,0.0,0.0,-0.16102634307027314,0.3794957584924528,0.12900188788364342,0.3862706946471356,-0.16228410453097433,0.12453655438091076,-0.20748680548257084,0.1728309834876586,-0.4874610590349163,-0.11145893192508492,-1.9464690704680325,0.1336120561559995,2.595550359778934,0.9452468986428446,0.1728802376190821,-0.48752024683155326,-0.11147110072896137,-1.9463801863486305,0.1336059019074957,2.595550359778934,0.9452445589611904,-0.00038409847999088014,0.00017616211514782332,-8.223403189300898e-05,0.0008003155577645924,9.845943085886702e-05,-8.41325605427083e-05,0.00027719492877880737,0.0,0.0,0.0,0.0,0.0,0.0,0.0,4.925413142350954e-05,-5.918779663693918e-05,-1.2168803876444478e-05,8.888411940199958e-05,-6.154248503809079e-06,0.0,-2.3396816541954024e-06,0.00038409847999088014,-0.00017616211514782332,8.223403189300898e-05,-0.0008003155577645924,-9.845943085886702e-05,8.41325605427083e-05,-0.00027719492877880737,0.12130087614059448,11.973108291625977,-1.3147919178009033,-21.641878128051758,-0.3674216866493225,-2.5271639823913574,0.20083944499492645,0
73,0.3599987030029297,-0.17287558317184448,-11.973108291625977,1.2909882068634033,21.669649124145508,0.3619285225868225,2.5271639823913574,-0.23471395671367645,0.0,0.0,0.0,0.0,0.0,0.0,0.0,-0.16270581461980727,0.37602991019996185,0.12104821586541953,0.38629161528481193,-0.16204344681229085,0.12461186987325845,-0.2088366351976353,0.1728352245492686,-0.4874610590349163,-0.11145750638182768,-1.9464710193098638,0.1336126533438476,2.595550359778934,0.94525066247748,0.1728802376190821,-0.48752024683155326,-0.11147110072896137,-1.9463801863486305,0.1336059019074957,2.595550359778934,0.9452445589611904,0.0004987967722780248,0.0005856853758366548,0.0004581794018269926,0.00044863058222967636,0.00015200827007974134,3.3427887384654395e-05,0.0013575827219462241,0.0,0.0,0.0,0.0,0.0,0.0,0.0,4.501306981349873e-05,-5.918779663693918e-05,-1.3594347133688567e-05,9.08329612332448e-05,-6.751436351898343e-06,0.0,-6.103516289601707e-06,-0.0004987967722780248,-0.0005856853758366548,-0.0004581794018269926,-0.00044863058222967636,-0.00015200827007974134,-3.3427887384654395e-05,-0.0013575827219462241,0.17287558317184448,11.973108291625977,-1.2909882068634033,-21.669649124145508,-0.3619285225868225,-2.5271639823913574,0.23471395671367645,0
74,0.36499547958374023,-0.17287558317184448,-11.973108291625977,1.2909882068634033,21.669649124145508,0.3619285225868225,2.5271639823913574,-0.23471395671367645,0.0,0.0,0.0,0.0,0.0,0.0,0.0,-0.16270581461980727,0.37602991019996185,0.12104821586541953,0.38629161528481193,-0.16204344681229085,0.12461186987325845,-0.2088366351976353,0.1728352245492686,-0.4874610590349163,-0.11145750638182768,-1.9464710193098638,0.1336126533438476,2.595550359778934,0.94525066247748,0.1728802376190821,-0.48752024683155326,-0.11147110072896137,-1.9463801863486305,0.1336059019074957,2.595550359778934,0.9452445589611904,0.0004987967722780248,0.0005856853758366548,0.0004581794018269926,0.00044863058222967636,0.00015200827007974134,3.3427887384654395e-05,0.0013575827219462241,0.0,0.0,0.0,0.0,0.0,0.0,0.0,4.501306981349873e-05,-5.918779663693918e-05,-1.3594347133688567e-05,9.08329612332448e-05,-6.751436351898343e-06,0.0,-6.103516289601707e-06,-0.0004987967722780248,-0.0005856853758366548,-0.0004581794018269926,-0.00044863058222967636,-0.00015200827007974134,-3.3427887384654395e-05,-0.0013575827219462241,0.17287558317184448,11.973108291625977,-1.2909882068634033,-21.669649124145508,-0.3619285225868225,-2.5271639823913574,0.23471395671367645,0
75,0.3700096607208252,-0.14510458707809448,-11.973108291625977,1.3425629138946533,21.693452835083008,0.3674216866493225,2.5143465995788574,-0.20083944499492645,0.0,0.0,0.0,0.0,0.0,0.0,0.0,-0.15983737550796445,0.3739739349791012,0.1237564935475413,0.3868464719281343,-0.16281415836786778,0.12445647587923009,-0.21000336511590206,0.1728323094815908,-0.4874610590349163,-0.1114588544548219,-1.946472689745719,0.13361205615592517,2.5955517839325797,0.9452458390047153,0.1728802376190821,-0.48752024683155326,-0.11147110072896137,-1.9463801863486305,0.1336059019074957,2.595550359778934,0.9452445589611904,-0.000569258739251862,0.0006564463568097639,-0.0002013351029452368,-0.000338166127168034,0.0001587453398186132,0.00014487437954412632,0.0005032420650100037,0.0,0.0,0.0,0.0,0.0,0.0,0.0,4.792813749129876e-05,-5.918779663693918e-05,-1.224627413946855e-05,9.250339708843924e-05,-6.154248429479647e-06,-1.4241536456793824e-06,-1.2800435248427888e-06,0.000569258739251862,-0.0006564463568097639,0.0002013351029452368,0.000338166127168034,-0.0001587453398186132,-0.00014487437954412632,-0.0005032420650100037,0.14510458707809448,11.973108291625977,-1.3425629138946533,-21.693452835083008,-0.3674216866493225,-2.5143465995788574,0.20083944499492645,0
76,0.37500619888305664,-0.14510458707809448,-11.973108291625977,1.3425629138946533,21.693452835083008,0.3674216866493225,2.5143465995788574,-0.20083944499492645,0.0,0.0,0.0,0.0,0.0,0.0,0.0,-0.15983737550796445,0.3739739349791012,0.1237564935475413,0.3868464719281343,-0.16281415836786778,0.12445647587923009,-0.21000336511590206,0.1728323094815908,-0.4874610590349163,-0.1114588544548219,-1.946472689745719,0.13361205615592517,2.5955517839325797,0.9452458390047153,0.1728802376190821,-0.48752024683155326,-0.11147110072896137,-1.9463801863486305,0.1336059019074957,2.595550359778934,0.9452445589611904,-0.000569258739251862,0.0006564463568097639,-0.0002013351029452368,-0.000338166127168034,0.0001587453398186132,0.00014487437954412632,0.0005032420650100037,0.0,0.0,0.0,0.0,0.0,0.0,0.0,4.792813749129876e-05,-5.918779663693918e-05,-1.224627413946855e-05,9.250339708843924e-05,-6.154248429479647e-06,-1.4241536456793824e-06,-1.2800435248427888e-06,0.000569258739251862,-0.0006564463568097639,0.0002013351029452368,0.000338166127168034,-0.0001587453398186132,-0.00014487437954412632,-0.0005032420650100037,0.14510458707809448,11.973108291625977,-1.3425629138946533,-21.693452835083008,-0.3674216866493225,-2.5143465995788574,0.20083944499492645,0
77,0.37999987602233887,-0.14510458707809448,-11.949304580688477,1.3147919178009033,21.693452835083008,0.3619285225868225,2.5271639823913574,-0.19351522624492645,0.0,0.0,0.0,0.0,0.0,0.0,0.0,-0.16130104756859487,0.38103206795145766,0.12391030977455106,0.38311099658931386,-0.16327652050961414,0.12330474166607813,-0.20900167480594922,0.17283262536019542,-0.4874627294707716,-0.11145917460497373,-1.9464724513271399,0.13361266650756198,2.595550359778934,0.9452460848347797,0.1728802376190821,-0.48752024683155326,-0.11147110072896137,-1.9463801863486305,0.1336059019074957,2.595550359778934,0.9452445589611904,-0.0007293158767501378,-5.6466486172818276e-05,0.00038924053472509646,-0.0006178652324271315,0.00024641529090563307,-0.000259536912588344,-0.00023212265664147768,0.0,0.0,0.0,0.0,0.0,0.0,0.0,4.7612258886692294e-05,-5.751736078163372e-05,-1.192612398763504e-05,9.226497850933768e-05,-6.764600066294646e-06,0.0,-1.5258735892587083e-06,0.0007293158767501378,5.6466486172818276e-05,-0.00038924053472509646,0.0006178652324271315,-0.00024641529090563307,0.000259536912588344,0.00023212265664147768,0.14510458707809448,11.949304580688477,-1.3147919178009033,-21.693452835083008,-0.3619285225868225,-2.5271639823913574,0.19351522624492645,0
78,0.3849985599517822,-0.14510458707809448,-11.949304580688477,1.3147919178009033,21.693452835083008,0.3619285225868225,2.5271639823913574,-0.19351522624492645,0.0,0.0,0.0,0.0,0.0,0.0,0.0,-0.16130104756859487,0.38103206795145766,0.12391030977455106,0.38311099658931386,-0.16327652050961414,0.12330474166607813,-0.20900167480594922,0.17283262536019542,-0.4874627294707716,-0.11145917460497373,-1.9464724513271399,0.13361266650756198,2.595550359778934,0.9452460848347797,0.1728802376190821,-0.48752024683155326,-0.11147110072896137,-1.9463801863486305,0.1336059019074957,2.595550359778934,0.9452445589611904,-0.0007293158767501378,-5.6466486172818276e-05,0.00038924053472509646,-0.0006178652324271315,0.00024641529090563307,-0.000259536912588344,-0.00023212265664147768,0.0,0.0,0.0,0.0,0.0,0.0,0.0,4.7612258886692294e-05,-5.751736078163372e-05,-1.192612398763504e-05,9.226497850933768e-05,-6.764600066294646e-06,0.0,-1.5258735892587083e-06,0.0007293158767501378,5.6466486172818276e-05,-0.00038924053472509646,0.0006178652324271315,-0.00024641529090563307,0.000259536912588344,0.00023212265664147768,0.14510458707809448,11.949304580688477,-1.3147919178009033,-21.693452835083008,-0.3619285225868225,-2.5271639823913574,0.19351522624492645,0
79,0.39001941680908203,-0.17287558317184448,-11.973108291625977,1.3425629138946533,21.641878128051758,0.3857322335243225,2.5207552909851074,-0.15964071452617645,0.0,0.0,0.0,0.0,0.0,0.0,0.0,-0.16402485969540878,0.3689109481567278,0.12334906672486402,0.39061892362892314,-0.16356190720286265,0.12460935631886436,-0.20876530638227644,0.17283448599820855,-0.4874603504019173,-0.11145875799585238,-1.9464690704666865,0.13361002165079114,2.5955478929413687,0.9452423210061258,0.1728802376190821,-0.48752024683155326,-0.11147110072896137,-1.9463801863486305,0.1336059019074957,2.595550359778934,0.9452445589611904,0.00035456781402280925,0.00019098615569459944,-0.0005778144477347987,0.0008035152277210883,-0.0007608173444666671,0.00013464186790254181,-0.0013398774464896484,0.0,0.0,0.0,0.0,0.0,0.0,0.0,4.575162087355755e-05,-5.989642963594166e-05,-1.2342733108988702e-05,8.888411805596519e-05,-4.11974329544984e-06,2.466837565329172e-06,2.2379550645990065e-06,-0.00035456781402280925,-0.00019098615569459944,0.0005778144477347987,-0.0008035152277210883,0.0007608173444666671,-0.00013464186790254181,0.0013398774464896484,0.17287558317184448,11.973108291625977,-1.3425629138946533,-21.641878128051758,-0.3857322335243225,-2.5207552909851074,0.15964071452617645,0
80,0.3950197696685791,-0.17287558317184448,-11.973108291625977,1.3425629138946533,21.641878128051758,0.3857322335243225,2.5207552909851074,-0.15964071452617645,0.0,0.0,0.0,0.0,0.0,0.0,0.0,-0.16402485969540878,0.3689109481567278,0.12334906672486402,0.39061892362892314,-0.16356190720286265,0.12460935631886436,-0.20876530638227644,0.17283448599820855,-0.4874603504019173,-0.11145875799585238,-1.9464690704666865,0.13361002165079114,2.5955478929413687,0.9452423210061258,0.1728802376190821,-0.48752024683155326,-0.11147110072896137,-1.9463801863486305,0.1336059019074957,2.595550359778934,0.9452445589611904,0.00035456781402280925,0.00019098615569459944,-0.0005778144477347987,0.0008035152277210883,-0.0007608173444666671,0.00013464186790254181,-0.0013398774464896484,0.0,0.0,0.0,0.0,0.0,0.0,0.0,4.575162087355755e-05,-5.989642963594166e-05,-1.2342733108988702e-05,8.888411805596519e-05,-4.11974329544984e-06,2.466837565329172e-06,2.2379550645990065e-06,-0.00035456781402280925,-0.00019098615569459944,0.0005778144477347987,-0.0008035152277210883,0.0007608173444666671,-0.00013464186790254181,0.0013398774464896484,0.17287558317184448,11.973108291625977,-1.3425629138946533,-21.641878128051758,-0.3857322335243225,-2.5207552909851074,0.15964071452617645,0
