rezayati/contactInterpretation/dataset/franka_main/labeled_data/link4/d3_8.csv
index,time,tau_J0,tau_J1,tau_J2,tau_J3,tau_J4,tau_J5,tau_J6,tau_J_d0,tau_J_d1,tau_J_d2,tau_J_d3,tau_J_d4,tau_J_d5,tau_J_d6,tau_ext0,tau_ext1,tau_ext2,tau_ext3,tau_ext4,tau_ext5,tau_ext6,q0,q1,q2,q3,q4,q5,q6,q_d0,q_d1,q_d2,q_d3,q_d4,q_d5,q_d6,dq0,dq1,dq2,dq3,dq4,dq5,dq6,dq_d0,dq_d1,dq_d2,dq_d3,dq_d4,dq_d5,dq_d6,e0,e1,e2,e3,e4,e5,e6,de0,de1,de2,de3,de4,de5,de6,etau_J0,etau_J1,etau_J2,etau_J3,etau_J4,etau_J5,etau_J6,label
1,0.0,-0.4505855441093445,-22.819665908813477,-0.1729399859905243,13.981050491333008,0.11748272180557251,2.1325716972351074,-0.35831016302108765,0.0,0.0,0.0,0.0,0.0,0.0,0.0,-0.4244487842267621,-0.014108071235454657,-0.23473325511338175,0.12094397272181125,-0.11083537075624184,-0.04880300521205878,-0.3710331961970437,1.6756021080142571,0.05252954806256713,0.02999432607492489,-2.7523675303877444,0.03425224476059278,2.766374133750408,0.7691778523368193,1.6754973547542302,0.052104326824870026,0.029969505109285054,-2.752394845125968,0.0342448039870148,2.7663679543071322,0.7691630533470046,0.00012663420062604283,0.00022966627813030438,-0.00020777275781276068,2.0623243919081858e-05,0.00013417029273838773,5.240427550100684e-05,-0.0008226220924766337,0.0,0.0,0.0,0.0,0.0,0.0,0.0,-0.00010475326002690188,-0.0004252212376971015,-2.482096563983724e-05,-2.7314738223704893e-05,-7.4407735779769e-06,-6.1794432757444895e-06,-1.4798989814712726e-05,-0.00012663420062604283,-0.00022966627813030438,0.00020777275781276068,-2.0623243919081858e-05,-0.00013417029273838773,-5.240427550100684e-05,0.0008226220924766337,0.4505855441093445,22.819665908813477,0.1729399859905243,-13.981050491333008,-0.11748272180557251,-2.1325716972351074,0.35831016302108765,0
2,0.004997730255126953,-0.4267818331718445,-22.847436904907227,-0.2007109820842743,14.008821487426758,0.12389141321182251,2.1325716972351074,-0.37204307317733765,0.0,0.0,0.0,0.0,0.0,0.0,0.0,-0.4249239905585244,-0.022263947149279952,-0.23487040223600802,0.12914671740922723,-0.110964751762319,-0.047394765738635485,-0.3707867409570736,1.675600437578402,0.0525314970125313,0.029997020580944965,-2.752369479229576,0.03425157211359146,2.7663741468323355,0.7691793762776622,1.6754973547542302,0.052104326824870026,0.029969505109285054,-2.752394845125968,0.0342448039870148,2.7663679543071322,0.7691630533470046,-0.0006390636826291607,0.000525005671966648,0.0012137575493760908,-0.00016515034724291428,0.00016964094872585453,0.00042198677806436896,8.651356102705324e-05,0.0,0.0,0.0,0.0,0.0,0.0,0.0,-0.00010308282417170744,-0.00042717018766127296,-2.7515471659911306e-05,-2.536589639223763e-05,-6.768126576656153e-06,-6.192525203285726e-06,-1.6322930657564072e-05,0.0006390636826291607,-0.000525005671966648,-0.0012137575493760908,0.00016515034724291428,-0.00016964094872585453,-0.00042198677806436896,-8.651356102705324e-05,0.4267818331718445,22.847436904907227,0.2007109820842743,-14.008821487426758,-0.12389141321182251,-2.1325716972351074,0.37204307317733765,0
3,0.010001897811889648,-0.4267818331718445,-22.847436904907227,-0.2007109820842743,14.008821487426758,0.12389141321182251,2.1325716972351074,-0.37204307317733765,0.0,0.0,0.0,0.0,0.0,0.0,0.0,-0.4249239905585244,-0.022263947149279952,-0.23487040223600802,0.12914671740922723,-0.110964751762319,-0.047394765738635485,-0.3707867409570736,1.675600437578402,0.0525314970125313,0.029997020580944965,-2.752369479229576,0.03425157211359146,2.7663741468323355,0.7691793762776622,1.6754973547542302,0.052104326824870026,0.029969505109285054,-2.752394845125968,0.0342448039870148,2.7663679543071322,0.7691630533470046,-0.0006390636826291607,0.000525005671966648,0.0012137575493760908,-0.00016515034724291428,0.00016964094872585453,0.00042198677806436896,8.651356102705324e-05,0.0,0.0,0.0,0.0,0.0,0.0,0.0,-0.00010308282417170744,-0.00042717018766127296,-2.7515471659911306e-05,-2.536589639223763e-05,-6.768126576656153e-06,-6.192525203285726e-06,-1.6322930657564072e-05,0.0006390636826291607,-0.000525005671966648,-0.0012137575493760908,0.00016515034724291428,-0.00016964094872585453,-0.00042198677806436896,-8.651356102705324e-05,0.4267818331718445,22.847436904907227,0.2007109820842743,-14.008821487426758,-0.12389141321182251,-2.1325716972351074,0.37204307317733765,0
4,0.014994621276855469,-0.4267818331718445,-22.819665908813477,-0.1491362750530243,14.008821487426758,0.12389141321182251,2.1389803886413574,-0.35098594427108765,0.0,0.0,0.0,0.0,0.0,0.0,0.0,-0.42597665309621535,-0.023827796963553645,-0.23467159656677136,0.13056934508271986,-0.11028824764953875,-0.04676954257502535,-0.369493552092869,1.675600437578402,0.05252954806256773,0.029990550442684633,-2.752369479229576,0.03425153268399245,2.7663734347555367,0.7691770511321715,1.6754973547542302,0.052104326824870026,0.029969505109285054,-2.752394845125968,0.0342448039870148,2.7663679543071322,0.7691630533470046,5.4882098789037545e-05,-0.0005267925877088178,0.00018488827201496721,-7.913821755370534e-05,1.486099630809751e-05,0.0002742142083364898,-0.000325067097085071,0.0,0.0,0.0,0.0,0.0,0.0,0.0,-0.00010308282417170744,-0.0004252212376977052,-2.1045333399579563e-05,-2.536589639223763e-05,-6.72869697764672e-06,-5.480448404426852e-06,-1.3997785166863785e-05,-5.4882098789037545e-05,0.0005267925877088178,-0.00018488827201496721,7.913821755370534e-05,-1.486099630809751e-05,-0.0002742142083364898,0.000325067097085071,0.4267818331718445,22.819665908813477,0.1491362750530243,-14.008821487426758,-0.12389141321182251,-2.1389803886413574,0.35098594427108765,0
5,0.01999521255493164,-0.4267818331718445,-22.819665908813477,-0.1491362750530243,14.008821487426758,0.12389141321182251,2.1389803886413574,-0.35098594427108765,0.0,0.0,0.0,0.0,0.0,0.0,0.0,-0.42597665309621535,-0.023827796963553645,-0.23467159656677136,0.13056934508271986,-0.11028824764953875,-0.04676954257502535,-0.369493552092869,1.675600437578402,0.05252954806256773,0.029990550442684633,-2.752369479229576,0.03425153268399245,2.7663734347555367,0.7691770511321715,1.6754973547542302,0.052104326824870026,0.029969505109285054,-2.752394845125968,0.0342448039870148,2.7663679543071322,0.7691630533470046,5.4882098789037545e-05,-0.0005267925877088178,0.00018488827201496721,-7.913821755370534e-05,1.486099630809751e-05,0.0002742142083364898,-0.000325067097085071,0.0,0.0,0.0,0.0,0.0,0.0,0.0,-0.00010308282417170744,-0.0004252212376977052,-2.1045333399579563e-05,-2.536589639223763e-05,-6.72869697764672e-06,-5.480448404426852e-06,-1.3997785166863785e-05,-5.4882098789037545e-05,0.0005267925877088178,-0.00018488827201496721,7.913821755370534e-05,-1.486099630809751e-05,-0.0002742142083364898,0.000325067097085071,0.4267818331718445,22.819665908813477,0.1491362750530243,-14.008821487426758,-0.12389141321182251,-2.1389803886413574,0.35098594427108765,0
6,0.024990320205688477,-0.4029781222343445,-22.819665908813477,-0.1491362750530243,13.957246780395508,0.12389141321182251,2.1453890800476074,-0.33725303411483765,0.0,0.0,0.0,0.0,0.0,0.0,0.0,-0.4281683404518772,-0.024827175804219774,-0.23525393138131098,0.1326657022697034,-0.10986451370049563,-0.0457406182797985,-0.36810034344021275,1.6755987671425465,0.05252954806256713,0.029993322295430676,-2.7523658599518894,0.03425153268376986,2.766372722678714,0.7691756284554147,1.6754973547542302,0.052104326824870026,0.029969505109285054,-2.752394845125968,0.0342448039870148,2.7663679543071322,0.7691630533470046,-0.0006579423418353924,-0.0003722234991380587,0.00036460413193979495,0.0008983979749013666,-0.00011515093017662457,-0.00012617151423572769,-0.0010683391687323184,0.0,0.0,0.0,0.0,0.0,0.0,0.0,-0.00010141238831629096,-0.0004252212376971015,-2.3817186145622116e-05,-2.898517407867729e-05,-6.728696755060881e-06,-4.768371581587161e-06,-1.2575108410017855e-05,0.0006579423418353924,0.0003722234991380587,-0.00036460413193979495,-0.0008983979749013666,0.00011515093017662457,0.00012617151423572769,0.0010683391687323184,0.4029781222343445,22.819665908813477,0.1491362750530243,-13.957246780395508,-0.12389141321182251,-2.1453890800476074,0.33725303411483765,0
7,0.029989957809448242,-0.4029781222343445,-22.819665908813477,-0.1491362750530243,13.957246780395508,0.12389141321182251,2.1453890800476074,-0.33725303411483765,0.0,0.0,0.0,0.0,0.0,0.0,0.0,-0.4281683404518772,-0.024827175804219774,-0.23525393138131098,0.1326657022697034,-0.10986451370049563,-0.0457406182797985,-0.36810034344021275,1.6755987671425465,0.05252954806256713,0.029993322295430676,-2.7523658599518894,0.03425153268376986,2.766372722678714,0.7691756284554147,1.6754973547542302,0.052104326824870026,0.029969505109285054,-2.752394845125968,0.0342448039870148,2.7663679543071322,0.7691630533470046,-0.0006579423418353924,-0.0003722234991380587,0.00036460413193979495,0.0008983979749013666,-0.00011515093017662457,-0.00012617151423572769,-0.0010683391687323184,0.0,0.0,0.0,0.0,0.0,0.0,0.0,-0.00010141238831629096,-0.0004252212376971015,-2.3817186145622116e-05,-2.898517407867729e-05,-6.728696755060881e-06,-4.768371581587161e-06,-1.2575108410017855e-05,0.0006579423418353924,0.0003722234991380587,-0.00036460413193979495,-0.0008983979749013666,0.00011515093017662457,0.00012617151423572769,0.0010683391687323184,0.4029781222343445,22.819665908813477,0.1491362750530243,-13.957246780395508,-0.12389141321182251,-2.1453890800476074,0.33725303411483765,0
8,0.034989118576049805,-0.3752071261405945,-22.795862197875977,-0.09756157547235489,13.981050491333008,0.11198955774307251,2.1389803886413574,-0.39950889348983765,0.0,0.0,0.0,0.0,0.0,0.0,0.0,-0.42670224790021466,-0.025401819066007005,-0.23171475484029888,0.13340027660158757,-0.11023698362958236,-0.04498098138924327,-0.36672416448002065,1.6755968183007155,0.052527877626711864,0.029989755431372448,-2.7523675303877444,0.03425285511215528,2.7663734347555367,0.7691827814103511,1.6754973547542302,0.052104326824870026,0.029969505109285054,-2.752394845125968,0.0342448039870148,2.7663679543071322,0.7691630533470046,-0.0006003360085477621,-0.0010780915911110204,-0.0008085316847064301,0.0004907882477738632,0.00013920759413849762,-0.00010167769485293631,0.0011728116184545226,0.0,0.0,0.0,0.0,0.0,0.0,0.0,-9.946354648526778e-05,-0.0004235508018418377,-2.0250322087394385e-05,-2.7314738223704893e-05,-8.051125140476345e-06,-5.480448404426852e-06,-1.9728063346491354e-05,0.0006003360085477621,0.0010780915911110204,0.0008085316847064301,-0.0004907882477738632,-0.00013920759413849762,0.00010167769485293631,-0.0011728116184545226,0.3752071261405945,22.795862197875977,0.09756157547235489,-13.981050491333008,-0.11198955774307251,-2.1389803886413574,0.39950889348983765,0
9,0.03998851776123047,-0.3752071261405945,-22.795862197875977,-0.09756157547235489,13.981050491333008,0.11198955774307251,2.1389803886413574,-0.39950889348983765,0.0,0.0,0.0,0.0,0.0,0.0,0.0,-0.42670224790021466,-0.025401819066007005,-0.23171475484029888,0.13340027660158757,-0.11023698362958236,-0.04498098138924327,-0.36672416448002065,1.6755968183007155,0.052527877626711864,0.029989755431372448,-2.7523675303877444,0.03425285511215528,2.7663734347555367,0.7691827814103511,1.6754973547542302,0.052104326824870026,0.029969505109285054,-2.752394845125968,0.0342448039870148,2.7663679543071322,0.7691630533470046,-0.0006003360085477621,-0.0010780915911110204,-0.0008085316847064301,0.0004907882477738632,0.00013920759413849762,-0.00010167769485293631,0.0011728116184545226,0.0,0.0,0.0,0.0,0.0,0.0,0.0,-9.946354648526778e-05,-0.0004235508018418377,-2.0250322087394385e-05,-2.7314738223704893e-05,-8.051125140476345e-06,-5.480448404426852e-06,-1.9728063346491354e-05,0.0006003360085477621,0.0010780915911110204,0.0008085316847064301,-0.0004907882477738632,-0.00013920759413849762,0.00010167769485293631,-0.0011728116184545226,0.3752071261405945,22.795862197875977,0.09756157547235489,-13.981050491333008,-0.11198955774307251,-2.1389803886413574,0.39950889348983765,0
10,0.04498696327209473,-0.4029781222343445,-22.871240615844727,-0.1253325641155243,14.008821487426758,0.12389141321182251,2.1453890800476074,-0.37845176458358765,0.0,0.0,0.0,0.0,0.0,0.0,0.0,-0.4209988781312428,-0.021650880671741004,-0.22606662282088355,0.13221819406430882,-0.11143814218416649,-0.045384642556673266,-0.3667342487365412,1.6755987671425465,0.052533167340253525,0.029991017656973856,-2.752369479229576,0.03425153268376986,2.766372722678714,0.7691800883564763,1.6754973547542302,0.052104326824870026,0.029969505109285054,-2.752394845125968,0.0342448039870148,2.7663679543071322,0.7691630533470046,0.00045465232722799085,0.00112250095571875,0.0001324808675978797,-9.824083271846915e-05,-0.00014141479425641901,-0.00010159550604392387,0.0006940650407662908,0.0,0.0,0.0,0.0,0.0,0.0,0.0,-0.00010141238831629096,-0.00042884051538349954,-2.151254768880187e-05,-2.536589639223763e-05,-6.728696755060881e-06,-4.768371581587161e-06,-1.703500947169978e-05,-0.00045465232722799085,-0.00112250095571875,-0.0001324808675978797,9.824083271846915e-05,0.00014141479425641901,0.00010159550604392387,-0.0006940650407662908,0.4029781222343445,22.871240615844727,0.1253325641155243,-14.008821487426758,-0.12389141321182251,-2.1453890800476074,0.37845176458358765,0
11,0.049986839294433594,-0.4029781222343445,-22.871240615844727,-0.1253325641155243,14.008821487426758,0.12389141321182251,2.1453890800476074,-0.37845176458358765,0.0,0.0,0.0,0.0,0.0,0.0,0.0,-0.4209988781312428,-0.021650880671741004,-0.22606662282088355,0.13221819406430882,-0.11143814218416649,-0.045384642556673266,-0.3667342487365412,1.6755987671425465,0.052533167340253525,0.029991017656973856,-2.752369479229576,0.03425153268376986,2.766372722678714,0.7691800883564763,1.6754973547542302,0.052104326824870026,0.029969505109285054,-2.752394845125968,0.0342448039870148,2.7663679543071322,0.7691630533470046,0.00045465232722799085,0.00112250095571875,0.0001324808675978797,-9.824083271846915e-05,-0.00014141479425641901,-0.00010159550604392387,0.0006940650407662908,0.0,0.0,0.0,0.0,0.0,0.0,0.0,-0.00010141238831629096,-0.00042884051538349954,-2.151254768880187e-05,-2.536589639223763e-05,-6.728696755060881e-06,-4.768371581587161e-06,-1.703500947169978e-05,-0.00045465232722799085,-0.00112250095571875,-0.0001324808675978797,9.824083271846915e-05,0.00014141479425641901,0.00010159550604392387,-0.0006940650407662908,0.4029781222343445,22.871240615844727,0.1253325641155243,-14.008821487426758,-0.12389141321182251,-2.1453890800476074,0.37845176458358765,0
12,0.05498909950256348,-0.4267818331718445,-22.847436904907227,-0.1253325641155243,13.957246780395508,0.11198955774307251,2.1453890800476074,-0.34457725286483765,0.0,0.0,0.0,0.0,0.0,0.0,0.0,-0.4276421240012137,-0.023391033218601042,-0.23435009989147976,0.13532631270973597,-0.1108847898290707,-0.04414369553851958,-0.366491444433185,1.675600437578402,0.05253149690439827,0.029991730900866563,-2.7523658599518894,0.03425285511215528,2.766372722678714,0.7691763250043628,1.6754973547542302,0.052104326824870026,0.029969505109285054,-2.752394845125968,0.0342448039870148,2.7663679543071322,0.7691630533470046,0.00025452928810561004,0.00019072004722134155,-0.001216103006976136,0.00109763171106196,0.0004422123031123066,-0.00021499013791349158,-0.00064693228994464,0.0,0.0,0.0,0.0,0.0,0.0,0.0,-0.00010308282417170744,-0.00042717007952824265,-2.222579158150939e-05,-2.898517407867729e-05,-8.051125140476345e-06,-4.768371581587161e-06,-1.3271657358204791e-05,-0.00025452928810561004,-0.00019072004722134155,0.001216103006976136,-0.00109763171106196,-0.0004422123031123066,0.00021499013791349158,0.00064693228994464,0.4267818331718445,22.847436904907227,0.1253325641155243,-13.957246780395508,-0.11198955774307251,-2.1453890800476074,0.34457725286483765,0
13,0.05998826026916504,-0.4267818331718445,-22.847436904907227,-0.1253325641155243,13.957246780395508,0.11198955774307251,2.1453890800476074,-0.34457725286483765,0.0,0.0,0.0,0.0,0.0,0.0,0.0,-0.4276421240012137,-0.023391033218601042,-0.23435009989147976,0.13532631270973597,-0.1108847898290707,-0.04414369553851958,-0.366491444433185,1.675600437578402,0.05253149690439827,0.029991730900866563,-2.7523658599518894,0.03425285511215528,2.766372722678714,0.7691763250043628,1.6754973547542302,0.052104326824870026,0.029969505109285054,-2.752394845125968,0.0342448039870148,2.7663679543071322,0.7691630533470046,0.00025452928810561004,0.00019072004722134155,-0.001216103006976136,0.00109763171106196,0.0004422123031123066,-0.00021499013791349158,-0.00064693228994464,0.0,0.0,0.0,0.0,0.0,0.0,0.0,-0.00010308282417170744,-0.00042717007952824265,-2.222579158150939e-05,-2.898517407867729e-05,-8.051125140476345e-06,-4.768371581587161e-06,-1.3271657358204791e-05,-0.00025452928810561004,-0.00019072004722134155,0.001216103006976136,-0.00109763171106196,-0.0004422123031123066,0.00021499013791349158,0.00064693228994464,0.4267818331718445,22.847436904907227,0.1253325641155243,-13.957246780395508,-0.11198955774307251,-2.1453890800476074,0.34457725286483765,0
14,0.06498932838439941,-0.4267818331718445,-22.819665908813477,-0.1491362750530243,14.008821487426758,0.1293845772743225,2.1389803886413574,-0.37845176458358765,0.0,0.0,0.0,0.0,0.0,0.0,0.0,-0.41562759199923427,-0.02345137853992866,-0.22732031115919257,0.13524593441290983,-0.11206922497309334,-0.043907419329217476,-0.36503231723392016,1.675600437578402,0.05252954806256713,0.029992664636817046,-2.7523695067016756,0.03425092233220736,2.7663734347555367,0.7691801319609916,1.6754973547542302,0.052104326824870026,0.029969505109285054,-2.752394845125968,0.0342448039870148,2.7663679543071322,0.7691630533470046,0.0004145472464353172,-0.0005722923594939284,0.00012694230433178588,-0.00031744420145124767,-0.00037897799856514503,0.00029750027612661286,0.0004973484936673688,0.0,0.0,0.0,0.0,0.0,0.0,0.0,-0.00010308282417170744,-0.0004252212376971015,-2.3159527531992075e-05,-2.5338424292531414e-05,-6.118345192561436e-06,-5.480448404426852e-06,-1.7078613986920566e-05,-0.0004145472464353172,0.0005722923594939284,-0.00012694230433178588,0.00031744420145124767,0.00037897799856514503,-0.00029750027612661286,-0.0004973484936673688,0.4267818331718445,22.819665908813477,0.1491362750530243,-14.008821487426758,-0.1293845772743225,-2.1389803886413574,0.37845176458358765,0
15,0.06999492645263672,-0.4267818331718445,-22.819665908813477,-0.1491362750530243,14.008821487426758,0.1293845772743225,2.1389803886413574,-0.37845176458358765,0.0,0.0,0.0,0.0,0.0,0.0,0.0,-0.41562759199923427,-0.02345137853992866,-0.22732031115919257,0.13524593441290983,-0.11206922497309334,-0.043907419329217476,-0.36503231723392016,1.675600437578402,0.05252954806256713,0.029992664636817046,-2.7523695067016756,0.03425092233220736,2.7663734347555367,0.7691801319609916,1.6754973547542302,0.052104326824870026,0.029969505109285054,-2.752394845125968,0.0342448039870148,2.7663679543071322,0.7691630533470046,0.0004145472464353172,-0.0005722923594939284,0.00012694230433178588,-0.00031744420145124767,-0.00037897799856514503,0.00029750027612661286,0.0004973484936673688,0.0,0.0,0.0,0.0,0.0,0.0,0.0,-0.00010308282417170744,-0.0004252212376971015,-2.3159527531992075e-05,-2.5338424292531414e-05,-6.118345192561436e-06,-5.480448404426852e-06,-1.7078613986920566e-05,-0.0004145472464353172,0.0005722923594939284,-0.00012694230433178588,0.00031744420145124767,0.00037897799856514503,-0.00029750027612661286,-0.0004973484936673688,0.4267818331718445,22.819665908813477,0.1491362750530243,-14.008821487426758,-0.1293845772743225,-2.1389803886413574,0.37845176458358765,0
16,0.07500529289245605,-0.4267818331718445,-22.847436904907227,-0.1491362750530243,13.981050491333008,0.1293845772743225,2.1325716972351074,-0.38577598333358765,0.0,0.0,0.0,0.0,0.0,0.0,0.0,-0.4266066661391252,-0.020307688446249403,-0.2394386761191366,0.13398524646566637,-0.11103792531175027,-0.04367598209257086,-0.36442847010039725,1.675600437578402,0.05253149690439827,0.029993398377504317,-2.7523675303878994,0.03425092233220736,2.76637414683236,0.7691809021568109,1.6754973547542302,0.052104326824870026,0.029969505109285054,-2.752394845125968,0.0342448039870148,2.7663679543071322,0.7691630533470046,-0.000754818330414581,0.0007392367631039689,-0.0008443115635307091,0.00026603713643281947,-3.878536324716057e-05,0.0004953133447279838,0.0009378222621971414,0.0,0.0,0.0,0.0,0.0,0.0,0.0,-0.00010308282417170744,-0.00042717007952824265,-2.3893268219263297e-05,-2.731473806871776e-05,-6.118345192561436e-06,-6.192525227710632e-06,-1.7848809806264576e-05,0.000754818330414581,-0.0007392367631039689,0.0008443115635307091,-0.00026603713643281947,3.878536324716057e-05,-0.0004953133447279838,-0.0009378222621971414,0.4267818331718445,22.847436904907227,0.1491362750530243,-13.981050491333008,-0.1293845772743225,-2.1325716972351074,0.38577598333358765,0
17,0.07999134063720703,-0.4267818331718445,-22.847436904907227,-0.1491362750530243,13.981050491333008,0.1293845772743225,2.1325716972351074,-0.38577598333358765,0.0,0.0,0.0,0.0,0.0,0.0,0.0,-0.4266066661391252,-0.020307688446249403,-0.2394386761191366,0.13398524646566637,-0.11103792531175027,-0.04367598209257086,-0.36442847010039725,1.675600437578402,0.05253149690439827,0.029993398377504317,-2.7523675303878994,0.03425092233220736,2.76637414683236,0.7691809021568109,1.6754973547542302,0.052104326824870026,0.029969505109285054,-2.752394845125968,0.0342448039870148,2.7663679543071322,0.7691630533470046,-0.000754818330414581,0.0007392367631039689,-0.0008443115635307091,0.00026603713643281947,-3.878536324716057e-05,0.0004953133447279838,0.0009378222621971414,0.0,0.0,0.0,0.0,0.0,0.0,0.0,-0.00010308282417170744,-0.00042717007952824265,-2.3893268219263297e-05,-2.731473806871776e-05,-6.118345192561436e-06,-6.192525227710632e-06,-1.7848809806264576e-05,0.000754818330414581,-0.0007392367631039689,0.0008443115635307091,-0.00026603713643281947,3.878536324716057e-05,-0.0004953133447279838,-0.0009378222621971414,0.4267818331718445,22.847436904907227,0.1491362750530243,-13.981050491333008,-0.1293845772743225,-2.1325716972351074,0.38577598333358765,0
18,0.08500456809997559,-0.4267818331718445,-22.847436904907227,-0.1491362750530243,13.981050491333008,0.1293845772743225,2.1325716972351074,-0.38577598333358765,0.0,0.0,0.0,0.0,0.0,0.0,0.0,-0.4266066661391252,-0.020307688446249403,-0.2394386761191366,0.13398524646566637,-0.11103792531175027,-0.04367598209257086,-0.36442847010039725,1.675600437578402,0.05253149690439827,0.029993398377504317,-2.7523675303878994,0.03425092233220736,2.76637414683236,0.7691809021568109,1.6754973547542302,0.052104326824870026,0.029969505109285054,-2.752394845125968,0.0342448039870148,2.7663679543071322,0.7691630533470046,-0.000754818330414581,0.0007392367631039689,-0.0008443115635307091,0.00026603713643281947,-3.878536324716057e-05,0.0004953133447279838,0.0009378222621971414,0.0,0.0,0.0,0.0,0.0,0.0,0.0,-0.00010308282417170744,-0.00042717007952824265,-2.3893268219263297e-05,-2.731473806871776e-05,-6.118345192561436e-06,-6.192525227710632e-06,-1.7848809806264576e-05,0.000754818330414581,-0.0007392367631039689,0.0008443115635307091,-0.00026603713643281947,3.878536324716057e-05,-0.0004953133447279838,-0.0009378222621971414,0.4267818331718445,22.847436904907227,0.1491362750530243,-13.981050491333008,-0.1293845772743225,-2.1325716972351074,0.38577598333358765,0
19,0.08998727798461914,-0.4267818331718445,-22.847436904907227,-0.1491362750530243,13.981050491333008,0.1293845772743225,2.1325716972351074,-0.38577598333358765,0.0,0.0,0.0,0.0,0.0,0.0,0.0,-0.4266066661391252,-0.020307688446249403,-0.2394386761191366,0.13398524646566637,-0.11103792531175027,-0.04367598209257086,-0.36442847010039725,1.675600437578402,0.05253149690439827,0.029993398377504317,-2.7523675303878994,0.03425092233220736,2.76637414683236,0.7691809021568109,1.6754973547542302,0.052104326824870026,0.029969505109285054,-2.752394845125968,0.0342448039870148,2.7663679543071322,0.7691630533470046,-0.000754818330414581,0.0007392367631039689,-0.0008443115635307091,0.00026603713643281947,-3.878536324716057e-05,0.0004953133447279838,0.0009378222621971414,0.0,0.0,0.0,0.0,0.0,0.0,0.0,-0.00010308282417170744,-0.00042717007952824265,-2.3893268219263297e-05,-2.731473806871776e-05,-6.118345192561436e-06,-6.192525227710632e-06,-1.7848809806264576e-05,0.000754818330414581,-0.0007392367631039689,0.0008443115635307091,-0.00026603713643281947,3.878536324716057e-05,-0.0004953133447279838,-0.0009378222621971414,0.4267818331718445,22.847436904907227,0.1491362750530243,-13.981050491333008,-0.1293845772743225,-2.1325716972351074,0.38577598333358765,0
20,0.09493851661682129,-0.4505855441093445,-22.795862197875977,-0.2007109820842743,14.008821487426758,0.1293845772743225,2.1453890800476074,-0.34457725286483765,0.0,0.0,0.0,0.0,0.0,0.0,0.0,-0.4254578969599547,-0.01583074820996272,-0.23771787953391313,0.13241206215172754,-0.11071714855424487,-0.04324666763766234,-0.36655204923445356,1.6756021080142571,0.052527877626711864,0.0299970205101586,-2.752369479229576,0.03425092233220736,2.766372722678714,0.7691763251658684,1.6754973547542302,0.052104326824870026,0.029969505109285054,-2.752394845125968,0.0342448039870148,2.7663679543071322,0.7691630533470046,-9.34142399070122e-05,-7.424293443536635e-05,0.0008826288491168404,-0.00024726293434329614,-0.0003071987513708188,5.31707817286679e-05,-0.001472746666943858,0.0,0.0,0.0,0.0,0.0,0.0,0.0,-0.00010475326002690188,-0.0004235508018418377,-2.7515400873544954e-05,-2.536589639223763e-05,-6.118345192561436e-06,-4.768371581587161e-06,-1.3271818863791474e-05,9.34142399070122e-05,7.424293443536635e-05,-0.0008826288491168404,0.00024726293434329614,0.0003071987513708188,-5.31707817286679e-05,0.001472746666943858,0.4505855441093445,22.795862197875977,0.2007109820842743,-14.008821487426758,-0.1293845772743225,-2.1453890800476074,0.34457725286483765,0
21,0.09999585151672363,-0.4505855441093445,-22.795862197875977,-0.2007109820842743,14.008821487426758,0.1293845772743225,2.1453890800476074,-0.34457725286483765,0.0,0.0,0.0,0.0,0.0,0.0,0.0,-0.4254578969599547,-0.01583074820996272,-0.23771787953391313,0.13241206215172754,-0.11071714855424487,-0.04324666763766234,-0.36655204923445356,1.6756021080142571,0.052527877626711864,0.0299970205101586,-2.752369479229576,0.03425092233220736,2.766372722678714,0.7691763251658684,1.6754973547542302,0.052104326824870026,0.029969505109285054,-2.752394845125968,0.0342448039870148,2.7663679543071322,0.7691630533470046,-9.34142399070122e-05,-7.424293443536635e-05,0.0008826288491168404,-0.00024726293434329614,-0.0003071987513708188,5.31707817286679e-05,-0.001472746666943858,0.0,0.0,0.0,0.0,0.0,0.0,0.0,-0.00010475326002690188,-0.0004235508018418377,-2.7515400873544954e-05,-2.536589639223763e-05,-6.118345192561436e-06,-4.768371581587161e-06,-1.3271818863791474e-05,9.34142399070122e-05,7.424293443536635e-05,-0.0008826288491168404,0.00024726293434329614,0.0003071987513708188,-5.31707817286679e-05,0.001472746666943858,0.4505855441093445,22.795862197875977,0.2007109820842743,-14.008821487426758,-0.1293845772743225,-2.1453890800476074,0.34457725286483765,0
22,0.10493612289428711,-0.4267818331718445,-22.795862197875977,-0.1491362750530243,14.008821487426758,0.12389141321182251,2.1453890800476074,-0.36471885442733765,0.0,0.0,0.0,0.0,0.0,0.0,0.0,-0.42992716520242924,-0.021082006824985063,-0.2378554789214894,0.13626090795708742,-0.11041534913346493,-0.04140517458650643,-0.36918993170908,1.675600437578402,0.05252811411365896,0.02999127047469558,-2.752369479229576,0.03425153268376986,2.766372722678714,0.7691785624755862,1.6754973547542302,0.052104326824870026,0.029969505109285054,-2.752394845125968,0.0342448039870148,2.7663679543071322,0.7691630533470046,-0.0004057185652957244,-0.0008135347636556966,-0.00028417041498199623,-0.0003537699503918539,-0.00019695819259212636,-0.00018571637297483607,-0.00012521489660110107,0.0,0.0,0.0,0.0,0.0,0.0,0.0,-0.00010308282417170744,-0.0004237872887889321,-2.1765365410524734e-05,-2.536589639223763e-05,-6.728696755060881e-06,-4.768371581587161e-06,-1.5509128581614462e-05,0.0004057185652957244,0.0008135347636556966,0.00028417041498199623,0.0003537699503918539,0.00019695819259212636,0.00018571637297483607,0.00012521489660110107,0.4267818331718445,22.795862197875977,0.1491362750530243,-14.008821487426758,-0.12389141321182251,-2.1453890800476074,0.36471885442733765,0
23,0.10999703407287598,-0.4267818331718445,-22.795862197875977,-0.1491362750530243,14.008821487426758,0.12389141321182251,2.1453890800476074,-0.36471885442733765,0.0,0.0,0.0,0.0,0.0,0.0,0.0,-0.42992716520242924,-0.021082006824985063,-0.2378554789214894,0.13626090795708742,-0.11041534913346493,-0.04140517458650643,-0.36918993170908,1.675600437578402,0.05252811411365896,0.02999127047469558,-2.752369479229576,0.03425153268376986,2.766372722678714,0.7691785624755862,1.6754973547542302,0.052104326824870026,0.029969505109285054,-2.752394845125968,0.0342448039870148,2.7663679543071322,0.7691630533470046,-0.0004057185652957244,-0.0008135347636556966,-0.00028417041498199623,-0.0003537699503918539,-0.00019695819259212636,-0.00018571637297483607,-0.00012521489660110107,0.0,0.0,0.0,0.0,0.0,0.0,0.0,-0.00010308282417170744,-0.0004237872887889321,-2.1765365410524734e-05,-2.536589639223763e-05,-6.728696755060881e-06,-4.768371581587161e-06,-1.5509128581614462e-05,0.0004057185652957244,0.0008135347636556966,0.00028417041498199623,0.0003537699503918539,0.00019695819259212636,0.00018571637297483607,0.00012521489660110107,0.4267818331718445,22.795862197875977,0.1491362750530243,-14.008821487426758,-0.12389141321182251,-2.1453890800476074,0.36471885442733765,0
24,0.11499190330505371,-0.4267818331718445,-22.819665908813477,-0.1253325641155243,14.008821487426758,0.11198955774307251,2.1517977714538574,-0.34457725286483765,0.0,0.0,0.0,0.0,0.0,0.0,0.0,-0.4321159439547589,-0.015925280743625002,-0.23626687460137927,0.13423355383327604,-0.11108676811040802,-0.04135329868359063,-0.37076254315574547,1.675600437578402,0.05252954806301212,0.029991722095800772,-2.752369479229576,0.03425285511215528,2.7663720498477478,0.7691763259913413,1.6754973547542302,0.052104326824870026,0.029969505109285054,-2.752394845125968,0.0342448039870148,2.7663679543071322,0.7691630533470046,-0.0001043009714204621,-0.0001698323497327738,-0.0004403581783853818,-0.0002773261643761634,0.00026660287232009475,-0.0001932873796087876,-0.0006440603029130918,0.0,0.0,0.0,0.0,0.0,0.0,0.0,-0.00010308282417170744,-0.0004252212381420928,-2.2216986515718323e-05,-2.536589639223763e-05,-8.051125140476345e-06,-4.095540615534077e-06,-1.327264433670372e-05,0.0001043009714204621,0.0001698323497327738,0.0004403581783853818,0.0002773261643761634,-0.00026660287232009475,0.0001932873796087876,0.0006440603029130918,0.4267818331718445,22.819665908813477,0.1253325641155243,-14.008821487426758,-0.11198955774307251,-2.1517977714538574,0.34457725286483765,0
25,0.1200106143951416,-0.4267818331718445,-22.819665908813477,-0.1253325641155243,14.008821487426758,0.11198955774307251,2.1517977714538574,-0.34457725286483765,0.0,0.0,0.0,0.0,0.0,0.0,0.0,-0.4321159439547589,-0.015925280743625002,-0.23626687460137927,0.13423355383327604,-0.11108676811040802,-0.04135329868359063,-0.37076254315574547,1.675600437578402,0.05252954806301212,0.029991722095800772,-2.752369479229576,0.03425285511215528,2.7663720498477478,0.7691763259913413,1.6754973547542302,0.052104326824870026,0.029969505109285054,-2.752394845125968,0.0342448039870148,2.7663679543071322,0.7691630533470046,-0.0001043009714204621,-0.0001698323497327738,-0.0004403581783853818,-0.0002773261643761634,0.00026660287232009475,-0.0001932873796087876,-0.0006440603029130918,0.0,0.0,0.0,0.0,0.0,0.0,0.0,-0.00010308282417170744,-0.0004252212381420928,-2.2216986515718323e-05,-2.536589639223763e-05,-8.051125140476345e-06,-4.095540615534077e-06,-1.327264433670372e-05,0.0001043009714204621,0.0001698323497327738,0.0004403581783853818,0.0002773261643761634,-0.00026660287232009475,0.0001932873796087876,0.0006440603029130918,0.4267818331718445,22.819665908813477,0.1253325641155243,-14.008821487426758,-0.11198955774307251,-2.1517977714538574,0.34457725286483765,0
26,0.1249847412109375,-0.4029781222343445,-22.871240615844727,-0.07375786453485489,13.981050491333008,0.12389141321182251,2.1389803886413574,-0.35098594427108765,0.0,0.0,0.0,0.0,0.0,0.0,0.0,-0.42808571069726303,-0.019983954297893902,-0.23270569539614472,0.13232876055004483,-0.11206562614935837,-0.04089843247699252,-0.36954237448524957,1.6755987671425465,0.052533167340253525,0.029985980653369652,-2.7523675303877444,0.03425153268376986,2.7663734347557583,0.7691770382117331,1.6754973547542302,0.052104326824870026,0.029969505109285054,-2.752394845125968,0.0342448039870148,2.7663679543071322,0.7691630533470046,6.37079489811426e-05,0.0006010727064397449,-0.0014150087584701718,0.00038977016300316734,-0.00013440168738915108,6.565000159177331e-05,-0.0005736716471722129,0.0,0.0,0.0,0.0,0.0,0.0,0.0,-0.00010141238831629096,-0.00042884051538349954,-1.6475544084598726e-05,-2.7314738223704893e-05,-6.728696755060881e-06,-5.480448626027368e-06,-1.398486472847793e-05,-6.37079489811426e-05,-0.0006010727064397449,0.0014150087584701718,-0.00038977016300316734,0.00013440168738915108,-6.565000159177331e-05,0.0005736716471722129,0.4029781222343445,22.871240615844727,0.07375786453485489,-13.981050491333008,-0.12389141321182251,-2.1389803886413574,0.35098594427108765,0
27,0.12999629974365234,-0.4029781222343445,-22.871240615844727,-0.07375786453485489,13.981050491333008,0.12389141321182251,2.1389803886413574,-0.35098594427108765,0.0,0.0,0.0,0.0,0.0,0.0,0.0,-0.42808571069726303,-0.019983954297893902,-0.23270569539614472,0.13232876055004483,-0.11206562614935837,-0.04089843247699252,-0.36954237448524957,1.6755987671425465,0.052533167340253525,0.029985980653369652,-2.7523675303877444,0.03425153268376986,2.7663734347557583,0.7691770382117331,1.6754973547542302,0.052104326824870026,0.029969505109285054,-2.752394845125968,0.0342448039870148,2.7663679543071322,0.7691630533470046,6.37079489811426e-05,0.0006010727064397449,-0.0014150087584701718,0.00038977016300316734,-0.00013440168738915108,6.565000159177331e-05,-0.0005736716471722129,0.0,0.0,0.0,0.0,0.0,0.0,0.0,-0.00010141238831629096,-0.00042884051538349954,-1.6475544084598726e-05,-2.7314738223704893e-05,-6.728696755060881e-06,-5.480448626027368e-06,-1.398486472847793e-05,-6.37079489811426e-05,-0.0006010727064397449,0.0014150087584701718,-0.00038977016300316734,0.00013440168738915108,-6.565000159177331e-05,0.0005736716471722129,0.4029781222343445,22.871240615844727,0.07375786453485489,-13.981050491333008,-0.12389141321182251,-2.1389803886413574,0.35098594427108765,0
28,0.13499140739440918,-0.4029781222343445,-22.847436904907227,-0.1253325641155243,14.008821487426758,0.11748272180557251,2.1389803886413574,-0.33084434270858765,0.0,0.0,0.0,0.0,0.0,0.0,0.0,-0.42652246300336616,-0.020621904131639623,-0.2337973686446825,0.13118190216573497,-0.11167645741112711,-0.041137072628339585,-0.3672598771231743,1.6755987671425465,0.05253149690439827,0.02999170133408965,-2.752369479229576,0.03425224476059278,2.766373434755537,0.7691749706443887,1.6754973547542302,0.052104326824870026,0.029969505109285054,-2.752394845125968,0.0342448039870148,2.7663679543071322,0.7691630533470046,-0.00016079806430825517,0.0004311754558914834,2.2353483709237985e-05,-0.00029773603016715436,-9.707978115766874e-05,0.00027757281053376404,-0.001673667199617986,0.0,0.0,0.0,0.0,0.0,0.0,0.0,-0.00010141238831629096,-0.00042717007952824265,-2.219622480459718e-05,-2.536589639223763e-05,-7.4407735779769e-06,-5.480448404870941e-06,-1.1917297384034242e-05,0.00016079806430825517,-0.0004311754558914834,-2.2353483709237985e-05,0.00029773603016715436,9.707978115766874e-05,-0.00027757281053376404,0.001673667199617986,0.4029781222343445,22.847436904907227,0.1253325641155243,-14.008821487426758,-0.11748272180557251,-2.1389803886413574,0.33084434270858765,0
29,0.14003467559814453,-0.4029781222343445,-22.847436904907227,-0.1253325641155243,14.008821487426758,0.11748272180557251,2.1389803886413574,-0.33084434270858765,0.0,0.0,0.0,0.0,0.0,0.0,0.0,-0.42652246300336616,-0.020621904131639623,-0.2337973686446825,0.13118190216573497,-0.11167645741112711,-0.041137072628339585,-0.3672598771231743,1.6755987671425465,0.05253149690439827,0.02999170133408965,-2.752369479229576,0.03425224476059278,2.766373434755537,0.7691749706443887,1.6754973547542302,0.052104326824870026,0.029969505109285054,-2.752394845125968,0.0342448039870148,2.7663679543071322,0.7691630533470046,-0.00016079806430825517,0.0004311754558914834,2.2353483709237985e-05,-0.00029773603016715436,-9.707978115766874e-05,0.00027757281053376404,-0.001673667199617986,0.0,0.0,0.0,0.0,0.0,0.0,0.0,-0.00010141238831629096,-0.00042717007952824265,-2.219622480459718e-05,-2.536589639223763e-05,-7.4407735779769e-06,-5.480448404870941e-06,-1.1917297384034242e-05,0.00016079806430825517,-0.0004311754558914834,-2.2353483709237985e-05,0.00029773603016715436,9.707978115766874e-05,-0.00027757281053376404,0.001673667199617986,0.4029781222343445,22.847436904907227,0.1253325641155243,-14.008821487426758,-0.11748272180557251,-2.1389803886413574,0.33084434270858765,0
30,0.1450185775756836,-0.4783565402030945,-22.819665908813477,-0.1253325641155243,14.008821487426758,0.11748272180557251,2.1517977714538574,-0.35098594427108765,0.0,0.0,0.0,0.0,0.0,0.0,0.0,-0.4239487356543973,-0.02057355772714641,-0.23105181462867092,0.13223007315432062,-0.11267791956198833,-0.04059385089306081,-0.3659144712238897,1.6756040568560882,0.05252954806256713,0.029991703479059145,-2.752369479229576,0.03425224476059278,2.7663720106018914,0.76917703659764,1.6754973547542302,0.052104326824870026,0.029969505109285054,-2.752394845125968,0.0342448039870148,2.7663679543071322,0.7691630533470046,0.0010620376055842597,0.0002098536059042102,-0.0002762915329885584,0.0003064133290556053,7.549862492741021e-06,-0.00039675402414829315,-0.0002329857265895046,0.0,0.0,0.0,0.0,0.0,0.0,0.0,-0.00010670210185792506,-0.0004252212376971015,-2.219836977409087e-05,-2.536589639223763e-05,-7.4407735779769e-06,-4.056294759191559e-06,-1.3983250635396516e-05,-0.0010620376055842597,-0.0002098536059042102,0.0002762915329885584,-0.0003064133290556053,-7.549862492741021e-06,0.00039675402414829315,0.0002329857265895046,0.4783565402030945,22.819665908813477,0.1253325641155243,-14.008821487426758,-0.11748272180557251,-2.1517977714538574,0.35098594427108765,0
31,0.14999723434448242,-0.4783565402030945,-22.819665908813477,-0.1253325641155243,14.008821487426758,0.11748272180557251,2.1517977714538574,-0.35098594427108765,0.0,0.0,0.0,0.0,0.0,0.0,0.0,-0.4239487356543973,-0.02057355772714641,-0.23105181462867092,0.13223007315432062,-0.11267791956198833,-0.04059385089306081,-0.3659144712238897,1.6756040568560882,0.05252954806256713,0.029991703479059145,-2.752369479229576,0.03425224476059278,2.7663720106018914,0.76917703659764,1.6754973547542302,0.052104326824870026,0.029969505109285054,-2.752394845125968,0.0342448039870148,2.7663679543071322,0.7691630533470046,0.0010620376055842597,0.0002098536059042102,-0.0002762915329885584,0.0003064133290556053,7.549862492741021e-06,-0.00039675402414829315,-0.0002329857265895046,0.0,0.0,0.0,0.0,0.0,0.0,0.0,-0.00010670210185792506,-0.0004252212376971015,-2.219836977409087e-05,-2.536589639223763e-05,-7.4407735779769e-06,-4.056294759191559e-06,-1.3983250635396516e-05,-0.0010620376055842597,-0.0002098536059042102,0.0002762915329885584,-0.0003064133290556053,-7.549862492741021e-06,0.00039675402414829315,0.0002329857265895046,0.4783565402030945,22.819665908813477,0.1253325641155243,-14.008821487426758,-0.11748272180557251,-2.1517977714538574,0.35098594427108765,0
32,0.15578579902648926,-0.4505855441093445,-22.795862197875977,-0.1491362750530243,13.981050491333008,0.1293845772743225,2.1453890800476074,-0.40591758489608765,0.0,0.0,0.0,0.0,0.0,0.0,0.0,-0.42495061149590607,-0.01890797674784542,-0.23016581487569432,0.13277166786126157,-0.11340836878581582,-0.04120020420468448,-0.36415202284316645,1.6756021080142571,0.052527877626711864,0.029993374708930612,-2.7523675303877444,0.03425092233220736,2.7663727226787143,0.76918423899628,1.6754973547542302,0.052104326824870026,0.029969505109285054,-2.752394845125968,0.0342448039870148,2.7663679543071322,0.7691630533470046,0.0005191399628188073,-0.0005142902468572274,-0.0005726898747232291,0.0002542938411432485,-0.0003193214695059842,-3.283313790574226e-05,0.0017821426151111315,0.0,0.0,0.0,0.0,0.0,0.0,0.0,-0.00010475326002690188,-0.0004235508018418377,-2.386959964555818e-05,-2.7314738223704893e-05,-6.118345192561436e-06,-4.76837158203125e-06,-2.118564927533484e-05,-0.0005191399628188073,0.0005142902468572274,0.0005726898747232291,-0.0002542938411432485,0.0003193214695059842,3.283313790574226e-05,-0.0017821426151111315,0.4505855441093445,22.795862197875977,0.1491362750530243,-13.981050491333008,-0.1293845772743225,-2.1453890800476074,0.40591758489608765,0
33,0.16000652313232422,-0.4505855441093445,-22.795862197875977,-0.1491362750530243,13.981050491333008,0.1293845772743225,2.1453890800476074,-0.40591758489608765,0.0,0.0,0.0,0.0,0.0,0.0,0.0,-0.42495061149590607,-0.01890797674784542,-0.23016581487569432,0.13277166786126157,-0.11340836878581582,-0.04120020420468448,-0.36415202284316645,1.6756021080142571,0.052527877626711864,0.029993374708930612,-2.7523675303877444,0.03425092233220736,2.7663727226787143,0.76918423899628,1.6754973547542302,0.052104326824870026,0.029969505109285054,-2.752394845125968,0.0342448039870148,2.7663679543071322,0.7691630533470046,0.0005191399628188073,-0.0005142902468572274,-0.0005726898747232291,0.0002542938411432485,-0.0003193214695059842,-3.283313790574226e-05,0.0017821426151111315,0.0,0.0,0.0,0.0,0.0,0.0,0.0,-0.00010475326002690188,-0.0004235508018418377,-2.386959964555818e-05,-2.7314738223704893e-05,-6.118345192561436e-06,-4.76837158203125e-06,-2.118564927533484e-05,-0.0005191399628188073,0.0005142902468572274,0.0005726898747232291,-0.0002542938411432485,0.0003193214695059842,3.283313790574226e-05,-0.0017821426151111315,0.4505855441093445,22.795862197875977,0.1491362750530243,-13.981050491333008,-0.1293845772743225,-2.1453890800476074,0.40591758489608765,0
34,0.16504621505737305,-0.4783565402030945,-22.795862197875977,-0.2007109820842743,14.008821487426758,0.11748272180557251,2.1389803886413574,-0.35831016302108765,0.0,0.0,0.0,0.0,0.0,0.0,0.0,-0.4257621410201875,-0.019304534823286163,-0.23371333871965408,0.13625358125361595,-0.11273810284194263,-0.04052153455480656,-0.3647090638409647,1.6756040568560882,0.052527877626711864,0.02999699431129592,-2.752369479229576,0.03425330936577585,2.766373434755537,0.7691778508894723,1.6754973547542302,0.052104326824870026,0.029969505109285054,-2.752394845125968,0.0342448039870148,2.7663679543071322,0.7691630533470046,0.0008963077847011327,-0.0007056311543747145,0.0008681261803359993,-0.0004993827693448642,0.00017966323762882237,0.0002641364125026125,-0.00029825773200560073,0.0,0.0,0.0,0.0,0.0,0.0,0.0,-0.00010670210185792506,-0.0004235508018418377,-2.7489202010864966e-05,-2.536589639223763e-05,-8.505378761049232e-06,-5.480448404870941e-06,-1.4797542467692715e-05,-0.0008963077847011327,0.0007056311543747145,-0.0008681261803359993,0.0004993827693448642,-0.00017966323762882237,-0.0002641364125026125,0.00029825773200560073,0.4783565402030945,22.795862197875977,0.2007109820842743,-14.008821487426758,-0.11748272180557251,-2.1389803886413574,0.35831016302108765,0
35,0.1700136661529541,-0.4783565402030945,-22.795862197875977,-0.2007109820842743,14.008821487426758,0.11748272180557251,2.1389803886413574,-0.35831016302108765,0.0,0.0,0.0,0.0,0.0,0.0,0.0,-0.4257621410201875,-0.019304534823286163,-0.23371333871965408,0.13625358125361595,-0.11273810284194263,-0.04052153455480656,-0.3647090638409647,1.6756040568560882,0.052527877626711864,0.02999699431129592,-2.752369479229576,0.03425330936577585,2.766373434755537,0.7691778508894723,1.6754973547542302,0.052104326824870026,0.029969505109285054,-2.752394845125968,0.0342448039870148,2.7663679543071322,0.7691630533470046,0.0008963077847011327,-0.0007056311543747145,0.0008681261803359993,-0.0004993827693448642,0.00017966323762882237,0.0002641364125026125,-0.00029825773200560073,0.0,0.0,0.0,0.0,0.0,0.0,0.0,-0.00010670210185792506,-0.0004235508018418377,-2.7489202010864966e-05,-2.536589639223763e-05,-8.505378761049232e-06,-5.480448404870941e-06,-1.4797542467692715e-05,-0.0008963077847011327,0.0007056311543747145,-0.0008681261803359993,0.0004993827693448642,-0.00017966323762882237,-0.0002641364125026125,0.00029825773200560073,0.4783565402030945,22.795862197875977,0.2007109820842743,-14.008821487426758,-0.11748272180557251,-2.1389803886413574,0.35831016302108765,0
36,0.17498350143432617,-0.4267818331718445,-22.819665908813477,-0.1491362750530243,14.008821487426758,0.12389141321182251,2.1453890800476074,-0.39218467473983765,0.0,0.0,0.0,0.0,0.0,0.0,0.0,-0.42995912160553973,-0.015413930703900612,-0.23865164753643148,0.13698958670866662,-0.111731176324383,-0.041048443953772565,-0.3651414504449563,1.675600437578402,0.05252954806256713,0.029993163278297562,-2.752369479229576,0.034251532701799044,2.7663727226787143,0.7691826738715254,1.6754973547542302,0.052104326824870026,0.029969505109285054,-2.752394845125968,0.0342448039870148,2.7663679543071322,0.7691630533470046,-0.000563899785801983,0.00021953487205695854,-0.000780921764345326,8.186025097801227e-06,-0.0001691690454225757,-0.00015581734043272383,0.0011224450911818506,0.0,0.0,0.0,0.0,0.0,0.0,0.0,-0.00010308282417170744,-0.0004252212376971015,-2.3658169012508168e-05,-2.536589639223763e-05,-6.728714784243195e-06,-4.76837158203125e-06,-1.962052452075813e-05,0.000563899785801983,-0.00021953487205695854,0.000780921764345326,-8.186025097801227e-06,0.0001691690454225757,0.00015581734043272383,-0.0011224450911818506,0.4267818331718445,22.819665908813477,0.1491362750530243,-14.008821487426758,-0.12389141321182251,-2.1453890800476074,0.39218467473983765,0
37,0.17998886108398438,-0.4267818331718445,-22.819665908813477,-0.1491362750530243,14.008821487426758,0.12389141321182251,2.1453890800476074,-0.39218467473983765,0.0,0.0,0.0,0.0,0.0,0.0,0.0,-0.42995912160553973,-0.015413930703900612,-0.23865164753643148,0.13698958670866662,-0.111731176324383,-0.041048443953772565,-0.3651414504449563,1.675600437578402,0.05252954806256713,0.029993163278297562,-2.752369479229576,0.034251532701799044,2.7663727226787143,0.7691826738715254,1.6754973547542302,0.052104326824870026,0.029969505109285054,-2.752394845125968,0.0342448039870148,2.7663679543071322,0.7691630533470046,-0.000563899785801983,0.00021953487205695854,-0.000780921764345326,8.186025097801227e-06,-0.0001691690454225757,-0.00015581734043272383,0.0011224450911818506,0.0,0.0,0.0,0.0,0.0,0.0,0.0,-0.00010308282417170744,-0.0004252212376971015,-2.3658169012508168e-05,-2.536589639223763e-05,-6.728714784243195e-06,-4.76837158203125e-06,-1.962052452075813e-05,0.000563899785801983,-0.00021953487205695854,0.000780921764345326,-8.186025097801227e-06,0.0001691690454225757,0.00015581734043272383,-0.0011224450911818506,0.4267818331718445,22.819665908813477,0.1491362750530243,-14.008821487426758,-0.12389141321182251,-2.1453890800476074,0.39218467473983765,0
38,0.18500113487243652,-0.4267818331718445,-22.819665908813477,-0.1491362750530243,14.008821487426758,0.12389141321182251,2.1453890800476074,-0.39218467473983765,0.0,0.0,0.0,0.0,0.0,0.0,0.0,-0.42995912160553973,-0.015413930703900612,-0.23865164753643148,0.13698958670866662,-0.111731176324383,-0.041048443953772565,-0.3651414504449563,1.675600437578402,0.05252954806256713,0.029993163278297562,-2.752369479229576,0.034251532701799044,2.7663727226787143,0.7691826738715254,1.6754973547542302,0.052104326824870026,0.029969505109285054,-2.752394845125968,0.0342448039870148,2.7663679543071322,0.7691630533470046,-0.000563899785801983,0.00021953487205695854,-0.000780921764345326,8.186025097801227e-06,-0.0001691690454225757,-0.00015581734043272383,0.0011224450911818506,0.0,0.0,0.0,0.0,0.0,0.0,0.0,-0.00010308282417170744,-0.0004252212376971015,-2.3658169012508168e-05,-2.536589639223763e-05,-6.728714784243195e-06,-4.76837158203125e-06,-1.962052452075813e-05,0.000563899785801983,-0.00021953487205695854,0.000780921764345326,-8.186025097801227e-06,0.0001691690454225757,0.00015581734043272383,-0.0011224450911818506,0.4267818331718445,22.819665908813477,0.1491362750530243,-14.008821487426758,-0.12389141321182251,-2.1453890800476074,0.39218467473983765,0
39,0.1900346279144287,-0.4267818331718445,-22.819665908813477,-0.1491362750530243,14.008821487426758,0.12389141321182251,2.1453890800476074,-0.39218467473983765,0.0,0.0,0.0,0.0,0.0,0.0,0.0,-0.42995912160553973,-0.015413930703900612,-0.23865164753643148,0.13698958670866662,-0.111731176324383,-0.041048443953772565,-0.3651414504449563,1.675600437578402,0.05252954806256713,0.029993163278297562,-2.752369479229576,0.034251532701799044,2.7663727226787143,0.7691826738715254,1.6754973547542302,0.052104326824870026,0.029969505109285054,-2.752394845125968,0.0342448039870148,2.7663679543071322,0.7691630533470046,-0.000563899785801983,0.00021953487205695854,-0.000780921764345326,8.186025097801227e-06,-0.0001691690454225757,-0.00015581734043272383,0.0011224450911818506,0.0,0.0,0.0,0.0,0.0,0.0,0.0,-0.00010308282417170744,-0.0004252212376971015,-2.3658169012508168e-05,-2.536589639223763e-05,-6.728714784243195e-06,-4.76837158203125e-06,-1.962052452075813e-05,0.000563899785801983,-0.00021953487205695854,0.000780921764345326,-8.186025097801227e-06,0.0001691690454225757,0.00015581734043272383,-0.0011224450911818506,0.4267818331718445,22.819665908813477,0.1491362750530243,-14.008821487426758,-0.12389141321182251,-2.1453890800476074,0.39218467473983765,0
40,0.19503355026245117,-0.4505855441093445,-22.871240615844727,-0.1491362750530243,13.981050491333008,0.11748272180557251,2.1325716972351074,-0.39950889348983765,0.0,0.0,0.0,0.0,0.0,0.0,0.0,-0.4305868423780054,-0.016064311036164472,-0.23867768621247784,0.13671665749198839,-0.11111146609974376,-0.04180017212629849,-0.36467619783239597,1.6756021080142571,0.052533167340253525,0.02999339798336872,-2.7523675303877444,0.03425224476059288,2.7663741468323604,0.7691825459405283,1.6754973547542302,0.052104326824870026,0.029969505109285054,-2.752394845125968,0.0342448039870148,2.7663679543071322,0.7691630533470046,0.0003892152549944763,0.0009513927988388189,-5.9080883634021805e-05,0.0005643324472492012,0.00021364169668484825,0.00041843755490421347,0.0012238257411210207,0.0,0.0,0.0,0.0,0.0,0.0,0.0,-0.00010475326002690188,-0.00042884051538349954,-2.389287408366761e-05,-2.7314738223704893e-05,-7.440773578080984e-06,-6.192525228154722e-06,-1.9492593523628976e-05,-0.0003892152549944763,-0.0009513927988388189,5.9080883634021805e-05,-0.0005643324472492012,-0.00021364169668484825,-0.00041843755490421347,-0.0012238257411210207,0.4505855441093445,22.871240615844727,0.1491362750530243,-13.981050491333008,-0.11748272180557251,-2.1325716972351074,0.39950889348983765,0
41,0.2000119686126709,-0.4505855441093445,-22.871240615844727,-0.1491362750530243,13.981050491333008,0.11748272180557251,2.1325716972351074,-0.39950889348983765,0.0,0.0,0.0,0.0,0.0,0.0,0.0,-0.4305868423780054,-0.016064311036164472,-0.23867768621247784,0.13671665749198839,-0.11111146609974376,-0.04180017212629849,-0.36467619783239597,1.6756021080142571,0.052533167340253525,0.02999339798336872,-2.7523675303877444,0.03425224476059288,2.7663741468323604,0.7691825459405283,1.6754973547542302,0.052104326824870026,0.029969505109285054,-2.752394845125968,0.0342448039870148,2.7663679543071322,0.7691630533470046,0.0003892152549944763,0.0009513927988388189,-5.9080883634021805e-05,0.0005643324472492012,0.00021364169668484825,0.00041843755490421347,0.0012238257411210207,0.0,0.0,0.0,0.0,0.0,0.0,0.0,-0.00010475326002690188,-0.00042884051538349954,-2.389287408366761e-05,-2.7314738223704893e-05,-7.440773578080984e-06,-6.192525228154722e-06,-1.9492593523628976e-05,-0.0003892152549944763,-0.0009513927988388189,5.9080883634021805e-05,-0.0005643324472492012,-0.00021364169668484825,-0.00041843755490421347,-0.0012238257411210207,0.4505855441093445,22.871240615844727,0.1491362750530243,-13.981050491333008,-0.11748272180557251,-2.1325716972351074,0.39950889348983765,0
42,0.20499825477600098,-0.4267818331718445,-22.819665908813477,-0.1491362750530243,14.008821487426758,0.12389141321182251,2.1453890800476074,-0.40591758489608765,0.0,0.0,0.0,0.0,0.0,0.0,0.0,-0.4279915941861291,-0.01623948540734781,-0.2372300468718207,0.1375617097265734,-0.11087574400999747,-0.04257649439962569,-0.364399136442905,1.675600437578402,0.05252954806256713,0.029993401340741816,-2.752369479229576,0.03425153268376986,2.7663727226787143,0.769183140166351,1.6754973547542302,0.052104326824870026,0.029969505109285054,-2.752394845125968,0.0342448039870148,2.7663679543071322,0.7691630533470046,-7.979573495275952e-05,-0.00022113692938546657,0.0003537524487923876,0.00013763354897074176,0.006898434516097827,-0.0002769543633838976,0.002084956343014513,0.0,0.0,0.0,0.0,0.0,0.0,0.0,-0.00010308282417170744,-0.0004252212376971015,-2.3896231456762423e-05,-2.536589639223763e-05,-6.728696755060881e-06,-4.76837158203125e-06,-2.0086819346398777e-05,7.979573495275952e-05,0.00022113692938546657,-0.0003537524487923876,-0.00013763354897074176,-0.006898434516097827,0.0002769543633838976,-0.002084956343014513,0.4267818331718445,22.819665908813477,0.1491362750530243,-14.008821487426758,-0.12389141321182251,-2.1453890800476074,0.40591758489608765,0
43,0.20998454093933105,-0.4267818331718445,-22.819665908813477,-0.1491362750530243,14.008821487426758,0.12389141321182251,2.1453890800476074,-0.40591758489608765,0.0,0.0,0.0,0.0,0.0,0.0,0.0,-0.4279915941861291,-0.01623948540734781,-0.2372300468718207,0.1375617097265734,-0.11087574400999747,-0.04257649439962569,-0.364399136442905,1.675600437578402,0.05252954806256713,0.029993401340741816,-2.752369479229576,0.03425153268376986,2.7663727226787143,0.769183140166351,1.6754973547542302,0.052104326824870026,0.029969505109285054,-2.752394845125968,0.0342448039870148,2.7663679543071322,0.7691630533470046,-7.979573495275952e-05,-0.00022113692938546657,0.0003537524487923876,0.00013763354897074176,0.006898434516097827,-0.0002769543633838976,0.002084956343014513,0.0,0.0,0.0,0.0,0.0,0.0,0.0,-0.00010308282417170744,-0.0004252212376971015,-2.3896231456762423e-05,-2.536589639223763e-05,-6.728696755060881e-06,-4.76837158203125e-06,-2.0086819346398777e-05,7.979573495275952e-05,0.00022113692938546657,-0.0003537524487923876,-0.00013763354897074176,-0.006898434516097827,0.0002769543633838976,-0.002084956343014513,0.4267818331718445,22.819665908813477,0.1491362750530243,-14.008821487426758,-0.12389141321182251,-2.1453890800476074,0.40591758489608765,0
44,0.21500587463378906,-0.4267818331718445,-22.847436904907227,-0.1253325641155243,14.008821487426758,0.11748272180557251,2.1389803886413574,-0.34457725286483765,0.0,0.0,0.0,0.0,0.0,0.0,0.0,-0.42638151081820413,-0.016316962011045558,-0.2342051503912034,0.13822367515748865,-0.11103342308809927,-0.04263060269365369,-0.3639603401612567,1.675600437578402,0.0525315066363714,0.02999165162306399,-2.752369479229576,0.03425224476059278,2.766373434755537,0.7691764422574163,1.6754973547542302,0.052104326824870026,0.029969505109285054,-2.752394845125968,0.0342448039870148,2.7663679543071322,0.7691630533470046,0.0003672585271190975,0.0009474391721284187,-0.0002854951052235306,-7.919113537215716e-05,0.000285162343692459,0.00020012633235326328,-0.0007142792046361098,0.0,0.0,0.0,0.0,0.0,0.0,0.0,-0.00010308282417170744,-0.0004271798115013728,-2.2146513778936727e-05,-2.536589639223763e-05,-7.4407735779769e-06,-5.480448404870941e-06,-1.3388910411693544e-05,-0.0003672585271190975,-0.0009474391721284187,0.0002854951052235306,7.919113537215716e-05,-0.000285162343692459,-0.00020012633235326328,0.0007142792046361098,0.4267818331718445,22.847436904907227,0.1253325641155243,-14.008821487426758,-0.11748272180557251,-2.1389803886413574,0.34457725286483765,0
45,0.21998357772827148,-0.4267818331718445,-22.847436904907227,-0.1253325641155243,14.008821487426758,0.11748272180557251,2.1389803886413574,-0.34457725286483765,0.0,0.0,0.0,0.0,0.0,0.0,0.0,-0.42638151081820413,-0.016316962011045558,-0.2342051503912034,0.13822367515748865,-0.11103342308809927,-0.04263060269365369,-0.3639603401612567,1.675600437578402,0.0525315066363714,0.02999165162306399,-2.752369479229576,0.03425224476059278,2.766373434755537,0.7691764422574163,1.6754973547542302,0.052104326824870026,0.029969505109285054,-2.752394845125968,0.0342448039870148,2.7663679543071322,0.7691630533470046,0.0003672585271190975,0.0009474391721284187,-0.0002854951052235306,-7.919113537215716e-05,0.000285162343692459,0.00020012633235326328,-0.0007142792046361098,0.0,0.0,0.0,0.0,0.0,0.0,0.0,-0.00010308282417170744,-0.0004271798115013728,-2.2146513778936727e-05,-2.536589639223763e-05,-7.4407735779769e-06,-5.480448404870941e-06,-1.3388910411693544e-05,-0.0003672585271190975,-0.0009474391721284187,0.0002854951052235306,7.919113537215716e-05,-0.000285162343692459,-0.00020012633235326328,0.0007142792046361098,0.4267818331718445,22.847436904907227,0.1253325641155243,-14.008821487426758,-0.11748272180557251,-2.1389803886413574,0.34457725286483765,0
46,0.22500371932983398,-0.4029781222343445,-22.819665908813477,-0.1253325641155243,14.008821487426758,0.11748272180557251,2.1389803886413574,-0.35831016302108765,0.0,0.0,0.0,0.0,0.0,0.0,0.0,-0.42222168380039676,-0.018696582638387724,-0.2311408752811554,0.13823202951238955,-0.11104954720232134,-0.042538694452440615,-0.36343627942498385,1.6755987671425465,0.05252954806262206,0.029988863406636344,-2.7523694883869423,0.03425224476059278,2.766373434755537,0.7691778503994169,1.6754973547542302,0.052104326824870026,0.029969505109285054,-2.752394845125968,0.0342448039870148,2.7663679543071322,0.7691630533470046,0.00032168121885886423,-0.0003071106164907291,-0.000290782678249875,-0.0003648720901332468,0.00016643483895478477,0.00012734224248031002,-0.0006507485389438279,0.0,0.0,0.0,0.0,0.0,0.0,0.0,-0.00010141238831629096,-0.00042522123775203674,-1.9358297351289994e-05,-2.535673902581692e-05,-7.4407735779769e-06,-5.480448404870941e-06,-1.4797052412252043e-05,-0.00032168121885886423,0.0003071106164907291,0.000290782678249875,0.0003648720901332468,-0.00016643483895478477,-0.00012734224248031002,0.0006507485389438279,0.4029781222343445,22.819665908813477,0.1253325641155243,-14.008821487426758,-0.11748272180557251,-2.1389803886413574,0.35831016302108765,0
47,0.23001837730407715,-0.4029781222343445,-22.819665908813477,-0.1253325641155243,14.008821487426758,0.11748272180557251,2.1389803886413574,-0.35831016302108765,0.0,0.0,0.0,0.0,0.0,0.0,0.0,-0.42222168380039676,-0.018696582638387724,-0.2311408752811554,0.13823202951238955,-0.11104954720232134,-0.042538694452440615,-0.36343627942498385,1.6755987671425465,0.05252954806262206,0.029988863406636344,-2.7523694883869423,0.03425224476059278,2.766373434755537,0.7691778503994169,1.6754973547542302,0.052104326824870026,0.029969505109285054,-2.752394845125968,0.0342448039870148,2.7663679543071322,0.7691630533470046,0.00032168121885886423,-0.0003071106164907291,-0.000290782678249875,-0.0003648720901332468,0.00016643483895478477,0.00012734224248031002,-0.0006507485389438279,0.0,0.0,0.0,0.0,0.0,0.0,0.0,-0.00010141238831629096,-0.00042522123775203674,-1.9358297351289994e-05,-2.535673902581692e-05,-7.4407735779769e-06,-5.480448404870941e-06,-1.4797052412252043e-05,-0.00032168121885886423,0.0003071106164907291,0.000290782678249875,0.0003648720901332468,-0.00016643483895478477,-0.00012734224248031002,0.0006507485389438279,0.4029781222343445,22.819665908813477,0.1253325641155243,-14.008821487426758,-0.11748272180557251,-2.1389803886413574,0.35831016302108765,0
48,0.23500633239746094,-0.4029781222343445,-22.847436904907227,-0.1491362750530243,14.032625198364258,0.11748272180557251,2.1517977714538574,-0.39218467473983765,0.0,0.0,0.0,0.0,0.0,0.0,0.0,-0.4242803991683496,-0.01856796067892056,-0.23467335773902906,0.141255786831854,-0.11090907470917521,-0.042454451790489935,-0.3630432023698993,1.6755987671425465,0.05253149690439827,0.029990548477831936,-2.7523711496654824,0.03425224476059278,2.7663720106018914,0.7691816142333877,1.6754973547542302,0.052104326824870026,0.029969505109285054,-2.752394845125968,0.0342448039870148,2.7663679543071322,0.7691630533470046,-0.0005318762553521603,0.000882700731777916,0.00011303794191769196,-0.0007138551618616246,8.640939072393647e-05,-0.00029243981679295247,0.0013446858367012597,0.0,0.0,0.0,0.0,0.0,0.0,0.0,-0.00010141238831629096,-0.00042717007952824265,-2.1043368546882352e-05,-2.3695460485750885e-05,-7.4407735779769e-06,-4.056294759191559e-06,-1.8560886383078845e-05,0.0005318762553521603,-0.000882700731777916,-0.00011303794191769196,0.0007138551618616246,-8.640939072393647e-05,0.00029243981679295247,-0.0013446858367012597,0.4029781222343445,22.847436904907227,0.1491362750530243,-14.032625198364258,-0.11748272180557251,-2.1517977714538574,0.39218467473983765,0
49,0.24001193046569824,-0.4029781222343445,-22.847436904907227,-0.1491362750530243,14.032625198364258,0.11748272180557251,2.1517977714538574,-0.39218467473983765,0.0,0.0,0.0,0.0,0.0,0.0,0.0,-0.4242803991683496,-0.01856796067892056,-0.23467335773902906,0.141255786831854,-0.11090907470917521,-0.042454451790489935,-0.3630432023698993,1.6755987671425465,0.05253149690439827,0.029990548477831936,-2.7523711496654824,0.03425224476059278,2.7663720106018914,0.7691816142333877,1.6754973547542302,0.052104326824870026,0.029969505109285054,-2.752394845125968,0.0342448039870148,2.7663679543071322,0.7691630533470046,-0.0005318762553521603,0.000882700731777916,0.00011303794191769196,-0.0007138551618616246,8.640939072393647e-05,-0.00029243981679295247,0.0013446858367012597,0.0,0.0,0.0,0.0,0.0,0.0,0.0,-0.00010141238831629096,-0.00042717007952824265,-2.1043368546882352e-05,-2.3695460485750885e-05,-7.4407735779769e-06,-4.056294759191559e-06,-1.8560886383078845e-05,0.0005318762553521603,-0.000882700731777916,-0.00011303794191769196,0.0007138551618616246,-8.640939072393647e-05,0.00029243981679295247,-0.0013446858367012597,0.4029781222343445,22.847436904907227,0.1491362750530243,-14.032625198364258,-0.11748272180557251,-2.1517977714538574,0.39218467473983765,0
50,0.2450416088104248,-0.4505855441093445,-22.819665908813477,-0.1729399859905243,14.032625198364258,0.11748272180557251,2.1453890800476074,-0.38577598333358765,0.0,0.0,0.0,0.0,0.0,0.0,0.0,-0.4220422500652065,-0.018880839710357773,-0.23400262068131622,0.14006981889840708,-0.11197992150293452,-0.04223498488071867,-0.36319682993878155,1.6756021080142571,0.05252954806256713,0.02999436111095129,-2.752371149665431,0.03425224476059278,2.7663727226787143,0.7691840810709528,1.6754973547542302,0.052104326824870026,0.029969505109285054,-2.752394845125968,0.0342448039870148,2.7663679543071322,0.7691630533470046,0.0005912293140488695,-0.0003971013544656784,-9.199494721390719e-05,-0.0006964891503422648,-0.0001628952596275892,6.008605402428089e-05,0.0011945298039673714,0.0,0.0,0.0,0.0,0.0,0.0,0.0,-0.00010475326002690188,-0.0004252212376971015,-2.4856001666236777e-05,-2.3695460537265234e-05,-7.4407735779769e-06,-4.76837158203125e-06,-2.1027723948185972e-05,-0.0005912293140488695,0.0003971013544656784,9.199494721390719e-05,0.0006964891503422648,0.0001628952596275892,-6.008605402428089e-05,-0.0011945298039673714,0.4505855441093445,22.819665908813477,0.1729399859905243,-14.032625198364258,-0.11748272180557251,-2.1453890800476074,0.38577598333358765,0
51,0.24998879432678223,-0.4505855441093445,-22.819665908813477,-0.1729399859905243,14.032625198364258,0.11748272180557251,2.1453890800476074,-0.38577598333358765,0.0,0.0,0.0,0.0,0.0,0.0,0.0,-0.4220422500652065,-0.018880839710357773,-0.23400262068131622,0.14006981889840708,-0.11197992150293452,-0.04223498488071867,-0.36319682993878155,1.6756021080142571,0.05252954806256713,0.02999436111095129,-2.752371149665431,0.03425224476059278,2.7663727226787143,0.7691840810709528,1.6754973547542302,0.052104326824870026,0.029969505109285054,-2.752394845125968,0.0342448039870148,2.7663679543071322,0.7691630533470046,0.0005912293140488695,-0.0003971013544656784,-9.199494721390719e-05,-0.0006964891503422648,-0.0001628952596275892,6.008605402428089e-05,0.0011945298039673714,0.0,0.0,0.0,0.0,0.0,0.0,0.0,-0.00010475326002690188,-0.0004252212376971015,-2.4856001666236777e-05,-2.3695460537265234e-05,-7.4407735779769e-06,-4.76837158203125e-06,-2.1027723948185972e-05,-0.0005912293140488695,0.0003971013544656784,9.199494721390719e-05,0.0006964891503422648,0.0001628952596275892,-6.008605402428089e-05,-0.0011945298039673714,0.4505855441093445,22.819665908813477,0.1729399859905243,-14.032625198364258,-0.11748272180557251,-2.1453890800476074,0.38577598333358765,0
52,0.25504183769226074,-0.4267818331718445,-22.819665908813477,-0.1253325641155243,14.032625198364258,0.1293845772743225,2.1389803886413574,-0.33725303411483765,0.0,0.0,0.0,0.0,0.0,0.0,0.0,-0.4193663054579058,-0.01855511478233999,-0.23307578421278177,0.1398617028046169,-0.11288839056426529,-0.04182532753402114,-0.36414835487152303,1.675600437578402,0.05252954806256713,0.029990941691232724,-2.752371149665431,0.03425092233220736,2.766373434755537,0.769178691103646,1.6754973547542302,0.052104326824870026,0.029969505109285054,-2.752394845125968,0.0342448039870148,2.7663679543071322,0.7691630533470046,0.00041812866339359535,-7.808566122975126e-05,-0.000906989783280192,-0.00037540336214210673,-0.005783768905324755,5.399580523811708e-05,-0.0011618920878594464,0.0,0.0,0.0,0.0,0.0,0.0,0.0,-0.00010308282417170744,-0.0004252212376971015,-2.1436581947670286e-05,-2.3695460537265234e-05,-6.118345192561436e-06,-5.480448404870941e-06,-1.5637756641373457e-05,-0.00041812866339359535,7.808566122975126e-05,0.000906989783280192,0.00037540336214210673,0.005783768905324755,-5.399580523811708e-05,0.0011618920878594464,0.4267818331718445,22.819665908813477,0.1253325641155243,-14.032625198364258,-0.1293845772743225,-2.1389803886413574,0.33725303411483765,0
53,0.25999999046325684,-0.4267818331718445,-22.819665908813477,-0.1253325641155243,14.032625198364258,0.1293845772743225,2.1389803886413574,-0.33725303411483765,0.0,0.0,0.0,0.0,0.0,0.0,0.0,-0.4193663054579058,-0.01855511478233999,-0.23307578421278177,0.1398617028046169,-0.11288839056426529,-0.04182532753402114,-0.36414835487152303,1.675600437578402,0.05252954806256713,0.029990941691232724,-2.752371149665431,0.03425092233220736,2.766373434755537,0.769178691103646,1.6754973547542302,0.052104326824870026,0.029969505109285054,-2.752394845125968,0.0342448039870148,2.7663679543071322,0.7691630533470046,0.00041812866339359535,-7.808566122975126e-05,-0.000906989783280192,-0.00037540336214210673,-0.005783768905324755,5.399580523811708e-05,-0.0011618920878594464,0.0,0.0,0.0,0.0,0.0,0.0,0.0,-0.00010308282417170744,-0.0004252212376971015,-2.1436581947670286e-05,-2.3695460537265234e-05,-6.118345192561436e-06,-5.480448404870941e-06,-1.5637756641373457e-05,-0.00041812866339359535,7.808566122975126e-05,0.000906989783280192,0.00037540336214210673,0.005783768905324755,-5.399580523811708e-05,0.0011618920878594464,0.4267818331718445,22.819665908813477,0.1253325641155243,-14.032625198364258,-0.1293845772743225,-2.1389803886413574,0.33725303411483765,0
54,0.26499176025390625,-0.4029781222343445,-22.819665908813477,-0.2007109820842743,14.032625198364258,0.1293845772743225,2.1517977714538574,-0.39218467473983765,0.0,0.0,0.0,0.0,0.0,0.0,0.0,-0.43267266575138846,-0.016136471096081934,-0.24671379642422134,0.14101266677737573,-0.1111076159114468,-0.0429007577858073,-0.36545604783836194,1.6755987671425465,0.05252954806256713,0.02999702050572019,-2.752371149665431,0.03425092233220736,2.7663720106018914,0.7691848081857483,1.6754973547542302,0.052104326824870026,0.029969505109285054,-2.752394845125968,0.0342448039870148,2.7663679543071322,0.7691630533470046,-0.001322267966488515,0.0004142820056850332,0.0011035860681388192,-0.00047222402391271733,-0.0035877374849835014,-0.0003810055499589644,0.000500792504689792,0.0,0.0,0.0,0.0,0.0,0.0,0.0,-0.00010141238831629096,-0.0004252212376971015,-2.751539643513698e-05,-2.3695460537265234e-05,-6.118345192561436e-06,-4.056294759191559e-06,-2.1754838743670568e-05,0.001322267966488515,-0.0004142820056850332,-0.0011035860681388192,0.00047222402391271733,0.0035877374849835014,0.0003810055499589644,-0.000500792504689792,0.4029781222343445,22.819665908813477,0.2007109820842743,-14.032625198364258,-0.1293845772743225,-2.1517977714538574,0.39218467473983765,0
55,0.2700066566467285,-0.4029781222343445,-22.819665908813477,-0.2007109820842743,14.032625198364258,0.1293845772743225,2.1517977714538574,-0.39218467473983765,0.0,0.0,0.0,0.0,0.0,0.0,0.0,-0.43267266575138846,-0.016136471096081934,-0.24671379642422134,0.14101266677737573,-0.1111076159114468,-0.0429007577858073,-0.36545604783836194,1.6755987671425465,0.05252954806256713,0.02999702050572019,-2.752371149665431,0.03425092233220736,2.7663720106018914,0.7691848081857483,1.6754973547542302,0.052104326824870026,0.029969505109285054,-2.752394845125968,0.0342448039870148,2.7663679543071322,0.7691630533470046,-0.001322267966488515,0.0004142820056850332,0.0011035860681388192,-0.00047222402391271733,-0.0035877374849835014,-0.0003810055499589644,0.000500792504689792,0.0,0.0,0.0,0.0,0.0,0.0,0.0,-0.00010141238831629096,-0.0004252212376971015,-2.751539643513698e-05,-2.3695460537265234e-05,-6.118345192561436e-06,-4.056294759191559e-06,-2.1754838743670568e-05,0.001322267966488515,-0.0004142820056850332,-0.0011035860681388192,0.00047222402391271733,0.0035877374849835014,0.0003810055499589644,-0.000500792504689792,0.4029781222343445,22.819665908813477,0.2007109820842743,-14.032625198364258,-0.1293845772743225,-2.1517977714538574,0.39218467473983765,0
56,0.27503252029418945,-0.4029781222343445,-22.819665908813477,-0.1729399859905243,13.981050491333008,0.12389141321182251,2.1325716972351074,-0.33725303411483765,0.0,0.0,0.0,0.0,0.0,0.0,0.0,-0.4206801603006493,-0.018927563718775454,-0.2304203036842508,0.1393104041141674,-0.11315956896260877,-0.04268847599049925,-0.36755126766832796,1.6755987671425465,0.05252954806256713,0.02999290583456809,-2.7523675303877444,0.03425153268376986,2.7663741468323604,0.7691755543482252,1.6754973547542302,0.052104326824870026,0.029969505109285054,-2.752394845125968,0.0342448039870148,2.7663679543071322,0.7691630533470046,-0.0005470091083821357,-1.651078194833881e-05,0.0008957884640554744,0.0003826149666135406,-0.00016925862189406688,0.00041669008698004843,-0.0010112174023590439,0.0,0.0,0.0,0.0,0.0,0.0,0.0,-0.00010141238831629096,-0.0004252212376971015,-2.340072528303483e-05,-2.7314738223704893e-05,-6.728696755060881e-06,-6.192525228154722e-06,-1.2501001220521779e-05,0.0005470091083821357,1.651078194833881e-05,-0.0008957884640554744,-0.0003826149666135406,0.00016925862189406688,-0.00041669008698004843,0.0010112174023590439,0.4029781222343445,22.819665908813477,0.1729399859905243,-13.981050491333008,-0.12389141321182251,-2.1325716972351074,0.33725303411483765,0
57,0.27999138832092285,-0.4029781222343445,-22.819665908813477,-0.1729399859905243,13.981050491333008,0.12389141321182251,2.1325716972351074,-0.33725303411483765,0.0,0.0,0.0,0.0,0.0,0.0,0.0,-0.4206801603006493,-0.018927563718775454,-0.2304203036842508,0.1393104041141674,-0.11315956896260877,-0.04268847599049925,-0.36755126766832796,1.6755987671425465,0.05252954806256713,0.02999290583456809,-2.7523675303877444,0.03425153268376986,2.7663741468323604,0.7691755543482252,1.6754973547542302,0.052104326824870026,0.029969505109285054,-2.752394845125968,0.0342448039870148,2.7663679543071322,0.7691630533470046,-0.0005470091083821357,-1.651078194833881e-05,0.0008957884640554744,0.0003826149666135406,-0.00016925862189406688,0.00041669008698004843,-0.0010112174023590439,0.0,0.0,0.0,0.0,0.0,0.0,0.0,-0.00010141238831629096,-0.0004252212376971015,-2.340072528303483e-05,-2.7314738223704893e-05,-6.728696755060881e-06,-6.192525228154722e-06,-1.2501001220521779e-05,0.0005470091083821357,1.651078194833881e-05,-0.0008957884640554744,-0.0003826149666135406,0.00016925862189406688,-0.00041669008698004843,0.0010112174023590439,0.4029781222343445,22.819665908813477,0.1729399859905243,-13.981050491333008,-0.12389141321182251,-2.1325716972351074,0.33725303411483765,0
58,0.28500938415527344,-0.4029781222343445,-22.819665908813477,-0.09756157547235489,14.008821487426758,0.12389141321182251,2.1453890800476074,-0.39950889348983765,0.0,0.0,0.0,0.0,0.0,0.0,0.0,-0.4220215731046558,-0.017347144434743486,-0.22983794468618363,0.1370187291665625,-0.11261800271165763,-0.042465445580670516,-0.3668996592768102,1.6755987671425465,0.05252954806256713,0.029989781907012156,-2.752369479229576,0.03425153268376986,2.7663727226787143,0.7691856069501054,1.6754973547542302,0.052104326824870026,0.029969505109285054,-2.752394845125968,0.0342448039870148,2.7663679543071322,0.7691630533470046,-0.0008377700471247758,6.053612438519725e-05,-0.0006035946447441289,-0.0006485946314593645,-6.102567676930347e-06,-0.00013702157798496368,0.0015327913478743404,0.0,0.0,0.0,0.0,0.0,0.0,0.0,-0.00010141238831629096,-0.0004252212376971015,-2.0276797727102752e-05,-2.536589639223763e-05,-6.728696755060881e-06,-4.76837158203125e-06,-2.2553603100772257e-05,0.0008377700471247758,-6.053612438519725e-05,0.0006035946447441289,0.0006485946314593645,6.102567676930347e-06,0.00013702157798496368,-0.0015327913478743404,0.4029781222343445,22.819665908813477,0.09756157547235489,-14.008821487426758,-0.12389141321182251,-2.1453890800476074,0.39950889348983765,0
59,0.2899954319000244,-0.4029781222343445,-22.819665908813477,-0.09756157547235489,14.008821487426758,0.12389141321182251,2.1453890800476074,-0.39950889348983765,0.0,0.0,0.0,0.0,0.0,0.0,0.0,-0.4220215731046558,-0.017347144434743486,-0.22983794468618363,0.1370187291665625,-0.11261800271165763,-0.042465445580670516,-0.3668996592768102,1.6755987671425465,0.05252954806256713,0.029989781907012156,-2.752369479229576,0.03425153268376986,2.7663727226787143,0.7691856069501054,1.6754973547542302,0.052104326824870026,0.029969505109285054,-2.752394845125968,0.0342448039870148,2.7663679543071322,0.7691630533470046,-0.0008377700471247758,6.053612438519725e-05,-0.0006035946447441289,-0.0006485946314593645,-6.102567676930347e-06,-0.00013702157798496368,0.0015327913478743404,0.0,0.0,0.0,0.0,0.0,0.0,0.0,-0.00010141238831629096,-0.0004252212376971015,-2.0276797727102752e-05,-2.536589639223763e-05,-6.728696755060881e-06,-4.76837158203125e-06,-2.2553603100772257e-05,0.0008377700471247758,-6.053612438519725e-05,0.0006035946447441289,0.0006485946314593645,6.102567676930347e-06,0.00013702157798496368,-0.0015327913478743404,0.4029781222343445,22.819665908813477,0.09756157547235489,-14.008821487426758,-0.12389141321182251,-2.1453890800476074,0.39950889348983765,0
60,0.2949864864349365,-0.4029781222343445,-22.819665908813477,-0.1491362750530243,14.008821487426758,0.12389141321182251,2.1453890800476074,-0.39218467473983765,0.0,0.0,0.0,0.0,0.0,0.0,0.0,-0.4256874530662477,-0.014681895027923872,-0.22976752222624056,0.13057376233461962,-0.11172923613719592,-0.04420315417136429,-0.36732750188177754,1.6755987671425465,0.05252954806256713,0.029990559103420845,-2.752369479229576,0.03425153268376986,2.7663727226787143,0.7691816186119835,1.6754973547542302,0.052104326824870026,0.029969505109285054,-2.752394845125968,0.0342448039870148,2.7663679543071322,0.7691630533470046,-0.0003555465198724993,-0.0002731704504145971,6.969124376569119e-05,-0.00015041433175609625,-6.88405017989727e-05,0.00403424583672363,0.0006384125708420525,0.0,0.0,0.0,0.0,0.0,0.0,0.0,-0.00010141238831629096,-0.0004252212376971015,-2.1053994135791093e-05,-2.536589639223763e-05,-6.728696755060881e-06,-4.76837158203125e-06,-1.85652649788981e-05,0.0003555465198724993,0.0002731704504145971,-6.969124376569119e-05,0.00015041433175609625,6.88405017989727e-05,-0.00403424583672363,-0.0006384125708420525,0.4029781222343445,22.819665908813477,0.1491362750530243,-14.008821487426758,-0.12389141321182251,-2.1453890800476074,0.39218467473983765,0
61,0.2999873161315918,-0.4029781222343445,-22.819665908813477,-0.1491362750530243,14.008821487426758,0.12389141321182251,2.1453890800476074,-0.39218467473983765,0.0,0.0,0.0,0.0,0.0,0.0,0.0,-0.4256874530662477,-0.014681895027923872,-0.22976752222624056,0.13057376233461962,-0.11172923613719592,-0.04420315417136429,-0.36732750188177754,1.6755987671425465,0.05252954806256713,0.029990559103420845,-2.752369479229576,0.03425153268376986,2.7663727226787143,0.7691816186119835,1.6754973547542302,0.052104326824870026,0.029969505109285054,-2.752394845125968,0.0342448039870148,2.7663679543071322,0.7691630533470046,-0.0003555465198724993,-0.0002731704504145971,6.969124376569119e-05,-0.00015041433175609625,-6.88405017989727e-05,0.00403424583672363,0.0006384125708420525,0.0,0.0,0.0,0.0,0.0,0.0,0.0,-0.00010141238831629096,-0.0004252212376971015,-2.1053994135791093e-05,-2.536589639223763e-05,-6.728696755060881e-06,-4.76837158203125e-06,-1.85652649788981e-05,0.0003555465198724993,0.0002731704504145971,-6.969124376569119e-05,0.00015041433175609625,6.88405017989727e-05,-0.00403424583672363,-0.0006384125708420525,0.4029781222343445,22.819665908813477,0.1491362750530243,-14.008821487426758,-0.12389141321182251,-2.1453890800476074,0.39218467473983765,0
62,0.3049933910369873,-0.4029781222343445,-22.819665908813477,-0.1491362750530243,14.008821487426758,0.12389141321182251,2.1453890800476074,-0.39218467473983765,0.0,0.0,0.0,0.0,0.0,0.0,0.0,-0.4256874530662477,-0.014681895027923872,-0.22976752222624056,0.13057376233461962,-0.11172923613719592,-0.04420315417136429,-0.36732750188177754,1.6755987671425465,0.05252954806256713,0.029990559103420845,-2.752369479229576,0.03425153268376986,2.7663727226787143,0.7691816186119835,1.6754973547542302,0.052104326824870026,0.029969505109285054,-2.752394845125968,0.0342448039870148,2.7663679543071322,0.7691630533470046,-0.0003555465198724993,-0.0002731704504145971,6.969124376569119e-05,-0.00015041433175609625,-6.88405017989727e-05,0.00403424583672363,0.0006384125708420525,0.0,0.0,0.0,0.0,0.0,0.0,0.0,-0.00010141238831629096,-0.0004252212376971015,-2.1053994135791093e-05,-2.536589639223763e-05,-6.728696755060881e-06,-4.76837158203125e-06,-1.85652649788981e-05,0.0003555465198724993,0.0002731704504145971,-6.969124376569119e-05,0.00015041433175609625,6.88405017989727e-05,-0.00403424583672363,-0.0006384125708420525,0.4029781222343445,22.819665908813477,0.1491362750530243,-14.008821487426758,-0.12389141321182251,-2.1453890800476074,0.39218467473983765,0
63,0.3100016117095947,-0.4029781222343445,-22.819665908813477,-0.1491362750530243,14.008821487426758,0.12389141321182251,2.1453890800476074,-0.39218467473983765,0.0,0.0,0.0,0.0,0.0,0.0,0.0,-0.4256874530662477,-0.014681895027923872,-0.22976752222624056,0.13057376233461962,-0.11172923613719592,-0.04420315417136429,-0.36732750188177754,1.6755987671425465,0.05252954806256713,0.029990559103420845,-2.752369479229576,0.03425153268376986,2.7663727226787143,0.7691816186119835,1.6754973547542302,0.052104326824870026,0.029969505109285054,-2.752394845125968,0.0342448039870148,2.7663679543071322,0.7691630533470046,-0.0003555465198724993,-0.0002731704504145971,6.969124376569119e-05,-0.00015041433175609625,-6.88405017989727e-05,0.00403424583672363,0.0006384125708420525,0.0,0.0,0.0,0.0,0.0,0.0,0.0,-0.00010141238831629096,-0.0004252212376971015,-2.1053994135791093e-05,-2.536589639223763e-05,-6.728696755060881e-06,-4.76837158203125e-06,-1.85652649788981e-05,0.0003555465198724993,0.0002731704504145971,-6.969124376569119e-05,0.00015041433175609625,6.88405017989727e-05,-0.00403424583672363,-0.0006384125708420525,0.4029781222343445,22.819665908813477,0.1491362750530243,-14.008821487426758,-0.12389141321182251,-2.1453890800476074,0.39218467473983765,0
64,0.31499385833740234,-0.4029781222343445,-22.819665908813477,-0.1491362750530243,14.008821487426758,0.12389141321182251,2.1453890800476074,-0.39218467473983765,0.0,0.0,0.0,0.0,0.0,0.0,0.0,-0.4256874530662477,-0.014681895027923872,-0.22976752222624056,0.13057376233461962,-0.11172923613719592,-0.04420315417136429,-0.36732750188177754,1.6755987671425465,0.05252954806256713,0.029990559103420845,-2.752369479229576,0.03425153268376986,2.7663727226787143,0.7691816186119835,1.6754973547542302,0.052104326824870026,0.029969505109285054,-2.752394845125968,0.0342448039870148,2.7663679543071322,0.7691630533470046,-0.0003555465198724993,-0.0002731704504145971,6.969124376569119e-05,-0.00015041433175609625,-6.88405017989727e-05,0.00403424583672363,0.0006384125708420525,0.0,0.0,0.0,0.0,0.0,0.0,0.0,-0.00010141238831629096,-0.0004252212376971015,-2.1053994135791093e-05,-2.536589639223763e-05,-6.728696755060881e-06,-4.76837158203125e-06,-1.85652649788981e-05,0.0003555465198724993,0.0002731704504145971,-6.969124376569119e-05,0.00015041433175609625,6.88405017989727e-05,-0.00403424583672363,-0.0006384125708420525,0.4029781222343445,22.819665908813477,0.1491362750530243,-14.008821487426758,-0.12389141321182251,-2.1453890800476074,0.39218467473983765,0
65,0.3200187683105469,-0.4029781222343445,-22.847436904907227,-0.1729399859905243,14.032625198364258,0.11748272180557251,2.1389803886413574,-0.34457725286483765,0.0,0.0,0.0,0.0,0.0,0.0,0.0,-0.4218844403241986,-0.01427744703317519,-0.22853197487819668,0.13310741751457117,-0.11192308995767039,-0.0427475182084442,-0.368716224763895,1.6755987671425465,0.05253149690439827,0.02999507172846986,-2.752371149665431,0.03425224476059278,2.7663733170179667,0.769179856647018,1.6754973547542302,0.052104326824870026,0.029969505109285054,-2.752394845125968,0.0342448039870148,2.7663679543071322,0.7691630533470046,-0.00022405685795759514,0.0008982045471556259,0.00045145592484181757,-0.0004888676555375478,0.0002026580504360402,0.0002826291155165174,-0.001165618142173404,0.0,0.0,0.0,0.0,0.0,0.0,0.0,-0.00010141238831629096,-0.00042717007952824265,-2.5566619184805295e-05,-2.3695460537265234e-05,-7.4407735779769e-06,-5.36271083451112e-06,-1.680330001341268e-05,0.00022405685795759514,-0.0008982045471556259,-0.00045145592484181757,0.0004888676555375478,-0.0002026580504360402,-0.0002826291155165174,0.001165618142173404,0.4029781222343445,22.847436904907227,0.1729399859905243,-14.032625198364258,-0.11748272180557251,-2.1389803886413574,0.34457725286483765,0
66,0.3250010013580322,-0.4029781222343445,-22.847436904907227,-0.1729399859905243,14.032625198364258,0.11748272180557251,2.1389803886413574,-0.34457725286483765,0.0,0.0,0.0,0.0,0.0,0.0,0.0,-0.4218844403241986,-0.01427744703317519,-0.22853197487819668,0.13310741751457117,-0.11192308995767039,-0.0427475182084442,-0.368716224763895,1.6755987671425465,0.05253149690439827,0.02999507172846986,-2.752371149665431,0.03425224476059278,2.7663733170179667,0.769179856647018,1.6754973547542302,0.052104326824870026,0.029969505109285054,-2.752394845125968,0.0342448039870148,2.7663679543071322,0.7691630533470046,-0.00022405685795759514,0.0008982045471556259,0.00045145592484181757,-0.0004888676555375478,0.0002026580504360402,0.0002826291155165174,-0.001165618142173404,0.0,0.0,0.0,0.0,0.0,0.0,0.0,-0.00010141238831629096,-0.00042717007952824265,-2.5566619184805295e-05,-2.3695460537265234e-05,-7.4407735779769e-06,-5.36271083451112e-06,-1.680330001341268e-05,0.00022405685795759514,-0.0008982045471556259,-0.00045145592484181757,0.0004888676555375478,-0.0002026580504360402,-0.0002826291155165174,0.001165618142173404,0.4029781222343445,22.847436904907227,0.1729399859905243,-14.032625198364258,-0.11748272180557251,-2.1389803886413574,0.34457725286483765,0
67,0.32999491691589355,-0.4029781222343445,-22.819665908813477,-0.2007109820842743,13.957246780395508,0.11748272180557251,2.1261630058288574,-0.33084434270858765,0.0,0.0,0.0,0.0,0.0,0.0,0.0,-0.41929262982478654,-0.019057389361448625,-0.22963028878255015,0.13704024087387304,-0.11209919970976967,-0.04223516693237097,-0.36800951598058357,1.6755987671425465,0.05252954806256713,0.029997020510175235,-2.7523658599518894,0.034252599628987135,2.7663748589089616,0.7691758582857156,1.6754973547542302,0.052104326824870026,0.029969505109285054,-2.752394845125968,0.0342448039870148,2.7663679543071322,0.7691630533470046,-0.0003425996377507908,-0.0002598731960153836,0.0013173846794213146,0.0005790647002339693,0.000138197065036881,0.0004240561872733061,-0.0013365556947191077,0.0,0.0,0.0,0.0,0.0,0.0,0.0,-0.00010141238831629096,-0.0004252212376971015,-2.7515400890180952e-05,-2.898517407867729e-05,-7.795641972334344e-06,-6.904601829393897e-06,-1.28049387109197e-05,0.0003425996377507908,0.0002598731960153836,-0.0013173846794213146,-0.0005790647002339693,-0.000138197065036881,-0.0004240561872733061,0.0013365556947191077,0.4029781222343445,22.819665908813477,0.2007109820842743,-13.957246780395508,-0.11748272180557251,-2.1261630058288574,0.33084434270858765,0
68,0.3349883556365967,-0.4029781222343445,-22.819665908813477,-0.2007109820842743,13.957246780395508,0.11748272180557251,2.1261630058288574,-0.33084434270858765,0.0,0.0,0.0,0.0,0.0,0.0,0.0,-0.41929262982478654,-0.019057389361448625,-0.22963028878255015,0.13704024087387304,-0.11209919970976967,-0.04223516693237097,-0.36800951598058357,1.6755987671425465,0.05252954806256713,0.029997020510175235,-2.7523658599518894,0.034252599628987135,2.7663748589089616,0.7691758582857156,1.6754973547542302,0.052104326824870026,0.029969505109285054,-2.752394845125968,0.0342448039870148,2.7663679543071322,0.7691630533470046,-0.0003425996377507908,-0.0002598731960153836,0.0013173846794213146,0.0005790647002339693,0.000138197065036881,0.0004240561872733061,-0.0013365556947191077,0.0,0.0,0.0,0.0,0.0,0.0,0.0,-0.00010141238831629096,-0.0004252212376971015,-2.7515400890180952e-05,-2.898517407867729e-05,-7.795641972334344e-06,-6.904601829393897e-06,-1.28049387109197e-05,0.0003425996377507908,0.0002598731960153836,-0.0013173846794213146,-0.0005790647002339693,-0.000138197065036881,-0.0004240561872733061,0.0013365556947191077,0.4029781222343445,22.819665908813477,0.2007109820842743,-13.957246780395508,-0.11748272180557251,-2.1261630058288574,0.33084434270858765,0
69,0.3399837017059326,-0.4505855441093445,-22.847436904907227,-0.1253325641155243,13.981050491333008,0.12389141321182251,2.1453890800476074,-0.40591758489608765,0.0,0.0,0.0,0.0,0.0,0.0,0.0,-0.4150928140005715,-0.024291112130381796,-0.22737831414733123,0.1452797632298908,-0.1122771719878578,-0.04191429009805741,-0.3665218147684734,1.6756021080142571,0.05253149690439827,0.02998928424672296,-2.7523675303877444,0.034251532685773106,2.766372722678714,0.7691863238778313,1.6754973547542302,0.052104326824870026,0.029969505109285054,-2.752394845125968,0.0342448039870148,2.7663679543071322,0.7691630533470046,0.00089766550197705,0.0007110706954571401,5.9029440626950854e-05,0.000989367231807099,-0.00024402344665371188,-0.0003292229127129233,0.0014275913917653645,0.0,0.0,0.0,0.0,0.0,0.0,0.0,-0.00010475326002690188,-0.00042717007952824265,-1.9779137437905825e-05,-2.7314738223704893e-05,-6.7286987583056734e-06,-4.768371581587161e-06,-2.3270530826624558e-05,-0.00089766550197705,-0.0007110706954571401,-5.9029440626950854e-05,-0.000989367231807099,0.00024402344665371188,0.0003292229127129233,-0.0014275913917653645,0.4505855441093445,22.847436904907227,0.1253325641155243,-13.981050491333008,-0.12389141321182251,-2.1453890800476074,0.40591758489608765,0
70,0.3449885845184326,-0.4505855441093445,-22.847436904907227,-0.1253325641155243,13.981050491333008,0.12389141321182251,2.1453890800476074,-0.40591758489608765,0.0,0.0,0.0,0.0,0.0,0.0,0.0,-0.4150928140005715,-0.024291112130381796,-0.22737831414733123,0.1452797632298908,-0.1122771719878578,-0.04191429009805741,-0.3665218147684734,1.6756021080142571,0.05253149690439827,0.02998928424672296,-2.7523675303877444,0.034251532685773106,2.766372722678714,0.7691863238778313,1.6754973547542302,0.052104326824870026,0.029969505109285054,-2.752394845125968,0.0342448039870148,2.7663679543071322,0.7691630533470046,0.00089766550197705,0.0007110706954571401,5.9029440626950854e-05,0.000989367231807099,-0.00024402344665371188,-0.0003292229127129233,0.0014275913917653645,0.0,0.0,0.0,0.0,0.0,0.0,0.0,-0.00010475326002690188,-0.00042717007952824265,-1.9779137437905825e-05,-2.7314738223704893e-05,-6.7286987583056734e-06,-4.768371581587161e-06,-2.3270530826624558e-05,-0.00089766550197705,-0.0007110706954571401,-5.9029440626950854e-05,-0.000989367231807099,0.00024402344665371188,0.0003292229127129233,-0.0014275913917653645,0.4505855441093445,22.847436904907227,0.1253325641155243,-13.981050491333008,-0.12389141321182251,-2.1453890800476074,0.40591758489608765,0
71,0.35001134872436523,-0.4029781222343445,-22.819665908813477,-0.1253325641155243,14.032625198364258,0.12389141321182251,2.1389803886413574,-0.35831016302108765,0.0,0.0,0.0,0.0,0.0,0.0,0.0,-0.41564188271218494,-0.025633784154252676,-0.2262783848930579,0.1443906258720916,-0.11238154037762137,-0.04195436409726598,-0.3663777441042916,1.6755987671425465,0.05252954806256713,0.029990941653810083,-2.752371149665431,0.034251532683769896,2.7663734347555367,0.7691778504526696,1.6754973547542302,0.052104326824870026,0.029969505109285054,-2.752394845125968,0.0342448039870148,2.7663679543071322,0.7691630533470046,1.4859668709765114e-05,-0.000149689352281931,-0.00026404406199281595,-0.0009057849066117576,-0.00021089170020095762,-0.005275272866240143,5.1021302739762646e-05,0.0,0.0,0.0,0.0,0.0,0.0,0.0,-0.00010141238831629096,-0.0004252212376971015,-2.143654452502891e-05,-2.3695460537265234e-05,-6.728696755095576e-06,-5.480448404426852e-06,-1.4797105664987598e-05,-1.4859668709765114e-05,0.000149689352281931,0.00026404406199281595,0.0009057849066117576,0.00021089170020095762,0.005275272866240143,-5.1021302739762646e-05,0.4029781222343445,22.819665908813477,0.1253325641155243,-14.032625198364258,-0.12389141321182251,-2.1389803886413574,0.35831016302108765,0
72,0.35500121116638184,-0.4029781222343445,-22.819665908813477,-0.1253325641155243,14.032625198364258,0.12389141321182251,2.1389803886413574,-0.35831016302108765,0.0,0.0,0.0,0.0,0.0,0.0,0.0,-0.41564188271218494,-0.025633784154252676,-0.2262783848930579,0.1443906258720916,-0.11238154037762137,-0.04195436409726598,-0.3663777441042916,1.6755987671425465,0.05252954806256713,0.029990941653810083,-2.752371149665431,0.034251532683769896,2.7663734347555367,0.7691778504526696,1.6754973547542302,0.052104326824870026,0.029969505109285054,-2.752394845125968,0.0342448039870148,2.7663679543071322,0.7691630533470046,1.4859668709765114e-05,-0.000149689352281931,-0.00026404406199281595,-0.0009057849066117576,-0.00021089170020095762,-0.005275272866240143,5.1021302739762646e-05,0.0,0.0,0.0,0.0,0.0,0.0,0.0,-0.00010141238831629096,-0.0004252212376971015,-2.143654452502891e-05,-2.3695460537265234e-05,-6.728696755095576e-06,-5.480448404426852e-06,-1.4797105664987598e-05,-1.4859668709765114e-05,0.000149689352281931,0.00026404406199281595,0.0009057849066117576,0.00021089170020095762,0.005275272866240143,-5.1021302739762646e-05,0.4029781222343445,22.819665908813477,0.1253325641155243,-14.032625198364258,-0.12389141321182251,-2.1389803886413574,0.35831016302108765,0
73,0.35999512672424316,-0.4267818331718445,-22.795862197875977,-0.1491362750530243,14.032625198364258,0.12389141321182251,2.1389803886413574,-0.33084434270858765,0.0,0.0,0.0,0.0,0.0,0.0,0.0,-0.41525180203281276,-0.01932336448664552,-0.22779995013675242,0.14168497708170746,-0.11193434191829237,-0.04261640274614931,-0.3668950318010864,1.675600437578402,0.052527877626711864,0.029993397980257245,-2.752371149665431,0.03425153268376986,2.7663734347555367,0.7691747986947753,1.6754973547542302,0.052104326824870026,0.029969505109285054,-2.752394845125968,0.0342448039870148,2.7663679543071322,0.7691630533470046,0.0003261676876592433,-0.0001898899831743944,0.000357735575647696,-0.0007943970932625911,-0.0001642807861616565,-0.0001745202371782774,-0.0016851029136957314,0.0,0.0,0.0,0.0,0.0,0.0,0.0,-0.00010308282417170744,-0.0004235508018418377,-2.3892870972191255e-05,-2.3695460537265234e-05,-6.728696755060881e-06,-5.480448404426852e-06,-1.174534777070857e-05,-0.0003261676876592433,0.0001898899831743944,-0.000357735575647696,0.0007943970932625911,0.0001642807861616565,0.0001745202371782774,0.0016851029136957314,0.4267818331718445,22.795862197875977,0.1491362750530243,-14.032625198364258,-0.12389141321182251,-2.1389803886413574,0.33084434270858765,0
74,0.3649873733520508,-0.4267818331718445,-22.795862197875977,-0.1491362750530243,14.032625198364258,0.12389141321182251,2.1389803886413574,-0.33084434270858765,0.0,0.0,0.0,0.0,0.0,0.0,0.0,-0.41525180203281276,-0.01932336448664552,-0.22779995013675242,0.14168497708170746,-0.11193434191829237,-0.04261640274614931,-0.3668950318010864,1.675600437578402,0.052527877626711864,0.029993397980257245,-2.752371149665431,0.03425153268376986,2.7663734347555367,0.7691747986947753,1.6754973547542302,0.052104326824870026,0.029969505109285054,-2.752394845125968,0.0342448039870148,2.7663679543071322,0.7691630533470046,0.0003261676876592433,-0.0001898899831743944,0.000357735575647696,-0.0007943970932625911,-0.0001642807861616565,-0.0001745202371782774,-0.0016851029136957314,0.0,0.0,0.0,0.0,0.0,0.0,0.0,-0.00010308282417170744,-0.0004235508018418377,-2.3892870972191255e-05,-2.3695460537265234e-05,-6.728696755060881e-06,-5.480448404426852e-06,-1.174534777070857e-05,-0.0003261676876592433,0.0001898899831743944,-0.000357735575647696,0.0007943970932625911,0.0001642807861616565,0.0001745202371782774,0.0016851029136957314,0.4267818331718445,22.795862197875977,0.1491362750530243,-14.032625198364258,-0.12389141321182251,-2.1389803886413574,0.33084434270858765,0
75,0.3699979782104492,-0.4505855441093445,-22.847436904907227,-0.1729399859905243,13.981050491333008,0.11198955774307251,2.1389803886413574,-0.35831016302108765,0.0,0.0,0.0,0.0,0.0,0.0,0.0,-0.44752452718863633,-0.01949358574804867,-0.25518983561844966,0.13663871989400994,-0.10905348974284083,-0.04460080549499297,-0.36656059508208777,1.6756021080142571,0.05253149690439827,0.029995070802264174,-2.7523675303877444,0.03425285511215528,2.7663734347555367,0.7691778504525876,1.6754973547542302,0.052104326824870026,0.029969505109285054,-2.752394845125968,0.0342448039870148,2.7663679543071322,0.7691630533470046,0.0023542081038046914,0.00021533217733681788,0.00040368114236695105,0.00022264398397546344,0.00042322830990557087,-4.2395428533165946e-05,-0.000554891302446375,0.0,0.0,0.0,0.0,0.0,0.0,0.0,-0.00010475326002690188,-0.00042717007952824265,-2.556569297912023e-05,-2.7314738223704893e-05,-8.051125140476345e-06,-5.480448404426852e-06,-1.4797105582942116e-05,-0.0023542081038046914,-0.00021533217733681788,-0.00040368114236695105,-0.00022264398397546344,-0.00042322830990557087,4.2395428533165946e-05,0.000554891302446375,0.4505855441093445,22.847436904907227,0.1729399859905243,-13.981050491333008,-0.11198955774307251,-2.1389803886413574,0.35831016302108765,0
76,0.37500667572021484,-0.4505855441093445,-22.847436904907227,-0.1729399859905243,13.981050491333008,0.11198955774307251,2.1389803886413574,-0.35831016302108765,0.0,0.0,0.0,0.0,0.0,0.0,0.0,-0.44752452718863633,-0.01949358574804867,-0.25518983561844966,0.13663871989400994,-0.10905348974284083,-0.04460080549499297,-0.36656059508208777,1.6756021080142571,0.05253149690439827,0.029995070802264174,-2.7523675303877444,0.03425285511215528,2.7663734347555367,0.7691778504525876,1.6754973547542302,0.052104326824870026,0.029969505109285054,-2.752394845125968,0.0342448039870148,2.7663679543071322,0.7691630533470046,0.0023542081038046914,0.00021533217733681788,0.00040368114236695105,0.00022264398397546344,0.00042322830990557087,-4.2395428533165946e-05,-0.000554891302446375,0.0,0.0,0.0,0.0,0.0,0.0,0.0,-0.00010475326002690188,-0.00042717007952824265,-2.556569297912023e-05,-2.7314738223704893e-05,-8.051125140476345e-06,-5.480448404426852e-06,-1.4797105582942116e-05,-0.0023542081038046914,-0.00021533217733681788,-0.00040368114236695105,-0.00022264398397546344,-0.00042322830990557087,4.2395428533165946e-05,0.000554891302446375,0.4505855441093445,22.847436904907227,0.1729399859905243,-13.981050491333008,-0.11198955774307251,-2.1389803886413574,0.35831016302108765,0
77,0.37999391555786133,-0.4505855441093445,-22.847436904907227,-0.2007109820842743,14.008821487426758,0.12389141321182251,2.1389803886413574,-0.33084434270858765,0.0,0.0,0.0,0.0,0.0,0.0,0.0,-0.4355639572254771,-0.021581073737992427,-0.24355414907345774,0.13516376753087916,-0.11033085235347628,-0.04523581263763843,-0.3675846125016203,1.6756021080142571,0.05253149690439827,0.029997019211062962,-2.752369479229576,0.03425153268376986,2.7663734347555367,0.7691747986947751,1.6754973547542302,0.052104326824870026,0.029969505109285054,-2.752394845125968,0.0342448039870148,2.7663679543071322,0.7691630533470046,-0.00015286759184346868,0.00014224957339118005,0.0001520197752606583,-0.00021370142903208775,-0.0001627491189029256,-3.0444801012193673e-05,-0.0016089349587152892,0.0,0.0,0.0,0.0,0.0,0.0,0.0,-0.00010475326002690188,-0.00042717007952824265,-2.7514101777908334e-05,-2.536589639223763e-05,-6.728696755060881e-06,-5.480448404426852e-06,-1.1745347770486525e-05,0.00015286759184346868,-0.00014224957339118005,-0.0001520197752606583,0.00021370142903208775,0.0001627491189029256,3.0444801012193673e-05,0.0016089349587152892,0.4505855441093445,22.847436904907227,0.2007109820842743,-14.008821487426758,-0.12389141321182251,-2.1389803886413574,0.33084434270858765,0
78,0.3850362300872803,-0.4505855441093445,-22.847436904907227,-0.2007109820842743,14.008821487426758,0.12389141321182251,2.1389803886413574,-0.33084434270858765,0.0,0.0,0.0,0.0,0.0,0.0,0.0,-0.4355639572254771,-0.021581073737992427,-0.24355414907345774,0.13516376753087916,-0.11033085235347628,-0.04523581263763843,-0.3675846125016203,1.6756021080142571,0.05253149690439827,0.029997019211062962,-2.752369479229576,0.03425153268376986,2.7663734347555367,0.7691747986947751,1.6754973547542302,0.052104326824870026,0.029969505109285054,-2.752394845125968,0.0342448039870148,2.7663679543071322,0.7691630533470046,-0.00015286759184346868,0.00014224957339118005,0.0001520197752606583,-0.00021370142903208775,-0.0001627491189029256,-3.0444801012193673e-05,-0.0016089349587152892,0.0,0.0,0.0,0.0,0.0,0.0,0.0,-0.00010475326002690188,-0.00042717007952824265,-2.7514101777908334e-05,-2.536589639223763e-05,-6.728696755060881e-06,-5.480448404426852e-06,-1.1745347770486525e-05,0.00015286759184346868,-0.00014224957339118005,-0.0001520197752606583,0.00021370142903208775,0.0001627491189029256,3.0444801012193673e-05,0.0016089349587152892,0.4505855441093445,22.847436904907227,0.2007109820842743,-14.008821487426758,-0.12389141321182251,-2.1389803886413574,0.33084434270858765,0
79,0.39000558853149414,-0.4267818331718445,-22.847436904907227,-0.1729399859905243,14.032625198364258,0.12389141321182251,2.1453890800476074,-0.41324180364608765,0.0,0.0,0.0,0.0,0.0,0.0,0.0,-0.4174560245895872,-0.02122650974091613,-0.22862183974283087,0.1320376899204133,-0.11269779002382731,-0.046000377048489846,-0.36778083236815073,1.675600437578402,0.05253149690439827,0.029995067771004642,-2.752371149665431,0.03425153268376986,2.766372722678714,0.7691839540758832,1.6754973547542302,0.052104326824870026,0.029969505109285054,-2.752394845125968,0.0342448039870148,2.7663679543071322,0.7691630533470046,-0.00036327708622679096,0.0003365011814061493,0.0003489701318020081,-0.0006040860127713082,-0.00017786951376771382,-0.0003930267412087588,0.0017720908573201155,0.0,0.0,0.0,0.0,0.0,0.0,0.0,-0.00010308282417170744,-0.00042717007952824265,-2.5562661719588653e-05,-2.3695460537265234e-05,-6.728696755060881e-06,-4.768371581587161e-06,-2.0900728878614494e-05,0.00036327708622679096,-0.0003365011814061493,-0.0003489701318020081,0.0006040860127713082,0.00017786951376771382,0.0003930267412087588,-0.0017720908573201155,0.4267818331718445,22.847436904907227,0.1729399859905243,-14.032625198364258,-0.12389141321182251,-2.1453890800476074,0.41324180364608765,0
