rezayati/contactInterpretation/dataset/franka_main/labeled_data/link4/d4_2.csv
index,time,tau_J0,tau_J1,tau_J2,tau_J3,tau_J4,tau_J5,tau_J6,tau_J_d0,tau_J_d1,tau_J_d2,tau_J_d3,tau_J_d4,tau_J_d5,tau_J_d6,tau_ext0,tau_ext1,tau_ext2,tau_ext3,tau_ext4,tau_ext5,tau_ext6,q0,q1,q2,q3,q4,q5,q6,q_d0,q_d1,q_d2,q_d3,q_d4,q_d5,q_d6,dq0,dq1,dq2,dq3,dq4,dq5,dq6,dq_d0,dq_d1,dq_d2,dq_d3,dq_d4,dq_d5,dq_d6,e0,e1,e2,e3,e4,e5,e6,de0,de1,de2,de3,de4,de5,de6,etau_J0,etau_J1,etau_J2,etau_J3,etau_J4,etau_J5,etau_J6,label
1,0.0,-0.19667929410934448,-13.512414932250977,0.3983490765094757,18.297456741333008,0.5047507882118225,2.2818026542663574,-0.25485557317733765,0.0,0.0,0.0,0.0,0.0,0.0,0.0,-0.21366757922870083,0.41855548259577485,-0.0322087341549077,0.5350431019615322,0.07541008720902033,0.07137842749738577,-0.26674170053429785,0.07180410981596562,-0.33421061507860816,-0.12025051538254085,-2.8747435962161823,-0.0645920600234957,2.5182360655996536,0.7687541098528438,0.07165585495296277,-0.33419673383382315,-0.1203439052763738,-2.874768336042937,-0.06453255302590709,2.518161157661014,0.7687020283728597,-2.8462057421219245e-05,-0.00013147137354257627,-0.00048020551083593566,-0.0006324431056153053,0.00013948011754614796,1.7149085236710276e-05,-0.0010578551355858168,0.0,0.0,0.0,0.0,0.0,0.0,0.0,-0.00014825486300285018,1.3881244785018954e-05,-9.338989383295138e-05,-2.47398267547716e-05,5.950699758860978e-05,-7.49079386395124e-05,-5.208147998403412e-05,2.8462057421219245e-05,0.00013147137354257627,0.00048020551083593566,0.0006324431056153053,-0.00013948011754614796,-1.7149085236710276e-05,0.0010578551355858168,0.19667929410934448,13.512414932250977,-0.3983490765094757,-18.297456741333008,-0.5047507882118225,-2.2818026542663574,0.25485557317733765,0
2,0.005001068115234375,-0.19667929410934448,-13.512414932250977,0.3983490765094757,18.297456741333008,0.5047507882118225,2.2818026542663574,-0.25485557317733765,0.0,0.0,0.0,0.0,0.0,0.0,0.0,-0.21366757922870083,0.41855548259577485,-0.0322087341549077,0.5350431019615322,0.07541008720902033,0.07137842749738577,-0.26674170053429785,0.07180410981596562,-0.33421061507860816,-0.12025051538254085,-2.8747435962161823,-0.0645920600234957,2.5182360655996536,0.7687541098528438,0.07165585495296277,-0.33419673383382315,-0.1203439052763738,-2.874768336042937,-0.06453255302590709,2.518161157661014,0.7687020283728597,-2.8462057421219245e-05,-0.00013147137354257627,-0.00048020551083593566,-0.0006324431056153053,0.00013948011754614796,1.7149085236710276e-05,-0.0010578551355858168,0.0,0.0,0.0,0.0,0.0,0.0,0.0,-0.00014825486300285018,1.3881244785018954e-05,-9.338989383295138e-05,-2.47398267547716e-05,5.950699758860978e-05,-7.49079386395124e-05,-5.208147998403412e-05,2.8462057421219245e-05,0.00013147137354257627,0.00048020551083593566,0.0006324431056153053,-0.00013948011754614796,-1.7149085236710276e-05,0.0010578551355858168,0.19667929410934448,13.512414932250977,-0.3983490765094757,-18.297456741333008,-0.5047507882118225,-2.2818026542663574,0.25485557317733765,0
3,0.010001182556152344,-0.22445029020309448,-13.488611221313477,0.3983490765094757,18.269685745239258,0.4983420968055725,2.2882113456726074,-0.24844686686992645,0.0,0.0,0.0,0.0,0.0,0.0,0.0,-0.212808337363533,0.41895769287969326,-0.03409332010632616,0.5335265679208545,0.07552485585619192,0.07084257902883477,-0.2674854554950775,0.07180605865779675,-0.3342122855144634,-0.12025051538254085,-2.874740796923664,-0.06458839104695785,2.5182353535228303,0.7687533580439918,0.07165585495296277,-0.33419673383382315,-0.1203439052763738,-2.874768336042937,-0.06453255302590709,2.518161157661014,0.7687020283728597,0.00034968692514508796,-0.0003518960991457583,-0.00044039823091993085,-6.694067779472683e-05,0.0003434876943996948,-0.00034381064930908437,-0.0007405154543913301,0.0,0.0,0.0,0.0,0.0,0.0,0.0,-0.00015020370483398438,1.5551680640268906e-05,-9.338989383295138e-05,-2.7539119273001234e-05,5.5838021050760855e-05,-7.419586181622861e-05,-5.13296711320832e-05,-0.00034968692514508796,0.0003518960991457583,0.00044039823091993085,6.694067779472683e-05,-0.0003434876943996948,0.00034381064930908437,0.0007405154543913301,0.22445029020309448,13.488611221313477,-0.3983490765094757,-18.269685745239258,-0.4983420968055725,-2.2882113456726074,0.24844686686992645,0
4,0.015013456344604492,-0.22445029020309448,-13.488611221313477,0.3983490765094757,18.269685745239258,0.4983420968055725,2.2882113456726074,-0.24844686686992645,0.0,0.0,0.0,0.0,0.0,0.0,0.0,-0.212808337363533,0.41895769287969326,-0.03409332010632616,0.5335265679208545,0.07552485585619192,0.07084257902883477,-0.2674854554950775,0.07180605865779675,-0.3342122855144634,-0.12025051538254085,-2.874740796923664,-0.06458839104695785,2.5182353535228303,0.7687533580439918,0.07165585495296277,-0.33419673383382315,-0.1203439052763738,-2.874768336042937,-0.06453255302590709,2.518161157661014,0.7687020283728597,0.00034968692514508796,-0.0003518960991457583,-0.00044039823091993085,-6.694067779472683e-05,0.0003434876943996948,-0.00034381064930908437,-0.0007405154543913301,0.0,0.0,0.0,0.0,0.0,0.0,0.0,-0.00015020370483398438,1.5551680640268906e-05,-9.338989383295138e-05,-2.7539119273001234e-05,5.5838021050760855e-05,-7.419586181622861e-05,-5.13296711320832e-05,-0.00034968692514508796,0.0003518960991457583,0.00044039823091993085,6.694067779472683e-05,-0.0003434876943996948,0.00034381064930908437,0.0007405154543913301,0.22445029020309448,13.488611221313477,-0.3983490765094757,-18.269685745239258,-0.4983420968055725,-2.2882113456726074,0.24844686686992645,0
5,0.0200045108795166,-0.22445029020309448,-13.488611221313477,0.3983490765094757,18.269685745239258,0.4983420968055725,2.2882113456726074,-0.24844686686992645,0.0,0.0,0.0,0.0,0.0,0.0,0.0,-0.212808337363533,0.41895769287969326,-0.03409332010632616,0.5335265679208545,0.07552485585619192,0.07084257902883477,-0.2674854554950775,0.07180605865779675,-0.3342122855144634,-0.12025051538254085,-2.874740796923664,-0.06458839104695785,2.5182353535228303,0.7687533580439918,0.07165585495296277,-0.33419673383382315,-0.1203439052763738,-2.874768336042937,-0.06453255302590709,2.518161157661014,0.7687020283728597,0.00034968692514508796,-0.0003518960991457583,-0.00044039823091993085,-6.694067779472683e-05,0.0003434876943996948,-0.00034381064930908437,-0.0007405154543913301,0.0,0.0,0.0,0.0,0.0,0.0,0.0,-0.00015020370483398438,1.5551680640268906e-05,-9.338989383295138e-05,-2.7539119273001234e-05,5.5838021050760855e-05,-7.419586181622861e-05,-5.13296711320832e-05,-0.00034968692514508796,0.0003518960991457583,0.00044039823091993085,6.694067779472683e-05,-0.0003434876943996948,0.00034381064930908437,0.0007405154543913301,0.22445029020309448,13.488611221313477,-0.3983490765094757,-18.269685745239258,-0.4983420968055725,-2.2882113456726074,0.24844686686992645,0
6,0.025002717971801758,-0.22445029020309448,-13.488611221313477,0.3983490765094757,18.269685745239258,0.4983420968055725,2.2882113456726074,-0.24844686686992645,0.0,0.0,0.0,0.0,0.0,0.0,0.0,-0.212808337363533,0.41895769287969326,-0.03409332010632616,0.5335265679208545,0.07552485585619192,0.07084257902883477,-0.2674854554950775,0.07180605865779675,-0.3342122855144634,-0.12025051538254085,-2.874740796923664,-0.06458839104695785,2.5182353535228303,0.7687533580439918,0.07165585495296277,-0.33419673383382315,-0.1203439052763738,-2.874768336042937,-0.06453255302590709,2.518161157661014,0.7687020283728597,0.00034968692514508796,-0.0003518960991457583,-0.00044039823091993085,-6.694067779472683e-05,0.0003434876943996948,-0.00034381064930908437,-0.0007405154543913301,0.0,0.0,0.0,0.0,0.0,0.0,0.0,-0.00015020370483398438,1.5551680640268906e-05,-9.338989383295138e-05,-2.7539119273001234e-05,5.5838021050760855e-05,-7.419586181622861e-05,-5.13296711320832e-05,-0.00034968692514508796,0.0003518960991457583,0.00044039823091993085,6.694067779472683e-05,-0.0003434876943996948,0.00034381064930908437,0.0007405154543913301,0.22445029020309448,13.488611221313477,-0.3983490765094757,-18.269685745239258,-0.4983420968055725,-2.2882113456726074,0.24844686686992645,0
7,0.029998302459716797,-0.22445029020309448,-13.512414932250977,0.3705780804157257,18.269685745239258,0.5047507882118225,2.2818026542663574,-0.23471395671367645,0.0,0.0,0.0,0.0,0.0,0.0,0.0,-0.2140509852522318,0.4141040776801219,-0.03307820372609561,0.5362135001180938,0.07530614053619315,0.07073477422733594,-0.2653705341892929,0.07180605865779675,-0.33421061507860816,-0.12024856654070971,-2.874738574570077,-0.06459199194165638,2.5182360655996536,0.7687518321590291,0.07165585495296277,-0.33419673383382315,-0.1203439052763738,-2.874768336042937,-0.06453255302590709,2.518161157661014,0.7687020283728597,0.00032663518429743694,0.0002731560482544966,9.257049449550432e-05,-1.611701118322936e-05,1.4347722686755687e-05,-0.00012578191381497355,-0.0013925804144048193,0.0,0.0,0.0,0.0,0.0,0.0,0.0,-0.00015020370483398438,1.3881244785018954e-05,-9.533873566408557e-05,-2.9761472859934912e-05,5.943891574929083e-05,-7.49079386395124e-05,-4.980378616936676e-05,-0.00032663518429743694,-0.0002731560482544966,-9.257049449550432e-05,1.611701118322936e-05,-1.4347722686755687e-05,0.00012578191381497355,0.0013925804144048193,0.22445029020309448,13.512414932250977,-0.3705780804157257,-18.269685745239258,-0.5047507882118225,-2.2818026542663574,0.23471395671367645,0
8,0.03500008583068848,-0.22445029020309448,-13.512414932250977,0.3705780804157257,18.269685745239258,0.5047507882118225,2.2818026542663574,-0.23471395671367645,0.0,0.0,0.0,0.0,0.0,0.0,0.0,-0.2140509852522318,0.4141040776801219,-0.03307820372609561,0.5362135001180938,0.07530614053619315,0.07073477422733594,-0.2653705341892929,0.07180605865779675,-0.33421061507860816,-0.12024856654070971,-2.874738574570077,-0.06459199194165638,2.5182360655996536,0.7687518321590291,0.07165585495296277,-0.33419673383382315,-0.1203439052763738,-2.874768336042937,-0.06453255302590709,2.518161157661014,0.7687020283728597,0.00032663518429743694,0.0002731560482544966,9.257049449550432e-05,-1.611701118322936e-05,1.4347722686755687e-05,-0.00012578191381497355,-0.0013925804144048193,0.0,0.0,0.0,0.0,0.0,0.0,0.0,-0.00015020370483398438,1.3881244785018954e-05,-9.533873566408557e-05,-2.9761472859934912e-05,5.943891574929083e-05,-7.49079386395124e-05,-4.980378616936676e-05,-0.00032663518429743694,-0.0002731560482544966,-9.257049449550432e-05,1.611701118322936e-05,-1.4347722686755687e-05,0.00012578191381497355,0.0013925804144048193,0.22445029020309448,13.512414932250977,-0.3705780804157257,-18.269685745239258,-0.5047507882118225,-2.2818026542663574,0.23471395671367645,0
9,0.039998531341552734,-0.2998287081718445,-13.488611221313477,0.3467743694782257,18.245882034301758,0.5047507882118225,2.2689852714538574,-0.24844686686992645,0.0,0.0,0.0,0.0,0.0,0.0,0.0,-0.21505481412457705,0.4095847076125831,-0.03379727590740609,0.5388635798745411,0.07540315041518399,0.07048198098779294,-0.2650573730287485,0.07181134837133843,-0.3342122855144634,-0.12024689610485445,-2.874739631672659,-0.06459339821548543,2.5182374897532993,0.7687533580379353,0.07165585495296277,-0.33419673383382315,-0.1203439052763738,-2.874768336042937,-0.06453255302590709,2.518161157661014,0.7687020283728597,0.0019643517064040594,-0.0006408029004439877,0.0008232547762080562,0.0008957821785566842,0.0001526374809134503,0.00047123376900397144,-0.000263072959411851,0.0,0.0,0.0,0.0,0.0,0.0,0.0,-0.0001554934183756601,1.5551680640268906e-05,-9.70091715193494e-05,-2.8704370278020974e-05,6.084518957834295e-05,-7.633209228519178e-05,-5.1329665075594555e-05,-0.0019643517064040594,0.0006408029004439877,-0.0008232547762080562,-0.0008957821785566842,-0.0001526374809134503,-0.00047123376900397144,0.000263072959411851,0.2998287081718445,13.488611221313477,-0.3467743694782257,-18.245882034301758,-0.5047507882118225,-2.2689852714538574,0.24844686686992645,0
10,0.045020103454589844,-0.2998287081718445,-13.488611221313477,0.3467743694782257,18.245882034301758,0.5047507882118225,2.2689852714538574,-0.24844686686992645,0.0,0.0,0.0,0.0,0.0,0.0,0.0,-0.21505481412457705,0.4095847076125831,-0.03379727590740609,0.5388635798745411,0.07540315041518399,0.07048198098779294,-0.2650573730287485,0.07181134837133843,-0.3342122855144634,-0.12024689610485445,-2.874739631672659,-0.06459339821548543,2.5182374897532993,0.7687533580379353,0.07165585495296277,-0.33419673383382315,-0.1203439052763738,-2.874768336042937,-0.06453255302590709,2.518161157661014,0.7687020283728597,0.0019643517064040594,-0.0006408029004439877,0.0008232547762080562,0.0008957821785566842,0.0001526374809134503,0.00047123376900397144,-0.000263072959411851,0.0,0.0,0.0,0.0,0.0,0.0,0.0,-0.0001554934183756601,1.5551680640268906e-05,-9.70091715193494e-05,-2.8704370278020974e-05,6.084518957834295e-05,-7.633209228519178e-05,-5.1329665075594555e-05,-0.0019643517064040594,0.0006408029004439877,-0.0008232547762080562,-0.0008957821785566842,-0.0001526374809134503,-0.00047123376900397144,0.000263072959411851,0.2998287081718445,13.488611221313477,-0.3467743694782257,-18.245882034301758,-0.5047507882118225,-2.2689852714538574,0.24844686686992645,0
11,0.05000734329223633,-0.22445029020309448,-13.512414932250977,0.3467743694782257,18.269685745239258,0.4983420968055725,2.2818026542663574,-0.26858848333358765,0.0,0.0,0.0,0.0,0.0,0.0,0.0,-0.218004049559282,0.4115269980478343,-0.03580215797060039,0.538127629583351,0.07577005465067384,0.06997600222710634,-0.26438233217300183,0.07180605865779675,-0.33421061507860816,-0.12024689610485445,-2.874741372330388,-0.06458909592342148,2.5182364364729986,0.7687555959953202,0.07165585495296277,-0.33419673383382315,-0.1203439052763738,-2.874768336042937,-0.06453255302590709,2.518161157661014,0.7687020283728597,-4.4077224317440746e-05,0.00022503276652795446,0.0006128131221393986,7.943783963229401e-05,0.0002969865141263583,7.779440474732457e-05,-0.0004903505933126962,0.0,0.0,0.0,0.0,0.0,0.0,0.0,-0.00015020370483398438,1.3881244785018954e-05,-9.70091715193494e-05,-2.6963712548955243e-05,5.65428975143889e-05,-7.527881198443609e-05,-5.356762246044866e-05,4.4077224317440746e-05,-0.00022503276652795446,-0.0006128131221393986,-7.943783963229401e-05,-0.0002969865141263583,-7.779440474732457e-05,0.0004903505933126962,0.22445029020309448,13.512414932250977,-0.3467743694782257,-18.269685745239258,-0.4983420968055725,-2.2818026542663574,0.26858848333358765,0
12,0.0550076961517334,-0.22445029020309448,-13.512414932250977,0.3467743694782257,18.269685745239258,0.4983420968055725,2.2818026542663574,-0.26858848333358765,0.0,0.0,0.0,0.0,0.0,0.0,0.0,-0.218004049559282,0.4115269980478343,-0.03580215797060039,0.538127629583351,0.07577005465067384,0.06997600222710634,-0.26438233217300183,0.07180605865779675,-0.33421061507860816,-0.12024689610485445,-2.874741372330388,-0.06458909592342148,2.5182364364729986,0.7687555959953202,0.07165585495296277,-0.33419673383382315,-0.1203439052763738,-2.874768336042937,-0.06453255302590709,2.518161157661014,0.7687020283728597,-4.4077224317440746e-05,0.00022503276652795446,0.0006128131221393986,7.943783963229401e-05,0.0002969865141263583,7.779440474732457e-05,-0.0004903505933126962,0.0,0.0,0.0,0.0,0.0,0.0,0.0,-0.00015020370483398438,1.3881244785018954e-05,-9.70091715193494e-05,-2.6963712548955243e-05,5.65428975143889e-05,-7.527881198443609e-05,-5.356762246044866e-05,4.4077224317440746e-05,-0.00022503276652795446,-0.0006128131221393986,-7.943783963229401e-05,-0.0002969865141263583,-7.779440474732457e-05,0.0004903505933126962,0.22445029020309448,13.512414932250977,-0.3467743694782257,-18.269685745239258,-0.4983420968055725,-2.2818026542663574,0.26858848333358765,0
13,0.06000399589538574,-0.24825400114059448,-13.512414932250977,0.3983490765094757,18.269685745239258,0.4983420968055725,2.2818026542663574,-0.21457235515117645,0.0,0.0,0.0,0.0,0.0,0.0,0.0,-0.22105803985862682,0.41691143585472296,-0.03787725780679555,0.5385112898645118,0.07570386181704351,0.07010525253052498,-0.2646821778909848,0.07180772909365202,-0.33421061507860816,-0.12025051538254085,-2.8747405481677952,-0.06458910174460966,2.518236065601747,0.7687495942032999,0.07165585495296277,-0.33419673383382315,-0.1203439052763738,-2.874768336042937,-0.06453255302590709,2.518161157661014,0.7687020283728597,0.0004578190124002307,0.0010821231489675717,-0.0007799193349255099,0.000570889423749885,0.00016830640541585023,0.0001332156667675458,-0.0018402090656116125,0.0,0.0,0.0,0.0,0.0,0.0,0.0,-0.0001518741406892482,1.3881244785018954e-05,-9.338989383295138e-05,-2.7787875141793705e-05,5.6548718702573164e-05,-7.490794073294893e-05,-4.756583044018825e-05,-0.0004578190124002307,-0.0010821231489675717,0.0007799193349255099,-0.000570889423749885,-0.00016830640541585023,-0.0001332156667675458,0.0018402090656116125,0.24825400114059448,13.512414932250977,-0.3983490765094757,-18.269685745239258,-0.4983420968055725,-2.2818026542663574,0.21457235515117645,0
14,0.06499934196472168,-0.24825400114059448,-13.512414932250977,0.3983490765094757,18.269685745239258,0.4983420968055725,2.2818026542663574,-0.21457235515117645,0.0,0.0,0.0,0.0,0.0,0.0,0.0,-0.22105803985862682,0.41691143585472296,-0.03787725780679555,0.5385112898645118,0.07570386181704351,0.07010525253052498,-0.2646821778909848,0.07180772909365202,-0.33421061507860816,-0.12025051538254085,-2.8747405481677952,-0.06458910174460966,2.518236065601747,0.7687495942032999,0.07165585495296277,-0.33419673383382315,-0.1203439052763738,-2.874768336042937,-0.06453255302590709,2.518161157661014,0.7687020283728597,0.0004578190124002307,0.0010821231489675717,-0.0007799193349255099,0.000570889423749885,0.00016830640541585023,0.0001332156667675458,-0.0018402090656116125,0.0,0.0,0.0,0.0,0.0,0.0,0.0,-0.0001518741406892482,1.3881244785018954e-05,-9.338989383295138e-05,-2.7787875141793705e-05,5.6548718702573164e-05,-7.490794073294893e-05,-4.756583044018825e-05,-0.0004578190124002307,-0.0010821231489675717,0.0007799193349255099,-0.000570889423749885,-0.00016830640541585023,-0.0001332156667675458,0.0018402090656116125,0.24825400114059448,13.512414932250977,-0.3983490765094757,-18.269685745239258,-0.4983420968055725,-2.2818026542663574,0.21457235515117645,0
15,0.06999969482421875,-0.22445029020309448,-13.512414932250977,0.3983490765094757,18.269685745239258,0.5047507882118225,2.2753939628601074,-0.28964561223983765,0.0,0.0,0.0,0.0,0.0,0.0,0.0,-0.2227679610359647,0.4158387868312788,-0.03755334120690319,0.5385580437278326,0.07512104792489795,0.07050158288852312,-0.2636537584918719,0.07180605865779675,-0.33421061507860816,-0.12025051538254085,-2.87474054816733,-0.06458982568063888,2.5182367776764765,0.7687579358398342,0.07165585495296277,-0.33419673383382315,-0.1203439052763738,-2.874768336042937,-0.06453255302590709,2.518161157661014,0.7687020283728597,0.00015335485476222692,0.0002156042095250908,-0.0008604896392702289,-9.204441712120763e-05,9.185938174780926e-05,0.0002524639903558138,0.0007753297833559627,0.0,0.0,0.0,0.0,0.0,0.0,0.0,-0.00015020370483398438,1.3881244785018954e-05,-9.338989383295138e-05,-2.7787875607199197e-05,5.727265473179366e-05,-7.562001546235209e-05,-5.590746697448079e-05,-0.00015335485476222692,-0.0002156042095250908,0.0008604896392702289,9.204441712120763e-05,-9.185938174780926e-05,-0.0002524639903558138,-0.0007753297833559627,0.22445029020309448,13.512414932250977,-0.3983490765094757,-18.269685745239258,-0.5047507882118225,-2.2753939628601074,0.28964561223983765,0
16,0.07499909400939941,-0.22445029020309448,-13.512414932250977,0.3983490765094757,18.269685745239258,0.5047507882118225,2.2753939628601074,-0.28964561223983765,0.0,0.0,0.0,0.0,0.0,0.0,0.0,-0.2227679610359647,0.4158387868312788,-0.03755334120690319,0.5385580437278326,0.07512104792489795,0.07050158288852312,-0.2636537584918719,0.07180605865779675,-0.33421061507860816,-0.12025051538254085,-2.87474054816733,-0.06458982568063888,2.5182367776764765,0.7687579358398342,0.07165585495296277,-0.33419673383382315,-0.1203439052763738,-2.874768336042937,-0.06453255302590709,2.518161157661014,0.7687020283728597,0.00015335485476222692,0.0002156042095250908,-0.0008604896392702289,-9.204441712120763e-05,9.185938174780926e-05,0.0002524639903558138,0.0007753297833559627,0.0,0.0,0.0,0.0,0.0,0.0,0.0,-0.00015020370483398438,1.3881244785018954e-05,-9.338989383295138e-05,-2.7787875607199197e-05,5.727265473179366e-05,-7.562001546235209e-05,-5.590746697448079e-05,-0.00015335485476222692,-0.0002156042095250908,0.0008604896392702289,9.204441712120763e-05,-9.185938174780926e-05,-0.0002524639903558138,-0.0007753297833559627,0.22445029020309448,13.512414932250977,-0.3983490765094757,-18.269685745239258,-0.5047507882118225,-2.2753939628601074,0.28964561223983765,0
17,0.08000373840332031,-0.19667929410934448,-13.512414932250977,0.3705780804157257,18.245882034301758,0.5047507882118225,2.3010287284851074,-0.24844686686992645,0.0,0.0,0.0,0.0,0.0,0.0,0.0,-0.2179753440130393,0.4163247973446781,-0.03388265549421496,0.5417840694892115,0.07510849872677014,0.07075805190682663,-0.2639589218650703,0.07180410981596562,-0.33421061507860816,-0.12024856654070971,-2.8747369090442176,-0.06458879789514141,2.5182339293691847,0.7687533580379362,0.07165585495296277,-0.33419673383382315,-0.1203439052763738,-2.874768336042937,-0.06453255302590709,2.518161157661014,0.7687020283728597,-0.00022970790946740753,0.0004268964237096202,0.0008721226235712529,0.0006556079163542528,-8.955513362186061e-05,-0.0008024953881527491,-0.001273010501968385,0.0,0.0,0.0,0.0,0.0,0.0,0.0,-0.00014825486300285018,1.3881244785018954e-05,-9.533873566408557e-05,-3.1426998719386035e-05,5.624486923432037e-05,-7.277170817054923e-05,-5.132966507648273e-05,0.00022970790946740753,-0.0004268964237096202,-0.0008721226235712529,-0.0006556079163542528,8.955513362186061e-05,0.0008024953881527491,0.001273010501968385,0.19667929410934448,13.512414932250977,-0.3705780804157257,-18.245882034301758,-0.5047507882118225,-2.3010287284851074,0.24844686686992645,0
18,0.08499908447265625,-0.19667929410934448,-13.512414932250977,0.3705780804157257,18.245882034301758,0.5047507882118225,2.3010287284851074,-0.24844686686992645,0.0,0.0,0.0,0.0,0.0,0.0,0.0,-0.2179753440130393,0.4163247973446781,-0.03388265549421496,0.5417840694892115,0.07510849872677014,0.07075805190682663,-0.2639589218650703,0.07180410981596562,-0.33421061507860816,-0.12024856654070971,-2.8747369090442176,-0.06458879789514141,2.5182339293691847,0.7687533580379362,0.07165585495296277,-0.33419673383382315,-0.1203439052763738,-2.874768336042937,-0.06453255302590709,2.518161157661014,0.7687020283728597,-0.00022970790946740753,0.0004268964237096202,0.0008721226235712529,0.0006556079163542528,-8.955513362186061e-05,-0.0008024953881527491,-0.001273010501968385,0.0,0.0,0.0,0.0,0.0,0.0,0.0,-0.00014825486300285018,1.3881244785018954e-05,-9.533873566408557e-05,-3.1426998719386035e-05,5.624486923432037e-05,-7.277170817054923e-05,-5.132966507648273e-05,0.00022970790946740753,-0.0004268964237096202,-0.0008721226235712529,-0.0006556079163542528,8.955513362186061e-05,0.0008024953881527491,0.001273010501968385,0.19667929410934448,13.512414932250977,-0.3705780804157257,-18.245882034301758,-0.5047507882118225,-2.3010287284851074,0.24844686686992645,0
19,0.0899496078491211,-0.24825400114059448,-13.536218643188477,0.3983490765094757,18.297456741333008,0.5047507882118225,2.3010287284851074,-0.28232139348983765,0.0,0.0,0.0,0.0,0.0,0.0,0.0,-0.22034123208216264,0.4138467137990841,-0.036622018030042496,0.5403821429227185,0.0751992832776369,0.07112272424962189,-0.2644192350390836,0.07180772909365202,-0.33420894464275286,-0.12025051538254085,-2.8747434860271324,-0.0645902022724914,2.5182339293691847,0.7687571218742265,0.07165585495296277,-0.33419673383382315,-0.1203439052763738,-2.874768336042937,-0.06453255302590709,2.518161157661014,0.7687020283728597,0.0009674111126677438,0.00023950756270940863,-0.0005160074947242283,-0.0008867058172637764,-0.00011212707154704892,-0.00073722826171402,0.0001225771211282982,0.0,0.0,0.0,0.0,0.0,0.0,0.0,-0.0001518741406892482,1.221080892971349e-05,-9.338989383295138e-05,-2.4850015804656067e-05,5.764924658431536e-05,-7.277170817054923e-05,-5.509350136678748e-05,-0.0009674111126677438,-0.00023950756270940863,0.0005160074947242283,0.0008867058172637764,0.00011212707154704892,0.00073722826171402,-0.0001225771211282982,0.24825400114059448,13.536218643188477,-0.3983490765094757,-18.297456741333008,-0.5047507882118225,-2.3010287284851074,0.28232139348983765,0
20,0.095001220703125,-0.24825400114059448,-13.536218643188477,0.3983490765094757,18.297456741333008,0.5047507882118225,2.3010287284851074,-0.28232139348983765,0.0,0.0,0.0,0.0,0.0,0.0,0.0,-0.22034123208216264,0.4138467137990841,-0.036622018030042496,0.5403821429227185,0.0751992832776369,0.07112272424962189,-0.2644192350390836,0.07180772909365202,-0.33420894464275286,-0.12025051538254085,-2.8747434860271324,-0.0645902022724914,2.5182339293691847,0.7687571218742265,0.07165585495296277,-0.33419673383382315,-0.1203439052763738,-2.874768336042937,-0.06453255302590709,2.518161157661014,0.7687020283728597,0.0009674111126677438,0.00023950756270940863,-0.0005160074947242283,-0.0008867058172637764,-0.00011212707154704892,-0.00073722826171402,0.0001225771211282982,0.0,0.0,0.0,0.0,0.0,0.0,0.0,-0.0001518741406892482,1.221080892971349e-05,-9.338989383295138e-05,-2.4850015804656067e-05,5.764924658431536e-05,-7.277170817054923e-05,-5.509350136678748e-05,-0.0009674111126677438,-0.00023950756270940863,0.0005160074947242283,0.0008867058172637764,0.00011212707154704892,0.00073722826171402,-0.0001225771211282982,0.24825400114059448,13.536218643188477,-0.3983490765094757,-18.297456741333008,-0.5047507882118225,-2.3010287284851074,0.28232139348983765,0
21,0.09999895095825195,-0.22445029020309448,-13.563989639282227,0.3705780804157257,18.297456741333008,0.5166526436805725,2.2882113456726074,-0.27591270208358765,0.0,0.0,0.0,0.0,0.0,0.0,0.0,-0.22153127918126542,0.40898293723353923,-0.037280409706170706,0.5385701359241908,0.07510734031828342,0.07157104681594242,-0.26589216760844603,0.07180605865779675,-0.3342069958009217,-0.1202485675150426,-2.874741126834876,-0.06459010523522714,2.5182353535228303,0.7687564097974036,0.07165585495296277,-0.33419673383382315,-0.1203439052763738,-2.874768336042937,-0.06453255302590709,2.518161157661014,0.7687020283728597,-0.00025401233564624725,0.00034725012188154914,-5.609364175387772e-05,-0.0007891929445923272,-0.0002914206255981803,-0.00014343209769693803,0.0002830485456897153,0.0,0.0,0.0,0.0,0.0,0.0,0.0,-0.00015020370483398438,1.0261967098579294e-05,-9.533776133119343e-05,-2.7209208060874346e-05,5.7552209320049785e-05,-7.419586181622861e-05,-5.4381424543836765e-05,0.00025401233564624725,-0.00034725012188154914,5.609364175387772e-05,0.0007891929445923272,0.0002914206255981803,0.00014343209769693803,-0.0002830485456897153,0.22445029020309448,13.563989639282227,-0.3705780804157257,-18.297456741333008,-0.5166526436805725,-2.2882113456726074,0.27591270208358765,0
22,0.10500192642211914,-0.22445029020309448,-13.563989639282227,0.3705780804157257,18.297456741333008,0.5166526436805725,2.2882113456726074,-0.27591270208358765,0.0,0.0,0.0,0.0,0.0,0.0,0.0,-0.22153127918126542,0.40898293723353923,-0.037280409706170706,0.5385701359241908,0.07510734031828342,0.07157104681594242,-0.26589216760844603,0.07180605865779675,-0.3342069958009217,-0.1202485675150426,-2.874741126834876,-0.06459010523522714,2.5182353535228303,0.7687564097974036,0.07165585495296277,-0.33419673383382315,-0.1203439052763738,-2.874768336042937,-0.06453255302590709,2.518161157661014,0.7687020283728597,-0.00025401233564624725,0.00034725012188154914,-5.609364175387772e-05,-0.0007891929445923272,-0.0002914206255981803,-0.00014343209769693803,0.0002830485456897153,0.0,0.0,0.0,0.0,0.0,0.0,0.0,-0.00015020370483398438,1.0261967098579294e-05,-9.533776133119343e-05,-2.7209208060874346e-05,5.7552209320049785e-05,-7.419586181622861e-05,-5.4381424543836765e-05,0.00025401233564624725,-0.00034725012188154914,5.609364175387772e-05,0.0007891929445923272,0.0002914206255981803,0.00014343209769693803,-0.0002830485456897153,0.22445029020309448,13.563989639282227,-0.3705780804157257,-18.297456741333008,-0.5166526436805725,-2.2882113456726074,0.27591270208358765,0
23,0.11000990867614746,-0.22445029020309448,-13.536218643188477,0.3983490765094757,18.269685745239258,0.5047507882118225,2.2818026542663574,-0.25485557317733765,0.0,0.0,0.0,0.0,0.0,0.0,0.0,-0.22080519874350327,0.40335770860977155,-0.035707802753903256,0.5396008507825913,0.07527719647317448,0.0719221091522177,-0.26584563223346497,0.07180605865779675,-0.33420894464275286,-0.12025051538254634,-2.8747408879954555,-0.06459312500117104,2.5182360655996536,0.768754070116414,0.07165585495296277,-0.33419673383382315,-0.1203439052763738,-2.874768336042937,-0.06453255302590709,2.518161157661014,0.7687020283728597,-0.00031951859321441246,0.0001007282945415059,-0.0007977140258320405,0.0002236189753655448,4.957599941964354e-05,2.792271053848172e-05,0.00028676979243645335,0.0,0.0,0.0,0.0,0.0,0.0,0.0,-0.00015020370483398438,1.221080892971349e-05,-9.338989382745577e-05,-2.7448047481559712e-05,6.057197526394831e-05,-7.49079386395124e-05,-5.2041743554220865e-05,0.00031951859321441246,-0.0001007282945415059,0.0007977140258320405,-0.0002236189753655448,-4.957599941964354e-05,-2.792271053848172e-05,-0.00028676979243645335,0.22445029020309448,13.536218643188477,-0.3983490765094757,-18.269685745239258,-0.5047507882118225,-2.2818026542663574,0.25485557317733765,0
24,0.11501908302307129,-0.22445029020309448,-13.536218643188477,0.3983490765094757,18.269685745239258,0.5047507882118225,2.2818026542663574,-0.25485557317733765,0.0,0.0,0.0,0.0,0.0,0.0,0.0,-0.22080519874350327,0.40335770860977155,-0.035707802753903256,0.5396008507825913,0.07527719647317448,0.0719221091522177,-0.26584563223346497,0.07180605865779675,-0.33420894464275286,-0.12025051538254634,-2.8747408879954555,-0.06459312500117104,2.5182360655996536,0.768754070116414,0.07165585495296277,-0.33419673383382315,-0.1203439052763738,-2.874768336042937,-0.06453255302590709,2.518161157661014,0.7687020283728597,-0.00031951859321441246,0.0001007282945415059,-0.0007977140258320405,0.0002236189753655448,4.957599941964354e-05,2.792271053848172e-05,0.00028676979243645335,0.0,0.0,0.0,0.0,0.0,0.0,0.0,-0.00015020370483398438,1.221080892971349e-05,-9.338989382745577e-05,-2.7448047481559712e-05,6.057197526394831e-05,-7.49079386395124e-05,-5.2041743554220865e-05,0.00031951859321441246,-0.0001007282945415059,0.0007977140258320405,-0.0002236189753655448,-4.957599941964354e-05,-2.792271053848172e-05,-0.00028676979243645335,0.22445029020309448,13.536218643188477,-0.3983490765094757,-18.269685745239258,-0.5047507882118225,-2.2818026542663574,0.25485557317733765,0
25,0.12000513076782227,-0.24825400114059448,-13.464807510375977,0.3983490765094757,18.269685745239258,0.5166526436805725,2.2753939628601074,-0.26858848333358765,0.0,0.0,0.0,0.0,0.0,0.0,0.0,-0.22312935701672684,0.4102482767834941,-0.03720424711553828,0.5333724153802102,0.07574302717427847,0.07068528606370814,-0.2660750101286551,0.07180772909365202,-0.33421395595031866,-0.12025051538254085,-2.874739394336876,-0.06459020168982192,2.5182367776764765,0.7687555959953202,0.07165585495296277,-0.33419673383382315,-0.1203439052763738,-2.874768336042937,-0.06453255302590709,2.518161157661014,0.7687020283728597,0.0003759158334401701,-0.0003136540834256001,-0.000725139409203755,-0.00035753342507042953,-0.0004449221279991043,0.00021825457243099128,0.00021961091662779804,0.0,0.0,0.0,0.0,0.0,0.0,0.0,-0.0001518741406892482,1.7222116495518858e-05,-9.338989383295138e-05,-2.8941706061047512e-05,5.7648663914833254e-05,-7.562001546235209e-05,-5.356762246044866e-05,-0.0003759158334401701,0.0003136540834256001,0.000725139409203755,0.00035753342507042953,0.0004449221279991043,-0.00021825457243099128,-0.00021961091662779804,0.24825400114059448,13.464807510375977,-0.3983490765094757,-18.269685745239258,-0.5166526436805725,-2.2753939628601074,0.26858848333358765,0
26,0.12495636940002441,-0.24825400114059448,-13.464807510375977,0.3983490765094757,18.269685745239258,0.5166526436805725,2.2753939628601074,-0.26858848333358765,0.0,0.0,0.0,0.0,0.0,0.0,0.0,-0.22312935701672684,0.4102482767834941,-0.03720424711553828,0.5333724153802102,0.07574302717427847,0.07068528606370814,-0.2660750101286551,0.07180772909365202,-0.33421395595031866,-0.12025051538254085,-2.874739394336876,-0.06459020168982192,2.5182367776764765,0.7687555959953202,0.07165585495296277,-0.33419673383382315,-0.1203439052763738,-2.874768336042937,-0.06453255302590709,2.518161157661014,0.7687020283728597,0.0003759158334401701,-0.0003136540834256001,-0.000725139409203755,-0.00035753342507042953,-0.0004449221279991043,0.00021825457243099128,0.00021961091662779804,0.0,0.0,0.0,0.0,0.0,0.0,0.0,-0.0001518741406892482,1.7222116495518858e-05,-9.338989383295138e-05,-2.8941706061047512e-05,5.7648663914833254e-05,-7.562001546235209e-05,-5.356762246044866e-05,-0.0003759158334401701,0.0003136540834256001,0.000725139409203755,0.00035753342507042953,0.0004449221279991043,-0.00021825457243099128,-0.00021961091662779804,0.24825400114059448,13.464807510375977,-0.3983490765094757,-18.269685745239258,-0.5166526436805725,-2.2753939628601074,0.26858848333358765,0
27,0.12999868392944336,-0.24825400114059448,-13.464807510375977,0.3983490765094757,18.269685745239258,0.5166526436805725,2.2753939628601074,-0.26858848333358765,0.0,0.0,0.0,0.0,0.0,0.0,0.0,-0.22312935701672684,0.4102482767834941,-0.03720424711553828,0.5333724153802102,0.07574302717427847,0.07068528606370814,-0.2660750101286551,0.07180772909365202,-0.33421395595031866,-0.12025051538254085,-2.874739394336876,-0.06459020168982192,2.5182367776764765,0.7687555959953202,0.07165585495296277,-0.33419673383382315,-0.1203439052763738,-2.874768336042937,-0.06453255302590709,2.518161157661014,0.7687020283728597,0.0003759158334401701,-0.0003136540834256001,-0.000725139409203755,-0.00035753342507042953,-0.0004449221279991043,0.00021825457243099128,0.00021961091662779804,0.0,0.0,0.0,0.0,0.0,0.0,0.0,-0.0001518741406892482,1.7222116495518858e-05,-9.338989383295138e-05,-2.8941706061047512e-05,5.7648663914833254e-05,-7.562001546235209e-05,-5.356762246044866e-05,-0.0003759158334401701,0.0003136540834256001,0.000725139409203755,0.00035753342507042953,0.0004449221279991043,-0.00021825457243099128,-0.00021961091662779804,0.24825400114059448,13.464807510375977,-0.3983490765094757,-18.269685745239258,-0.5166526436805725,-2.2753939628601074,0.26858848333358765,0
28,0.13500022888183594,-0.24825400114059448,-13.464807510375977,0.3983490765094757,18.269685745239258,0.5166526436805725,2.2753939628601074,-0.26858848333358765,0.0,0.0,0.0,0.0,0.0,0.0,0.0,-0.22312935701672684,0.4102482767834941,-0.03720424711553828,0.5333724153802102,0.07574302717427847,0.07068528606370814,-0.2660750101286551,0.07180772909365202,-0.33421395595031866,-0.12025051538254085,-2.874739394336876,-0.06459020168982192,2.5182367776764765,0.7687555959953202,0.07165585495296277,-0.33419673383382315,-0.1203439052763738,-2.874768336042937,-0.06453255302590709,2.518161157661014,0.7687020283728597,0.0003759158334401701,-0.0003136540834256001,-0.000725139409203755,-0.00035753342507042953,-0.0004449221279991043,0.00021825457243099128,0.00021961091662779804,0.0,0.0,0.0,0.0,0.0,0.0,0.0,-0.0001518741406892482,1.7222116495518858e-05,-9.338989383295138e-05,-2.8941706061047512e-05,5.7648663914833254e-05,-7.562001546235209e-05,-5.356762246044866e-05,-0.0003759158334401701,0.0003136540834256001,0.000725139409203755,0.00035753342507042953,0.0004449221279991043,-0.00021825457243099128,-0.00021961091662779804,0.24825400114059448,13.464807510375977,-0.3983490765094757,-18.269685745239258,-0.5166526436805725,-2.2753939628601074,0.26858848333358765,0
29,0.1400003433227539,-0.24825400114059448,-13.464807510375977,0.3983490765094757,18.269685745239258,0.5166526436805725,2.2753939628601074,-0.26858848333358765,0.0,0.0,0.0,0.0,0.0,0.0,0.0,-0.22312935701672684,0.4102482767834941,-0.03720424711553828,0.5333724153802102,0.07574302717427847,0.07068528606370814,-0.2660750101286551,0.07180772909365202,-0.33421395595031866,-0.12025051538254085,-2.874739394336876,-0.06459020168982192,2.5182367776764765,0.7687555959953202,0.07165585495296277,-0.33419673383382315,-0.1203439052763738,-2.874768336042937,-0.06453255302590709,2.518161157661014,0.7687020283728597,0.0003759158334401701,-0.0003136540834256001,-0.000725139409203755,-0.00035753342507042953,-0.0004449221279991043,0.00021825457243099128,0.00021961091662779804,0.0,0.0,0.0,0.0,0.0,0.0,0.0,-0.0001518741406892482,1.7222116495518858e-05,-9.338989383295138e-05,-2.8941706061047512e-05,5.7648663914833254e-05,-7.562001546235209e-05,-5.356762246044866e-05,-0.0003759158334401701,0.0003136540834256001,0.000725139409203755,0.00035753342507042953,0.0004449221279991043,-0.00021825457243099128,-0.00021961091662779804,0.24825400114059448,13.464807510375977,-0.3983490765094757,-18.269685745239258,-0.5166526436805725,-2.2753939628601074,0.26858848333358765,0
30,0.1450047492980957,-0.24825400114059448,-13.464807510375977,0.3983490765094757,18.269685745239258,0.5166526436805725,2.2753939628601074,-0.26858848333358765,0.0,0.0,0.0,0.0,0.0,0.0,0.0,-0.22312935701672684,0.4102482767834941,-0.03720424711553828,0.5333724153802102,0.07574302717427847,0.07068528606370814,-0.2660750101286551,0.07180772909365202,-0.33421395595031866,-0.12025051538254085,-2.874739394336876,-0.06459020168982192,2.5182367776764765,0.7687555959953202,0.07165585495296277,-0.33419673383382315,-0.1203439052763738,-2.874768336042937,-0.06453255302590709,2.518161157661014,0.7687020283728597,0.0003759158334401701,-0.0003136540834256001,-0.000725139409203755,-0.00035753342507042953,-0.0004449221279991043,0.00021825457243099128,0.00021961091662779804,0.0,0.0,0.0,0.0,0.0,0.0,0.0,-0.0001518741406892482,1.7222116495518858e-05,-9.338989383295138e-05,-2.8941706061047512e-05,5.7648663914833254e-05,-7.562001546235209e-05,-5.356762246044866e-05,-0.0003759158334401701,0.0003136540834256001,0.000725139409203755,0.00035753342507042953,0.0004449221279991043,-0.00021825457243099128,-0.00021961091662779804,0.24825400114059448,13.464807510375977,-0.3983490765094757,-18.269685745239258,-0.5166526436805725,-2.2753939628601074,0.26858848333358765,0
31,0.14999771118164062,-0.24825400114059448,-13.464807510375977,0.3983490765094757,18.269685745239258,0.5166526436805725,2.2753939628601074,-0.26858848333358765,0.0,0.0,0.0,0.0,0.0,0.0,0.0,-0.22312935701672684,0.4102482767834941,-0.03720424711553828,0.5333724153802102,0.07574302717427847,0.07068528606370814,-0.2660750101286551,0.07180772909365202,-0.33421395595031866,-0.12025051538254085,-2.874739394336876,-0.06459020168982192,2.5182367776764765,0.7687555959953202,0.07165585495296277,-0.33419673383382315,-0.1203439052763738,-2.874768336042937,-0.06453255302590709,2.518161157661014,0.7687020283728597,0.0003759158334401701,-0.0003136540834256001,-0.000725139409203755,-0.00035753342507042953,-0.0004449221279991043,0.00021825457243099128,0.00021961091662779804,0.0,0.0,0.0,0.0,0.0,0.0,0.0,-0.0001518741406892482,1.7222116495518858e-05,-9.338989383295138e-05,-2.8941706061047512e-05,5.7648663914833254e-05,-7.562001546235209e-05,-5.356762246044866e-05,-0.0003759158334401701,0.0003136540834256001,0.000725139409203755,0.00035753342507042953,0.0004449221279991043,-0.00021825457243099128,-0.00021961091662779804,0.24825400114059448,13.464807510375977,-0.3983490765094757,-18.269685745239258,-0.5166526436805725,-2.2753939628601074,0.26858848333358765,0
32,0.15500116348266602,-0.19667929410934448,-13.488611221313477,0.3705780804157257,18.269685745239258,0.5047507882118225,2.2882113456726074,-0.24844686686992645,0.0,0.0,0.0,0.0,0.0,0.0,0.0,-0.22059142339961801,0.41022717037918716,-0.03349278204131504,0.5395799534170522,0.07490464447598236,0.06990523669893904,-0.2664891316164021,0.07180410981596562,-0.3342122855144634,-0.12024856654070971,-2.8747386529148846,-0.06458887920665435,2.5182353535228303,0.7687533580379353,0.07165585495296277,-0.33419673383382315,-0.1203439052763738,-2.874768336042937,-0.06453255302590709,2.518161157661014,0.7687020283728597,-0.0002212499746178998,-0.00022601912217011408,0.0007302279544666871,-0.00012092334673205382,1.3560175446706834e-05,-0.0002445712435613735,-0.000721294414864711,0.0,0.0,0.0,0.0,0.0,0.0,0.0,-0.00014825486300285018,1.5551680640268906e-05,-9.533873566408557e-05,-2.9683128052404584e-05,5.632618074725981e-05,-7.419586181622861e-05,-5.1329665075594555e-05,0.0002212499746178998,0.00022601912217011408,-0.0007302279544666871,0.00012092334673205382,-1.3560175446706834e-05,0.0002445712435613735,0.000721294414864711,0.19667929410934448,13.488611221313477,-0.3705780804157257,-18.269685745239258,-0.5047507882118225,-2.2882113456726074,0.24844686686992645,0
33,0.1600029468536377,-0.19667929410934448,-13.488611221313477,0.3705780804157257,18.269685745239258,0.5047507882118225,2.2882113456726074,-0.24844686686992645,0.0,0.0,0.0,0.0,0.0,0.0,0.0,-0.22059142339961801,0.41022717037918716,-0.03349278204131504,0.5395799534170522,0.07490464447598236,0.06990523669893904,-0.2664891316164021,0.07180410981596562,-0.3342122855144634,-0.12024856654070971,-2.8747386529148846,-0.06458887920665435,2.5182353535228303,0.7687533580379353,0.07165585495296277,-0.33419673383382315,-0.1203439052763738,-2.874768336042937,-0.06453255302590709,2.518161157661014,0.7687020283728597,-0.0002212499746178998,-0.00022601912217011408,0.0007302279544666871,-0.00012092334673205382,1.3560175446706834e-05,-0.0002445712435613735,-0.000721294414864711,0.0,0.0,0.0,0.0,0.0,0.0,0.0,-0.00014825486300285018,1.5551680640268906e-05,-9.533873566408557e-05,-2.9683128052404584e-05,5.632618074725981e-05,-7.419586181622861e-05,-5.1329665075594555e-05,0.0002212499746178998,0.00022601912217011408,-0.0007302279544666871,0.00012092334673205382,-1.3560175446706834e-05,0.0002445712435613735,0.000721294414864711,0.19667929410934448,13.488611221313477,-0.3705780804157257,-18.269685745239258,-0.5047507882118225,-2.2882113456726074,0.24844686686992645,0
34,0.16495442390441895,-0.24825400114059448,-13.464807510375977,0.3983490765094757,18.269685745239258,0.5047507882118225,2.2882113456726074,-0.25485557317733765,0.0,0.0,0.0,0.0,0.0,0.0,0.0,-0.222649321382687,0.41275880534578985,-0.03408912298888503,0.5424327945762507,0.07524179014214223,0.0704875148669964,-0.26647851379976445,0.07180772909365202,-0.33421395595031866,-0.12025052415153693,-2.8747416470741145,-0.06458887680352927,2.5182353535228303,0.768754070116414,0.07165585495296277,-0.33419673383382315,-0.1203439052763738,-2.874768336042937,-0.06453255302590709,2.518161157661014,0.7687020283728597,0.0007143901221554502,-0.0009490679150929316,-7.097898574211832e-06,0.000474747934085693,-8.856248225789494e-05,-0.0001762813307168102,-3.2016385184709486e-05,0.0,0.0,0.0,0.0,0.0,0.0,0.0,-0.0001518741406892482,1.7222116495518858e-05,-9.338112483686656e-05,-2.6688968822519143e-05,5.632377762218588e-05,-7.419586181622861e-05,-5.2041743554220865e-05,-0.0007143901221554502,0.0009490679150929316,7.097898574211832e-06,-0.000474747934085693,8.856248225789494e-05,0.0001762813307168102,3.2016385184709486e-05,0.24825400114059448,13.464807510375977,-0.3983490765094757,-18.269685745239258,-0.5047507882118225,-2.2882113456726074,0.25485557317733765,0
35,0.1699988842010498,-0.24825400114059448,-13.464807510375977,0.3983490765094757,18.269685745239258,0.5047507882118225,2.2882113456726074,-0.25485557317733765,0.0,0.0,0.0,0.0,0.0,0.0,0.0,-0.222649321382687,0.41275880534578985,-0.03408912298888503,0.5424327945762507,0.07524179014214223,0.0704875148669964,-0.26647851379976445,0.07180772909365202,-0.33421395595031866,-0.12025052415153693,-2.8747416470741145,-0.06458887680352927,2.5182353535228303,0.768754070116414,0.07165585495296277,-0.33419673383382315,-0.1203439052763738,-2.874768336042937,-0.06453255302590709,2.518161157661014,0.7687020283728597,0.0007143901221554502,-0.0009490679150929316,-7.097898574211832e-06,0.000474747934085693,-8.856248225789494e-05,-0.0001762813307168102,-3.2016385184709486e-05,0.0,0.0,0.0,0.0,0.0,0.0,0.0,-0.0001518741406892482,1.7222116495518858e-05,-9.338112483686656e-05,-2.6688968822519143e-05,5.632377762218588e-05,-7.419586181622861e-05,-5.2041743554220865e-05,-0.0007143901221554502,0.0009490679150929316,7.097898574211832e-06,-0.000474747934085693,8.856248225789494e-05,0.0001762813307168102,3.2016385184709486e-05,0.24825400114059448,13.464807510375977,-0.3983490765094757,-18.269685745239258,-0.5047507882118225,-2.2882113456726074,0.25485557317733765,0
36,0.17563176155090332,-0.19667929410934448,-13.536218643188477,0.3705780804157257,18.269685745239258,0.5047507882118225,2.2818026542663574,-0.26217979192733765,0.0,0.0,0.0,0.0,0.0,0.0,0.0,-0.2202610572077475,0.4110744196529536,-0.030431292011253677,0.5402445623400546,0.07501179418887487,0.07092223546683953,-0.26685491473369777,0.07180410981596562,-0.33420894464275286,-0.1202485665408582,-2.8747390962555355,-0.06459301493505046,2.5182360655996536,0.7687548839184973,0.07165585495296277,-0.33419673383382315,-0.1203439052763738,-2.874768336042937,-0.06453255302590709,2.518161157661014,0.7687020283728597,1.7669226880550696e-05,0.00017095618886117046,0.00035333354579155496,-5.864228822398958e-05,-5.791546985534616e-05,0.00012059685446889002,-0.0005058409111244684,0.0,0.0,0.0,0.0,0.0,0.0,0.0,-0.00014825486300285018,1.221080892971349e-05,-9.533873551559324e-05,-2.923978740154709e-05,6.046190914336946e-05,-7.49079386395124e-05,-5.285554563760897e-05,-1.7669226880550696e-05,-0.00017095618886117046,-0.00035333354579155496,5.864228822398958e-05,5.791546985534616e-05,-0.00012059685446889002,0.0005058409111244684,0.19667929410934448,13.536218643188477,-0.3705780804157257,-18.269685745239258,-0.5047507882118225,-2.2818026542663574,0.26217979192733765,0
37,0.17997384071350098,-0.19667929410934448,-13.536218643188477,0.3705780804157257,18.269685745239258,0.5047507882118225,2.2818026542663574,-0.26217979192733765,0.0,0.0,0.0,0.0,0.0,0.0,0.0,-0.2202610572077475,0.4110744196529536,-0.030431292011253677,0.5402445623400546,0.07501179418887487,0.07092223546683953,-0.26685491473369777,0.07180410981596562,-0.33420894464275286,-0.1202485665408582,-2.8747390962555355,-0.06459301493505046,2.5182360655996536,0.7687548839184973,0.07165585495296277,-0.33419673383382315,-0.1203439052763738,-2.874768336042937,-0.06453255302590709,2.518161157661014,0.7687020283728597,1.7669226880550696e-05,0.00017095618886117046,0.00035333354579155496,-5.864228822398958e-05,-5.791546985534616e-05,0.00012059685446889002,-0.0005058409111244684,0.0,0.0,0.0,0.0,0.0,0.0,0.0,-0.00014825486300285018,1.221080892971349e-05,-9.533873551559324e-05,-2.923978740154709e-05,6.046190914336946e-05,-7.49079386395124e-05,-5.285554563760897e-05,-1.7669226880550696e-05,-0.00017095618886117046,-0.00035333354579155496,5.864228822398958e-05,5.791546985534616e-05,-0.00012059685446889002,0.0005058409111244684,0.19667929410934448,13.536218643188477,-0.3705780804157257,-18.269685745239258,-0.5047507882118225,-2.2818026542663574,0.26217979192733765,0
38,0.18500471115112305,-0.22445029020309448,-13.536218643188477,0.3467743694782257,18.245882034301758,0.5166526436805725,2.2882113456726074,-0.26217979192733765,0.0,0.0,0.0,0.0,0.0,0.0,0.0,-0.216053939351025,0.41018501172386534,-0.03132202008598335,0.5406156980448019,0.0748393564011587,0.07122567151581724,-0.26744393557693735,0.07180605865779675,-0.33420894464275286,-0.12024689610485445,-2.874739247063298,-0.06459445583897046,2.5182353535228303,0.7687548839184973,0.07165585495296277,-0.33419673383382315,-0.1203439052763738,-2.874768336042937,-0.06453255302590709,2.518161157661014,0.7687020283728597,0.00029916220426342,0.0006428487726930853,0.0010538803896172765,0.0008516560425976638,-0.00037826454367836774,-0.00016448362701937516,-0.00031052326933559077,0.0,0.0,0.0,0.0,0.0,0.0,0.0,-0.00015020370483398438,1.221080892971349e-05,-9.70091715193494e-05,-2.9088979638824952e-05,6.19028130633692e-05,-7.419586181622861e-05,-5.285554563760897e-05,-0.00029916220426342,-0.0006428487726930853,-0.0010538803896172765,-0.0008516560425976638,0.00037826454367836774,0.00016448362701937516,0.00031052326933559077,0.22445029020309448,13.536218643188477,-0.3467743694782257,-18.245882034301758,-0.5166526436805725,-2.2882113456726074,0.26217979192733765,0
39,0.1900043487548828,-0.22445029020309448,-13.536218643188477,0.3467743694782257,18.245882034301758,0.5166526436805725,2.2882113456726074,-0.26217979192733765,0.0,0.0,0.0,0.0,0.0,0.0,0.0,-0.216053939351025,0.41018501172386534,-0.03132202008598335,0.5406156980448019,0.0748393564011587,0.07122567151581724,-0.26744393557693735,0.07180605865779675,-0.33420894464275286,-0.12024689610485445,-2.874739247063298,-0.06459445583897046,2.5182353535228303,0.7687548839184973,0.07165585495296277,-0.33419673383382315,-0.1203439052763738,-2.874768336042937,-0.06453255302590709,2.518161157661014,0.7687020283728597,0.00029916220426342,0.0006428487726930853,0.0010538803896172765,0.0008516560425976638,-0.00037826454367836774,-0.00016448362701937516,-0.00031052326933559077,0.0,0.0,0.0,0.0,0.0,0.0,0.0,-0.00015020370483398438,1.221080892971349e-05,-9.70091715193494e-05,-2.9088979638824952e-05,6.19028130633692e-05,-7.419586181622861e-05,-5.285554563760897e-05,-0.00029916220426342,-0.0006428487726930853,-0.0010538803896172765,-0.0008516560425976638,0.00037826454367836774,0.00016448362701937516,0.00031052326933559077,0.22445029020309448,13.536218643188477,-0.3467743694782257,-18.245882034301758,-0.5166526436805725,-2.2882113456726074,0.26217979192733765,0
40,0.19499707221984863,-0.2720577120780945,-13.512414932250977,0.3705780804157257,18.269685745239258,0.5047507882118225,2.2753939628601074,-0.24844686686992645,0.0,0.0,0.0,0.0,0.0,0.0,0.0,-0.21472830689485714,0.4074912426510862,-0.03068271214881406,0.5383931439119883,0.07535466646576863,0.07130390405447534,-0.2673640325874526,0.07180939952950728,-0.33421061507860816,-0.12024856654070971,-2.8747384420839754,-0.0645931395752804,2.5182367776764765,0.7687533580379353,0.07165585495296277,-0.33419673383382315,-0.1203439052763738,-2.874768336042937,-0.06453255302590709,2.518161157661014,0.7687020283728597,0.001566749971725214,4.980276065115508e-06,0.00011455231351743479,-5.2276582946556585e-05,-1.8447797130438542e-05,0.00021695870835638237,-0.0008574126127637366,0.0,0.0,0.0,0.0,0.0,0.0,0.0,-0.00015354457654451203,1.3881244785018954e-05,-9.533873566408557e-05,-2.989395896157987e-05,6.058654937331209e-05,-7.562001546235209e-05,-5.1329665075594555e-05,-0.001566749971725214,-4.980276065115508e-06,-0.00011455231351743479,5.2276582946556585e-05,1.8447797130438542e-05,-0.00021695870835638237,0.0008574126127637366,0.2720577120780945,13.512414932250977,-0.3705780804157257,-18.269685745239258,-0.5047507882118225,-2.2753939628601074,0.24844686686992645,0
41,0.19999980926513672,-0.2720577120780945,-13.512414932250977,0.3705780804157257,18.269685745239258,0.5047507882118225,2.2753939628601074,-0.24844686686992645,0.0,0.0,0.0,0.0,0.0,0.0,0.0,-0.21472830689485714,0.4074912426510862,-0.03068271214881406,0.5383931439119883,0.07535466646576863,0.07130390405447534,-0.2673640325874526,0.07180939952950728,-0.33421061507860816,-0.12024856654070971,-2.8747384420839754,-0.0645931395752804,2.5182367776764765,0.7687533580379353,0.07165585495296277,-0.33419673383382315,-0.1203439052763738,-2.874768336042937,-0.06453255302590709,2.518161157661014,0.7687020283728597,0.001566749971725214,4.980276065115508e-06,0.00011455231351743479,-5.2276582946556585e-05,-1.8447797130438542e-05,0.00021695870835638237,-0.0008574126127637366,0.0,0.0,0.0,0.0,0.0,0.0,0.0,-0.00015354457654451203,1.3881244785018954e-05,-9.533873566408557e-05,-2.989395896157987e-05,6.058654937331209e-05,-7.562001546235209e-05,-5.1329665075594555e-05,-0.001566749971725214,-4.980276065115508e-06,-0.00011455231351743479,5.2276582946556585e-05,1.8447797130438542e-05,-0.00021695870835638237,0.0008574126127637366,0.2720577120780945,13.512414932250977,-0.3705780804157257,-18.269685745239258,-0.5047507882118225,-2.2753939628601074,0.24844686686992645,0
42,0.2050001621246338,-0.22445029020309448,-13.488611221313477,0.3705780804157257,18.269685745239258,0.5047507882118225,2.2818026542663574,-0.27591270208358765,0.0,0.0,0.0,0.0,0.0,0.0,0.0,-0.21549285118549805,0.40723003744379976,-0.03156401139470467,0.5355736530368895,0.0756916146562822,0.07132387185082019,-0.2669204452645041,0.07180605865779675,-0.3342122855144634,-0.12024927682939328,-2.874741294080939,-0.06458921660554799,2.5182360655996536,0.7687564097974036,0.07165585495296277,-0.33419673383382315,-0.1203439052763738,-2.874768336042937,-0.06453255302590709,2.518161157661014,0.7687020283728597,-0.0002531749270485872,-0.00033827859846037887,0.00023015388371101266,-5.468346667913509e-05,-7.119110514397489e-06,0.00021097364080676007,0.00013203037595905533,0.0,0.0,0.0,0.0,0.0,0.0,0.0,-0.00015020370483398438,1.5551680640268906e-05,-9.462844698052142e-05,-2.704196199809772e-05,5.666357964090318e-05,-7.49079386395124e-05,-5.4381424543836765e-05,0.0002531749270485872,0.00033827859846037887,-0.00023015388371101266,5.468346667913509e-05,7.119110514397489e-06,-0.00021097364080676007,-0.00013203037595905533,0.22445029020309448,13.488611221313477,-0.3705780804157257,-18.269685745239258,-0.5047507882118225,-2.2818026542663574,0.27591270208358765,0
43,0.21000242233276367,-0.22445029020309448,-13.488611221313477,0.3705780804157257,18.269685745239258,0.5047507882118225,2.2818026542663574,-0.27591270208358765,0.0,0.0,0.0,0.0,0.0,0.0,0.0,-0.21549285118549805,0.40723003744379976,-0.03156401139470467,0.5355736530368895,0.0756916146562822,0.07132387185082019,-0.2669204452645041,0.07180605865779675,-0.3342122855144634,-0.12024927682939328,-2.874741294080939,-0.06458921660554799,2.5182360655996536,0.7687564097974036,0.07165585495296277,-0.33419673383382315,-0.1203439052763738,-2.874768336042937,-0.06453255302590709,2.518161157661014,0.7687020283728597,-0.0002531749270485872,-0.00033827859846037887,0.00023015388371101266,-5.468346667913509e-05,-7.119110514397489e-06,0.00021097364080676007,0.00013203037595905533,0.0,0.0,0.0,0.0,0.0,0.0,0.0,-0.00015020370483398438,1.5551680640268906e-05,-9.462844698052142e-05,-2.704196199809772e-05,5.666357964090318e-05,-7.49079386395124e-05,-5.4381424543836765e-05,0.0002531749270485872,0.00033827859846037887,-0.00023015388371101266,5.468346667913509e-05,7.119110514397489e-06,-0.00021097364080676007,-0.00013203037595905533,0.22445029020309448,13.488611221313477,-0.3705780804157257,-18.269685745239258,-0.5047507882118225,-2.2818026542663574,0.27591270208358765,0
44,0.21500229835510254,-0.22445029020309448,-13.536218643188477,0.3467743694782257,18.269685745239258,0.5102439522743225,2.2818026542663574,-0.24844686686992645,0.0,0.0,0.0,0.0,0.0,0.0,0.0,-0.2214794453591847,0.4025393547207986,-0.03732076812803735,0.5383891305672752,0.07615513847531494,0.07261278292621266,-0.26637046297444783,0.07180605865779675,-0.33420894464275286,-0.12024689610886405,-2.874739096216013,-0.06459255240644694,2.5182360655996536,0.7687533580379353,0.07165585495296277,-0.33419673383382315,-0.1203439052763738,-2.874768336042937,-0.06453255302590709,2.518161157661014,0.7687020283728597,-0.0004117686984664727,0.000339130729896479,6.422077274212827e-05,0.00033960405523050774,-0.00023303106603408323,8.017192285466164e-05,-0.0009540628868629057,0.0,0.0,0.0,0.0,0.0,0.0,0.0,-0.00015020370483398438,1.221080892971349e-05,-9.700916750975119e-05,-2.92398269241545e-05,5.999938053985465e-05,-7.49079386395124e-05,-5.1329665075594555e-05,0.0004117686984664727,-0.000339130729896479,-6.422077274212827e-05,-0.00033960405523050774,0.00023303106603408323,-8.017192285466164e-05,0.0009540628868629057,0.22445029020309448,13.536218643188477,-0.3467743694782257,-18.269685745239258,-0.5102439522743225,-2.2818026542663574,0.24844686686992645,0
45,0.2200024127960205,-0.22445029020309448,-13.536218643188477,0.3467743694782257,18.269685745239258,0.5102439522743225,2.2818026542663574,-0.24844686686992645,0.0,0.0,0.0,0.0,0.0,0.0,0.0,-0.2214794453591847,0.4025393547207986,-0.03732076812803735,0.5383891305672752,0.07615513847531494,0.07261278292621266,-0.26637046297444783,0.07180605865779675,-0.33420894464275286,-0.12024689610886405,-2.874739096216013,-0.06459255240644694,2.5182360655996536,0.7687533580379353,0.07165585495296277,-0.33419673383382315,-0.1203439052763738,-2.874768336042937,-0.06453255302590709,2.518161157661014,0.7687020283728597,-0.0004117686984664727,0.000339130729896479,6.422077274212827e-05,0.00033960405523050774,-0.00023303106603408323,8.017192285466164e-05,-0.0009540628868629057,0.0,0.0,0.0,0.0,0.0,0.0,0.0,-0.00015020370483398438,1.221080892971349e-05,-9.700916750975119e-05,-2.92398269241545e-05,5.999938053985465e-05,-7.49079386395124e-05,-5.1329665075594555e-05,0.0004117686984664727,-0.000339130729896479,-6.422077274212827e-05,-0.00033960405523050774,0.00023303106603408323,-8.017192285466164e-05,0.0009540628868629057,0.22445029020309448,13.536218643188477,-0.3467743694782257,-18.269685745239258,-0.5102439522743225,-2.2818026542663574,0.24844686686992645,0
46,0.22499704360961914,-0.22445029020309448,-13.536218643188477,0.3705780804157257,18.297456741333008,0.5102439522743225,2.2882113456726074,-0.28232139348983765,0.0,0.0,0.0,0.0,0.0,0.0,0.0,-0.2207382147335243,0.4092888541721695,-0.03767699589496983,0.5341327017908166,0.07592787030198832,0.07151637949204699,-0.2664648501910773,0.07180605865779675,-0.33420894464275286,-0.12024856654070973,-2.8747403636695332,-0.06458970925584868,2.5182353535228303,0.7687571218742265,0.07165585495296277,-0.33419673383382315,-0.1203439052763738,-2.874768336042937,-0.06453255302590709,2.518161157661014,0.7687020283728597,1.22082057674514e-05,0.0009026803839278683,3.772086656274374e-05,-0.0005101128479333459,-0.0003112756877839467,-0.00039812428333656696,-0.006178693466404299,0.0,0.0,0.0,0.0,0.0,0.0,0.0,-0.00015020370483398438,1.221080892971349e-05,-9.53387356640717e-05,-2.7972373403795103e-05,5.715622994159619e-05,-7.419586181622861e-05,-5.509350136678748e-05,-1.22082057674514e-05,-0.0009026803839278683,-3.772086656274374e-05,0.0005101128479333459,0.0003112756877839467,0.00039812428333656696,0.006178693466404299,0.22445029020309448,13.536218643188477,-0.3705780804157257,-18.297456741333008,-0.5102439522743225,-2.2882113456726074,0.28232139348983765,0
47,0.229996919631958,-0.22445029020309448,-13.536218643188477,0.3705780804157257,18.297456741333008,0.5102439522743225,2.2882113456726074,-0.28232139348983765,0.0,0.0,0.0,0.0,0.0,0.0,0.0,-0.2207382147335243,0.4092888541721695,-0.03767699589496983,0.5341327017908166,0.07592787030198832,0.07151637949204699,-0.2664648501910773,0.07180605865779675,-0.33420894464275286,-0.12024856654070973,-2.8747403636695332,-0.06458970925584868,2.5182353535228303,0.7687571218742265,0.07165585495296277,-0.33419673383382315,-0.1203439052763738,-2.874768336042937,-0.06453255302590709,2.518161157661014,0.7687020283728597,1.22082057674514e-05,0.0009026803839278683,3.772086656274374e-05,-0.0005101128479333459,-0.0003112756877839467,-0.00039812428333656696,-0.006178693466404299,0.0,0.0,0.0,0.0,0.0,0.0,0.0,-0.00015020370483398438,1.221080892971349e-05,-9.53387356640717e-05,-2.7972373403795103e-05,5.715622994159619e-05,-7.419586181622861e-05,-5.509350136678748e-05,-1.22082057674514e-05,-0.0009026803839278683,-3.772086656274374e-05,0.0005101128479333459,0.0003112756877839467,0.00039812428333656696,0.006178693466404299,0.22445029020309448,13.536218643188477,-0.3705780804157257,-18.297456741333008,-0.5102439522743225,-2.2882113456726074,0.28232139348983765,0
48,0.2349996566772461,-0.19667929410934448,-13.512414932250977,0.4221527874469757,18.245882034301758,0.5166526436805725,2.2753939628601074,-0.28964561223983765,0.0,0.0,0.0,0.0,0.0,0.0,0.0,-0.22025111671296893,0.41235977880913055,-0.03734252056545707,0.5364560304978794,0.07558350490118285,0.07103074462078018,-0.26518266687969705,0.07180410981596562,-0.33421061507860816,-0.12025218581839611,-2.8747367353436877,-0.06459058033400943,2.5182367776764765,0.7687579356763098,0.07165585495296277,-0.33419673383382315,-0.1203439052763738,-2.874768336042937,-0.06453255302590709,2.518161157661014,0.7687020283728597,-0.000586256368484426,0.001058122916804829,-0.0003706084287178317,0.00086731260012554,-0.00032902796358149505,0.00047050506953186976,0.00014403244800936977,0.0,0.0,0.0,0.0,0.0,0.0,0.0,-0.00014825486300285018,1.3881244785018954e-05,-9.171945797768755e-05,-3.160069924934561e-05,5.802730810233747e-05,-7.562001546235209e-05,-5.590730345006456e-05,0.000586256368484426,-0.001058122916804829,0.0003706084287178317,-0.00086731260012554,0.00032902796358149505,-0.00047050506953186976,-0.00014403244800936977,0.19667929410934448,13.512414932250977,-0.4221527874469757,-18.245882034301758,-0.5166526436805725,-2.2753939628601074,0.28964561223983765,0
49,0.2400045394897461,-0.19667929410934448,-13.512414932250977,0.4221527874469757,18.245882034301758,0.5166526436805725,2.2753939628601074,-0.28964561223983765,0.0,0.0,0.0,0.0,0.0,0.0,0.0,-0.22025111671296893,0.41235977880913055,-0.03734252056545707,0.5364560304978794,0.07558350490118285,0.07103074462078018,-0.26518266687969705,0.07180410981596562,-0.33421061507860816,-0.12025218581839611,-2.8747367353436877,-0.06459058033400943,2.5182367776764765,0.7687579356763098,0.07165585495296277,-0.33419673383382315,-0.1203439052763738,-2.874768336042937,-0.06453255302590709,2.518161157661014,0.7687020283728597,-0.000586256368484426,0.001058122916804829,-0.0003706084287178317,0.00086731260012554,-0.00032902796358149505,0.00047050506953186976,0.00014403244800936977,0.0,0.0,0.0,0.0,0.0,0.0,0.0,-0.00014825486300285018,1.3881244785018954e-05,-9.171945797768755e-05,-3.160069924934561e-05,5.802730810233747e-05,-7.562001546235209e-05,-5.590730345006456e-05,0.000586256368484426,-0.001058122916804829,0.0003706084287178317,-0.00086731260012554,0.00032902796358149505,-0.00047050506953186976,-0.00014403244800936977,0.19667929410934448,13.512414932250977,-0.4221527874469757,-18.245882034301758,-0.5166526436805725,-2.2753939628601074,0.28964561223983765,0
50,0.24499797821044922,-0.24825400114059448,-13.512414932250977,0.3467743694782257,18.269685745239258,0.5047507882118225,2.2753939628601074,-0.24112264811992645,0.0,0.0,0.0,0.0,0.0,0.0,0.0,-0.21973222827747055,0.41123355810965784,-0.031691289476170816,0.5390893065786472,0.0758842314356498,0.07129475258511457,-0.2666395637445862,0.07180772909365202,-0.33421061507860816,-0.12024689610485445,-2.8747390661650534,-0.06459205985779445,2.5182367776764765,0.768752544235852,0.07165585495296277,-0.33419673383382315,-0.1203439052763738,-2.874768336042937,-0.06453255302590709,2.518161157661014,0.7687020283728597,0.0013789122835511794,0.00026681806503052707,0.0010508565451207877,8.518272780318048e-06,-1.0130323761764634e-05,0.00022813461390149153,-0.0008773615056078417,0.0,0.0,0.0,0.0,0.0,0.0,0.0,-0.0001518741406892482,1.3881244785018954e-05,-9.70091715193494e-05,-2.9269877883653095e-05,5.9506831887365386e-05,-7.562001546235209e-05,-5.051586299231747e-05,-0.0013789122835511794,-0.00026681806503052707,-0.0010508565451207877,-8.518272780318048e-06,1.0130323761764634e-05,-0.00022813461390149153,0.0008773615056078417,0.24825400114059448,13.512414932250977,-0.3467743694782257,-18.269685745239258,-0.5047507882118225,-2.2753939628601074,0.24112264811992645,0
51,0.2500026226043701,-0.24825400114059448,-13.512414932250977,0.3467743694782257,18.269685745239258,0.5047507882118225,2.2753939628601074,-0.24112264811992645,0.0,0.0,0.0,0.0,0.0,0.0,0.0,-0.21973222827747055,0.41123355810965784,-0.031691289476170816,0.5390893065786472,0.0758842314356498,0.07129475258511457,-0.2666395637445862,0.07180772909365202,-0.33421061507860816,-0.12024689610485445,-2.8747390661650534,-0.06459205985779445,2.5182367776764765,0.768752544235852,0.07165585495296277,-0.33419673383382315,-0.1203439052763738,-2.874768336042937,-0.06453255302590709,2.518161157661014,0.7687020283728597,0.0013789122835511794,0.00026681806503052707,0.0010508565451207877,8.518272780318048e-06,-1.0130323761764634e-05,0.00022813461390149153,-0.0008773615056078417,0.0,0.0,0.0,0.0,0.0,0.0,0.0,-0.0001518741406892482,1.3881244785018954e-05,-9.70091715193494e-05,-2.9269877883653095e-05,5.9506831887365386e-05,-7.562001546235209e-05,-5.051586299231747e-05,-0.0013789122835511794,-0.00026681806503052707,-0.0010508565451207877,-8.518272780318048e-06,1.0130323761764634e-05,-0.00022813461390149153,0.0008773615056078417,0.24825400114059448,13.512414932250977,-0.3467743694782257,-18.269685745239258,-0.5047507882118225,-2.2753939628601074,0.24112264811992645,0
52,0.2550020217895508,-0.24825400114059448,-13.512414932250977,0.3467743694782257,18.269685745239258,0.5047507882118225,2.2753939628601074,-0.24112264811992645,0.0,0.0,0.0,0.0,0.0,0.0,0.0,-0.21973222827747055,0.41123355810965784,-0.031691289476170816,0.5390893065786472,0.0758842314356498,0.07129475258511457,-0.2666395637445862,0.07180772909365202,-0.33421061507860816,-0.12024689610485445,-2.8747390661650534,-0.06459205985779445,2.5182367776764765,0.768752544235852,0.07165585495296277,-0.33419673383382315,-0.1203439052763738,-2.874768336042937,-0.06453255302590709,2.518161157661014,0.7687020283728597,0.0013789122835511794,0.00026681806503052707,0.0010508565451207877,8.518272780318048e-06,-1.0130323761764634e-05,0.00022813461390149153,-0.0008773615056078417,0.0,0.0,0.0,0.0,0.0,0.0,0.0,-0.0001518741406892482,1.3881244785018954e-05,-9.70091715193494e-05,-2.9269877883653095e-05,5.9506831887365386e-05,-7.562001546235209e-05,-5.051586299231747e-05,-0.0013789122835511794,-0.00026681806503052707,-0.0010508565451207877,-8.518272780318048e-06,1.0130323761764634e-05,-0.00022813461390149153,0.0008773615056078417,0.24825400114059448,13.512414932250977,-0.3467743694782257,-18.269685745239258,-0.5047507882118225,-2.2753939628601074,0.24112264811992645,0
53,0.26000475883483887,-0.24825400114059448,-13.512414932250977,0.3467743694782257,18.269685745239258,0.5047507882118225,2.2753939628601074,-0.24112264811992645,0.0,0.0,0.0,0.0,0.0,0.0,0.0,-0.21973222827747055,0.41123355810965784,-0.031691289476170816,0.5390893065786472,0.0758842314356498,0.07129475258511457,-0.2666395637445862,0.07180772909365202,-0.33421061507860816,-0.12024689610485445,-2.8747390661650534,-0.06459205985779445,2.5182367776764765,0.768752544235852,0.07165585495296277,-0.33419673383382315,-0.1203439052763738,-2.874768336042937,-0.06453255302590709,2.518161157661014,0.7687020283728597,0.0013789122835511794,0.00026681806503052707,0.0010508565451207877,8.518272780318048e-06,-1.0130323761764634e-05,0.00022813461390149153,-0.0008773615056078417,0.0,0.0,0.0,0.0,0.0,0.0,0.0,-0.0001518741406892482,1.3881244785018954e-05,-9.70091715193494e-05,-2.9269877883653095e-05,5.9506831887365386e-05,-7.562001546235209e-05,-5.051586299231747e-05,-0.0013789122835511794,-0.00026681806503052707,-0.0010508565451207877,-8.518272780318048e-06,1.0130323761764634e-05,-0.00022813461390149153,0.0008773615056078417,0.24825400114059448,13.512414932250977,-0.3467743694782257,-18.269685745239258,-0.5047507882118225,-2.2753939628601074,0.24112264811992645,0
54,0.2649986743927002,-0.24825400114059448,-13.512414932250977,0.3983490765094757,18.297456741333008,0.5047507882118225,2.2689852714538574,-0.23471395671367645,0.0,0.0,0.0,0.0,0.0,0.0,0.0,-0.21874150344485535,0.4090146879471214,-0.034013665189271604,0.5426048850398464,0.07619361667066084,0.07114664642459789,-0.26716786828354344,0.07180772909365202,-0.33421061507860816,-0.12025051538254085,-2.8747432419088077,-0.0645933582992593,2.5182374897532993,0.7687518321590291,0.07165585495296277,-0.33419673383382315,-0.1203439052763738,-2.874768336042937,-0.06453255302590709,2.518161157661014,0.7687020283728597,0.0010766604324410082,-0.0003728286788536259,-0.0006116654224039876,-0.00028129198312279517,0.00012917004029526838,0.0004242953832669069,-0.0007524646912210459,0.0,0.0,0.0,0.0,0.0,0.0,0.0,-0.0001518741406892482,1.3881244785018954e-05,-9.338989383295138e-05,-2.5094134129322043e-05,6.0805273352212974e-05,-7.633209228519178e-05,-4.980378616936676e-05,-0.0010766604324410082,0.0003728286788536259,0.0006116654224039876,0.00028129198312279517,-0.00012917004029526838,-0.0004242953832669069,0.0007524646912210459,0.24825400114059448,13.512414932250977,-0.3983490765094757,-18.297456741333008,-0.5047507882118225,-2.2689852714538574,0.23471395671367645,0
55,0.27001190185546875,-0.24825400114059448,-13.512414932250977,0.3983490765094757,18.297456741333008,0.5047507882118225,2.2689852714538574,-0.23471395671367645,0.0,0.0,0.0,0.0,0.0,0.0,0.0,-0.21874150344485535,0.4090146879471214,-0.034013665189271604,0.5426048850398464,0.07619361667066084,0.07114664642459789,-0.26716786828354344,0.07180772909365202,-0.33421061507860816,-0.12025051538254085,-2.8747432419088077,-0.0645933582992593,2.5182374897532993,0.7687518321590291,0.07165585495296277,-0.33419673383382315,-0.1203439052763738,-2.874768336042937,-0.06453255302590709,2.518161157661014,0.7687020283728597,0.0010766604324410082,-0.0003728286788536259,-0.0006116654224039876,-0.00028129198312279517,0.00012917004029526838,0.0004242953832669069,-0.0007524646912210459,0.0,0.0,0.0,0.0,0.0,0.0,0.0,-0.0001518741406892482,1.3881244785018954e-05,-9.338989383295138e-05,-2.5094134129322043e-05,6.0805273352212974e-05,-7.633209228519178e-05,-4.980378616936676e-05,-0.0010766604324410082,0.0003728286788536259,0.0006116654224039876,0.00028129198312279517,-0.00012917004029526838,-0.0004242953832669069,0.0007524646912210459,0.24825400114059448,13.512414932250977,-0.3983490765094757,-18.297456741333008,-0.5047507882118225,-2.2689852714538574,0.23471395671367645,0
56,0.27499961853027344,-0.22445029020309448,-13.563989639282227,0.3705780804157257,18.269685745239258,0.5102439522743225,2.2882113456726074,-0.28232139348983765,0.0,0.0,0.0,0.0,0.0,0.0,0.0,-0.2171676860388306,0.40485994891459703,-0.0344208577465705,0.5435108702521376,0.07643860117045163,0.07087727047371639,-0.2659103632795945,0.07180605865779675,-0.3342069958009217,-0.12024856664896892,-2.874738597761327,-0.0645926665545506,2.5182353535228303,0.7687571218742265,0.07165585495296277,-0.33419673383382315,-0.1203439052763738,-2.874768336042937,-0.06453255302590709,2.518161157661014,0.7687020283728597,-0.00044633863581323345,0.0006156568150957508,6.10923876817684e-05,0.00035569424530508634,-0.0001260182632701483,-9.32918297351952e-05,0.00016503576626865593,0.0,0.0,0.0,0.0,0.0,0.0,0.0,-0.00015020370483398438,1.0261967098579294e-05,-9.533862740487842e-05,-2.9738281610125483e-05,6.011352864351838e-05,-7.419586181622861e-05,-5.509350136678748e-05,0.00044633863581323345,-0.0006156568150957508,-6.10923876817684e-05,-0.00035569424530508634,0.0001260182632701483,9.32918297351952e-05,-0.00016503576626865593,0.22445029020309448,13.563989639282227,-0.3705780804157257,-18.269685745239258,-0.5102439522743225,-2.2882113456726074,0.28232139348983765,0
57,0.2799983024597168,-0.22445029020309448,-13.563989639282227,0.3705780804157257,18.269685745239258,0.5102439522743225,2.2882113456726074,-0.28232139348983765,0.0,0.0,0.0,0.0,0.0,0.0,0.0,-0.2171676860388306,0.40485994891459703,-0.0344208577465705,0.5435108702521376,0.07643860117045163,0.07087727047371639,-0.2659103632795945,0.07180605865779675,-0.3342069958009217,-0.12024856664896892,-2.874738597761327,-0.0645926665545506,2.5182353535228303,0.7687571218742265,0.07165585495296277,-0.33419673383382315,-0.1203439052763738,-2.874768336042937,-0.06453255302590709,2.518161157661014,0.7687020283728597,-0.00044633863581323345,0.0006156568150957508,6.10923876817684e-05,0.00035569424530508634,-0.0001260182632701483,-9.32918297351952e-05,0.00016503576626865593,0.0,0.0,0.0,0.0,0.0,0.0,0.0,-0.00015020370483398438,1.0261967098579294e-05,-9.533862740487842e-05,-2.9738281610125483e-05,6.011352864351838e-05,-7.419586181622861e-05,-5.509350136678748e-05,0.00044633863581323345,-0.0006156568150957508,-6.10923876817684e-05,-0.00035569424530508634,0.0001260182632701483,9.32918297351952e-05,-0.00016503576626865593,0.22445029020309448,13.563989639282227,-0.3705780804157257,-18.269685745239258,-0.5102439522743225,-2.2882113456726074,0.28232139348983765,0
58,0.28499650955200195,-0.22445029020309448,-13.536218643188477,0.3705780804157257,18.321260452270508,0.5102439522743225,2.2882113456726074,-0.26858848333358765,0.0,0.0,0.0,0.0,0.0,0.0,0.0,-0.2164843486192438,0.40179509625401455,-0.03204595845223175,0.540632413044567,0.0762900725765772,0.07100159954622011,-0.2658379219223592,0.07180605865779675,-0.33420894464275286,-0.12024857530970641,-2.8747422183050757,-0.06459400813471032,2.5182353535228303,0.7687555959953202,0.07165585495296277,-0.33419673383382315,-0.1203439052763738,-2.874768336042937,-0.06453255302590709,2.518161157661014,0.7687020283728597,-4.0540211547996136e-05,0.0001900813000332333,0.0004980123770810023,-0.0009084808087189076,-0.00015738084960013302,-6.902746465862257e-05,-1.9281041937016807e-05,0.0,0.0,0.0,0.0,0.0,0.0,0.0,-0.00015020370483398438,1.221080892971349e-05,-9.532996666739013e-05,-2.6117737861319767e-05,6.145510880323224e-05,-7.419586181622861e-05,-5.356762246044866e-05,4.0540211547996136e-05,-0.0001900813000332333,-0.0004980123770810023,0.0009084808087189076,0.00015738084960013302,6.902746465862257e-05,1.9281041937016807e-05,0.22445029020309448,13.536218643188477,-0.3705780804157257,-18.321260452270508,-0.5102439522743225,-2.2882113456726074,0.26858848333358765,0
59,0.2899971008300781,-0.22445029020309448,-13.536218643188477,0.3705780804157257,18.321260452270508,0.5102439522743225,2.2882113456726074,-0.26858848333358765,0.0,0.0,0.0,0.0,0.0,0.0,0.0,-0.2164843486192438,0.40179509625401455,-0.03204595845223175,0.540632413044567,0.0762900725765772,0.07100159954622011,-0.2658379219223592,0.07180605865779675,-0.33420894464275286,-0.12024857530970641,-2.8747422183050757,-0.06459400813471032,2.5182353535228303,0.7687555959953202,0.07165585495296277,-0.33419673383382315,-0.1203439052763738,-2.874768336042937,-0.06453255302590709,2.518161157661014,0.7687020283728597,-4.0540211547996136e-05,0.0001900813000332333,0.0004980123770810023,-0.0009084808087189076,-0.00015738084960013302,-6.902746465862257e-05,-1.9281041937016807e-05,0.0,0.0,0.0,0.0,0.0,0.0,0.0,-0.00015020370483398438,1.221080892971349e-05,-9.532996666739013e-05,-2.6117737861319767e-05,6.145510880323224e-05,-7.419586181622861e-05,-5.356762246044866e-05,4.0540211547996136e-05,-0.0001900813000332333,-0.0004980123770810023,0.0009084808087189076,0.00015738084960013302,6.902746465862257e-05,1.9281041937016807e-05,0.22445029020309448,13.536218643188477,-0.3705780804157257,-18.321260452270508,-0.5102439522743225,-2.2882113456726074,0.26858848333358765,0
60,0.2950100898742676,-0.22445029020309448,-13.512414932250977,0.3705780804157257,18.269685745239258,0.5102439522743225,2.2689852714538574,-0.27591270208358765,0.0,0.0,0.0,0.0,0.0,0.0,0.0,-0.22227066345730986,0.4038875559537604,-0.0366122035716618,0.5362801340818706,0.07641824417574623,0.07056456761455153,-0.2650669248008498,0.07180605865779675,-0.33421061507860816,-0.1202485665407592,-2.8747391749240037,-0.06459365597826656,2.5182374897532993,0.7687564097974036,0.07165585495296277,-0.33419673383382315,-0.1203439052763738,-2.874768336042937,-0.06453255302590709,2.518161157661014,0.7687020283728597,9.432767870587841e-05,8.827146375219544e-05,-0.0006400012536476369,-9.498642559857472e-05,-0.0003391275537996683,0.00047209893243696136,0.0010996208836547942,0.0,0.0,0.0,0.0,0.0,0.0,0.0,-0.00015020370483398438,1.3881244785018954e-05,-9.533873561459738e-05,-2.916111893336293e-05,6.110295235947638e-05,-7.633209228519178e-05,-5.4381424543836765e-05,-9.432767870587841e-05,-8.827146375219544e-05,0.0006400012536476369,9.498642559857472e-05,0.0003391275537996683,-0.00047209893243696136,-0.0010996208836547942,0.22445029020309448,13.512414932250977,-0.3705780804157257,-18.269685745239258,-0.5102439522743225,-2.2689852714538574,0.27591270208358765,0
61,0.30001163482666016,-0.22445029020309448,-13.512414932250977,0.3705780804157257,18.269685745239258,0.5102439522743225,2.2689852714538574,-0.27591270208358765,0.0,0.0,0.0,0.0,0.0,0.0,0.0,-0.22227066345730986,0.4038875559537604,-0.0366122035716618,0.5362801340818706,0.07641824417574623,0.07056456761455153,-0.2650669248008498,0.07180605865779675,-0.33421061507860816,-0.1202485665407592,-2.8747391749240037,-0.06459365597826656,2.5182374897532993,0.7687564097974036,0.07165585495296277,-0.33419673383382315,-0.1203439052763738,-2.874768336042937,-0.06453255302590709,2.518161157661014,0.7687020283728597,9.432767870587841e-05,8.827146375219544e-05,-0.0006400012536476369,-9.498642559857472e-05,-0.0003391275537996683,0.00047209893243696136,0.0010996208836547942,0.0,0.0,0.0,0.0,0.0,0.0,0.0,-0.00015020370483398438,1.3881244785018954e-05,-9.533873561459738e-05,-2.916111893336293e-05,6.110295235947638e-05,-7.633209228519178e-05,-5.4381424543836765e-05,-9.432767870587841e-05,-8.827146375219544e-05,0.0006400012536476369,9.498642559857472e-05,0.0003391275537996683,-0.00047209893243696136,-0.0010996208836547942,0.22445029020309448,13.512414932250977,-0.3705780804157257,-18.269685745239258,-0.5102439522743225,-2.2689852714538574,0.27591270208358765,0
62,0.305006742477417,-0.19667929410934448,-13.488611221313477,0.3705780804157257,18.269685745239258,0.5102439522743225,2.2882113456726074,-0.25485557317733765,0.0,0.0,0.0,0.0,0.0,0.0,0.0,-0.22149130435741934,0.4057472478232806,-0.03744452363904036,0.5360543449758146,0.07557957432087378,0.06995138657075452,-0.26445020551202886,0.07180410981596562,-0.3342122855144634,-0.12024856654070971,-2.8747385804641183,-0.06459302280985124,2.5182353535228303,0.768754070116414,0.07165585495296277,-0.33419673383382315,-0.1203439052763738,-2.874768336042937,-0.06453255302590709,2.518161157661014,0.7687020283728597,-0.0007685237102978892,0.0001915942069440689,-0.00025487637528371086,-0.00010843201850604291,-0.00018035562197896133,-0.0001897433348041921,0.0011771405206529725,0.0,0.0,0.0,0.0,0.0,0.0,0.0,-0.00014825486300285018,1.5551680640268906e-05,-9.533873566408557e-05,-2.975557881867985e-05,6.0469783944153144e-05,-7.419586181622861e-05,-5.2041743554220865e-05,0.0007685237102978892,-0.0001915942069440689,0.00025487637528371086,0.00010843201850604291,0.00018035562197896133,0.0001897433348041921,-0.0011771405206529725,0.19667929410934448,13.488611221313477,-0.3705780804157257,-18.269685745239258,-0.5102439522743225,-2.2882113456726074,0.25485557317733765,0
63,0.3099970817565918,-0.19667929410934448,-13.488611221313477,0.3705780804157257,18.269685745239258,0.5102439522743225,2.2882113456726074,-0.25485557317733765,0.0,0.0,0.0,0.0,0.0,0.0,0.0,-0.22149130435741934,0.4057472478232806,-0.03744452363904036,0.5360543449758146,0.07557957432087378,0.06995138657075452,-0.26445020551202886,0.07180410981596562,-0.3342122855144634,-0.12024856654070971,-2.8747385804641183,-0.06459302280985124,2.5182353535228303,0.768754070116414,0.07165585495296277,-0.33419673383382315,-0.1203439052763738,-2.874768336042937,-0.06453255302590709,2.518161157661014,0.7687020283728597,-0.0007685237102978892,0.0001915942069440689,-0.00025487637528371086,-0.00010843201850604291,-0.00018035562197896133,-0.0001897433348041921,0.0011771405206529725,0.0,0.0,0.0,0.0,0.0,0.0,0.0,-0.00014825486300285018,1.5551680640268906e-05,-9.533873566408557e-05,-2.975557881867985e-05,6.0469783944153144e-05,-7.419586181622861e-05,-5.2041743554220865e-05,0.0007685237102978892,-0.0001915942069440689,0.00025487637528371086,0.00010843201850604291,0.00018035562197896133,0.0001897433348041921,-0.0011771405206529725,0.19667929410934448,13.488611221313477,-0.3705780804157257,-18.269685745239258,-0.5102439522743225,-2.2882113456726074,0.25485557317733765,0
64,0.31499719619750977,-0.2720577120780945,-13.488611221313477,0.3983490765094757,18.245882034301758,0.5047507882118225,2.2818026542663574,-0.27591270208358765,0.0,0.0,0.0,0.0,0.0,0.0,0.0,-0.22260178799574815,0.4114262515398592,-0.038027815192482474,0.5406142072645644,0.07521696348797655,0.07019694785992607,-0.2644855988379654,0.07180939952950728,-0.3342122855144634,-0.12025051538655045,-2.874737406481467,-0.06458878432183757,2.5182360655996536,0.7687564097974036,0.07165585495296277,-0.33419673383382315,-0.1203439052763738,-2.874768336042937,-0.06453255302590709,2.518161157661014,0.7687020283728597,0.0014874047660360045,0.0006069352002199709,-0.0006440117539756881,0.0008668303278407103,-7.052229260717455e-05,-1.8737099908775843e-05,0.00216784822477054,0.0,0.0,0.0,0.0,0.0,0.0,0.0,-0.00015354457654451203,1.5551680640268906e-05,-9.338988982335317e-05,-3.092956147021653e-05,5.6231295930478375e-05,-7.49079386395124e-05,-5.4381424543836765e-05,-0.0014874047660360045,-0.0006069352002199709,0.0006440117539756881,-0.0008668303278407103,7.052229260717455e-05,1.8737099908775843e-05,-0.00216784822477054,0.2720577120780945,13.488611221313477,-0.3983490765094757,-18.245882034301758,-0.5047507882118225,-2.2818026542663574,0.27591270208358765,0
65,0.32000207901000977,-0.2720577120780945,-13.488611221313477,0.3983490765094757,18.245882034301758,0.5047507882118225,2.2818026542663574,-0.27591270208358765,0.0,0.0,0.0,0.0,0.0,0.0,0.0,-0.22260178799574815,0.4114262515398592,-0.038027815192482474,0.5406142072645644,0.07521696348797655,0.07019694785992607,-0.2644855988379654,0.07180939952950728,-0.3342122855144634,-0.12025051538655045,-2.874737406481467,-0.06458878432183757,2.5182360655996536,0.7687564097974036,0.07165585495296277,-0.33419673383382315,-0.1203439052763738,-2.874768336042937,-0.06453255302590709,2.518161157661014,0.7687020283728597,0.0014874047660360045,0.0006069352002199709,-0.0006440117539756881,0.0008668303278407103,-7.052229260717455e-05,-1.8737099908775843e-05,0.00216784822477054,0.0,0.0,0.0,0.0,0.0,0.0,0.0,-0.00015354457654451203,1.5551680640268906e-05,-9.338988982335317e-05,-3.092956147021653e-05,5.6231295930478375e-05,-7.49079386395124e-05,-5.4381424543836765e-05,-0.0014874047660360045,-0.0006069352002199709,0.0006440117539756881,-0.0008668303278407103,7.052229260717455e-05,1.8737099908775843e-05,-0.00216784822477054,0.2720577120780945,13.488611221313477,-0.3983490765094757,-18.245882034301758,-0.5047507882118225,-2.2818026542663574,0.27591270208358765,0
66,0.32500267028808594,-0.19667929410934448,-13.512414932250977,0.3983490765094757,18.321260452270508,0.5047507882118225,2.2818026542663574,-0.27591270208358765,0.0,0.0,0.0,0.0,0.0,0.0,0.0,-0.21906230469550575,0.41491092524517326,-0.03520036361300795,0.5378426853773297,0.07466321829302057,0.07020455004795775,-0.26453097453274604,0.07180410981596562,-0.33421061507860816,-0.12025051538254086,-2.8747422994804865,-0.06459206867139118,2.5182360655996536,0.7687564097974036,0.07165585495296277,-0.33419673383382315,-0.1203439052763738,-2.874768336042937,-0.06453255302590709,2.518161157661014,0.7687020283728597,-7.969068987922705e-05,0.0003268331146288436,-0.0005846898845701919,-0.0014620442415603405,-9.203481133165013e-05,-2.839065878866753e-05,0.0009447872422829478,0.0,0.0,0.0,0.0,0.0,0.0,0.0,-0.00014825486300285018,1.3881244785018954e-05,-9.33898938329375e-05,-2.6036562450482137e-05,5.951564548409283e-05,-7.49079386395124e-05,-5.4381424543836765e-05,7.969068987922705e-05,-0.0003268331146288436,0.0005846898845701919,0.0014620442415603405,9.203481133165013e-05,2.839065878866753e-05,-0.0009447872422829478,0.19667929410934448,13.512414932250977,-0.3983490765094757,-18.321260452270508,-0.5047507882118225,-2.2818026542663574,0.27591270208358765,0
67,0.33002543449401855,-0.19667929410934448,-13.512414932250977,0.3983490765094757,18.321260452270508,0.5047507882118225,2.2818026542663574,-0.27591270208358765,0.0,0.0,0.0,0.0,0.0,0.0,0.0,-0.21906230469550575,0.41491092524517326,-0.03520036361300795,0.5378426853773297,0.07466321829302057,0.07020455004795775,-0.26453097453274604,0.07180410981596562,-0.33421061507860816,-0.12025051538254086,-2.8747422994804865,-0.06459206867139118,2.5182360655996536,0.7687564097974036,0.07165585495296277,-0.33419673383382315,-0.1203439052763738,-2.874768336042937,-0.06453255302590709,2.518161157661014,0.7687020283728597,-7.969068987922705e-05,0.0003268331146288436,-0.0005846898845701919,-0.0014620442415603405,-9.203481133165013e-05,-2.839065878866753e-05,0.0009447872422829478,0.0,0.0,0.0,0.0,0.0,0.0,0.0,-0.00014825486300285018,1.3881244785018954e-05,-9.33898938329375e-05,-2.6036562450482137e-05,5.951564548409283e-05,-7.49079386395124e-05,-5.4381424543836765e-05,7.969068987922705e-05,-0.0003268331146288436,0.0005846898845701919,0.0014620442415603405,9.203481133165013e-05,2.839065878866753e-05,-0.0009447872422829478,0.19667929410934448,13.512414932250977,-0.3983490765094757,-18.321260452270508,-0.5047507882118225,-2.2818026542663574,0.27591270208358765,0
68,0.3350083827972412,-0.19667929410934448,-13.563989639282227,0.3983490765094757,18.269685745239258,0.5102439522743225,2.2818026542663574,-0.26858848333358765,0.0,0.0,0.0,0.0,0.0,0.0,0.0,-0.21749954040976252,0.40937650631446104,-0.03585101245096299,0.542864209182263,0.07499287761665567,0.07109815749690433,-0.2652904332376691,0.07180410981596562,-0.3342069958009217,-0.12025051538254085,-2.874740561756752,-0.06459302217289063,2.5182360655996536,0.7687555959953202,0.07165585495296277,-0.33419673383382315,-0.1203439052763738,-2.874768336042937,-0.06453255302590709,2.518161157661014,0.7687020283728597,-0.0008375536821809763,0.0009025334961228488,6.012496196820622e-05,0.0001328088347832355,-3.1611397577899794e-05,8.150873550532173e-05,0.0003243934069391928,0.0,0.0,0.0,0.0,0.0,0.0,0.0,-0.00014825486300285018,1.0261967098579294e-05,-9.338989383295138e-05,-2.7774286185167085e-05,6.046914698354389e-05,-7.49079386395124e-05,-5.356762246044866e-05,0.0008375536821809763,-0.0009025334961228488,-6.012496196820622e-05,-0.0001328088347832355,3.1611397577899794e-05,-8.150873550532173e-05,-0.0003243934069391928,0.19667929410934448,13.563989639282227,-0.3983490765094757,-18.269685745239258,-0.5102439522743225,-2.2818026542663574,0.26858848333358765,0
69,0.3400094509124756,-0.19667929410934448,-13.563989639282227,0.3983490765094757,18.269685745239258,0.5102439522743225,2.2818026542663574,-0.26858848333358765,0.0,0.0,0.0,0.0,0.0,0.0,0.0,-0.21749954040976252,0.40937650631446104,-0.03585101245096299,0.542864209182263,0.07499287761665567,0.07109815749690433,-0.2652904332376691,0.07180410981596562,-0.3342069958009217,-0.12025051538254085,-2.874740561756752,-0.06459302217289063,2.5182360655996536,0.7687555959953202,0.07165585495296277,-0.33419673383382315,-0.1203439052763738,-2.874768336042937,-0.06453255302590709,2.518161157661014,0.7687020283728597,-0.0008375536821809763,0.0009025334961228488,6.012496196820622e-05,0.0001328088347832355,-3.1611397577899794e-05,8.150873550532173e-05,0.0003243934069391928,0.0,0.0,0.0,0.0,0.0,0.0,0.0,-0.00014825486300285018,1.0261967098579294e-05,-9.338989383295138e-05,-2.7774286185167085e-05,6.046914698354389e-05,-7.49079386395124e-05,-5.356762246044866e-05,0.0008375536821809763,-0.0009025334961228488,-6.012496196820622e-05,-0.0001328088347832355,3.1611397577899794e-05,-8.150873550532173e-05,-0.0003243934069391928,0.19667929410934448,13.563989639282227,-0.3983490765094757,-18.269685745239258,-0.5102439522743225,-2.2818026542663574,0.26858848333358765,0
70,0.34500813484191895,-0.17287558317184448,-13.512414932250977,0.3983490765094757,18.269685745239258,0.5047507882118225,2.2753939628601074,-0.22830526530742645,0.0,0.0,0.0,0.0,0.0,0.0,0.0,-0.21636859468820652,0.4118398690756227,-0.03328640739394692,0.5383063127766612,0.07567820047057129,0.07082675102555054,-0.2643284076150838,0.07180243938011036,-0.33421061507860816,-0.12025051538254085,-2.8747405481632193,-0.06458910317985422,2.5182367776764765,0.7687511200822061,0.07165585495296277,-0.33419673383382315,-0.1203439052763738,-2.874768336042937,-0.06453255302590709,2.518161157661014,0.7687020283728597,-0.001218221113973854,-0.00040912905295612884,-0.0001166035693150845,0.00039100390865011913,-1.9824226866493397e-05,0.0004138051469801111,-0.001831425885212187,0.0,0.0,0.0,0.0,0.0,0.0,0.0,-0.00014658442714758635,1.3881244785018954e-05,-9.338989383295138e-05,-2.7787879717688924e-05,5.655015394713525e-05,-7.562001546235209e-05,-4.9091709346416046e-05,0.001218221113973854,0.00040912905295612884,0.0001166035693150845,-0.00039100390865011913,1.9824226866493397e-05,-0.0004138051469801111,0.001831425885212187,0.17287558317184448,13.512414932250977,-0.3983490765094757,-18.269685745239258,-0.5047507882118225,-2.2753939628601074,0.22830526530742645,0
71,0.34995055198669434,-0.17287558317184448,-13.512414932250977,0.3983490765094757,18.269685745239258,0.5047507882118225,2.2753939628601074,-0.22830526530742645,0.0,0.0,0.0,0.0,0.0,0.0,0.0,-0.21636859468820652,0.4118398690756227,-0.03328640739394692,0.5383063127766612,0.07567820047057129,0.07082675102555054,-0.2643284076150838,0.07180243938011036,-0.33421061507860816,-0.12025051538254085,-2.8747405481632193,-0.06458910317985422,2.5182367776764765,0.7687511200822061,0.07165585495296277,-0.33419673383382315,-0.1203439052763738,-2.874768336042937,-0.06453255302590709,2.518161157661014,0.7687020283728597,-0.001218221113973854,-0.00040912905295612884,-0.0001166035693150845,0.00039100390865011913,-1.9824226866493397e-05,0.0004138051469801111,-0.001831425885212187,0.0,0.0,0.0,0.0,0.0,0.0,0.0,-0.00014658442714758635,1.3881244785018954e-05,-9.338989383295138e-05,-2.7787879717688924e-05,5.655015394713525e-05,-7.562001546235209e-05,-4.9091709346416046e-05,0.001218221113973854,0.00040912905295612884,0.0001166035693150845,-0.00039100390865011913,1.9824226866493397e-05,-0.0004138051469801111,0.001831425885212187,0.17287558317184448,13.512414932250977,-0.3983490765094757,-18.269685745239258,-0.5047507882118225,-2.2753939628601074,0.22830526530742645,0
72,0.3550083637237549,-0.17287558317184448,-13.488611221313477,0.3467743694782257,18.269685745239258,0.5047507882118225,2.2818026542663574,-0.28964561223983765,0.0,0.0,0.0,0.0,0.0,0.0,0.0,-0.2174242405048031,0.4127563152527908,-0.03298724909628493,0.535261663788231,0.07590932236762696,0.07072944127317518,-0.2653613069778032,0.07180243938011036,-0.3342122855144634,-0.12024689610485445,-2.87473857054044,-0.06459300638763539,2.5182360655996536,0.7687579356763098,0.07165585495296277,-0.33419673383382315,-0.1203439052763738,-2.874768336042937,-0.06453255302590709,2.518161157661014,0.7687020283728597,-0.0008918675846784043,-0.00019092610498338308,0.0005270773495010806,0.0002530551633729567,-4.19545637849763e-06,2.310156639663692e-05,0.0013609710574445052,0.0,0.0,0.0,0.0,0.0,0.0,0.0,-0.00014658442714758635,1.5551680640268906e-05,-9.70091715193494e-05,-2.9765502497003382e-05,6.045336172830207e-05,-7.49079386395124e-05,-5.590730345006456e-05,0.0008918675846784043,0.00019092610498338308,-0.0005270773495010806,-0.0002530551633729567,4.19545637849763e-06,-2.310156639663692e-05,-0.0013609710574445052,0.17287558317184448,13.488611221313477,-0.3467743694782257,-18.269685745239258,-0.5047507882118225,-2.2818026542663574,0.28964561223983765,0
73,0.3600127696990967,-0.17287558317184448,-13.488611221313477,0.3467743694782257,18.269685745239258,0.5047507882118225,2.2818026542663574,-0.28964561223983765,0.0,0.0,0.0,0.0,0.0,0.0,0.0,-0.2174242405048031,0.4127563152527908,-0.03298724909628493,0.535261663788231,0.07590932236762696,0.07072944127317518,-0.2653613069778032,0.07180243938011036,-0.3342122855144634,-0.12024689610485445,-2.87473857054044,-0.06459300638763539,2.5182360655996536,0.7687579356763098,0.07165585495296277,-0.33419673383382315,-0.1203439052763738,-2.874768336042937,-0.06453255302590709,2.518161157661014,0.7687020283728597,-0.0008918675846784043,-0.00019092610498338308,0.0005270773495010806,0.0002530551633729567,-4.19545637849763e-06,2.310156639663692e-05,0.0013609710574445052,0.0,0.0,0.0,0.0,0.0,0.0,0.0,-0.00014658442714758635,1.5551680640268906e-05,-9.70091715193494e-05,-2.9765502497003382e-05,6.045336172830207e-05,-7.49079386395124e-05,-5.590730345006456e-05,0.0008918675846784043,0.00019092610498338308,-0.0005270773495010806,-0.0002530551633729567,4.19545637849763e-06,-2.310156639663692e-05,-0.0013609710574445052,0.17287558317184448,13.488611221313477,-0.3467743694782257,-18.269685745239258,-0.5047507882118225,-2.2818026542663574,0.28964561223983765,0
74,0.36504435539245605,-0.17287558317184448,-13.488611221313477,0.3467743694782257,18.269685745239258,0.5047507882118225,2.2818026542663574,-0.28964561223983765,0.0,0.0,0.0,0.0,0.0,0.0,0.0,-0.2174242405048031,0.4127563152527908,-0.03298724909628493,0.535261663788231,0.07590932236762696,0.07072944127317518,-0.2653613069778032,0.07180243938011036,-0.3342122855144634,-0.12024689610485445,-2.87473857054044,-0.06459300638763539,2.5182360655996536,0.7687579356763098,0.07165585495296277,-0.33419673383382315,-0.1203439052763738,-2.874768336042937,-0.06453255302590709,2.518161157661014,0.7687020283728597,-0.0008918675846784043,-0.00019092610498338308,0.0005270773495010806,0.0002530551633729567,-4.19545637849763e-06,2.310156639663692e-05,0.0013609710574445052,0.0,0.0,0.0,0.0,0.0,0.0,0.0,-0.00014658442714758635,1.5551680640268906e-05,-9.70091715193494e-05,-2.9765502497003382e-05,6.045336172830207e-05,-7.49079386395124e-05,-5.590730345006456e-05,0.0008918675846784043,0.00019092610498338308,-0.0005270773495010806,-0.0002530551633729567,4.19545637849763e-06,-2.310156639663692e-05,-0.0013609710574445052,0.17287558317184448,13.488611221313477,-0.3467743694782257,-18.269685745239258,-0.5047507882118225,-2.2818026542663574,0.28964561223983765,0
75,0.37000584602355957,-0.17287558317184448,-13.488611221313477,0.3467743694782257,18.269685745239258,0.5047507882118225,2.2818026542663574,-0.28964561223983765,0.0,0.0,0.0,0.0,0.0,0.0,0.0,-0.2174242405048031,0.4127563152527908,-0.03298724909628493,0.535261663788231,0.07590932236762696,0.07072944127317518,-0.2653613069778032,0.07180243938011036,-0.3342122855144634,-0.12024689610485445,-2.87473857054044,-0.06459300638763539,2.5182360655996536,0.7687579356763098,0.07165585495296277,-0.33419673383382315,-0.1203439052763738,-2.874768336042937,-0.06453255302590709,2.518161157661014,0.7687020283728597,-0.0008918675846784043,-0.00019092610498338308,0.0005270773495010806,0.0002530551633729567,-4.19545637849763e-06,2.310156639663692e-05,0.0013609710574445052,0.0,0.0,0.0,0.0,0.0,0.0,0.0,-0.00014658442714758635,1.5551680640268906e-05,-9.70091715193494e-05,-2.9765502497003382e-05,6.045336172830207e-05,-7.49079386395124e-05,-5.590730345006456e-05,0.0008918675846784043,0.00019092610498338308,-0.0005270773495010806,-0.0002530551633729567,4.19545637849763e-06,-2.310156639663692e-05,-0.0013609710574445052,0.17287558317184448,13.488611221313477,-0.3467743694782257,-18.269685745239258,-0.5047507882118225,-2.2818026542663574,0.28964561223983765,0
76,0.3750119209289551,-0.2720577120780945,-13.536218643188477,0.2991669476032257,18.245882034301758,0.5047507882118225,2.2753939628601074,-0.22830526530742645,0.0,0.0,0.0,0.0,0.0,0.0,0.0,-0.2159830126757566,0.40692070648461787,-0.03432965935372233,0.5390024246475104,0.0753556491322825,0.07099471996751998,-0.26557613950565473,0.07180939952950728,-0.33420894464275286,-0.12024355555792154,-2.8747396225152695,-0.0645892313706964,2.5182367776764765,0.7687511200822061,0.07165585495296277,-0.33419673383382315,-0.1203439052763738,-2.874768336042937,-0.06453255302590709,2.518161157661014,0.7687020283728597,0.0013645711450228795,0.0007496382944607367,0.0014792829370841043,0.0006267258271820097,7.878333813886241e-06,0.00017235019953509126,-0.0016703235966332348,0.0,0.0,0.0,0.0,0.0,0.0,0.0,-0.00015354457654451203,1.221080892971349e-05,-0.0001003497184522556,-2.8713527667534322e-05,5.667834478931266e-05,-7.562001546235209e-05,-4.9091709346416046e-05,-0.0013645711450228795,-0.0007496382944607367,-0.0014792829370841043,-0.0006267258271820097,-7.878333813886241e-06,-0.00017235019953509126,0.0016703235966332348,0.2720577120780945,13.536218643188477,-0.2991669476032257,-18.245882034301758,-0.5047507882118225,-2.2753939628601074,0.22830526530742645,0
77,0.37999439239501953,-0.2720577120780945,-13.536218643188477,0.2991669476032257,18.245882034301758,0.5047507882118225,2.2753939628601074,-0.22830526530742645,0.0,0.0,0.0,0.0,0.0,0.0,0.0,-0.2159830126757566,0.40692070648461787,-0.03432965935372233,0.5390024246475104,0.0753556491322825,0.07099471996751998,-0.26557613950565473,0.07180939952950728,-0.33420894464275286,-0.12024355555792154,-2.8747396225152695,-0.0645892313706964,2.5182367776764765,0.7687511200822061,0.07165585495296277,-0.33419673383382315,-0.1203439052763738,-2.874768336042937,-0.06453255302590709,2.518161157661014,0.7687020283728597,0.0013645711450228795,0.0007496382944607367,0.0014792829370841043,0.0006267258271820097,7.878333813886241e-06,0.00017235019953509126,-0.0016703235966332348,0.0,0.0,0.0,0.0,0.0,0.0,0.0,-0.00015354457654451203,1.221080892971349e-05,-0.0001003497184522556,-2.8713527667534322e-05,5.667834478931266e-05,-7.562001546235209e-05,-4.9091709346416046e-05,-0.0013645711450228795,-0.0007496382944607367,-0.0014792829370841043,-0.0006267258271820097,-7.878333813886241e-06,-0.00017235019953509126,0.0016703235966332348,0.2720577120780945,13.536218643188477,-0.2991669476032257,-18.245882034301758,-0.5047507882118225,-2.2753939628601074,0.22830526530742645,0
78,0.384995698928833,-0.24825400114059448,-13.536218643188477,0.3467743694782257,18.297456741333008,0.5047507882118225,2.2818026542663574,-0.25485557317733765,0.0,0.0,0.0,0.0,0.0,0.0,0.0,-0.21416764443101918,0.40783594135471846,-0.03584465963383584,0.5376106711298764,0.07494366358140643,0.06992133551190989,-0.2645579362002949,0.07180772909365202,-0.33420894464275286,-0.12024689610485628,-2.874740280964158,-0.06458923129529878,2.5182360655996536,0.768754070116414,0.07165585495296277,-0.33419673383382315,-0.1203439052763738,-2.874768336042937,-0.06453255302590709,2.518161157661014,0.7687020283728597,0.0003238805220516027,0.00043031379868215485,0.0005209947233249539,-0.0007269398249298114,-1.5062018234709948e-05,6.451889215801917e-05,-5.957793803417432e-05,0.0,0.0,0.0,0.0,0.0,0.0,0.0,-0.0001518741406892482,1.221080892971349e-05,-9.700917151751753e-05,-2.805507877923219e-05,5.667826939169396e-05,-7.49079386395124e-05,-5.2041743554220865e-05,-0.0003238805220516027,-0.00043031379868215485,-0.0005209947233249539,0.0007269398249298114,1.5062018234709948e-05,-6.451889215801917e-05,5.957793803417432e-05,0.24825400114059448,13.536218643188477,-0.3467743694782257,-18.297456741333008,-0.5047507882118225,-2.2818026542663574,0.25485557317733765,0
79,0.3900024890899658,-0.24825400114059448,-13.536218643188477,0.3467743694782257,18.297456741333008,0.5047507882118225,2.2818026542663574,-0.25485557317733765,0.0,0.0,0.0,0.0,0.0,0.0,0.0,-0.21416764443101918,0.40783594135471846,-0.03584465963383584,0.5376106711298764,0.07494366358140643,0.06992133551190989,-0.2645579362002949,0.07180772909365202,-0.33420894464275286,-0.12024689610485628,-2.874740280964158,-0.06458923129529878,2.5182360655996536,0.768754070116414,0.07165585495296277,-0.33419673383382315,-0.1203439052763738,-2.874768336042937,-0.06453255302590709,2.518161157661014,0.7687020283728597,0.0003238805220516027,0.00043031379868215485,0.0005209947233249539,-0.0007269398249298114,-1.5062018234709948e-05,6.451889215801917e-05,-5.957793803417432e-05,0.0,0.0,0.0,0.0,0.0,0.0,0.0,-0.0001518741406892482,1.221080892971349e-05,-9.700917151751753e-05,-2.805507877923219e-05,5.667826939169396e-05,-7.49079386395124e-05,-5.2041743554220865e-05,-0.0003238805220516027,-0.00043031379868215485,-0.0005209947233249539,0.0007269398249298114,1.5062018234709948e-05,-6.451889215801917e-05,5.957793803417432e-05,0.24825400114059448,13.536218643188477,-0.3467743694782257,-18.297456741333008,-0.5047507882118225,-2.2818026542663574,0.25485557317733765,0
