rezayati/contactInterpretation/dataset/franka_main/labeled_data/link4/d4_3.csv
index,time,tau_J0,tau_J1,tau_J2,tau_J3,tau_J4,tau_J5,tau_J6,tau_J_d0,tau_J_d1,tau_J_d2,tau_J_d3,tau_J_d4,tau_J_d5,tau_J_d6,tau_ext0,tau_ext1,tau_ext2,tau_ext3,tau_ext4,tau_ext5,tau_ext6,q0,q1,q2,q3,q4,q5,q6,q_d0,q_d1,q_d2,q_d3,q_d4,q_d5,q_d6,dq0,dq1,dq2,dq3,dq4,dq5,dq6,dq_d0,dq_d1,dq_d2,dq_d3,dq_d4,dq_d5,dq_d6,e0,e1,e2,e3,e4,e5,e6,de0,de1,de2,de3,de4,de5,de6,etau_J0,etau_J1,etau_J2,etau_J3,etau_J4,etau_J5,etau_J6,label
1,0.0,-0.4267818331718445,-34.03915023803711,-3.8228423595428467,19.487642288208008,0.2548118233680725,1.783755898475647,-0.08365194499492645,0.0,0.0,0.0,0.0,0.0,0.0,0.0,-0.3906390148311749,0.004041765138882614,-0.24169227123516782,0.44669348329440406,0.20646934096905287,-0.11873246916719184,-0.10229823947099558,1.0544311089292033,0.324092563520398,-0.39256819252510533,-2.1535054660857065,0.8647485964420052,2.465992381435569,0.544489875212626,1.0544104758940245,0.3238615046091247,-0.39250456234122666,-2.153291787532338,0.8647539153680389,2.46587817577521,0.5445020185570556,0.0007477850058361266,-0.0007036535702265066,0.00045402208758559573,-0.0007152136771180065,9.146527362507307e-05,0.00018059374438897708,-0.0009763212654380353,0.0,0.0,0.0,0.0,0.0,0.0,0.0,-2.0633035178851955e-05,-0.00023105891127328526,6.363018387867125e-05,0.00021367855336862362,5.318926033726079e-06,-0.00011420566035891255,1.2143344429560443e-05,-0.0007477850058361266,0.0007036535702265066,-0.00045402208758559573,0.0007152136771180065,-9.146527362507307e-05,-0.00018059374438897708,0.0009763212654380353,0.4267818331718445,34.03915023803711,3.8228423595428467,-19.487642288208008,-0.2548118233680725,-1.783755898475647,0.08365194499492645,0
2,0.004580974578857422,-0.4029781222343445,-34.09072494506836,-3.7990386486053467,19.436067581176758,0.2667136788368225,1.790164589881897,-0.10470907390117645,0.0,0.0,0.0,0.0,0.0,0.0,0.0,-0.398434055337974,0.006799791792374418,-0.2463309161111487,0.44491304575809415,0.20640424048609082,-0.11815970194416438,-0.1020141544863872,1.054429941782429,0.3240968980497841,-0.3925698328626547,-2.1535040750879686,0.8647472352522855,2.4659916301308344,0.5444886042954319,1.0544104758940245,0.3238615046091247,-0.39250456234122666,-2.153291787532338,0.8647539153680389,2.46587817577521,0.5445020185570556,2.233073622410195e-05,0.0009847531645369716,-0.0003132377843042098,0.0008395583541345681,-0.00021917933324401966,-4.673938130174444e-05,-0.00030951070209964755,0.0,0.0,0.0,0.0,0.0,0.0,0.0,-1.946588840451291e-05,-0.0002353934406593705,6.527052142801804e-05,0.0002122875556307413,6.680115753443516e-06,-0.00011345435562448714,1.3414261623712065e-05,-2.233073622410195e-05,-0.0009847531645369716,0.0003132377843042098,-0.0008395583541345681,0.00021917933324401966,4.673938130174444e-05,0.00030951070209964755,0.4029781222343445,34.09072494506836,3.7990386486053467,-19.436067581176758,-0.2667136788368225,-1.790164589881897,0.10470907390117645,0
3,0.009580373764038086,-0.4029781222343445,-34.09072494506836,-3.7990386486053467,19.436067581176758,0.2667136788368225,1.790164589881897,-0.10470907390117645,0.0,0.0,0.0,0.0,0.0,0.0,0.0,-0.398434055337974,0.006799791792374418,-0.2463309161111487,0.44491304575809415,0.20640424048609082,-0.11815970194416438,-0.1020141544863872,1.054429941782429,0.3240968980497841,-0.3925698328626547,-2.1535040750879686,0.8647472352522855,2.4659916301308344,0.5444886042954319,1.0544104758940245,0.3238615046091247,-0.39250456234122666,-2.153291787532338,0.8647539153680389,2.46587817577521,0.5445020185570556,2.233073622410195e-05,0.0009847531645369716,-0.0003132377843042098,0.0008395583541345681,-0.00021917933324401966,-4.673938130174444e-05,-0.00030951070209964755,0.0,0.0,0.0,0.0,0.0,0.0,0.0,-1.946588840451291e-05,-0.0002353934406593705,6.527052142801804e-05,0.0002122875556307413,6.680115753443516e-06,-0.00011345435562448714,1.3414261623712065e-05,-2.233073622410195e-05,-0.0009847531645369716,0.0003132377843042098,-0.0008395583541345681,0.00021917933324401966,4.673938130174444e-05,0.00030951070209964755,0.4029781222343445,34.09072494506836,3.7990386486053467,-19.436067581176758,-0.2667136788368225,-1.790164589881897,0.10470907390117645,0
4,0.014580726623535156,-0.3514034152030945,-34.06295394897461,-3.8228423595428467,19.535249710083008,0.2603049874305725,1.783755898475647,-0.12485067546367645,0.0,0.0,0.0,0.0,0.0,0.0,0.0,-0.4020345387705281,0.00048502922132144223,-0.24870882367836042,0.44439379339729124,0.20642404059805805,-0.11732209140682232,-0.10231546752423192,1.0544265344352095,0.32409494921199056,-0.3925682709735223,-2.1535102935032535,0.8647479860363941,2.4659892025389043,0.5444907986242717,1.0544104758940245,0.3238615046091247,-0.39250456234122666,-2.153291787532338,0.8647539153680389,2.46587817577521,0.5445020185570556,-0.0011022198801343538,-0.00025748941096405924,0.0001190585191661088,-0.0020194763774638814,-3.4291820220309045e-05,0.00043787968562250014,0.0009695880581350162,0.0,0.0,0.0,0.0,0.0,0.0,0.0,-1.6058541185026698e-05,-0.0002334446028658399,6.370863229565593e-05,0.00021850597091566115,5.92933164478282e-06,-0.00011102676369434406,1.1219932783856912e-05,0.0011022198801343538,0.00025748941096405924,-0.0001190585191661088,0.0020194763774638814,3.4291820220309045e-05,-0.00043787968562250014,-0.0009695880581350162,0.3514034152030945,34.06295394897461,3.8228423595428467,-19.535249710083008,-0.2603049874305725,-1.783755898475647,0.12485067546367645,0
5,0.019542455673217773,-0.3514034152030945,-34.06295394897461,-3.8228423595428467,19.535249710083008,0.2603049874305725,1.783755898475647,-0.12485067546367645,0.0,0.0,0.0,0.0,0.0,0.0,0.0,-0.4020345387705281,0.00048502922132144223,-0.24870882367836042,0.44439379339729124,0.20642404059805805,-0.11732209140682232,-0.10231546752423192,1.0544265344352095,0.32409494921199056,-0.3925682709735223,-2.1535102935032535,0.8647479860363941,2.4659892025389043,0.5444907986242717,1.0544104758940245,0.3238615046091247,-0.39250456234122666,-2.153291787532338,0.8647539153680389,2.46587817577521,0.5445020185570556,-0.0011022198801343538,-0.00025748941096405924,0.0001190585191661088,-0.0020194763774638814,-3.4291820220309045e-05,0.00043787968562250014,0.0009695880581350162,0.0,0.0,0.0,0.0,0.0,0.0,0.0,-1.6058541185026698e-05,-0.0002334446028658399,6.370863229565593e-05,0.00021850597091566115,5.92933164478282e-06,-0.00011102676369434406,1.1219932783856912e-05,0.0011022198801343538,0.00025748941096405924,-0.0001190585191661088,0.0020194763774638814,3.4291820220309045e-05,-0.00043787968562250014,-0.0009695880581350162,0.3514034152030945,34.06295394897461,3.8228423595428467,-19.535249710083008,-0.2603049874305725,-1.783755898475647,0.12485067546367645,0
6,0.024584531784057617,-0.4267818331718445,-34.06295394897461,-3.7990386486053467,19.487642288208008,0.2667136788368225,1.796573281288147,-0.11844198405742645,0.0,0.0,0.0,0.0,0.0,0.0,0.0,-0.39352336019253953,-0.0005341730891310041,-0.24343000292501632,0.4452266307130076,0.2062034014973437,-0.11700435800946062,-0.10240923095260168,1.0544308705846475,0.32409494921199056,-0.39256993784576405,-2.1535076943740465,0.8647472744981418,2.465990955828373,0.5444902086454232,1.0544104758940245,0.3238615046091247,-0.39250456234122666,-2.153291787532338,0.8647539153680389,2.46587817577521,0.5445020185570556,0.0009259892265338246,-0.00032752213902676386,-0.0003295763143881571,-0.0005136596294669882,-0.00016956471752272792,-0.00013256396476861562,0.001428704130977285,0.0,0.0,0.0,0.0,0.0,0.0,0.0,-2.039469062298238e-05,-0.0002334446028658399,6.53755045373905e-05,0.00021590684170869068,6.640869897100998e-06,-0.00011278005316306405,1.1809911632409964e-05,-0.0009259892265338246,0.00032752213902676386,0.0003295763143881571,0.0005136596294669882,0.00016956471752272792,0.00013256396476861562,-0.001428704130977285,0.4267818331718445,34.06295394897461,3.7990386486053467,-19.487642288208008,-0.2667136788368225,-1.796573281288147,0.11844198405742645,0
7,0.029585599899291992,-0.4267818331718445,-34.06295394897461,-3.7990386486053467,19.487642288208008,0.2667136788368225,1.796573281288147,-0.11844198405742645,0.0,0.0,0.0,0.0,0.0,0.0,0.0,-0.39352336019253953,-0.0005341730891310041,-0.24343000292501632,0.4452266307130076,0.2062034014973437,-0.11700435800946062,-0.10240923095260168,1.0544308705846475,0.32409494921199056,-0.39256993784576405,-2.1535076943740465,0.8647472744981418,2.465990955828373,0.5444902086454232,1.0544104758940245,0.3238615046091247,-0.39250456234122666,-2.153291787532338,0.8647539153680389,2.46587817577521,0.5445020185570556,0.0009259892265338246,-0.00032752213902676386,-0.0003295763143881571,-0.0005136596294669882,-0.00016956471752272792,-0.00013256396476861562,0.001428704130977285,0.0,0.0,0.0,0.0,0.0,0.0,0.0,-2.039469062298238e-05,-0.0002334446028658399,6.53755045373905e-05,0.00021590684170869068,6.640869897100998e-06,-0.00011278005316306405,1.1809911632409964e-05,-0.0009259892265338246,0.00032752213902676386,0.0003295763143881571,0.0005136596294669882,0.00016956471752272792,0.00013256396476861562,-0.001428704130977285,0.4267818331718445,34.06295394897461,3.7990386486053467,-19.487642288208008,-0.2667136788368225,-1.796573281288147,0.11844198405742645,0
8,0.0345911979675293,-0.4267818331718445,-34.06295394897461,-3.7990386486053467,19.487642288208008,0.2667136788368225,1.783755898475647,-0.11844198405742645,0.0,0.0,0.0,0.0,0.0,0.0,0.0,-0.39671936917748035,0.0072304707944933514,-0.24713894576164436,0.44172911085216776,0.20682666742724665,-0.11700690456525542,-0.10172334277257265,1.0544308704702483,0.32409494921199056,-0.39256993870979884,-2.153507694378234,0.8647472725600778,2.4659922504186427,0.5444900865478918,1.0544104758940245,0.3238615046091247,-0.39250456234122666,-2.153291787532338,0.8647539153680389,2.46587817577521,0.5445020185570556,0.0006228065673408813,6.760231732695897e-05,-0.0001792584792002871,-4.8711363786132845e-05,-0.0001918409474992114,-6.797410515467782e-05,0.0013049137341930965,0.0,0.0,0.0,0.0,0.0,0.0,0.0,-2.0394576223825567e-05,-0.0002334446028658399,6.537636857217866e-05,0.00021590684589600784,6.642807961143582e-06,-0.00011407464343271556,1.1932009163828639e-05,-0.0006228065673408813,-6.760231732695897e-05,0.0001792584792002871,4.8711363786132845e-05,0.0001918409474992114,6.797410515467782e-05,-0.0013049137341930965,0.4267818331718445,34.06295394897461,3.7990386486053467,-19.487642288208008,-0.2667136788368225,-1.783755898475647,0.11844198405742645,0
9,0.03999137878417969,-0.4267818331718445,-34.06295394897461,-3.7990386486053467,19.487642288208008,0.2667136788368225,1.783755898475647,-0.11844198405742645,0.0,0.0,0.0,0.0,0.0,0.0,0.0,-0.39671936917748035,0.0072304707944933514,-0.24713894576164436,0.44172911085216776,0.20682666742724665,-0.11700690456525542,-0.10172334277257265,1.0544308704702483,0.32409494921199056,-0.39256993870979884,-2.153507694378234,0.8647472725600778,2.4659922504186427,0.5444900865478918,1.0544104758940245,0.3238615046091247,-0.39250456234122666,-2.153291787532338,0.8647539153680389,2.46587817577521,0.5445020185570556,0.0006228065673408813,6.760231732695897e-05,-0.0001792584792002871,-4.8711363786132845e-05,-0.0001918409474992114,-6.797410515467782e-05,0.0013049137341930965,0.0,0.0,0.0,0.0,0.0,0.0,0.0,-2.0394576223825567e-05,-0.0002334446028658399,6.537636857217866e-05,0.00021590684589600784,6.642807961143582e-06,-0.00011407464343271556,1.1932009163828639e-05,-0.0006228065673408813,-6.760231732695897e-05,0.0001792584792002871,4.8711363786132845e-05,0.0001918409474992114,6.797410515467782e-05,-0.0013049137341930965,0.4267818331718445,34.06295394897461,3.7990386486053467,-19.487642288208008,-0.2667136788368225,-1.783755898475647,0.11844198405742645,0
10,0.04458332061767578,-0.4267818331718445,-34.03915023803711,-3.8228423595428467,19.487642288208008,0.2548118233680725,1.790164589881897,-0.13858358561992645,0.0,0.0,0.0,0.0,0.0,0.0,0.0,-0.3973944840453212,0.0008048005704759007,-0.24733964730829625,0.448610366114722,0.20707007049757317,-0.11738278624263165,-0.10044990139760188,1.0544337344366361,0.32409327844908653,-0.39256819158894224,-2.153507447129337,0.8647454180120436,2.465991275457917,0.5444923245029317,1.0544104758940245,0.3238615046091247,-0.39250456234122666,-2.153291787532338,0.8647539153680389,2.46587817577521,0.5445020185570556,0.00028293740057768797,-0.0005128745943120656,0.00031876495976514494,9.451938476766006e-05,0.0001868422319273605,1.4113650531993203e-05,0.0018806735741915925,0.0,0.0,0.0,0.0,0.0,0.0,0.0,-2.325854261164828e-05,-0.000231773839961813,6.362924771557976e-05,0.00021565959699909598,8.497355995285005e-06,-0.00011309968270722948,9.694054123876583e-06,-0.00028293740057768797,0.0005128745943120656,-0.00031876495976514494,-9.451938476766006e-05,-0.0001868422319273605,-1.4113650531993203e-05,-0.0018806735741915925,0.4267818331718445,34.03915023803711,3.8228423595428467,-19.487642288208008,-0.2548118233680725,-1.790164589881897,0.13858358561992645,0
11,0.04985690116882324,-0.4267818331718445,-34.03915023803711,-3.8228423595428467,19.487642288208008,0.2548118233680725,1.790164589881897,-0.13858358561992645,0.0,0.0,0.0,0.0,0.0,0.0,0.0,-0.3973944840453212,0.0008048005704759007,-0.24733964730829625,0.448610366114722,0.20707007049757317,-0.11738278624263165,-0.10044990139760188,1.0544337344366361,0.32409327844908653,-0.39256819158894224,-2.153507447129337,0.8647454180120436,2.465991275457917,0.5444923245029317,1.0544104758940245,0.3238615046091247,-0.39250456234122666,-2.153291787532338,0.8647539153680389,2.46587817577521,0.5445020185570556,0.00028293740057768797,-0.0005128745943120656,0.00031876495976514494,9.451938476766006e-05,0.0001868422319273605,1.4113650531993203e-05,0.0018806735741915925,0.0,0.0,0.0,0.0,0.0,0.0,0.0,-2.325854261164828e-05,-0.000231773839961813,6.362924771557976e-05,0.00021565959699909598,8.497355995285005e-06,-0.00011309968270722948,9.694054123876583e-06,-0.00028293740057768797,0.0005128745943120656,-0.00031876495976514494,-9.451938476766006e-05,-0.0001868422319273605,-1.4113650531993203e-05,-0.0018806735741915925,0.4267818331718445,34.03915023803711,3.8228423595428467,-19.487642288208008,-0.2548118233680725,-1.790164589881897,0.13858358561992645,0
12,0.05453753471374512,-0.4029781222343445,-34.03915023803711,-3.7990386486053467,19.487642288208008,0.2603049874305725,1.796573281288147,-0.11844198405742645,0.0,0.0,0.0,0.0,0.0,0.0,0.0,-0.40582649137373855,0.007376511505009965,-0.2525119762464528,0.4484862024518637,0.2071872711510835,-0.11740294074486321,-0.10016370836183612,1.0544294384691386,0.3240932787761335,-0.39256923310056385,-2.153507693359353,0.8647479865570226,2.465990795953567,0.5444900865472025,1.0544104758940245,0.3238615046091247,-0.39250456234122666,-2.153291787532338,0.8647539153680389,2.46587817577521,0.5445020185570556,-0.000251612645833009,-0.0006308564490907478,-0.0009836456568937326,-0.00017774546288104942,-2.7301587197135706e-06,-8.459076523264438e-06,0.001032003711633186,0.0,0.0,0.0,0.0,0.0,0.0,0.0,-1.896257511413424e-05,-0.00023177416700875808,6.467075933719313e-05,0.00021590582701502825,5.9288110163535634e-06,-0.0001126201783572256,1.1932009853055092e-05,0.000251612645833009,0.0006308564490907478,0.0009836456568937326,0.00017774546288104942,2.7301587197135706e-06,8.459076523264438e-06,-0.001032003711633186,0.4029781222343445,34.03915023803711,3.7990386486053467,-19.487642288208008,-0.2603049874305725,-1.796573281288147,0.11844198405742645,0
13,0.05958271026611328,-0.4029781222343445,-34.03915023803711,-3.7990386486053467,19.487642288208008,0.2603049874305725,1.796573281288147,-0.11844198405742645,0.0,0.0,0.0,0.0,0.0,0.0,0.0,-0.40582649137373855,0.007376511505009965,-0.2525119762464528,0.4484862024518637,0.2071872711510835,-0.11740294074486321,-0.10016370836183612,1.0544294384691386,0.3240932787761335,-0.39256923310056385,-2.153507693359353,0.8647479865570226,2.465990795953567,0.5444900865472025,1.0544104758940245,0.3238615046091247,-0.39250456234122666,-2.153291787532338,0.8647539153680389,2.46587817577521,0.5445020185570556,-0.000251612645833009,-0.0006308564490907478,-0.0009836456568937326,-0.00017774546288104942,-2.7301587197135706e-06,-8.459076523264438e-06,0.001032003711633186,0.0,0.0,0.0,0.0,0.0,0.0,0.0,-1.896257511413424e-05,-0.00023177416700875808,6.467075933719313e-05,0.00021590582701502825,5.9288110163535634e-06,-0.0001126201783572256,1.1932009853055092e-05,0.000251612645833009,0.0006308564490907478,0.0009836456568937326,0.00017774546288104942,2.7301587197135706e-06,8.459076523264438e-06,-0.001032003711633186,0.4029781222343445,34.03915023803711,3.7990386486053467,-19.487642288208008,-0.2603049874305725,-1.796573281288147,0.11844198405742645,0
14,0.06458902359008789,-0.4029781222343445,-34.03915023803711,-3.7990386486053467,19.487642288208008,0.2603049874305725,1.796573281288147,-0.11844198405742645,0.0,0.0,0.0,0.0,0.0,0.0,0.0,-0.40582649137373855,0.007376511505009965,-0.2525119762464528,0.4484862024518637,0.2071872711510835,-0.11740294074486321,-0.10016370836183612,1.0544294384691386,0.3240932787761335,-0.39256923310056385,-2.153507693359353,0.8647479865570226,2.465990795953567,0.5444900865472025,1.0544104758940245,0.3238615046091247,-0.39250456234122666,-2.153291787532338,0.8647539153680389,2.46587817577521,0.5445020185570556,-0.000251612645833009,-0.0006308564490907478,-0.0009836456568937326,-0.00017774546288104942,-2.7301587197135706e-06,-8.459076523264438e-06,0.001032003711633186,0.0,0.0,0.0,0.0,0.0,0.0,0.0,-1.896257511413424e-05,-0.00023177416700875808,6.467075933719313e-05,0.00021590582701502825,5.9288110163535634e-06,-0.0001126201783572256,1.1932009853055092e-05,0.000251612645833009,0.0006308564490907478,0.0009836456568937326,0.00017774546288104942,2.7301587197135706e-06,8.459076523264438e-06,-0.001032003711633186,0.4029781222343445,34.03915023803711,3.7990386486053467,-19.487642288208008,-0.2603049874305725,-1.796573281288147,0.11844198405742645,0
15,0.06958532333374023,-0.4029781222343445,-34.11452865600586,-3.8228423595428467,19.436067581176758,0.2548118233680725,1.783755898475647,-0.10470907390117645,0.0,0.0,0.0,0.0,0.0,0.0,0.0,-0.39440321796625555,0.0043438252372444384,-0.24122614090748798,0.45171579910086385,0.2069074110015179,-0.11765251634683699,-0.09951024046556964,1.0544299418187677,0.324098568489677,-0.3925682625456017,-2.1535040751005416,0.8647485968726949,2.4659913203609234,0.544488565028947,1.0544104758940245,0.3238615046091247,-0.39250456234122666,-2.153291787532338,0.8647539153680389,2.46587817577521,0.5445020185570556,0.00015222785591696985,0.0008744615238762892,0.0002471327328764576,0.0005663523706270823,0.00030140015951790947,4.0850832395312593e-05,0.0011802976583866888,0.0,0.0,0.0,0.0,0.0,0.0,0.0,-1.946592474322273e-05,-0.00023706388055227956,6.370020437501678e-05,0.00021228756820379502,5.318495344019958e-06,-0.00011314458571343167,1.3453528108553492e-05,-0.00015222785591696985,-0.0008744615238762892,-0.0002471327328764576,-0.0005663523706270823,-0.00030140015951790947,-4.0850832395312593e-05,-0.0011802976583866888,0.4029781222343445,34.11452865600586,3.8228423595428467,-19.436067581176758,-0.2548118233680725,-1.783755898475647,0.10470907390117645,0
16,0.0745856761932373,-0.4029781222343445,-34.11452865600586,-3.8228423595428467,19.436067581176758,0.2548118233680725,1.783755898475647,-0.10470907390117645,0.0,0.0,0.0,0.0,0.0,0.0,0.0,-0.39440321796625555,0.0043438252372444384,-0.24122614090748798,0.45171579910086385,0.2069074110015179,-0.11765251634683699,-0.09951024046556964,1.0544299418187677,0.324098568489677,-0.3925682625456017,-2.1535040751005416,0.8647485968726949,2.4659913203609234,0.544488565028947,1.0544104758940245,0.3238615046091247,-0.39250456234122666,-2.153291787532338,0.8647539153680389,2.46587817577521,0.5445020185570556,0.00015222785591696985,0.0008744615238762892,0.0002471327328764576,0.0005663523706270823,0.00030140015951790947,4.0850832395312593e-05,0.0011802976583866888,0.0,0.0,0.0,0.0,0.0,0.0,0.0,-1.946592474322273e-05,-0.00023706388055227956,6.370020437501678e-05,0.00021228756820379502,5.318495344019958e-06,-0.00011314458571343167,1.3453528108553492e-05,-0.00015222785591696985,-0.0008744615238762892,-0.0002471327328764576,-0.0005663523706270823,-0.00030140015951790947,-4.0850832395312593e-05,-0.0011802976583866888,0.4029781222343445,34.11452865600586,3.8228423595428467,-19.436067581176758,-0.2548118233680725,-1.783755898475647,0.10470907390117645,0
17,0.07958245277404785,-0.4029781222343445,-34.11452865600586,-3.8228423595428467,19.436067581176758,0.2548118233680725,1.790164589881897,-0.09097616374492645,0.0,0.0,0.0,0.0,0.0,0.0,0.0,-0.3978619843895924,0.0006037084526448936,-0.24594285172264166,0.4538608499975778,0.20652662430229424,-0.11720035096434536,-0.09843120523378304,1.054429200072127,0.324098568489677,-0.3925653492685888,-2.153504075062863,0.8647475372884007,2.465991662914471,0.5444870347893981,1.0544104758940245,0.3238615046091247,-0.39250456234122666,-2.153291787532338,0.8647539153680389,2.46587817577521,0.5445020185570556,0.00038822359217524887,0.0008251074284185098,0.000388678977489402,0.0011135858505223455,0.00014880640577683666,-1.0168511750144976e-05,-0.00032317615298811035,0.0,0.0,0.0,0.0,0.0,0.0,0.0,-1.8724178102447198e-05,-0.00023706388055227956,6.07869273621664e-05,0.000212287530525046,6.378079638214018e-06,-0.00011348713926118137,1.4983767657517078e-05,-0.00038822359217524887,-0.0008251074284185098,-0.000388678977489402,-0.0011135858505223455,-0.00014880640577683666,1.0168511750144976e-05,0.00032317615298811035,0.4029781222343445,34.11452865600586,3.8228423595428467,-19.436067581176758,-0.2548118233680725,-1.790164589881897,0.09097616374492645,0
18,0.08459711074829102,-0.4029781222343445,-34.11452865600586,-3.8228423595428467,19.436067581176758,0.2548118233680725,1.790164589881897,-0.09097616374492645,0.0,0.0,0.0,0.0,0.0,0.0,0.0,-0.3978619843895924,0.0006037084526448936,-0.24594285172264166,0.4538608499975778,0.20652662430229424,-0.11720035096434536,-0.09843120523378304,1.054429200072127,0.324098568489677,-0.3925653492685888,-2.153504075062863,0.8647475372884007,2.465991662914471,0.5444870347893981,1.0544104758940245,0.3238615046091247,-0.39250456234122666,-2.153291787532338,0.8647539153680389,2.46587817577521,0.5445020185570556,0.00038822359217524887,0.0008251074284185098,0.000388678977489402,0.0011135858505223455,0.00014880640577683666,-1.0168511750144976e-05,-0.00032317615298811035,0.0,0.0,0.0,0.0,0.0,0.0,0.0,-1.8724178102447198e-05,-0.00023706388055227956,6.07869273621664e-05,0.000212287530525046,6.378079638214018e-06,-0.00011348713926118137,1.4983767657517078e-05,-0.00038822359217524887,-0.0008251074284185098,-0.000388678977489402,-0.0011135858505223455,-0.00014880640577683666,1.0168511750144976e-05,0.00032317615298811035,0.4029781222343445,34.11452865600586,3.8228423595428467,-19.436067581176758,-0.2548118233680725,-1.790164589881897,0.09097616374492645,0
19,0.08958029747009277,-0.3752071261405945,-34.09072494506836,-3.8228423595428467,19.487642288208008,0.2548118233680725,1.809390664100647,-0.09097616374492645,0.0,0.0,0.0,0.0,0.0,0.0,0.0,-0.40154378671770274,0.0022282731569621037,-0.25052682727992237,0.44875640845928333,0.20614752760340768,-0.11714747450238135,-0.09875119708534212,1.0544272513015782,0.32409689794480545,-0.3925679558686457,-2.1535076943782334,0.8647485794659822,2.4659895326615957,0.5444870391500407,1.0544104758940245,0.3238615046091247,-0.39250456234122666,-2.153291787532338,0.8647539153680389,2.46587817577521,0.5445020185570556,-0.0006469551654914726,0.0002535343666570721,-0.00011774535907697648,-0.0006073131520097452,0.00028050967413159806,-0.000657516980359018,-0.0002870599369241235,0.0,0.0,0.0,0.0,0.0,0.0,0.0,-1.677540755373741e-05,-0.00023539333568073362,6.339352741902005e-05,0.00021590684589556375,5.335902056757824e-06,-0.00011135688638574948,1.497940701489231e-05,0.0006469551654914726,-0.0002535343666570721,0.00011774535907697648,0.0006073131520097452,-0.00028050967413159806,0.000657516980359018,0.0002870599369241235,0.3752071261405945,34.09072494506836,3.8228423595428467,-19.487642288208008,-0.2548118233680725,-1.809390664100647,0.09097616374492645,0
20,0.09458327293395996,-0.3752071261405945,-34.09072494506836,-3.8228423595428467,19.487642288208008,0.2548118233680725,1.809390664100647,-0.09097616374492645,0.0,0.0,0.0,0.0,0.0,0.0,0.0,-0.40154378671770274,0.0022282731569621037,-0.25052682727992237,0.44875640845928333,0.20614752760340768,-0.11714747450238135,-0.09875119708534212,1.0544272513015782,0.32409689794480545,-0.3925679558686457,-2.1535076943782334,0.8647485794659822,2.4659895326615957,0.5444870391500407,1.0544104758940245,0.3238615046091247,-0.39250456234122666,-2.153291787532338,0.8647539153680389,2.46587817577521,0.5445020185570556,-0.0006469551654914726,0.0002535343666570721,-0.00011774535907697648,-0.0006073131520097452,0.00028050967413159806,-0.000657516980359018,-0.0002870599369241235,0.0,0.0,0.0,0.0,0.0,0.0,0.0,-1.677540755373741e-05,-0.00023539333568073362,6.339352741902005e-05,0.00021590684589556375,5.335902056757824e-06,-0.00011135688638574948,1.497940701489231e-05,0.0006469551654914726,-0.0002535343666570721,0.00011774535907697648,0.0006073131520097452,-0.00028050967413159806,0.000657516980359018,0.0002870599369241235,0.3752071261405945,34.09072494506836,3.8228423595428467,-19.487642288208008,-0.2548118233680725,-1.809390664100647,0.09097616374492645,0
21,0.0995781421661377,-0.3752071261405945,-34.09072494506836,-3.7990386486053467,19.459871292114258,0.2548118233680725,1.770938515663147,-0.12485067546367645,0.0,0.0,0.0,0.0,0.0,0.0,0.0,-0.3953237837061095,0.005474873919722049,-0.24734835914285405,0.4476058964142069,0.20594945213524415,-0.11681427490497433,-0.09854087565348689,1.054427252173708,0.3240968980538215,-0.3925699416254124,-2.1535057454987183,0.8647484777353771,2.4659906266389355,0.5444907986240336,1.0544104758940245,0.3238615046091247,-0.39250456234122666,-2.153291787532338,0.8647539153680389,2.46587817577521,0.5445020185570556,-0.0003230251416112372,0.0006338989349193252,-0.00041316906548655413,0.0004543267525638824,3.631254417085122e-05,0.0006166557583934362,0.0013476721471540898,0.0,0.0,0.0,0.0,0.0,0.0,0.0,-1.67762796834392e-05,-0.00023539344469680756,6.537928418576255e-05,0.0002139579663804625,5.4376326618088555e-06,-0.00011245086372557722,1.121993302199975e-05,0.0003230251416112372,-0.0006338989349193252,0.00041316906548655413,-0.0004543267525638824,-3.631254417085122e-05,-0.0006166557583934362,-0.0013476721471540898,0.3752071261405945,34.09072494506836,3.7990386486053467,-19.459871292114258,-0.2548118233680725,-1.770938515663147,0.12485067546367645,0
22,0.10454130172729492,-0.3752071261405945,-34.09072494506836,-3.7990386486053467,19.459871292114258,0.2548118233680725,1.770938515663147,-0.12485067546367645,0.0,0.0,0.0,0.0,0.0,0.0,0.0,-0.3953237837061095,0.005474873919722049,-0.24734835914285405,0.4476058964142069,0.20594945213524415,-0.11681427490497433,-0.09854087565348689,1.054427252173708,0.3240968980538215,-0.3925699416254124,-2.1535057454987183,0.8647484777353771,2.4659906266389355,0.5444907986240336,1.0544104758940245,0.3238615046091247,-0.39250456234122666,-2.153291787532338,0.8647539153680389,2.46587817577521,0.5445020185570556,-0.0003230251416112372,0.0006338989349193252,-0.00041316906548655413,0.0004543267525638824,3.631254417085122e-05,0.0006166557583934362,0.0013476721471540898,0.0,0.0,0.0,0.0,0.0,0.0,0.0,-1.67762796834392e-05,-0.00023539344469680756,6.537928418576255e-05,0.0002139579663804625,5.4376326618088555e-06,-0.00011245086372557722,1.121993302199975e-05,0.0003230251416112372,-0.0006338989349193252,0.00041316906548655413,-0.0004543267525638824,-3.631254417085122e-05,-0.0006166557583934362,-0.0013476721471540898,0.3752071261405945,34.09072494506836,3.7990386486053467,-19.459871292114258,-0.2548118233680725,-1.770938515663147,0.12485067546367645,0
23,0.10957694053649902,-0.3752071261405945,-34.09072494506836,-3.7990386486053467,19.459871292114258,0.2548118233680725,1.770938515663147,-0.12485067546367645,0.0,0.0,0.0,0.0,0.0,0.0,0.0,-0.3953237837061095,0.005474873919722049,-0.24734835914285405,0.4476058964142069,0.20594945213524415,-0.11681427490497433,-0.09854087565348689,1.054427252173708,0.3240968980538215,-0.3925699416254124,-2.1535057454987183,0.8647484777353771,2.4659906266389355,0.5444907986240336,1.0544104758940245,0.3238615046091247,-0.39250456234122666,-2.153291787532338,0.8647539153680389,2.46587817577521,0.5445020185570556,-0.0003230251416112372,0.0006338989349193252,-0.00041316906548655413,0.0004543267525638824,3.631254417085122e-05,0.0006166557583934362,0.0013476721471540898,0.0,0.0,0.0,0.0,0.0,0.0,0.0,-1.67762796834392e-05,-0.00023539344469680756,6.537928418576255e-05,0.0002139579663804625,5.4376326618088555e-06,-0.00011245086372557722,1.121993302199975e-05,0.0003230251416112372,-0.0006338989349193252,0.00041316906548655413,-0.0004543267525638824,-3.631254417085122e-05,-0.0006166557583934362,-0.0013476721471540898,0.3752071261405945,34.09072494506836,3.7990386486053467,-19.459871292114258,-0.2548118233680725,-1.770938515663147,0.12485067546367645,0
24,0.1145782470703125,-0.3752071261405945,-34.09072494506836,-3.7990386486053467,19.459871292114258,0.2548118233680725,1.770938515663147,-0.12485067546367645,0.0,0.0,0.0,0.0,0.0,0.0,0.0,-0.3953237837061095,0.005474873919722049,-0.24734835914285405,0.4476058964142069,0.20594945213524415,-0.11681427490497433,-0.09854087565348689,1.054427252173708,0.3240968980538215,-0.3925699416254124,-2.1535057454987183,0.8647484777353771,2.4659906266389355,0.5444907986240336,1.0544104758940245,0.3238615046091247,-0.39250456234122666,-2.153291787532338,0.8647539153680389,2.46587817577521,0.5445020185570556,-0.0003230251416112372,0.0006338989349193252,-0.00041316906548655413,0.0004543267525638824,3.631254417085122e-05,0.0006166557583934362,0.0013476721471540898,0.0,0.0,0.0,0.0,0.0,0.0,0.0,-1.67762796834392e-05,-0.00023539344469680756,6.537928418576255e-05,0.0002139579663804625,5.4376326618088555e-06,-0.00011245086372557722,1.121993302199975e-05,0.0003230251416112372,-0.0006338989349193252,0.00041316906548655413,-0.0004543267525638824,-3.631254417085122e-05,-0.0006166557583934362,-0.0013476721471540898,0.3752071261405945,34.09072494506836,3.7990386486053467,-19.459871292114258,-0.2548118233680725,-1.770938515663147,0.12485067546367645,0
25,0.11958122253417969,-0.4029781222343445,-34.09072494506836,-3.8228423595428467,19.459871292114258,0.2667136788368225,1.783755898475647,-0.11844198405742645,0.0,0.0,0.0,0.0,0.0,0.0,0.0,-0.4050911107006452,0.003349295078545157,-0.2564601637274458,0.4472850641206715,0.2065010120631669,-0.11662528873031412,-0.09896204258035024,1.0544294413964161,0.3240968980538217,-0.39256826251359905,-2.153505745536403,0.8647440936450169,2.4659891981605297,0.5444911466698485,1.0544104758940245,0.3238615046091247,-0.39250456234122666,-2.153291787532338,0.8647539153680389,2.46587817577521,0.5445020185570556,-0.0002025777256738981,0.0008005310272585209,0.0001676918127128695,0.0003526458439322889,-0.0002865817838501626,-7.84983628770517e-05,0.00037756256860078724,0.0,0.0,0.0,0.0,0.0,0.0,0.0,-1.8965502391665723e-05,-0.0002353934446969741,6.3700172372394e-05,0.00021395800406498466,9.821723021996576e-06,-0.00011102238531979225,1.0871887207053454e-05,0.0002025777256738981,-0.0008005310272585209,-0.0001676918127128695,-0.0003526458439322889,0.0002865817838501626,7.84983628770517e-05,-0.00037756256860078724,0.4029781222343445,34.09072494506836,3.8228423595428467,-19.459871292114258,-0.2667136788368225,-1.783755898475647,0.11844198405742645,0
26,0.12458539009094238,-0.4029781222343445,-34.09072494506836,-3.8228423595428467,19.459871292114258,0.2667136788368225,1.783755898475647,-0.11844198405742645,0.0,0.0,0.0,0.0,0.0,0.0,0.0,-0.4050911107006452,0.003349295078545157,-0.2564601637274458,0.4472850641206715,0.2065010120631669,-0.11662528873031412,-0.09896204258035024,1.0544294413964161,0.3240968980538217,-0.39256826251359905,-2.153505745536403,0.8647440936450169,2.4659891981605297,0.5444911466698485,1.0544104758940245,0.3238615046091247,-0.39250456234122666,-2.153291787532338,0.8647539153680389,2.46587817577521,0.5445020185570556,-0.0002025777256738981,0.0008005310272585209,0.0001676918127128695,0.0003526458439322889,-0.0002865817838501626,-7.84983628770517e-05,0.00037756256860078724,0.0,0.0,0.0,0.0,0.0,0.0,0.0,-1.8965502391665723e-05,-0.0002353934446969741,6.3700172372394e-05,0.00021395800406498466,9.821723021996576e-06,-0.00011102238531979225,1.0871887207053454e-05,0.0002025777256738981,-0.0008005310272585209,-0.0001676918127128695,-0.0003526458439322889,0.0002865817838501626,7.84983628770517e-05,-0.00037756256860078724,0.4029781222343445,34.09072494506836,3.8228423595428467,-19.459871292114258,-0.2667136788368225,-1.783755898475647,0.11844198405742645,0
27,0.12966609001159668,-0.3752071261405945,-34.06295394897461,-3.8228423595428467,19.459871292114258,0.2603049874305725,1.796573281288147,-0.12485067546367645,0.0,0.0,0.0,0.0,0.0,0.0,0.0,-0.3959627306331685,-0.0011056700424497648,-0.24943222927344164,0.45032656337675375,0.20659160982684047,-0.11696147527375114,-0.10095482566024826,1.0544272541364548,0.32409494921199056,-0.3925679553660789,-2.153505467750389,0.8647476333383275,2.4659908395383634,0.5444908378718769,1.0544104758940245,0.3238615046091247,-0.39250456234122666,-2.153291787532338,0.8647539153680389,2.46587817577521,0.5445020185570556,-0.0002933616197879721,-5.397868331322725e-05,-0.00024653470346351104,0.00019855522349040804,-0.00012832804021613772,-0.00020272999280850835,0.0013017402652050556,0.0,0.0,0.0,0.0,0.0,0.0,0.0,-1.6778242430293133e-05,-0.0002334446028658399,6.339302485225407e-05,0.0002136802180512376,6.282029711424109e-06,-0.00011266376315344218,1.1180685178691085e-05,0.0002933616197879721,5.397868331322725e-05,0.00024653470346351104,-0.00019855522349040804,0.00012832804021613772,0.00020272999280850835,-0.0013017402652050556,0.3752071261405945,34.06295394897461,3.8228423595428467,-19.459871292114258,-0.2603049874305725,-1.796573281288147,0.12485067546367645,0
28,0.1345837116241455,-0.3752071261405945,-34.06295394897461,-3.8228423595428467,19.459871292114258,0.2603049874305725,1.796573281288147,-0.12485067546367645,0.0,0.0,0.0,0.0,0.0,0.0,0.0,-0.3959627306331685,-0.0011056700424497648,-0.24943222927344164,0.45032656337675375,0.20659160982684047,-0.11696147527375114,-0.10095482566024826,1.0544272541364548,0.32409494921199056,-0.3925679553660789,-2.153505467750389,0.8647476333383275,2.4659908395383634,0.5444908378718769,1.0544104758940245,0.3238615046091247,-0.39250456234122666,-2.153291787532338,0.8647539153680389,2.46587817577521,0.5445020185570556,-0.0002933616197879721,-5.397868331322725e-05,-0.00024653470346351104,0.00019855522349040804,-0.00012832804021613772,-0.00020272999280850835,0.0013017402652050556,0.0,0.0,0.0,0.0,0.0,0.0,0.0,-1.6778242430293133e-05,-0.0002334446028658399,6.339302485225407e-05,0.0002136802180512376,6.282029711424109e-06,-0.00011266376315344218,1.1180685178691085e-05,0.0002933616197879721,5.397868331322725e-05,0.00024653470346351104,-0.00019855522349040804,0.00012832804021613772,0.00020272999280850835,-0.0013017402652050556,0.3752071261405945,34.06295394897461,3.8228423595428467,-19.459871292114258,-0.2603049874305725,-1.796573281288147,0.12485067546367645,0
29,0.13957929611206055,-0.4267818331718445,-34.03915023803711,-3.8228423595428467,19.436067581176758,0.2603049874305725,1.790164589881897,-0.09097616374492645,0.0,0.0,0.0,0.0,0.0,0.0,0.0,-0.40570119860484644,0.000922747404192848,-0.2592089399215342,0.44775177309200564,0.20706772581756897,-0.11596471496997433,-0.10082108149111794,1.054430871451444,0.3240932777949889,-0.39256590043425493,-2.1535040659384763,0.8647479733255278,2.465991551637127,0.5444902529502993,1.0544104758940245,0.3238615046091247,-0.39250456234122666,-2.153291787532338,0.8647539153680389,2.46587817577521,0.5445020185570556,3.090567022614451e-05,-0.0006625303988001865,-0.00016028900198348744,0.0009609167117490031,3.6537658071332134e-05,-0.0001799038629178817,-0.0003876810218604256,0.0,0.0,0.0,0.0,0.0,0.0,0.0,-2.039555741961685e-05,-0.0002317731858642036,6.133809302827364e-05,0.00021227840613846638,5.942042511142276e-06,-0.00011337586191695337,1.1765606756308777e-05,-3.090567022614451e-05,0.0006625303988001865,0.00016028900198348744,-0.0009609167117490031,-3.6537658071332134e-05,0.0001799038629178817,0.0003876810218604256,0.4267818331718445,34.03915023803711,3.8228423595428467,-19.436067581176758,-0.2603049874305725,-1.790164589881897,0.09097616374492645,0
30,0.1445910930633545,-0.4267818331718445,-34.03915023803711,-3.8228423595428467,19.436067581176758,0.2603049874305725,1.790164589881897,-0.09097616374492645,0.0,0.0,0.0,0.0,0.0,0.0,0.0,-0.40570119860484644,0.000922747404192848,-0.2592089399215342,0.44775177309200564,0.20706772581756897,-0.11596471496997433,-0.10082108149111794,1.054430871451444,0.3240932777949889,-0.39256590043425493,-2.1535040659384763,0.8647479733255278,2.465991551637127,0.5444902529502993,1.0544104758940245,0.3238615046091247,-0.39250456234122666,-2.153291787532338,0.8647539153680389,2.46587817577521,0.5445020185570556,3.090567022614451e-05,-0.0006625303988001865,-0.00016028900198348744,0.0009609167117490031,3.6537658071332134e-05,-0.0001799038629178817,-0.0003876810218604256,0.0,0.0,0.0,0.0,0.0,0.0,0.0,-2.039555741961685e-05,-0.0002317731858642036,6.133809302827364e-05,0.00021227840613846638,5.942042511142276e-06,-0.00011337586191695337,1.1765606756308777e-05,-3.090567022614451e-05,0.0006625303988001865,0.00016028900198348744,-0.0009609167117490031,-3.6537658071332134e-05,0.0001799038629178817,0.0003876810218604256,0.4267818331718445,34.03915023803711,3.8228423595428467,-19.436067581176758,-0.2603049874305725,-1.790164589881897,0.09097616374492645,0
31,0.1496286392211914,-0.4029781222343445,-34.09072494506836,-3.7752349376678467,19.487642288208008,0.2667136788368225,1.783755898475647,-0.13858358561992645,0.0,0.0,0.0,0.0,0.0,0.0,0.0,-0.3899474845524117,-0.0009184175263967542,-0.24357768498419036,0.4504529865818116,0.20675189753604217,-0.11760149445189072,-0.10023168476347968,1.0544314345529615,0.32409689805381986,-0.3925716120574,-2.153507691325761,0.8647460971044756,2.4659913198770957,0.544492324993504,1.0544104758940245,0.3238615046091247,-0.39250456234122666,-2.153291787532338,0.8647539153680389,2.46587817577521,0.5445020185570556,2.872834466545026e-05,0.0002131273968651938,-0.0007150197497300153,-0.00037660365989085424,-0.0002006208089478619,0.00031730819810330316,0.0015165476448861079,0.0,0.0,0.0,0.0,0.0,0.0,0.0,-2.0958658937031416e-05,-0.00023539344469514223,6.704971617332856e-05,0.00021590379342306676,7.818263563330596e-06,-0.00011314410188578705,9.693563551627093e-06,-2.872834466545026e-05,-0.0002131273968651938,0.0007150197497300153,0.00037660365989085424,0.0002006208089478619,-0.00031730819810330316,-0.0015165476448861079,0.4029781222343445,34.09072494506836,3.7752349376678467,-19.487642288208008,-0.2667136788368225,-1.783755898475647,0.13858358561992645,0
32,0.15458893775939941,-0.4029781222343445,-34.09072494506836,-3.7752349376678467,19.487642288208008,0.2667136788368225,1.783755898475647,-0.13858358561992645,0.0,0.0,0.0,0.0,0.0,0.0,0.0,-0.3899474845524117,-0.0009184175263967542,-0.24357768498419036,0.4504529865818116,0.20675189753604217,-0.11760149445189072,-0.10023168476347968,1.0544314345529615,0.32409689805381986,-0.3925716120574,-2.153507691325761,0.8647460971044756,2.4659913198770957,0.544492324993504,1.0544104758940245,0.3238615046091247,-0.39250456234122666,-2.153291787532338,0.8647539153680389,2.46587817577521,0.5445020185570556,2.872834466545026e-05,0.0002131273968651938,-0.0007150197497300153,-0.00037660365989085424,-0.0002006208089478619,0.00031730819810330316,0.0015165476448861079,0.0,0.0,0.0,0.0,0.0,0.0,0.0,-2.0958658937031416e-05,-0.00023539344469514223,6.704971617332856e-05,0.00021590379342306676,7.818263563330596e-06,-0.00011314410188578705,9.693563551627093e-06,-2.872834466545026e-05,-0.0002131273968651938,0.0007150197497300153,0.00037660365989085424,0.0002006208089478619,-0.00031730819810330316,-0.0015165476448861079,0.4029781222343445,34.09072494506836,3.7752349376678467,-19.487642288208008,-0.2667136788368225,-1.783755898475647,0.13858358561992645,0
33,0.15963125228881836,-0.4029781222343445,-34.06295394897461,-3.7752349376678467,19.487642288208008,0.2603049874305725,1.783755898475647,-0.11844198405742645,0.0,0.0,0.0,0.0,0.0,0.0,0.0,-0.3981113560021235,0.011688565960142784,-0.24940237542144644,0.4411466356778972,0.20734837276435533,-0.11834645605991227,-0.09954726639147364,1.0544292099674868,0.32409494921199056,-0.3925716111978057,-2.15350768522085,0.8647476331941059,2.465992381447521,0.5444901262775786,1.0544104758940245,0.3238615046091247,-0.39250456234122666,-2.153291787532338,0.8647539153680389,2.46587817577521,0.5445020185570556,0.00012174213561810109,0.0005791347843169702,-0.0008865071057553136,-0.0005765315039997403,2.8538090834305847e-05,-5.0545213415759326e-05,0.0007854759489920899,0.0,0.0,0.0,0.0,0.0,0.0,0.0,-1.873407346231204e-05,-0.0002334446028658399,6.704885657904391e-05,0.00021589768851226765,6.282173933058743e-06,-0.00011420567231112955,1.1892279476954926e-05,-0.00012174213561810109,-0.0005791347843169702,0.0008865071057553136,0.0005765315039997403,-2.8538090834305847e-05,5.0545213415759326e-05,-0.0007854759489920899,0.4029781222343445,34.06295394897461,3.7752349376678467,-19.487642288208008,-0.2603049874305725,-1.783755898475647,0.11844198405742645,0
34,0.1645820140838623,-0.4029781222343445,-34.06295394897461,-3.7752349376678467,19.487642288208008,0.2603049874305725,1.783755898475647,-0.11844198405742645,0.0,0.0,0.0,0.0,0.0,0.0,0.0,-0.3981113560021235,0.011688565960142784,-0.24940237542144644,0.4411466356778972,0.20734837276435533,-0.11834645605991227,-0.09954726639147364,1.0544292099674868,0.32409494921199056,-0.3925716111978057,-2.15350768522085,0.8647476331941059,2.465992381447521,0.5444901262775786,1.0544104758940245,0.3238615046091247,-0.39250456234122666,-2.153291787532338,0.8647539153680389,2.46587817577521,0.5445020185570556,0.00012174213561810109,0.0005791347843169702,-0.0008865071057553136,-0.0005765315039997403,2.8538090834305847e-05,-5.0545213415759326e-05,0.0007854759489920899,0.0,0.0,0.0,0.0,0.0,0.0,0.0,-1.873407346231204e-05,-0.0002334446028658399,6.704885657904391e-05,0.00021589768851226765,6.282173933058743e-06,-0.00011420567231112955,1.1892279476954926e-05,-0.00012174213561810109,-0.0005791347843169702,0.0008865071057553136,0.0005765315039997403,-2.8538090834305847e-05,5.0545213415759326e-05,-0.0007854759489920899,0.4029781222343445,34.06295394897461,3.7752349376678467,-19.487642288208008,-0.2603049874305725,-1.783755898475647,0.11844198405742645,0
35,0.16957902908325195,-0.4029781222343445,-34.06295394897461,-3.7752349376678467,19.459871292114258,0.2603049874305725,1.783755898475647,-0.07724325358867645,0.0,0.0,0.0,0.0,0.0,0.0,0.0,-0.39162890392804306,-0.0020459942970258516,-0.24540852138763147,0.4477424012411465,0.2071821577689371,-0.11861341149405637,-0.10015115902518193,1.054431425419875,0.32409494921199056,-0.39257082479986366,-2.1535057455363513,0.8647479473271161,2.465992380915162,0.5444856266482779,1.0544104758940245,0.3238615046091247,-0.39250456234122666,-2.153291787532338,0.8647539153680389,2.46587817577521,0.5445020185570556,0.0005905945785943326,-0.00013444146510747723,-0.0005912762431558923,0.00011437538611403129,-0.0003131160861408092,0.00013855737115607347,-0.0004780658742498322,0.0,0.0,0.0,0.0,0.0,0.0,0.0,-2.094952585052212e-05,-0.0002334446028658399,6.626245863700087e-05,0.00021395800401347032,5.9680409227880205e-06,-0.00011420513995208381,1.6391908777668718e-05,-0.0005905945785943326,0.00013444146510747723,0.0005912762431558923,-0.00011437538611403129,0.0003131160861408092,-0.00013855737115607347,0.0004780658742498322,0.4029781222343445,34.06295394897461,3.7752349376678467,-19.459871292114258,-0.2603049874305725,-1.783755898475647,0.07724325358867645,0
36,0.17458343505859375,-0.4029781222343445,-34.06295394897461,-3.7752349376678467,19.459871292114258,0.2603049874305725,1.783755898475647,-0.07724325358867645,0.0,0.0,0.0,0.0,0.0,0.0,0.0,-0.39162890392804306,-0.0020459942970258516,-0.24540852138763147,0.4477424012411465,0.2071821577689371,-0.11861341149405637,-0.10015115902518193,1.054431425419875,0.32409494921199056,-0.39257082479986366,-2.1535057455363513,0.8647479473271161,2.465992380915162,0.5444856266482779,1.0544104758940245,0.3238615046091247,-0.39250456234122666,-2.153291787532338,0.8647539153680389,2.46587817577521,0.5445020185570556,0.0005905945785943326,-0.00013444146510747723,-0.0005912762431558923,0.00011437538611403129,-0.0003131160861408092,0.00013855737115607347,-0.0004780658742498322,0.0,0.0,0.0,0.0,0.0,0.0,0.0,-2.094952585052212e-05,-0.0002334446028658399,6.626245863700087e-05,0.00021395800401347032,5.9680409227880205e-06,-0.00011420513995208381,1.6391908777668718e-05,-0.0005905945785943326,0.00013444146510747723,0.0005912762431558923,-0.00011437538611403129,0.0003131160861408092,-0.00013855737115607347,0.0004780658742498322,0.4029781222343445,34.06295394897461,3.7752349376678467,-19.459871292114258,-0.2603049874305725,-1.783755898475647,0.07724325358867645,0
37,0.1795790195465088,-0.3752071261405945,-34.06295394897461,-3.7990386486053467,19.487642288208008,0.2603049874305725,1.796573281288147,-0.07724325358867645,0.0,0.0,0.0,0.0,0.0,0.0,0.0,-0.38486580874012805,0.004848730039813119,-0.240167042780305,0.44214503226815827,0.20603532635757849,-0.11939896067467774,-0.10056193900187448,1.0544275161397807,0.32409494921199056,-0.3925696967611234,-2.153507694378234,0.8647479473284464,2.4659909571383536,0.5444855089124776,1.0544104758940245,0.3238615046091247,-0.39250456234122666,-2.153291787532338,0.8647539153680389,2.46587817577521,0.5445020185570556,0.0001111957459730572,0.00015837826268827487,2.4013747221524607e-05,-0.0009682860638852925,-7.859064897937625e-05,-0.00035103688216228494,-0.0009459582147572453,0.0,0.0,0.0,0.0,0.0,0.0,0.0,-1.7040245756216876e-05,-0.0002334446028658399,6.513441989675073e-05,0.00021590684589600784,5.968039592518792e-06,-0.00011278136314363252,1.650964457799997e-05,-0.0001111957459730572,-0.00015837826268827487,-2.4013747221524607e-05,0.0009682860638852925,7.859064897937625e-05,0.00035103688216228494,0.0009459582147572453,0.3752071261405945,34.06295394897461,3.7990386486053467,-19.487642288208008,-0.2603049874305725,-1.796573281288147,0.07724325358867645,0
38,0.18458199501037598,-0.3752071261405945,-34.06295394897461,-3.7990386486053467,19.487642288208008,0.2603049874305725,1.796573281288147,-0.07724325358867645,0.0,0.0,0.0,0.0,0.0,0.0,0.0,-0.38486580874012805,0.004848730039813119,-0.240167042780305,0.44214503226815827,0.20603532635757849,-0.11939896067467774,-0.10056193900187448,1.0544275161397807,0.32409494921199056,-0.3925696967611234,-2.153507694378234,0.8647479473284464,2.4659909571383536,0.5444855089124776,1.0544104758940245,0.3238615046091247,-0.39250456234122666,-2.153291787532338,0.8647539153680389,2.46587817577521,0.5445020185570556,0.0001111957459730572,0.00015837826268827487,2.4013747221524607e-05,-0.0009682860638852925,-7.859064897937625e-05,-0.00035103688216228494,-0.0009459582147572453,0.0,0.0,0.0,0.0,0.0,0.0,0.0,-1.7040245756216876e-05,-0.0002334446028658399,6.513441989675073e-05,0.00021590684589600784,5.968039592518792e-06,-0.00011278136314363252,1.650964457799997e-05,-0.0001111957459730572,-0.00015837826268827487,-2.4013747221524607e-05,0.0009682860638852925,7.859064897937625e-05,0.00035103688216228494,0.0009459582147572453,0.3752071261405945,34.06295394897461,3.7990386486053467,-19.487642288208008,-0.2603049874305725,-1.796573281288147,0.07724325358867645,0
39,0.18958449363708496,-0.4029781222343445,-34.09072494506836,-3.7514312267303467,19.459871292114258,0.2603049874305725,1.777347207069397,-0.08365194499492645,0.0,0.0,0.0,0.0,0.0,0.0,0.0,-0.38821937672291784,-0.005961729683780738,-0.24384560141779493,0.44692920953245596,0.2058368984786011,-0.11817077774106945,-0.10039176613617885,1.0544313487455421,0.3240968951103825,-0.39257034276657926,-2.1535057170342564,0.8647479865569487,2.4659930935303365,0.5444862210411419,1.0544104758940245,0.3238615046091247,-0.39250456234122666,-2.153291787532338,0.8647539153680389,2.46587817577521,0.5445020185570556,0.0003498874810705025,0.00022988467539126098,-0.001488126333351455,0.0004893193004770742,6.624294277004497e-05,0.00033789387187370585,-0.0004197178009882366,0.0,0.0,0.0,0.0,0.0,0.0,0.0,-2.087285151763929e-05,-0.0002353905012577595,6.578042535260176e-05,0.00021392950191856386,5.928811090183395e-06,-0.00011491775512650904,1.5797515913740234e-05,-0.0003498874810705025,-0.00022988467539126098,0.001488126333351455,-0.0004893193004770742,-6.624294277004497e-05,-0.00033789387187370585,0.0004197178009882366,0.4029781222343445,34.09072494506836,3.7514312267303467,-19.459871292114258,-0.2603049874305725,-1.777347207069397,0.08365194499492645,0
40,0.1945972442626953,-0.4029781222343445,-34.09072494506836,-3.7514312267303467,19.459871292114258,0.2603049874305725,1.777347207069397,-0.08365194499492645,0.0,0.0,0.0,0.0,0.0,0.0,0.0,-0.38821937672291784,-0.005961729683780738,-0.24384560141779493,0.44692920953245596,0.2058368984786011,-0.11817077774106945,-0.10039176613617885,1.0544313487455421,0.3240968951103825,-0.39257034276657926,-2.1535057170342564,0.8647479865569487,2.4659930935303365,0.5444862210411419,1.0544104758940245,0.3238615046091247,-0.39250456234122666,-2.153291787532338,0.8647539153680389,2.46587817577521,0.5445020185570556,0.0003498874810705025,0.00022988467539126098,-0.001488126333351455,0.0004893193004770742,6.624294277004497e-05,0.00033789387187370585,-0.0004197178009882366,0.0,0.0,0.0,0.0,0.0,0.0,0.0,-2.087285151763929e-05,-0.0002353905012577595,6.578042535260176e-05,0.00021392950191856386,5.928811090183395e-06,-0.00011491775512650904,1.5797515913740234e-05,-0.0003498874810705025,-0.00022988467539126098,0.001488126333351455,-0.0004893193004770742,-6.624294277004497e-05,-0.00033789387187370585,0.0004197178009882366,0.4029781222343445,34.09072494506836,3.7514312267303467,-19.459871292114258,-0.2603049874305725,-1.777347207069397,0.08365194499492645,0
41,0.19959163665771484,-0.4029781222343445,-34.06295394897461,-3.7990386486053467,19.487642288208008,0.2722068428993225,1.790164589881897,-0.09738485515117645,0.0,0.0,0.0,0.0,0.0,0.0,0.0,-0.3923691365324086,0.005874641216054448,-0.2449507320157341,0.43929693598941516,0.20645568651936017,-0.11888674237130824,-0.09947675784490152,1.0544294394462475,0.32409494921197396,-0.3925698596322048,-2.153507694378073,0.8647465464090123,2.4659916688921744,0.5444877473507299,1.0544104758940245,0.3238615046091247,-0.39250456234122666,-2.153291787532338,0.8647539153680389,2.46587817577521,0.5445020185570556,0.0004933107867558621,0.0001666394764699805,-0.0004032592246163078,-0.0005251117741976787,-0.00034667014210878225,-0.00023983983775295934,-0.0005560271343130457,0.0,0.0,0.0,0.0,0.0,0.0,0.0,-1.8963552222972524e-05,-0.00023344460284924207,6.529729097815018e-05,0.00021590684573524754,7.3689590266434735e-06,-0.00011349311696440267,1.4271206325688901e-05,-0.0004933107867558621,-0.0001666394764699805,0.0004032592246163078,0.0005251117741976787,0.00034667014210878225,0.00023983983775295934,0.0005560271343130457,0.4029781222343445,34.06295394897461,3.7990386486053467,-19.487642288208008,-0.2722068428993225,-1.790164589881897,0.09738485515117645,0
42,0.20458698272705078,-0.4029781222343445,-34.06295394897461,-3.7990386486053467,19.487642288208008,0.2722068428993225,1.790164589881897,-0.09738485515117645,0.0,0.0,0.0,0.0,0.0,0.0,0.0,-0.3923691365324086,0.005874641216054448,-0.2449507320157341,0.43929693598941516,0.20645568651936017,-0.11888674237130824,-0.09947675784490152,1.0544294394462475,0.32409494921197396,-0.3925698596322048,-2.153507694378073,0.8647465464090123,2.4659916688921744,0.5444877473507299,1.0544104758940245,0.3238615046091247,-0.39250456234122666,-2.153291787532338,0.8647539153680389,2.46587817577521,0.5445020185570556,0.0004933107867558621,0.0001666394764699805,-0.0004032592246163078,-0.0005251117741976787,-0.00034667014210878225,-0.00023983983775295934,-0.0005560271343130457,0.0,0.0,0.0,0.0,0.0,0.0,0.0,-1.8963552222972524e-05,-0.00023344460284924207,6.529729097815018e-05,0.00021590684573524754,7.3689590266434735e-06,-0.00011349311696440267,1.4271206325688901e-05,-0.0004933107867558621,-0.0001666394764699805,0.0004032592246163078,0.0005251117741976787,0.00034667014210878225,0.00023983983775295934,0.0005560271343130457,0.4029781222343445,34.06295394897461,3.7990386486053467,-19.487642288208008,-0.2722068428993225,-1.790164589881897,0.09738485515117645,0
43,0.20958757400512695,-0.4029781222343445,-34.09072494506836,-3.8506133556365967,19.487642288208008,0.2548118233680725,1.777347207069397,-0.11111776530742645,0.0,0.0,0.0,0.0,0.0,0.0,0.0,-0.38896847879194435,-0.002776512567748254,-0.2429135249221209,0.44895873516214346,0.20680885777189287,-0.11830570975693959,-0.09956204813690854,1.054432061058693,0.3240968980538217,-0.39256631921565716,-2.153507694378234,0.8647485911116646,2.465992923464955,0.5444892727451218,1.0544104758940245,0.3238615046091247,-0.39250456234122666,-2.153291787532338,0.8647539153680389,2.46587817577521,0.5445020185570556,0.0003445234072193617,0.0004346252984147123,0.0009218349416760343,0.0003176116572914376,6.621046019809093e-05,0.00042398611362809245,0.00016932600885107666,0.0,0.0,0.0,0.0,0.0,0.0,0.0,-2.1585164668547208e-05,-0.0002353934446969741,6.175687443049638e-05,0.00021590684589600784,5.32425637433942e-06,-0.00011474768974517602,1.2745811933778661e-05,-0.0003445234072193617,-0.0004346252984147123,-0.0009218349416760343,-0.0003176116572914376,-6.621046019809093e-05,-0.00042398611362809245,-0.00016932600885107666,0.4029781222343445,34.09072494506836,3.8506133556365967,-19.487642288208008,-0.2548118233680725,-1.777347207069397,0.11111776530742645,0
44,0.21461749076843262,-0.4029781222343445,-34.09072494506836,-3.8506133556365967,19.487642288208008,0.2548118233680725,1.777347207069397,-0.11111776530742645,0.0,0.0,0.0,0.0,0.0,0.0,0.0,-0.38896847879194435,-0.002776512567748254,-0.2429135249221209,0.44895873516214346,0.20680885777189287,-0.11830570975693959,-0.09956204813690854,1.054432061058693,0.3240968980538217,-0.39256631921565716,-2.153507694378234,0.8647485911116646,2.465992923464955,0.5444892727451218,1.0544104758940245,0.3238615046091247,-0.39250456234122666,-2.153291787532338,0.8647539153680389,2.46587817577521,0.5445020185570556,0.0003445234072193617,0.0004346252984147123,0.0009218349416760343,0.0003176116572914376,6.621046019809093e-05,0.00042398611362809245,0.00016932600885107666,0.0,0.0,0.0,0.0,0.0,0.0,0.0,-2.1585164668547208e-05,-0.0002353934446969741,6.175687443049638e-05,0.00021590684589600784,5.32425637433942e-06,-0.00011474768974517602,1.2745811933778661e-05,-0.0003445234072193617,-0.0004346252984147123,-0.0009218349416760343,-0.0003176116572914376,-6.621046019809093e-05,-0.00042398611362809245,-0.00016932600885107666,0.4029781222343445,34.09072494506836,3.8506133556365967,-19.487642288208008,-0.2548118233680725,-1.777347207069397,0.11111776530742645,0
45,0.21958231925964355,-0.4029781222343445,-34.09072494506836,-3.8506133556365967,19.487642288208008,0.2548118233680725,1.777347207069397,-0.11111776530742645,0.0,0.0,0.0,0.0,0.0,0.0,0.0,-0.38896847879194435,-0.002776512567748254,-0.2429135249221209,0.44895873516214346,0.20680885777189287,-0.11830570975693959,-0.09956204813690854,1.054432061058693,0.3240968980538217,-0.39256631921565716,-2.153507694378234,0.8647485911116646,2.465992923464955,0.5444892727451218,1.0544104758940245,0.3238615046091247,-0.39250456234122666,-2.153291787532338,0.8647539153680389,2.46587817577521,0.5445020185570556,0.0003445234072193617,0.0004346252984147123,0.0009218349416760343,0.0003176116572914376,6.621046019809093e-05,0.00042398611362809245,0.00016932600885107666,0.0,0.0,0.0,0.0,0.0,0.0,0.0,-2.1585164668547208e-05,-0.0002353934446969741,6.175687443049638e-05,0.00021590684589600784,5.32425637433942e-06,-0.00011474768974517602,1.2745811933778661e-05,-0.0003445234072193617,-0.0004346252984147123,-0.0009218349416760343,-0.0003176116572914376,-6.621046019809093e-05,-0.00042398611362809245,-0.00016932600885107666,0.4029781222343445,34.09072494506836,3.8506133556365967,-19.487642288208008,-0.2548118233680725,-1.777347207069397,0.11111776530742645,0
46,0.22453618049621582,-0.4029781222343445,-34.09072494506836,-3.8506133556365967,19.487642288208008,0.2548118233680725,1.777347207069397,-0.11111776530742645,0.0,0.0,0.0,0.0,0.0,0.0,0.0,-0.38896847879194435,-0.002776512567748254,-0.2429135249221209,0.44895873516214346,0.20680885777189287,-0.11830570975693959,-0.09956204813690854,1.054432061058693,0.3240968980538217,-0.39256631921565716,-2.153507694378234,0.8647485911116646,2.465992923464955,0.5444892727451218,1.0544104758940245,0.3238615046091247,-0.39250456234122666,-2.153291787532338,0.8647539153680389,2.46587817577521,0.5445020185570556,0.0003445234072193617,0.0004346252984147123,0.0009218349416760343,0.0003176116572914376,6.621046019809093e-05,0.00042398611362809245,0.00016932600885107666,0.0,0.0,0.0,0.0,0.0,0.0,0.0,-2.1585164668547208e-05,-0.0002353934446969741,6.175687443049638e-05,0.00021590684589600784,5.32425637433942e-06,-0.00011474768974517602,1.2745811933778661e-05,-0.0003445234072193617,-0.0004346252984147123,-0.0009218349416760343,-0.0003176116572914376,-6.621046019809093e-05,-0.00042398611362809245,-0.00016932600885107666,0.4029781222343445,34.09072494506836,3.8506133556365967,-19.487642288208008,-0.2548118233680725,-1.777347207069397,0.11111776530742645,0
47,0.22958898544311523,-0.4029781222343445,-34.06295394897461,-3.7990386486053467,19.459871292114258,0.2484031319618225,1.783755898475647,-0.13217489421367645,0.0,0.0,0.0,0.0,0.0,0.0,0.0,-0.39251536733015185,0.00936694290936872,-0.2446575855764452,0.4443930371171798,0.20647729852618074,-0.11854986748027445,-0.09990028866435666,1.054429200472252,0.32409494921199056,-0.3925699414099902,-2.153505745536403,0.8647493088358622,2.4659923402156485,0.5444926735177883,1.0544104758940245,0.3238615046091247,-0.39250456234122666,-2.153291787532338,0.8647539153680389,2.46587817577521,0.5445020185570556,-5.762136039887523e-06,0.00017490912624281517,-0.0004265442337893963,0.0007082164148027552,0.0005387313236812513,0.00017562880325966052,0.001826244448690583,0.0,0.0,0.0,0.0,0.0,0.0,0.0,-1.8724578227491406e-05,-0.0002334446028658399,6.537906876352695e-05,0.00021395800406498466,4.606532176709699e-06,-0.00011416444043854668,9.345039267305566e-06,5.762136039887523e-06,-0.00017490912624281517,0.0004265442337893963,-0.0007082164148027552,-0.0005387313236812513,-0.00017562880325966052,-0.001826244448690583,0.4029781222343445,34.06295394897461,3.7990386486053467,-19.459871292114258,-0.2484031319618225,-1.783755898475647,0.13217489421367645,0
48,0.23457980155944824,-0.4029781222343445,-34.06295394897461,-3.7990386486053467,19.459871292114258,0.2484031319618225,1.783755898475647,-0.13217489421367645,0.0,0.0,0.0,0.0,0.0,0.0,0.0,-0.39251536733015185,0.00936694290936872,-0.2446575855764452,0.4443930371171798,0.20647729852618074,-0.11854986748027445,-0.09990028866435666,1.054429200472252,0.32409494921199056,-0.3925699414099902,-2.153505745536403,0.8647493088358622,2.4659923402156485,0.5444926735177883,1.0544104758940245,0.3238615046091247,-0.39250456234122666,-2.153291787532338,0.8647539153680389,2.46587817577521,0.5445020185570556,-5.762136039887523e-06,0.00017490912624281517,-0.0004265442337893963,0.0007082164148027552,0.0005387313236812513,0.00017562880325966052,0.001826244448690583,0.0,0.0,0.0,0.0,0.0,0.0,0.0,-1.8724578227491406e-05,-0.0002334446028658399,6.537906876352695e-05,0.00021395800406498466,4.606532176709699e-06,-0.00011416444043854668,9.345039267305566e-06,5.762136039887523e-06,-0.00017490912624281517,0.0004265442337893963,-0.0007082164148027552,-0.0005387313236812513,-0.00017562880325966052,-0.001826244448690583,0.4029781222343445,34.06295394897461,3.7990386486053467,-19.459871292114258,-0.2484031319618225,-1.783755898475647,0.13217489421367645,0
49,0.2395801544189453,-0.4029781222343445,-34.11452865600586,-3.8506133556365967,19.511445999145508,0.2548118233680725,1.783755898475647,-0.11844198405742645,0.0,0.0,0.0,0.0,0.0,0.0,0.0,-0.39277707698228076,0.007206417088383473,-0.2432553632147896,0.4478401720397218,0.20616470795832018,-0.11837378750071481,-0.09930594629046634,1.0544292000343949,0.3240983300710979,-0.3925634840360816,-2.1535093647764048,0.8647475372345647,2.4659923378467736,0.5444902173727145,1.0544104758940245,0.3238615046091247,-0.39250456234122666,-2.153291787532338,0.8647539153680389,2.46587817577521,0.5445020185570556,0.00015286674150846448,0.0014727236547872177,0.0005193483407902793,-0.001164231696731494,0.0003022299734772606,0.0001831257250482224,0.0017183884064382014,0.0,0.0,0.0,0.0,0.0,0.0,0.0,-1.8724140370407483e-05,-0.000236825461973178,5.892169485494092e-05,0.00021757724406690215,6.37813347426075e-06,-0.00011416207156367264,1.180118434107591e-05,-0.00015286674150846448,-0.0014727236547872177,-0.0005193483407902793,0.001164231696731494,-0.0003022299734772606,-0.0001831257250482224,-0.0017183884064382014,0.4029781222343445,34.11452865600586,3.8506133556365967,-19.511445999145508,-0.2548118233680725,-1.783755898475647,0.11844198405742645,0
50,0.24463152885437012,-0.4029781222343445,-34.11452865600586,-3.8506133556365967,19.511445999145508,0.2548118233680725,1.783755898475647,-0.11844198405742645,0.0,0.0,0.0,0.0,0.0,0.0,0.0,-0.39277707698228076,0.007206417088383473,-0.2432553632147896,0.4478401720397218,0.20616470795832018,-0.11837378750071481,-0.09930594629046634,1.0544292000343949,0.3240983300710979,-0.3925634840360816,-2.1535093647764048,0.8647475372345647,2.4659923378467736,0.5444902173727145,1.0544104758940245,0.3238615046091247,-0.39250456234122666,-2.153291787532338,0.8647539153680389,2.46587817577521,0.5445020185570556,0.00015286674150846448,0.0014727236547872177,0.0005193483407902793,-0.001164231696731494,0.0003022299734772606,0.0001831257250482224,0.0017183884064382014,0.0,0.0,0.0,0.0,0.0,0.0,0.0,-1.8724140370407483e-05,-0.000236825461973178,5.892169485494092e-05,0.00021757724406690215,6.37813347426075e-06,-0.00011416207156367264,1.180118434107591e-05,-0.00015286674150846448,-0.0014727236547872177,-0.0005193483407902793,0.001164231696731494,-0.0003022299734772606,-0.0001831257250482224,-0.0017183884064382014,0.4029781222343445,34.11452865600586,3.8506133556365967,-19.511445999145508,-0.2548118233680725,-1.783755898475647,0.11844198405742645,0
51,0.24959373474121094,-0.3752071261405945,-34.06295394897461,-3.8506133556365967,19.487642288208008,0.2548118233680725,1.790164589881897,-0.11844198405742645,0.0,0.0,0.0,0.0,0.0,0.0,0.0,-0.39712150763353044,0.008995706718098476,-0.2454450491352126,0.45059778705904663,0.206037547630073,-0.11782846485037167,-0.09797624678472663,1.0544272513015776,0.3240949492106447,-0.3925655234055638,-2.153507694039072,0.8647485969205482,2.465988084867703,0.544490090962427,1.0544104758940245,0.3238615046091247,-0.39250456234122666,-2.153291787532338,0.8647539153680389,2.46587817577521,0.5445020185570556,-0.0009502778244189795,0.00043095365521057403,0.0009566160081790647,-0.00024383414050965828,0.0002771457009471311,7.531648661097904e-06,0.0011078684213468664,0.0,0.0,0.0,0.0,0.0,0.0,0.0,-1.6775407553071275e-05,-0.00023344460151997204,6.096106433711723e-05,0.00021590650673397604,5.318447490743061e-06,-0.00010990909249297687,1.1927594628646787e-05,0.0009502778244189795,-0.00043095365521057403,-0.0009566160081790647,0.00024383414050965828,-0.0002771457009471311,-7.531648661097904e-06,-0.0011078684213468664,0.3752071261405945,34.06295394897461,3.8506133556365967,-19.487642288208008,-0.2548118233680725,-1.790164589881897,0.11844198405742645,0
52,0.25458192825317383,-0.3752071261405945,-34.06295394897461,-3.8506133556365967,19.487642288208008,0.2548118233680725,1.790164589881897,-0.11844198405742645,0.0,0.0,0.0,0.0,0.0,0.0,0.0,-0.39712150763353044,0.008995706718098476,-0.2454450491352126,0.45059778705904663,0.206037547630073,-0.11782846485037167,-0.09797624678472663,1.0544272513015776,0.3240949492106447,-0.3925655234055638,-2.153507694039072,0.8647485969205482,2.465988084867703,0.544490090962427,1.0544104758940245,0.3238615046091247,-0.39250456234122666,-2.153291787532338,0.8647539153680389,2.46587817577521,0.5445020185570556,-0.0009502778244189795,0.00043095365521057403,0.0009566160081790647,-0.00024383414050965828,0.0002771457009471311,7.531648661097904e-06,0.0011078684213468664,0.0,0.0,0.0,0.0,0.0,0.0,0.0,-1.6775407553071275e-05,-0.00023344460151997204,6.096106433711723e-05,0.00021590650673397604,5.318447490743061e-06,-0.00010990909249297687,1.1927594628646787e-05,0.0009502778244189795,-0.00043095365521057403,-0.0009566160081790647,0.00024383414050965828,-0.0002771457009471311,-7.531648661097904e-06,-0.0011078684213468664,0.3752071261405945,34.06295394897461,3.8506133556365967,-19.487642288208008,-0.2548118233680725,-1.790164589881897,0.11844198405742645,0
53,0.25966668128967285,-0.3752071261405945,-34.01534652709961,-3.7990386486053467,19.487642288208008,0.2548118233680725,1.783755898475647,-0.11111776530742645,0.0,0.0,0.0,0.0,0.0,0.0,0.0,-0.39158680058228157,0.008827653361311017,-0.23926666274852662,0.4541234803739305,0.20604823344596984,-0.11716622263010934,-0.09741291863872413,1.0544274899381898,0.32409160539684084,-0.39256920587877475,-2.1535076669061324,0.8647454180121421,2.4659923770726286,0.544489272745144,1.0544104758940245,0.3238615046091247,-0.39250456234122666,-2.153291787532338,0.8647539153680389,2.46587817577521,0.5445020185570556,-0.0006132946671268106,-0.0008722306515023936,-0.0003163163114606729,9.225714009778818e-05,0.00010731876865634034,0.00011385648718560488,0.00026679880303235475,0.0,0.0,0.0,0.0,0.0,0.0,0.0,-1.701404416531993e-05,-0.0002301007877161254,6.464353754809249e-05,0.00021587937379452526,8.497355896808223e-06,-0.00011420129741868124,1.27458119115742e-05,0.0006132946671268106,0.0008722306515023936,0.0003163163114606729,-9.225714009778818e-05,-0.00010731876865634034,-0.00011385648718560488,-0.00026679880303235475,0.3752071261405945,34.01534652709961,3.7990386486053467,-19.487642288208008,-0.2548118233680725,-1.783755898475647,0.11111776530742645,0
54,0.26459813117980957,-0.3752071261405945,-34.01534652709961,-3.7990386486053467,19.487642288208008,0.2548118233680725,1.783755898475647,-0.11111776530742645,0.0,0.0,0.0,0.0,0.0,0.0,0.0,-0.39158680058228157,0.008827653361311017,-0.23926666274852662,0.4541234803739305,0.20604823344596984,-0.11716622263010934,-0.09741291863872413,1.0544274899381898,0.32409160539684084,-0.39256920587877475,-2.1535076669061324,0.8647454180121421,2.4659923770726286,0.544489272745144,1.0544104758940245,0.3238615046091247,-0.39250456234122666,-2.153291787532338,0.8647539153680389,2.46587817577521,0.5445020185570556,-0.0006132946671268106,-0.0008722306515023936,-0.0003163163114606729,9.225714009778818e-05,0.00010731876865634034,0.00011385648718560488,0.00026679880303235475,0.0,0.0,0.0,0.0,0.0,0.0,0.0,-1.701404416531993e-05,-0.0002301007877161254,6.464353754809249e-05,0.00021587937379452526,8.497355896808223e-06,-0.00011420129741868124,1.27458119115742e-05,0.0006132946671268106,0.0008722306515023936,0.0003163163114606729,-9.225714009778818e-05,-0.00010731876865634034,-0.00011385648718560488,-0.00026679880303235475,0.3752071261405945,34.01534652709961,3.7990386486053467,-19.487642288208008,-0.2548118233680725,-1.783755898475647,0.11111776530742645,0
55,0.2695808410644531,-0.3752071261405945,-34.09072494506836,-3.8506133556365967,19.436067581176758,0.2667136788368225,1.783755898475647,-0.12485067546367645,0.0,0.0,0.0,0.0,0.0,0.0,0.0,-0.3972857879545958,0.007421598071532357,-0.24242699373419127,0.4535746453804361,0.2064215341953563,-0.11740093814413619,-0.09821518010947661,1.054427254173687,0.3240968980538051,-0.39256605999550614,-2.153504075062708,0.8647462148420704,2.465992381453489,0.5444918584774956,1.0544104758940245,0.3238615046091247,-0.39250456234122666,-2.153291787532338,0.8647539153680389,2.46587817577521,0.5445020185570556,-0.0006997537934964202,0.000543592714080861,0.0014283546956145449,0.0007544775050479886,-0.0001725117291452046,6.571180312893314e-05,0.0010902636743071556,0.0,0.0,0.0,0.0,0.0,0.0,0.0,-1.6778279662510442e-05,-0.00023539344468037626,6.149765427948539e-05,0.00021228753037005887,7.700525968545868e-06,-0.00011420567827924444,1.016007956000653e-05,0.0006997537934964202,-0.000543592714080861,-0.0014283546956145449,-0.0007544775050479886,0.0001725117291452046,-6.571180312893314e-05,-0.0010902636743071556,0.3752071261405945,34.09072494506836,3.8506133556365967,-19.436067581176758,-0.2667136788368225,-1.783755898475647,0.12485067546367645,0
56,0.2745950222015381,-0.3752071261405945,-34.09072494506836,-3.8506133556365967,19.436067581176758,0.2667136788368225,1.783755898475647,-0.12485067546367645,0.0,0.0,0.0,0.0,0.0,0.0,0.0,-0.3972857879545958,0.007421598071532357,-0.24242699373419127,0.4535746453804361,0.2064215341953563,-0.11740093814413619,-0.09821518010947661,1.054427254173687,0.3240968980538051,-0.39256605999550614,-2.153504075062708,0.8647462148420704,2.465992381453489,0.5444918584774956,1.0544104758940245,0.3238615046091247,-0.39250456234122666,-2.153291787532338,0.8647539153680389,2.46587817577521,0.5445020185570556,-0.0006997537934964202,0.000543592714080861,0.0014283546956145449,0.0007544775050479886,-0.0001725117291452046,6.571180312893314e-05,0.0010902636743071556,0.0,0.0,0.0,0.0,0.0,0.0,0.0,-1.6778279662510442e-05,-0.00023539344468037626,6.149765427948539e-05,0.00021228753037005887,7.700525968545868e-06,-0.00011420567827924444,1.016007956000653e-05,0.0006997537934964202,-0.000543592714080861,-0.0014283546956145449,-0.0007544775050479886,0.0001725117291452046,-6.571180312893314e-05,-0.0010902636743071556,0.3752071261405945,34.09072494506836,3.8506133556365967,-19.436067581176758,-0.2667136788368225,-1.783755898475647,0.12485067546367645,0
57,0.2798268795013428,-0.4029781222343445,-34.06295394897461,-3.8228423595428467,19.459871292114258,0.2603049874305725,1.790164589881897,-0.09097616374492645,0.0,0.0,0.0,0.0,0.0,0.0,0.0,-0.39312585516727294,0.003779145504630497,-0.23743662524416329,0.45636253325063914,0.20659293790549624,-0.11736483324922667,-0.09924180083658292,1.054431345801621,0.32409494921199056,-0.39256800869600045,-2.1535057360398744,0.8647479865689859,2.46599166356249,0.5444870349568784,1.0544104758940245,0.3238615046091247,-0.39250456234122666,-2.153291787532338,0.8647539153680389,2.46587817577521,0.5445020185570556,0.0004259919252380892,-0.00015176289002735824,0.0007624872975697216,0.0006301260758034245,-0.00010733682277252912,-0.00010765548509473693,-0.0008416425409006962,0.0,0.0,0.0,0.0,0.0,0.0,0.0,-2.08699075965324e-05,-0.0002334446028658399,6.344635477378846e-05,0.00021394850753653216,5.928799053034339e-06,-0.00011348778728015319,1.4983600177154166e-05,-0.0004259919252380892,0.00015176289002735824,-0.0007624872975697216,-0.0006301260758034245,0.00010733682277252912,0.00010765548509473693,0.0008416425409006962,0.4029781222343445,34.06295394897461,3.8228423595428467,-19.459871292114258,-0.2603049874305725,-1.790164589881897,0.09097616374492645,0
58,0.2845802307128906,-0.4029781222343445,-34.06295394897461,-3.8228423595428467,19.459871292114258,0.2603049874305725,1.790164589881897,-0.09097616374492645,0.0,0.0,0.0,0.0,0.0,0.0,0.0,-0.39312585516727294,0.003779145504630497,-0.23743662524416329,0.45636253325063914,0.20659293790549624,-0.11736483324922667,-0.09924180083658292,1.054431345801621,0.32409494921199056,-0.39256800869600045,-2.1535057360398744,0.8647479865689859,2.46599166356249,0.5444870349568784,1.0544104758940245,0.3238615046091247,-0.39250456234122666,-2.153291787532338,0.8647539153680389,2.46587817577521,0.5445020185570556,0.0004259919252380892,-0.00015176289002735824,0.0007624872975697216,0.0006301260758034245,-0.00010733682277252912,-0.00010765548509473693,-0.0008416425409006962,0.0,0.0,0.0,0.0,0.0,0.0,0.0,-2.08699075965324e-05,-0.0002334446028658399,6.344635477378846e-05,0.00021394850753653216,5.928799053034339e-06,-0.00011348778728015319,1.4983600177154166e-05,-0.0004259919252380892,0.00015176289002735824,-0.0007624872975697216,-0.0006301260758034245,0.00010733682277252912,0.00010765548509473693,0.0008416425409006962,0.4029781222343445,34.06295394897461,3.8228423595428467,-19.459871292114258,-0.2603049874305725,-1.790164589881897,0.09097616374492645,0
59,0.289581298828125,-0.4029781222343445,-34.01534652709961,-3.7990386486053467,19.487642288208008,0.2667136788368225,1.790164589881897,-0.11111776530742645,0.0,0.0,0.0,0.0,0.0,0.0,0.0,-0.39231250881658136,0.0007258100190559041,-0.2389381464196144,0.4538576811812039,0.20616662465678298,-0.11758991541445536,-0.09949283843044597,1.0544294398822958,0.32409160834028006,-0.3925696792758641,-2.15350769437818,0.8647472744981448,2.4659905966565767,0.5444903323832494,1.0544104758940245,0.3238615046091247,-0.39250456234122666,-2.153291787532338,0.8647539153680389,2.46587817577521,0.5445020185570556,0.000714615204230248,-0.0015960411754187259,-9.332693863733358e-05,-0.00026177156855593524,-0.00018693358213221585,-0.00018885982865239897,0.0006989665418857317,0.0,0.0,0.0,0.0,0.0,0.0,0.0,-1.8963988271281096e-05,-0.00023010373115534,6.511693463745472e-05,0.00021590684584227304,6.640869894103396e-06,-0.00011242088136675932,1.1686173806202405e-05,-0.000714615204230248,0.0015960411754187259,9.332693863733358e-05,0.00026177156855593524,0.00018693358213221585,0.00018885982865239897,-0.0006989665418857317,0.4029781222343445,34.01534652709961,3.7990386486053467,-19.487642288208008,-0.2667136788368225,-1.790164589881897,0.11111776530742645,0
60,0.29457521438598633,-0.4029781222343445,-34.01534652709961,-3.7990386486053467,19.487642288208008,0.2667136788368225,1.790164589881897,-0.11111776530742645,0.0,0.0,0.0,0.0,0.0,0.0,0.0,-0.39231250881658136,0.0007258100190559041,-0.2389381464196144,0.4538576811812039,0.20616662465678298,-0.11758991541445536,-0.09949283843044597,1.0544294398822958,0.32409160834028006,-0.3925696792758641,-2.15350769437818,0.8647472744981448,2.4659905966565767,0.5444903323832494,1.0544104758940245,0.3238615046091247,-0.39250456234122666,-2.153291787532338,0.8647539153680389,2.46587817577521,0.5445020185570556,0.000714615204230248,-0.0015960411754187259,-9.332693863733358e-05,-0.00026177156855593524,-0.00018693358213221585,-0.00018885982865239897,0.0006989665418857317,0.0,0.0,0.0,0.0,0.0,0.0,0.0,-1.8963988271281096e-05,-0.00023010373115534,6.511693463745472e-05,0.00021590684584227304,6.640869894103396e-06,-0.00011242088136675932,1.1686173806202405e-05,-0.000714615204230248,0.0015960411754187259,9.332693863733358e-05,0.00026177156855593524,0.00018693358213221585,0.00018885982865239897,-0.0006989665418857317,0.4029781222343445,34.01534652709961,3.7990386486053467,-19.487642288208008,-0.2667136788368225,-1.790164589881897,0.11111776530742645,0
61,0.29958057403564453,-0.4029781222343445,-34.01534652709961,-3.7990386486053467,19.459871292114258,0.2722068428993225,1.783755898475647,-0.13217489421367645,0.0,0.0,0.0,0.0,0.0,0.0,0.0,-0.404526337687242,0.007152166151311999,-0.2499518087061246,0.44667983425547914,0.2066225806145858,-0.11788567925942754,-0.1003235867220378,1.0544301548002253,0.32409160834028006,-0.3925675795145277,-2.1535057453856643,0.8647466641465823,2.4659923765484555,0.5444916124859256,1.0544104758940245,0.3238615046091247,-0.39250456234122666,-2.153291787532338,0.8647539153680389,2.46587817577521,0.5445020185570556,-0.0002648684008729125,-0.0014145207806445913,-0.0004618969747226005,0.0001364948926150096,-0.00054734139832143,0.0001629335790381311,0.001147162845672313,0.0,0.0,0.0,0.0,0.0,0.0,0.0,-1.9678906200804036e-05,-0.00023010373115534,6.301717330103873e-05,0.0002139578533264519,7.251221456616719e-06,-0.0001142007732455319,1.0406071130009131e-05,0.0002648684008729125,0.0014145207806445913,0.0004618969747226005,-0.0001364948926150096,0.00054734139832143,-0.0001629335790381311,-0.001147162845672313,0.4029781222343445,34.01534652709961,3.7990386486053467,-19.459871292114258,-0.2722068428993225,-1.783755898475647,0.13217489421367645,0
62,0.3045816421508789,-0.4029781222343445,-34.01534652709961,-3.7990386486053467,19.459871292114258,0.2722068428993225,1.783755898475647,-0.13217489421367645,0.0,0.0,0.0,0.0,0.0,0.0,0.0,-0.404526337687242,0.007152166151311999,-0.2499518087061246,0.44667983425547914,0.2066225806145858,-0.11788567925942754,-0.1003235867220378,1.0544301548002253,0.32409160834028006,-0.3925675795145277,-2.1535057453856643,0.8647466641465823,2.4659923765484555,0.5444916124859256,1.0544104758940245,0.3238615046091247,-0.39250456234122666,-2.153291787532338,0.8647539153680389,2.46587817577521,0.5445020185570556,-0.0002648684008729125,-0.0014145207806445913,-0.0004618969747226005,0.0001364948926150096,-0.00054734139832143,0.0001629335790381311,0.001147162845672313,0.0,0.0,0.0,0.0,0.0,0.0,0.0,-1.9678906200804036e-05,-0.00023010373115534,6.301717330103873e-05,0.0002139578533264519,7.251221456616719e-06,-0.0001142007732455319,1.0406071130009131e-05,0.0002648684008729125,0.0014145207806445913,0.0004618969747226005,-0.0001364948926150096,0.00054734139832143,-0.0001629335790381311,-0.001147162845672313,0.4029781222343445,34.01534652709961,3.7990386486053467,-19.459871292114258,-0.2722068428993225,-1.783755898475647,0.13217489421367645,0
63,0.30959177017211914,-0.3514034152030945,-34.06295394897461,-3.7990386486053467,19.487642288208008,0.2603049874305725,1.790164589881897,-0.12485067546367645,0.0,0.0,0.0,0.0,0.0,0.0,0.0,-0.3947502683207752,0.0014212971272918777,-0.24239833234341704,0.45168131950319046,0.2065101617776816,-0.11813164683048885,-0.10187983935828164,1.0544255808711118,0.32409494921199056,-0.3925699064024353,-2.153507694378233,0.8647476333622579,2.4659905661320267,0.5444907991085425,1.0544104758940245,0.3238615046091247,-0.39250456234122666,-2.153291787532338,0.8647539153680389,2.46587817577521,0.5445020185570556,-0.0006664543964194124,0.0001595444183269662,-0.0003820454593424657,-1.2604187405037847e-05,-4.794544478427404e-05,-6.876647230669016e-05,0.0011007815336634232,0.0,0.0,0.0,0.0,0.0,0.0,0.0,-1.5104977087343485e-05,-0.0002334446028658399,6.534406120861647e-05,0.00021590684589511966,6.282005781010902e-06,-0.00011239035681676057,1.1219448513122288e-05,0.0006664543964194124,-0.0001595444183269662,0.0003820454593424657,1.2604187405037847e-05,4.794544478427404e-05,6.876647230669016e-05,-0.0011007815336634232,0.3514034152030945,34.06295394897461,3.7990386486053467,-19.487642288208008,-0.2603049874305725,-1.790164589881897,0.12485067546367645,0
64,0.3145935535430908,-0.3514034152030945,-34.06295394897461,-3.7990386486053467,19.487642288208008,0.2603049874305725,1.790164589881897,-0.12485067546367645,0.0,0.0,0.0,0.0,0.0,0.0,0.0,-0.3947502683207752,0.0014212971272918777,-0.24239833234341704,0.45168131950319046,0.2065101617776816,-0.11813164683048885,-0.10187983935828164,1.0544255808711118,0.32409494921199056,-0.3925699064024353,-2.153507694378233,0.8647476333622579,2.4659905661320267,0.5444907991085425,1.0544104758940245,0.3238615046091247,-0.39250456234122666,-2.153291787532338,0.8647539153680389,2.46587817577521,0.5445020185570556,-0.0006664543964194124,0.0001595444183269662,-0.0003820454593424657,-1.2604187405037847e-05,-4.794544478427404e-05,-6.876647230669016e-05,0.0011007815336634232,0.0,0.0,0.0,0.0,0.0,0.0,0.0,-1.5104977087343485e-05,-0.0002334446028658399,6.534406120861647e-05,0.00021590684589511966,6.282005781010902e-06,-0.00011239035681676057,1.1219448513122288e-05,0.0006664543964194124,-0.0001595444183269662,0.0003820454593424657,1.2604187405037847e-05,4.794544478427404e-05,6.876647230669016e-05,-0.0011007815336634232,0.3514034152030945,34.06295394897461,3.7990386486053467,-19.487642288208008,-0.2603049874305725,-1.790164589881897,0.12485067546367645,0
65,0.3195793628692627,-0.3514034152030945,-34.09072494506836,-3.8228423595428467,19.487642288208008,0.2548118233680725,1.790164589881897,-0.06351034343242645,0.0,0.0,0.0,0.0,0.0,0.0,0.0,-0.38281080526651284,0.005560763489764751,-0.23308420075705732,0.4519900113155017,0.20615190938737313,-0.11890644997182476,-0.10215180563161666,1.0544258192116245,0.3240968980538217,-0.3925682709739375,-2.1535076933607487,0.864748583842584,2.4659884772126173,0.5444839873922309,1.0544104758940245,0.3238615046091247,-0.39250456234122666,-2.153291787532338,0.8647539153680389,2.46587817577521,0.5445020185570556,-0.00021803658638003156,0.0008236251593373579,0.0005661435598326504,-0.00018058696271567494,0.00012956665841621257,-0.00017205409504901964,-0.001138892775203674,0.0,0.0,0.0,0.0,0.0,0.0,0.0,-1.5343317600002848e-05,-0.0002353934446969741,6.370863271082383e-05,0.00021590582841080064,5.331525454899122e-06,-0.00011030143740731191,1.8031164824683366e-05,0.00021803658638003156,-0.0008236251593373579,-0.0005661435598326504,0.00018058696271567494,-0.00012956665841621257,0.00017205409504901964,0.001138892775203674,0.3514034152030945,34.09072494506836,3.8228423595428467,-19.487642288208008,-0.2548118233680725,-1.790164589881897,0.06351034343242645,0
66,0.32457709312438965,-0.3514034152030945,-34.09072494506836,-3.8228423595428467,19.487642288208008,0.2548118233680725,1.790164589881897,-0.06351034343242645,0.0,0.0,0.0,0.0,0.0,0.0,0.0,-0.38281080526651284,0.005560763489764751,-0.23308420075705732,0.4519900113155017,0.20615190938737313,-0.11890644997182476,-0.10215180563161666,1.0544258192116245,0.3240968980538217,-0.3925682709739375,-2.1535076933607487,0.864748583842584,2.4659884772126173,0.5444839873922309,1.0544104758940245,0.3238615046091247,-0.39250456234122666,-2.153291787532338,0.8647539153680389,2.46587817577521,0.5445020185570556,-0.00021803658638003156,0.0008236251593373579,0.0005661435598326504,-0.00018058696271567494,0.00012956665841621257,-0.00017205409504901964,-0.001138892775203674,0.0,0.0,0.0,0.0,0.0,0.0,0.0,-1.5343317600002848e-05,-0.0002353934446969741,6.370863271082383e-05,0.00021590582841080064,5.331525454899122e-06,-0.00011030143740731191,1.8031164824683366e-05,0.00021803658638003156,-0.0008236251593373579,-0.0005661435598326504,0.00018058696271567494,-0.00012956665841621257,0.00017205409504901964,0.001138892775203674,0.3514034152030945,34.09072494506836,3.8228423595428467,-19.487642288208008,-0.2548118233680725,-1.790164589881897,0.06351034343242645,0
67,0.32961273193359375,-0.3514034152030945,-34.09072494506836,-3.8228423595428467,19.487642288208008,0.2548118233680725,1.790164589881897,-0.06351034343242645,0.0,0.0,0.0,0.0,0.0,0.0,0.0,-0.38281080526651284,0.005560763489764751,-0.23308420075705732,0.4519900113155017,0.20615190938737313,-0.11890644997182476,-0.10215180563161666,1.0544258192116245,0.3240968980538217,-0.3925682709739375,-2.1535076933607487,0.864748583842584,2.4659884772126173,0.5444839873922309,1.0544104758940245,0.3238615046091247,-0.39250456234122666,-2.153291787532338,0.8647539153680389,2.46587817577521,0.5445020185570556,-0.00021803658638003156,0.0008236251593373579,0.0005661435598326504,-0.00018058696271567494,0.00012956665841621257,-0.00017205409504901964,-0.001138892775203674,0.0,0.0,0.0,0.0,0.0,0.0,0.0,-1.5343317600002848e-05,-0.0002353934446969741,6.370863271082383e-05,0.00021590582841080064,5.331525454899122e-06,-0.00011030143740731191,1.8031164824683366e-05,0.00021803658638003156,-0.0008236251593373579,-0.0005661435598326504,0.00018058696271567494,-0.00012956665841621257,0.00017205409504901964,0.001138892775203674,0.3514034152030945,34.09072494506836,3.8228423595428467,-19.487642288208008,-0.2548118233680725,-1.790164589881897,0.06351034343242645,0
68,0.33461904525756836,-0.3514034152030945,-34.09072494506836,-3.8228423595428467,19.487642288208008,0.2548118233680725,1.790164589881897,-0.06351034343242645,0.0,0.0,0.0,0.0,0.0,0.0,0.0,-0.38281080526651284,0.005560763489764751,-0.23308420075705732,0.4519900113155017,0.20615190938737313,-0.11890644997182476,-0.10215180563161666,1.0544258192116245,0.3240968980538217,-0.3925682709739375,-2.1535076933607487,0.864748583842584,2.4659884772126173,0.5444839873922309,1.0544104758940245,0.3238615046091247,-0.39250456234122666,-2.153291787532338,0.8647539153680389,2.46587817577521,0.5445020185570556,-0.00021803658638003156,0.0008236251593373579,0.0005661435598326504,-0.00018058696271567494,0.00012956665841621257,-0.00017205409504901964,-0.001138892775203674,0.0,0.0,0.0,0.0,0.0,0.0,0.0,-1.5343317600002848e-05,-0.0002353934446969741,6.370863271082383e-05,0.00021590582841080064,5.331525454899122e-06,-0.00011030143740731191,1.8031164824683366e-05,0.00021803658638003156,-0.0008236251593373579,-0.0005661435598326504,0.00018058696271567494,-0.00012956665841621257,0.00017205409504901964,0.001138892775203674,0.3514034152030945,34.09072494506836,3.8228423595428467,-19.487642288208008,-0.2548118233680725,-1.790164589881897,0.06351034343242645,0
69,0.33959531784057617,-0.4029781222343445,-34.06295394897461,-3.8506133556365967,19.459871292114258,0.2603049874305725,1.796573281288147,-0.06991903483867645,0.0,0.0,0.0,0.0,0.0,0.0,0.0,-0.4038016075999611,0.004113797040687634,-0.2553529570403204,0.453038099323203,0.20652977455111288,-0.11768490718712996,-0.10131868534067176,1.0544292088687484,0.32409280344477864,-0.392566286490037,-2.1535056621026016,0.864747986574746,2.4659909440023506,0.5444846955929911,1.0544104758940245,0.3238615046091247,-0.39250456234122666,-2.153291787532338,0.8647539153680389,2.46587817577521,0.5445020185570556,9.292949775169479e-05,0.000167326290710006,0.0008452620349341705,0.0006501032786666726,-0.00010795935750235903,-0.00030162516194348816,-0.0013341127243984908,0.0,0.0,0.0,0.0,0.0,0.0,0.0,-1.873297472387847e-05,-0.00023129883565392584,6.172414881033816e-05,0.00021387457026378343,5.928793292864221e-06,-0.00011276822714068047,1.7322964064536706e-05,-9.292949775169479e-05,-0.000167326290710006,-0.0008452620349341705,-0.0006501032786666726,0.00010795935750235903,0.00030162516194348816,0.0013341127243984908,0.4029781222343445,34.06295394897461,3.8506133556365967,-19.459871292114258,-0.2603049874305725,-1.796573281288147,0.06991903483867645,0
70,0.3446314334869385,-0.4029781222343445,-34.06295394897461,-3.8506133556365967,19.459871292114258,0.2603049874305725,1.796573281288147,-0.06991903483867645,0.0,0.0,0.0,0.0,0.0,0.0,0.0,-0.4038016075999611,0.004113797040687634,-0.2553529570403204,0.453038099323203,0.20652977455111288,-0.11768490718712996,-0.10131868534067176,1.0544292088687484,0.32409280344477864,-0.392566286490037,-2.1535056621026016,0.864747986574746,2.4659909440023506,0.5444846955929911,1.0544104758940245,0.3238615046091247,-0.39250456234122666,-2.153291787532338,0.8647539153680389,2.46587817577521,0.5445020185570556,9.292949775169479e-05,0.000167326290710006,0.0008452620349341705,0.0006501032786666726,-0.00010795935750235903,-0.00030162516194348816,-0.0013341127243984908,0.0,0.0,0.0,0.0,0.0,0.0,0.0,-1.873297472387847e-05,-0.00023129883565392584,6.172414881033816e-05,0.00021387457026378343,5.928793292864221e-06,-0.00011276822714068047,1.7322964064536706e-05,-9.292949775169479e-05,-0.000167326290710006,-0.0008452620349341705,-0.0006501032786666726,0.00010795935750235903,0.00030162516194348816,0.0013341127243984908,0.4029781222343445,34.06295394897461,3.8506133556365967,-19.459871292114258,-0.2603049874305725,-1.796573281288147,0.06991903483867645,0
71,0.3495361804962158,-0.4267818331718445,-34.09072494506836,-3.8228423595428467,19.459871292114258,0.2548118233680725,1.783755898475647,-0.10470907390117645,0.0,0.0,0.0,0.0,0.0,0.0,0.0,-0.38869364861118455,0.005796929231097116,-0.24263129568945002,0.4529144242627449,0.20590706739032855,-0.11870902164798168,-0.1013280398476711,1.0544330427284294,0.3240968980497841,-0.3925654367660938,-2.1535057455362456,0.8647485925658794,2.465988099294464,0.5444886784058671,1.0544104758940245,0.3238615046091247,-0.39250456234122666,-2.153291787532338,0.8647539153680389,2.46587817577521,0.5445020185570556,0.0003719242076875125,0.0008096613293392858,0.00037438983464096315,0.00014556278633633083,0.0001253181839521452,0.0002531871516927998,0.0005254291087073661,0.0,0.0,0.0,0.0,0.0,0.0,0.0,-2.2566834404935676e-05,-0.0002353934406593705,6.087442486713002e-05,0.00021395800390777708,5.322802159479778e-06,-0.00010992351925409594,1.3340151188478977e-05,-0.0003719242076875125,-0.0008096613293392858,-0.00037438983464096315,-0.00014556278633633083,-0.0001253181839521452,-0.0002531871516927998,-0.0005254291087073661,0.4267818331718445,34.09072494506836,3.8228423595428467,-19.459871292114258,-0.2548118233680725,-1.783755898475647,0.10470907390117645,0
72,0.3545346260070801,-0.4267818331718445,-34.09072494506836,-3.8228423595428467,19.459871292114258,0.2548118233680725,1.783755898475647,-0.10470907390117645,0.0,0.0,0.0,0.0,0.0,0.0,0.0,-0.38869364861118455,0.005796929231097116,-0.24263129568945002,0.4529144242627449,0.20590706739032855,-0.11870902164798168,-0.1013280398476711,1.0544330427284294,0.3240968980497841,-0.3925654367660938,-2.1535057455362456,0.8647485925658794,2.465988099294464,0.5444886784058671,1.0544104758940245,0.3238615046091247,-0.39250456234122666,-2.153291787532338,0.8647539153680389,2.46587817577521,0.5445020185570556,0.0003719242076875125,0.0008096613293392858,0.00037438983464096315,0.00014556278633633083,0.0001253181839521452,0.0002531871516927998,0.0005254291087073661,0.0,0.0,0.0,0.0,0.0,0.0,0.0,-2.2566834404935676e-05,-0.0002353934406593705,6.087442486713002e-05,0.00021395800390777708,5.322802159479778e-06,-0.00010992351925409594,1.3340151188478977e-05,-0.0003719242076875125,-0.0008096613293392858,-0.00037438983464096315,-0.00014556278633633083,-0.0001253181839521452,-0.0002531871516927998,-0.0005254291087073661,0.4267818331718445,34.09072494506836,3.8228423595428467,-19.459871292114258,-0.2548118233680725,-1.783755898475647,0.10470907390117645,0
73,0.35958099365234375,-0.4267818331718445,-34.09072494506836,-3.8228423595428467,19.511445999145508,0.2548118233680725,1.796573281288147,-0.13858358561992645,0.0,0.0,0.0,0.0,0.0,0.0,0.0,-0.3961568592380703,0.00013895102560034016,-0.24893839104274543,0.4564422100913567,0.2060128519923189,-0.1172370628936991,-0.09981581912113162,1.0544308980881512,0.32409689805382164,-0.39256824500448784,-2.1535093373419896,0.8647485920812888,2.465990957065844,0.5444923259584759,1.0544104758940245,0.3238615046091247,-0.39250456234122666,-2.153291787532338,0.8647539153680389,2.46587817577521,0.5445020185570556,0.00043228371891053743,0.0006152428390535307,3.067956861119336e-05,-0.0005691393837312992,3.6675969719927455e-05,-0.00015374010966439438,0.0018055654760289778,0.0,0.0,0.0,0.0,0.0,0.0,0.0,-2.0422194126679116e-05,-0.00023539344469691859,6.368266326117755e-05,0.0002175498096517181,5.323286750069656e-06,-0.0001127812906340786,9.692598579746914e-06,-0.00043228371891053743,-0.0006152428390535307,-3.067956861119336e-05,0.0005691393837312992,-3.6675969719927455e-05,0.00015374010966439438,-0.0018055654760289778,0.4267818331718445,34.09072494506836,3.8228423595428467,-19.511445999145508,-0.2548118233680725,-1.796573281288147,0.13858358561992645,0
74,0.3645820617675781,-0.4267818331718445,-34.09072494506836,-3.8228423595428467,19.511445999145508,0.2548118233680725,1.796573281288147,-0.13858358561992645,0.0,0.0,0.0,0.0,0.0,0.0,0.0,-0.3961568592380703,0.00013895102560034016,-0.24893839104274543,0.4564422100913567,0.2060128519923189,-0.1172370628936991,-0.09981581912113162,1.0544308980881512,0.32409689805382164,-0.39256824500448784,-2.1535093373419896,0.8647485920812888,2.465990957065844,0.5444923259584759,1.0544104758940245,0.3238615046091247,-0.39250456234122666,-2.153291787532338,0.8647539153680389,2.46587817577521,0.5445020185570556,0.00043228371891053743,0.0006152428390535307,3.067956861119336e-05,-0.0005691393837312992,3.6675969719927455e-05,-0.00015374010966439438,0.0018055654760289778,0.0,0.0,0.0,0.0,0.0,0.0,0.0,-2.0422194126679116e-05,-0.00023539344469691859,6.368266326117755e-05,0.0002175498096517181,5.323286750069656e-06,-0.0001127812906340786,9.692598579746914e-06,-0.00043228371891053743,-0.0006152428390535307,-3.067956861119336e-05,0.0005691393837312992,-3.6675969719927455e-05,0.00015374010966439438,-0.0018055654760289778,0.4267818331718445,34.09072494506836,3.8228423595428467,-19.511445999145508,-0.2548118233680725,-1.796573281288147,0.13858358561992645,0
75,0.36960601806640625,-0.3752071261405945,-34.06295394897461,-3.7990386486053467,19.459871292114258,0.2548118233680725,1.796573281288147,-0.09738485515117645,0.0,0.0,0.0,0.0,0.0,0.0,0.0,-0.3914894796067364,0.006605432661875392,-0.24566962427213862,0.45089718462841516,0.2055340061917038,-0.11807857678769096,-0.09860809214991587,1.0544272525008085,0.32409494921199056,-0.3925668679667756,-2.1535057455363513,0.8647485838445689,2.465987774024829,0.5444877468662156,1.0544104758940245,0.3238615046091247,-0.39250456234122666,-2.153291787532338,0.8647539153680389,2.46587817577521,0.5445020185570556,-0.0006376603314335463,-0.00035758281508795054,-0.0005667066148580184,0.00026475635271822724,0.00019580712333227394,-0.00037062567121136207,-0.0004522202894274677,0.0,0.0,0.0,0.0,0.0,0.0,0.0,-1.6776606784008052e-05,-0.0002334446028658399,6.230562554893071e-05,0.00021395800401347032,5.3315234700423986e-06,-0.00010959824961886966,1.4271690840006457e-05,0.0006376603314335463,0.00035758281508795054,0.0005667066148580184,-0.00026475635271822724,-0.00019580712333227394,0.00037062567121136207,0.0004522202894274677,0.3752071261405945,34.06295394897461,3.7990386486053467,-19.459871292114258,-0.2548118233680725,-1.796573281288147,0.09738485515117645,0
76,0.37462401390075684,-0.3752071261405945,-34.06295394897461,-3.7990386486053467,19.459871292114258,0.2548118233680725,1.796573281288147,-0.09738485515117645,0.0,0.0,0.0,0.0,0.0,0.0,0.0,-0.3914894796067364,0.006605432661875392,-0.24566962427213862,0.45089718462841516,0.2055340061917038,-0.11807857678769096,-0.09860809214991587,1.0544272525008085,0.32409494921199056,-0.3925668679667756,-2.1535057455363513,0.8647485838445689,2.465987774024829,0.5444877468662156,1.0544104758940245,0.3238615046091247,-0.39250456234122666,-2.153291787532338,0.8647539153680389,2.46587817577521,0.5445020185570556,-0.0006376603314335463,-0.00035758281508795054,-0.0005667066148580184,0.00026475635271822724,0.00019580712333227394,-0.00037062567121136207,-0.0004522202894274677,0.0,0.0,0.0,0.0,0.0,0.0,0.0,-1.6776606784008052e-05,-0.0002334446028658399,6.230562554893071e-05,0.00021395800401347032,5.3315234700423986e-06,-0.00010959824961886966,1.4271690840006457e-05,0.0006376603314335463,0.00035758281508795054,0.0005667066148580184,-0.00026475635271822724,-0.00019580712333227394,0.00037062567121136207,0.0004522202894274677,0.3752071261405945,34.06295394897461,3.7990386486053467,-19.459871292114258,-0.2548118233680725,-1.796573281288147,0.09738485515117645,0
77,0.37961626052856445,-0.4029781222343445,-34.06295394897461,-3.7990386486053467,19.412263870239258,0.2603049874305725,1.790164589881897,-0.08365194499492645,0.0,0.0,0.0,0.0,0.0,0.0,0.0,-0.3849303100896102,0.008727803801644715,-0.2399996164544663,0.4468133715361216,0.20559907793369356,-0.11898015205952187,-0.09936141726854977,1.054429464943932,0.32409494921199056,-0.39256970546965936,-2.153502157415795,0.8647479865748938,2.4659902156469697,0.5444862602331633,1.0544104758940245,0.3238615046091247,-0.39250456234122666,-2.153291787532338,0.8647539153680389,2.46587817577521,0.5445020185570556,0.0005758807126105222,-0.00019579656207246776,-9.34288562824725e-06,0.0010708000348497281,1.7940538637174198e-05,-0.0003174190129093307,-0.0008409760204030618,0.0,0.0,0.0,0.0,0.0,0.0,0.0,-1.8989049907602862e-05,-0.0002334446028658399,6.514312843269865e-05,0.00021036988345723984,5.928793145093536e-06,-0.0001120398717597837,1.5758323892334225e-05,-0.0005758807126105222,0.00019579656207246776,9.34288562824725e-06,-0.0010708000348497281,-1.7940538637174198e-05,0.0003174190129093307,0.0008409760204030618,0.4029781222343445,34.06295394897461,3.7990386486053467,-19.412263870239258,-0.2603049874305725,-1.790164589881897,0.08365194499492645,0
78,0.3845791816711426,-0.4029781222343445,-34.06295394897461,-3.7990386486053467,19.412263870239258,0.2603049874305725,1.790164589881897,-0.08365194499492645,0.0,0.0,0.0,0.0,0.0,0.0,0.0,-0.3849303100896102,0.008727803801644715,-0.2399996164544663,0.4468133715361216,0.20559907793369356,-0.11898015205952187,-0.09936141726854977,1.054429464943932,0.32409494921199056,-0.39256970546965936,-2.153502157415795,0.8647479865748938,2.4659902156469697,0.5444862602331633,1.0544104758940245,0.3238615046091247,-0.39250456234122666,-2.153291787532338,0.8647539153680389,2.46587817577521,0.5445020185570556,0.0005758807126105222,-0.00019579656207246776,-9.34288562824725e-06,0.0010708000348497281,1.7940538637174198e-05,-0.0003174190129093307,-0.0008409760204030618,0.0,0.0,0.0,0.0,0.0,0.0,0.0,-1.8989049907602862e-05,-0.0002334446028658399,6.514312843269865e-05,0.00021036988345723984,5.928793145093536e-06,-0.0001120398717597837,1.5758323892334225e-05,-0.0005758807126105222,0.00019579656207246776,9.34288562824725e-06,-0.0010708000348497281,-1.7940538637174198e-05,0.0003174190129093307,0.0008409760204030618,0.4029781222343445,34.06295394897461,3.7990386486053467,-19.412263870239258,-0.2603049874305725,-1.790164589881897,0.08365194499492645,0
79,0.38958263397216797,-0.4029781222343445,-34.03915023803711,-3.8228423595428467,19.511445999145508,0.2667136788368225,1.777347207069397,-0.08365194499492645,0.0,0.0,0.0,0.0,0.0,0.0,0.0,-0.3882774602077652,-0.005715393254663307,-0.244047869003875,0.4519803096791314,0.20609432446409703,-0.11807122731178032,-0.09955528505793441,1.0544299165998203,0.3240932787761353,-0.39256803213363667,-2.1535093648126935,0.864747104432766,2.46598987374683,0.5444862209875282,1.0544104758940245,0.3238615046091247,-0.39250456234122666,-2.153291787532338,0.8647539153680389,2.46587817577521,0.5445020185570556,0.0006963791963218054,-0.00105652309137148,0.000675310193089172,-0.0007800670241171528,-0.00031835912121357443,0.00033723658394610846,-0.0008243842642600733,0.0,0.0,0.0,0.0,0.0,0.0,0.0,-1.944070579584789e-05,-0.00023177416701058995,6.346979241000916e-05,0.00021757728035565194,6.810935272882901e-06,-0.00011169797162002837,1.5797569527409294e-05,-0.0006963791963218054,0.00105652309137148,-0.000675310193089172,0.0007800670241171528,0.00031835912121357443,-0.00033723658394610846,0.0008243842642600733,0.4029781222343445,34.03915023803711,3.8228423595428467,-19.511445999145508,-0.2667136788368225,-1.777347207069397,0.08365194499492645,0
80,0.3945810794830322,-0.4029781222343445,-34.03915023803711,-3.8228423595428467,19.511445999145508,0.2667136788368225,1.777347207069397,-0.08365194499492645,0.0,0.0,0.0,0.0,0.0,0.0,0.0,-0.3882774602077652,-0.005715393254663307,-0.244047869003875,0.4519803096791314,0.20609432446409703,-0.11807122731178032,-0.09955528505793441,1.0544299165998203,0.3240932787761353,-0.39256803213363667,-2.1535093648126935,0.864747104432766,2.46598987374683,0.5444862209875282,1.0544104758940245,0.3238615046091247,-0.39250456234122666,-2.153291787532338,0.8647539153680389,2.46587817577521,0.5445020185570556,0.0006963791963218054,-0.00105652309137148,0.000675310193089172,-0.0007800670241171528,-0.00031835912121357443,0.00033723658394610846,-0.0008243842642600733,0.0,0.0,0.0,0.0,0.0,0.0,0.0,-1.944070579584789e-05,-0.00023177416701058995,6.346979241000916e-05,0.00021757728035565194,6.810935272882901e-06,-0.00011169797162002837,1.5797569527409294e-05,-0.0006963791963218054,0.00105652309137148,-0.000675310193089172,0.0007800670241171528,0.00031835912121357443,-0.00033723658394610846,0.0008243842642600733,0.4029781222343445,34.03915023803711,3.8228423595428467,-19.511445999145508,-0.2667136788368225,-1.777347207069397,0.08365194499492645,0
