rezayati/contactInterpretation/dataset/franka_main/labeled_data/link4/d4_4.csv
index,time,tau_J0,tau_J1,tau_J2,tau_J3,tau_J4,tau_J5,tau_J6,tau_J_d0,tau_J_d1,tau_J_d2,tau_J_d3,tau_J_d4,tau_J_d5,tau_J_d6,tau_ext0,tau_ext1,tau_ext2,tau_ext3,tau_ext4,tau_ext5,tau_ext6,q0,q1,q2,q3,q4,q5,q6,q_d0,q_d1,q_d2,q_d3,q_d4,q_d5,q_d6,dq0,dq1,dq2,dq3,dq4,dq5,dq6,dq_d0,dq_d1,dq_d2,dq_d3,dq_d4,dq_d5,dq_d6,e0,e1,e2,e3,e4,e5,e6,de0,de1,de2,de3,de4,de5,de6,etau_J0,etau_J1,etau_J2,etau_J3,etau_J4,etau_J5,etau_J6,label
1,0.0,-0.3236324191093445,-19.768823623657227,-0.4228789508342743,19.983552932739258,0.6896873116493225,2.4823031425476074,-0.23471395671367645,0.0,0.0,0.0,0.0,0.0,0.0,0.0,-0.30991610987863394,-0.052329817575475376,-0.24116275315863317,0.20569121172813204,0.09581083409909423,0.0975323069053308,-0.24413155558700722,1.21344311097215,-0.220177081545194,-0.007506005413099341,-2.6038939629642126,-0.108888606449636,2.4681853047485407,0.8264759630214689,1.2134413937687574,-0.2202432315892585,-0.0075118285948192216,-2.6038483821997875,-0.10888392708698907,2.4681821257803174,0.826474908251239,0.00031326880443410804,-0.0010970660400846377,-0.00022509562306198533,-9.715214205911995e-05,-0.00031965777839033823,-0.0005445423523781089,-0.0003928842777019434,0.0,0.0,0.0,0.0,0.0,0.0,0.0,-1.7172033925927366e-06,-6.61500440644891e-05,-5.823181719880749e-06,4.558076442506831e-05,4.679362646919927e-06,-3.1789682233274164e-06,-1.0547702298246975e-06,-0.00031326880443410804,0.0010970660400846377,0.00022509562306198533,9.715214205911995e-05,0.00031965777839033823,0.0005445423523781089,0.0003928842777019434,0.3236324191093445,19.768823623657227,0.4228789508342743,-19.983552932739258,-0.6896873116493225,-2.4823031425476074,0.23471395671367645,0
2,0.004975557327270508,-0.3514034152030945,-19.816431045532227,-0.4704863727092743,19.931978225708008,0.6658836007118225,2.4694857597351074,-0.18710653483867645,0.0,0.0,0.0,0.0,0.0,0.0,0.0,-0.3127043290408039,-0.0459379349492506,-0.2438767728324528,0.2030538866743943,0.0955691206689676,0.09714521534256675,-0.2423083241371292,1.2134474351573905,-0.22017374067348347,-0.007502664540943348,-2.6038901140995603,-0.10888596159219742,2.4681835630338607,0.8264709775468558,1.2134413937687574,-0.2202432315892585,-0.0075118285948192216,-2.6038483821997875,-0.10888392708698907,2.4681821257803174,0.826474908251239,0.0008305509640064806,0.0006935086971187327,0.0005894388238957838,0.001466579717382373,0.00053470403510698,-3.823193785806863e-05,-0.002173515535820688,0.0,0.0,0.0,0.0,0.0,0.0,0.0,-6.041388633137856e-06,-6.949091577501676e-05,-9.164053875873254e-06,4.1731899772745606e-05,2.0345052083453607e-06,-1.4372535432904954e-06,3.930704383203754e-06,-0.0008305509640064806,-0.0006935086971187327,-0.0005894388238957838,-0.001466579717382373,-0.00053470403510698,3.823193785806863e-05,0.002173515535820688,0.3514034152030945,19.816431045532227,0.4704863727092743,-19.931978225708008,-0.6658836007118225,-2.4694857597351074,0.18710653483867645,0
3,0.009975433349609375,-0.3514034152030945,-19.816431045532227,-0.4704863727092743,19.931978225708008,0.6658836007118225,2.4694857597351074,-0.18710653483867645,0.0,0.0,0.0,0.0,0.0,0.0,0.0,-0.3127043290408039,-0.0459379349492506,-0.2438767728324528,0.2030538866743943,0.0955691206689676,0.09714521534256675,-0.2423083241371292,1.2134474351573905,-0.22017374067348347,-0.007502664540943348,-2.6038901140995603,-0.10888596159219742,2.4681835630338607,0.8264709775468558,1.2134413937687574,-0.2202432315892585,-0.0075118285948192216,-2.6038483821997875,-0.10888392708698907,2.4681821257803174,0.826474908251239,0.0008305509640064806,0.0006935086971187327,0.0005894388238957838,0.001466579717382373,0.00053470403510698,-3.823193785806863e-05,-0.002173515535820688,0.0,0.0,0.0,0.0,0.0,0.0,0.0,-6.041388633137856e-06,-6.949091577501676e-05,-9.164053875873254e-06,4.1731899772745606e-05,2.0345052083453607e-06,-1.4372535432904954e-06,3.930704383203754e-06,-0.0008305509640064806,-0.0006935086971187327,-0.0005894388238957838,-0.001466579717382373,-0.00053470403510698,3.823193785806863e-05,0.002173515535820688,0.3514034152030945,19.816431045532227,0.4704863727092743,-19.931978225708008,-0.6658836007118225,-2.4694857597351074,0.18710653483867645,0
4,0.014974355697631836,-0.3514034152030945,-19.768823623657227,-0.4466826617717743,19.983552932739258,0.6713767647743225,2.4566683769226074,-0.21457235515117645,0.0,0.0,0.0,0.0,0.0,0.0,0.0,-0.3055413980217137,-0.04551899457217785,-0.23967875235654892,0.20038962154647835,0.09496455893932684,0.09640548723365981,-0.24070984925177438,1.2134451314390147,-0.220177081545194,-0.007504413922346787,-2.603893733375951,-0.10888661137358151,2.468184974087683,0.8264703876785028,1.2134413937687574,-0.2202432315892585,-0.0075118285948192216,-2.6038483821997875,-0.10888392708698907,2.4681821257803174,0.826474908251239,0.0010595788627415599,-0.00023875651589097007,0.00019291826985956437,-0.0005425458189015957,0.0004242557936851947,0.000574358235595626,-0.0007692437334855628,0.0,0.0,0.0,0.0,0.0,0.0,0.0,-3.737670257297765e-06,-6.61500440644891e-05,-7.4146724724343666e-06,4.535117616333295e-05,2.6842865924331383e-06,-2.848307365521663e-06,4.520572736255168e-06,-0.0010595788627415599,0.00023875651589097007,-0.00019291826985956437,0.0005425458189015957,-0.0004242557936851947,-0.000574358235595626,0.0007692437334855628,0.3514034152030945,19.768823623657227,0.4466826617717743,-19.983552932739258,-0.6713767647743225,-2.4566683769226074,0.21457235515117645,0
5,0.019974708557128906,-0.3514034152030945,-19.768823623657227,-0.4466826617717743,19.983552932739258,0.6713767647743225,2.4566683769226074,-0.21457235515117645,0.0,0.0,0.0,0.0,0.0,0.0,0.0,-0.3055413980217137,-0.04551899457217785,-0.23967875235654892,0.20038962154647835,0.09496455893932684,0.09640548723365981,-0.24070984925177438,1.2134451314390147,-0.220177081545194,-0.007504413922346787,-2.603893733375951,-0.10888661137358151,2.468184974087683,0.8264703876785028,1.2134413937687574,-0.2202432315892585,-0.0075118285948192216,-2.6038483821997875,-0.10888392708698907,2.4681821257803174,0.826474908251239,0.0010595788627415599,-0.00023875651589097007,0.00019291826985956437,-0.0005425458189015957,0.0004242557936851947,0.000574358235595626,-0.0007692437334855628,0.0,0.0,0.0,0.0,0.0,0.0,0.0,-3.737670257297765e-06,-6.61500440644891e-05,-7.4146724724343666e-06,4.535117616333295e-05,2.6842865924331383e-06,-2.848307365521663e-06,4.520572736255168e-06,-0.0010595788627415599,0.00023875651589097007,-0.00019291826985956437,0.0005425458189015957,-0.0004242557936851947,-0.000574358235595626,0.0007692437334855628,0.3514034152030945,19.768823623657227,0.4466826617717743,-19.983552932739258,-0.6713767647743225,-2.4566683769226074,0.21457235515117645,0
6,0.024975299835205078,-0.3514034152030945,-19.768823623657227,-0.4466826617717743,19.983552932739258,0.6713767647743225,2.4566683769226074,-0.21457235515117645,0.0,0.0,0.0,0.0,0.0,0.0,0.0,-0.3055413980217137,-0.04551899457217785,-0.23967875235654892,0.20038962154647835,0.09496455893932684,0.09640548723365981,-0.24070984925177438,1.2134451314390147,-0.220177081545194,-0.007504413922346787,-2.603893733375951,-0.10888661137358151,2.468184974087683,0.8264703876785028,1.2134413937687574,-0.2202432315892585,-0.0075118285948192216,-2.6038483821997875,-0.10888392708698907,2.4681821257803174,0.826474908251239,0.0010595788627415599,-0.00023875651589097007,0.00019291826985956437,-0.0005425458189015957,0.0004242557936851947,0.000574358235595626,-0.0007692437334855628,0.0,0.0,0.0,0.0,0.0,0.0,0.0,-3.737670257297765e-06,-6.61500440644891e-05,-7.4146724724343666e-06,4.535117616333295e-05,2.6842865924331383e-06,-2.848307365521663e-06,4.520572736255168e-06,-0.0010595788627415599,0.00023875651589097007,-0.00019291826985956437,0.0005425458189015957,-0.0004242557936851947,-0.000574358235595626,0.0007692437334855628,0.3514034152030945,19.768823623657227,0.4466826617717743,-19.983552932739258,-0.6713767647743225,-2.4566683769226074,0.21457235515117645,0
7,0.029993295669555664,-0.3514034152030945,-19.768823623657227,-0.4466826617717743,19.983552932739258,0.6713767647743225,2.4566683769226074,-0.21457235515117645,0.0,0.0,0.0,0.0,0.0,0.0,0.0,-0.3055413980217137,-0.04551899457217785,-0.23967875235654892,0.20038962154647835,0.09496455893932684,0.09640548723365981,-0.24070984925177438,1.2134451314390147,-0.220177081545194,-0.007504413922346787,-2.603893733375951,-0.10888661137358151,2.468184974087683,0.8264703876785028,1.2134413937687574,-0.2202432315892585,-0.0075118285948192216,-2.6038483821997875,-0.10888392708698907,2.4681821257803174,0.826474908251239,0.0010595788627415599,-0.00023875651589097007,0.00019291826985956437,-0.0005425458189015957,0.0004242557936851947,0.000574358235595626,-0.0007692437334855628,0.0,0.0,0.0,0.0,0.0,0.0,0.0,-3.737670257297765e-06,-6.61500440644891e-05,-7.4146724724343666e-06,4.535117616333295e-05,2.6842865924331383e-06,-2.848307365521663e-06,4.520572736255168e-06,-0.0010595788627415599,0.00023875651589097007,-0.00019291826985956437,0.0005425458189015957,-0.0004242557936851947,-0.000574358235595626,0.0007692437334855628,0.3514034152030945,19.768823623657227,0.4466826617717743,-19.983552932739258,-0.6713767647743225,-2.4566683769226074,0.21457235515117645,0
8,0.03500509262084961,-0.3236324191093445,-19.792627334594727,-0.4704863727092743,19.955781936645508,0.6713767647743225,2.4694857597351074,-0.24844686686992645,0.0,0.0,0.0,0.0,0.0,0.0,0.0,-0.3069126902165169,-0.04960801077989969,-0.24458976301298804,0.20513781997631822,0.09543366351600768,0.09767916293361381,-0.2397709864977712,1.2134431374514438,-0.22017541110933872,-0.007502665515579946,-2.60389178453412,-0.10888657194398249,2.4681839423925296,0.8264742757442095,1.2134413937687574,-0.2202432315892585,-0.0075118285948192216,-2.6038483821997875,-0.10888392708698907,2.4681821257803174,0.826474908251239,0.000490292676801549,9.560993693125235e-05,0.0007078234480880211,0.0008021904579569932,8.055433183874472e-05,0.00011388159678173265,0.00043545169923338685,0.0,0.0,0.0,0.0,0.0,0.0,0.0,-1.7436826864614119e-06,-6.782047991976681e-05,-9.163079239275264e-06,4.340233433230978e-05,2.6448569934167665e-06,-1.8166122122131867e-06,6.325070295298829e-07,-0.000490292676801549,-9.560993693125235e-05,-0.0007078234480880211,-0.0008021904579569932,-8.055433183874472e-05,-0.00011388159678173265,-0.00043545169923338685,0.3236324191093445,19.792627334594727,0.4704863727092743,-19.955781936645508,-0.6713767647743225,-2.4694857597351074,0.24844686686992645,0
9,0.040001869201660156,-0.3236324191093445,-19.792627334594727,-0.4704863727092743,19.955781936645508,0.6713767647743225,2.4694857597351074,-0.24844686686992645,0.0,0.0,0.0,0.0,0.0,0.0,0.0,-0.3069126902165169,-0.04960801077989969,-0.24458976301298804,0.20513781997631822,0.09543366351600768,0.09767916293361381,-0.2397709864977712,1.2134431374514438,-0.22017541110933872,-0.007502665515579946,-2.60389178453412,-0.10888657194398249,2.4681839423925296,0.8264742757442095,1.2134413937687574,-0.2202432315892585,-0.0075118285948192216,-2.6038483821997875,-0.10888392708698907,2.4681821257803174,0.826474908251239,0.000490292676801549,9.560993693125235e-05,0.0007078234480880211,0.0008021904579569932,8.055433183874472e-05,0.00011388159678173265,0.00043545169923338685,0.0,0.0,0.0,0.0,0.0,0.0,0.0,-1.7436826864614119e-06,-6.782047991976681e-05,-9.163079239275264e-06,4.340233433230978e-05,2.6448569934167665e-06,-1.8166122122131867e-06,6.325070295298829e-07,-0.000490292676801549,-9.560993693125235e-05,-0.0007078234480880211,-0.0008021904579569932,-8.055433183874472e-05,-0.00011388159678173265,-0.00043545169923338685,0.3236324191093445,19.792627334594727,0.4704863727092743,-19.955781936645508,-0.6713767647743225,-2.4694857597351074,0.24844686686992645,0
10,0.04492950439453125,-0.3514034152030945,-19.792627334594727,-0.4228789508342743,19.983552932739258,0.6896873116493225,2.4758944511413574,-0.20083944499492645,0.0,0.0,0.0,0.0,0.0,0.0,0.0,-0.3050438007918629,-0.04269403269469389,-0.24363172404200736,0.20126756805060408,0.09464757675379559,0.0971558712049487,-0.2384060309677431,1.213445050971749,-0.22017541110933872,-0.007506015154568883,-2.603893733375951,-0.10888860644896825,2.4681828422200067,0.8264693346680875,1.2134413937687574,-0.2202432315892585,-0.0075118285948192216,-2.6038483821997875,-0.10888392708698907,2.4681821257803174,0.826474908251239,0.0012694720840874007,0.0004992648193225546,-0.0001400133644918148,2.8368258040098913e-06,-0.00035842078510072426,-0.00020191514719207642,-0.0013542553985009377,0.0,0.0,0.0,0.0,0.0,0.0,0.0,-3.6572029915582505e-06,-6.782047991976681e-05,-5.813440250338267e-06,4.535117616333295e-05,4.679361979176289e-06,-7.164396893521996e-07,5.5735831515635326e-06,-0.0012694720840874007,-0.0004992648193225546,0.0001400133644918148,-2.8368258040098913e-06,0.00035842078510072426,0.00020191514719207642,0.0013542553985009377,0.3514034152030945,19.792627334594727,0.4228789508342743,-19.983552932739258,-0.6896873116493225,-2.4758944511413574,0.20083944499492645,0
11,0.04997086524963379,-0.3514034152030945,-19.792627334594727,-0.4228789508342743,19.983552932739258,0.6896873116493225,2.4758944511413574,-0.20083944499492645,0.0,0.0,0.0,0.0,0.0,0.0,0.0,-0.3050438007918629,-0.04269403269469389,-0.24363172404200736,0.20126756805060408,0.09464757675379559,0.0971558712049487,-0.2384060309677431,1.213445050971749,-0.22017541110933872,-0.007506015154568883,-2.603893733375951,-0.10888860644896825,2.4681828422200067,0.8264693346680875,1.2134413937687574,-0.2202432315892585,-0.0075118285948192216,-2.6038483821997875,-0.10888392708698907,2.4681821257803174,0.826474908251239,0.0012694720840874007,0.0004992648193225546,-0.0001400133644918148,2.8368258040098913e-06,-0.00035842078510072426,-0.00020191514719207642,-0.0013542553985009377,0.0,0.0,0.0,0.0,0.0,0.0,0.0,-3.6572029915582505e-06,-6.782047991976681e-05,-5.813440250338267e-06,4.535117616333295e-05,4.679361979176289e-06,-7.164396893521996e-07,5.5735831515635326e-06,-0.0012694720840874007,-0.0004992648193225546,0.0001400133644918148,-2.8368258040098913e-06,0.00035842078510072426,0.00020191514719207642,0.0013542553985009377,0.3514034152030945,19.792627334594727,0.4228789508342743,-19.983552932739258,-0.6896873116493225,-2.4758944511413574,0.20083944499492645,0
12,0.054970741271972656,-0.3236324191093445,-19.816431045532227,-0.4704863727092743,19.983552932739258,0.6832786202430725,2.4694857597351074,-0.24844686686992645,0.0,0.0,0.0,0.0,0.0,0.0,0.0,-0.30777596308552785,-0.04195072724820845,-0.2422898765346323,0.2024593399922866,0.09482594155059865,0.09722562727933479,-0.2380018160058962,1.2134431296018182,-0.22017374067348347,-0.007502743450465371,-2.603893733375951,-0.10888789442623288,2.468183667671558,0.8264773231957224,1.2134413937687574,-0.2202432315892585,-0.0075118285948192216,-2.6038483821997875,-0.10888392708698907,2.4681821257803174,0.826474908251239,3.587269456929379e-05,0.001126128690779403,0.0008716809093981401,-3.4001987018407776e-05,-0.00018024193228099894,1.3700216346679396e-05,0.00012700850297475114,0.0,0.0,0.0,0.0,0.0,0.0,0.0,-1.7358330608452377e-06,-6.949091577501676e-05,-9.085144353850744e-06,4.535117616333295e-05,3.967339243807211e-06,-1.5418912404641105e-06,-2.4149444833865275e-06,-3.587269456929379e-05,-0.001126128690779403,-0.0008716809093981401,3.4001987018407776e-05,0.00018024193228099894,-1.3700216346679396e-05,-0.00012700850297475114,0.3236324191093445,19.816431045532227,0.4704863727092743,-19.983552932739258,-0.6832786202430725,-2.4694857597351074,0.24844686686992645,0
13,0.06000065803527832,-0.3236324191093445,-19.816431045532227,-0.4704863727092743,19.983552932739258,0.6832786202430725,2.4694857597351074,-0.24844686686992645,0.0,0.0,0.0,0.0,0.0,0.0,0.0,-0.30777596308552785,-0.04195072724820845,-0.2422898765346323,0.2024593399922866,0.09482594155059865,0.09722562727933479,-0.2380018160058962,1.2134431296018182,-0.22017374067348347,-0.007502743450465371,-2.603893733375951,-0.10888789442623288,2.468183667671558,0.8264773231957224,1.2134413937687574,-0.2202432315892585,-0.0075118285948192216,-2.6038483821997875,-0.10888392708698907,2.4681821257803174,0.826474908251239,3.587269456929379e-05,0.001126128690779403,0.0008716809093981401,-3.4001987018407776e-05,-0.00018024193228099894,1.3700216346679396e-05,0.00012700850297475114,0.0,0.0,0.0,0.0,0.0,0.0,0.0,-1.7358330608452377e-06,-6.949091577501676e-05,-9.085144353850744e-06,4.535117616333295e-05,3.967339243807211e-06,-1.5418912404641105e-06,-2.4149444833865275e-06,-3.587269456929379e-05,-0.001126128690779403,-0.0008716809093981401,3.4001987018407776e-05,0.00018024193228099894,-1.3700216346679396e-05,-0.00012700850297475114,0.3236324191093445,19.816431045532227,0.4704863727092743,-19.983552932739258,-0.6832786202430725,-2.4694857597351074,0.24844686686992645,0
14,0.06498885154724121,-0.3752071261405945,-19.768823623657227,-0.4704863727092743,19.955781936645508,0.6832786202430725,2.4630770683288574,-0.27591270208358765,0.0,0.0,0.0,0.0,0.0,0.0,0.0,-0.3153600877623757,-0.0462531219866058,-0.24421533708976415,0.20441156043377484,0.09478609567038321,0.0975123963828979,-0.238960387008375,1.2134467223887067,-0.220177081545194,-0.007502664541388792,-2.60389178453412,-0.10888789437214565,2.4681842620114507,0.8264803754011071,1.2134413937687574,-0.2202432315892585,-0.0075118285948192216,-2.6038483821997875,-0.10888392708698907,2.4681821257803174,0.826474908251239,0.0011656770143595049,-0.0007466718752488318,4.1850524998485156e-05,0.0002636813677074931,-3.815020242115907e-05,0.0001739108320444137,0.0016958663631183176,0.0,0.0,0.0,0.0,0.0,0.0,0.0,-5.32861994928524e-06,-6.61500440644891e-05,-9.164053430429225e-06,4.340233433230978e-05,3.96728515657252e-06,-2.1362311333206208e-06,-5.4671498680436414e-06,-0.0011656770143595049,0.0007466718752488318,-4.1850524998485156e-05,-0.0002636813677074931,3.815020242115907e-05,-0.0001739108320444137,-0.0016958663631183176,0.3752071261405945,19.768823623657227,0.4704863727092743,-19.955781936645508,-0.6832786202430725,-2.4630770683288574,0.27591270208358765,0
15,0.07001471519470215,-0.3752071261405945,-19.768823623657227,-0.4704863727092743,19.955781936645508,0.6832786202430725,2.4630770683288574,-0.27591270208358765,0.0,0.0,0.0,0.0,0.0,0.0,0.0,-0.3153600877623757,-0.0462531219866058,-0.24421533708976415,0.20441156043377484,0.09478609567038321,0.0975123963828979,-0.238960387008375,1.2134467223887067,-0.220177081545194,-0.007502664541388792,-2.60389178453412,-0.10888789437214565,2.4681842620114507,0.8264803754011071,1.2134413937687574,-0.2202432315892585,-0.0075118285948192216,-2.6038483821997875,-0.10888392708698907,2.4681821257803174,0.826474908251239,0.0011656770143595049,-0.0007466718752488318,4.1850524998485156e-05,0.0002636813677074931,-3.815020242115907e-05,0.0001739108320444137,0.0016958663631183176,0.0,0.0,0.0,0.0,0.0,0.0,0.0,-5.32861994928524e-06,-6.61500440644891e-05,-9.164053430429225e-06,4.340233433230978e-05,3.96728515657252e-06,-2.1362311333206208e-06,-5.4671498680436414e-06,-0.0011656770143595049,0.0007466718752488318,-4.1850524998485156e-05,-0.0002636813677074931,3.815020242115907e-05,-0.0001739108320444137,-0.0016958663631183176,0.3752071261405945,19.768823623657227,0.4704863727092743,-19.955781936645508,-0.6832786202430725,-2.4630770683288574,0.27591270208358765,0
16,0.07501983642578125,-0.3752071261405945,-19.816431045532227,-0.4466826617717743,19.983552932739258,0.6777854561805725,2.4758944511413574,-0.22830526530742645,0.0,0.0,0.0,0.0,0.0,0.0,0.0,-0.3130869717031544,-0.04604269603748247,-0.24284433390236257,0.2061394060297999,0.09509605091576033,0.09736815068843356,-0.2399022443643027,1.2134474366631443,-0.22017374067348347,-0.007504335301528927,-2.603893733375951,-0.10888728402058283,2.468182839310691,0.8264765452537127,1.2134413937687574,-0.2202432315892585,-0.0075118285948192216,-2.6038483821997875,-0.10888392708698907,2.4681821257803174,0.826474908251239,0.001555514932794471,0.0005034153108116606,-0.00011473814622388822,0.00020751713263392096,0.00010712368524729541,-0.00011537009906138105,-0.0007281967584537315,0.0,0.0,0.0,0.0,0.0,0.0,0.0,-6.04289438688177e-06,-6.949091577501676e-05,-7.493293290294738e-06,4.535117616333295e-05,3.3569335937538858e-06,-7.135303734528975e-07,-1.6370024736866995e-06,-0.001555514932794471,-0.0005034153108116606,0.00011473814622388822,-0.00020751713263392096,-0.00010712368524729541,0.00011537009906138105,0.0007281967584537315,0.3752071261405945,19.816431045532227,0.4466826617717743,-19.983552932739258,-0.6777854561805725,-2.4758944511413574,0.22830526530742645,0
17,0.08001255989074707,-0.3752071261405945,-19.816431045532227,-0.4466826617717743,19.983552932739258,0.6777854561805725,2.4758944511413574,-0.22830526530742645,0.0,0.0,0.0,0.0,0.0,0.0,0.0,-0.3130869717031544,-0.04604269603748247,-0.24284433390236257,0.2061394060297999,0.09509605091576033,0.09736815068843356,-0.2399022443643027,1.2134474366631443,-0.22017374067348347,-0.007504335301528927,-2.603893733375951,-0.10888728402058283,2.468182839310691,0.8264765452537127,1.2134413937687574,-0.2202432315892585,-0.0075118285948192216,-2.6038483821997875,-0.10888392708698907,2.4681821257803174,0.826474908251239,0.001555514932794471,0.0005034153108116606,-0.00011473814622388822,0.00020751713263392096,0.00010712368524729541,-0.00011537009906138105,-0.0007281967584537315,0.0,0.0,0.0,0.0,0.0,0.0,0.0,-6.04289438688177e-06,-6.949091577501676e-05,-7.493293290294738e-06,4.535117616333295e-05,3.3569335937538858e-06,-7.135303734528975e-07,-1.6370024736866995e-06,-0.001555514932794471,-0.0005034153108116606,0.00011473814622388822,-0.00020751713263392096,-0.00010712368524729541,0.00011537009906138105,0.0007281967584537315,0.3752071261405945,19.816431045532227,0.4466826617717743,-19.983552932739258,-0.6777854561805725,-2.4758944511413574,0.22830526530742645,0
18,0.08501338958740234,-0.2720577120780945,-19.792627334594727,-0.4466826617717743,19.983552932739258,0.6777854561805725,2.4694857597351074,-0.24112264811992645,0.0,0.0,0.0,0.0,0.0,0.0,0.0,-0.31500900882170757,-0.043095226173887675,-0.24577210377982914,0.20159797085821815,0.09546676439188749,0.09637563802042255,-0.24201472045676473,1.2134397212746488,-0.22017541110933872,-0.007504334976800441,-2.603893733375951,-0.10888728402058283,2.4681835499339715,0.826474390087022,1.2134413937687574,-0.2202432315892585,-0.0075118285948192216,-2.6038483821997875,-0.10888392708698907,2.4681821257803174,0.826474908251239,-0.0014806221211952925,0.0003621951082124044,5.9296789615518895e-05,-3.1597955271842934e-05,-8.315780540602105e-06,-9.075592002959054e-05,-7.460331155003939e-05,0.0,0.0,0.0,0.0,0.0,0.0,0.0,1.6724941085399792e-06,-6.782047991976681e-05,-7.4936180187801585e-06,4.535117616333295e-05,3.3569335937538858e-06,-1.4241536541170774e-06,5.181642170892786e-07,0.0014806221211952925,-0.0003621951082124044,-5.9296789615518895e-05,3.1597955271842934e-05,8.315780540602105e-06,9.075592002959054e-05,7.460331155003939e-05,0.2720577120780945,19.792627334594727,0.4466826617717743,-19.983552932739258,-0.6777854561805725,-2.4694857597351074,0.24112264811992645,0
19,0.09001326560974121,-0.2720577120780945,-19.792627334594727,-0.4466826617717743,19.983552932739258,0.6777854561805725,2.4694857597351074,-0.24112264811992645,0.0,0.0,0.0,0.0,0.0,0.0,0.0,-0.31500900882170757,-0.043095226173887675,-0.24577210377982914,0.20159797085821815,0.09546676439188749,0.09637563802042255,-0.24201472045676473,1.2134397212746488,-0.22017541110933872,-0.007504334976800441,-2.603893733375951,-0.10888728402058283,2.4681835499339715,0.826474390087022,1.2134413937687574,-0.2202432315892585,-0.0075118285948192216,-2.6038483821997875,-0.10888392708698907,2.4681821257803174,0.826474908251239,-0.0014806221211952925,0.0003621951082124044,5.9296789615518895e-05,-3.1597955271842934e-05,-8.315780540602105e-06,-9.075592002959054e-05,-7.460331155003939e-05,0.0,0.0,0.0,0.0,0.0,0.0,0.0,1.6724941085399792e-06,-6.782047991976681e-05,-7.4936180187801585e-06,4.535117616333295e-05,3.3569335937538858e-06,-1.4241536541170774e-06,5.181642170892786e-07,0.0014806221211952925,-0.0003621951082124044,-5.9296789615518895e-05,3.1597955271842934e-05,8.315780540602105e-06,9.075592002959054e-05,7.460331155003939e-05,0.2720577120780945,19.792627334594727,0.4466826617717743,-19.983552932739258,-0.6777854561805725,-2.4694857597351074,0.24112264811992645,0
20,0.09501481056213379,-0.2998287081718445,-19.792627334594727,-0.4228789508342743,19.955781936645508,0.6777854561805725,2.4694857597351074,-0.22098104655742645,0.0,0.0,0.0,0.0,0.0,0.0,0.0,-0.31219076304033927,-0.046853926866197264,-0.24275975871200167,0.20293516716330637,0.0949754175148815,0.09658212315925041,-0.2425474894843957,1.213441459505125,-0.22017541110933872,-0.007506006386844823,-2.60389178453412,-0.10888728402058283,2.4681835499339635,0.8264744269653397,1.2134413937687574,-0.2202432315892585,-0.0075118285948192216,-2.6038483821997875,-0.10888392708698907,2.4681821257803174,0.826474908251239,0.00023451669086549135,4.608404129850304e-05,-0.0006437008510533273,0.0007233900430721421,5.891798760609217e-05,1.4658042549252303e-05,-0.0007377808868319612,0.0,0.0,0.0,0.0,0.0,0.0,0.0,-6.57363676825895e-08,-6.782047991976681e-05,-5.8222079743989325e-06,4.340233433230978e-05,3.3569335937538858e-06,-1.4241536461234716e-06,4.812858993563651e-07,-0.00023451669086549135,-4.608404129850304e-05,0.0006437008510533273,-0.0007233900430721421,-5.891798760609217e-05,-1.4658042549252303e-05,0.0007377808868319612,0.2998287081718445,19.792627334594727,0.4228789508342743,-19.955781936645508,-0.6777854561805725,-2.4694857597351074,0.22098104655742645,0
21,0.10001349449157715,-0.2998287081718445,-19.792627334594727,-0.4228789508342743,19.955781936645508,0.6777854561805725,2.4694857597351074,-0.22098104655742645,0.0,0.0,0.0,0.0,0.0,0.0,0.0,-0.31219076304033927,-0.046853926866197264,-0.24275975871200167,0.20293516716330637,0.0949754175148815,0.09658212315925041,-0.2425474894843957,1.213441459505125,-0.22017541110933872,-0.007506006386844823,-2.60389178453412,-0.10888728402058283,2.4681835499339635,0.8264744269653397,1.2134413937687574,-0.2202432315892585,-0.0075118285948192216,-2.6038483821997875,-0.10888392708698907,2.4681821257803174,0.826474908251239,0.00023451669086549135,4.608404129850304e-05,-0.0006437008510533273,0.0007233900430721421,5.891798760609217e-05,1.4658042549252303e-05,-0.0007377808868319612,0.0,0.0,0.0,0.0,0.0,0.0,0.0,-6.57363676825895e-08,-6.782047991976681e-05,-5.8222079743989325e-06,4.340233433230978e-05,3.3569335937538858e-06,-1.4241536461234716e-06,4.812858993563651e-07,-0.00023451669086549135,-4.608404129850304e-05,0.0006437008510533273,-0.0007233900430721421,-5.891798760609217e-05,-1.4658042549252303e-05,0.0007377808868319612,0.2998287081718445,19.792627334594727,0.4228789508342743,-19.955781936645508,-0.6777854561805725,-2.4694857597351074,0.22098104655742645,0
22,0.10499954223632812,-0.3236324191093445,-19.745019912719727,-0.4982573688030243,19.931978225708008,0.6713767647743225,2.4758944511413574,-0.24844686686992645,0.0,0.0,0.0,0.0,0.0,0.0,0.0,-0.312545436397757,-0.04102159845500227,-0.2456652602751527,0.20118171447047284,0.09491794611692374,0.09608512232927935,-0.24270215194135575,1.2134431816025957,-0.22017662608205224,-0.0075007157111398656,-2.6038901140982644,-0.10888976575930913,2.4681828378571407,0.8264755693700595,1.2134413937687574,-0.2202432315892585,-0.0075118285948192216,-2.6038483821997875,-0.10888392708698907,2.4681821257803174,0.826474908251239,0.00047565359358694157,-0.0004919599925866065,0.0014411167259298055,0.0010900805768081182,0.0003516762902178545,-0.00024860085113178335,-9.35244756245442e-05,0.0,0.0,0.0,0.0,0.0,0.0,0.0,-1.7878338383070513e-06,-6.660550720624658e-05,-1.1112883679356006e-05,4.173189847689329e-05,5.838672320054861e-06,-7.120768232837804e-07,-6.611188204663776e-07,-0.00047565359358694157,0.0004919599925866065,-0.0014411167259298055,-0.0010900805768081182,-0.0003516762902178545,0.00024860085113178335,9.35244756245442e-05,0.3236324191093445,19.745019912719727,0.4982573688030243,-19.931978225708008,-0.6713767647743225,-2.4758944511413574,0.24844686686992645,0
23,0.11001300811767578,-0.3236324191093445,-19.745019912719727,-0.4982573688030243,19.931978225708008,0.6713767647743225,2.4758944511413574,-0.24844686686992645,0.0,0.0,0.0,0.0,0.0,0.0,0.0,-0.312545436397757,-0.04102159845500227,-0.2456652602751527,0.20118171447047284,0.09491794611692374,0.09608512232927935,-0.24270215194135575,1.2134431816025957,-0.22017662608205224,-0.0075007157111398656,-2.6038901140982644,-0.10888976575930913,2.4681828378571407,0.8264755693700595,1.2134413937687574,-0.2202432315892585,-0.0075118285948192216,-2.6038483821997875,-0.10888392708698907,2.4681821257803174,0.826474908251239,0.00047565359358694157,-0.0004919599925866065,0.0014411167259298055,0.0010900805768081182,0.0003516762902178545,-0.00024860085113178335,-9.35244756245442e-05,0.0,0.0,0.0,0.0,0.0,0.0,0.0,-1.7878338383070513e-06,-6.660550720624658e-05,-1.1112883679356006e-05,4.173189847689329e-05,5.838672320054861e-06,-7.120768232837804e-07,-6.611188204663776e-07,-0.00047565359358694157,0.0004919599925866065,-0.0014411167259298055,-0.0010900805768081182,-0.0003516762902178545,0.00024860085113178335,9.35244756245442e-05,0.3236324191093445,19.745019912719727,0.4982573688030243,-19.931978225708008,-0.6713767647743225,-2.4758944511413574,0.24844686686992645,0
24,0.11501955986022949,-0.3514034152030945,-19.816431045532227,-0.4704863727092743,20.007356643676758,0.6777854561805725,2.4630770683288574,-0.24112264811992645,0.0,0.0,0.0,0.0,0.0,0.0,0.0,-0.31139941016218053,-0.041824826316969786,-0.2441948687769646,0.20510261619604644,0.09538992774911226,0.09707259883132327,-0.24329985506150772,1.2134450599113322,-0.2201737406614827,-0.00750266457702456,-2.6038954038118063,-0.10888740232807678,2.4681842620646215,0.8264737350022356,1.2134413937687574,-0.2202432315892585,-0.0075118285948192216,-2.6038483821997875,-0.10888392708698907,2.4681821257803174,0.826474908251239,0.001142013442131031,0.0011397708740053145,0.00043193668815497973,-0.0006717833690775821,4.7510594841851676e-05,0.00010731378644105615,1.5664076868970253e-05,0.0,0.0,0.0,0.0,0.0,0.0,0.0,-3.666142574854092e-06,-6.949092777577826e-05,-9.164017794661451e-06,4.702161201874944e-05,3.4752410877081363e-06,-2.136284304121716e-06,1.1732490033944387e-06,-0.001142013442131031,-0.0011397708740053145,-0.00043193668815497973,0.0006717833690775821,-4.7510594841851676e-05,-0.00010731378644105615,-1.5664076868970253e-05,0.3514034152030945,19.816431045532227,0.4704863727092743,-20.007356643676758,-0.6777854561805725,-2.4630770683288574,0.24112264811992645,0
25,0.12001419067382812,-0.3514034152030945,-19.816431045532227,-0.4704863727092743,20.007356643676758,0.6777854561805725,2.4630770683288574,-0.24112264811992645,0.0,0.0,0.0,0.0,0.0,0.0,0.0,-0.31139941016218053,-0.041824826316969786,-0.2441948687769646,0.20510261619604644,0.09538992774911226,0.09707259883132327,-0.24329985506150772,1.2134450599113322,-0.2201737406614827,-0.00750266457702456,-2.6038954038118063,-0.10888740232807678,2.4681842620646215,0.8264737350022356,1.2134413937687574,-0.2202432315892585,-0.0075118285948192216,-2.6038483821997875,-0.10888392708698907,2.4681821257803174,0.826474908251239,0.001142013442131031,0.0011397708740053145,0.00043193668815497973,-0.0006717833690775821,4.7510594841851676e-05,0.00010731378644105615,1.5664076868970253e-05,0.0,0.0,0.0,0.0,0.0,0.0,0.0,-3.666142574854092e-06,-6.949092777577826e-05,-9.164017794661451e-06,4.702161201874944e-05,3.4752410877081363e-06,-2.136284304121716e-06,1.1732490033944387e-06,-0.001142013442131031,-0.0011397708740053145,-0.00043193668815497973,0.0006717833690775821,-4.7510594841851676e-05,-0.00010731378644105615,-1.5664076868970253e-05,0.3514034152030945,19.816431045532227,0.4704863727092743,-20.007356643676758,-0.6777854561805725,-2.4630770683288574,0.24112264811992645,0
26,0.12501311302185059,-0.2998287081718445,-19.768823623657227,-0.4466826617717743,20.007356643676758,0.6951804757118225,2.4694857597351074,-0.22830526530742645,0.0,0.0,0.0,0.0,0.0,0.0,0.0,-0.3126658897908024,-0.03826691852699189,-0.24650221834606115,0.20237187497481735,0.0953860397337843,0.09622885571853927,-0.24217989110407853,1.2134435774974646,-0.22017708154519394,-0.0075043612799544895,-2.6038954038118063,-0.10888921680119859,2.4681835504723155,0.8264723859967598,1.2134413937687574,-0.2202432315892585,-0.0075118285948192216,-2.6038483821997875,-0.10888392708698907,2.4681821257803174,0.826474908251239,-0.0005465920271309408,-0.0004329119784979217,0.00011923395103419514,-0.000856850742553849,-0.0004463586416809635,-0.00020302413926683518,-0.0009902858082681287,0.0,0.0,0.0,0.0,0.0,0.0,0.0,-2.183728707194632e-06,-6.615004406454461e-05,-7.467314864732094e-06,4.702161201874944e-05,5.289714209516516e-06,-1.4246919981530937e-06,2.5222544792757873e-06,0.0005465920271309408,0.0004329119784979217,-0.00011923395103419514,0.000856850742553849,0.0004463586416809635,0.00020302413926683518,0.0009902858082681287,0.2998287081718445,19.768823623657227,0.4466826617717743,-20.007356643676758,-0.6951804757118225,-2.4694857597351074,0.22830526530742645,0
27,0.13001298904418945,-0.2998287081718445,-19.768823623657227,-0.4466826617717743,20.007356643676758,0.6951804757118225,2.4694857597351074,-0.22830526530742645,0.0,0.0,0.0,0.0,0.0,0.0,0.0,-0.3126658897908024,-0.03826691852699189,-0.24650221834606115,0.20237187497481735,0.0953860397337843,0.09622885571853927,-0.24217989110407853,1.2134435774974646,-0.22017708154519394,-0.0075043612799544895,-2.6038954038118063,-0.10888921680119859,2.4681835504723155,0.8264723859967598,1.2134413937687574,-0.2202432315892585,-0.0075118285948192216,-2.6038483821997875,-0.10888392708698907,2.4681821257803174,0.826474908251239,-0.0005465920271309408,-0.0004329119784979217,0.00011923395103419514,-0.000856850742553849,-0.0004463586416809635,-0.00020302413926683518,-0.0009902858082681287,0.0,0.0,0.0,0.0,0.0,0.0,0.0,-2.183728707194632e-06,-6.615004406454461e-05,-7.467314864732094e-06,4.702161201874944e-05,5.289714209516516e-06,-1.4246919981530937e-06,2.5222544792757873e-06,0.0005465920271309408,0.0004329119784979217,-0.00011923395103419514,0.000856850742553849,0.0004463586416809635,0.00020302413926683518,0.0009902858082681287,0.2998287081718445,19.768823623657227,0.4466826617717743,-20.007356643676758,-0.6951804757118225,-2.4694857597351074,0.22830526530742645,0
28,0.13501214981079102,-0.2998287081718445,-19.768823623657227,-0.4466826617717743,20.007356643676758,0.6951804757118225,2.4694857597351074,-0.22830526530742645,0.0,0.0,0.0,0.0,0.0,0.0,0.0,-0.3126658897908024,-0.03826691852699189,-0.24650221834606115,0.20237187497481735,0.0953860397337843,0.09622885571853927,-0.24217989110407853,1.2134435774974646,-0.22017708154519394,-0.0075043612799544895,-2.6038954038118063,-0.10888921680119859,2.4681835504723155,0.8264723859967598,1.2134413937687574,-0.2202432315892585,-0.0075118285948192216,-2.6038483821997875,-0.10888392708698907,2.4681821257803174,0.826474908251239,-0.0005465920271309408,-0.0004329119784979217,0.00011923395103419514,-0.000856850742553849,-0.0004463586416809635,-0.00020302413926683518,-0.0009902858082681287,0.0,0.0,0.0,0.0,0.0,0.0,0.0,-2.183728707194632e-06,-6.615004406454461e-05,-7.467314864732094e-06,4.702161201874944e-05,5.289714209516516e-06,-1.4246919981530937e-06,2.5222544792757873e-06,0.0005465920271309408,0.0004329119784979217,-0.00011923395103419514,0.000856850742553849,0.0004463586416809635,0.00020302413926683518,0.0009902858082681287,0.2998287081718445,19.768823623657227,0.4466826617717743,-20.007356643676758,-0.6951804757118225,-2.4694857597351074,0.22830526530742645,0
29,0.14000415802001953,-0.2998287081718445,-19.768823623657227,-0.4466826617717743,20.007356643676758,0.6951804757118225,2.4694857597351074,-0.22830526530742645,0.0,0.0,0.0,0.0,0.0,0.0,0.0,-0.3126658897908024,-0.03826691852699189,-0.24650221834606115,0.20237187497481735,0.0953860397337843,0.09622885571853927,-0.24217989110407853,1.2134435774974646,-0.22017708154519394,-0.0075043612799544895,-2.6038954038118063,-0.10888921680119859,2.4681835504723155,0.8264723859967598,1.2134413937687574,-0.2202432315892585,-0.0075118285948192216,-2.6038483821997875,-0.10888392708698907,2.4681821257803174,0.826474908251239,-0.0005465920271309408,-0.0004329119784979217,0.00011923395103419514,-0.000856850742553849,-0.0004463586416809635,-0.00020302413926683518,-0.0009902858082681287,0.0,0.0,0.0,0.0,0.0,0.0,0.0,-2.183728707194632e-06,-6.615004406454461e-05,-7.467314864732094e-06,4.702161201874944e-05,5.289714209516516e-06,-1.4246919981530937e-06,2.5222544792757873e-06,0.0005465920271309408,0.0004329119784979217,-0.00011923395103419514,0.000856850742553849,0.0004463586416809635,0.00020302413926683518,0.0009902858082681287,0.2998287081718445,19.768823623657227,0.4466826617717743,-20.007356643676758,-0.6951804757118225,-2.4694857597351074,0.22830526530742645,0
30,0.14501357078552246,-0.3236324191093445,-19.792627334594727,-0.4466826617717743,20.007356643676758,0.6832786202430725,2.4823031425476074,-0.24844686686992645,0.0,0.0,0.0,0.0,0.0,0.0,0.0,-0.3098099331435823,-0.040764071731554,-0.2431179897872934,0.20597210046541342,0.09609934650856171,0.09640792497243798,-0.2432799121236281,1.213443105085271,-0.22017541110933872,-0.007504334976947091,-2.6038954038118063,-0.10888789437214534,2.4681821781081292,0.8264773629260933,1.2134413937687574,-0.2202432315892585,-0.0075118285948192216,-2.6038483821997875,-0.10888392708698907,2.4681821257803174,0.826474908251239,0.00043580455924306866,0.0001894818189573568,0.00046040170772365066,-0.00046123785139579444,7.128618898466559e-05,-0.000810983367772303,0.0003746490730307792,0.0,0.0,0.0,0.0,0.0,0.0,0.0,-1.7113165136084518e-06,-6.782047991976681e-05,-7.493617872130973e-06,4.702161201874944e-05,3.9672851562672085e-06,-5.2327811861374585e-08,-2.454674854268646e-06,-0.00043580455924306866,-0.0001894818189573568,-0.00046040170772365066,0.00046123785139579444,-7.128618898466559e-05,0.000810983367772303,-0.0003746490730307792,0.3236324191093445,19.792627334594727,0.4466826617717743,-20.007356643676758,-0.6832786202430725,-2.4823031425476074,0.24844686686992645,0
31,0.15001320838928223,-0.3236324191093445,-19.792627334594727,-0.4466826617717743,20.007356643676758,0.6832786202430725,2.4823031425476074,-0.24844686686992645,0.0,0.0,0.0,0.0,0.0,0.0,0.0,-0.3098099331435823,-0.040764071731554,-0.2431179897872934,0.20597210046541342,0.09609934650856171,0.09640792497243798,-0.2432799121236281,1.213443105085271,-0.22017541110933872,-0.007504334976947091,-2.6038954038118063,-0.10888789437214534,2.4681821781081292,0.8264773629260933,1.2134413937687574,-0.2202432315892585,-0.0075118285948192216,-2.6038483821997875,-0.10888392708698907,2.4681821257803174,0.826474908251239,0.00043580455924306866,0.0001894818189573568,0.00046040170772365066,-0.00046123785139579444,7.128618898466559e-05,-0.000810983367772303,0.0003746490730307792,0.0,0.0,0.0,0.0,0.0,0.0,0.0,-1.7113165136084518e-06,-6.782047991976681e-05,-7.493617872130973e-06,4.702161201874944e-05,3.9672851562672085e-06,-5.2327811861374585e-08,-2.454674854268646e-06,-0.00043580455924306866,-0.0001894818189573568,-0.00046040170772365066,0.00046123785139579444,-7.128618898466559e-05,0.000810983367772303,-0.0003746490730307792,0.3236324191093445,19.792627334594727,0.4466826617717743,-20.007356643676758,-0.6832786202430725,-2.4823031425476074,0.24844686686992645,0
32,0.15501856803894043,-0.2998287081718445,-19.816431045532227,-0.4466826617717743,20.007356643676758,0.6777854561805725,2.4630770683288574,-0.25485557317733765,0.0,0.0,0.0,0.0,0.0,0.0,0.0,-0.31241594413422935,-0.04179158884744666,-0.2441830083580439,0.2041076557066425,0.09680625065529061,0.09617165287084627,-0.24357377466639243,1.2134435774974308,-0.22017374067348347,-0.0075043378993714625,-2.6038954038118063,-0.10888763888897718,2.4681842620110817,0.8264780819647737,1.2134413937687574,-0.2202432315892585,-0.0075118285948192216,-2.6038483821997875,-0.10888392708698907,2.4681821257803174,0.826474908251239,-9.621104987712166e-05,0.0005273188996086565,3.583709080622088e-05,-0.00041893609602878515,0.00011787821935248322,0.00024375642733059872,0.0008090721644328054,0.0,0.0,0.0,0.0,0.0,0.0,0.0,-2.183728673443852e-06,-6.949091577501676e-05,-7.49069544775903e-06,4.702161201874944e-05,3.7118019881043907e-06,-2.1362307642824874e-06,-3.173713534643241e-06,9.621104987712166e-05,-0.0005273188996086565,-3.583709080622088e-05,0.00041893609602878515,-0.00011787821935248322,-0.00024375642733059872,-0.0008090721644328054,0.2998287081718445,19.816431045532227,0.4466826617717743,-20.007356643676758,-0.6777854561805725,-2.4630770683288574,0.25485557317733765,0
33,0.160003662109375,-0.2998287081718445,-19.816431045532227,-0.4466826617717743,20.007356643676758,0.6777854561805725,2.4630770683288574,-0.25485557317733765,0.0,0.0,0.0,0.0,0.0,0.0,0.0,-0.31241594413422935,-0.04179158884744666,-0.2441830083580439,0.2041076557066425,0.09680625065529061,0.09617165287084627,-0.24357377466639243,1.2134435774974308,-0.22017374067348347,-0.0075043378993714625,-2.6038954038118063,-0.10888763888897718,2.4681842620110817,0.8264780819647737,1.2134413937687574,-0.2202432315892585,-0.0075118285948192216,-2.6038483821997875,-0.10888392708698907,2.4681821257803174,0.826474908251239,-9.621104987712166e-05,0.0005273188996086565,3.583709080622088e-05,-0.00041893609602878515,0.00011787821935248322,0.00024375642733059872,0.0008090721644328054,0.0,0.0,0.0,0.0,0.0,0.0,0.0,-2.183728673443852e-06,-6.949091577501676e-05,-7.49069544775903e-06,4.702161201874944e-05,3.7118019881043907e-06,-2.1362307642824874e-06,-3.173713534643241e-06,9.621104987712166e-05,-0.0005273188996086565,-3.583709080622088e-05,0.00041893609602878515,-0.00011787821935248322,-0.00024375642733059872,-0.0008090721644328054,0.2998287081718445,19.816431045532227,0.4466826617717743,-20.007356643676758,-0.6777854561805725,-2.4630770683288574,0.25485557317733765,0
34,0.16501355171203613,-0.3236324191093445,-19.745019912719727,-0.4704863727092743,19.955781936645508,0.6832786202430725,2.4694857597351074,-0.21457235515117645,0.0,0.0,0.0,0.0,0.0,0.0,0.0,-0.31127772295599104,-0.045891578809257545,-0.24438658876764532,0.20547587133651085,0.09637971990910268,0.09621038888454518,-0.24343634886266857,1.2134431060664175,-0.22017875198104925,-0.00750482143580653,-2.60389178453412,-0.10888789437414857,2.4681835499339635,0.8264719102430786,1.2134413937687574,-0.2202432315892585,-0.0075118285948192216,-2.6038483821997875,-0.10888392708698907,2.4681821257803174,0.826474908251239,0.0003772873567926928,-0.0015429609364931765,0.0005535769869284747,0.0008074322380036301,-9.194867312555313e-05,-1.4446514991809126e-05,-0.0012443886843021513,0.0,0.0,0.0,0.0,0.0,0.0,0.0,-1.7122976601058326e-06,-6.447960820923915e-05,-7.007159012691749e-06,4.340233433230978e-05,3.967287159498123e-06,-1.4241536461234716e-06,2.998008160393084e-06,-0.0003772873567926928,0.0015429609364931765,-0.0005535769869284747,-0.0008074322380036301,9.194867312555313e-05,1.4446514991809126e-05,0.0012443886843021513,0.3236324191093445,19.745019912719727,0.4704863727092743,-19.955781936645508,-0.6832786202430725,-2.4694857597351074,0.21457235515117645,0
35,0.1700136661529541,-0.3236324191093445,-19.745019912719727,-0.4704863727092743,19.955781936645508,0.6832786202430725,2.4694857597351074,-0.21457235515117645,0.0,0.0,0.0,0.0,0.0,0.0,0.0,-0.31127772295599104,-0.045891578809257545,-0.24438658876764532,0.20547587133651085,0.09637971990910268,0.09621038888454518,-0.24343634886266857,1.2134431060664175,-0.22017875198104925,-0.00750482143580653,-2.60389178453412,-0.10888789437414857,2.4681835499339635,0.8264719102430786,1.2134413937687574,-0.2202432315892585,-0.0075118285948192216,-2.6038483821997875,-0.10888392708698907,2.4681821257803174,0.826474908251239,0.0003772873567926928,-0.0015429609364931765,0.0005535769869284747,0.0008074322380036301,-9.194867312555313e-05,-1.4446514991809126e-05,-0.0012443886843021513,0.0,0.0,0.0,0.0,0.0,0.0,0.0,-1.7122976601058326e-06,-6.447960820923915e-05,-7.007159012691749e-06,4.340233433230978e-05,3.967287159498123e-06,-1.4241536461234716e-06,2.998008160393084e-06,-0.0003772873567926928,0.0015429609364931765,-0.0005535769869284747,-0.0008074322380036301,9.194867312555313e-05,1.4446514991809126e-05,0.0012443886843021513,0.3236324191093445,19.745019912719727,0.4704863727092743,-19.955781936645508,-0.6832786202430725,-2.4694857597351074,0.21457235515117645,0
36,0.1750032901763916,-0.3236324191093445,-19.792627334594727,-0.4228789508342743,20.007356643676758,0.6777854561805725,2.4758944511413574,-0.24844686686992645,0.0,0.0,0.0,0.0,0.0,0.0,0.0,-0.31212739712849846,-0.04459486391433401,-0.24646785748972333,0.20443865229554065,0.09553610132497856,0.0955863763745947,-0.2434238533859014,1.213443102129741,-0.22017541078531813,-0.007506005424829606,-2.6038954038118063,-0.10888763888897719,2.468186016771529,0.8264753681765671,1.2134413937687574,-0.2202432315892585,-0.0075118285948192216,-2.6038483821997875,-0.10888392708698907,2.4681821257803174,0.826474908251239,0.0001822429196113716,0.00035699075484638473,-0.0006481315964498229,-0.0005097271421668591,-0.00011108607880807023,-0.0004484835448672518,0.0007537035350791307,0.0,0.0,0.0,0.0,0.0,0.0,0.0,-1.7083609835655267e-06,-6.782080394035495e-05,-5.823169989615552e-06,4.702161201874944e-05,3.7118019881182684e-06,-3.8909912114526435e-06,-4.5992532804461916e-07,-0.0001822429196113716,-0.00035699075484638473,0.0006481315964498229,0.0005097271421668591,0.00011108607880807023,0.0004484835448672518,-0.0007537035350791307,0.3236324191093445,19.792627334594727,0.4228789508342743,-20.007356643676758,-0.6777854561805725,-2.4758944511413574,0.24844686686992645,0
37,0.18000030517578125,-0.3236324191093445,-19.792627334594727,-0.4228789508342743,20.007356643676758,0.6777854561805725,2.4758944511413574,-0.24844686686992645,0.0,0.0,0.0,0.0,0.0,0.0,0.0,-0.31212739712849846,-0.04459486391433401,-0.24646785748972333,0.20443865229554065,0.09553610132497856,0.0955863763745947,-0.2434238533859014,1.213443102129741,-0.22017541078531813,-0.007506005424829606,-2.6038954038118063,-0.10888763888897719,2.468186016771529,0.8264753681765671,1.2134413937687574,-0.2202432315892585,-0.0075118285948192216,-2.6038483821997875,-0.10888392708698907,2.4681821257803174,0.826474908251239,0.0001822429196113716,0.00035699075484638473,-0.0006481315964498229,-0.0005097271421668591,-0.00011108607880807023,-0.0004484835448672518,0.0007537035350791307,0.0,0.0,0.0,0.0,0.0,0.0,0.0,-1.7083609835655267e-06,-6.782080394035495e-05,-5.823169989615552e-06,4.702161201874944e-05,3.7118019881182684e-06,-3.8909912114526435e-06,-4.5992532804461916e-07,-0.0001822429196113716,-0.00035699075484638473,0.0006481315964498229,0.0005097271421668591,0.00011108607880807023,0.0004484835448672518,-0.0007537035350791307,0.3236324191093445,19.792627334594727,0.4228789508342743,-20.007356643676758,-0.6777854561805725,-2.4758944511413574,0.24844686686992645,0
38,0.1850125789642334,-0.2998287081718445,-19.768823623657227,-0.3990752398967743,19.983552932739258,0.6777854561805725,2.4630770683288574,-0.20724813640117645,0.0,0.0,0.0,0.0,0.0,0.0,0.0,-0.3168654778028421,-0.04697559396617132,-0.2507334166524916,0.20545996460898536,0.09493049760537264,0.09606291479849297,-0.2426978787053404,1.2134414316938635,-0.22017708154519217,-0.0075079125769103,-2.603893733375951,-0.10888834862776914,2.468187481642526,0.8264731472275871,1.2134413937687574,-0.2202432315892585,-0.0075118285948192216,-2.6038483821997875,-0.10888392708698907,2.4681821257803174,0.826474908251239,-0.0011057036045246862,-0.0003363495309548649,-0.0014670440170859603,-9.639683616707833e-06,-3.653016921639548e-06,0.0003631276214302093,-0.0012754137397204014,0.0,0.0,0.0,0.0,0.0,0.0,0.0,-3.7925106166625255e-08,-6.615004406632097e-05,-3.916017908921383e-06,4.535117616333295e-05,4.4215407800640705e-06,-5.355862208844542e-06,1.7610236519027822e-06,0.0011057036045246862,0.0003363495309548649,0.0014670440170859603,9.639683616707833e-06,3.653016921639548e-06,-0.0003631276214302093,0.0012754137397204014,0.2998287081718445,19.768823623657227,0.3990752398967743,-19.983552932739258,-0.6777854561805725,-2.4630770683288574,0.20724813640117645,0
39,0.19001364707946777,-0.2998287081718445,-19.768823623657227,-0.3990752398967743,19.983552932739258,0.6777854561805725,2.4630770683288574,-0.20724813640117645,0.0,0.0,0.0,0.0,0.0,0.0,0.0,-0.3168654778028421,-0.04697559396617132,-0.2507334166524916,0.20545996460898536,0.09493049760537264,0.09606291479849297,-0.2426978787053404,1.2134414316938635,-0.22017708154519217,-0.0075079125769103,-2.603893733375951,-0.10888834862776914,2.468187481642526,0.8264731472275871,1.2134413937687574,-0.2202432315892585,-0.0075118285948192216,-2.6038483821997875,-0.10888392708698907,2.4681821257803174,0.826474908251239,-0.0011057036045246862,-0.0003363495309548649,-0.0014670440170859603,-9.639683616707833e-06,-3.653016921639548e-06,0.0003631276214302093,-0.0012754137397204014,0.0,0.0,0.0,0.0,0.0,0.0,0.0,-3.7925106166625255e-08,-6.615004406632097e-05,-3.916017908921383e-06,4.535117616333295e-05,4.4215407800640705e-06,-5.355862208844542e-06,1.7610236519027822e-06,0.0011057036045246862,0.0003363495309548649,0.0014670440170859603,9.639683616707833e-06,3.653016921639548e-06,-0.0003631276214302093,0.0012754137397204014,0.2998287081718445,19.768823623657227,0.3990752398967743,-19.983552932739258,-0.6777854561805725,-2.4630770683288574,0.20724813640117645,0
40,0.19499468803405762,-0.3236324191093445,-19.745019912719727,-0.4466826617717743,19.983552932739258,0.6713767647743225,2.4823031425476074,-0.24112264811992645,0.0,0.0,0.0,0.0,0.0,0.0,0.0,-0.31087357271630006,-0.04021943020336905,-0.24296436693566154,0.19970879796744737,0.09426778395644733,0.09585448050659887,-0.24168286272438208,1.2134438183666023,-0.22017875198104925,-0.007504571709208721,-2.603893733375951,-0.10888657196178912,2.4681821258348418,0.8264738106395075,1.2134413937687574,-0.2202432315892585,-0.0075118285948192216,-2.6038483821997875,-0.10888392708698907,2.4681821257803174,0.826474908251239,0.0002884114644319639,-0.0006644002206679892,0.00014864958220788584,-0.0005672904510561003,0.0002382878823712678,-0.0003580318428697149,-0.00021873611489721715,0.0,0.0,0.0,0.0,0.0,0.0,0.0,-2.42459784494109e-06,-6.447960820923915e-05,-7.256885610500488e-06,4.535117616333295e-05,2.644874800047936e-06,-5.452438500697099e-11,1.0976117315042444e-06,-0.0002884114644319639,0.0006644002206679892,-0.00014864958220788584,0.0005672904510561003,-0.0002382878823712678,0.0003580318428697149,0.00021873611489721715,0.3236324191093445,19.745019912719727,0.4466826617717743,-19.983552932739258,-0.6713767647743225,-2.4823031425476074,0.24112264811992645,0
41,0.2000114917755127,-0.3236324191093445,-19.745019912719727,-0.4466826617717743,19.983552932739258,0.6713767647743225,2.4823031425476074,-0.24112264811992645,0.0,0.0,0.0,0.0,0.0,0.0,0.0,-0.31087357271630006,-0.04021943020336905,-0.24296436693566154,0.19970879796744737,0.09426778395644733,0.09585448050659887,-0.24168286272438208,1.2134438183666023,-0.22017875198104925,-0.007504571709208721,-2.603893733375951,-0.10888657196178912,2.4681821258348418,0.8264738106395075,1.2134413937687574,-0.2202432315892585,-0.0075118285948192216,-2.6038483821997875,-0.10888392708698907,2.4681821257803174,0.826474908251239,0.0002884114644319639,-0.0006644002206679892,0.00014864958220788584,-0.0005672904510561003,0.0002382878823712678,-0.0003580318428697149,-0.00021873611489721715,0.0,0.0,0.0,0.0,0.0,0.0,0.0,-2.42459784494109e-06,-6.447960820923915e-05,-7.256885610500488e-06,4.535117616333295e-05,2.644874800047936e-06,-5.452438500697099e-11,1.0976117315042444e-06,-0.0002884114644319639,0.0006644002206679892,-0.00014864958220788584,0.0005672904510561003,-0.0002382878823712678,0.0003580318428697149,0.00021873611489721715,0.3236324191093445,19.745019912719727,0.4466826617717743,-19.983552932739258,-0.6713767647743225,-2.4823031425476074,0.24112264811992645,0
42,0.2049856185913086,-0.3236324191093445,-19.816431045532227,-0.4466826617717743,19.983552932739258,0.6832786202430725,2.4566683769226074,-0.26217979192733765,0.0,0.0,0.0,0.0,0.0,0.0,0.0,-0.31252554646695535,-0.04495868872791579,-0.2472006306920202,0.2047987549639964,0.09460742281342777,0.09731250043044835,-0.2416550471737861,1.213443181603926,-0.22017374067348347,-0.007504334977244062,-2.603893733375951,-0.10888789437214537,2.468184974087609,0.8264761529002549,1.2134413937687574,-0.2202432315892585,-0.0075118285948192216,-2.6038483821997875,-0.10888392708698907,2.4681821257803174,0.826474908251239,0.0004018895667190419,0.0008177930310592713,-0.00010020428425428552,-0.0003683430084725319,3.487749908835718e-05,0.0006158969672491699,0.0008892435384496737,0.0,0.0,0.0,0.0,0.0,0.0,0.0,-1.7878351685762794e-06,-6.949091577501676e-05,-7.493617575159324e-06,4.535117616333295e-05,3.967285156294964e-06,-2.848307291802854e-06,-1.244649015852417e-06,-0.0004018895667190419,-0.0008177930310592713,0.00010020428425428552,0.0003683430084725319,-3.487749908835718e-05,-0.0006158969672491699,-0.0008892435384496737,0.3236324191093445,19.816431045532227,0.4466826617717743,-19.983552932739258,-0.6832786202430725,-2.4566683769226074,0.26217979192733765,0
43,0.20999670028686523,-0.3236324191093445,-19.816431045532227,-0.4466826617717743,19.983552932739258,0.6832786202430725,2.4566683769226074,-0.26217979192733765,0.0,0.0,0.0,0.0,0.0,0.0,0.0,-0.31252554646695535,-0.04495868872791579,-0.2472006306920202,0.2047987549639964,0.09460742281342777,0.09731250043044835,-0.2416550471737861,1.213443181603926,-0.22017374067348347,-0.007504334977244062,-2.603893733375951,-0.10888789437214537,2.468184974087609,0.8264761529002549,1.2134413937687574,-0.2202432315892585,-0.0075118285948192216,-2.6038483821997875,-0.10888392708698907,2.4681821257803174,0.826474908251239,0.0004018895667190419,0.0008177930310592713,-0.00010020428425428552,-0.0003683430084725319,3.487749908835718e-05,0.0006158969672491699,0.0008892435384496737,0.0,0.0,0.0,0.0,0.0,0.0,0.0,-1.7878351685762794e-06,-6.949091577501676e-05,-7.493617575159324e-06,4.535117616333295e-05,3.967285156294964e-06,-2.848307291802854e-06,-1.244649015852417e-06,-0.0004018895667190419,-0.0008177930310592713,0.00010020428425428552,0.0003683430084725319,-3.487749908835718e-05,-0.0006158969672491699,-0.0008892435384496737,0.3236324191093445,19.816431045532227,0.4466826617717743,-19.983552932739258,-0.6832786202430725,-2.4566683769226074,0.26217979192733765,0
44,0.21500086784362793,-0.2998287081718445,-19.792627334594727,-0.4466826617717743,19.983552932739258,0.6777854561805725,2.4566683769226074,-0.22830526530742645,0.0,0.0,0.0,0.0,0.0,0.0,0.0,-0.30893141573593375,-0.04551437734378639,-0.24490150168584401,0.2051392537253168,0.09480317355372044,0.09743400284472306,-0.24211554070564978,1.213441431694312,-0.22017541110933872,-0.007504334976798611,-2.603893733375951,-0.10888729716385669,2.4681849741414443,0.8264733677896396,1.2134413937687574,-0.2202432315892585,-0.0075118285948192216,-2.6038483821997875,-0.10888392708698907,2.4681821257803174,0.826474908251239,-0.00019596031856157782,-9.932857970000407e-06,0.0007924982405568604,7.990128834737223e-05,-6.0012214742807555e-05,0.0004922814453966271,-0.0009475750455745717,0.0,0.0,0.0,0.0,0.0,0.0,0.0,-3.7925554696727204e-08,-6.782047991976681e-05,-7.493618020610292e-06,4.535117616333295e-05,3.3700768676120374e-06,-2.8483611269614073e-06,1.540461599391918e-06,0.00019596031856157782,9.932857970000407e-06,-0.0007924982405568604,-7.990128834737223e-05,6.0012214742807555e-05,-0.0004922814453966271,0.0009475750455745717,0.2998287081718445,19.792627334594727,0.4466826617717743,-19.983552932739258,-0.6777854561805725,-2.4566683769226074,0.22830526530742645,0
45,0.21999907493591309,-0.2998287081718445,-19.792627334594727,-0.4466826617717743,19.983552932739258,0.6777854561805725,2.4566683769226074,-0.22830526530742645,0.0,0.0,0.0,0.0,0.0,0.0,0.0,-0.30893141573593375,-0.04551437734378639,-0.24490150168584401,0.2051392537253168,0.09480317355372044,0.09743400284472306,-0.24211554070564978,1.213441431694312,-0.22017541110933872,-0.007504334976798611,-2.603893733375951,-0.10888729716385669,2.4681849741414443,0.8264733677896396,1.2134413937687574,-0.2202432315892585,-0.0075118285948192216,-2.6038483821997875,-0.10888392708698907,2.4681821257803174,0.826474908251239,-0.00019596031856157782,-9.932857970000407e-06,0.0007924982405568604,7.990128834737223e-05,-6.0012214742807555e-05,0.0004922814453966271,-0.0009475750455745717,0.0,0.0,0.0,0.0,0.0,0.0,0.0,-3.7925554696727204e-08,-6.782047991976681e-05,-7.493618020610292e-06,4.535117616333295e-05,3.3700768676120374e-06,-2.8483611269614073e-06,1.540461599391918e-06,0.00019596031856157782,9.932857970000407e-06,-0.0007924982405568604,-7.990128834737223e-05,6.0012214742807555e-05,-0.0004922814453966271,0.0009475750455745717,0.2998287081718445,19.792627334594727,0.4466826617717743,-19.983552932739258,-0.6777854561805725,-2.4566683769226074,0.22830526530742645,0
46,0.22501325607299805,-0.2998287081718445,-19.792627334594727,-0.4466826617717743,19.983552932739258,0.6777854561805725,2.4566683769226074,-0.22830526530742645,0.0,0.0,0.0,0.0,0.0,0.0,0.0,-0.30893141573593375,-0.04551437734378639,-0.24490150168584401,0.2051392537253168,0.09480317355372044,0.09743400284472306,-0.24211554070564978,1.213441431694312,-0.22017541110933872,-0.007504334976798611,-2.603893733375951,-0.10888729716385669,2.4681849741414443,0.8264733677896396,1.2134413937687574,-0.2202432315892585,-0.0075118285948192216,-2.6038483821997875,-0.10888392708698907,2.4681821257803174,0.826474908251239,-0.00019596031856157782,-9.932857970000407e-06,0.0007924982405568604,7.990128834737223e-05,-6.0012214742807555e-05,0.0004922814453966271,-0.0009475750455745717,0.0,0.0,0.0,0.0,0.0,0.0,0.0,-3.7925554696727204e-08,-6.782047991976681e-05,-7.493618020610292e-06,4.535117616333295e-05,3.3700768676120374e-06,-2.8483611269614073e-06,1.540461599391918e-06,0.00019596031856157782,9.932857970000407e-06,-0.0007924982405568604,-7.990128834737223e-05,6.0012214742807555e-05,-0.0004922814453966271,0.0009475750455745717,0.2998287081718445,19.792627334594727,0.4466826617717743,-19.983552932739258,-0.6777854561805725,-2.4566683769226074,0.22830526530742645,0
47,0.22999787330627441,-0.2998287081718445,-19.792627334594727,-0.4466826617717743,19.983552932739258,0.6777854561805725,2.4566683769226074,-0.22830526530742645,0.0,0.0,0.0,0.0,0.0,0.0,0.0,-0.30893141573593375,-0.04551437734378639,-0.24490150168584401,0.2051392537253168,0.09480317355372044,0.09743400284472306,-0.24211554070564978,1.213441431694312,-0.22017541110933872,-0.007504334976798611,-2.603893733375951,-0.10888729716385669,2.4681849741414443,0.8264733677896396,1.2134413937687574,-0.2202432315892585,-0.0075118285948192216,-2.6038483821997875,-0.10888392708698907,2.4681821257803174,0.826474908251239,-0.00019596031856157782,-9.932857970000407e-06,0.0007924982405568604,7.990128834737223e-05,-6.0012214742807555e-05,0.0004922814453966271,-0.0009475750455745717,0.0,0.0,0.0,0.0,0.0,0.0,0.0,-3.7925554696727204e-08,-6.782047991976681e-05,-7.493618020610292e-06,4.535117616333295e-05,3.3700768676120374e-06,-2.8483611269614073e-06,1.540461599391918e-06,0.00019596031856157782,9.932857970000407e-06,-0.0007924982405568604,-7.990128834737223e-05,6.0012214742807555e-05,-0.0004922814453966271,0.0009475750455745717,0.2998287081718445,19.792627334594727,0.4466826617717743,-19.983552932739258,-0.6777854561805725,-2.4566683769226074,0.22830526530742645,0
48,0.23501133918762207,-0.2998287081718445,-19.792627334594727,-0.4466826617717743,19.983552932739258,0.6777854561805725,2.4566683769226074,-0.22830526530742645,0.0,0.0,0.0,0.0,0.0,0.0,0.0,-0.30893141573593375,-0.04551437734378639,-0.24490150168584401,0.2051392537253168,0.09480317355372044,0.09743400284472306,-0.24211554070564978,1.213441431694312,-0.22017541110933872,-0.007504334976798611,-2.603893733375951,-0.10888729716385669,2.4681849741414443,0.8264733677896396,1.2134413937687574,-0.2202432315892585,-0.0075118285948192216,-2.6038483821997875,-0.10888392708698907,2.4681821257803174,0.826474908251239,-0.00019596031856157782,-9.932857970000407e-06,0.0007924982405568604,7.990128834737223e-05,-6.0012214742807555e-05,0.0004922814453966271,-0.0009475750455745717,0.0,0.0,0.0,0.0,0.0,0.0,0.0,-3.7925554696727204e-08,-6.782047991976681e-05,-7.493618020610292e-06,4.535117616333295e-05,3.3700768676120374e-06,-2.8483611269614073e-06,1.540461599391918e-06,0.00019596031856157782,9.932857970000407e-06,-0.0007924982405568604,-7.990128834737223e-05,6.0012214742807555e-05,-0.0004922814453966271,0.0009475750455745717,0.2998287081718445,19.792627334594727,0.4466826617717743,-19.983552932739258,-0.6777854561805725,-2.4566683769226074,0.22830526530742645,0
49,0.2399749755859375,-0.3236324191093445,-19.816431045532227,-0.4466826617717743,19.931978225708008,0.6896873116493225,2.4758944511413574,-0.26217979192733765,0.0,0.0,0.0,0.0,0.0,0.0,0.0,-0.30948564542225,-0.04868756444913834,-0.24586158107483308,0.20355209791176826,0.09414920454065223,0.09751197348819977,-0.24237649526687338,1.2134438183667526,-0.22017374067348347,-0.007506492196375612,-2.6038901140982644,-0.10888860644896825,2.468182839310691,0.8264758014095812,1.2134413937687574,-0.2202432315892585,-0.0075118285948192216,-2.6038483821997875,-0.10888392708698907,2.4681821257803174,0.826474908251239,-8.378149267099386e-05,0.000448274752160721,-0.00018596672438382918,0.0011001809476633784,-0.0004741949062029275,-0.00011775936757593988,0.0012643943830232046,0.0,0.0,0.0,0.0,0.0,0.0,0.0,-2.4245979952652874e-06,-6.949091577501676e-05,-5.336398443609586e-06,4.173189847689329e-05,4.679361979176289e-06,-7.135303734528975e-07,-8.93158342174516e-07,8.378149267099386e-05,-0.000448274752160721,0.00018596672438382918,-0.0011001809476633784,0.0004741949062029275,0.00011775936757593988,-0.0012643943830232046,0.3236324191093445,19.816431045532227,0.4466826617717743,-19.931978225708008,-0.6896873116493225,-2.4758944511413574,0.26217979192733765,0
50,0.24501323699951172,-0.3236324191093445,-19.816431045532227,-0.4466826617717743,19.931978225708008,0.6896873116493225,2.4758944511413574,-0.26217979192733765,0.0,0.0,0.0,0.0,0.0,0.0,0.0,-0.30948564542225,-0.04868756444913834,-0.24586158107483308,0.20355209791176826,0.09414920454065223,0.09751197348819977,-0.24237649526687338,1.2134438183667526,-0.22017374067348347,-0.007506492196375612,-2.6038901140982644,-0.10888860644896825,2.468182839310691,0.8264758014095812,1.2134413937687574,-0.2202432315892585,-0.0075118285948192216,-2.6038483821997875,-0.10888392708698907,2.4681821257803174,0.826474908251239,-8.378149267099386e-05,0.000448274752160721,-0.00018596672438382918,0.0011001809476633784,-0.0004741949062029275,-0.00011775936757593988,0.0012643943830232046,0.0,0.0,0.0,0.0,0.0,0.0,0.0,-2.4245979952652874e-06,-6.949091577501676e-05,-5.336398443609586e-06,4.173189847689329e-05,4.679361979176289e-06,-7.135303734528975e-07,-8.93158342174516e-07,8.378149267099386e-05,-0.000448274752160721,0.00018596672438382918,-0.0011001809476633784,0.0004741949062029275,0.00011775936757593988,-0.0012643943830232046,0.3236324191093445,19.816431045532227,0.4466826617717743,-19.931978225708008,-0.6896873116493225,-2.4758944511413574,0.26217979192733765,0
51,0.2500121593475342,-0.3236324191093445,-19.816431045532227,-0.4466826617717743,19.983552932739258,0.6713767647743225,2.4566683769226074,-0.24844686686992645,0.0,0.0,0.0,0.0,0.0,0.0,0.0,-0.3143283048588368,-0.04799926808292459,-0.25039317378746373,0.20525004330854163,0.0943962782916025,0.09725315903523173,-0.2413507450306836,1.2134431826967842,-0.22017374067348347,-0.007504571717377272,-2.603893733375951,-0.1088865763248512,2.468184974087617,0.8264742578177899,1.2134413937687574,-0.2202432315892585,-0.0075118285948192216,-2.6038483821997875,-0.10888392708698907,2.4681821257803174,0.826474908251239,-0.00045249683361521986,0.0010183051080848043,-0.0005846105900483105,0.0001730737134217139,0.0004161022346925185,0.0003149443227020162,4.586421074704144e-05,0.0,0.0,0.0,0.0,0.0,0.0,0.0,-1.788928026824621e-06,-6.949091577501676e-05,-7.256877441949583e-06,4.535117616333295e-05,2.6492378621262302e-06,-2.84830729979646e-06,6.504334491008734e-07,0.00045249683361521986,-0.0010183051080848043,0.0005846105900483105,-0.0001730737134217139,-0.0004161022346925185,-0.0003149443227020162,-4.586421074704144e-05,0.3236324191093445,19.816431045532227,0.4466826617717743,-19.983552932739258,-0.6713767647743225,-2.4566683769226074,0.24844686686992645,0
52,0.25501489639282227,-0.3236324191093445,-19.816431045532227,-0.4466826617717743,19.983552932739258,0.6713767647743225,2.4566683769226074,-0.24844686686992645,0.0,0.0,0.0,0.0,0.0,0.0,0.0,-0.3143283048588368,-0.04799926808292459,-0.25039317378746373,0.20525004330854163,0.0943962782916025,0.09725315903523173,-0.2413507450306836,1.2134431826967842,-0.22017374067348347,-0.007504571717377272,-2.603893733375951,-0.1088865763248512,2.468184974087617,0.8264742578177899,1.2134413937687574,-0.2202432315892585,-0.0075118285948192216,-2.6038483821997875,-0.10888392708698907,2.4681821257803174,0.826474908251239,-0.00045249683361521986,0.0010183051080848043,-0.0005846105900483105,0.0001730737134217139,0.0004161022346925185,0.0003149443227020162,4.586421074704144e-05,0.0,0.0,0.0,0.0,0.0,0.0,0.0,-1.788928026824621e-06,-6.949091577501676e-05,-7.256877441949583e-06,4.535117616333295e-05,2.6492378621262302e-06,-2.84830729979646e-06,6.504334491008734e-07,0.00045249683361521986,-0.0010183051080848043,0.0005846105900483105,-0.0001730737134217139,-0.0004161022346925185,-0.0003149443227020162,-4.586421074704144e-05,0.3236324191093445,19.816431045532227,0.4466826617717743,-19.983552932739258,-0.6713767647743225,-2.4566683769226074,0.24844686686992645,0
53,0.25998854637145996,-0.3236324191093445,-19.816431045532227,-0.4466826617717743,19.983552932739258,0.6713767647743225,2.4566683769226074,-0.24844686686992645,0.0,0.0,0.0,0.0,0.0,0.0,0.0,-0.3143283048588368,-0.04799926808292459,-0.25039317378746373,0.20525004330854163,0.0943962782916025,0.09725315903523173,-0.2413507450306836,1.2134431826967842,-0.22017374067348347,-0.007504571717377272,-2.603893733375951,-0.1088865763248512,2.468184974087617,0.8264742578177899,1.2134413937687574,-0.2202432315892585,-0.0075118285948192216,-2.6038483821997875,-0.10888392708698907,2.4681821257803174,0.826474908251239,-0.00045249683361521986,0.0010183051080848043,-0.0005846105900483105,0.0001730737134217139,0.0004161022346925185,0.0003149443227020162,4.586421074704144e-05,0.0,0.0,0.0,0.0,0.0,0.0,0.0,-1.788928026824621e-06,-6.949091577501676e-05,-7.256877441949583e-06,4.535117616333295e-05,2.6492378621262302e-06,-2.84830729979646e-06,6.504334491008734e-07,0.00045249683361521986,-0.0010183051080848043,0.0005846105900483105,-0.0001730737134217139,-0.0004161022346925185,-0.0003149443227020162,-4.586421074704144e-05,0.3236324191093445,19.816431045532227,0.4466826617717743,-19.983552932739258,-0.6713767647743225,-2.4566683769226074,0.24844686686992645,0
54,0.2650144100189209,-0.3236324191093445,-19.816431045532227,-0.4466826617717743,19.983552932739258,0.6713767647743225,2.4566683769226074,-0.24844686686992645,0.0,0.0,0.0,0.0,0.0,0.0,0.0,-0.3143283048588368,-0.04799926808292459,-0.25039317378746373,0.20525004330854163,0.0943962782916025,0.09725315903523173,-0.2413507450306836,1.2134431826967842,-0.22017374067348347,-0.007504571717377272,-2.603893733375951,-0.1088865763248512,2.468184974087617,0.8264742578177899,1.2134413937687574,-0.2202432315892585,-0.0075118285948192216,-2.6038483821997875,-0.10888392708698907,2.4681821257803174,0.826474908251239,-0.00045249683361521986,0.0010183051080848043,-0.0005846105900483105,0.0001730737134217139,0.0004161022346925185,0.0003149443227020162,4.586421074704144e-05,0.0,0.0,0.0,0.0,0.0,0.0,0.0,-1.788928026824621e-06,-6.949091577501676e-05,-7.256877441949583e-06,4.535117616333295e-05,2.6492378621262302e-06,-2.84830729979646e-06,6.504334491008734e-07,0.00045249683361521986,-0.0010183051080848043,0.0005846105900483105,-0.0001730737134217139,-0.0004161022346925185,-0.0003149443227020162,-4.586421074704144e-05,0.3236324191093445,19.816431045532227,0.4466826617717743,-19.983552932739258,-0.6713767647743225,-2.4566683769226074,0.24844686686992645,0
55,0.2699856758117676,-0.3236324191093445,-19.768823623657227,-0.4228789508342743,20.007356643676758,0.6832786202430725,2.4694857597351074,-0.22830526530742645,0.0,0.0,0.0,0.0,0.0,0.0,0.0,-0.3122830297098048,-0.050339204161937975,-0.24820372968694543,0.20588210972265666,0.09435736996049657,0.09635684208694965,-0.24245588622700956,1.2134431287301428,-0.220177081545194,-0.007506017104281691,-2.6038954038118063,-0.10889144311020119,2.4681835499339635,0.8264752104047507,1.2134413937687574,-0.2202432315892585,-0.0075118285948192216,-2.6038483821997875,-0.10888392708698907,2.4681821257803174,0.826474908251239,0.00015457311116700122,-0.0004906584609322987,-0.00046521929999073316,-0.0007135012077799473,-1.717142030121722e-05,-0.00014514791459842215,-0.0005693839782070313,0.0,0.0,0.0,0.0,0.0,0.0,0.0,-1.7349613854467094e-06,-6.61500440644891e-05,-5.811490537530398e-06,4.702161201874944e-05,7.516023212111866e-06,-1.4241536461234716e-06,-3.0215351165541193e-07,-0.00015457311116700122,0.0004906584609322987,0.00046521929999073316,0.0007135012077799473,1.717142030121722e-05,0.00014514791459842215,0.0005693839782070313,0.3236324191093445,19.768823623657227,0.4228789508342743,-20.007356643676758,-0.6832786202430725,-2.4694857597351074,0.22830526530742645,0
56,0.275010347366333,-0.3236324191093445,-19.768823623657227,-0.4228789508342743,20.007356643676758,0.6832786202430725,2.4694857597351074,-0.22830526530742645,0.0,0.0,0.0,0.0,0.0,0.0,0.0,-0.3122830297098048,-0.050339204161937975,-0.24820372968694543,0.20588210972265666,0.09435736996049657,0.09635684208694965,-0.24245588622700956,1.2134431287301428,-0.220177081545194,-0.007506017104281691,-2.6038954038118063,-0.10889144311020119,2.4681835499339635,0.8264752104047507,1.2134413937687574,-0.2202432315892585,-0.0075118285948192216,-2.6038483821997875,-0.10888392708698907,2.4681821257803174,0.826474908251239,0.00015457311116700122,-0.0004906584609322987,-0.00046521929999073316,-0.0007135012077799473,-1.717142030121722e-05,-0.00014514791459842215,-0.0005693839782070313,0.0,0.0,0.0,0.0,0.0,0.0,0.0,-1.7349613854467094e-06,-6.61500440644891e-05,-5.811490537530398e-06,4.702161201874944e-05,7.516023212111866e-06,-1.4241536461234716e-06,-3.0215351165541193e-07,-0.00015457311116700122,0.0004906584609322987,0.00046521929999073316,0.0007135012077799473,1.717142030121722e-05,0.00014514791459842215,0.0005693839782070313,0.3236324191093445,19.768823623657227,0.4228789508342743,-20.007356643676758,-0.6832786202430725,-2.4694857597351074,0.22830526530742645,0
57,0.2800154685974121,-0.2998287081718445,-19.745019912719727,-0.4228789508342743,19.983552932739258,0.6777854561805725,2.4694857597351074,-0.27591270208358765,0.0,0.0,0.0,0.0,0.0,0.0,0.0,-0.3083698677562482,-0.04704527938771986,-0.2452014232489238,0.20631008659238698,0.0946500901922321,0.09618295158465359,-0.24230464662794424,1.213442173767753,-0.22017875198104925,-0.0075060843582680494,-2.603893733375951,-0.10888728404061555,2.4681835499877987,0.8264782949407301,1.2134413937687574,-0.2202432315892585,-0.0075118285948192216,-2.6038483821997875,-0.10888392708698907,2.4681821257803174,0.826474908251239,0.0006091498064499773,-0.0009447722815156183,0.00019561006345366027,8.797144176063907e-05,0.00010525644354496892,-3.146399423591746e-05,0.0015517454798552883,0.0,0.0,0.0,0.0,0.0,0.0,0.0,-7.799989956147613e-07,-6.447960820923915e-05,-5.744236551172115e-06,4.535117616333295e-05,3.3569536264793642e-06,-1.424207481282025e-06,-3.386689491069461e-06,-0.0006091498064499773,0.0009447722815156183,-0.00019561006345366027,-8.797144176063907e-05,-0.00010525644354496892,3.146399423591746e-05,-0.0015517454798552883,0.2998287081718445,19.745019912719727,0.4228789508342743,-19.983552932739258,-0.6777854561805725,-2.4694857597351074,0.27591270208358765,0
58,0.28501129150390625,-0.2998287081718445,-19.745019912719727,-0.4228789508342743,19.983552932739258,0.6777854561805725,2.4694857597351074,-0.27591270208358765,0.0,0.0,0.0,0.0,0.0,0.0,0.0,-0.3083698677562482,-0.04704527938771986,-0.2452014232489238,0.20631008659238698,0.0946500901922321,0.09618295158465359,-0.24230464662794424,1.213442173767753,-0.22017875198104925,-0.0075060843582680494,-2.603893733375951,-0.10888728404061555,2.4681835499877987,0.8264782949407301,1.2134413937687574,-0.2202432315892585,-0.0075118285948192216,-2.6038483821997875,-0.10888392708698907,2.4681821257803174,0.826474908251239,0.0006091498064499773,-0.0009447722815156183,0.00019561006345366027,8.797144176063907e-05,0.00010525644354496892,-3.146399423591746e-05,0.0015517454798552883,0.0,0.0,0.0,0.0,0.0,0.0,0.0,-7.799989956147613e-07,-6.447960820923915e-05,-5.744236551172115e-06,4.535117616333295e-05,3.3569536264793642e-06,-1.424207481282025e-06,-3.386689491069461e-06,-0.0006091498064499773,0.0009447722815156183,-0.00019561006345366027,-8.797144176063907e-05,-0.00010525644354496892,3.146399423591746e-05,-0.0015517454798552883,0.2998287081718445,19.745019912719727,0.4228789508342743,-19.983552932739258,-0.6777854561805725,-2.4694857597351074,0.27591270208358765,0
59,0.2899947166442871,-0.2998287081718445,-19.792627334594727,-0.4228789508342743,19.983552932739258,0.6832786202430725,2.4758944511413574,-0.24844686686992645,0.0,0.0,0.0,0.0,0.0,0.0,0.0,-0.3094039576280969,-0.04308703668937734,-0.24848899964116208,0.20674798135541997,0.09505339081766388,0.0953364232622594,-0.24140231416319133,1.2134414611324449,-0.22017541110933872,-0.007506032077066662,-2.603893733375951,-0.10889108818769466,2.4681828378571407,0.8264741516602492,1.2134413937687574,-0.2202432315892585,-0.0075118285948192216,-2.6038483821997875,-0.10888392708698907,2.4681821257803174,0.826474908251239,-8.085774767397627e-05,0.0002800578953590325,0.00022379243767972626,-0.00011558069759918687,-9.023749486493505e-05,-0.00033985566912523777,0.00039719907613468454,0.0,0.0,0.0,0.0,0.0,0.0,0.0,-6.736368751703026e-08,-6.782047991976681e-05,-5.796517752559328e-06,4.535117616333295e-05,7.161100705588286e-06,-7.120768232837804e-07,7.565909898588075e-07,8.085774767397627e-05,-0.0002800578953590325,-0.00022379243767972626,0.00011558069759918687,9.023749486493505e-05,0.00033985566912523777,-0.00039719907613468454,0.2998287081718445,19.792627334594727,0.4228789508342743,-19.983552932739258,-0.6832786202430725,-2.4758944511413574,0.24844686686992645,0
60,0.2950122356414795,-0.2998287081718445,-19.792627334594727,-0.4228789508342743,19.983552932739258,0.6832786202430725,2.4758944511413574,-0.24844686686992645,0.0,0.0,0.0,0.0,0.0,0.0,0.0,-0.3094039576280969,-0.04308703668937734,-0.24848899964116208,0.20674798135541997,0.09505339081766388,0.0953364232622594,-0.24140231416319133,1.2134414611324449,-0.22017541110933872,-0.007506032077066662,-2.603893733375951,-0.10889108818769466,2.4681828378571407,0.8264741516602492,1.2134413937687574,-0.2202432315892585,-0.0075118285948192216,-2.6038483821997875,-0.10888392708698907,2.4681821257803174,0.826474908251239,-8.085774767397627e-05,0.0002800578953590325,0.00022379243767972626,-0.00011558069759918687,-9.023749486493505e-05,-0.00033985566912523777,0.00039719907613468454,0.0,0.0,0.0,0.0,0.0,0.0,0.0,-6.736368751703026e-08,-6.782047991976681e-05,-5.796517752559328e-06,4.535117616333295e-05,7.161100705588286e-06,-7.120768232837804e-07,7.565909898588075e-07,8.085774767397627e-05,-0.0002800578953590325,-0.00022379243767972626,0.00011558069759918687,9.023749486493505e-05,0.00033985566912523777,-0.00039719907613468454,0.2998287081718445,19.792627334594727,0.4228789508342743,-19.983552932739258,-0.6832786202430725,-2.4758944511413574,0.24844686686992645,0
61,0.299999475479126,-0.2998287081718445,-19.768823623657227,-0.4466826617717743,19.931978225708008,0.6713767647743225,2.4694857597351074,-0.22830526530742645,0.0,0.0,0.0,0.0,0.0,0.0,0.0,-0.3026826713007467,-0.04080144454540642,-0.24202160546494683,0.21004020682479244,0.0951134796963278,0.09612147390493998,-0.2411817023590499,1.213441511493938,-0.220177081545194,-0.007504337899521983,-2.6038901140982644,-0.10888657342215285,2.4681835499877987,0.8264751380496503,1.2134413937687574,-0.2202432315892585,-0.0075118285948192216,-2.6038483821997875,-0.10888392708698907,2.4681821257803174,0.826474908251239,0.0004264456502275273,-7.998841803054714e-05,0.0003209891446153977,0.0015591639416136537,0.00030092023361863045,-2.3641660033485298e-05,-0.0007169280175608973,0.0,0.0,0.0,0.0,0.0,0.0,0.0,-1.1772518071495597e-07,-6.61500440644891e-05,-7.4906952972388086e-06,4.173189847689329e-05,2.6463351637806554e-06,-1.424207481282025e-06,-2.297984112997753e-07,-0.0004264456502275273,7.998841803054714e-05,-0.0003209891446153977,-0.0015591639416136537,-0.00030092023361863045,2.3641660033485298e-05,0.0007169280175608973,0.2998287081718445,19.768823623657227,0.4466826617717743,-19.931978225708008,-0.6713767647743225,-2.4694857597351074,0.22830526530742645,0
62,0.30500197410583496,-0.2998287081718445,-19.768823623657227,-0.4466826617717743,19.931978225708008,0.6713767647743225,2.4694857597351074,-0.22830526530742645,0.0,0.0,0.0,0.0,0.0,0.0,0.0,-0.3026826713007467,-0.04080144454540642,-0.24202160546494683,0.21004020682479244,0.0951134796963278,0.09612147390493998,-0.2411817023590499,1.213441511493938,-0.220177081545194,-0.007504337899521983,-2.6038901140982644,-0.10888657342215285,2.4681835499877987,0.8264751380496503,1.2134413937687574,-0.2202432315892585,-0.0075118285948192216,-2.6038483821997875,-0.10888392708698907,2.4681821257803174,0.826474908251239,0.0004264456502275273,-7.998841803054714e-05,0.0003209891446153977,0.0015591639416136537,0.00030092023361863045,-2.3641660033485298e-05,-0.0007169280175608973,0.0,0.0,0.0,0.0,0.0,0.0,0.0,-1.1772518071495597e-07,-6.61500440644891e-05,-7.4906952972388086e-06,4.173189847689329e-05,2.6463351637806554e-06,-1.424207481282025e-06,-2.297984112997753e-07,-0.0004264456502275273,7.998841803054714e-05,-0.0003209891446153977,-0.0015591639416136537,-0.00030092023361863045,2.3641660033485298e-05,0.0007169280175608973,0.2998287081718445,19.768823623657227,0.4466826617717743,-19.931978225708008,-0.6713767647743225,-2.4694857597351074,0.22830526530742645,0
63,0.30999755859375,-0.3236324191093445,-19.844202041625977,-0.4982573688030243,19.983552932739258,0.6777854561805725,2.4694857597351074,-0.25485557317733765,0.0,0.0,0.0,0.0,0.0,0.0,0.0,-0.30642448290590824,-0.03935559015928243,-0.2442136438546531,0.20662958189990757,0.09522379445644845,0.09538196170422653,-0.24147327825176076,1.2134431021297687,-0.22017179183165234,-0.007500715699114039,-2.603893733375951,-0.10888740669113982,2.4681835499339635,0.8264759248979819,1.2134413937687574,-0.2202432315892585,-0.0075118285948192216,-2.6038483821997875,-0.10888392708698907,2.4681821257803174,0.826474908251239,0.00017254705188683226,0.0012517022942729386,0.001195673114415276,-0.00046246491671247914,0.00016091917314077806,3.706516420891336e-05,0.00026122475550630975,0.0,0.0,0.0,0.0,0.0,0.0,0.0,-1.7083610113211023e-06,-7.143975760615096e-05,-1.1112895705182521e-05,4.535117616333295e-05,3.479604150743998e-06,-1.4241536461234716e-06,-1.0166467429018056e-06,-0.00017254705188683226,-0.0012517022942729386,-0.001195673114415276,0.00046246491671247914,-0.00016091917314077806,-3.706516420891336e-05,-0.00026122475550630975,0.3236324191093445,19.844202041625977,0.4982573688030243,-19.983552932739258,-0.6777854561805725,-2.4694857597351074,0.25485557317733765,0
64,0.31501102447509766,-0.3236324191093445,-19.844202041625977,-0.4982573688030243,19.983552932739258,0.6777854561805725,2.4694857597351074,-0.25485557317733765,0.0,0.0,0.0,0.0,0.0,0.0,0.0,-0.30642448290590824,-0.03935559015928243,-0.2442136438546531,0.20662958189990757,0.09522379445644845,0.09538196170422653,-0.24147327825176076,1.2134431021297687,-0.22017179183165234,-0.007500715699114039,-2.603893733375951,-0.10888740669113982,2.4681835499339635,0.8264759248979819,1.2134413937687574,-0.2202432315892585,-0.0075118285948192216,-2.6038483821997875,-0.10888392708698907,2.4681821257803174,0.826474908251239,0.00017254705188683226,0.0012517022942729386,0.001195673114415276,-0.00046246491671247914,0.00016091917314077806,3.706516420891336e-05,0.00026122475550630975,0.0,0.0,0.0,0.0,0.0,0.0,0.0,-1.7083610113211023e-06,-7.143975760615096e-05,-1.1112895705182521e-05,4.535117616333295e-05,3.479604150743998e-06,-1.4241536461234716e-06,-1.0166467429018056e-06,-0.00017254705188683226,-0.0012517022942729386,-0.001195673114415276,0.00046246491671247914,-0.00016091917314077806,-3.706516420891336e-05,-0.00026122475550630975,0.3236324191093445,19.844202041625977,0.4982573688030243,-19.983552932739258,-0.6777854561805725,-2.4694857597351074,0.25485557317733765,0
65,0.3199958801269531,-0.3236324191093445,-19.816431045532227,-0.4704863727092743,19.955781936645508,0.6777854561805725,2.4758944511413574,-0.25485557317733765,0.0,0.0,0.0,0.0,0.0,0.0,0.0,-0.30792993950552644,-0.049285631725220526,-0.24381204925659714,0.2105884666800961,0.09518738756596233,0.09671323758463043,-0.24045531658670632,1.2134431021297187,-0.22017374067348347,-0.007502904191917295,-2.60389178453412,-0.10888732491146066,2.4681828378571407,0.8264780701088935,1.2134413937687574,-0.2202432315892585,-0.0075118285948192216,-2.6038483821997875,-0.10888392708698907,2.4681821257803174,0.826474908251239,-0.00016552307748076887,-0.00028776062650987243,0.00041860389887099725,0.0006531186844469269,0.00014998900358105736,-0.00023775044754910553,0.000744517474655836,0.0,0.0,0.0,0.0,0.0,0.0,0.0,-1.7083609613610662e-06,-6.949091577501676e-05,-8.924402901926663e-06,4.340233433230978e-05,3.397824471590427e-06,-7.120768232837804e-07,-3.1618576544767407e-06,0.00016552307748076887,0.00028776062650987243,-0.00041860389887099725,-0.0006531186844469269,-0.00014998900358105736,0.00023775044754910553,-0.000744517474655836,0.3236324191093445,19.816431045532227,0.4704863727092743,-19.955781936645508,-0.6777854561805725,-2.4758944511413574,0.25485557317733765,0
66,0.3249990940093994,-0.3236324191093445,-19.816431045532227,-0.4704863727092743,19.955781936645508,0.6777854561805725,2.4758944511413574,-0.25485557317733765,0.0,0.0,0.0,0.0,0.0,0.0,0.0,-0.30792993950552644,-0.049285631725220526,-0.24381204925659714,0.2105884666800961,0.09518738756596233,0.09671323758463043,-0.24045531658670632,1.2134431021297187,-0.22017374067348347,-0.007502904191917295,-2.60389178453412,-0.10888732491146066,2.4681828378571407,0.8264780701088935,1.2134413937687574,-0.2202432315892585,-0.0075118285948192216,-2.6038483821997875,-0.10888392708698907,2.4681821257803174,0.826474908251239,-0.00016552307748076887,-0.00028776062650987243,0.00041860389887099725,0.0006531186844469269,0.00014998900358105736,-0.00023775044754910553,0.000744517474655836,0.0,0.0,0.0,0.0,0.0,0.0,0.0,-1.7083609613610662e-06,-6.949091577501676e-05,-8.924402901926663e-06,4.340233433230978e-05,3.397824471590427e-06,-7.120768232837804e-07,-3.1618576544767407e-06,0.00016552307748076887,0.00028776062650987243,-0.00041860389887099725,-0.0006531186844469269,-0.00014998900358105736,0.00023775044754910553,-0.000744517474655836,0.3236324191093445,19.816431045532227,0.4704863727092743,-19.955781936645508,-0.6777854561805725,-2.4758944511413574,0.25485557317733765,0
67,0.3299894332885742,-0.2998287081718445,-19.768823623657227,-0.4466826617717743,20.007356643676758,0.6777854561805725,2.4758944511413574,-0.26217979192733765,0.0,0.0,0.0,0.0,0.0,0.0,0.0,-0.3074773193287067,-0.04430454246252525,-0.24232979413610325,0.2036160458529973,0.09474247538588483,0.09652399116419474,-0.2402385645627738,1.2134416712026053,-0.220177081545194,-0.007506465533761308,-2.6038954038118063,-0.10888728402081366,2.4681828509390926,0.8264761354210771,1.2134413937687574,-0.2202432315892585,-0.0075118285948192216,-2.6038483821997875,-0.10888392708698907,2.4681821257803174,0.826474908251239,-0.00023852262664873672,-0.0004396308555166896,0.0001514046824571856,-0.0007894865190064944,0.00011039900172456024,-0.0001961240813371531,0.0007982559079936745,0.0,0.0,0.0,0.0,0.0,0.0,0.0,-2.7743384789502556e-07,-6.61500440644891e-05,-5.363061057913482e-06,4.702161201874944e-05,3.3569338245831304e-06,-7.251587752499233e-07,-1.2271698380805773e-06,0.00023852262664873672,0.0004396308555166896,-0.0001514046824571856,0.0007894865190064944,-0.00011039900172456024,0.0001961240813371531,-0.0007982559079936745,0.2998287081718445,19.768823623657227,0.4466826617717743,-20.007356643676758,-0.6777854561805725,-2.4758944511413574,0.26217979192733765,0
68,0.33501505851745605,-0.2998287081718445,-19.768823623657227,-0.4466826617717743,20.007356643676758,0.6777854561805725,2.4758944511413574,-0.26217979192733765,0.0,0.0,0.0,0.0,0.0,0.0,0.0,-0.3074773193287067,-0.04430454246252525,-0.24232979413610325,0.2036160458529973,0.09474247538588483,0.09652399116419474,-0.2402385645627738,1.2134416712026053,-0.220177081545194,-0.007506465533761308,-2.6038954038118063,-0.10888728402081366,2.4681828509390926,0.8264761354210771,1.2134413937687574,-0.2202432315892585,-0.0075118285948192216,-2.6038483821997875,-0.10888392708698907,2.4681821257803174,0.826474908251239,-0.00023852262664873672,-0.0004396308555166896,0.0001514046824571856,-0.0007894865190064944,0.00011039900172456024,-0.0001961240813371531,0.0007982559079936745,0.0,0.0,0.0,0.0,0.0,0.0,0.0,-2.7743384789502556e-07,-6.61500440644891e-05,-5.363061057913482e-06,4.702161201874944e-05,3.3569338245831304e-06,-7.251587752499233e-07,-1.2271698380805773e-06,0.00023852262664873672,0.0004396308555166896,-0.0001514046824571856,0.0007894865190064944,-0.00011039900172456024,0.0001961240813371531,-0.0007982559079936745,0.2998287081718445,19.768823623657227,0.4466826617717743,-20.007356643676758,-0.6777854561805725,-2.4758944511413574,0.26217979192733765,0
69,0.3400130271911621,-0.3236324191093445,-19.768823623657227,-0.4466826617717743,19.983552932739258,0.6777854561805725,2.4566683769226074,-0.22098104655742645,0.0,0.0,0.0,0.0,0.0,0.0,0.0,-0.3148487814455803,-0.048691292924035644,-0.24940607871630305,0.2043219388577845,0.09544506422293035,0.09728512570596856,-0.24096398432624144,1.2134438174231468,-0.220177081545194,-0.007504335963016616,-2.603893733375951,-0.10888728418284546,2.468184974087683,0.8264711433976968,1.2134413937687574,-0.2202432315892585,-0.0075118285948192216,-2.6038483821997875,-0.10888392708698907,2.4681821257803174,0.826474908251239,-8.590358568397726e-05,-0.0005736533179847559,-0.00020154363220345874,-7.75111586044004e-05,0.0002129821499282765,0.00051986680393887,-0.0009410549640876258,0.0,0.0,0.0,0.0,0.0,0.0,0.0,-2.423654389405172e-06,-6.61500440644891e-05,-7.492631802605461e-06,4.535117616333295e-05,3.3570958563877706e-06,-2.848307365521663e-06,3.7648535422540874e-06,8.590358568397726e-05,0.0005736533179847559,0.00020154363220345874,7.75111586044004e-05,-0.0002129821499282765,-0.00051986680393887,0.0009410549640876258,0.3236324191093445,19.768823623657227,0.4466826617717743,-19.983552932739258,-0.6777854561805725,-2.4566683769226074,0.22098104655742645,0
70,0.3450124263763428,-0.3236324191093445,-19.768823623657227,-0.4466826617717743,19.983552932739258,0.6777854561805725,2.4566683769226074,-0.22098104655742645,0.0,0.0,0.0,0.0,0.0,0.0,0.0,-0.3148487814455803,-0.048691292924035644,-0.24940607871630305,0.2043219388577845,0.09544506422293035,0.09728512570596856,-0.24096398432624144,1.2134438174231468,-0.220177081545194,-0.007504335963016616,-2.603893733375951,-0.10888728418284546,2.468184974087683,0.8264711433976968,1.2134413937687574,-0.2202432315892585,-0.0075118285948192216,-2.6038483821997875,-0.10888392708698907,2.4681821257803174,0.826474908251239,-8.590358568397726e-05,-0.0005736533179847559,-0.00020154363220345874,-7.75111586044004e-05,0.0002129821499282765,0.00051986680393887,-0.0009410549640876258,0.0,0.0,0.0,0.0,0.0,0.0,0.0,-2.423654389405172e-06,-6.61500440644891e-05,-7.492631802605461e-06,4.535117616333295e-05,3.3570958563877706e-06,-2.848307365521663e-06,3.7648535422540874e-06,8.590358568397726e-05,0.0005736533179847559,0.00020154363220345874,7.75111586044004e-05,-0.0002129821499282765,-0.00051986680393887,0.0009410549640876258,0.3236324191093445,19.768823623657227,0.4466826617717743,-19.983552932739258,-0.6777854561805725,-2.4566683769226074,0.22098104655742645,0
71,0.3499734401702881,-0.3236324191093445,-19.768823623657227,-0.4228789508342743,19.983552932739258,0.6832786202430725,2.4758944511413574,-0.23471395671367645,0.0,0.0,0.0,0.0,0.0,0.0,0.0,-0.3141819684432803,-0.04001827858079067,-0.2506498539203285,0.19931861106629906,0.09535867379296008,0.09577434985269512,-0.2415733374701297,1.2134431024608052,-0.220177081545194,-0.007506014216459144,-2.603893733375951,-0.10888789437214626,2.4681829555947106,0.8264772219013046,1.2134413937687574,-0.2202432315892585,-0.0075118285948192216,-2.6038483821997875,-0.10888392708698907,2.4681821257803174,0.826474908251239,0.0001402348742050135,0.0004258593061491979,-0.0005709667944627168,-0.00026636930620357944,-9.29698506611565e-05,-0.00044729190760423,-0.0007054504005782236,0.0,0.0,0.0,0.0,0.0,0.0,0.0,-1.7086920478526224e-06,-6.61500440644891e-05,-5.814378360077463e-06,4.535117616333295e-05,3.9672851571831425e-06,-8.298143931995128e-07,-2.3136500655329684e-06,-0.0001402348742050135,-0.0004258593061491979,0.0005709667944627168,0.00026636930620357944,9.29698506611565e-05,0.00044729190760423,0.0007054504005782236,0.3236324191093445,19.768823623657227,0.4228789508342743,-19.983552932739258,-0.6832786202430725,-2.4758944511413574,0.23471395671367645,0
72,0.3550100326538086,-0.3236324191093445,-19.768823623657227,-0.4228789508342743,19.983552932739258,0.6832786202430725,2.4758944511413574,-0.23471395671367645,0.0,0.0,0.0,0.0,0.0,0.0,0.0,-0.3141819684432803,-0.04001827858079067,-0.2506498539203285,0.19931861106629906,0.09535867379296008,0.09577434985269512,-0.2415733374701297,1.2134431024608052,-0.220177081545194,-0.007506014216459144,-2.603893733375951,-0.10888789437214626,2.4681829555947106,0.8264772219013046,1.2134413937687574,-0.2202432315892585,-0.0075118285948192216,-2.6038483821997875,-0.10888392708698907,2.4681821257803174,0.826474908251239,0.0001402348742050135,0.0004258593061491979,-0.0005709667944627168,-0.00026636930620357944,-9.29698506611565e-05,-0.00044729190760423,-0.0007054504005782236,0.0,0.0,0.0,0.0,0.0,0.0,0.0,-1.7086920478526224e-06,-6.61500440644891e-05,-5.814378360077463e-06,4.535117616333295e-05,3.9672851571831425e-06,-8.298143931995128e-07,-2.3136500655329684e-06,-0.0001402348742050135,-0.0004258593061491979,0.0005709667944627168,0.00026636930620357944,9.29698506611565e-05,0.00044729190760423,0.0007054504005782236,0.3236324191093445,19.768823623657227,0.4228789508342743,-19.983552932739258,-0.6832786202430725,-2.4758944511413574,0.23471395671367645,0
73,0.3600142002105713,-0.3236324191093445,-19.768823623657227,-0.4228789508342743,19.983552932739258,0.6832786202430725,2.4758944511413574,-0.23471395671367645,0.0,0.0,0.0,0.0,0.0,0.0,0.0,-0.3141819684432803,-0.04001827858079067,-0.2506498539203285,0.19931861106629906,0.09535867379296008,0.09577434985269512,-0.2415733374701297,1.2134431024608052,-0.220177081545194,-0.007506014216459144,-2.603893733375951,-0.10888789437214626,2.4681829555947106,0.8264772219013046,1.2134413937687574,-0.2202432315892585,-0.0075118285948192216,-2.6038483821997875,-0.10888392708698907,2.4681821257803174,0.826474908251239,0.0001402348742050135,0.0004258593061491979,-0.0005709667944627168,-0.00026636930620357944,-9.29698506611565e-05,-0.00044729190760423,-0.0007054504005782236,0.0,0.0,0.0,0.0,0.0,0.0,0.0,-1.7086920478526224e-06,-6.61500440644891e-05,-5.814378360077463e-06,4.535117616333295e-05,3.9672851571831425e-06,-8.298143931995128e-07,-2.3136500655329684e-06,-0.0001402348742050135,-0.0004258593061491979,0.0005709667944627168,0.00026636930620357944,9.29698506611565e-05,0.00044729190760423,0.0007054504005782236,0.3236324191093445,19.768823623657227,0.4228789508342743,-19.983552932739258,-0.6832786202430725,-2.4758944511413574,0.23471395671367645,0
74,0.36501145362854004,-0.3236324191093445,-19.768823623657227,-0.4228789508342743,19.983552932739258,0.6832786202430725,2.4758944511413574,-0.23471395671367645,0.0,0.0,0.0,0.0,0.0,0.0,0.0,-0.3141819684432803,-0.04001827858079067,-0.2506498539203285,0.19931861106629906,0.09535867379296008,0.09577434985269512,-0.2415733374701297,1.2134431024608052,-0.220177081545194,-0.007506014216459144,-2.603893733375951,-0.10888789437214626,2.4681829555947106,0.8264772219013046,1.2134413937687574,-0.2202432315892585,-0.0075118285948192216,-2.6038483821997875,-0.10888392708698907,2.4681821257803174,0.826474908251239,0.0001402348742050135,0.0004258593061491979,-0.0005709667944627168,-0.00026636930620357944,-9.29698506611565e-05,-0.00044729190760423,-0.0007054504005782236,0.0,0.0,0.0,0.0,0.0,0.0,0.0,-1.7086920478526224e-06,-6.61500440644891e-05,-5.814378360077463e-06,4.535117616333295e-05,3.9672851571831425e-06,-8.298143931995128e-07,-2.3136500655329684e-06,-0.0001402348742050135,-0.0004258593061491979,0.0005709667944627168,0.00026636930620357944,9.29698506611565e-05,0.00044729190760423,0.0007054504005782236,0.3236324191093445,19.768823623657227,0.4228789508342743,-19.983552932739258,-0.6832786202430725,-2.4758944511413574,0.23471395671367645,0
75,0.36998772621154785,-0.3236324191093445,-19.792627334594727,-0.4704863727092743,19.931978225708008,0.6777854561805725,2.4630770683288574,-0.25485557317733765,0.0,0.0,0.0,0.0,0.0,0.0,0.0,-0.3140010123477792,-0.04337181477164228,-0.2518320247026856,0.2050685279002783,0.09547717680992922,0.09605071601475777,-0.24125354232593965,1.2134433493786174,-0.22017541110933872,-0.007502664540993044,-2.6038901140982644,-0.10888728402058283,2.468184145727431,0.8264792504116482,1.2134413937687574,-0.2202432315892585,-0.0075118285948192216,-2.6038483821997875,-0.10888392708698907,2.4681821257803174,0.826474908251239,0.0002503379517620559,0.0007897633407757481,0.00037168868346927955,0.0010782069577024412,4.712877599396093e-05,0.0001770657195265883,0.0006243143412827296,0.0,0.0,0.0,0.0,0.0,0.0,0.0,-1.955609860049279e-06,-6.782047991976681e-05,-9.164053826177763e-06,4.173189847689329e-05,3.3569335937538858e-06,-2.0199471135740055e-06,-4.342160409120943e-06,-0.0002503379517620559,-0.0007897633407757481,-0.00037168868346927955,-0.0010782069577024412,-4.712877599396093e-05,-0.0001770657195265883,-0.0006243143412827296,0.3236324191093445,19.792627334594727,0.4704863727092743,-19.931978225708008,-0.6777854561805725,-2.4630770683288574,0.25485557317733765,0
76,0.3750147819519043,-0.3236324191093445,-19.792627334594727,-0.4704863727092743,19.931978225708008,0.6777854561805725,2.4630770683288574,-0.25485557317733765,0.0,0.0,0.0,0.0,0.0,0.0,0.0,-0.3140010123477792,-0.04337181477164228,-0.2518320247026856,0.2050685279002783,0.09547717680992922,0.09605071601475777,-0.24125354232593965,1.2134433493786174,-0.22017541110933872,-0.007502664540993044,-2.6038901140982644,-0.10888728402058283,2.468184145727431,0.8264792504116482,1.2134413937687574,-0.2202432315892585,-0.0075118285948192216,-2.6038483821997875,-0.10888392708698907,2.4681821257803174,0.826474908251239,0.0002503379517620559,0.0007897633407757481,0.00037168868346927955,0.0010782069577024412,4.712877599396093e-05,0.0001770657195265883,0.0006243143412827296,0.0,0.0,0.0,0.0,0.0,0.0,0.0,-1.955609860049279e-06,-6.782047991976681e-05,-9.164053826177763e-06,4.173189847689329e-05,3.3569335937538858e-06,-2.0199471135740055e-06,-4.342160409120943e-06,-0.0002503379517620559,-0.0007897633407757481,-0.00037168868346927955,-0.0010782069577024412,-4.712877599396093e-05,-0.0001770657195265883,-0.0006243143412827296,0.3236324191093445,19.792627334594727,0.4704863727092743,-19.931978225708008,-0.6777854561805725,-2.4630770683288574,0.25485557317733765,0
77,0.38000988960266113,-0.2720577120780945,-19.792627334594727,-0.4466826617717743,20.007356643676758,0.6832786202430725,2.4694857597351074,-0.20083944499492645,0.0,0.0,0.0,0.0,0.0,0.0,0.0,-0.31258739710989436,-0.047084630937749054,-0.24981248379842172,0.20803556183286348,0.09548516389932249,0.09632728178745295,-0.2407227787627012,1.213439482998783,-0.22017541110933872,-0.007504335085042048,-2.6038954038118063,-0.1088880170427014,2.468186728847695,0.8264721606091688,1.2134413937687574,-0.2202432315892585,-0.0075118285948192216,-2.6038483821997875,-0.10888392708698907,2.4681821257803174,0.826474908251239,-0.0005898730805960242,-0.0001555208112293252,-0.00010525668141544753,-0.0007346577351293362,-0.00018559571108077964,-1.6544026782271983e-05,-0.001988402995367051,0.0,0.0,0.0,0.0,0.0,0.0,0.0,1.9107699744669304e-06,-6.782047991976681e-05,-7.4935097771735085e-06,4.702161201874944e-05,4.089955712327509e-06,-4.603067377484393e-06,2.7476420701999515e-06,0.0005898730805960242,0.0001555208112293252,0.00010525668141544753,0.0007346577351293362,0.00018559571108077964,1.6544026782271983e-05,0.001988402995367051,0.2720577120780945,19.792627334594727,0.4466826617717743,-20.007356643676758,-0.6832786202430725,-2.4694857597351074,0.20083944499492645,0
78,0.38498377799987793,-0.2720577120780945,-19.792627334594727,-0.4466826617717743,20.007356643676758,0.6832786202430725,2.4694857597351074,-0.20083944499492645,0.0,0.0,0.0,0.0,0.0,0.0,0.0,-0.31258739710989436,-0.047084630937749054,-0.24981248379842172,0.20803556183286348,0.09548516389932249,0.09632728178745295,-0.2407227787627012,1.213439482998783,-0.22017541110933872,-0.007504335085042048,-2.6038954038118063,-0.1088880170427014,2.468186728847695,0.8264721606091688,1.2134413937687574,-0.2202432315892585,-0.0075118285948192216,-2.6038483821997875,-0.10888392708698907,2.4681821257803174,0.826474908251239,-0.0005898730805960242,-0.0001555208112293252,-0.00010525668141544753,-0.0007346577351293362,-0.00018559571108077964,-1.6544026782271983e-05,-0.001988402995367051,0.0,0.0,0.0,0.0,0.0,0.0,0.0,1.9107699744669304e-06,-6.782047991976681e-05,-7.4935097771735085e-06,4.702161201874944e-05,4.089955712327509e-06,-4.603067377484393e-06,2.7476420701999515e-06,0.0005898730805960242,0.0001555208112293252,0.00010525668141544753,0.0007346577351293362,0.00018559571108077964,1.6544026782271983e-05,0.001988402995367051,0.2720577120780945,19.792627334594727,0.4466826617717743,-20.007356643676758,-0.6832786202430725,-2.4694857597351074,0.20083944499492645,0
79,0.3899819850921631,-0.2998287081718445,-19.792627334594727,-0.4466826617717743,19.983552932739258,0.6713767647743225,2.4630770683288574,-0.25485557317733765,0.0,0.0,0.0,0.0,0.0,0.0,0.0,-0.30923772072003153,-0.04483748526162312,-0.24715114725218754,0.2052442779123879,0.09508128033561036,0.09586563773380638,-0.24063375861649552,1.2134414349643523,-0.22017541110933872,-0.007504334976799219,-2.603893733375951,-0.10888657194445239,2.468184262028731,0.8264791327205893,1.2134413937687574,-0.2202432315892585,-0.0075118285948192216,-2.6038483821997875,-0.10888392708698907,2.4681821257803174,0.826474908251239,-0.00020902286194753682,-0.00058902529701312,0.0005647607059967776,5.990563950500597e-06,9.595324601154159e-05,0.00010754860606042058,0.0006798858505117196,0.0,0.0,0.0,0.0,0.0,0.0,0.0,-4.1195594935317104e-08,-6.782047991976681e-05,-7.493618020002271e-06,4.535117616333295e-05,2.6448574633186617e-06,-2.1362484137199544e-06,-4.224469350222471e-06,0.00020902286194753682,0.00058902529701312,-0.0005647607059967776,-5.990563950500597e-06,-9.595324601154159e-05,-0.00010754860606042058,-0.0006798858505117196,0.2998287081718445,19.792627334594727,0.4466826617717743,-19.983552932739258,-0.6713767647743225,-2.4630770683288574,0.25485557317733765,0
