rezayati/contactInterpretation/dataset/franka_main/labeled_data/link4/d4_5.csv
index,time,tau_J0,tau_J1,tau_J2,tau_J3,tau_J4,tau_J5,tau_J6,tau_J_d0,tau_J_d1,tau_J_d2,tau_J_d3,tau_J_d4,tau_J_d5,tau_J_d6,tau_ext0,tau_ext1,tau_ext2,tau_ext3,tau_ext4,tau_ext5,tau_ext6,q0,q1,q2,q3,q4,q5,q6,q_d0,q_d1,q_d2,q_d3,q_d4,q_d5,q_d6,dq0,dq1,dq2,dq3,dq4,dq5,dq6,dq_d0,dq_d1,dq_d2,dq_d3,dq_d4,dq_d5,dq_d6,e0,e1,e2,e3,e4,e5,e6,de0,de1,de2,de3,de4,de5,de6,etau_J0,etau_J1,etau_J2,etau_J3,etau_J4,etau_J5,etau_J6,label
1,0.0,-0.6053096652030945,-46.59957504272461,-5.564480304718018,19.535249710083008,0.7849021553993225,2.3522982597351074,-0.22098104655742645,0.0,0.0,0.0,0.0,0.0,0.0,0.0,-0.6361298911963522,-0.2761783174077817,-0.38989099302073665,0.31861059616271864,0.20198324874618295,0.08033021947846024,-0.18265453250435348,0.8779876625788839,0.7552595698457014,-0.28249798223428557,-1.6688965824922664,0.14140689606872706,2.403577744854821,1.0273506604748397,0.878092876070424,0.7554597494309409,-0.2825552651693207,-1.6690993614607135,0.1414185955172306,2.4034451173676383,1.0273381002308042,-0.0005749237645457179,1.4054117529907765e-05,-5.957721835469852e-05,-0.00018213572490536486,8.942833543004089e-05,-7.994754476470099e-05,0.0014893601010599873,0.0,0.0,0.0,0.0,0.0,0.0,0.0,0.0001052134915400238,0.00020017958523943502,-5.728293503515225e-05,-0.00020277896844711485,1.1699448503543763e-05,-0.00013262748718245732,-1.2560244035508816e-05,0.0005749237645457179,-1.4054117529907765e-05,5.957721835469852e-05,0.00018213572490536486,-8.942833543004089e-05,7.994754476470099e-05,-0.0014893601010599873,0.6053096652030945,46.59957504272461,5.564480304718018,-19.535249710083008,-0.7849021553993225,-2.3522982597351074,0.22098104655742645,0
2,0.004996061325073242,-0.5815059542655945,-46.62337875366211,-5.564480304718018,19.511445999145508,0.7903953194618225,2.3458895683288574,-0.22098104655742645,0.0,0.0,0.0,0.0,0.0,0.0,0.0,-0.6394345660254194,-0.2675264620125321,-0.39556622350822407,0.314057778116162,0.20216550568113145,0.0798781462292792,-0.18300925925666342,0.8779859921430286,0.7552612402815567,-0.28249798223428557,-1.6688952309370733,0.14140382467485546,2.4035784569316436,1.027350660474764,0.878092876070424,0.7554597494309409,-0.2825552651693207,-1.6690993614607135,0.1414185955172306,2.4034451173676383,1.0273381002308042,-0.001222019775637743,0.0005501473583573244,0.00030360476045417534,0.000338116432642317,-5.030680396423185e-05,-0.00019643417661433128,0.001996247927524382,0.0,0.0,0.0,0.0,0.0,0.0,0.0,0.00010688392739532926,0.00019850914938412956,-5.728293503515225e-05,-0.00020413052364021134,1.4770842375139148e-05,-0.000133339564005297,-1.2560243959791606e-05,0.001222019775637743,-0.0005501473583573244,-0.00030360476045417534,-0.000338116432642317,5.030680396423185e-05,0.00019643417661433128,-0.001996247927524382,0.5815059542655945,46.62337875366211,5.564480304718018,-19.511445999145508,-0.7903953194618225,-2.3458895683288574,0.22098104655742645,0
3,0.009993314743041992,-0.5815059542655945,-46.62337875366211,-5.564480304718018,19.511445999145508,0.7903953194618225,2.3458895683288574,-0.22098104655742645,0.0,0.0,0.0,0.0,0.0,0.0,0.0,-0.6394345660254194,-0.2675264620125321,-0.39556622350822407,0.314057778116162,0.20216550568113145,0.0798781462292792,-0.18300925925666342,0.8779859921430286,0.7552612402815567,-0.28249798223428557,-1.6688952309370733,0.14140382467485546,2.4035784569316436,1.027350660474764,0.878092876070424,0.7554597494309409,-0.2825552651693207,-1.6690993614607135,0.1414185955172306,2.4034451173676383,1.0273381002308042,-0.001222019775637743,0.0005501473583573244,0.00030360476045417534,0.000338116432642317,-5.030680396423185e-05,-0.00019643417661433128,0.001996247927524382,0.0,0.0,0.0,0.0,0.0,0.0,0.0,0.00010688392739532926,0.00019850914938412956,-5.728293503515225e-05,-0.00020413052364021134,1.4770842375139148e-05,-0.000133339564005297,-1.2560243959791606e-05,0.001222019775637743,-0.0005501473583573244,-0.00030360476045417534,-0.000338116432642317,5.030680396423185e-05,0.00019643417661433128,-0.001996247927524382,0.5815059542655945,46.62337875366211,5.564480304718018,-19.511445999145508,-0.7903953194618225,-2.3458895683288574,0.22098104655742645,0
4,0.014997482299804688,-0.6291133761405945,-46.62337875366211,-5.536709308624268,19.535249710083008,0.7903953194618225,2.3394808769226074,-0.22098104655742645,0.0,0.0,0.0,0.0,0.0,0.0,0.0,-0.6393247110409537,-0.277787365847144,-0.3985208495266393,0.3186027973503367,0.20256807756546533,0.07943960224062584,-0.1819120802343244,0.8779893330147391,0.7552612402815567,-0.2824999307490679,-1.6688954698013543,0.14140280055215287,2.4035791690084665,1.027350660474764,0.878092876070424,0.7554597494309409,-0.2825552651693207,-1.6690993614607135,0.1414185955172306,2.4034451173676383,1.0273381002308042,0.0001573400469493597,0.00012116870361608701,-0.0006334860051687479,-0.0002261061624436004,-0.00011795920704395571,0.00019852288443303882,0.001582127449858849,0.0,0.0,0.0,0.0,0.0,0.0,0.0,0.00010354305568482935,0.00019850914938412956,-5.5334420252850514e-05,-0.00020389165935918996,1.5794965077725598e-05,-0.0001340516408281367,-1.2560243959791606e-05,-0.0001573400469493597,-0.00012116870361608701,0.0006334860051687479,0.0002261061624436004,0.00011795920704395571,-0.00019852288443303882,-0.001582127449858849,0.6291133761405945,46.62337875366211,5.536709308624268,-19.535249710083008,-0.7903953194618225,-2.3394808769226074,0.22098104655742645,0
5,0.01994776725769043,-0.6291133761405945,-46.62337875366211,-5.536709308624268,19.535249710083008,0.7903953194618225,2.3394808769226074,-0.22098104655742645,0.0,0.0,0.0,0.0,0.0,0.0,0.0,-0.6393247110409537,-0.277787365847144,-0.3985208495266393,0.3186027973503367,0.20256807756546533,0.07943960224062584,-0.1819120802343244,0.8779893330147391,0.7552612402815567,-0.2824999307490679,-1.6688954698013543,0.14140280055215287,2.4035791690084665,1.027350660474764,0.878092876070424,0.7554597494309409,-0.2825552651693207,-1.6690993614607135,0.1414185955172306,2.4034451173676383,1.0273381002308042,0.0001573400469493597,0.00012116870361608701,-0.0006334860051687479,-0.0002261061624436004,-0.00011795920704395571,0.00019852288443303882,0.001582127449858849,0.0,0.0,0.0,0.0,0.0,0.0,0.0,0.00010354305568482935,0.00019850914938412956,-5.5334420252850514e-05,-0.00020389165935918996,1.5794965077725598e-05,-0.0001340516408281367,-1.2560243959791606e-05,-0.0001573400469493597,-0.00012116870361608701,0.0006334860051687479,0.0002261061624436004,0.00011795920704395571,-0.00019852288443303882,-0.001582127449858849,0.6291133761405945,46.62337875366211,5.536709308624268,-19.535249710083008,-0.7903953194618225,-2.3394808769226074,0.22098104655742645,0
6,0.024993896484375,-0.6291133761405945,-46.57577133178711,-5.536709308624268,19.535249710083008,0.7968040108680725,2.3458895683288574,-0.15964071452617645,0.0,0.0,0.0,0.0,0.0,0.0,0.0,-0.6447186890721323,-0.26182081148385294,-0.3999980414427948,0.3074959251767213,0.20248702445780692,0.07768003877746248,-0.1832130694826835,0.8779893330147391,0.7552578994098461,-0.282499692657537,-1.6688976165577865,0.14140252142059934,2.4035784569316436,1.027343844882316,0.878092876070424,0.7554597494309409,-0.2825552651693207,-1.6690993614607135,0.1414185955172306,2.4034451173676383,1.0273381002308042,-0.00040121899096380646,-0.00033059407232037953,-0.0008580408745383127,-0.0006744137108703913,-0.00046702488819523624,-6.474797825334366e-05,-0.001599153943166279,0.0,0.0,0.0,0.0,0.0,0.0,0.0,0.00010354305568482935,0.00020185002109474048,-5.557251178373024e-05,-0.00020174490292701464,1.6074096631263357e-05,-0.000133339564005297,-5.744651511818688e-06,0.00040121899096380646,0.00033059407232037953,0.0008580408745383127,0.0006744137108703913,0.00046702488819523624,6.474797825334366e-05,0.001599153943166279,0.6291133761405945,46.57577133178711,5.536709308624268,-19.535249710083008,-0.7968040108680725,-2.3458895683288574,0.15964071452617645,0
7,0.03000354766845703,-0.6291133761405945,-46.57577133178711,-5.536709308624268,19.535249710083008,0.7968040108680725,2.3458895683288574,-0.15964071452617645,0.0,0.0,0.0,0.0,0.0,0.0,0.0,-0.6447186890721323,-0.26182081148385294,-0.3999980414427948,0.3074959251767213,0.20248702445780692,0.07768003877746248,-0.1832130694826835,0.8779893330147391,0.7552578994098461,-0.282499692657537,-1.6688976165577865,0.14140252142059934,2.4035784569316436,1.027343844882316,0.878092876070424,0.7554597494309409,-0.2825552651693207,-1.6690993614607135,0.1414185955172306,2.4034451173676383,1.0273381002308042,-0.00040121899096380646,-0.00033059407232037953,-0.0008580408745383127,-0.0006744137108703913,-0.00046702488819523624,-6.474797825334366e-05,-0.001599153943166279,0.0,0.0,0.0,0.0,0.0,0.0,0.0,0.00010354305568482935,0.00020185002109474048,-5.557251178373024e-05,-0.00020174490292701464,1.6074096631263357e-05,-0.000133339564005297,-5.744651511818688e-06,0.00040121899096380646,0.00033059407232037953,0.0008580408745383127,0.0006744137108703913,0.00046702488819523624,6.474797825334366e-05,0.001599153943166279,0.6291133761405945,46.57577133178711,5.536709308624268,-19.535249710083008,-0.7968040108680725,-2.3458895683288574,0.15964071452617645,0
8,0.03501534461975098,-0.6053096652030945,-46.59957504272461,-5.536709308624268,19.535249710083008,0.7849021553993225,2.3394808769226074,-0.14590780436992645,0.0,0.0,0.0,0.0,0.0,0.0,0.0,-0.6278562752546087,-0.27628485329231506,-0.386653435516298,0.31630170514869377,0.2024991694753088,0.07891364793577142,-0.1838134430266423,0.8779876625788839,0.7552595698457014,-0.28249969265619174,-1.6688976137274025,0.14140383843330487,2.4035791690084665,1.0273423190034099,0.878092876070424,0.7554597494309409,-0.2825552651693207,-1.6690993614607135,0.1414185955172306,2.4034451173676383,1.0273381002308042,-0.0007529228277306318,-1.3072500432552047e-05,-0.0006547749366520736,-0.00024974310857200325,0.0001791586726014571,-7.807541590831776e-05,-0.0017397600871943233,0.0,0.0,0.0,0.0,0.0,0.0,0.0,0.0001052134915400238,0.00020017958523943502,-5.557251312898748e-05,-0.00020174773331094187,1.4757083925731607e-05,-0.0001340516408281367,-4.218772605701915e-06,0.0007529228277306318,1.3072500432552047e-05,0.0006547749366520736,0.00024974310857200325,-0.0001791586726014571,7.807541590831776e-05,0.0017397600871943233,0.6053096652030945,46.59957504272461,5.536709308624268,-19.535249710083008,-0.7849021553993225,-2.3394808769226074,0.14590780436992645,0
9,0.03999662399291992,-0.6053096652030945,-46.59957504272461,-5.536709308624268,19.535249710083008,0.7849021553993225,2.3394808769226074,-0.14590780436992645,0.0,0.0,0.0,0.0,0.0,0.0,0.0,-0.6278562752546087,-0.27628485329231506,-0.386653435516298,0.31630170514869377,0.2024991694753088,0.07891364793577142,-0.1838134430266423,0.8779876625788839,0.7552595698457014,-0.28249969265619174,-1.6688976137274025,0.14140383843330487,2.4035791690084665,1.0273423190034099,0.878092876070424,0.7554597494309409,-0.2825552651693207,-1.6690993614607135,0.1414185955172306,2.4034451173676383,1.0273381002308042,-0.0007529228277306318,-1.3072500432552047e-05,-0.0006547749366520736,-0.00024974310857200325,0.0001791586726014571,-7.807541590831776e-05,-0.0017397600871943233,0.0,0.0,0.0,0.0,0.0,0.0,0.0,0.0001052134915400238,0.00020017958523943502,-5.557251312898748e-05,-0.00020174773331094187,1.4757083925731607e-05,-0.0001340516408281367,-4.218772605701915e-06,0.0007529228277306318,1.3072500432552047e-05,0.0006547749366520736,0.00024974310857200325,-0.0001791586726014571,7.807541590831776e-05,0.0017397600871943233,0.6053096652030945,46.59957504272461,5.536709308624268,-19.535249710083008,-0.7849021553993225,-2.3394808769226074,0.14590780436992645,0
10,0.04499626159667969,-0.6053096652030945,-46.59957504272461,-5.536709308624268,19.535249710083008,0.7849021553993225,2.3394808769226074,-0.14590780436992645,0.0,0.0,0.0,0.0,0.0,0.0,0.0,-0.6278562752546087,-0.27628485329231506,-0.386653435516298,0.31630170514869377,0.2024991694753088,0.07891364793577142,-0.1838134430266423,0.8779876625788839,0.7552595698457014,-0.28249969265619174,-1.6688976137274025,0.14140383843330487,2.4035791690084665,1.0273423190034099,0.878092876070424,0.7554597494309409,-0.2825552651693207,-1.6690993614607135,0.1414185955172306,2.4034451173676383,1.0273381002308042,-0.0007529228277306318,-1.3072500432552047e-05,-0.0006547749366520736,-0.00024974310857200325,0.0001791586726014571,-7.807541590831776e-05,-0.0017397600871943233,0.0,0.0,0.0,0.0,0.0,0.0,0.0,0.0001052134915400238,0.00020017958523943502,-5.557251312898748e-05,-0.00020174773331094187,1.4757083925731607e-05,-0.0001340516408281367,-4.218772605701915e-06,0.0007529228277306318,1.3072500432552047e-05,0.0006547749366520736,0.00024974310857200325,-0.0001791586726014571,7.807541590831776e-05,0.0017397600871943233,0.6053096652030945,46.59957504272461,5.536709308624268,-19.535249710083008,-0.7849021553993225,-2.3394808769226074,0.14590780436992645,0
11,0.04999852180480957,-0.6806880831718445,-46.59957504272461,-5.612087726593018,19.487642288208008,0.7849021553993225,2.3458895683288574,-0.15231649577617645,0.0,0.0,0.0,0.0,0.0,0.0,0.0,-0.6515870692408908,-0.2783806871071283,-0.4020129472243119,0.3146244715361166,0.2028539735213771,0.07834396885475677,-0.1834129611021182,0.8779929522924256,0.7552595698457014,-0.2824946322038626,-1.6688941963262558,0.1414045467422527,2.4035784569316436,1.0273430310802327,0.878092876070424,0.7554597494309409,-0.2825552651693207,-1.6690993614607135,0.1414185955172306,2.4034451173676383,1.0273381002308042,0.00010543204028808233,-0.0002261329164607216,0.0013136401287537692,0.00047623841858734955,5.3156980240564545e-05,-0.0001651594080996234,-0.0015580697665843926,0.0,0.0,0.0,0.0,0.0,0.0,0.0,9.99237779983897e-05,0.00020017958523943502,-6.063296545810726e-05,-0.00020516513445767437,1.404877497790391e-05,-0.000133339564005297,-4.930849428541606e-06,-0.00010543204028808233,0.0002261329164607216,-0.0013136401287537692,-0.00047623841858734955,-5.3156980240564545e-05,0.0001651594080996234,0.0015580697665843926,0.6806880831718445,46.59957504272461,5.612087726593018,-19.487642288208008,-0.7849021553993225,-2.3458895683288574,0.15231649577617645,0
12,0.05499434471130371,-0.6806880831718445,-46.59957504272461,-5.612087726593018,19.487642288208008,0.7849021553993225,2.3458895683288574,-0.15231649577617645,0.0,0.0,0.0,0.0,0.0,0.0,0.0,-0.6515870692408908,-0.2783806871071283,-0.4020129472243119,0.3146244715361166,0.2028539735213771,0.07834396885475677,-0.1834129611021182,0.8779929522924256,0.7552595698457014,-0.2824946322038626,-1.6688941963262558,0.1414045467422527,2.4035784569316436,1.0273430310802327,0.878092876070424,0.7554597494309409,-0.2825552651693207,-1.6690993614607135,0.1414185955172306,2.4034451173676383,1.0273381002308042,0.00010543204028808233,-0.0002261329164607216,0.0013136401287537692,0.00047623841858734955,5.3156980240564545e-05,-0.0001651594080996234,-0.0015580697665843926,0.0,0.0,0.0,0.0,0.0,0.0,0.0,9.99237779983897e-05,0.00020017958523943502,-6.063296545810726e-05,-0.00020516513445767437,1.404877497790391e-05,-0.000133339564005297,-4.930849428541606e-06,-0.00010543204028808233,0.0002261329164607216,-0.0013136401287537692,-0.00047623841858734955,-5.3156980240564545e-05,0.0001651594080996234,0.0015580697665843926,0.6806880831718445,46.59957504272461,5.612087726593018,-19.487642288208008,-0.7849021553993225,-2.3458895683288574,0.15231649577617645,0
13,0.05999350547790527,-0.6806880831718445,-46.59957504272461,-5.612087726593018,19.487642288208008,0.7849021553993225,2.3458895683288574,-0.15231649577617645,0.0,0.0,0.0,0.0,0.0,0.0,0.0,-0.6515870692408908,-0.2783806871071283,-0.4020129472243119,0.3146244715361166,0.2028539735213771,0.07834396885475677,-0.1834129611021182,0.8779929522924256,0.7552595698457014,-0.2824946322038626,-1.6688941963262558,0.1414045467422527,2.4035784569316436,1.0273430310802327,0.878092876070424,0.7554597494309409,-0.2825552651693207,-1.6690993614607135,0.1414185955172306,2.4034451173676383,1.0273381002308042,0.00010543204028808233,-0.0002261329164607216,0.0013136401287537692,0.00047623841858734955,5.3156980240564545e-05,-0.0001651594080996234,-0.0015580697665843926,0.0,0.0,0.0,0.0,0.0,0.0,0.0,9.99237779983897e-05,0.00020017958523943502,-6.063296545810726e-05,-0.00020516513445767437,1.404877497790391e-05,-0.000133339564005297,-4.930849428541606e-06,-0.00010543204028808233,0.0002261329164607216,-0.0013136401287537692,-0.00047623841858734955,-5.3156980240564545e-05,0.0001651594080996234,0.0015580697665843926,0.6806880831718445,46.59957504272461,5.612087726593018,-19.487642288208008,-0.7849021553993225,-2.3458895683288574,0.15231649577617645,0
14,0.06499981880187988,-0.6806880831718445,-46.59957504272461,-5.612087726593018,19.487642288208008,0.7849021553993225,2.3458895683288574,-0.15231649577617645,0.0,0.0,0.0,0.0,0.0,0.0,0.0,-0.6515870692408908,-0.2783806871071283,-0.4020129472243119,0.3146244715361166,0.2028539735213771,0.07834396885475677,-0.1834129611021182,0.8779929522924256,0.7552595698457014,-0.2824946322038626,-1.6688941963262558,0.1414045467422527,2.4035784569316436,1.0273430310802327,0.878092876070424,0.7554597494309409,-0.2825552651693207,-1.6690993614607135,0.1414185955172306,2.4034451173676383,1.0273381002308042,0.00010543204028808233,-0.0002261329164607216,0.0013136401287537692,0.00047623841858734955,5.3156980240564545e-05,-0.0001651594080996234,-0.0015580697665843926,0.0,0.0,0.0,0.0,0.0,0.0,0.0,9.99237779983897e-05,0.00020017958523943502,-6.063296545810726e-05,-0.00020516513445767437,1.404877497790391e-05,-0.000133339564005297,-4.930849428541606e-06,-0.00010543204028808233,0.0002261329164607216,-0.0013136401287537692,-0.00047623841858734955,-5.3156980240564545e-05,0.0001651594080996234,0.0015580697665843926,0.6806880831718445,46.59957504272461,5.612087726593018,-19.487642288208008,-0.7849021553993225,-2.3458895683288574,0.15231649577617645,0
15,0.07000350952148438,-0.6568843722343445,-46.57577133178711,-5.536709308624268,19.535249710083008,0.7903953194618225,2.3394808769226074,-0.18710653483867645,0.0,0.0,0.0,0.0,0.0,0.0,0.0,-0.6375182032132637,-0.276584416222446,-0.3895641137916877,0.31580185370273284,0.20190369867323515,0.07795370778285073,-0.18423253561254505,0.8779912818565704,0.7552578994098461,-0.2824998516032053,-1.6688973781064598,0.14140703327534404,2.4035791690084665,1.0273468966401285,0.878092876070424,0.7554597494309409,-0.2825552651693207,-1.6690993614607135,0.1414185955172306,2.4034451173676383,1.0273381002308042,-1.3265054757767388e-05,-0.0007266235678843944,-0.0008216245203249451,-0.00018515247944531318,-0.00022913683308706093,0.00017927315053507524,2.9773252659477857e-05,0.0,0.0,0.0,0.0,0.0,0.0,0.0,0.00010159421385358414,0.00020185002109474048,-5.541356611543646e-05,-0.00020198335425369862,1.1562241886559077e-05,-0.0001340516408281367,-8.796409324274279e-06,1.3265054757767388e-05,0.0007266235678843944,0.0008216245203249451,0.00018515247944531318,0.00022913683308706093,-0.00017927315053507524,-2.9773252659477857e-05,0.6568843722343445,46.57577133178711,5.536709308624268,-19.535249710083008,-0.7903953194618225,-2.3394808769226074,0.18710653483867645,0
16,0.07500648498535156,-0.6568843722343445,-46.57577133178711,-5.536709308624268,19.535249710083008,0.7903953194618225,2.3394808769226074,-0.18710653483867645,0.0,0.0,0.0,0.0,0.0,0.0,0.0,-0.6375182032132637,-0.276584416222446,-0.3895641137916877,0.31580185370273284,0.20190369867323515,0.07795370778285073,-0.18423253561254505,0.8779912818565704,0.7552578994098461,-0.2824998516032053,-1.6688973781064598,0.14140703327534404,2.4035791690084665,1.0273468966401285,0.878092876070424,0.7554597494309409,-0.2825552651693207,-1.6690993614607135,0.1414185955172306,2.4034451173676383,1.0273381002308042,-1.3265054757767388e-05,-0.0007266235678843944,-0.0008216245203249451,-0.00018515247944531318,-0.00022913683308706093,0.00017927315053507524,2.9773252659477857e-05,0.0,0.0,0.0,0.0,0.0,0.0,0.0,0.00010159421385358414,0.00020185002109474048,-5.541356611543646e-05,-0.00020198335425369862,1.1562241886559077e-05,-0.0001340516408281367,-8.796409324274279e-06,1.3265054757767388e-05,0.0007266235678843944,0.0008216245203249451,0.00018515247944531318,0.00022913683308706093,-0.00017927315053507524,-2.9773252659477857e-05,0.6568843722343445,46.57577133178711,5.536709308624268,-19.535249710083008,-0.7903953194618225,-2.3394808769226074,0.18710653483867645,0
17,0.07999849319458008,-0.6568843722343445,-46.59957504272461,-5.536709308624268,19.559053421020508,0.7903953194618225,2.3458895683288574,-0.20724813640117645,0.0,0.0,0.0,0.0,0.0,0.0,0.0,-0.6380818267170857,-0.27325895043264853,-0.3897999082791719,0.3147164960920858,0.2012515633838103,0.07728801536914408,-0.18462457029417623,0.8779912818565704,0.7552595698457014,-0.2824998516028084,-1.6688990457433328,0.1414041789415715,2.4035784569316436,1.0273491345958576,0.878092876070424,0.7554597494309409,-0.2825552651693207,-1.6690993614607135,0.1414185955172306,2.4034451173676383,1.0273381002308042,0.00048365260031424205,0.00012050607623257452,-0.0005785080335192951,-0.0009121121032061169,-0.000151237637208292,5.0923927818151525e-05,0.0012241505383275657,0.0,0.0,0.0,0.0,0.0,0.0,0.0,0.00010159421385358414,0.00020017958523943502,-5.5413566512341195e-05,-0.00020031571738066134,1.4416575659093045e-05,-0.000133339564005297,-1.1034365053452788e-05,-0.00048365260031424205,-0.00012050607623257452,0.0005785080335192951,0.0009121121032061169,0.000151237637208292,-5.0923927818151525e-05,-0.0012241505383275657,0.6568843722343445,46.59957504272461,5.536709308624268,-19.559053421020508,-0.7903953194618225,-2.3458895683288574,0.20724813640117645,0
18,0.08499789237976074,-0.6568843722343445,-46.59957504272461,-5.536709308624268,19.559053421020508,0.7903953194618225,2.3458895683288574,-0.20724813640117645,0.0,0.0,0.0,0.0,0.0,0.0,0.0,-0.6380818267170857,-0.27325895043264853,-0.3897999082791719,0.3147164960920858,0.2012515633838103,0.07728801536914408,-0.18462457029417623,0.8779912818565704,0.7552595698457014,-0.2824998516028084,-1.6688990457433328,0.1414041789415715,2.4035784569316436,1.0273491345958576,0.878092876070424,0.7554597494309409,-0.2825552651693207,-1.6690993614607135,0.1414185955172306,2.4034451173676383,1.0273381002308042,0.00048365260031424205,0.00012050607623257452,-0.0005785080335192951,-0.0009121121032061169,-0.000151237637208292,5.0923927818151525e-05,0.0012241505383275657,0.0,0.0,0.0,0.0,0.0,0.0,0.0,0.00010159421385358414,0.00020017958523943502,-5.5413566512341195e-05,-0.00020031571738066134,1.4416575659093045e-05,-0.000133339564005297,-1.1034365053452788e-05,-0.00048365260031424205,-0.00012050607623257452,0.0005785080335192951,0.0009121121032061169,0.000151237637208292,-5.0923927818151525e-05,-0.0012241505383275657,0.6568843722343445,46.59957504272461,5.536709308624268,-19.559053421020508,-0.7903953194618225,-2.3458895683288574,0.20724813640117645,0
19,0.08994197845458984,-0.6053096652030945,-46.59957504272461,-5.564480304718018,19.535249710083008,0.7903953194618225,2.3394808769226074,-0.20724813640117645,0.0,0.0,0.0,0.0,0.0,0.0,0.0,-0.6466609959567782,-0.2774063149571889,-0.3967982807931791,0.3173151480956823,0.20127684902232945,0.07763529457876207,-0.1837516283043061,0.8779876625788839,0.7552595698457014,-0.28249790265196095,-1.6688968886588393,0.14140278309882215,2.4035791690084665,1.0273491345958576,0.878092876070424,0.7554597494309409,-0.2825552651693207,-1.6690993614607135,0.1414185955172306,2.4034451173676383,1.0273381002308042,-0.0005833205662488346,-0.000309625279400839,-0.00010832101080274484,-0.00035648142713989135,-0.0002897302864553196,0.00022053837660545054,0.0006775071088214935,0.0,0.0,0.0,0.0,0.0,0.0,0.0,0.0001052134915400238,0.00020017958523943502,-5.736251735977138e-05,-0.00020247280187413175,1.5812418408450712e-05,-0.0001340516408281367,-1.1034365053452788e-05,0.0005833205662488346,0.000309625279400839,0.00010832101080274484,0.00035648142713989135,0.0002897302864553196,-0.00022053837660545054,-0.0006775071088214935,0.6053096652030945,46.59957504272461,5.564480304718018,-19.535249710083008,-0.7903953194618225,-2.3394808769226074,0.20724813640117645,0
20,0.09499096870422363,-0.6053096652030945,-46.59957504272461,-5.564480304718018,19.535249710083008,0.7903953194618225,2.3394808769226074,-0.20724813640117645,0.0,0.0,0.0,0.0,0.0,0.0,0.0,-0.6466609959567782,-0.2774063149571889,-0.3967982807931791,0.3173151480956823,0.20127684902232945,0.07763529457876207,-0.1837516283043061,0.8779876625788839,0.7552595698457014,-0.28249790265196095,-1.6688968886588393,0.14140278309882215,2.4035791690084665,1.0273491345958576,0.878092876070424,0.7554597494309409,-0.2825552651693207,-1.6690993614607135,0.1414185955172306,2.4034451173676383,1.0273381002308042,-0.0005833205662488346,-0.000309625279400839,-0.00010832101080274484,-0.00035648142713989135,-0.0002897302864553196,0.00022053837660545054,0.0006775071088214935,0.0,0.0,0.0,0.0,0.0,0.0,0.0,0.0001052134915400238,0.00020017958523943502,-5.736251735977138e-05,-0.00020247280187413175,1.5812418408450712e-05,-0.0001340516408281367,-1.1034365053452788e-05,0.0005833205662488346,0.000309625279400839,0.00010832101080274484,0.00035648142713989135,0.0002897302864553196,-0.00022053837660545054,-0.0006775071088214935,0.6053096652030945,46.59957504272461,5.564480304718018,-19.535249710083008,-0.7903953194618225,-2.3394808769226074,0.20724813640117645,0
21,0.09999513626098633,-0.6291133761405945,-46.62337875366211,-5.564480304718018,19.511445999145508,0.7849021553993225,2.3458895683288574,-0.20083944499492645,0.0,0.0,0.0,0.0,0.0,0.0,0.0,-0.6340258382850746,-0.27346112506324005,-0.38855495058466644,0.3142294857052112,0.2006049224623867,0.07722717861480612,-0.18397807392003757,0.8779893330147391,0.7552612402815567,-0.2824979792903971,-1.668895228031701,0.14140339614267655,2.4035784569316436,1.0273484225190348,0.878092876070424,0.7554597494309409,-0.2825552651693207,-1.6690993614607135,0.1414185955172306,2.4034451173676383,1.0273381002308042,0.00025129570270818554,0.00015080279795963523,8.631937290345907e-05,0.00023672163918380675,-8.656931300842941e-05,-4.8150758252524474e-05,0.0009088782061209039,0.0,0.0,0.0,0.0,0.0,0.0,0.0,0.00010354305568482935,0.00019850914938412956,-5.728587892361858e-05,-0.0002041334290123764,1.5199374554047962e-05,-0.000133339564005297,-1.0322288230613097e-05,-0.00025129570270818554,-0.00015080279795963523,-8.631937290345907e-05,-0.00023672163918380675,8.656931300842941e-05,4.8150758252524474e-05,-0.0009088782061209039,0.6291133761405945,46.62337875366211,5.564480304718018,-19.511445999145508,-0.7849021553993225,-2.3458895683288574,0.20083944499492645,0
22,0.10499358177185059,-0.6291133761405945,-46.62337875366211,-5.564480304718018,19.511445999145508,0.7849021553993225,2.3458895683288574,-0.20083944499492645,0.0,0.0,0.0,0.0,0.0,0.0,0.0,-0.6340258382850746,-0.27346112506324005,-0.38855495058466644,0.3142294857052112,0.2006049224623867,0.07722717861480612,-0.18397807392003757,0.8779893330147391,0.7552612402815567,-0.2824979792903971,-1.668895228031701,0.14140339614267655,2.4035784569316436,1.0273484225190348,0.878092876070424,0.7554597494309409,-0.2825552651693207,-1.6690993614607135,0.1414185955172306,2.4034451173676383,1.0273381002308042,0.00025129570270818554,0.00015080279795963523,8.631937290345907e-05,0.00023672163918380675,-8.656931300842941e-05,-4.8150758252524474e-05,0.0009088782061209039,0.0,0.0,0.0,0.0,0.0,0.0,0.0,0.00010354305568482935,0.00019850914938412956,-5.728587892361858e-05,-0.0002041334290123764,1.5199374554047962e-05,-0.000133339564005297,-1.0322288230613097e-05,-0.00025129570270818554,-0.00015080279795963523,-8.631937290345907e-05,-0.00023672163918380675,8.656931300842941e-05,4.8150758252524474e-05,-0.0009088782061209039,0.6291133761405945,46.62337875366211,5.564480304718018,-19.511445999145508,-0.7849021553993225,-2.3458895683288574,0.20083944499492645,0
23,0.11001896858215332,-0.6053096652030945,-46.59957504272461,-5.588284015655518,19.535249710083008,0.7903953194618225,2.3522982597351074,-0.15231649577617645,0.0,0.0,0.0,0.0,0.0,0.0,0.0,-0.6457457696967556,-0.27793754488788097,-0.4003329476088454,0.3134052890917132,0.20034815320196253,0.07764917164131618,-0.1834203836043102,0.8779876625788839,0.7552595698457014,-0.2824963117984137,-1.6688954704635113,0.14140274204835152,2.403577744854821,1.0273441172093152,0.878092876070424,0.7554597494309409,-0.2825552651693207,-1.6690993614607135,0.1414185955172306,2.4034451173676383,1.0273381002308042,-0.0005986127318446853,-0.0005959838092838135,0.0004591693690730543,-0.0005293506414891913,-0.00023378363545071098,-0.00030868807707361403,-0.0015219004795467644,0.0,0.0,0.0,0.0,0.0,0.0,0.0,0.0001052134915400238,0.00020017958523943502,-5.8953370907000036e-05,-0.00020389099720219406,1.5853468879084565e-05,-0.00013262748718245732,-6.016978510992033e-06,0.0005986127318446853,0.0005959838092838135,-0.0004591693690730543,0.0005293506414891913,0.00023378363545071098,0.00030868807707361403,0.0015219004795467644,0.6053096652030945,46.59957504272461,5.588284015655518,-19.535249710083008,-0.7903953194618225,-2.3522982597351074,0.15231649577617645,0
24,0.11501479148864746,-0.6053096652030945,-46.59957504272461,-5.588284015655518,19.535249710083008,0.7903953194618225,2.3522982597351074,-0.15231649577617645,0.0,0.0,0.0,0.0,0.0,0.0,0.0,-0.6457457696967556,-0.27793754488788097,-0.4003329476088454,0.3134052890917132,0.20034815320196253,0.07764917164131618,-0.1834203836043102,0.8779876625788839,0.7552595698457014,-0.2824963117984137,-1.6688954704635113,0.14140274204835152,2.403577744854821,1.0273441172093152,0.878092876070424,0.7554597494309409,-0.2825552651693207,-1.6690993614607135,0.1414185955172306,2.4034451173676383,1.0273381002308042,-0.0005986127318446853,-0.0005959838092838135,0.0004591693690730543,-0.0005293506414891913,-0.00023378363545071098,-0.00030868807707361403,-0.0015219004795467644,0.0,0.0,0.0,0.0,0.0,0.0,0.0,0.0001052134915400238,0.00020017958523943502,-5.8953370907000036e-05,-0.00020389099720219406,1.5853468879084565e-05,-0.00013262748718245732,-6.016978510992033e-06,0.0005986127318446853,0.0005959838092838135,-0.0004591693690730543,0.0005293506414891913,0.00023378363545071098,0.00030868807707361403,0.0015219004795467644,0.6053096652030945,46.59957504272461,5.588284015655518,-19.535249710083008,-0.7903953194618225,-2.3522982597351074,0.15231649577617645,0
25,0.11999726295471191,-0.6291133761405945,-46.57577133178711,-5.564480304718018,19.535249710083008,0.7903953194618225,2.3394808769226074,-0.17337362468242645,0.0,0.0,0.0,0.0,0.0,0.0,0.0,-0.64561415185238,-0.26281758042331155,-0.4010721530470073,0.30502116054735,0.20021151216300734,0.07644994114602881,-0.18388474790699216,0.8779893330147391,0.7552578994098461,-0.28249798223428557,-1.6688975371616366,0.14140275954521567,2.4035791690084665,1.027345370779616,0.878092876070424,0.7554597494309409,-0.2825552651693207,-1.6690993614607135,0.1414185955172306,2.4034451173676383,1.0273381002308042,-0.0005990037679858612,-0.00033520589311501845,0.0002788720960872909,-0.00038785600798383653,-0.00014840139567162913,0.00024568081816343833,-0.0007936288763695133,0.0,0.0,0.0,0.0,0.0,0.0,0.0,0.00010354305568482935,0.00020185002109474048,-5.728293503515225e-05,-0.00020182429907689148,1.5835972014932587e-05,-0.0001340516408281367,-7.270548811888489e-06,0.0005990037679858612,0.00033520589311501845,-0.0002788720960872909,0.00038785600798383653,0.00014840139567162913,-0.00024568081816343833,0.0007936288763695133,0.6291133761405945,46.57577133178711,5.564480304718018,-19.535249710083008,-0.7903953194618225,-2.3394808769226074,0.17337362468242645,0
26,0.12496495246887207,-0.6291133761405945,-46.57577133178711,-5.564480304718018,19.535249710083008,0.7903953194618225,2.3394808769226074,-0.17337362468242645,0.0,0.0,0.0,0.0,0.0,0.0,0.0,-0.64561415185238,-0.26281758042331155,-0.4010721530470073,0.30502116054735,0.20021151216300734,0.07644994114602881,-0.18388474790699216,0.8779893330147391,0.7552578994098461,-0.28249798223428557,-1.6688975371616366,0.14140275954521567,2.4035791690084665,1.027345370779616,0.878092876070424,0.7554597494309409,-0.2825552651693207,-1.6690993614607135,0.1414185955172306,2.4034451173676383,1.0273381002308042,-0.0005990037679858612,-0.00033520589311501845,0.0002788720960872909,-0.00038785600798383653,-0.00014840139567162913,0.00024568081816343833,-0.0007936288763695133,0.0,0.0,0.0,0.0,0.0,0.0,0.0,0.00010354305568482935,0.00020185002109474048,-5.728293503515225e-05,-0.00020182429907689148,1.5835972014932587e-05,-0.0001340516408281367,-7.270548811888489e-06,0.0005990037679858612,0.00033520589311501845,-0.0002788720960872909,0.00038785600798383653,0.00014840139567162913,-0.00024568081816343833,0.0007936288763695133,0.6291133761405945,46.57577133178711,5.564480304718018,-19.535249710083008,-0.7903953194618225,-2.3394808769226074,0.17337362468242645,0
27,0.12999510765075684,-0.6568843722343445,-46.59957504272461,-5.564480304718018,19.535249710083008,0.7849021553993225,2.3394808769226074,-0.17978231608867645,0.0,0.0,0.0,0.0,0.0,0.0,0.0,-0.6343824638398391,-0.2639719834879349,-0.3914604075360451,0.308263360637227,0.20015181950625185,0.07668781109101051,-0.1845732481836887,0.8779912818565704,0.7552595698457014,-0.28249774381570647,-1.6688969012696004,0.14140795856819693,2.4035791690084665,1.0273460828380452,0.878092876070424,0.7554597494309409,-0.2825552651693207,-1.6690993614607135,0.1414185955172306,2.4034451173676383,1.0273381002308042,0.0005048881930054218,0.0005666818404538906,-1.2674060503136829e-05,-0.0006264218353745891,0.00015819174110117163,0.00016437093911628075,9.756091061798814e-05,0.0,0.0,0.0,0.0,0.0,0.0,0.0,0.00010159421385358414,0.00020017958523943502,-5.752135361425381e-05,-0.0002024601911130297,1.0636949033665521e-05,-0.0001340516408281367,-7.982607240997197e-06,-0.0005048881930054218,-0.0005666818404538906,1.2674060503136829e-05,0.0006264218353745891,-0.00015819174110117163,-0.00016437093911628075,-9.756091061798814e-05,0.6568843722343445,46.59957504272461,5.564480304718018,-19.535249710083008,-0.7849021553993225,-2.3394808769226074,0.17978231608867645,0
28,0.1349940299987793,-0.6568843722343445,-46.59957504272461,-5.564480304718018,19.535249710083008,0.7849021553993225,2.3394808769226074,-0.17978231608867645,0.0,0.0,0.0,0.0,0.0,0.0,0.0,-0.6343824638398391,-0.2639719834879349,-0.3914604075360451,0.308263360637227,0.20015181950625185,0.07668781109101051,-0.1845732481836887,0.8779912818565704,0.7552595698457014,-0.28249774381570647,-1.6688969012696004,0.14140795856819693,2.4035791690084665,1.0273460828380452,0.878092876070424,0.7554597494309409,-0.2825552651693207,-1.6690993614607135,0.1414185955172306,2.4034451173676383,1.0273381002308042,0.0005048881930054218,0.0005666818404538906,-1.2674060503136829e-05,-0.0006264218353745891,0.00015819174110117163,0.00016437093911628075,9.756091061798814e-05,0.0,0.0,0.0,0.0,0.0,0.0,0.0,0.00010159421385358414,0.00020017958523943502,-5.752135361425381e-05,-0.0002024601911130297,1.0636949033665521e-05,-0.0001340516408281367,-7.982607240997197e-06,-0.0005048881930054218,-0.0005666818404538906,1.2674060503136829e-05,0.0006264218353745891,-0.00015819174110117163,-0.00016437093911628075,-9.756091061798814e-05,0.6568843722343445,46.59957504272461,5.564480304718018,-19.535249710083008,-0.7849021553993225,-2.3394808769226074,0.17978231608867645,0
29,0.13999700546264648,-0.6053096652030945,-46.57577133178711,-5.536709308624268,19.535249710083008,0.7784934639930725,2.3522982597351074,-0.19351522624492645,0.0,0.0,0.0,0.0,0.0,0.0,0.0,-0.6286416577109478,-0.2726495448442775,-0.3902729764820595,0.3158327068842384,0.20067865640231503,0.07817555376073046,-0.1841371151972638,0.8779876625788839,0.7552578994098461,-0.2824999045838176,-1.668897616666804,0.14140725480908004,2.403577744854821,1.0273476087169515,0.878092876070424,0.7554597494309409,-0.2825552651693207,-1.6690993614607135,0.1414185955172306,2.4034451173676383,1.0273381002308042,-0.000549906234565432,-0.0003250016872185618,-0.0007740056596604196,-0.00043833780935558013,0.00040098969064530557,-0.0003574351266122572,0.00021936228662317302,0.0,0.0,0.0,0.0,0.0,0.0,0.0,0.0001052134915400238,0.00020185002109474048,-5.536058550315026e-05,-0.0002017447939095529,1.1340708150564538e-05,-0.00013262748718245732,-9.508486147336015e-06,0.000549906234565432,0.0003250016872185618,0.0007740056596604196,0.00043833780935558013,-0.00040098969064530557,0.0003574351266122572,-0.00021936228662317302,0.6053096652030945,46.57577133178711,5.536709308624268,-19.535249710083008,-0.7784934639930725,-2.3522982597351074,0.19351522624492645,0
30,0.14495563507080078,-0.6053096652030945,-46.57577133178711,-5.536709308624268,19.535249710083008,0.7784934639930725,2.3522982597351074,-0.19351522624492645,0.0,0.0,0.0,0.0,0.0,0.0,0.0,-0.6286416577109478,-0.2726495448442775,-0.3902729764820595,0.3158327068842384,0.20067865640231503,0.07817555376073046,-0.1841371151972638,0.8779876625788839,0.7552578994098461,-0.2824999045838176,-1.668897616666804,0.14140725480908004,2.403577744854821,1.0273476087169515,0.878092876070424,0.7554597494309409,-0.2825552651693207,-1.6690993614607135,0.1414185955172306,2.4034451173676383,1.0273381002308042,-0.000549906234565432,-0.0003250016872185618,-0.0007740056596604196,-0.00043833780935558013,0.00040098969064530557,-0.0003574351266122572,0.00021936228662317302,0.0,0.0,0.0,0.0,0.0,0.0,0.0,0.0001052134915400238,0.00020185002109474048,-5.536058550315026e-05,-0.0002017447939095529,1.1340708150564538e-05,-0.00013262748718245732,-9.508486147336015e-06,0.000549906234565432,0.0003250016872185618,0.0007740056596604196,0.00043833780935558013,-0.00040098969064530557,0.0003574351266122572,-0.00021936228662317302,0.6053096652030945,46.57577133178711,5.536709308624268,-19.535249710083008,-0.7784934639930725,-2.3522982597351074,0.19351522624492645,0
31,0.15033745765686035,-0.6291133761405945,-46.62337875366211,-5.612087726593018,19.559053421020508,0.8022971749305725,2.3458895683288574,-0.21457235515117645,0.0,0.0,0.0,0.0,0.0,0.0,0.0,-0.6320675667713437,-0.2676214497765177,-0.39598955147107506,0.3147271561084605,0.20130185689119406,0.07848203475676516,-0.18466439922156005,0.8779893330147391,0.7552612402815567,-0.28249463838274724,-1.668897114812194,0.14140178755108604,2.4035784569316436,1.0273499483979411,0.878092876070424,0.7554597494309409,-0.2825552651693207,-1.6690993614607135,0.1414185955172306,2.4034451173676383,1.0273381002308042,-7.621071640811312e-05,0.0006698455232268841,0.001065838882360058,-0.0008890120224936875,-0.0005796236820802665,-5.189832156856246e-05,0.001430168006991581,0.0,0.0,0.0,0.0,0.0,0.0,0.0,0.00010354305568482935,0.00019850914938412956,-6.0626786573481084e-05,-0.00020224664851942187,1.6807966144560815e-05,-0.000133339564005297,-1.1848167136951915e-05,7.621071640811312e-05,-0.0006698455232268841,-0.001065838882360058,0.0008890120224936875,0.0005796236820802665,5.189832156856246e-05,-0.001430168006991581,0.6291133761405945,46.62337875366211,5.612087726593018,-19.559053421020508,-0.8022971749305725,-2.3458895683288574,0.21457235515117645,0
32,0.15494561195373535,-0.6291133761405945,-46.62337875366211,-5.612087726593018,19.559053421020508,0.8022971749305725,2.3458895683288574,-0.21457235515117645,0.0,0.0,0.0,0.0,0.0,0.0,0.0,-0.6320675667713437,-0.2676214497765177,-0.39598955147107506,0.3147271561084605,0.20130185689119406,0.07848203475676516,-0.18466439922156005,0.8779893330147391,0.7552612402815567,-0.28249463838274724,-1.668897114812194,0.14140178755108604,2.4035784569316436,1.0273499483979411,0.878092876070424,0.7554597494309409,-0.2825552651693207,-1.6690993614607135,0.1414185955172306,2.4034451173676383,1.0273381002308042,-7.621071640811312e-05,0.0006698455232268841,0.001065838882360058,-0.0008890120224936875,-0.0005796236820802665,-5.189832156856246e-05,0.001430168006991581,0.0,0.0,0.0,0.0,0.0,0.0,0.0,0.00010354305568482935,0.00019850914938412956,-6.0626786573481084e-05,-0.00020224664851942187,1.6807966144560815e-05,-0.000133339564005297,-1.1848167136951915e-05,7.621071640811312e-05,-0.0006698455232268841,-0.001065838882360058,0.0008890120224936875,0.0005796236820802665,5.189832156856246e-05,-0.001430168006991581,0.6291133761405945,46.62337875366211,5.612087726593018,-19.559053421020508,-0.8022971749305725,-2.3458895683288574,0.21457235515117645,0
33,0.15995144844055176,-0.6291133761405945,-46.62337875366211,-5.612087726593018,19.559053421020508,0.8022971749305725,2.3458895683288574,-0.21457235515117645,0.0,0.0,0.0,0.0,0.0,0.0,0.0,-0.6320675667713437,-0.2676214497765177,-0.39598955147107506,0.3147271561084605,0.20130185689119406,0.07848203475676516,-0.18466439922156005,0.8779893330147391,0.7552612402815567,-0.28249463838274724,-1.668897114812194,0.14140178755108604,2.4035784569316436,1.0273499483979411,0.878092876070424,0.7554597494309409,-0.2825552651693207,-1.6690993614607135,0.1414185955172306,2.4034451173676383,1.0273381002308042,-7.621071640811312e-05,0.0006698455232268841,0.001065838882360058,-0.0008890120224936875,-0.0005796236820802665,-5.189832156856246e-05,0.001430168006991581,0.0,0.0,0.0,0.0,0.0,0.0,0.0,0.00010354305568482935,0.00019850914938412956,-6.0626786573481084e-05,-0.00020224664851942187,1.6807966144560815e-05,-0.000133339564005297,-1.1848167136951915e-05,7.621071640811312e-05,-0.0006698455232268841,-0.001065838882360058,0.0008890120224936875,0.0005796236820802665,5.189832156856246e-05,-0.001430168006991581,0.6291133761405945,46.62337875366211,5.612087726593018,-19.559053421020508,-0.8022971749305725,-2.3458895683288574,0.21457235515117645,0
34,0.16576433181762695,-0.6291133761405945,-46.62337875366211,-5.612087726593018,19.559053421020508,0.8022971749305725,2.3458895683288574,-0.21457235515117645,0.0,0.0,0.0,0.0,0.0,0.0,0.0,-0.6320675667713437,-0.2676214497765177,-0.39598955147107506,0.3147271561084605,0.20130185689119406,0.07848203475676516,-0.18466439922156005,0.8779893330147391,0.7552612402815567,-0.28249463838274724,-1.668897114812194,0.14140178755108604,2.4035784569316436,1.0273499483979411,0.878092876070424,0.7554597494309409,-0.2825552651693207,-1.6690993614607135,0.1414185955172306,2.4034451173676383,1.0273381002308042,-7.621071640811312e-05,0.0006698455232268841,0.001065838882360058,-0.0008890120224936875,-0.0005796236820802665,-5.189832156856246e-05,0.001430168006991581,0.0,0.0,0.0,0.0,0.0,0.0,0.0,0.00010354305568482935,0.00019850914938412956,-6.0626786573481084e-05,-0.00020224664851942187,1.6807966144560815e-05,-0.000133339564005297,-1.1848167136951915e-05,7.621071640811312e-05,-0.0006698455232268841,-0.001065838882360058,0.0008890120224936875,0.0005796236820802665,5.189832156856246e-05,-0.001430168006991581,0.6291133761405945,46.62337875366211,5.612087726593018,-19.559053421020508,-0.8022971749305725,-2.3458895683288574,0.21457235515117645,0
35,0.17005038261413574,-0.6568843722343445,-46.62337875366211,-5.588284015655518,19.559053421020508,0.7784934639930725,2.3596224784851074,-0.16604940593242645,0.0,0.0,0.0,0.0,0.0,0.0,0.0,-0.6279923450364492,-0.2727990165164939,-0.3940319108935981,0.31673437405110294,0.20151999080123809,0.07870960158015473,-0.18431788856597803,0.8779912818565704,0.7552612402815567,-0.28249623232556503,-1.6688992075207343,0.14140725786196587,2.4035769310527373,1.027344556959139,0.878092876070424,0.7554597494309409,-0.2825552651693207,-1.6690993614607135,0.1414185955172306,2.4034451173676383,1.0273381002308042,0.0005869835940989204,-4.176239623982035e-05,0.0004177888980081651,-0.0009509336964059978,0.00034976974915160164,-0.000494523242654149,-0.0014057024498155487,0.0,0.0,0.0,0.0,0.0,0.0,0.0,0.00010159421385358414,0.00019850914938412956,-5.9032843755690845e-05,-0.0002001539399791863,1.1337655264731517e-05,-0.0001318136850989582,-6.456728334880424e-06,-0.0005869835940989204,4.176239623982035e-05,-0.0004177888980081651,0.0009509336964059978,-0.00034976974915160164,0.000494523242654149,0.0014057024498155487,0.6568843722343445,46.62337875366211,5.588284015655518,-19.559053421020508,-0.7784934639930725,-2.3596224784851074,0.16604940593242645,0
36,0.17499494552612305,-0.6568843722343445,-46.62337875366211,-5.588284015655518,19.559053421020508,0.7784934639930725,2.3596224784851074,-0.16604940593242645,0.0,0.0,0.0,0.0,0.0,0.0,0.0,-0.6279923450364492,-0.2727990165164939,-0.3940319108935981,0.31673437405110294,0.20151999080123809,0.07870960158015473,-0.18431788856597803,0.8779912818565704,0.7552612402815567,-0.28249623232556503,-1.6688992075207343,0.14140725786196587,2.4035769310527373,1.027344556959139,0.878092876070424,0.7554597494309409,-0.2825552651693207,-1.6690993614607135,0.1414185955172306,2.4034451173676383,1.0273381002308042,0.0005869835940989204,-4.176239623982035e-05,0.0004177888980081651,-0.0009509336964059978,0.00034976974915160164,-0.000494523242654149,-0.0014057024498155487,0.0,0.0,0.0,0.0,0.0,0.0,0.0,0.00010159421385358414,0.00019850914938412956,-5.9032843755690845e-05,-0.0002001539399791863,1.1337655264731517e-05,-0.0001318136850989582,-6.456728334880424e-06,-0.0005869835940989204,4.176239623982035e-05,-0.0004177888980081651,0.0009509336964059978,-0.00034976974915160164,0.000494523242654149,0.0014057024498155487,0.6568843722343445,46.62337875366211,5.588284015655518,-19.559053421020508,-0.7784934639930725,-2.3596224784851074,0.16604940593242645,0
37,0.17999958992004395,-0.6053096652030945,-46.57577133178711,-5.536709308624268,19.559053421020508,0.7903953194618225,2.3394808769226074,-0.16604940593242645,0.0,0.0,0.0,0.0,0.0,0.0,0.0,-0.6391260006208231,-0.2683337613165271,-0.3973681751998704,0.3136145940846438,0.20192337619213466,0.07827635094853883,-0.18587346748090677,0.8779876625788839,0.7552578994098461,-0.28249993107566806,-1.6688990221967164,0.14140593285875028,2.4035791690084665,1.027344556959139,0.878092876070424,0.7554597494309409,-0.2825552651693207,-1.6690993614607135,0.1414185955172306,2.4034451173676383,1.0273381002308042,-0.001463349618294499,-0.000785209632828351,-0.00015894425686627372,-0.0006421680083900881,-0.00014165300358828648,8.193741384322606e-05,-0.0006622466962394657,0.0,0.0,0.0,0.0,0.0,0.0,0.0,0.0001052134915400238,0.00020185002109474048,-5.533409365265918e-05,-0.00020033926399709578,1.2662658480322442e-05,-0.0001340516408281367,-6.456728334880424e-06,0.001463349618294499,0.000785209632828351,0.00015894425686627372,0.0006421680083900881,0.00014165300358828648,-8.193741384322606e-05,0.0006622466962394657,0.6053096652030945,46.57577133178711,5.536709308624268,-19.559053421020508,-0.7903953194618225,-2.3394808769226074,0.16604940593242645,0
38,0.18499088287353516,-0.6053096652030945,-46.57577133178711,-5.536709308624268,19.559053421020508,0.7903953194618225,2.3394808769226074,-0.16604940593242645,0.0,0.0,0.0,0.0,0.0,0.0,0.0,-0.6391260006208231,-0.2683337613165271,-0.3973681751998704,0.3136145940846438,0.20192337619213466,0.07827635094853883,-0.18587346748090677,0.8779876625788839,0.7552578994098461,-0.28249993107566806,-1.6688990221967164,0.14140593285875028,2.4035791690084665,1.027344556959139,0.878092876070424,0.7554597494309409,-0.2825552651693207,-1.6690993614607135,0.1414185955172306,2.4034451173676383,1.0273381002308042,-0.001463349618294499,-0.000785209632828351,-0.00015894425686627372,-0.0006421680083900881,-0.00014165300358828648,8.193741384322606e-05,-0.0006622466962394657,0.0,0.0,0.0,0.0,0.0,0.0,0.0,0.0001052134915400238,0.00020185002109474048,-5.533409365265918e-05,-0.00020033926399709578,1.2662658480322442e-05,-0.0001340516408281367,-6.456728334880424e-06,0.001463349618294499,0.000785209632828351,0.00015894425686627372,0.0006421680083900881,0.00014165300358828648,-8.193741384322606e-05,0.0006622466962394657,0.6053096652030945,46.57577133178711,5.536709308624268,-19.559053421020508,-0.7903953194618225,-2.3394808769226074,0.16604940593242645,0
39,0.1900038719177246,-0.5815059542655945,-46.59957504272461,-5.588284015655518,19.535249710083008,0.7784934639930725,2.3330721855163574,-0.19351522624492645,0.0,0.0,0.0,0.0,0.0,0.0,0.0,-0.6359995093484342,-0.26912992395954144,-0.39145889906679066,0.3163306444502568,0.20179144196337745,0.07782977939292801,-0.18662677113989093,0.8779859921430286,0.7552595698457014,-0.2824962853074771,-1.668897589851345,0.14140524700759313,2.4035798810852893,1.0273476087169515,0.878092876070424,0.7554597494309409,-0.2825552651693207,-1.6690993614607135,0.1414185955172306,2.4034451173676383,1.0273381002308042,-0.0011902220313135198,0.00031340709402988634,0.0008568665079939144,0.00010992799278320889,0.0002758074041274404,0.0004924514062832757,0.0007680523397070861,0.0,0.0,0.0,0.0,0.0,0.0,0.0,0.00010688392739532926,0.00020017958523943502,-5.897986184361104e-05,-0.00020177160936851735,1.3348509637467476e-05,-0.0001347637176509764,-9.508486147336015e-06,0.0011902220313135198,-0.00031340709402988634,-0.0008568665079939144,-0.00010992799278320889,-0.0002758074041274404,-0.0004924514062832757,-0.0007680523397070861,0.5815059542655945,46.59957504272461,5.588284015655518,-19.535249710083008,-0.7784934639930725,-2.3330721855163574,0.19351522624492645,0
40,0.195281982421875,-0.5815059542655945,-46.59957504272461,-5.588284015655518,19.535249710083008,0.7784934639930725,2.3330721855163574,-0.19351522624492645,0.0,0.0,0.0,0.0,0.0,0.0,0.0,-0.6359995093484342,-0.26912992395954144,-0.39145889906679066,0.3163306444502568,0.20179144196337745,0.07782977939292801,-0.18662677113989093,0.8779859921430286,0.7552595698457014,-0.2824962853074771,-1.668897589851345,0.14140524700759313,2.4035798810852893,1.0273476087169515,0.878092876070424,0.7554597494309409,-0.2825552651693207,-1.6690993614607135,0.1414185955172306,2.4034451173676383,1.0273381002308042,-0.0011902220313135198,0.00031340709402988634,0.0008568665079939144,0.00010992799278320889,0.0002758074041274404,0.0004924514062832757,0.0007680523397070861,0.0,0.0,0.0,0.0,0.0,0.0,0.0,0.00010688392739532926,0.00020017958523943502,-5.897986184361104e-05,-0.00020177160936851735,1.3348509637467476e-05,-0.0001347637176509764,-9.508486147336015e-06,0.0011902220313135198,-0.00031340709402988634,-0.0008568665079939144,-0.00010992799278320889,-0.0002758074041274404,-0.0004924514062832757,-0.0007680523397070861,0.5815059542655945,46.59957504272461,5.588284015655518,-19.535249710083008,-0.7784934639930725,-2.3330721855163574,0.19351522624492645,0
41,0.19999194145202637,-0.6806880831718445,-46.54800033569336,-5.564480304718018,19.535249710083008,0.7903953194618225,2.3394808769226074,-0.15964071452617645,0.0,0.0,0.0,0.0,0.0,0.0,0.0,-0.6444224099121034,-0.27976395043722346,-0.39930593841160966,0.32276972290943245,0.2018626301331755,0.07851849662523834,-0.18705809027501577,0.8779929522924256,0.755255950568015,-0.2824979822221228,-1.6688975342423802,0.14140274205032974,2.4035791690084665,1.027343844882316,0.878092876070424,0.7554597494309409,-0.2825552651693207,-1.6690993614607135,0.1414185955172306,2.4034451173676383,1.0273381002308042,0.0007961173546155779,-0.0013099400076667016,0.0001872230045625571,3.2848373574628664e-05,-0.00017722651758043668,3.708928339358391e-05,-0.001258740370139958,0.0,0.0,0.0,0.0,0.0,0.0,0.0,9.99237779983897e-05,0.00020379886292587468,-5.728294719792304e-05,-0.00020182721833328365,1.5853466900861424e-05,-0.0001340516408281367,-5.744651511818688e-06,-0.0007961173546155779,0.0013099400076667016,-0.0001872230045625571,-3.2848373574628664e-05,0.00017722651758043668,-3.708928339358391e-05,0.001258740370139958,0.6806880831718445,46.54800033569336,5.564480304718018,-19.535249710083008,-0.7903953194618225,-2.3394808769226074,0.15964071452617645,0
42,0.20495367050170898,-0.6806880831718445,-46.54800033569336,-5.564480304718018,19.535249710083008,0.7903953194618225,2.3394808769226074,-0.15964071452617645,0.0,0.0,0.0,0.0,0.0,0.0,0.0,-0.6444224099121034,-0.27976395043722346,-0.39930593841160966,0.32276972290943245,0.2018626301331755,0.07851849662523834,-0.18705809027501577,0.8779929522924256,0.755255950568015,-0.2824979822221228,-1.6688975342423802,0.14140274205032974,2.4035791690084665,1.027343844882316,0.878092876070424,0.7554597494309409,-0.2825552651693207,-1.6690993614607135,0.1414185955172306,2.4034451173676383,1.0273381002308042,0.0007961173546155779,-0.0013099400076667016,0.0001872230045625571,3.2848373574628664e-05,-0.00017722651758043668,3.708928339358391e-05,-0.001258740370139958,0.0,0.0,0.0,0.0,0.0,0.0,0.0,9.99237779983897e-05,0.00020379886292587468,-5.728294719792304e-05,-0.00020182721833328365,1.5853466900861424e-05,-0.0001340516408281367,-5.744651511818688e-06,-0.0007961173546155779,0.0013099400076667016,-0.0001872230045625571,-3.2848373574628664e-05,0.00017722651758043668,-3.708928339358391e-05,0.001258740370139958,0.6806880831718445,46.54800033569336,5.564480304718018,-19.535249710083008,-0.7903953194618225,-2.3394808769226074,0.15964071452617645,0
43,0.2099897861480713,-0.6291133761405945,-46.59957504272461,-5.564480304718018,19.459871292114258,0.7903953194618225,2.3458895683288574,-0.11844198405742645,0.0,0.0,0.0,0.0,0.0,0.0,0.0,-0.6384213814365803,-0.26871996865595554,-0.39277559448423416,0.31682092071291784,0.2012827084459974,0.07720847034737827,-0.18659016856311905,0.8779893330147391,0.7552595698457014,-0.2824979822342855,-1.6688915760527785,0.14140593089660008,2.4035784569316436,1.0273392672455972,0.878092876070424,0.7554597494309409,-0.2825552651693207,-1.6690993614607135,0.1414185955172306,2.4034451173676383,1.0273381002308042,-0.00015582139550066368,0.00022247059881975507,0.00022524036723923504,0.0013503156409917841,-0.00010954358982337966,8.409471142371906e-05,-0.002498933126502841,0.0,0.0,0.0,0.0,0.0,0.0,0.0,0.00010354305568482935,0.00020017958523943502,-5.728293503520776e-05,-0.00020778540793497946,1.2664620630514767e-05,-0.000133339564005297,-1.1670147930242791e-06,0.00015582139550066368,-0.00022247059881975507,-0.00022524036723923504,-0.0013503156409917841,0.00010954358982337966,-8.409471142371906e-05,0.002498933126502841,0.6291133761405945,46.59957504272461,5.564480304718018,-19.459871292114258,-0.7903953194618225,-2.3458895683288574,0.11844198405742645,0
44,0.21500730514526367,-0.6291133761405945,-46.59957504272461,-5.564480304718018,19.459871292114258,0.7903953194618225,2.3458895683288574,-0.11844198405742645,0.0,0.0,0.0,0.0,0.0,0.0,0.0,-0.6384213814365803,-0.26871996865595554,-0.39277559448423416,0.31682092071291784,0.2012827084459974,0.07720847034737827,-0.18659016856311905,0.8779893330147391,0.7552595698457014,-0.2824979822342855,-1.6688915760527785,0.14140593089660008,2.4035784569316436,1.0273392672455972,0.878092876070424,0.7554597494309409,-0.2825552651693207,-1.6690993614607135,0.1414185955172306,2.4034451173676383,1.0273381002308042,-0.00015582139550066368,0.00022247059881975507,0.00022524036723923504,0.0013503156409917841,-0.00010954358982337966,8.409471142371906e-05,-0.002498933126502841,0.0,0.0,0.0,0.0,0.0,0.0,0.0,0.00010354305568482935,0.00020017958523943502,-5.728293503520776e-05,-0.00020778540793497946,1.2664620630514767e-05,-0.000133339564005297,-1.1670147930242791e-06,0.00015582139550066368,-0.00022247059881975507,-0.00022524036723923504,-0.0013503156409917841,0.00010954358982337966,-8.409471142371906e-05,0.002498933126502841,0.6291133761405945,46.59957504272461,5.564480304718018,-19.459871292114258,-0.7903953194618225,-2.3458895683288574,0.11844198405742645,0
45,0.22002053260803223,-0.6806880831718445,-46.62337875366211,-5.588284015655518,19.511445999145508,0.7849021553993225,2.3458895683288574,-0.20083944499492645,0.0,0.0,0.0,0.0,0.0,0.0,0.0,-0.6384210238759012,-0.27346813399256653,-0.39126103152555186,0.3158469819164498,0.2018391733724743,0.07784974842851038,-0.1849895721789828,0.8779929522924256,0.7552612402815567,-0.2824963117984303,-1.6688959197397952,0.1414034050710118,2.4035784569316436,1.0273484225190348,0.878092876070424,0.7554597494309409,-0.2825552651693207,-1.6690993614607135,0.1414185955172306,2.4034451173676383,1.0273381002308042,0.0010537608937440431,0.000524758229850298,0.0006421832229907175,-0.000214111190487099,0.00020099195866415587,-1.4998914861553849e-06,0.0005737452560579121,0.0,0.0,0.0,0.0,0.0,0.0,0.0,9.99237779983897e-05,0.00019850914938412956,-5.89533708904022e-05,-0.00020344172091824042,1.519044621881016e-05,-0.000133339564005297,-1.0322288230613097e-05,-0.0010537608937440431,-0.000524758229850298,-0.0006421832229907175,0.000214111190487099,-0.00020099195866415587,1.4998914861553849e-06,-0.0005737452560579121,0.6806880831718445,46.62337875366211,5.588284015655518,-19.511445999145508,-0.7849021553993225,-2.3458895683288574,0.20083944499492645,0
46,0.2249915599822998,-0.6806880831718445,-46.62337875366211,-5.588284015655518,19.511445999145508,0.7849021553993225,2.3458895683288574,-0.20083944499492645,0.0,0.0,0.0,0.0,0.0,0.0,0.0,-0.6384210238759012,-0.27346813399256653,-0.39126103152555186,0.3158469819164498,0.2018391733724743,0.07784974842851038,-0.1849895721789828,0.8779929522924256,0.7552612402815567,-0.2824963117984303,-1.6688959197397952,0.1414034050710118,2.4035784569316436,1.0273484225190348,0.878092876070424,0.7554597494309409,-0.2825552651693207,-1.6690993614607135,0.1414185955172306,2.4034451173676383,1.0273381002308042,0.0010537608937440431,0.000524758229850298,0.0006421832229907175,-0.000214111190487099,0.00020099195866415587,-1.4998914861553849e-06,0.0005737452560579121,0.0,0.0,0.0,0.0,0.0,0.0,0.0,9.99237779983897e-05,0.00019850914938412956,-5.89533708904022e-05,-0.00020344172091824042,1.519044621881016e-05,-0.000133339564005297,-1.0322288230613097e-05,-0.0010537608937440431,-0.000524758229850298,-0.0006421832229907175,0.000214111190487099,-0.00020099195866415587,1.4998914861553849e-06,-0.0005737452560579121,0.6806880831718445,46.62337875366211,5.588284015655518,-19.511445999145508,-0.7849021553993225,-2.3458895683288574,0.20083944499492645,0
47,0.229994535446167,-0.6568843722343445,-46.62337875366211,-5.536709308624268,19.511445999145508,0.7903953194618225,2.3522982597351074,-0.19351522624492645,0.0,0.0,0.0,0.0,0.0,0.0,0.0,-0.6359759054509767,-0.27459431146331187,-0.3871281168183395,0.31408023473783586,0.20237794646582125,0.07822348975759336,-0.18466302197766032,0.8779912818565704,0.7552612402815567,-0.28249993009497026,-1.6688937965430402,0.14140309847103516,2.403577744854821,1.0273476087169515,0.878092876070424,0.7554597494309409,-0.2825552651693207,-1.6690993614607135,0.1414185955172306,2.4034451173676383,1.0273381002308042,0.0004914025509480212,0.0004388786723763715,-0.0002948308627973858,0.00022167708737569897,2.26139414322946e-05,-0.000147394271213509,0.0006596737985174409,0.0,0.0,0.0,0.0,0.0,0.0,0.0,0.00010159421385358414,0.00019850914938412956,-5.533507435045992e-05,-0.00020556491767331764,1.5497046195439568e-05,-0.00013262748718245732,-9.508486147336015e-06,-0.0004914025509480212,-0.0004388786723763715,0.0002948308627973858,-0.00022167708737569897,-2.26139414322946e-05,0.000147394271213509,-0.0006596737985174409,0.6568843722343445,46.62337875366211,5.536709308624268,-19.511445999145508,-0.7903953194618225,-2.3522982597351074,0.19351522624492645,0
48,0.23499655723571777,-0.6568843722343445,-46.62337875366211,-5.536709308624268,19.511445999145508,0.7903953194618225,2.3522982597351074,-0.19351522624492645,0.0,0.0,0.0,0.0,0.0,0.0,0.0,-0.6359759054509767,-0.27459431146331187,-0.3871281168183395,0.31408023473783586,0.20237794646582125,0.07822348975759336,-0.18466302197766032,0.8779912818565704,0.7552612402815567,-0.28249993009497026,-1.6688937965430402,0.14140309847103516,2.403577744854821,1.0273476087169515,0.878092876070424,0.7554597494309409,-0.2825552651693207,-1.6690993614607135,0.1414185955172306,2.4034451173676383,1.0273381002308042,0.0004914025509480212,0.0004388786723763715,-0.0002948308627973858,0.00022167708737569897,2.26139414322946e-05,-0.000147394271213509,0.0006596737985174409,0.0,0.0,0.0,0.0,0.0,0.0,0.0,0.00010159421385358414,0.00019850914938412956,-5.533507435045992e-05,-0.00020556491767331764,1.5497046195439568e-05,-0.00013262748718245732,-9.508486147336015e-06,-0.0004914025509480212,-0.0004388786723763715,0.0002948308627973858,-0.00022167708737569897,-2.26139414322946e-05,0.000147394271213509,-0.0006596737985174409,0.6568843722343445,46.62337875366211,5.536709308624268,-19.511445999145508,-0.7903953194618225,-2.3522982597351074,0.19351522624492645,0
49,0.23994851112365723,-0.6568843722343445,-46.59957504272461,-5.564480304718018,19.535249710083008,0.7849021553993225,2.3458895683288574,-0.15231649577617645,0.0,0.0,0.0,0.0,0.0,0.0,0.0,-0.651131898976035,-0.2813983283335371,-0.3979367643369974,0.3136017692578041,0.20317935305640122,0.07946897325105154,-0.18413117770728948,0.8779912818565704,0.7552595698457014,-0.2824979821252638,-1.668895441457103,0.14140441535117762,2.4035784569316436,1.0273430310802327,0.878092876070424,0.7554597494309409,-0.2825552651693207,-1.6690993614607135,0.1414185955172306,2.4034451173676383,1.0273381002308042,0.00022287760047062379,-0.0003991944682428452,-0.0004848209415104916,-0.0002875595143239013,0.00013220504122559706,9.514939261264091e-06,-0.0018308445219251811,0.0,0.0,0.0,0.0,0.0,0.0,0.0,0.00010159421385358414,0.00020017958523943502,-5.7283044056943844e-05,-0.00020392000361058038,1.4180166052979448e-05,-0.000133339564005297,-4.930849428541606e-06,-0.00022287760047062379,0.0003991944682428452,0.0004848209415104916,0.0002875595143239013,-0.00013220504122559706,-9.514939261264091e-06,0.0018308445219251811,0.6568843722343445,46.59957504272461,5.564480304718018,-19.535249710083008,-0.7849021553993225,-2.3458895683288574,0.15231649577617645,0
50,0.2449965476989746,-0.6568843722343445,-46.59957504272461,-5.564480304718018,19.535249710083008,0.7849021553993225,2.3458895683288574,-0.15231649577617645,0.0,0.0,0.0,0.0,0.0,0.0,0.0,-0.651131898976035,-0.2813983283335371,-0.3979367643369974,0.3136017692578041,0.20317935305640122,0.07946897325105154,-0.18413117770728948,0.8779912818565704,0.7552595698457014,-0.2824979821252638,-1.668895441457103,0.14140441535117762,2.4035784569316436,1.0273430310802327,0.878092876070424,0.7554597494309409,-0.2825552651693207,-1.6690993614607135,0.1414185955172306,2.4034451173676383,1.0273381002308042,0.00022287760047062379,-0.0003991944682428452,-0.0004848209415104916,-0.0002875595143239013,0.00013220504122559706,9.514939261264091e-06,-0.0018308445219251811,0.0,0.0,0.0,0.0,0.0,0.0,0.0,0.00010159421385358414,0.00020017958523943502,-5.7283044056943844e-05,-0.00020392000361058038,1.4180166052979448e-05,-0.000133339564005297,-4.930849428541606e-06,-0.00022287760047062379,0.0003991944682428452,0.0004848209415104916,0.0002875595143239013,-0.00013220504122559706,-9.514939261264091e-06,0.0018308445219251811,0.6568843722343445,46.59957504272461,5.564480304718018,-19.535249710083008,-0.7849021553993225,-2.3458895683288574,0.15231649577617645,0
51,0.2500009536743164,-0.6053096652030945,-46.64718246459961,-5.612087726593018,19.511445999145508,0.7849021553993225,2.3522982597351074,-0.15964071452617645,0.0,0.0,0.0,0.0,0.0,0.0,0.0,-0.6433291801353014,-0.2638069651719651,-0.3911413981118387,0.30307347584075983,0.20272744615754876,0.07809902632099924,-0.18373871638479616,0.8779876625788839,0.7552629107174119,-0.28249464136257446,-1.6688959422981224,0.14140374609066694,2.403577744854821,1.027343844882316,0.878092876070424,0.7554597494309409,-0.2825552651693207,-1.6690993614607135,0.1414185955172306,2.4034451173676383,1.0273381002308042,-0.001366083348047259,0.000948110531736647,0.0014546578694759507,-2.8784561378662226e-05,0.00015171914221165202,-0.0002226574475075033,-0.0005485342706355613,0.0,0.0,0.0,0.0,0.0,0.0,0.0,0.0001052134915400238,0.00019683871352893512,-6.0623806746262776e-05,-0.0002034191625910342,1.4849426563656731e-05,-0.00013262748718245732,-5.744651511818688e-06,0.001366083348047259,-0.000948110531736647,-0.0014546578694759507,2.8784561378662226e-05,-0.00015171914221165202,0.0002226574475075033,0.0005485342706355613,0.6053096652030945,46.64718246459961,5.612087726593018,-19.511445999145508,-0.7849021553993225,-2.3522982597351074,0.15964071452617645,0
52,0.2550022602081299,-0.6053096652030945,-46.64718246459961,-5.612087726593018,19.511445999145508,0.7849021553993225,2.3522982597351074,-0.15964071452617645,0.0,0.0,0.0,0.0,0.0,0.0,0.0,-0.6433291801353014,-0.2638069651719651,-0.3911413981118387,0.30307347584075983,0.20272744615754876,0.07809902632099924,-0.18373871638479616,0.8779876625788839,0.7552629107174119,-0.28249464136257446,-1.6688959422981224,0.14140374609066694,2.403577744854821,1.027343844882316,0.878092876070424,0.7554597494309409,-0.2825552651693207,-1.6690993614607135,0.1414185955172306,2.4034451173676383,1.0273381002308042,-0.001366083348047259,0.000948110531736647,0.0014546578694759507,-2.8784561378662226e-05,0.00015171914221165202,-0.0002226574475075033,-0.0005485342706355613,0.0,0.0,0.0,0.0,0.0,0.0,0.0,0.0001052134915400238,0.00019683871352893512,-6.0623806746262776e-05,-0.0002034191625910342,1.4849426563656731e-05,-0.00013262748718245732,-5.744651511818688e-06,0.001366083348047259,-0.000948110531736647,-0.0014546578694759507,2.8784561378662226e-05,-0.00015171914221165202,0.0002226574475075033,0.0005485342706355613,0.6053096652030945,46.64718246459961,5.612087726593018,-19.511445999145508,-0.7849021553993225,-2.3522982597351074,0.15964071452617645,0
53,0.26000285148620605,-0.6806880831718445,-46.62337875366211,-5.536709308624268,19.511445999145508,0.7849021553993225,2.3596224784851074,-0.19351522624492645,0.0,0.0,0.0,0.0,0.0,0.0,0.0,-0.6406575602610477,-0.2734384686211533,-0.39129743923547927,0.31022646386176306,0.2025698948918475,0.07903392627166693,-0.18337584471881524,0.8779929522924256,0.7552612402815567,-0.28249993009497026,-1.6688949921245835,0.14140445666401139,2.4035769310527373,1.0273476087169515,0.878092876070424,0.7554597494309409,-0.2825552651693207,-1.6690993614607135,0.1414185955172306,2.4034451173676383,1.0273381002308042,0.0007467235092394872,0.0005338011572980036,-0.0007975704816067347,0.0003971650790646166,8.906408969974728e-05,-0.000552201333250925,0.0006051331643510806,0.0,0.0,0.0,0.0,0.0,0.0,0.0,9.99237779983897e-05,0.00019850914938412956,-5.533507435045992e-05,-0.00020436933612999475,1.4138853219214376e-05,-0.0001318136850989582,-9.508486147336015e-06,-0.0007467235092394872,-0.0005338011572980036,0.0007975704816067347,-0.0003971650790646166,-8.906408969974728e-05,0.000552201333250925,-0.0006051331643510806,0.6806880831718445,46.62337875366211,5.536709308624268,-19.511445999145508,-0.7849021553993225,-2.3596224784851074,0.19351522624492645,0
54,0.2650177478790283,-0.6806880831718445,-46.62337875366211,-5.536709308624268,19.511445999145508,0.7849021553993225,2.3596224784851074,-0.19351522624492645,0.0,0.0,0.0,0.0,0.0,0.0,0.0,-0.6406575602610477,-0.2734384686211533,-0.39129743923547927,0.31022646386176306,0.2025698948918475,0.07903392627166693,-0.18337584471881524,0.8779929522924256,0.7552612402815567,-0.28249993009497026,-1.6688949921245835,0.14140445666401139,2.4035769310527373,1.0273476087169515,0.878092876070424,0.7554597494309409,-0.2825552651693207,-1.6690993614607135,0.1414185955172306,2.4034451173676383,1.0273381002308042,0.0007467235092394872,0.0005338011572980036,-0.0007975704816067347,0.0003971650790646166,8.906408969974728e-05,-0.000552201333250925,0.0006051331643510806,0.0,0.0,0.0,0.0,0.0,0.0,0.0,9.99237779983897e-05,0.00019850914938412956,-5.533507435045992e-05,-0.00020436933612999475,1.4138853219214376e-05,-0.0001318136850989582,-9.508486147336015e-06,-0.0007467235092394872,-0.0005338011572980036,0.0007975704816067347,-0.0003971650790646166,-8.906408969974728e-05,0.000552201333250925,-0.0006051331643510806,0.6806880831718445,46.62337875366211,5.536709308624268,-19.511445999145508,-0.7849021553993225,-2.3596224784851074,0.19351522624492645,0
55,0.2699451446533203,-0.6806880831718445,-46.62337875366211,-5.536709308624268,19.511445999145508,0.7849021553993225,2.3596224784851074,-0.19351522624492645,0.0,0.0,0.0,0.0,0.0,0.0,0.0,-0.6406575602610477,-0.2734384686211533,-0.39129743923547927,0.31022646386176306,0.2025698948918475,0.07903392627166693,-0.18337584471881524,0.8779929522924256,0.7552612402815567,-0.28249993009497026,-1.6688949921245835,0.14140445666401139,2.4035769310527373,1.0273476087169515,0.878092876070424,0.7554597494309409,-0.2825552651693207,-1.6690993614607135,0.1414185955172306,2.4034451173676383,1.0273381002308042,0.0007467235092394872,0.0005338011572980036,-0.0007975704816067347,0.0003971650790646166,8.906408969974728e-05,-0.000552201333250925,0.0006051331643510806,0.0,0.0,0.0,0.0,0.0,0.0,0.0,9.99237779983897e-05,0.00019850914938412956,-5.533507435045992e-05,-0.00020436933612999475,1.4138853219214376e-05,-0.0001318136850989582,-9.508486147336015e-06,-0.0007467235092394872,-0.0005338011572980036,0.0007975704816067347,-0.0003971650790646166,-8.906408969974728e-05,0.000552201333250925,-0.0006051331643510806,0.6806880831718445,46.62337875366211,5.536709308624268,-19.511445999145508,-0.7849021553993225,-2.3596224784851074,0.19351522624492645,0
56,0.2749612331390381,-0.6806880831718445,-46.62337875366211,-5.536709308624268,19.511445999145508,0.7849021553993225,2.3596224784851074,-0.19351522624492645,0.0,0.0,0.0,0.0,0.0,0.0,0.0,-0.6406575602610477,-0.2734384686211533,-0.39129743923547927,0.31022646386176306,0.2025698948918475,0.07903392627166693,-0.18337584471881524,0.8779929522924256,0.7552612402815567,-0.28249993009497026,-1.6688949921245835,0.14140445666401139,2.4035769310527373,1.0273476087169515,0.878092876070424,0.7554597494309409,-0.2825552651693207,-1.6690993614607135,0.1414185955172306,2.4034451173676383,1.0273381002308042,0.0007467235092394872,0.0005338011572980036,-0.0007975704816067347,0.0003971650790646166,8.906408969974728e-05,-0.000552201333250925,0.0006051331643510806,0.0,0.0,0.0,0.0,0.0,0.0,0.0,9.99237779983897e-05,0.00019850914938412956,-5.533507435045992e-05,-0.00020436933612999475,1.4138853219214376e-05,-0.0001318136850989582,-9.508486147336015e-06,-0.0007467235092394872,-0.0005338011572980036,0.0007975704816067347,-0.0003971650790646166,-8.906408969974728e-05,0.000552201333250925,-0.0006051331643510806,0.6806880831718445,46.62337875366211,5.536709308624268,-19.511445999145508,-0.7849021553993225,-2.3596224784851074,0.19351522624492645,0
57,0.2799947261810303,-0.6568843722343445,-46.59957504272461,-5.588284015655518,19.535249710083008,0.7968040108680725,2.3458895683288574,-0.22098104655742645,0.0,0.0,0.0,0.0,0.0,0.0,0.0,-0.6497740164006994,-0.26576079042321116,-0.4001384274270918,0.3058522178456504,0.20235067794016573,0.07879203047831146,-0.1827147541607104,0.8779912818565704,0.7552595698457014,-0.2824962823640323,-1.6688945171149119,0.1414032246953812,2.4035784569316436,1.027350660474764,0.878092876070424,0.7554597494309409,-0.2825552651693207,-1.6690993614607135,0.1414185955172306,2.4034451173676383,1.0273381002308042,-0.0001381931962913762,0.0005096066511364201,0.0001934855144163308,-0.00037914835164021895,-0.00041358401522507396,0.00012356582189522225,0.0013911628299388323,0.0,0.0,0.0,0.0,0.0,0.0,0.0,0.00010159421385358414,0.00020017958523943502,-5.898280528843225e-05,-0.0002048443458015914,1.5370821849408633e-05,-0.000133339564005297,-1.2560243959791606e-05,0.0001381931962913762,-0.0005096066511364201,-0.0001934855144163308,0.00037914835164021895,0.00041358401522507396,-0.00012356582189522225,-0.0013911628299388323,0.6568843722343445,46.59957504272461,5.588284015655518,-19.535249710083008,-0.7968040108680725,-2.3458895683288574,0.22098104655742645,0
58,0.28500795364379883,-0.6568843722343445,-46.59957504272461,-5.588284015655518,19.535249710083008,0.7968040108680725,2.3458895683288574,-0.22098104655742645,0.0,0.0,0.0,0.0,0.0,0.0,0.0,-0.6497740164006994,-0.26576079042321116,-0.4001384274270918,0.3058522178456504,0.20235067794016573,0.07879203047831146,-0.1827147541607104,0.8779912818565704,0.7552595698457014,-0.2824962823640323,-1.6688945171149119,0.1414032246953812,2.4035784569316436,1.027350660474764,0.878092876070424,0.7554597494309409,-0.2825552651693207,-1.6690993614607135,0.1414185955172306,2.4034451173676383,1.0273381002308042,-0.0001381931962913762,0.0005096066511364201,0.0001934855144163308,-0.00037914835164021895,-0.00041358401522507396,0.00012356582189522225,0.0013911628299388323,0.0,0.0,0.0,0.0,0.0,0.0,0.0,0.00010159421385358414,0.00020017958523943502,-5.898280528843225e-05,-0.0002048443458015914,1.5370821849408633e-05,-0.000133339564005297,-1.2560243959791606e-05,0.0001381931962913762,-0.0005096066511364201,-0.0001934855144163308,0.00037914835164021895,0.00041358401522507396,-0.00012356582189522225,-0.0013911628299388323,0.6568843722343445,46.59957504272461,5.588284015655518,-19.535249710083008,-0.7968040108680725,-2.3458895683288574,0.22098104655742645,0
59,0.2899923324584961,-0.6568843722343445,-46.59957504272461,-5.564480304718018,19.535249710083008,0.7903953194618225,2.3522982597351074,-0.17337362468242645,0.0,0.0,0.0,0.0,0.0,0.0,0.0,-0.6346936562632088,-0.2747089555397152,-0.39302403289139937,0.3121015298002495,0.2020802943676308,0.08005947429999,-0.1835909675473778,0.8779912818565704,0.7552595698457014,-0.2824979822341194,-1.6688954351287975,0.14140380500434732,2.403577744854821,1.0273453707612223,0.878092876070424,0.7554597494309409,-0.2825552651693207,-1.6690993614607135,0.1414185955172306,2.4034451173676383,1.0273381002308042,0.0002446861871878068,2.565613854120569e-05,0.00023140589975548654,-0.0005040138394399995,-0.00010429760421226035,-0.000138340825030367,-0.0006637240284305658,0.0,0.0,0.0,0.0,0.0,0.0,0.0,0.00010159421385358414,0.00020017958523943502,-5.7282935201297125e-05,-0.0002039263319160156,1.479051288327815e-05,-0.00013262748718245732,-7.270530418157506e-06,-0.0002446861871878068,-2.565613854120569e-05,-0.00023140589975548654,0.0005040138394399995,0.00010429760421226035,0.000138340825030367,0.0006637240284305658,0.6568843722343445,46.59957504272461,5.564480304718018,-19.535249710083008,-0.7903953194618225,-2.3522982597351074,0.17337362468242645,0
60,0.29508447647094727,-0.6568843722343445,-46.59957504272461,-5.564480304718018,19.535249710083008,0.7903953194618225,2.3522982597351074,-0.17337362468242645,0.0,0.0,0.0,0.0,0.0,0.0,0.0,-0.6346936562632088,-0.2747089555397152,-0.39302403289139937,0.3121015298002495,0.2020802943676308,0.08005947429999,-0.1835909675473778,0.8779912818565704,0.7552595698457014,-0.2824979822341194,-1.6688954351287975,0.14140380500434732,2.403577744854821,1.0273453707612223,0.878092876070424,0.7554597494309409,-0.2825552651693207,-1.6690993614607135,0.1414185955172306,2.4034451173676383,1.0273381002308042,0.0002446861871878068,2.565613854120569e-05,0.00023140589975548654,-0.0005040138394399995,-0.00010429760421226035,-0.000138340825030367,-0.0006637240284305658,0.0,0.0,0.0,0.0,0.0,0.0,0.0,0.00010159421385358414,0.00020017958523943502,-5.7282935201297125e-05,-0.0002039263319160156,1.479051288327815e-05,-0.00013262748718245732,-7.270530418157506e-06,-0.0002446861871878068,-2.565613854120569e-05,-0.00023140589975548654,0.0005040138394399995,0.00010429760421226035,0.000138340825030367,0.0006637240284305658,0.6568843722343445,46.59957504272461,5.564480304718018,-19.535249710083008,-0.7903953194618225,-2.3522982597351074,0.17337362468242645,0
61,0.3000061511993408,-0.6053096652030945,-46.59957504272461,-5.588284015655518,19.559053421020508,0.7849021553993225,2.3522982597351074,-0.19351522624492645,0.0,0.0,0.0,0.0,0.0,0.0,0.0,-0.6402716777846985,-0.26609065980554586,-0.39635676172995704,0.30938018517861426,0.20209836719459714,0.0804146934510577,-0.1835700178537914,0.8779876625788839,0.7552595698457014,-0.28249631176209156,-1.6688992831780072,0.14140807829576685,2.403577744854821,1.0273476087169515,0.878092876070424,0.7554597494309409,-0.2825552651693207,-1.6690993614607135,0.1414185955172306,2.4034451173676383,1.0273381002308042,-0.0007418543976735576,0.0006658106730714678,0.0006656126805832553,-0.0010615340552957435,0.00013880472639311622,-0.00017784551422561374,0.0005912983905911131,0.0,0.0,0.0,0.0,0.0,0.0,0.0,0.0001052134915400238,0.00020017958523943502,-5.895340722916753e-05,-0.00020007828270629524,1.051722146375167e-05,-0.00013262748718245732,-9.508486147336015e-06,0.0007418543976735576,-0.0006658106730714678,-0.0006656126805832553,0.0010615340552957435,-0.00013880472639311622,0.00017784551422561374,-0.0005912983905911131,0.6053096652030945,46.59957504272461,5.588284015655518,-19.559053421020508,-0.7849021553993225,-2.3522982597351074,0.19351522624492645,0
62,0.3049893379211426,-0.6053096652030945,-46.59957504272461,-5.588284015655518,19.559053421020508,0.7849021553993225,2.3522982597351074,-0.19351522624492645,0.0,0.0,0.0,0.0,0.0,0.0,0.0,-0.6402716777846985,-0.26609065980554586,-0.39635676172995704,0.30938018517861426,0.20209836719459714,0.0804146934510577,-0.1835700178537914,0.8779876625788839,0.7552595698457014,-0.28249631176209156,-1.6688992831780072,0.14140807829576685,2.403577744854821,1.0273476087169515,0.878092876070424,0.7554597494309409,-0.2825552651693207,-1.6690993614607135,0.1414185955172306,2.4034451173676383,1.0273381002308042,-0.0007418543976735576,0.0006658106730714678,0.0006656126805832553,-0.0010615340552957435,0.00013880472639311622,-0.00017784551422561374,0.0005912983905911131,0.0,0.0,0.0,0.0,0.0,0.0,0.0,0.0001052134915400238,0.00020017958523943502,-5.895340722916753e-05,-0.00020007828270629524,1.051722146375167e-05,-0.00013262748718245732,-9.508486147336015e-06,0.0007418543976735576,-0.0006658106730714678,-0.0006656126805832553,0.0010615340552957435,-0.00013880472639311622,0.00017784551422561374,-0.0005912983905911131,0.6053096652030945,46.59957504272461,5.588284015655518,-19.559053421020508,-0.7849021553993225,-2.3522982597351074,0.19351522624492645,0
63,0.3099946975708008,-0.6291133761405945,-46.62337875366211,-5.536709308624268,19.535249710083008,0.7968040108680725,2.3522982597351074,-0.20724813640117645,0.0,0.0,0.0,0.0,0.0,0.0,0.0,-0.6439173951004201,-0.28016245858479993,-0.4016610543535799,0.31749950093338186,0.2024215719614286,0.08179722590419593,-0.18375552710951198,0.8779893330147391,0.7552612402815567,-0.2824999310761165,-1.6688952320126254,0.14140208254329617,2.403577744854821,1.0273491345958576,0.878092876070424,0.7554597494309409,-0.2825552651693207,-1.6690993614607135,0.1414185955172306,2.4034451173676383,1.0273381002308042,-0.00016538711274553976,0.00036793872454554,-0.0010977170803969333,-0.000540276758990279,-0.0003972207511910014,-0.0001272155806900995,0.0005885001637706688,0.0,0.0,0.0,0.0,0.0,0.0,0.0,0.00010354305568482935,0.00019850914938412956,-5.53340932042401e-05,-0.0002041294480881195,1.651297393442941e-05,-0.00013262748718245732,-1.1034365053452788e-05,0.00016538711274553976,-0.00036793872454554,0.0010977170803969333,0.000540276758990279,0.0003972207511910014,0.0001272155806900995,-0.0005885001637706688,0.6291133761405945,46.62337875366211,5.536709308624268,-19.535249710083008,-0.7968040108680725,-2.3522982597351074,0.20724813640117645,0
64,0.31499600410461426,-0.6291133761405945,-46.62337875366211,-5.536709308624268,19.535249710083008,0.7968040108680725,2.3522982597351074,-0.20724813640117645,0.0,0.0,0.0,0.0,0.0,0.0,0.0,-0.6439173951004201,-0.28016245858479993,-0.4016610543535799,0.31749950093338186,0.2024215719614286,0.08179722590419593,-0.18375552710951198,0.8779893330147391,0.7552612402815567,-0.2824999310761165,-1.6688952320126254,0.14140208254329617,2.403577744854821,1.0273491345958576,0.878092876070424,0.7554597494309409,-0.2825552651693207,-1.6690993614607135,0.1414185955172306,2.4034451173676383,1.0273381002308042,-0.00016538711274553976,0.00036793872454554,-0.0010977170803969333,-0.000540276758990279,-0.0003972207511910014,-0.0001272155806900995,0.0005885001637706688,0.0,0.0,0.0,0.0,0.0,0.0,0.0,0.00010354305568482935,0.00019850914938412956,-5.53340932042401e-05,-0.0002041294480881195,1.651297393442941e-05,-0.00013262748718245732,-1.1034365053452788e-05,0.00016538711274553976,-0.00036793872454554,0.0010977170803969333,0.000540276758990279,0.0003972207511910014,0.0001272155806900995,-0.0005885001637706688,0.6291133761405945,46.62337875366211,5.536709308624268,-19.535249710083008,-0.7968040108680725,-2.3522982597351074,0.20724813640117645,0
65,0.31999897956848145,-0.6568843722343445,-46.59957504272461,-5.588284015655518,19.535249710083008,0.7903953194618225,2.3458895683288574,-0.15964071452617645,0.0,0.0,0.0,0.0,0.0,0.0,0.0,-0.6373096431578891,-0.27270648627074057,-0.39777968647711176,0.31357693535667247,0.20224833214912885,0.08152681995612848,-0.18546690177276154,0.8779912818565704,0.7552595698457014,-0.2824963117984303,-1.6688973748682718,0.14140632625580474,2.403578810144354,1.027343844882316,0.878092876070424,0.7554597494309409,-0.2825552651693207,-1.6690993614607135,0.1414185955172306,2.4034451173676383,1.0273381002308042,0.0006273137270278033,9.196182773200667e-05,0.0005048613531729765,-9.742971713170902e-05,-0.0002065667832620084,0.00027263819640694205,-0.0009010512473074926,0.0,0.0,0.0,0.0,0.0,0.0,0.0,0.00010159421385358414,0.00020017958523943502,-5.89533708904022e-05,-0.00020198659244163863,1.2269261425862377e-05,-0.0001336927767154883,-5.744651511818688e-06,-0.0006273137270278033,-9.196182773200667e-05,-0.0005048613531729765,9.742971713170902e-05,0.0002065667832620084,-0.00027263819640694205,0.0009010512473074926,0.6568843722343445,46.59957504272461,5.588284015655518,-19.535249710083008,-0.7903953194618225,-2.3458895683288574,0.15964071452617645,0
66,0.325026273727417,-0.6568843722343445,-46.59957504272461,-5.588284015655518,19.535249710083008,0.7903953194618225,2.3458895683288574,-0.15964071452617645,0.0,0.0,0.0,0.0,0.0,0.0,0.0,-0.6373096431578891,-0.27270648627074057,-0.39777968647711176,0.31357693535667247,0.20224833214912885,0.08152681995612848,-0.18546690177276154,0.8779912818565704,0.7552595698457014,-0.2824963117984303,-1.6688973748682718,0.14140632625580474,2.403578810144354,1.027343844882316,0.878092876070424,0.7554597494309409,-0.2825552651693207,-1.6690993614607135,0.1414185955172306,2.4034451173676383,1.0273381002308042,0.0006273137270278033,9.196182773200667e-05,0.0005048613531729765,-9.742971713170902e-05,-0.0002065667832620084,0.00027263819640694205,-0.0009010512473074926,0.0,0.0,0.0,0.0,0.0,0.0,0.0,0.00010159421385358414,0.00020017958523943502,-5.89533708904022e-05,-0.00020198659244163863,1.2269261425862377e-05,-0.0001336927767154883,-5.744651511818688e-06,-0.0006273137270278033,-9.196182773200667e-05,-0.0005048613531729765,9.742971713170902e-05,0.0002065667832620084,-0.00027263819640694205,0.0009010512473074926,0.6568843722343445,46.59957504272461,5.588284015655518,-19.535249710083008,-0.7903953194618225,-2.3458895683288574,0.15964071452617645,0
67,0.3300018310546875,-0.6291133761405945,-46.57577133178711,-5.612087726593018,19.487642288208008,0.7903953194618225,2.3458895683288574,-0.16604940593242645,0.0,0.0,0.0,0.0,0.0,0.0,0.0,-0.6353110388872216,-0.25882635341513227,-0.39560292910235173,0.30524222028442216,0.20178202268487988,0.08052131769739429,-0.1850968047242054,0.8779893330147391,0.7552578994098461,-0.28249464136257507,-1.668894274780282,0.14140380507183947,2.4035784569336376,1.027344556959139,0.878092876070424,0.7554597494309409,-0.2825552651693207,-1.6690993614607135,0.1414185955172306,2.4034451173676383,1.0273381002308042,-0.00022335150317805816,-0.00021042522616045967,0.0014678095177751943,0.0007396204990742808,-4.594323541580679e-05,-3.8734389625966485e-05,-0.0007799376258374418,0.0,0.0,0.0,0.0,0.0,0.0,0.0,0.00010354305568482935,0.00020185002109474048,-6.0623806745652153e-05,-0.0002050866804315099,1.4790445391127394e-05,-0.00013333956599925756,-6.456728334880424e-06,0.00022335150317805816,0.00021042522616045967,-0.0014678095177751943,-0.0007396204990742808,4.594323541580679e-05,3.8734389625966485e-05,0.0007799376258374418,0.6291133761405945,46.57577133178711,5.612087726593018,-19.487642288208008,-0.7903953194618225,-2.3458895683288574,0.16604940593242645,0
68,0.33508801460266113,-0.6291133761405945,-46.57577133178711,-5.612087726593018,19.487642288208008,0.7903953194618225,2.3458895683288574,-0.16604940593242645,0.0,0.0,0.0,0.0,0.0,0.0,0.0,-0.6353110388872216,-0.25882635341513227,-0.39560292910235173,0.30524222028442216,0.20178202268487988,0.08052131769739429,-0.1850968047242054,0.8779893330147391,0.7552578994098461,-0.28249464136257507,-1.668894274780282,0.14140380507183947,2.4035784569336376,1.027344556959139,0.878092876070424,0.7554597494309409,-0.2825552651693207,-1.6690993614607135,0.1414185955172306,2.4034451173676383,1.0273381002308042,-0.00022335150317805816,-0.00021042522616045967,0.0014678095177751943,0.0007396204990742808,-4.594323541580679e-05,-3.8734389625966485e-05,-0.0007799376258374418,0.0,0.0,0.0,0.0,0.0,0.0,0.0,0.00010354305568482935,0.00020185002109474048,-6.0623806745652153e-05,-0.0002050866804315099,1.4790445391127394e-05,-0.00013333956599925756,-6.456728334880424e-06,0.00022335150317805816,0.00021042522616045967,-0.0014678095177751943,-0.0007396204990742808,4.594323541580679e-05,3.8734389625966485e-05,0.0007799376258374418,0.6291133761405945,46.57577133178711,5.612087726593018,-19.487642288208008,-0.7903953194618225,-2.3458895683288574,0.16604940593242645,0
69,0.33999085426330566,-0.6291133761405945,-46.64718246459961,-5.564480304718018,19.511445999145508,0.7849021553993225,2.3394808769226074,-0.22098104655742645,0.0,0.0,0.0,0.0,0.0,0.0,0.0,-0.631986472599725,-0.2813661493777951,-0.39482445190619336,0.3176980735950813,0.20214546036787118,0.08128282955715344,-0.18532047277937289,0.8779893330147391,0.7552629107174119,-0.28249798125313913,-1.6688959197440283,0.14140488826319658,2.403579169008467,1.027350660474764,0.878092876070424,0.7554597494309409,-0.2825552651693207,-1.6690993614607135,0.1414185955172306,2.4034451173676383,1.0273381002308042,-0.0004290809462995911,0.0007339105048497171,0.0005682634045653214,0.0004032574461419577,7.05347512630382e-05,0.0001856761057288943,0.0016120185371520752,0.0,0.0,0.0,0.0,0.0,0.0,0.0,0.00010354305568482935,0.00019683871352893512,-5.728391618159412e-05,-0.00020344171668518207,1.3707254034017735e-05,-0.0001340516408285808,-1.2560243959791606e-05,0.0004290809462995911,-0.0007339105048497171,-0.0005682634045653214,-0.0004032574461419577,-7.05347512630382e-05,-0.0001856761057288943,-0.0016120185371520752,0.6291133761405945,46.64718246459961,5.564480304718018,-19.511445999145508,-0.7849021553993225,-2.3394808769226074,0.22098104655742645,0
70,0.3450009822845459,-0.6291133761405945,-46.64718246459961,-5.564480304718018,19.511445999145508,0.7849021553993225,2.3394808769226074,-0.22098104655742645,0.0,0.0,0.0,0.0,0.0,0.0,0.0,-0.631986472599725,-0.2813661493777951,-0.39482445190619336,0.3176980735950813,0.20214546036787118,0.08128282955715344,-0.18532047277937289,0.8779893330147391,0.7552629107174119,-0.28249798125313913,-1.6688959197440283,0.14140488826319658,2.403579169008467,1.027350660474764,0.878092876070424,0.7554597494309409,-0.2825552651693207,-1.6690993614607135,0.1414185955172306,2.4034451173676383,1.0273381002308042,-0.0004290809462995911,0.0007339105048497171,0.0005682634045653214,0.0004032574461419577,7.05347512630382e-05,0.0001856761057288943,0.0016120185371520752,0.0,0.0,0.0,0.0,0.0,0.0,0.0,0.00010354305568482935,0.00019683871352893512,-5.728391618159412e-05,-0.00020344171668518207,1.3707254034017735e-05,-0.0001340516408285808,-1.2560243959791606e-05,0.0004290809462995911,-0.0007339105048497171,-0.0005682634045653214,-0.0004032574461419577,-7.05347512630382e-05,-0.0001856761057288943,-0.0016120185371520752,0.6291133761405945,46.64718246459961,5.564480304718018,-19.511445999145508,-0.7849021553993225,-2.3394808769226074,0.22098104655742645,0
71,0.3499925136566162,-0.6806880831718445,-46.54800033569336,-5.512905597686768,19.511445999145508,0.7784934639930725,2.3330721855163574,-0.14590780436992645,0.0,0.0,0.0,0.0,0.0,0.0,0.0,-0.6420645100698323,-0.27429201551702254,-0.3970220190873867,0.31272936112131827,0.20193226024864475,0.07940774428916826,-0.18426034615237166,0.8779929522924256,0.755255950568015,-0.2825015750210169,-1.6688958401257694,0.1414051848345238,2.4035798810852897,1.027342320493299,0.878092876070424,0.7554597494309409,-0.2825552651693207,-1.6690993614607135,0.1414185955172306,2.4034451173676383,1.0273381002308042,0.000659272125789996,-0.0018335812552704221,-0.00135517747295548,0.000243004863841503,0.00027597329484398803,0.0003882395730716363,-0.0020188840170771195,0.0,0.0,0.0,0.0,0.0,0.0,0.0,9.99237779983897e-05,0.00020379886292587468,-5.3690148303808805e-05,-0.00020352133494405678,1.3410682706799237e-05,-0.00013476371765142048,-4.2202624948028955e-06,-0.000659272125789996,0.0018335812552704221,0.00135517747295548,-0.000243004863841503,-0.00027597329484398803,-0.0003882395730716363,0.0020188840170771195,0.6806880831718445,46.54800033569336,5.512905597686768,-19.511445999145508,-0.7784934639930725,-2.3330721855163574,0.14590780436992645,0
72,0.3553354740142822,-0.6806880831718445,-46.54800033569336,-5.512905597686768,19.511445999145508,0.7784934639930725,2.3330721855163574,-0.14590780436992645,0.0,0.0,0.0,0.0,0.0,0.0,0.0,-0.6420645100698323,-0.27429201551702254,-0.3970220190873867,0.31272936112131827,0.20193226024864475,0.07940774428916826,-0.18426034615237166,0.8779929522924256,0.755255950568015,-0.2825015750210169,-1.6688958401257694,0.1414051848345238,2.4035798810852897,1.027342320493299,0.878092876070424,0.7554597494309409,-0.2825552651693207,-1.6690993614607135,0.1414185955172306,2.4034451173676383,1.0273381002308042,0.000659272125789996,-0.0018335812552704221,-0.00135517747295548,0.000243004863841503,0.00027597329484398803,0.0003882395730716363,-0.0020188840170771195,0.0,0.0,0.0,0.0,0.0,0.0,0.0,9.99237779983897e-05,0.00020379886292587468,-5.3690148303808805e-05,-0.00020352133494405678,1.3410682706799237e-05,-0.00013476371765142048,-4.2202624948028955e-06,-0.000659272125789996,0.0018335812552704221,0.00135517747295548,-0.000243004863841503,-0.00027597329484398803,-0.0003882395730716363,0.0020188840170771195,0.6806880831718445,46.54800033569336,5.512905597686768,-19.511445999145508,-0.7784934639930725,-2.3330721855163574,0.14590780436992645,0
73,0.35999584197998047,-0.6806880831718445,-46.54800033569336,-5.512905597686768,19.511445999145508,0.7784934639930725,2.3330721855163574,-0.14590780436992645,0.0,0.0,0.0,0.0,0.0,0.0,0.0,-0.6420645100698323,-0.27429201551702254,-0.3970220190873867,0.31272936112131827,0.20193226024864475,0.07940774428916826,-0.18426034615237166,0.8779929522924256,0.755255950568015,-0.2825015750210169,-1.6688958401257694,0.1414051848345238,2.4035798810852897,1.027342320493299,0.878092876070424,0.7554597494309409,-0.2825552651693207,-1.6690993614607135,0.1414185955172306,2.4034451173676383,1.0273381002308042,0.000659272125789996,-0.0018335812552704221,-0.00135517747295548,0.000243004863841503,0.00027597329484398803,0.0003882395730716363,-0.0020188840170771195,0.0,0.0,0.0,0.0,0.0,0.0,0.0,9.99237779983897e-05,0.00020379886292587468,-5.3690148303808805e-05,-0.00020352133494405678,1.3410682706799237e-05,-0.00013476371765142048,-4.2202624948028955e-06,-0.000659272125789996,0.0018335812552704221,0.00135517747295548,-0.000243004863841503,-0.00027597329484398803,-0.0003882395730716363,0.0020188840170771195,0.6806880831718445,46.54800033569336,5.512905597686768,-19.511445999145508,-0.7784934639930725,-2.3330721855163574,0.14590780436992645,0
74,0.3650205135345459,-0.6806880831718445,-46.54800033569336,-5.512905597686768,19.511445999145508,0.7784934639930725,2.3330721855163574,-0.14590780436992645,0.0,0.0,0.0,0.0,0.0,0.0,0.0,-0.6420645100698323,-0.27429201551702254,-0.3970220190873867,0.31272936112131827,0.20193226024864475,0.07940774428916826,-0.18426034615237166,0.8779929522924256,0.755255950568015,-0.2825015750210169,-1.6688958401257694,0.1414051848345238,2.4035798810852897,1.027342320493299,0.878092876070424,0.7554597494309409,-0.2825552651693207,-1.6690993614607135,0.1414185955172306,2.4034451173676383,1.0273381002308042,0.000659272125789996,-0.0018335812552704221,-0.00135517747295548,0.000243004863841503,0.00027597329484398803,0.0003882395730716363,-0.0020188840170771195,0.0,0.0,0.0,0.0,0.0,0.0,0.0,9.99237779983897e-05,0.00020379886292587468,-5.3690148303808805e-05,-0.00020352133494405678,1.3410682706799237e-05,-0.00013476371765142048,-4.2202624948028955e-06,-0.000659272125789996,0.0018335812552704221,0.00135517747295548,-0.000243004863841503,-0.00027597329484398803,-0.0003882395730716363,0.0020188840170771195,0.6806880831718445,46.54800033569336,5.512905597686768,-19.511445999145508,-0.7784934639930725,-2.3330721855163574,0.14590780436992645,0
75,0.3699479103088379,-0.6568843722343445,-46.59957504272461,-5.564480304718018,19.511445999145508,0.7849021553993225,2.3458895683288574,-0.16604940593242645,0.0,0.0,0.0,0.0,0.0,0.0,0.0,-0.6456887564736633,-0.27504718746718465,-0.3979389477309228,0.31163778443071277,0.20210851295298327,0.07876068796485186,-0.18543833880518318,0.8779912821836191,0.7552595698457014,-0.282497982234136,-1.668895943290949,0.14140336990310265,2.403578456931644,1.0273445569591475,0.878092876070424,0.7554597494309409,-0.2825552651693207,-1.6690993614607135,0.1414185955172306,2.4034451173676383,1.0273381002308042,-2.4108945335470647e-05,-0.00020737097615655984,-0.000341804573414713,0.00025917353135072494,0.00023180606394205134,-6.903348982074983e-05,-0.0004387981811747739,0.0,0.0,0.0,0.0,0.0,0.0,0.0,0.0001015938868048627,0.00020017958523943502,-5.728293518469929e-05,-0.00020341816976454652,1.5225614127950537e-05,-0.0001333395640057411,-6.456728343318119e-06,2.4108945335470647e-05,0.00020737097615655984,0.000341804573414713,-0.00025917353135072494,-0.00023180606394205134,6.903348982074983e-05,0.0004387981811747739,0.6568843722343445,46.59957504272461,5.564480304718018,-19.511445999145508,-0.7849021553993225,-2.3458895683288574,0.16604940593242645,0
76,0.37500619888305664,-0.6568843722343445,-46.59957504272461,-5.564480304718018,19.511445999145508,0.7849021553993225,2.3458895683288574,-0.16604940593242645,0.0,0.0,0.0,0.0,0.0,0.0,0.0,-0.6456887564736633,-0.27504718746718465,-0.3979389477309228,0.31163778443071277,0.20210851295298327,0.07876068796485186,-0.18543833880518318,0.8779912821836191,0.7552595698457014,-0.282497982234136,-1.668895943290949,0.14140336990310265,2.403578456931644,1.0273445569591475,0.878092876070424,0.7554597494309409,-0.2825552651693207,-1.6690993614607135,0.1414185955172306,2.4034451173676383,1.0273381002308042,-2.4108945335470647e-05,-0.00020737097615655984,-0.000341804573414713,0.00025917353135072494,0.00023180606394205134,-6.903348982074983e-05,-0.0004387981811747739,0.0,0.0,0.0,0.0,0.0,0.0,0.0,0.0001015938868048627,0.00020017958523943502,-5.728293518469929e-05,-0.00020341816976454652,1.5225614127950537e-05,-0.0001333395640057411,-6.456728343318119e-06,2.4108945335470647e-05,0.00020737097615655984,0.000341804573414713,-0.00025917353135072494,-0.00023180606394205134,6.903348982074983e-05,0.0004387981811747739,0.6568843722343445,46.59957504272461,5.564480304718018,-19.511445999145508,-0.7849021553993225,-2.3458895683288574,0.16604940593242645,0
77,0.3799893856048584,-0.6291133761405945,-46.59957504272461,-5.612087726593018,19.535249710083008,0.8022971749305725,2.3458895683288574,-0.20724813640117645,0.0,0.0,0.0,0.0,0.0,0.0,0.0,-0.635259316753779,-0.2705982822210701,-0.388172851566372,0.3117987060664389,0.202399885097914,0.07815031348690453,-0.18447535098595794,0.8779893330147409,0.7552595698457014,-0.2824946413262363,-1.6688952311768397,0.14140460992640605,2.4035784554780935,1.0273491345958576,0.878092876070424,0.7554597494309409,-0.2825552651693207,-1.6690993614607135,0.1414185955172306,2.4034451173676383,1.0273381002308042,-0.0003601050930641438,0.00011845309354312511,0.001085994419526999,-0.0002228911780646732,-0.0004345824539953919,-5.061417158382104e-05,0.001254214069569258,0.0,0.0,0.0,0.0,0.0,0.0,0.0,0.000103543055683053,0.00020017958523943502,-6.0623843084417484e-05,-0.0002041302838737824,1.3985590824550087e-05,-0.0001333381104551279,-1.1034365053452788e-05,0.0003601050930641438,-0.00011845309354312511,-0.001085994419526999,0.0002228911780646732,0.0004345824539953919,5.061417158382104e-05,-0.001254214069569258,0.6291133761405945,46.59957504272461,5.612087726593018,-19.535249710083008,-0.8022971749305725,-2.3458895683288574,0.20724813640117645,0
78,0.38500308990478516,-0.6291133761405945,-46.59957504272461,-5.612087726593018,19.535249710083008,0.8022971749305725,2.3458895683288574,-0.20724813640117645,0.0,0.0,0.0,0.0,0.0,0.0,0.0,-0.635259316753779,-0.2705982822210701,-0.388172851566372,0.3117987060664389,0.202399885097914,0.07815031348690453,-0.18447535098595794,0.8779893330147409,0.7552595698457014,-0.2824946413262363,-1.6688952311768397,0.14140460992640605,2.4035784554780935,1.0273491345958576,0.878092876070424,0.7554597494309409,-0.2825552651693207,-1.6690993614607135,0.1414185955172306,2.4034451173676383,1.0273381002308042,-0.0003601050930641438,0.00011845309354312511,0.001085994419526999,-0.0002228911780646732,-0.0004345824539953919,-5.061417158382104e-05,0.001254214069569258,0.0,0.0,0.0,0.0,0.0,0.0,0.0,0.000103543055683053,0.00020017958523943502,-6.0623843084417484e-05,-0.0002041302838737824,1.3985590824550087e-05,-0.0001333381104551279,-1.1034365053452788e-05,0.0003601050930641438,-0.00011845309354312511,-0.001085994419526999,0.0002228911780646732,0.0004345824539953919,5.061417158382104e-05,-0.001254214069569258,0.6291133761405945,46.59957504272461,5.612087726593018,-19.535249710083008,-0.8022971749305725,-2.3458895683288574,0.20724813640117645,0
79,0.3900020122528076,-0.6291133761405945,-46.59957504272461,-5.588284015655518,19.511445999145508,0.7784934639930725,2.3330721855163574,-0.21457235515117645,0.0,0.0,0.0,0.0,0.0,0.0,0.0,-0.6380128799053453,-0.27918311144894525,-0.39192277876964055,0.31668368887626347,0.2031268172420275,0.07831018185063407,-0.1836612696148558,0.8779893330147391,0.7552595698457014,-0.28249631168941386,-1.6688937206544006,0.14140548338060024,2.4035798810852813,1.0273499483979411,0.878092876070424,0.7554597494309409,-0.2825552651693207,-1.6690993614607135,0.1414185955172306,2.4034451173676383,1.0273381002308042,-0.00030140018765360404,-0.00020109477616205156,0.000606972636168916,0.00029921939640536343,0.0002625777575444566,0.0004684649612417729,0.0018963733820619828,0.0,0.0,0.0,0.0,0.0,0.0,0.0,0.00010354305568482935,0.00020017958523943502,-5.8953479906864725e-05,-0.00020564080631291226,1.3112136630355486e-05,-0.00013476371764298278,-1.1848167136951915e-05,0.00030140018765360404,0.00020109477616205156,-0.000606972636168916,-0.00029921939640536343,-0.0002625777575444566,-0.0004684649612417729,-0.0018963733820619828,0.6291133761405945,46.59957504272461,5.588284015655518,-19.511445999145508,-0.7784934639930725,-2.3330721855163574,0.21457235515117645,0
80,0.3949902057647705,-0.6291133761405945,-46.59957504272461,-5.588284015655518,19.511445999145508,0.7784934639930725,2.3330721855163574,-0.21457235515117645,0.0,0.0,0.0,0.0,0.0,0.0,0.0,-0.6380128799053453,-0.27918311144894525,-0.39192277876964055,0.31668368887626347,0.2031268172420275,0.07831018185063407,-0.1836612696148558,0.8779893330147391,0.7552595698457014,-0.28249631168941386,-1.6688937206544006,0.14140548338060024,2.4035798810852813,1.0273499483979411,0.878092876070424,0.7554597494309409,-0.2825552651693207,-1.6690993614607135,0.1414185955172306,2.4034451173676383,1.0273381002308042,-0.00030140018765360404,-0.00020109477616205156,0.000606972636168916,0.00029921939640536343,0.0002625777575444566,0.0004684649612417729,0.0018963733820619828,0.0,0.0,0.0,0.0,0.0,0.0,0.0,0.00010354305568482935,0.00020017958523943502,-5.8953479906864725e-05,-0.00020564080631291226,1.3112136630355486e-05,-0.00013476371764298278,-1.1848167136951915e-05,0.00030140018765360404,0.00020109477616205156,-0.000606972636168916,-0.00029921939640536343,-0.0002625777575444566,-0.0004684649612417729,-0.0018963733820619828,0.6291133761405945,46.59957504272461,5.588284015655518,-19.511445999145508,-0.7784934639930725,-2.3330721855163574,0.21457235515117645,0
