rezayati/contactInterpretation/dataset/franka_main/labeled_data/link4/d4_6.csv
index,time,tau_J0,tau_J1,tau_J2,tau_J3,tau_J4,tau_J5,tau_J6,tau_J_d0,tau_J_d1,tau_J_d2,tau_J_d3,tau_J_d4,tau_J_d5,tau_J_d6,tau_ext0,tau_ext1,tau_ext2,tau_ext3,tau_ext4,tau_ext5,tau_ext6,q0,q1,q2,q3,q4,q5,q6,q_d0,q_d1,q_d2,q_d3,q_d4,q_d5,q_d6,dq0,dq1,dq2,dq3,dq4,dq5,dq6,dq_d0,dq_d1,dq_d2,dq_d3,dq_d4,dq_d5,dq_d6,e0,e1,e2,e3,e4,e5,e6,de0,de1,de2,de3,de4,de5,de6,etau_J0,etau_J1,etau_J2,etau_J3,etau_J4,etau_J5,etau_J6,label
1,0.0,0.18418008089065552,-18.277124404907227,1.1918060779571533,17.999910354614258,0.4983420968055725,2.2360262870788574,-0.20083944499492645,0.0,0.0,0.0,0.0,0.0,0.0,0.0,0.12750954813058663,0.40237001920214216,0.3164912631749431,0.36922187536481055,0.07379722395921388,0.057720737047417064,-0.18866965847337835,-0.609169473894839,-0.05744329945194094,-0.6666529236444025,-2.5945537190019037,-0.0556238279397574,2.507973179564552,0.8763184774531516,-0.6090851748156966,-0.05753196718556838,-0.666603097082616,-2.5945565370258534,-0.05562143941554,2.507976027223799,0.8763108487046415,0.0005263057930043949,0.00022551041623645803,0.00037003223485391275,-0.00019262092707634149,-0.00014649224902016472,-1.651061210980636e-05,0.0009029990519015101,0.0,0.0,0.0,0.0,0.0,0.0,0.0,8.429907914242474e-05,-8.866773362744412e-05,4.982656178653677e-05,-2.8180239497466175e-06,2.3885242173976584e-06,2.8476592470738638e-06,-7.628748510124517e-06,-0.0005263057930043949,-0.00022551041623645803,-0.00037003223485391275,0.00019262092707634149,0.00014649224902016472,1.651061210980636e-05,-0.0009029990519015101,-0.18418008089065552,18.277124404907227,-1.1918060779571533,-17.999910354614258,-0.4983420968055725,-2.2360262870788574,0.20083944499492645,0
2,0.0050318241119384766,0.18418008089065552,-18.277124404907227,1.1918060779571533,17.999910354614258,0.4983420968055725,2.2360262870788574,-0.20083944499492645,0.0,0.0,0.0,0.0,0.0,0.0,0.0,0.12750954813058663,0.40237001920214216,0.3164912631749431,0.36922187536481055,0.07379722395921388,0.057720737047417064,-0.18866965847337835,-0.609169473894839,-0.05744329945194094,-0.6666529236444025,-2.5945537190019037,-0.0556238279397574,2.507973179564552,0.8763184774531516,-0.6090851748156966,-0.05753196718556838,-0.666603097082616,-2.5945565370258534,-0.05562143941554,2.507976027223799,0.8763108487046415,0.0005263057930043949,0.00022551041623645803,0.00037003223485391275,-0.00019262092707634149,-0.00014649224902016472,-1.651061210980636e-05,0.0009029990519015101,0.0,0.0,0.0,0.0,0.0,0.0,0.0,8.429907914242474e-05,-8.866773362744412e-05,4.982656178653677e-05,-2.8180239497466175e-06,2.3885242173976584e-06,2.8476592470738638e-06,-7.628748510124517e-06,-0.0005263057930043949,-0.00022551041623645803,-0.00037003223485391275,0.00019262092707634149,0.00014649224902016472,1.651061210980636e-05,-0.0009029990519015101,-0.18418008089065552,18.277124404907227,-1.1918060779571533,-17.999910354614258,-0.4983420968055725,-2.2360262870788574,0.20083944499492645,0
3,0.01003265380859375,0.16037636995315552,-18.352502822875977,1.1441986560821533,18.047517776489258,0.5047507882118225,2.2552523612976074,-0.17978231608867645,0.0,0.0,0.0,0.0,0.0,0.0,0.0,0.12951065640603746,0.38672293825393356,0.31671734447684474,0.3712419780815316,0.07430246922234131,0.056310365284939067,-0.1886571863290132,-0.609167803459,-0.05743800973839927,-0.6666493747709725,-2.5945570598736145,-0.055623436035687715,2.507972509479746,0.8763161253362284,-0.6090851748156966,-0.05753196718556838,-0.666603097082616,-2.5945565370258534,-0.05562143941554,2.507976027223799,0.8763108487046415,0.00036713057010471833,-0.00023789632991828586,0.0008666768705985886,-0.0015641399440277455,-0.00024514065523738505,-0.0008410989113973073,7.538694268985489e-05,0.0,0.0,0.0,0.0,0.0,0.0,0.0,8.262864330343955e-05,-9.395744716911292e-05,4.6277688356521907e-05,5.228477610863536e-07,1.996620147715067e-06,3.5177440529388093e-06,-5.2766315868924e-06,-0.00036713057010471833,0.00023789632991828586,-0.0008666768705985886,0.0015641399440277455,0.00024514065523738505,0.0008410989113973073,-7.538694268985489e-05,-0.16037636995315552,18.352502822875977,-1.1441986560821533,-18.047517776489258,-0.5047507882118225,-2.2552523612976074,0.17978231608867645,0
4,0.015021085739135742,0.16037636995315552,-18.352502822875977,1.1441986560821533,18.047517776489258,0.5047507882118225,2.2552523612976074,-0.17978231608867645,0.0,0.0,0.0,0.0,0.0,0.0,0.0,0.12951065640603746,0.38672293825393356,0.31671734447684474,0.3712419780815316,0.07430246922234131,0.056310365284939067,-0.1886571863290132,-0.609167803459,-0.05743800973839927,-0.6666493747709725,-2.5945570598736145,-0.055623436035687715,2.507972509479746,0.8763161253362284,-0.6090851748156966,-0.05753196718556838,-0.666603097082616,-2.5945565370258534,-0.05562143941554,2.507976027223799,0.8763108487046415,0.00036713057010471833,-0.00023789632991828586,0.0008666768705985886,-0.0015641399440277455,-0.00024514065523738505,-0.0008410989113973073,7.538694268985489e-05,0.0,0.0,0.0,0.0,0.0,0.0,0.0,8.262864330343955e-05,-9.395744716911292e-05,4.6277688356521907e-05,5.228477610863536e-07,1.996620147715067e-06,3.5177440529388093e-06,-5.2766315868924e-06,-0.00036713057010471833,0.00023789632991828586,-0.0008666768705985886,0.0015641399440277455,0.00024514065523738505,0.0008410989113973073,-7.538694268985489e-05,-0.16037636995315552,18.352502822875977,-1.1441986560821533,-18.047517776489258,-0.5047507882118225,-2.2552523612976074,0.17978231608867645,0
5,0.020020723342895508,0.08103066682815552,-18.376306533813477,1.0926239490509033,18.023714065551758,0.4983420968055725,2.2625765800476074,-0.16604940593242645,0.0,0.0,0.0,0.0,0.0,0.0,0.0,0.12441175221159548,0.38179675807311975,0.31195274151486724,0.36782751306981437,0.07449852518912888,0.05597418503051446,-0.1877273592031768,-0.6091622353394825,-0.05743633930254401,-0.666645807492872,-2.594555389437759,-0.055623827987637466,2.507971290629937,0.8763146125392042,-0.6090851748156966,-0.05753196718556838,-0.666603097082616,-2.5945565370258534,-0.05562143941554,2.507976027223799,0.8763108487046415,0.0001065813529599358,0.0007030691037309691,-3.320903284555863e-05,-0.0004289757420703331,9.100971230525131e-06,0.0001076941864844239,-0.000736202030384525,0.0,0.0,0.0,0.0,0.0,0.0,0.0,7.706052378597672e-05,-9.562788302437675e-05,4.271041025594169e-05,-1.147588094330132e-06,2.3885720974656244e-06,4.7365938620203e-06,-3.7638345626866965e-06,-0.0001065813529599358,-0.0007030691037309691,3.320903284555863e-05,0.0004289757420703331,-9.100971230525131e-06,-0.0001076941864844239,0.000736202030384525,-0.08103066682815552,18.376306533813477,-1.0926239490509033,-18.023714065551758,-0.4983420968055725,-2.2625765800476074,0.16604940593242645,0
6,0.025016069412231445,0.08103066682815552,-18.376306533813477,1.0926239490509033,18.023714065551758,0.4983420968055725,2.2625765800476074,-0.16604940593242645,0.0,0.0,0.0,0.0,0.0,0.0,0.0,0.12441175221159548,0.38179675807311975,0.31195274151486724,0.36782751306981437,0.07449852518912888,0.05597418503051446,-0.1877273592031768,-0.6091622353394825,-0.05743633930254401,-0.666645807492872,-2.594555389437759,-0.055623827987637466,2.507971290629937,0.8763146125392042,-0.6090851748156966,-0.05753196718556838,-0.666603097082616,-2.5945565370258534,-0.05562143941554,2.507976027223799,0.8763108487046415,0.0001065813529599358,0.0007030691037309691,-3.320903284555863e-05,-0.0004289757420703331,9.100971230525131e-06,0.0001076941864844239,-0.000736202030384525,0.0,0.0,0.0,0.0,0.0,0.0,0.0,7.706052378597672e-05,-9.562788302437675e-05,4.271041025594169e-05,-1.147588094330132e-06,2.3885720974656244e-06,4.7365938620203e-06,-3.7638345626866965e-06,-0.0001065813529599358,-0.0007030691037309691,3.320903284555863e-05,0.0004289757420703331,-9.100971230525131e-06,-0.0001076941864844239,0.000736202030384525,-0.08103066682815552,18.376306533813477,-1.0926239490509033,-18.023714065551758,-0.4983420968055725,-2.2625765800476074,0.16604940593242645,0
7,0.0300137996673584,0.16037636995315552,-18.229516983032227,1.1164276599884033,17.972139358520508,0.4864402413368225,2.2296175956726074,-0.17978231608867645,0.0,0.0,0.0,0.0,0.0,0.0,0.0,0.1352895508028145,0.3833936654721815,0.32424602400548336,0.36129710793366515,0.07347300885891302,0.05958704120982562,-0.18645770979909942,-0.609167803459,-0.05744663143604971,-0.6666473999278808,-2.5945517701600727,-0.05562144096030125,2.5079775453861477,0.8763157852054745,-0.6090851748156966,-0.05753196718556838,-0.666603097082616,-2.5945565370258534,-0.05562143941554,2.507976027223799,0.8763108487046415,-0.0021396745141387297,-0.0010997436154082025,-0.0003970425485665151,0.0008131782743177017,0.0004630666405041136,0.0007486320225923085,-0.0005117678108194184,0.0,0.0,0.0,0.0,0.0,0.0,0.0,8.262864330343955e-05,-8.533574951867517e-05,4.430284526479866e-05,-4.766865780769791e-06,1.5447612494723373e-09,-1.5181623487237061e-06,-4.936500832997126e-06,0.0021396745141387297,0.0010997436154082025,0.0003970425485665151,-0.0008131782743177017,-0.0004630666405041136,-0.0007486320225923085,0.0005117678108194184,-0.16037636995315552,18.229516983032227,-1.1164276599884033,-17.972139358520508,-0.4864402413368225,-2.2296175956726074,0.17978231608867645,0
8,0.035013675689697266,0.16037636995315552,-18.229516983032227,1.1164276599884033,17.972139358520508,0.4864402413368225,2.2296175956726074,-0.17978231608867645,0.0,0.0,0.0,0.0,0.0,0.0,0.0,0.1352895508028145,0.3833936654721815,0.32424602400548336,0.36129710793366515,0.07347300885891302,0.05958704120982562,-0.18645770979909942,-0.609167803459,-0.05744663143604971,-0.6666473999278808,-2.5945517701600727,-0.05562144096030125,2.5079775453861477,0.8763157852054745,-0.6090851748156966,-0.05753196718556838,-0.666603097082616,-2.5945565370258534,-0.05562143941554,2.507976027223799,0.8763108487046415,-0.0021396745141387297,-0.0010997436154082025,-0.0003970425485665151,0.0008131782743177017,0.0004630666405041136,0.0007486320225923085,-0.0005117678108194184,0.0,0.0,0.0,0.0,0.0,0.0,0.0,8.262864330343955e-05,-8.533574951867517e-05,4.430284526479866e-05,-4.766865780769791e-06,1.5447612494723373e-09,-1.5181623487237061e-06,-4.936500832997126e-06,0.0021396745141387297,0.0010997436154082025,0.0003970425485665151,-0.0008131782743177017,-0.0004630666405041136,-0.0007486320225923085,0.0005117678108194184,-0.16037636995315552,18.229516983032227,-1.1164276599884033,-17.972139358520508,-0.4864402413368225,-2.2296175956726074,0.17978231608867645,0
9,0.04110860824584961,0.16037636995315552,-18.130334854125977,1.1680023670196533,17.948335647583008,0.5047507882118225,2.2232089042663574,-0.15231649577617645,0.0,0.0,0.0,0.0,0.0,0.0,0.0,0.13688957241558244,0.4011822035424048,0.3282530968775778,0.35656661813587215,0.07284633482064928,0.0591409980699954,-0.18605158195258423,-0.6091678034233342,-0.057453600472998224,-0.6666510230570349,-2.5945500997242177,-0.05562454006468297,2.5079779565927054,0.8763130864968723,-0.6090851748156966,-0.05753196718556838,-0.666603097082616,-2.5945565370258534,-0.05562143941554,2.507976027223799,0.8763108487046415,-0.0008325081523728209,-0.0002803938962991823,-0.0005238626949205789,0.0006486550616145166,-0.0003323013902042258,0.00013390461090241135,-0.0017256590135505156,0.0,0.0,0.0,0.0,0.0,0.0,0.0,8.262860763763591e-05,-7.836671257015898e-05,4.7925974418938644e-05,-6.4373016357421875e-06,3.100649142967482e-06,-1.9293689064170394e-06,-2.23779223085252e-06,0.0008325081523728209,0.0002803938962991823,0.0005238626949205789,-0.0006486550616145166,0.0003323013902042258,-0.00013390461090241135,0.0017256590135505156,-0.16037636995315552,18.130334854125977,-1.1680023670196533,-17.948335647583008,-0.5047507882118225,-2.2232089042663574,0.15231649577617645,0
10,0.04501485824584961,0.16037636995315552,-18.130334854125977,1.1680023670196533,17.948335647583008,0.5047507882118225,2.2232089042663574,-0.15231649577617645,0.0,0.0,0.0,0.0,0.0,0.0,0.0,0.13688957241558244,0.4011822035424048,0.3282530968775778,0.35656661813587215,0.07284633482064928,0.0591409980699954,-0.18605158195258423,-0.6091678034233342,-0.057453600472998224,-0.6666510230570349,-2.5945500997242177,-0.05562454006468297,2.5079779565927054,0.8763130864968723,-0.6090851748156966,-0.05753196718556838,-0.666603097082616,-2.5945565370258534,-0.05562143941554,2.507976027223799,0.8763108487046415,-0.0008325081523728209,-0.0002803938962991823,-0.0005238626949205789,0.0006486550616145166,-0.0003323013902042258,0.00013390461090241135,-0.0017256590135505156,0.0,0.0,0.0,0.0,0.0,0.0,0.0,8.262860763763591e-05,-7.836671257015898e-05,4.7925974418938644e-05,-6.4373016357421875e-06,3.100649142967482e-06,-1.9293689064170394e-06,-2.23779223085252e-06,0.0008325081523728209,0.0002803938962991823,0.0005238626949205789,-0.0006486550616145166,0.0003323013902042258,-0.00013390461090241135,0.0017256590135505156,-0.16037636995315552,18.130334854125977,-1.1680023670196533,-17.948335647583008,-0.5047507882118225,-2.2232089042663574,0.15231649577617645,0
11,0.05001497268676758,0.13260537385940552,-18.205713272094727,1.1441986560821533,18.023714065551758,0.5047507882118225,2.2360262870788574,-0.17337362468242645,0.0,0.0,0.0,0.0,0.0,0.0,0.0,0.13178646445084286,0.40706705848999625,0.3227143338415132,0.36958081268393445,0.0734221932770743,0.0585277933845762,-0.18560379476935226,-0.6091658546171688,-0.05744831075950673,-0.6666493574360867,-2.594555389437759,-0.05562454001660511,2.507973184749639,0.8763154258568437,-0.6090851748156966,-0.05753196718556838,-0.666603097082616,-2.5945565370258534,-0.05562143941554,2.507976027223799,0.8763108487046415,0.0009117332219451683,0.0014745604209127924,-0.00011868738091196724,-0.0010478070614902135,-7.00122288241264e-06,0.0001360550914865374,-0.000946863219593411,0.0,0.0,0.0,0.0,0.0,0.0,0.0,8.067980147219433e-05,-8.365642606165263e-05,4.626035347066182e-05,-1.147588094330132e-06,3.1006010651132843e-06,2.842474160047459e-06,-4.577152202256407e-06,-0.0009117332219451683,-0.0014745604209127924,0.00011868738091196724,0.0010478070614902135,7.00122288241264e-06,-0.0001360550914865374,0.000946863219593411,-0.13260537385940552,18.205713272094727,-1.1441986560821533,-18.023714065551758,-0.5047507882118225,-2.2360262870788574,0.17337362468242645,0
12,0.05501294136047363,0.13260537385940552,-18.205713272094727,1.1441986560821533,18.023714065551758,0.5047507882118225,2.2360262870788574,-0.17337362468242645,0.0,0.0,0.0,0.0,0.0,0.0,0.0,0.13178646445084286,0.40706705848999625,0.3227143338415132,0.36958081268393445,0.0734221932770743,0.0585277933845762,-0.18560379476935226,-0.6091658546171688,-0.05744831075950673,-0.6666493574360867,-2.594555389437759,-0.05562454001660511,2.507973184749639,0.8763154258568437,-0.6090851748156966,-0.05753196718556838,-0.666603097082616,-2.5945565370258534,-0.05562143941554,2.507976027223799,0.8763108487046415,0.0009117332219451683,0.0014745604209127924,-0.00011868738091196724,-0.0010478070614902135,-7.00122288241264e-06,0.0001360550914865374,-0.000946863219593411,0.0,0.0,0.0,0.0,0.0,0.0,0.0,8.067980147219433e-05,-8.365642606165263e-05,4.626035347066182e-05,-1.147588094330132e-06,3.1006010651132843e-06,2.842474160047459e-06,-4.577152202256407e-06,-0.0009117332219451683,-0.0014745604209127924,0.00011868738091196724,0.0010478070614902135,7.00122288241264e-06,-0.0001360550914865374,0.000946863219593411,-0.13260537385940552,18.205713272094727,-1.1441986560821533,-18.023714065551758,-0.5047507882118225,-2.2360262870788574,0.17337362468242645,0
13,0.060013532638549805,0.18418008089065552,-18.304895401000977,1.1680023670196533,17.999910354614258,0.4983420968055725,2.2360262870788574,-0.21457235515117645,0.0,0.0,0.0,0.0,0.0,0.0,0.0,0.1338484793192336,0.4089856276462027,0.31983500887057054,0.37520842914473895,0.07445930506761697,0.05866658154829255,-0.1850524663619325,-0.6091694738948553,-0.0574413506101098,-0.6666510192051757,-2.5945537190019037,-0.055623826371243065,2.507973349035754,0.8763200039780774,-0.6090851748156966,-0.05753196718556838,-0.666603097082616,-2.5945565370258534,-0.05562143941554,2.507976027223799,0.8763108487046415,-0.00028029527247645244,0.0006709691488363637,-0.0004062157097219871,-0.00011487814534025331,-5.9385217072454035e-05,0.00011910478333036882,0.0007117237361042417,0.0,0.0,0.0,0.0,0.0,0.0,0.0,8.429907915874502e-05,-9.061657545858526e-05,4.792212255966266e-05,-2.8180239497466175e-06,2.386955703065352e-06,2.6781880451132167e-06,-9.155273435923483e-06,0.00028029527247645244,-0.0006709691488363637,0.0004062157097219871,0.00011487814534025331,5.9385217072454035e-05,-0.00011910478333036882,-0.0007117237361042417,-0.18418008089065552,18.304895401000977,-1.1680023670196533,-17.999910354614258,-0.4983420968055725,-2.2360262870788574,0.21457235515117645,0
14,0.06502962112426758,0.18418008089065552,-18.304895401000977,1.1680023670196533,17.999910354614258,0.4983420968055725,2.2360262870788574,-0.21457235515117645,0.0,0.0,0.0,0.0,0.0,0.0,0.0,0.1338484793192336,0.4089856276462027,0.31983500887057054,0.37520842914473895,0.07445930506761697,0.05866658154829255,-0.1850524663619325,-0.6091694738948553,-0.0574413506101098,-0.6666510192051757,-2.5945537190019037,-0.055623826371243065,2.507973349035754,0.8763200039780774,-0.6090851748156966,-0.05753196718556838,-0.666603097082616,-2.5945565370258534,-0.05562143941554,2.507976027223799,0.8763108487046415,-0.00028029527247645244,0.0006709691488363637,-0.0004062157097219871,-0.00011487814534025331,-5.9385217072454035e-05,0.00011910478333036882,0.0007117237361042417,0.0,0.0,0.0,0.0,0.0,0.0,0.0,8.429907915874502e-05,-9.061657545858526e-05,4.792212255966266e-05,-2.8180239497466175e-06,2.386955703065352e-06,2.6781880451132167e-06,-9.155273435923483e-06,0.00028029527247645244,-0.0006709691488363637,0.0004062157097219871,0.00011487814534025331,5.9385217072454035e-05,-0.00011910478333036882,-0.0007117237361042417,-0.18418008089065552,18.304895401000977,-1.1680023670196533,-17.999910354614258,-0.4983420968055725,-2.2360262870788574,0.21457235515117645,0
15,0.07001757621765137,0.08103066682815552,-18.352502822875977,1.1164276599884033,17.999910354614258,0.4983420968055725,2.2552523612976074,-0.20724813640117645,0.0,0.0,0.0,0.0,0.0,0.0,0.0,0.13228116218984592,0.40551318327618124,0.31573084310463323,0.3731357980392262,0.07494870778655438,0.05738701677756583,-0.18423976505880163,-0.6091622353394825,-0.05743800973839927,-0.6666474779285805,-2.5945537190019037,-0.055620634178311396,2.507972235244223,0.8763191901759968,-0.6090851748156966,-0.05753196718556838,-0.666603097082616,-2.5945565370258534,-0.05562143941554,2.507976027223799,0.8763108487046415,0.0007864478900966838,-0.0001321130486223394,0.0005639514778588105,0.00027674311444279853,1.1790578072273013e-05,-0.0002909030542524348,0.0007191267304915421,0.0,0.0,0.0,0.0,0.0,0.0,0.0,7.706052378597672e-05,-9.395744716911292e-05,4.438084596447567e-05,-2.8180239497466175e-06,-8.052372286043719e-07,3.7919795761176545e-06,-8.341471355310937e-06,-0.0007864478900966838,0.0001321130486223394,-0.0005639514778588105,-0.00027674311444279853,-1.1790578072273013e-05,0.0002909030542524348,-0.0007191267304915421,-0.08103066682815552,18.352502822875977,-1.1164276599884033,-17.999910354614258,-0.4983420968055725,-2.2552523612976074,0.20724813640117645,0
16,0.07502579689025879,0.08103066682815552,-18.352502822875977,1.1164276599884033,17.999910354614258,0.4983420968055725,2.2552523612976074,-0.20724813640117645,0.0,0.0,0.0,0.0,0.0,0.0,0.0,0.13228116218984592,0.40551318327618124,0.31573084310463323,0.3731357980392262,0.07494870778655438,0.05738701677756583,-0.18423976505880163,-0.6091622353394825,-0.05743800973839927,-0.6666474779285805,-2.5945537190019037,-0.055620634178311396,2.507972235244223,0.8763191901759968,-0.6090851748156966,-0.05753196718556838,-0.666603097082616,-2.5945565370258534,-0.05562143941554,2.507976027223799,0.8763108487046415,0.0007864478900966838,-0.0001321130486223394,0.0005639514778588105,0.00027674311444279853,1.1790578072273013e-05,-0.0002909030542524348,0.0007191267304915421,0.0,0.0,0.0,0.0,0.0,0.0,0.0,7.706052378597672e-05,-9.395744716911292e-05,4.438084596447567e-05,-2.8180239497466175e-06,-8.052372286043719e-07,3.7919795761176545e-06,-8.341471355310937e-06,-0.0007864478900966838,0.0001321130486223394,-0.0005639514778588105,-0.00027674311444279853,-1.1790578072273013e-05,0.0002909030542524348,-0.0007191267304915421,-0.08103066682815552,18.352502822875977,-1.1164276599884033,-17.999910354614258,-0.4983420968055725,-2.2552523612976074,0.20724813640117645,0
17,0.08002233505249023,0.08103066682815552,-18.328699111938477,1.0926239490509033,18.047517776489258,0.4983420968055725,2.2552523612976074,-0.20083944499492645,0.0,0.0,0.0,0.0,0.0,0.0,0.0,0.11822531318871717,0.35211280894662417,0.3059093649140202,0.3936997396417839,0.07573047666949022,0.06217681574281596,-0.18513097158126415,-0.6091622353394825,-0.057439680174254534,-0.6666457554924055,-2.5945570598736145,-0.055623827975840597,2.5079710432311226,0.8763184780991738,-0.6090851748156966,-0.05753196718556838,-0.666603097082616,-2.5945565370258534,-0.05562143941554,2.507976027223799,0.8763108487046415,5.164662053404663e-05,-0.00033385057871787756,-0.000426424092962582,-0.0001293564312746313,0.00022200449793278052,0.000321107753116029,0.0008817509610355667,0.0,0.0,0.0,0.0,0.0,0.0,0.0,7.706052378597672e-05,-9.228701131384909e-05,4.2658409789453344e-05,5.228477610863536e-07,2.388560300596587e-06,4.9839926763439735e-06,-7.629394532360223e-06,-5.164662053404663e-05,0.00033385057871787756,0.000426424092962582,0.0001293564312746313,-0.00022200449793278052,-0.000321107753116029,-0.0008817509610355667,-0.08103066682815552,18.328699111938477,-1.0926239490509033,-18.047517776489258,-0.4983420968055725,-2.2552523612976074,0.20083944499492645,0
18,0.085205078125,0.08103066682815552,-18.328699111938477,1.0926239490509033,18.047517776489258,0.4983420968055725,2.2552523612976074,-0.20083944499492645,0.0,0.0,0.0,0.0,0.0,0.0,0.0,0.11822531318871717,0.35211280894662417,0.3059093649140202,0.3936997396417839,0.07573047666949022,0.06217681574281596,-0.18513097158126415,-0.6091622353394825,-0.057439680174254534,-0.6666457554924055,-2.5945570598736145,-0.055623827975840597,2.5079710432311226,0.8763184780991738,-0.6090851748156966,-0.05753196718556838,-0.666603097082616,-2.5945565370258534,-0.05562143941554,2.507976027223799,0.8763108487046415,5.164662053404663e-05,-0.00033385057871787756,-0.000426424092962582,-0.0001293564312746313,0.00022200449793278052,0.000321107753116029,0.0008817509610355667,0.0,0.0,0.0,0.0,0.0,0.0,0.0,7.706052378597672e-05,-9.228701131384909e-05,4.2658409789453344e-05,5.228477610863536e-07,2.388560300596587e-06,4.9839926763439735e-06,-7.629394532360223e-06,-5.164662053404663e-05,0.00033385057871787756,0.000426424092962582,0.0001293564312746313,-0.00022200449793278052,-0.000321107753116029,-0.0008817509610355667,-0.08103066682815552,18.328699111938477,-1.0926239490509033,-18.047517776489258,-0.4983420968055725,-2.2552523612976074,0.20083944499492645,0
19,0.08996844291687012,0.13260537385940552,-18.277124404907227,1.1680023670196533,17.999910354614258,0.4864402413368225,2.2424349784851074,-0.20724813640117645,0.0,0.0,0.0,0.0,0.0,0.0,0.0,0.13471563219425123,0.39822278549799817,0.3216168931464548,0.3611471605868956,0.07407891443145682,0.06033612816105885,-0.1856258668675676,-0.6091658546171689,-0.05744329945194094,-0.6666510192052736,-2.5945537190019037,-0.055622492422210394,2.507975820180105,0.8763191901759968,-0.6090851748156966,-0.05753196718556838,-0.666603097082616,-2.5945565370258534,-0.05562143941554,2.507976027223799,0.8763108487046415,-0.0003000393100568808,-0.00011742070032567409,-0.0011698197153232615,-2.200971607972733e-05,0.000463152957210594,8.761082265597421e-05,0.0010665530039918754,0.0,0.0,0.0,0.0,0.0,0.0,0.0,8.067980147230536e-05,-8.866773362744412e-05,4.792212265758433e-05,-2.8180239497466175e-06,1.053006670394263e-06,2.0704369418922397e-07,-8.341471355310937e-06,0.0003000393100568808,0.00011742070032567409,0.0011698197153232615,2.200971607972733e-05,-0.000463152957210594,-8.761082265597421e-05,-0.0010665530039918754,-0.13260537385940552,18.277124404907227,-1.1680023670196533,-17.999910354614258,-0.4864402413368225,-2.2424349784851074,0.20724813640117645,0
20,0.09501218795776367,0.13260537385940552,-18.277124404907227,1.1680023670196533,17.999910354614258,0.4864402413368225,2.2424349784851074,-0.20724813640117645,0.0,0.0,0.0,0.0,0.0,0.0,0.0,0.13471563219425123,0.39822278549799817,0.3216168931464548,0.3611471605868956,0.07407891443145682,0.06033612816105885,-0.1856258668675676,-0.6091658546171689,-0.05744329945194094,-0.6666510192052736,-2.5945537190019037,-0.055622492422210394,2.507975820180105,0.8763191901759968,-0.6090851748156966,-0.05753196718556838,-0.666603097082616,-2.5945565370258534,-0.05562143941554,2.507976027223799,0.8763108487046415,-0.0003000393100568808,-0.00011742070032567409,-0.0011698197153232615,-2.200971607972733e-05,0.000463152957210594,8.761082265597421e-05,0.0010665530039918754,0.0,0.0,0.0,0.0,0.0,0.0,0.0,8.067980147230536e-05,-8.866773362744412e-05,4.792212265758433e-05,-2.8180239497466175e-06,1.053006670394263e-06,2.0704369418922397e-07,-8.341471355310937e-06,0.0003000393100568808,0.00011742070032567409,0.0011698197153232615,2.200971607972733e-05,-0.000463152957210594,-8.761082265597421e-05,-0.0010665530039918754,-0.13260537385940552,18.277124404907227,-1.1680023670196533,-17.999910354614258,-0.4864402413368225,-2.2424349784851074,0.20724813640117645,0
21,0.10001349449157715,0.13260537385940552,-18.277124404907227,1.1680023670196533,17.999910354614258,0.4864402413368225,2.2424349784851074,-0.20724813640117645,0.0,0.0,0.0,0.0,0.0,0.0,0.0,0.13471563219425123,0.39822278549799817,0.3216168931464548,0.3611471605868956,0.07407891443145682,0.06033612816105885,-0.1856258668675676,-0.6091658546171689,-0.05744329945194094,-0.6666510192052736,-2.5945537190019037,-0.055622492422210394,2.507975820180105,0.8763191901759968,-0.6090851748156966,-0.05753196718556838,-0.666603097082616,-2.5945565370258534,-0.05562143941554,2.507976027223799,0.8763108487046415,-0.0003000393100568808,-0.00011742070032567409,-0.0011698197153232615,-2.200971607972733e-05,0.000463152957210594,8.761082265597421e-05,0.0010665530039918754,0.0,0.0,0.0,0.0,0.0,0.0,0.0,8.067980147230536e-05,-8.866773362744412e-05,4.792212265758433e-05,-2.8180239497466175e-06,1.053006670394263e-06,2.0704369418922397e-07,-8.341471355310937e-06,0.0003000393100568808,0.00011742070032567409,0.0011698197153232615,2.200971607972733e-05,-0.000463152957210594,-8.761082265597421e-05,-0.0010665530039918754,-0.13260537385940552,18.277124404907227,-1.1680023670196533,-17.999910354614258,-0.4864402413368225,-2.2424349784851074,0.20724813640117645,0
22,0.10502004623413086,0.13260537385940552,-18.277124404907227,1.1680023670196533,17.999910354614258,0.4864402413368225,2.2424349784851074,-0.20724813640117645,0.0,0.0,0.0,0.0,0.0,0.0,0.0,0.13471563219425123,0.39822278549799817,0.3216168931464548,0.3611471605868956,0.07407891443145682,0.06033612816105885,-0.1856258668675676,-0.6091658546171689,-0.05744329945194094,-0.6666510192052736,-2.5945537190019037,-0.055622492422210394,2.507975820180105,0.8763191901759968,-0.6090851748156966,-0.05753196718556838,-0.666603097082616,-2.5945565370258534,-0.05562143941554,2.507976027223799,0.8763108487046415,-0.0003000393100568808,-0.00011742070032567409,-0.0011698197153232615,-2.200971607972733e-05,0.000463152957210594,8.761082265597421e-05,0.0010665530039918754,0.0,0.0,0.0,0.0,0.0,0.0,0.0,8.067980147230536e-05,-8.866773362744412e-05,4.792212265758433e-05,-2.8180239497466175e-06,1.053006670394263e-06,2.0704369418922397e-07,-8.341471355310937e-06,0.0003000393100568808,0.00011742070032567409,0.0011698197153232615,2.200971607972733e-05,-0.000463152957210594,-8.761082265597421e-05,-0.0010665530039918754,-0.13260537385940552,18.277124404907227,-1.1680023670196533,-17.999910354614258,-0.4864402413368225,-2.2424349784851074,0.20724813640117645,0
23,0.11001181602478027,0.21195107698440552,-18.205713272094727,1.2156097888946533,17.972139358520508,0.4864402413368225,2.2296175956726074,-0.20724813640117645,0.0,0.0,0.0,0.0,0.0,0.0,0.0,0.14577798352952845,0.40167135956023303,0.33282923171376966,0.35783181362263705,0.0732945978342694,0.05951283301217868,-0.1853071165377709,-0.6091714227366865,-0.05744831075950673,-0.6666543687436307,-2.5945517701600727,-0.055621440419351624,2.5079740103648853,0.8763191901759968,-0.6090851748156966,-0.05753196718556838,-0.666603097082616,-2.5945565370258534,-0.05562143941554,2.507976027223799,0.8763108487046415,-0.0007120369340779596,-0.00010041698875283236,-0.0004000208978340296,-0.0002588942931499881,0.0005513634073362131,-0.00033877592594381683,0.0008560746540278481,0.0,0.0,0.0,0.0,0.0,0.0,0.0,8.624792098987921e-05,-8.365642606165263e-05,5.1271661014706815e-05,-4.766865780769791e-06,1.0038116241006811e-09,2.0168589136559945e-06,-8.341471355310937e-06,0.0007120369340779596,0.00010041698875283236,0.0004000208978340296,0.0002588942931499881,-0.0005513634073362131,0.00033877592594381683,-0.0008560746540278481,-0.21195107698440552,18.205713272094727,-1.2156097888946533,-17.972139358520508,-0.4864402413368225,-2.2296175956726074,0.20724813640117645,0
24,0.11501288414001465,0.21195107698440552,-18.205713272094727,1.2156097888946533,17.972139358520508,0.4864402413368225,2.2296175956726074,-0.20724813640117645,0.0,0.0,0.0,0.0,0.0,0.0,0.0,0.14577798352952845,0.40167135956023303,0.33282923171376966,0.35783181362263705,0.0732945978342694,0.05951283301217868,-0.1853071165377709,-0.6091714227366865,-0.05744831075950673,-0.6666543687436307,-2.5945517701600727,-0.055621440419351624,2.5079740103648853,0.8763191901759968,-0.6090851748156966,-0.05753196718556838,-0.666603097082616,-2.5945565370258534,-0.05562143941554,2.507976027223799,0.8763108487046415,-0.0007120369340779596,-0.00010041698875283236,-0.0004000208978340296,-0.0002588942931499881,0.0005513634073362131,-0.00033877592594381683,0.0008560746540278481,0.0,0.0,0.0,0.0,0.0,0.0,0.0,8.624792098987921e-05,-8.365642606165263e-05,5.1271661014706815e-05,-4.766865780769791e-06,1.0038116241006811e-09,2.0168589136559945e-06,-8.341471355310937e-06,0.0007120369340779596,0.00010041698875283236,0.0004000208978340296,0.0002588942931499881,-0.0005513634073362131,0.00033877592594381683,-0.0008560746540278481,-0.21195107698440552,18.205713272094727,-1.2156097888946533,-17.972139358520508,-0.4864402413368225,-2.2296175956726074,0.20724813640117645,0
25,0.12001514434814453,0.18418008089065552,-18.154138565063477,1.1918060779571533,18.023714065551758,0.4983420968055725,2.2360262870788574,-0.18710653483867645,0.0,0.0,0.0,0.0,0.0,0.0,0.0,0.1352329171635613,0.4082682226511845,0.32193478644716744,0.3646981611951366,0.07417200719479805,0.056676730883730576,-0.18552535077962068,-0.6091694738948553,-0.05745193003719313,-0.6666529496448312,-2.594555389437759,-0.05562382652749323,2.5079765191756462,0.8763168344826977,-0.6090851748156966,-0.05753196718556838,-0.666603097082616,-2.5945565370258534,-0.05562143941554,2.507976027223799,0.8763108487046415,-1.990579140379149e-05,3.242165495998503e-05,-0.00041254228105242,-0.000836141199502629,-5.445054545450726e-05,2.1330449974126387e-06,4.453767492999627e-05,0.0,0.0,0.0,0.0,0.0,0.0,0.0,8.429907915874502e-05,-8.003714837525461e-05,4.985256221523571e-05,-1.147588094330132e-06,2.387111953230936e-06,-4.919518472590312e-07,-5.985778056216695e-06,1.990579140379149e-05,-3.242165495998503e-05,0.00041254228105242,0.000836141199502629,5.445054545450726e-05,-2.1330449974126387e-06,-4.453767492999627e-05,-0.18418008089065552,18.154138565063477,-1.1918060779571533,-18.023714065551758,-0.4983420968055725,-2.2360262870788574,0.18710653483867645,0
26,0.12501287460327148,0.18418008089065552,-18.154138565063477,1.1918060779571533,18.023714065551758,0.4983420968055725,2.2360262870788574,-0.18710653483867645,0.0,0.0,0.0,0.0,0.0,0.0,0.0,0.1352329171635613,0.4082682226511845,0.32193478644716744,0.3646981611951366,0.07417200719479805,0.056676730883730576,-0.18552535077962068,-0.6091694738948553,-0.05745193003719313,-0.6666529496448312,-2.594555389437759,-0.05562382652749323,2.5079765191756462,0.8763168344826977,-0.6090851748156966,-0.05753196718556838,-0.666603097082616,-2.5945565370258534,-0.05562143941554,2.507976027223799,0.8763108487046415,-1.990579140379149e-05,3.242165495998503e-05,-0.00041254228105242,-0.000836141199502629,-5.445054545450726e-05,2.1330449974126387e-06,4.453767492999627e-05,0.0,0.0,0.0,0.0,0.0,0.0,0.0,8.429907915874502e-05,-8.003714837525461e-05,4.985256221523571e-05,-1.147588094330132e-06,2.387111953230936e-06,-4.919518472590312e-07,-5.985778056216695e-06,1.990579140379149e-05,-3.242165495998503e-05,0.00041254228105242,0.000836141199502629,5.445054545450726e-05,-2.1330449974126387e-06,-4.453767492999627e-05,-0.18418008089065552,18.154138565063477,-1.1918060779571533,-18.023714065551758,-0.4983420968055725,-2.2360262870788574,0.18710653483867645,0
27,0.13001346588134766,0.08103066682815552,-18.277124404907227,1.0926239490509033,17.999910354614258,0.5047507882118225,2.2552523612976074,-0.20724813640117645,0.0,0.0,0.0,0.0,0.0,0.0,0.0,0.12448291445143793,0.40672312985127795,0.3104404792508647,0.37104256858479406,0.07481825869334097,0.05575748523649872,-0.18501665543679008,-0.6091622353394825,-0.05744329945194094,-0.6666457554934329,-2.5945537098445373,-0.05562454007068442,2.507971047603897,0.8763191901753322,-0.6090851748156966,-0.05753196718556838,-0.666603097082616,-2.5945565370258534,-0.05562143941554,2.507976027223799,0.8763108487046415,0.0010587441818088693,0.0010289723072102858,5.4335694926778943e-05,-0.00047788537614434527,-0.0002797031116865936,-0.0006966406539992298,0.0007039798155035459,0.0,0.0,0.0,0.0,0.0,0.0,0.0,7.706052378597672e-05,-8.866773362744412e-05,4.265841081685373e-05,-2.8271813161673265e-06,3.1006551444168196e-06,4.979619901757104e-06,-8.341470690731434e-06,-0.0010587441818088693,-0.0010289723072102858,-5.4335694926778943e-05,0.00047788537614434527,0.0002797031116865936,0.0006966406539992298,-0.0007039798155035459,-0.08103066682815552,18.277124404907227,-1.0926239490509033,-17.999910354614258,-0.5047507882118225,-2.2552523612976074,0.20724813640117645,0
28,0.13502073287963867,0.08103066682815552,-18.277124404907227,1.0926239490509033,17.999910354614258,0.5047507882118225,2.2552523612976074,-0.20724813640117645,0.0,0.0,0.0,0.0,0.0,0.0,0.0,0.12448291445143793,0.40672312985127795,0.3104404792508647,0.37104256858479406,0.07481825869334097,0.05575748523649872,-0.18501665543679008,-0.6091622353394825,-0.05744329945194094,-0.6666457554934329,-2.5945537098445373,-0.05562454007068442,2.507971047603897,0.8763191901753322,-0.6090851748156966,-0.05753196718556838,-0.666603097082616,-2.5945565370258534,-0.05562143941554,2.507976027223799,0.8763108487046415,0.0010587441818088693,0.0010289723072102858,5.4335694926778943e-05,-0.00047788537614434527,-0.0002797031116865936,-0.0006966406539992298,0.0007039798155035459,0.0,0.0,0.0,0.0,0.0,0.0,0.0,7.706052378597672e-05,-8.866773362744412e-05,4.265841081685373e-05,-2.8271813161673265e-06,3.1006551444168196e-06,4.979619901757104e-06,-8.341470690731434e-06,-0.0010587441818088693,-0.0010289723072102858,-5.4335694926778943e-05,0.00047788537614434527,0.0002797031116865936,0.0006966406539992298,-0.0007039798155035459,-0.08103066682815552,18.277124404907227,-1.0926239490509033,-17.999910354614258,-0.5047507882118225,-2.2552523612976074,0.20724813640117645,0
29,0.14011812210083008,0.05722695589065552,-18.277124404907227,1.0926239490509033,17.999910354614258,0.5047507882118225,2.2488436698913574,-0.20724813640117645,0.0,0.0,0.0,0.0,0.0,0.0,0.0,0.12895509348021114,0.4152028345643206,0.31295321808908716,0.3695723731823652,0.07431427002337396,0.055553216428310695,-0.18490553503292706,-0.6091605649036272,-0.05744329945194094,-0.6666457323805651,-2.5945537190018864,-0.05562454007069269,2.5079752874283203,0.8763191901759968,-0.6090851748156966,-0.05753196718556838,-0.666603097082616,-2.5945565370258534,-0.05562143941554,2.507976027223799,0.8763108487046415,0.00018553409523369973,-5.4440236688228425e-05,-6.998933870641259e-05,-0.0001299369365537143,-0.00015249406614104304,7.38227504954697e-05,0.00021757265923731897,0.0,0.0,0.0,0.0,0.0,0.0,0.0,7.539008793067126e-05,-8.866773362744412e-05,4.263529794912291e-05,-2.8180239670660967e-06,3.100655152687981e-06,7.3979547865477e-07,-8.341471355310937e-06,-0.00018553409523369973,5.4440236688228425e-05,6.998933870641259e-05,0.0001299369365537143,0.00015249406614104304,-7.38227504954697e-05,-0.00021757265923731897,-0.05722695589065552,18.277124404907227,-1.0926239490509033,-17.999910354614258,-0.5047507882118225,-2.2488436698913574,0.20724813640117645,0
30,0.1450188159942627,0.05722695589065552,-18.277124404907227,1.0926239490509033,17.999910354614258,0.5047507882118225,2.2488436698913574,-0.20724813640117645,0.0,0.0,0.0,0.0,0.0,0.0,0.0,0.12895509348021114,0.4152028345643206,0.31295321808908716,0.3695723731823652,0.07431427002337396,0.055553216428310695,-0.18490553503292706,-0.6091605649036272,-0.05744329945194094,-0.6666457323805651,-2.5945537190018864,-0.05562454007069269,2.5079752874283203,0.8763191901759968,-0.6090851748156966,-0.05753196718556838,-0.666603097082616,-2.5945565370258534,-0.05562143941554,2.507976027223799,0.8763108487046415,0.00018553409523369973,-5.4440236688228425e-05,-6.998933870641259e-05,-0.0001299369365537143,-0.00015249406614104304,7.38227504954697e-05,0.00021757265923731897,0.0,0.0,0.0,0.0,0.0,0.0,0.0,7.539008793067126e-05,-8.866773362744412e-05,4.263529794912291e-05,-2.8180239670660967e-06,3.100655152687981e-06,7.3979547865477e-07,-8.341471355310937e-06,-0.00018553409523369973,5.4440236688228425e-05,6.998933870641259e-05,0.0001299369365537143,0.00015249406614104304,-7.38227504954697e-05,-0.00021757265923731897,-0.05722695589065552,18.277124404907227,-1.0926239490509033,-17.999910354614258,-0.5047507882118225,-2.2488436698913574,0.20724813640117645,0
31,0.15004229545593262,0.16037636995315552,-18.304895401000977,1.1680023670196533,17.999910354614258,0.4983420968055725,2.2552523612976074,-0.20724813640117645,0.0,0.0,0.0,0.0,0.0,0.0,0.0,0.12543530675467934,0.4106654599223105,0.3143856463765297,0.3684502870273784,0.07410311050862592,0.05739041226935777,-0.1854117888827565,-0.609167803459,-0.0574413506101098,-0.666651019205143,-2.5945537190019037,-0.05562026567986442,2.5079712041038933,0.8763191509301402,-0.6090851748156966,-0.05753196718556838,-0.666603097082616,-2.5945565370258534,-0.05562143941554,2.507976027223799,0.8763108487046415,-0.0017630793987385904,0.00021917754622081565,-0.0015834501605307776,-0.00022290903216913127,7.085222009558339e-05,-0.0002695272650603846,0.0013552396105301632,0.0,0.0,0.0,0.0,0.0,0.0,0.0,8.262864330343955e-05,-9.061657545858526e-05,4.7922122527022104e-05,-2.8180239497466175e-06,-1.1737356755830985e-06,4.823119905683626e-06,-8.302225498746374e-06,0.0017630793987385904,-0.00021917754622081565,0.0015834501605307776,0.00022290903216913127,-7.085222009558339e-05,0.0002695272650603846,-0.0013552396105301632,-0.16037636995315552,18.304895401000977,-1.1680023670196533,-17.999910354614258,-0.4983420968055725,-2.2552523612976074,0.20724813640117645,0
32,0.1550137996673584,0.16037636995315552,-18.304895401000977,1.1680023670196533,17.999910354614258,0.4983420968055725,2.2552523612976074,-0.20724813640117645,0.0,0.0,0.0,0.0,0.0,0.0,0.0,0.12543530675467934,0.4106654599223105,0.3143856463765297,0.3684502870273784,0.07410311050862592,0.05739041226935777,-0.1854117888827565,-0.609167803459,-0.0574413506101098,-0.666651019205143,-2.5945537190019037,-0.05562026567986442,2.5079712041038933,0.8763191509301402,-0.6090851748156966,-0.05753196718556838,-0.666603097082616,-2.5945565370258534,-0.05562143941554,2.507976027223799,0.8763108487046415,-0.0017630793987385904,0.00021917754622081565,-0.0015834501605307776,-0.00022290903216913127,7.085222009558339e-05,-0.0002695272650603846,0.0013552396105301632,0.0,0.0,0.0,0.0,0.0,0.0,0.0,8.262864330343955e-05,-9.061657545858526e-05,4.7922122527022104e-05,-2.8180239497466175e-06,-1.1737356755830985e-06,4.823119905683626e-06,-8.302225498746374e-06,0.0017630793987385904,-0.00021917754622081565,0.0015834501605307776,0.00022290903216913127,-7.085222009558339e-05,0.0002695272650603846,-0.0013552396105301632,-0.16037636995315552,18.304895401000977,-1.1680023670196533,-17.999910354614258,-0.4983420968055725,-2.2552523612976074,0.20724813640117645,0
33,0.16016840934753418,0.16037636995315552,-18.277124404907227,1.1441986560821533,17.999910354614258,0.4928489327430725,2.2296175956726074,-0.22098104655742645,0.0,0.0,0.0,0.0,0.0,0.0,0.0,0.13213998567029706,0.40837197202761977,0.3242485454752059,0.3621823521065428,0.07365225848011875,0.057111318869068145,-0.18384560922511725,-0.609167803459,-0.05744329945194094,-0.6666500507795323,-2.5945537190019037,-0.05561848598951893,2.5079742458220067,0.8763175371402935,-0.6090851748156966,-0.05753196718556838,-0.666603097082616,-2.5945565370258534,-0.05562143941554,2.507976027223799,0.8763108487046415,-1.112307066305488e-05,-0.00020369273276880497,0.0009053948367471428,-0.0005274177476787461,8.322056436465622e-05,0.00030055181148083747,0.001793660375199053,0.0,0.0,0.0,0.0,0.0,0.0,0.0,8.262864330343955e-05,-8.866773362744412e-05,4.695369691631868e-05,-2.8180239497466175e-06,-2.9534260210725694e-06,1.7814017923001302e-06,-6.688435651991398e-06,1.112307066305488e-05,0.00020369273276880497,-0.0009053948367471428,0.0005274177476787461,-8.322056436465622e-05,-0.00030055181148083747,-0.001793660375199053,-0.16037636995315552,18.277124404907227,-1.1441986560821533,-17.999910354614258,-0.4928489327430725,-2.2296175956726074,0.22098104655742645,0
34,0.16501283645629883,0.16037636995315552,-18.277124404907227,1.1441986560821533,17.999910354614258,0.4928489327430725,2.2296175956726074,-0.22098104655742645,0.0,0.0,0.0,0.0,0.0,0.0,0.0,0.13213998567029706,0.40837197202761977,0.3242485454752059,0.3621823521065428,0.07365225848011875,0.057111318869068145,-0.18384560922511725,-0.609167803459,-0.05744329945194094,-0.6666500507795323,-2.5945537190019037,-0.05561848598951893,2.5079742458220067,0.8763175371402935,-0.6090851748156966,-0.05753196718556838,-0.666603097082616,-2.5945565370258534,-0.05562143941554,2.507976027223799,0.8763108487046415,-1.112307066305488e-05,-0.00020369273276880497,0.0009053948367471428,-0.0005274177476787461,8.322056436465622e-05,0.00030055181148083747,0.001793660375199053,0.0,0.0,0.0,0.0,0.0,0.0,0.0,8.262864330343955e-05,-8.866773362744412e-05,4.695369691631868e-05,-2.8180239497466175e-06,-2.9534260210725694e-06,1.7814017923001302e-06,-6.688435651991398e-06,1.112307066305488e-05,0.00020369273276880497,-0.0009053948367471428,0.0005274177476787461,-8.322056436465622e-05,-0.00030055181148083747,-0.001793660375199053,-0.16037636995315552,18.277124404907227,-1.1441986560821533,-17.999910354614258,-0.4928489327430725,-2.2296175956726074,0.22098104655742645,0
35,0.17001104354858398,0.21195107698440552,-18.253320693969727,1.1918060779571533,17.999910354614258,0.4983420968055725,2.2424349784851074,-0.23471395671367645,0.0,0.0,0.0,0.0,0.0,0.0,0.0,0.1330314991992615,0.4031142917983993,0.32420806747320763,0.36305515528610316,0.07372759144916793,0.05635224489524688,-0.18442887562716045,-0.6091714227366865,-0.0574449698877962,-0.6666548217117729,-2.5945537190019037,-0.05562347293650246,2.5079768236162914,0.8763222419158643,-0.6090851748156966,-0.05753196718556838,-0.666603097082616,-2.5945565370258534,-0.05562143941554,2.507976027223799,0.8763108487046415,-0.0006779057868518451,0.0003299274385194039,-0.00023902263788206672,-0.0005833105067404026,-4.577200222375307e-05,-3.644490066708813e-05,0.0018447050836956228,0.0,0.0,0.0,0.0,0.0,0.0,0.0,8.624792098987921e-05,-8.699729777218029e-05,5.1724629156923996e-05,-2.8180239497466175e-06,2.033520962459179e-06,-7.963924923970467e-07,-1.1393211222787691e-05,0.0006779057868518451,-0.0003299274385194039,0.00023902263788206672,0.0005833105067404026,4.577200222375307e-05,3.644490066708813e-05,-0.0018447050836956228,-0.21195107698440552,18.253320693969727,-1.1918060779571533,-17.999910354614258,-0.4983420968055725,-2.2424349784851074,0.23471395671367645,0
36,0.1750192642211914,0.21195107698440552,-18.253320693969727,1.1918060779571533,17.999910354614258,0.4983420968055725,2.2424349784851074,-0.23471395671367645,0.0,0.0,0.0,0.0,0.0,0.0,0.0,0.1330314991992615,0.4031142917983993,0.32420806747320763,0.36305515528610316,0.07372759144916793,0.05635224489524688,-0.18442887562716045,-0.6091714227366865,-0.0574449698877962,-0.6666548217117729,-2.5945537190019037,-0.05562347293650246,2.5079768236162914,0.8763222419158643,-0.6090851748156966,-0.05753196718556838,-0.666603097082616,-2.5945565370258534,-0.05562143941554,2.507976027223799,0.8763108487046415,-0.0006779057868518451,0.0003299274385194039,-0.00023902263788206672,-0.0005833105067404026,-4.577200222375307e-05,-3.644490066708813e-05,0.0018447050836956228,0.0,0.0,0.0,0.0,0.0,0.0,0.0,8.624792098987921e-05,-8.699729777218029e-05,5.1724629156923996e-05,-2.8180239497466175e-06,2.033520962459179e-06,-7.963924923970467e-07,-1.1393211222787691e-05,0.0006779057868518451,-0.0003299274385194039,0.00023902263788206672,0.0005833105067404026,4.577200222375307e-05,3.644490066708813e-05,-0.0018447050836956228,-0.21195107698440552,18.253320693969727,-1.1918060779571533,-17.999910354614258,-0.4983420968055725,-2.2424349784851074,0.23471395671367645,0
37,0.18001389503479004,0.16037636995315552,-18.304895401000977,1.1441986560821533,17.972139358520508,0.5102439522743225,2.2424349784851074,-0.19351522624492645,0.0,0.0,0.0,0.0,0.0,0.0,0.0,0.127321672642278,0.39380355378629067,0.3202463797820981,0.37106114890382763,0.07488521482637611,0.05744329365722731,-0.1861142952262407,-0.6091677947922067,-0.0574413506101098,-0.6666494267824472,-2.5945517701600727,-0.05562195611791375,2.5079738811686676,0.8763176642432553,-0.6090851748156966,-0.05753196718556838,-0.666603097082616,-2.5945565370258534,-0.05562143941554,2.507976027223799,0.8763108487046415,-0.0007308029740870315,0.0011765385908416878,0.00017684337512244,0.0009118670268214679,-0.00027643583384539676,-6.873604837809815e-05,0.0008070879409544187,0.0,0.0,0.0,0.0,0.0,0.0,0.0,8.261997651015651e-05,-9.061657545858526e-05,4.632969983120461e-05,-4.766865780769791e-06,5.167023737484566e-07,2.146055131380109e-06,-6.815538613813565e-06,0.0007308029740870315,-0.0011765385908416878,-0.00017684337512244,-0.0009118670268214679,0.00027643583384539676,6.873604837809815e-05,-0.0008070879409544187,-0.16037636995315552,18.304895401000977,-1.1441986560821533,-17.972139358520508,-0.5102439522743225,-2.2424349784851074,0.19351522624492645,0
38,0.1850125789642334,0.16037636995315552,-18.304895401000977,1.1441986560821533,17.972139358520508,0.5102439522743225,2.2424349784851074,-0.19351522624492645,0.0,0.0,0.0,0.0,0.0,0.0,0.0,0.127321672642278,0.39380355378629067,0.3202463797820981,0.37106114890382763,0.07488521482637611,0.05744329365722731,-0.1861142952262407,-0.6091677947922067,-0.0574413506101098,-0.6666494267824472,-2.5945517701600727,-0.05562195611791375,2.5079738811686676,0.8763176642432553,-0.6090851748156966,-0.05753196718556838,-0.666603097082616,-2.5945565370258534,-0.05562143941554,2.507976027223799,0.8763108487046415,-0.0007308029740870315,0.0011765385908416878,0.00017684337512244,0.0009118670268214679,-0.00027643583384539676,-6.873604837809815e-05,0.0008070879409544187,0.0,0.0,0.0,0.0,0.0,0.0,0.0,8.261997651015651e-05,-9.061657545858526e-05,4.632969983120461e-05,-4.766865780769791e-06,5.167023737484566e-07,2.146055131380109e-06,-6.815538613813565e-06,0.0007308029740870315,-0.0011765385908416878,-0.00017684337512244,-0.0009118670268214679,0.00027643583384539676,6.873604837809815e-05,-0.0008070879409544187,-0.16037636995315552,18.304895401000977,-1.1441986560821533,-17.972139358520508,-0.5102439522743225,-2.2424349784851074,0.19351522624492645,0
39,0.19001412391662598,0.08103066682815552,-18.277124404907227,1.0688202381134033,18.047517776489258,0.5047507882118225,2.2424349784851074,-0.20724813640117645,0.0,0.0,0.0,0.0,0.0,0.0,0.0,0.11908105136378637,0.3926074745846332,0.31749212873273913,0.3697294819219295,0.07576288595802023,0.05741659388678576,-0.18652341952600515,-0.6091622353394663,-0.05744329945194094,-0.6666440850562566,-2.5945570598736145,-0.055624538604318284,2.5079735676643984,0.8763190330310646,-0.6090851748156966,-0.05753196718556838,-0.666603097082616,-2.5945565370258534,-0.05562143941554,2.507976027223799,0.8763108487046415,-0.00044924563470764855,-2.0883439444672604e-06,0.0005306728197395444,-0.0013134024010978758,-0.0003013537747186884,0.00012454933871228096,0.0012547332180221505,0.0,0.0,0.0,0.0,0.0,0.0,0.0,7.706052376976746e-05,-8.866773362744412e-05,4.098797364060491e-05,5.228477610863536e-07,3.0991887782841343e-06,2.4595594005916155e-06,-8.184326423132937e-06,0.00044924563470764855,2.0883439444672604e-06,-0.0005306728197395444,0.0013134024010978758,0.0003013537747186884,-0.00012454933871228096,-0.0012547332180221505,-0.08103066682815552,18.277124404907227,-1.0688202381134033,-18.047517776489258,-0.5047507882118225,-2.2424349784851074,0.20724813640117645,0
40,0.1950218677520752,0.08103066682815552,-18.277124404907227,1.0688202381134033,18.047517776489258,0.5047507882118225,2.2424349784851074,-0.20724813640117645,0.0,0.0,0.0,0.0,0.0,0.0,0.0,0.11908105136378637,0.3926074745846332,0.31749212873273913,0.3697294819219295,0.07576288595802023,0.05741659388678576,-0.18652341952600515,-0.6091622353394663,-0.05744329945194094,-0.6666440850562566,-2.5945570598736145,-0.055624538604318284,2.5079735676643984,0.8763190330310646,-0.6090851748156966,-0.05753196718556838,-0.666603097082616,-2.5945565370258534,-0.05562143941554,2.507976027223799,0.8763108487046415,-0.00044924563470764855,-2.0883439444672604e-06,0.0005306728197395444,-0.0013134024010978758,-0.0003013537747186884,0.00012454933871228096,0.0012547332180221505,0.0,0.0,0.0,0.0,0.0,0.0,0.0,7.706052376976746e-05,-8.866773362744412e-05,4.098797364060491e-05,5.228477610863536e-07,3.0991887782841343e-06,2.4595594005916155e-06,-8.184326423132937e-06,0.00044924563470764855,2.0883439444672604e-06,-0.0005306728197395444,0.0013134024010978758,0.0003013537747186884,-0.00012454933871228096,-0.0012547332180221505,-0.08103066682815552,18.277124404907227,-1.0688202381134033,-18.047517776489258,-0.5047507882118225,-2.2424349784851074,0.20724813640117645,0
41,0.20002198219299316,0.08103066682815552,-18.277124404907227,1.0688202381134033,18.047517776489258,0.5047507882118225,2.2424349784851074,-0.20724813640117645,0.0,0.0,0.0,0.0,0.0,0.0,0.0,0.11908105136378637,0.3926074745846332,0.31749212873273913,0.3697294819219295,0.07576288595802023,0.05741659388678576,-0.18652341952600515,-0.6091622353394663,-0.05744329945194094,-0.6666440850562566,-2.5945570598736145,-0.055624538604318284,2.5079735676643984,0.8763190330310646,-0.6090851748156966,-0.05753196718556838,-0.666603097082616,-2.5945565370258534,-0.05562143941554,2.507976027223799,0.8763108487046415,-0.00044924563470764855,-2.0883439444672604e-06,0.0005306728197395444,-0.0013134024010978758,-0.0003013537747186884,0.00012454933871228096,0.0012547332180221505,0.0,0.0,0.0,0.0,0.0,0.0,0.0,7.706052376976746e-05,-8.866773362744412e-05,4.098797364060491e-05,5.228477610863536e-07,3.0991887782841343e-06,2.4595594005916155e-06,-8.184326423132937e-06,0.00044924563470764855,2.0883439444672604e-06,-0.0005306728197395444,0.0013134024010978758,0.0003013537747186884,-0.00012454933871228096,-0.0012547332180221505,-0.08103066682815552,18.277124404907227,-1.0688202381134033,-18.047517776489258,-0.5047507882118225,-2.2424349784851074,0.20724813640117645,0
42,0.20501971244812012,0.08103066682815552,-18.277124404907227,1.0688202381134033,18.047517776489258,0.5047507882118225,2.2424349784851074,-0.20724813640117645,0.0,0.0,0.0,0.0,0.0,0.0,0.0,0.11908105136378637,0.3926074745846332,0.31749212873273913,0.3697294819219295,0.07576288595802023,0.05741659388678576,-0.18652341952600515,-0.6091622353394663,-0.05744329945194094,-0.6666440850562566,-2.5945570598736145,-0.055624538604318284,2.5079735676643984,0.8763190330310646,-0.6090851748156966,-0.05753196718556838,-0.666603097082616,-2.5945565370258534,-0.05562143941554,2.507976027223799,0.8763108487046415,-0.00044924563470764855,-2.0883439444672604e-06,0.0005306728197395444,-0.0013134024010978758,-0.0003013537747186884,0.00012454933871228096,0.0012547332180221505,0.0,0.0,0.0,0.0,0.0,0.0,0.0,7.706052376976746e-05,-8.866773362744412e-05,4.098797364060491e-05,5.228477610863536e-07,3.0991887782841343e-06,2.4595594005916155e-06,-8.184326423132937e-06,0.00044924563470764855,2.0883439444672604e-06,-0.0005306728197395444,0.0013134024010978758,0.0003013537747186884,-0.00012454933871228096,-0.0012547332180221505,-0.08103066682815552,18.277124404907227,-1.0688202381134033,-18.047517776489258,-0.5047507882118225,-2.2424349784851074,0.20724813640117645,0
43,0.20501971244812012,0.08103066682815552,-18.277124404907227,1.0688202381134033,18.047517776489258,0.5047507882118225,2.2424349784851074,-0.20724813640117645,0.0,0.0,0.0,0.0,0.0,0.0,0.0,0.11908105136378637,0.3926074745846332,0.31749212873273913,0.3697294819219295,0.07576288595802023,0.05741659388678576,-0.18652341952600515,-0.6091622353394663,-0.05744329945194094,-0.6666440850562566,-2.5945570598736145,-0.055624538604318284,2.5079735676643984,0.8763190330310646,-0.6090851748156966,-0.05753196718556838,-0.666603097082616,-2.5945565370258534,-0.05562143941554,2.507976027223799,0.8763108487046415,-0.00044924563470764855,-2.0883439444672604e-06,0.0005306728197395444,-0.0013134024010978758,-0.0003013537747186884,0.00012454933871228096,0.0012547332180221505,0.0,0.0,0.0,0.0,0.0,0.0,0.0,7.706052376976746e-05,-8.866773362744412e-05,4.098797364060491e-05,5.228477610863536e-07,3.0991887782841343e-06,2.4595594005916155e-06,-8.184326423132937e-06,0.00044924563470764855,2.0883439444672604e-06,-0.0005306728197395444,0.0013134024010978758,0.0003013537747186884,-0.00012454933871228096,-0.0012547332180221505,-0.08103066682815552,18.277124404907227,-1.0688202381134033,-18.047517776489258,-0.5047507882118225,-2.2424349784851074,0.20724813640117645,0
44,0.21501779556274414,0.10880166292190552,-18.253320693969727,1.0926239490509033,17.972139358520508,0.5047507882118225,2.2488436698913574,-0.19351522624492645,0.0,0.0,0.0,0.0,0.0,0.0,0.0,0.12419986653850164,0.40243498268539535,0.32535550080831793,0.36676623446587814,0.07418837916058499,0.05745258385802037,-0.18649140840779135,-0.6091641812923826,-0.0574449698877962,-0.666645729491732,-2.5945517701600727,-0.05562454007068442,2.5079721123424363,0.8763176642962035,-0.6090851748156966,-0.05753196718556838,-0.666603097082616,-2.5945565370258534,-0.05562143941554,2.507976027223799,0.8763108487046415,-0.0006077206777627125,3.8247700475668e-05,-3.570427924252763e-05,0.0009703235661337027,-0.0002222598502638282,-0.0001091097209558808,0.00048761312868890314,0.0,0.0,0.0,0.0,0.0,0.0,0.0,7.900647668601657e-05,-8.699729777218029e-05,4.263240911595023e-05,-4.766865780769791e-06,3.1006551444168196e-06,3.9148813626432855e-06,-6.815591562014944e-06,0.0006077206777627125,-3.8247700475668e-05,3.570427924252763e-05,-0.0009703235661337027,0.0002222598502638282,0.0001091097209558808,-0.00048761312868890314,-0.10880166292190552,18.253320693969727,-1.0926239490509033,-17.972139358520508,-0.5047507882118225,-2.2488436698913574,0.19351522624492645,0
45,0.22001290321350098,0.10880166292190552,-18.253320693969727,1.0926239490509033,17.972139358520508,0.5047507882118225,2.2488436698913574,-0.19351522624492645,0.0,0.0,0.0,0.0,0.0,0.0,0.0,0.12419986653850164,0.40243498268539535,0.32535550080831793,0.36676623446587814,0.07418837916058499,0.05745258385802037,-0.18649140840779135,-0.6091641812923826,-0.0574449698877962,-0.666645729491732,-2.5945517701600727,-0.05562454007068442,2.5079721123424363,0.8763176642962035,-0.6090851748156966,-0.05753196718556838,-0.666603097082616,-2.5945565370258534,-0.05562143941554,2.507976027223799,0.8763108487046415,-0.0006077206777627125,3.8247700475668e-05,-3.570427924252763e-05,0.0009703235661337027,-0.0002222598502638282,-0.0001091097209558808,0.00048761312868890314,0.0,0.0,0.0,0.0,0.0,0.0,0.0,7.900647668601657e-05,-8.699729777218029e-05,4.263240911595023e-05,-4.766865780769791e-06,3.1006551444168196e-06,3.9148813626432855e-06,-6.815591562014944e-06,0.0006077206777627125,-3.8247700475668e-05,3.570427924252763e-05,-0.0009703235661337027,0.0002222598502638282,0.0001091097209558808,-0.00048761312868890314,-0.10880166292190552,18.253320693969727,-1.0926239490509033,-17.972139358520508,-0.5047507882118225,-2.2488436698913574,0.19351522624492645,0
46,0.22501707077026367,0.18418008089065552,-18.229516983032227,1.1164276599884033,17.972139358520508,0.5047507882118225,2.2360262870788574,-0.16604940593242645,0.0,0.0,0.0,0.0,0.0,0.0,0.0,0.12495013721374068,0.4047103644055796,0.32333403981962594,0.37141339699558107,0.07350607217423898,0.058626708019238485,-0.18673801216734864,-0.6091694738948391,-0.05744664032365147,-0.6666473999274405,-2.5945517701600727,-0.05562454007069269,2.507973536976403,0.8763145994034907,-0.6090851748156966,-0.05753196718556838,-0.666603097082616,-2.5945565370258534,-0.05562143941554,2.507976027223799,0.8763108487046415,-0.0010776552428257552,-0.0001097716754206485,0.00019575713927460483,0.0010399513257989333,-0.00024356344385275547,4.313896621832523e-06,-0.0002962813751091214,0.0,0.0,0.0,0.0,0.0,0.0,0.0,8.429907914253576e-05,-8.532686191691646e-05,4.430284482448421e-05,-4.766865780769791e-06,3.100655152687981e-06,2.490247395847689e-06,-3.750698849169787e-06,0.0010776552428257552,0.0001097716754206485,-0.00019575713927460483,-0.0010399513257989333,0.00024356344385275547,-4.313896621832523e-06,0.0002962813751091214,-0.18418008089065552,18.229516983032227,-1.1164276599884033,-17.972139358520508,-0.5047507882118225,-2.2360262870788574,0.16604940593242645,0
47,0.23002243041992188,0.18418008089065552,-18.229516983032227,1.1164276599884033,17.972139358520508,0.5047507882118225,2.2360262870788574,-0.16604940593242645,0.0,0.0,0.0,0.0,0.0,0.0,0.0,0.12495013721374068,0.4047103644055796,0.32333403981962594,0.37141339699558107,0.07350607217423898,0.058626708019238485,-0.18673801216734864,-0.6091694738948391,-0.05744664032365147,-0.6666473999274405,-2.5945517701600727,-0.05562454007069269,2.507973536976403,0.8763145994034907,-0.6090851748156966,-0.05753196718556838,-0.666603097082616,-2.5945565370258534,-0.05562143941554,2.507976027223799,0.8763108487046415,-0.0010776552428257552,-0.0001097716754206485,0.00019575713927460483,0.0010399513257989333,-0.00024356344385275547,4.313896621832523e-06,-0.0002962813751091214,0.0,0.0,0.0,0.0,0.0,0.0,0.0,8.429907914253576e-05,-8.532686191691646e-05,4.430284482448421e-05,-4.766865780769791e-06,3.100655152687981e-06,2.490247395847689e-06,-3.750698849169787e-06,0.0010776552428257552,0.0001097716754206485,-0.00019575713927460483,-0.0010399513257989333,0.00024356344385275547,-4.313896621832523e-06,0.0002962813751091214,-0.18418008089065552,18.229516983032227,-1.1164276599884033,-17.972139358520508,-0.5047507882118225,-2.2360262870788574,0.16604940593242645,0
48,0.23501086235046387,0.18418008089065552,-18.253320693969727,1.1441986560821533,17.999910354614258,0.4983420968055725,2.2296175956726074,-0.15231649577617645,0.0,0.0,0.0,0.0,0.0,0.0,0.0,0.13066585481137724,0.407467173016572,0.32294364908508316,0.36857869017622685,0.0737653792051619,0.057607470477626585,-0.18620375113176055,-0.6091694738948553,-0.0574449698877962,-0.6666515328011937,-2.5945537190019037,-0.055623473125475414,2.507977423660801,0.876313086175781,-0.6090851748156966,-0.05753196718556838,-0.666603097082616,-2.5945565370258534,-0.05562143941554,2.507976027223799,0.8763108487046415,0.0003349597152880334,0.00023292594574028514,0.0007059451906966758,-0.000647115001583917,-9.183037931833127e-06,0.00018286557924509876,-0.0007938982397827001,0.0,0.0,0.0,0.0,0.0,0.0,0.0,8.429907915874502e-05,-8.699729777218029e-05,4.8435718577710674e-05,-2.8180239497466175e-06,2.0337099354145183e-06,-1.3964370020325134e-06,-2.23747113947681e-06,-0.0003349597152880334,-0.00023292594574028514,-0.0007059451906966758,0.000647115001583917,9.183037931833127e-06,-0.00018286557924509876,0.0007938982397827001,-0.18418008089065552,18.253320693969727,-1.1441986560821533,-17.999910354614258,-0.4983420968055725,-2.2296175956726074,0.15231649577617645,0
49,0.24001264572143555,0.18418008089065552,-18.253320693969727,1.1441986560821533,17.999910354614258,0.4983420968055725,2.2296175956726074,-0.15231649577617645,0.0,0.0,0.0,0.0,0.0,0.0,0.0,0.13066585481137724,0.407467173016572,0.32294364908508316,0.36857869017622685,0.0737653792051619,0.057607470477626585,-0.18620375113176055,-0.6091694738948553,-0.0574449698877962,-0.6666515328011937,-2.5945537190019037,-0.055623473125475414,2.507977423660801,0.876313086175781,-0.6090851748156966,-0.05753196718556838,-0.666603097082616,-2.5945565370258534,-0.05562143941554,2.507976027223799,0.8763108487046415,0.0003349597152880334,0.00023292594574028514,0.0007059451906966758,-0.000647115001583917,-9.183037931833127e-06,0.00018286557924509876,-0.0007938982397827001,0.0,0.0,0.0,0.0,0.0,0.0,0.0,8.429907915874502e-05,-8.699729777218029e-05,4.8435718577710674e-05,-2.8180239497466175e-06,2.0337099354145183e-06,-1.3964370020325134e-06,-2.23747113947681e-06,-0.0003349597152880334,-0.00023292594574028514,-0.0007059451906966758,0.000647115001583917,9.183037931833127e-06,-0.00018286557924509876,0.0007938982397827001,-0.18418008089065552,18.253320693969727,-1.1441986560821533,-17.999910354614258,-0.4983420968055725,-2.2296175956726074,0.15231649577617645,0
50,0.2450106143951416,0.18418008089065552,-18.352502822875977,1.1164276599884033,17.972139358520508,0.4928489327430725,2.2360262870788574,-0.19351522624492645,0.0,0.0,0.0,0.0,0.0,0.0,0.0,0.12646386112204813,0.3945014831242415,0.31146193692647833,0.3741371677142383,0.07462018173876596,0.057337130857706683,-0.18520619077522044,-0.6091694738948553,-0.05743800973839927,-0.6666473999397694,-2.5945517701600727,-0.055622032798504494,2.507976841883069,0.8763176642432527,-0.6090851748156966,-0.05753196718556838,-0.666603097082616,-2.5945565370258534,-0.05562143941554,2.507976027223799,0.8763108487046415,-0.00020268892575407534,0.0012236357174577866,0.000556142522252858,0.0003053382080377094,5.405117881461077e-05,0.0002235872208873622,0.0006811163992391561,0.0,0.0,0.0,0.0,0.0,0.0,0.0,8.429907915874502e-05,-9.395744716911292e-05,4.430285715339988e-05,-4.766865780769791e-06,5.933829644935718e-07,-8.146592698210497e-07,-6.8155386112600524e-06,0.00020268892575407534,-0.0012236357174577866,-0.000556142522252858,-0.0003053382080377094,-5.405117881461077e-05,-0.0002235872208873622,-0.0006811163992391561,-0.18418008089065552,18.352502822875977,-1.1164276599884033,-17.972139358520508,-0.4928489327430725,-2.2360262870788574,0.19351522624492645,0
51,0.2500123977661133,0.18418008089065552,-18.352502822875977,1.1164276599884033,17.972139358520508,0.4928489327430725,2.2360262870788574,-0.19351522624492645,0.0,0.0,0.0,0.0,0.0,0.0,0.0,0.12646386112204813,0.3945014831242415,0.31146193692647833,0.3741371677142383,0.07462018173876596,0.057337130857706683,-0.18520619077522044,-0.6091694738948553,-0.05743800973839927,-0.6666473999397694,-2.5945517701600727,-0.055622032798504494,2.507976841883069,0.8763176642432527,-0.6090851748156966,-0.05753196718556838,-0.666603097082616,-2.5945565370258534,-0.05562143941554,2.507976027223799,0.8763108487046415,-0.00020268892575407534,0.0012236357174577866,0.000556142522252858,0.0003053382080377094,5.405117881461077e-05,0.0002235872208873622,0.0006811163992391561,0.0,0.0,0.0,0.0,0.0,0.0,0.0,8.429907915874502e-05,-9.395744716911292e-05,4.430285715339988e-05,-4.766865780769791e-06,5.933829644935718e-07,-8.146592698210497e-07,-6.8155386112600524e-06,0.00020268892575407534,-0.0012236357174577866,-0.000556142522252858,-0.0003053382080377094,-5.405117881461077e-05,-0.0002235872208873622,-0.0006811163992391561,-0.18418008089065552,18.352502822875977,-1.1164276599884033,-17.972139358520508,-0.4928489327430725,-2.2360262870788574,0.19351522624492645,0
52,0.255021333694458,0.08103066682815552,-18.304895401000977,1.0926239490509033,18.023714065551758,0.5102439522743225,2.2488436698913574,-0.17978231608867645,0.0,0.0,0.0,0.0,0.0,0.0,0.0,0.13196165520369477,0.3940384636536671,0.31000573516090796,0.3653176584566477,0.07378871261448951,0.057132894075825225,-0.18403453553634014,-0.6091622353394825,-0.0574413506101098,-0.6666457294915852,-2.594555389437759,-0.05562503213056092,2.5079754178958242,0.8763161379336675,-0.6090851748156966,-0.05753196718556838,-0.666603097082616,-2.5945565370258534,-0.05562143941554,2.507976027223799,0.8763108487046415,0.0010913620359360322,-0.0003306811100762698,0.0003536259233837784,-0.0005967789152651814,-0.0005084497440987929,-0.00024680889617757345,0.0003309294602884192,0.0,0.0,0.0,0.0,0.0,0.0,0.0,7.706052378597672e-05,-9.061657545858526e-05,4.263240896917875e-05,-1.147588094330132e-06,3.5927150209211223e-06,6.093279747432234e-07,-5.289229025984277e-06,-0.0010913620359360322,0.0003306811100762698,-0.0003536259233837784,0.0005967789152651814,0.0005084497440987929,0.00024680889617757345,-0.0003309294602884192,-0.08103066682815552,18.304895401000977,-1.0926239490509033,-18.023714065551758,-0.5102439522743225,-2.2488436698913574,0.17978231608867645,0
53,0.26004743576049805,0.08103066682815552,-18.304895401000977,1.0926239490509033,18.023714065551758,0.5102439522743225,2.2488436698913574,-0.17978231608867645,0.0,0.0,0.0,0.0,0.0,0.0,0.0,0.13196165520369477,0.3940384636536671,0.31000573516090796,0.3653176584566477,0.07378871261448951,0.057132894075825225,-0.18403453553634014,-0.6091622353394825,-0.0574413506101098,-0.6666457294915852,-2.594555389437759,-0.05562503213056092,2.5079754178958242,0.8763161379336675,-0.6090851748156966,-0.05753196718556838,-0.666603097082616,-2.5945565370258534,-0.05562143941554,2.507976027223799,0.8763108487046415,0.0010913620359360322,-0.0003306811100762698,0.0003536259233837784,-0.0005967789152651814,-0.0005084497440987929,-0.00024680889617757345,0.0003309294602884192,0.0,0.0,0.0,0.0,0.0,0.0,0.0,7.706052378597672e-05,-9.061657545858526e-05,4.263240896917875e-05,-1.147588094330132e-06,3.5927150209211223e-06,6.093279747432234e-07,-5.289229025984277e-06,-0.0010913620359360322,0.0003306811100762698,-0.0003536259233837784,0.0005967789152651814,0.0005084497440987929,0.00024680889617757345,-0.0003309294602884192,-0.08103066682815552,18.304895401000977,-1.0926239490509033,-18.023714065551758,-0.5102439522743225,-2.2488436698913574,0.17978231608867645,0
54,0.265017032623291,0.10880166292190552,-18.253320693969727,1.1164276599884033,18.047517776489258,0.5047507882118225,2.2552523612976074,-0.15231649577617645,0.0,0.0,0.0,0.0,0.0,0.0,0.0,0.13281608728508262,0.3869692997442223,0.3118476280062817,0.36317471931865397,0.07356982791333203,0.05836319935367122,-0.18295810287512623,-0.6091641841813137,-0.0574449698877962,-0.6666474002484328,-2.5945570597605605,-0.05562440863728628,2.5079721042829135,0.8763130692177662,-0.6090851748156966,-0.05753196718556838,-0.666603097082616,-2.5945565370258534,-0.05562143941554,2.507976027223799,0.8763108487046415,-0.0007483232430955445,-0.0010701288840713875,-0.0004716003164801847,-0.0013238031567182455,-0.00028835993217690063,-0.0004712821453374928,-0.0007512972750647893,0.0,0.0,0.0,0.0,0.0,0.0,0.0,7.900936561711092e-05,-8.699729777218029e-05,4.430316581682803e-05,5.22734707075756e-07,2.96922174627956e-06,3.922940885470183e-06,-2.2205131247066134e-06,0.0007483232430955445,0.0010701288840713875,0.0004716003164801847,0.0013238031567182455,0.00028835993217690063,0.0004712821453374928,0.0007512972750647893,-0.10880166292190552,18.253320693969727,-1.1164276599884033,-18.047517776489258,-0.5047507882118225,-2.2552523612976074,0.15231649577617645,0
55,0.2700204849243164,0.10880166292190552,-18.253320693969727,1.1164276599884033,18.047517776489258,0.5047507882118225,2.2552523612976074,-0.15231649577617645,0.0,0.0,0.0,0.0,0.0,0.0,0.0,0.13281608728508262,0.3869692997442223,0.3118476280062817,0.36317471931865397,0.07356982791333203,0.05836319935367122,-0.18295810287512623,-0.6091641841813137,-0.0574449698877962,-0.6666474002484328,-2.5945570597605605,-0.05562440863728628,2.5079721042829135,0.8763130692177662,-0.6090851748156966,-0.05753196718556838,-0.666603097082616,-2.5945565370258534,-0.05562143941554,2.507976027223799,0.8763108487046415,-0.0007483232430955445,-0.0010701288840713875,-0.0004716003164801847,-0.0013238031567182455,-0.00028835993217690063,-0.0004712821453374928,-0.0007512972750647893,0.0,0.0,0.0,0.0,0.0,0.0,0.0,7.900936561711092e-05,-8.699729777218029e-05,4.430316581682803e-05,5.22734707075756e-07,2.96922174627956e-06,3.922940885470183e-06,-2.2205131247066134e-06,0.0007483232430955445,0.0010701288840713875,0.0004716003164801847,0.0013238031567182455,0.00028835993217690063,0.0004712821453374928,0.0007512972750647893,-0.10880166292190552,18.253320693969727,-1.1164276599884033,-18.047517776489258,-0.5047507882118225,-2.2552523612976074,0.15231649577617645,0
56,0.27501487731933594,0.13260537385940552,-18.229516983032227,1.1441986560821533,17.999910354614258,0.4864402413368225,2.2424349784851074,-0.16604940593242645,0.0,0.0,0.0,0.0,0.0,0.0,0.0,0.13779594054985514,0.3941492971632213,0.3214091036785965,0.35873806419029597,0.07323920078355439,0.05832626635851135,-0.18251403389978274,-0.6091658546171689,-0.05744664032365147,-0.6666493516582045,-2.5945537190019032,-0.055622501021388486,2.5079725860367974,0.8763145731318174,-0.6090851748156966,-0.05753196718556838,-0.666603097082616,-2.5945565370258534,-0.05562143941554,2.507976027223799,0.8763108487046415,-0.0006053586485626988,-0.00043248196231526585,-0.00032411808690474336,-0.0002926025056065451,0.00047399752268946385,0.00010779433138329832,-0.0004803458056892097,0.0,0.0,0.0,0.0,0.0,0.0,0.0,8.067980147230536e-05,-8.532686191691646e-05,4.625457558848911e-05,-2.8180239501907067e-06,1.0616058484860802e-06,3.441187001573809e-06,-3.7244271758885006e-06,0.0006053586485626988,0.00043248196231526585,0.00032411808690474336,0.0002926025056065451,-0.00047399752268946385,-0.00010779433138329832,0.0004803458056892097,-0.13260537385940552,18.229516983032227,-1.1441986560821533,-17.999910354614258,-0.4864402413368225,-2.2424349784851074,0.16604940593242645,0
57,0.28017616271972656,0.13260537385940552,-18.229516983032227,1.1441986560821533,17.999910354614258,0.4864402413368225,2.2424349784851074,-0.16604940593242645,0.0,0.0,0.0,0.0,0.0,0.0,0.0,0.13779594054985514,0.3941492971632213,0.3214091036785965,0.35873806419029597,0.07323920078355439,0.05832626635851135,-0.18251403389978274,-0.6091658546171689,-0.05744664032365147,-0.6666493516582045,-2.5945537190019032,-0.055622501021388486,2.5079725860367974,0.8763145731318174,-0.6090851748156966,-0.05753196718556838,-0.666603097082616,-2.5945565370258534,-0.05562143941554,2.507976027223799,0.8763108487046415,-0.0006053586485626988,-0.00043248196231526585,-0.00032411808690474336,-0.0002926025056065451,0.00047399752268946385,0.00010779433138329832,-0.0004803458056892097,0.0,0.0,0.0,0.0,0.0,0.0,0.0,8.067980147230536e-05,-8.532686191691646e-05,4.625457558848911e-05,-2.8180239501907067e-06,1.0616058484860802e-06,3.441187001573809e-06,-3.7244271758885006e-06,0.0006053586485626988,0.00043248196231526585,0.00032411808690474336,0.0002926025056065451,-0.00047399752268946385,-0.00010779433138329832,0.0004803458056892097,-0.13260537385940552,18.229516983032227,-1.1441986560821533,-17.999910354614258,-0.4864402413368225,-2.2424349784851074,0.16604940593242645,0
58,0.2849693298339844,0.13260537385940552,-18.229516983032227,1.1680023670196533,18.023714065551758,0.5047507882118225,2.2296175956726074,-0.18710653483867645,0.0,0.0,0.0,0.0,0.0,0.0,0.0,0.13491204445817462,0.3996718009171503,0.3209447765078945,0.35995670266847174,0.07302959617011784,0.05829686318420412,-0.1830937620933465,-0.6091658517282378,-0.05744664032365147,-0.6666517212154037,-2.5945553863853035,-0.055624538610303274,2.50797404819277,0.87631695216621,-0.6090851748156966,-0.05753196718556838,-0.666603097082616,-2.5945565370258534,-0.05562143941554,2.507976027223799,0.8763108487046415,0.0005840571960776415,0.0003651613430627309,-0.00026201607411801235,-0.001266631805786938,-0.0004055218094932028,-2.9588864151923333e-05,-0.00029154651225776616,0.0,0.0,0.0,0.0,0.0,0.0,0.0,8.067691254121101e-05,-8.532686191691646e-05,4.8624132787722374e-05,-1.1506405499517314e-06,3.0991947632744155e-06,1.979031028831457e-06,-6.10346156848518e-06,-0.0005840571960776415,-0.0003651613430627309,0.00026201607411801235,0.001266631805786938,0.0004055218094932028,2.9588864151923333e-05,0.00029154651225776616,-0.13260537385940552,18.229516983032227,-1.1680023670196533,-18.023714065551758,-0.5047507882118225,-2.2296175956726074,0.18710653483867645,0
59,0.29001522064208984,0.13260537385940552,-18.229516983032227,1.1680023670196533,18.023714065551758,0.5047507882118225,2.2296175956726074,-0.18710653483867645,0.0,0.0,0.0,0.0,0.0,0.0,0.0,0.13491204445817462,0.3996718009171503,0.3209447765078945,0.35995670266847174,0.07302959617011784,0.05829686318420412,-0.1830937620933465,-0.6091658517282378,-0.05744664032365147,-0.6666517212154037,-2.5945553863853035,-0.055624538610303274,2.50797404819277,0.87631695216621,-0.6090851748156966,-0.05753196718556838,-0.666603097082616,-2.5945565370258534,-0.05562143941554,2.507976027223799,0.8763108487046415,0.0005840571960776415,0.0003651613430627309,-0.00026201607411801235,-0.001266631805786938,-0.0004055218094932028,-2.9588864151923333e-05,-0.00029154651225776616,0.0,0.0,0.0,0.0,0.0,0.0,0.0,8.067691254121101e-05,-8.532686191691646e-05,4.8624132787722374e-05,-1.1506405499517314e-06,3.0991947632744155e-06,1.979031028831457e-06,-6.10346156848518e-06,-0.0005840571960776415,-0.0003651613430627309,0.00026201607411801235,0.001266631805786938,0.0004055218094932028,2.9588864151923333e-05,0.00029154651225776616,-0.13260537385940552,18.229516983032227,-1.1680023670196533,-18.023714065551758,-0.5047507882118225,-2.2296175956726074,0.18710653483867645,0
60,0.2950124740600586,0.18418008089065552,-18.229516983032227,1.1164276599884033,17.999910354614258,0.4983420968055725,2.2424349784851074,-0.15964071452617645,0.0,0.0,0.0,0.0,0.0,0.0,0.0,0.13676068649342618,0.40434877951780773,0.3249809285592835,0.36341506365984994,0.07320862432067707,0.05668466584589677,-0.18411515861564165,-0.6091694738948391,-0.05744664032365147,-0.6666495059621854,-2.5945537190018864,-0.05562382647941022,2.5079767102920916,0.8763124876116156,-0.6090851748156966,-0.05753196718556838,-0.666603097082616,-2.5945565370258534,-0.05562143941554,2.507976027223799,0.8763108487046415,-7.943827120191755e-06,0.0001110973960278475,0.0015828084938328928,-0.0005864188050151152,2.9775466495761073e-05,-0.00033771905715593206,-0.001635727169101437,0.0,0.0,0.0,0.0,0.0,0.0,0.0,8.429907914253576e-05,-8.532686191691646e-05,4.6408879569415085e-05,-2.8180239670660967e-06,2.38706387022114e-06,-6.830682925951237e-07,-1.6389069741329365e-06,7.943827120191755e-06,-0.0001110973960278475,-0.0015828084938328928,0.0005864188050151152,-2.9775466495761073e-05,0.00033771905715593206,0.001635727169101437,-0.18418008089065552,18.229516983032227,-1.1164276599884033,-17.999910354614258,-0.4983420968055725,-2.2424349784851074,0.15964071452617645,0
61,0.30001378059387207,0.18418008089065552,-18.229516983032227,1.1164276599884033,17.999910354614258,0.4983420968055725,2.2424349784851074,-0.15964071452617645,0.0,0.0,0.0,0.0,0.0,0.0,0.0,0.13676068649342618,0.40434877951780773,0.3249809285592835,0.36341506365984994,0.07320862432067707,0.05668466584589677,-0.18411515861564165,-0.6091694738948391,-0.05744664032365147,-0.6666495059621854,-2.5945537190018864,-0.05562382647941022,2.5079767102920916,0.8763124876116156,-0.6090851748156966,-0.05753196718556838,-0.666603097082616,-2.5945565370258534,-0.05562143941554,2.507976027223799,0.8763108487046415,-7.943827120191755e-06,0.0001110973960278475,0.0015828084938328928,-0.0005864188050151152,2.9775466495761073e-05,-0.00033771905715593206,-0.001635727169101437,0.0,0.0,0.0,0.0,0.0,0.0,0.0,8.429907914253576e-05,-8.532686191691646e-05,4.6408879569415085e-05,-2.8180239670660967e-06,2.38706387022114e-06,-6.830682925951237e-07,-1.6389069741329365e-06,7.943827120191755e-06,-0.0001110973960278475,-0.0015828084938328928,0.0005864188050151152,-2.9775466495761073e-05,0.00033771905715593206,0.001635727169101437,-0.18418008089065552,18.229516983032227,-1.1164276599884033,-17.999910354614258,-0.4983420968055725,-2.2424349784851074,0.15964071452617645,0
62,0.30501556396484375,0.13260537385940552,-18.304895401000977,1.0926239490509033,18.023714065551758,0.4983420968055725,2.2488436698913574,-0.17978231608867645,0.0,0.0,0.0,0.0,0.0,0.0,0.0,0.11789463917055998,0.3973423009489946,0.3062086740030103,0.3705429522144363,0.07478599002294264,0.0567367914753031,-0.18499551531546404,-0.6091658546171689,-0.0574413506101098,-0.6666457295034738,-2.594555389437759,-0.05562382653349746,2.5079732069373466,0.8763150395262227,-0.6090851748156966,-0.05753196718556838,-0.666603097082616,-2.5945565370258534,-0.05562143941554,2.507976027223799,0.8763108487046415,-0.0006745796520695076,0.0004462417323994629,0.0005516718425294896,-0.0002534877756548005,5.497360584487498e-05,-0.00019248030518464852,-0.0009774142948804345,0.0,0.0,0.0,0.0,0.0,0.0,0.0,8.067980147230536e-05,-9.061657545858526e-05,4.263242085777996e-05,-1.147588094330132e-06,2.38711795746277e-06,2.8202864523763083e-06,-4.190821581206983e-06,0.0006745796520695076,-0.0004462417323994629,-0.0005516718425294896,0.0002534877756548005,-5.497360584487498e-05,0.00019248030518464852,0.0009774142948804345,-0.13260537385940552,18.304895401000977,-1.0926239490509033,-18.023714065551758,-0.4983420968055725,-2.2488436698913574,0.17978231608867645,0
63,0.310011625289917,0.13260537385940552,-18.304895401000977,1.0926239490509033,18.023714065551758,0.4983420968055725,2.2488436698913574,-0.17978231608867645,0.0,0.0,0.0,0.0,0.0,0.0,0.0,0.11789463917055998,0.3973423009489946,0.3062086740030103,0.3705429522144363,0.07478599002294264,0.0567367914753031,-0.18499551531546404,-0.6091658546171689,-0.0574413506101098,-0.6666457295034738,-2.594555389437759,-0.05562382653349746,2.5079732069373466,0.8763150395262227,-0.6090851748156966,-0.05753196718556838,-0.666603097082616,-2.5945565370258534,-0.05562143941554,2.507976027223799,0.8763108487046415,-0.0006745796520695076,0.0004462417323994629,0.0005516718425294896,-0.0002534877756548005,5.497360584487498e-05,-0.00019248030518464852,-0.0009774142948804345,0.0,0.0,0.0,0.0,0.0,0.0,0.0,8.067980147230536e-05,-9.061657545858526e-05,4.263242085777996e-05,-1.147588094330132e-06,2.38711795746277e-06,2.8202864523763083e-06,-4.190821581206983e-06,0.0006745796520695076,-0.0004462417323994629,-0.0005516718425294896,0.0002534877756548005,-5.497360584487498e-05,0.00019248030518464852,0.0009774142948804345,-0.13260537385940552,18.304895401000977,-1.0926239490509033,-18.023714065551758,-0.4983420968055725,-2.2488436698913574,0.17978231608867645,0
64,0.31501340866088867,0.13260537385940552,-18.304895401000977,1.0926239490509033,18.023714065551758,0.4983420968055725,2.2488436698913574,-0.17978231608867645,0.0,0.0,0.0,0.0,0.0,0.0,0.0,0.11789463917055998,0.3973423009489946,0.3062086740030103,0.3705429522144363,0.07478599002294264,0.0567367914753031,-0.18499551531546404,-0.6091658546171689,-0.0574413506101098,-0.6666457295034738,-2.594555389437759,-0.05562382653349746,2.5079732069373466,0.8763150395262227,-0.6090851748156966,-0.05753196718556838,-0.666603097082616,-2.5945565370258534,-0.05562143941554,2.507976027223799,0.8763108487046415,-0.0006745796520695076,0.0004462417323994629,0.0005516718425294896,-0.0002534877756548005,5.497360584487498e-05,-0.00019248030518464852,-0.0009774142948804345,0.0,0.0,0.0,0.0,0.0,0.0,0.0,8.067980147230536e-05,-9.061657545858526e-05,4.263242085777996e-05,-1.147588094330132e-06,2.38711795746277e-06,2.8202864523763083e-06,-4.190821581206983e-06,0.0006745796520695076,-0.0004462417323994629,-0.0005516718425294896,0.0002534877756548005,-5.497360584487498e-05,0.00019248030518464852,0.0009774142948804345,-0.13260537385940552,18.304895401000977,-1.0926239490509033,-18.023714065551758,-0.4983420968055725,-2.2488436698913574,0.17978231608867645,0
65,0.32001709938049316,0.13260537385940552,-18.304895401000977,1.0926239490509033,18.023714065551758,0.4983420968055725,2.2488436698913574,-0.17978231608867645,0.0,0.0,0.0,0.0,0.0,0.0,0.0,0.11789463917055998,0.3973423009489946,0.3062086740030103,0.3705429522144363,0.07478599002294264,0.0567367914753031,-0.18499551531546404,-0.6091658546171689,-0.0574413506101098,-0.6666457295034738,-2.594555389437759,-0.05562382653349746,2.5079732069373466,0.8763150395262227,-0.6090851748156966,-0.05753196718556838,-0.666603097082616,-2.5945565370258534,-0.05562143941554,2.507976027223799,0.8763108487046415,-0.0006745796520695076,0.0004462417323994629,0.0005516718425294896,-0.0002534877756548005,5.497360584487498e-05,-0.00019248030518464852,-0.0009774142948804345,0.0,0.0,0.0,0.0,0.0,0.0,0.0,8.067980147230536e-05,-9.061657545858526e-05,4.263242085777996e-05,-1.147588094330132e-06,2.38711795746277e-06,2.8202864523763083e-06,-4.190821581206983e-06,0.0006745796520695076,-0.0004462417323994629,-0.0005516718425294896,0.0002534877756548005,-5.497360584487498e-05,0.00019248030518464852,0.0009774142948804345,-0.13260537385940552,18.304895401000977,-1.0926239490509033,-18.023714065551758,-0.4983420968055725,-2.2488436698913574,0.17978231608867645,0
66,0.32501649856567383,0.10880166292190552,-18.328699111938477,1.0926239490509033,17.972139358520508,0.4983420968055725,2.2488436698913574,-0.22830526530742645,0.0,0.0,0.0,0.0,0.0,0.0,0.0,0.13128993543250522,0.39941501942326757,0.32078786620811345,0.3687180033482204,0.07378413624628315,0.05737154095377971,-0.1851411062074876,-0.6091641841813137,-0.057439680174254534,-0.6666457294915852,-2.5945517701600727,-0.055623827831598895,2.5079721254263716,0.876321529850783,-0.6090851748156966,-0.05753196718556838,-0.666603097082616,-2.5945565370258534,-0.05562143941554,2.507976027223799,0.8763108487046415,-6.953795144031791e-05,0.0005008761987453263,0.0006190228536184512,0.0014009052355943592,-1.7832074097950826e-05,7.402546494949915e-05,0.0017358539948570928,0.0,0.0,0.0,0.0,0.0,0.0,0.0,7.900936561711092e-05,-9.228701131384909e-05,4.263240896917875e-05,-4.766865780769791e-06,2.3884160588946712e-06,3.901797427374731e-06,-1.0681146141555686e-05,6.953795144031791e-05,-0.0005008761987453263,-0.0006190228536184512,-0.0014009052355943592,1.7832074097950826e-05,-7.402546494949915e-05,-0.0017358539948570928,-0.10880166292190552,18.328699111938477,-1.0926239490509033,-17.972139358520508,-0.4983420968055725,-2.2488436698913574,0.22830526530742645,0
67,0.3300192356109619,0.10880166292190552,-18.328699111938477,1.0926239490509033,17.972139358520508,0.4983420968055725,2.2488436698913574,-0.22830526530742645,0.0,0.0,0.0,0.0,0.0,0.0,0.0,0.13128993543250522,0.39941501942326757,0.32078786620811345,0.3687180033482204,0.07378413624628315,0.05737154095377971,-0.1851411062074876,-0.6091641841813137,-0.057439680174254534,-0.6666457294915852,-2.5945517701600727,-0.055623827831598895,2.5079721254263716,0.876321529850783,-0.6090851748156966,-0.05753196718556838,-0.666603097082616,-2.5945565370258534,-0.05562143941554,2.507976027223799,0.8763108487046415,-6.953795144031791e-05,0.0005008761987453263,0.0006190228536184512,0.0014009052355943592,-1.7832074097950826e-05,7.402546494949915e-05,0.0017358539948570928,0.0,0.0,0.0,0.0,0.0,0.0,0.0,7.900936561711092e-05,-9.228701131384909e-05,4.263240896917875e-05,-4.766865780769791e-06,2.3884160588946712e-06,3.901797427374731e-06,-1.0681146141555686e-05,6.953795144031791e-05,-0.0005008761987453263,-0.0006190228536184512,-0.0014009052355943592,1.7832074097950826e-05,-7.402546494949915e-05,-0.0017358539948570928,-0.10880166292190552,18.328699111938477,-1.0926239490509033,-17.972139358520508,-0.4983420968055725,-2.2488436698913574,0.22830526530742645,0
68,0.3350248336791992,0.13260537385940552,-18.328699111938477,1.1441986560821533,17.972139358520508,0.4983420968055725,2.2424349784851074,-0.20724813640117645,0.0,0.0,0.0,0.0,0.0,0.0,0.0,0.12737354963228428,0.3861035781395963,0.31627297852205827,0.36607090795549996,0.07347534675797775,0.05726345328551213,-0.18570133360589305,-0.6091658546171689,-0.057439680174254534,-0.6666493487692716,-2.5945517701600727,-0.05562382783160622,2.5079724670032824,0.8763191901759968,-0.6090851748156966,-0.05753196718556838,-0.666603097082616,-2.5945565370258534,-0.05562143941554,2.507976027223799,0.8763108487046415,-0.00038660901006952757,6.408282406984962e-06,-0.0011732435002551772,0.000510256605729179,-0.00015736013342874903,3.286463723970481e-05,0.0004423204976449563,0.0,0.0,0.0,0.0,0.0,0.0,0.0,8.067980147230536e-05,-9.228701131384909e-05,4.625168665561841e-05,-4.766865780769791e-06,2.388416066222143e-06,3.5602205166185286e-06,-8.341471355310937e-06,0.00038660901006952757,-6.408282406984962e-06,0.0011732435002551772,-0.000510256605729179,0.00015736013342874903,-3.286463723970481e-05,-0.0004423204976449563,-0.13260537385940552,18.328699111938477,-1.1441986560821533,-17.972139358520508,-0.4983420968055725,-2.2424349784851074,0.20724813640117645,0
69,0.34001946449279785,0.13260537385940552,-18.328699111938477,1.1441986560821533,17.972139358520508,0.4983420968055725,2.2424349784851074,-0.20724813640117645,0.0,0.0,0.0,0.0,0.0,0.0,0.0,0.12737354963228428,0.3861035781395963,0.31627297852205827,0.36607090795549996,0.07347534675797775,0.05726345328551213,-0.18570133360589305,-0.6091658546171689,-0.057439680174254534,-0.6666493487692716,-2.5945517701600727,-0.05562382783160622,2.5079724670032824,0.8763191901759968,-0.6090851748156966,-0.05753196718556838,-0.666603097082616,-2.5945565370258534,-0.05562143941554,2.507976027223799,0.8763108487046415,-0.00038660901006952757,6.408282406984962e-06,-0.0011732435002551772,0.000510256605729179,-0.00015736013342874903,3.286463723970481e-05,0.0004423204976449563,0.0,0.0,0.0,0.0,0.0,0.0,0.0,8.067980147230536e-05,-9.228701131384909e-05,4.625168665561841e-05,-4.766865780769791e-06,2.388416066222143e-06,3.5602205166185286e-06,-8.341471355310937e-06,0.00038660901006952757,-6.408282406984962e-06,0.0011732435002551772,-0.000510256605729179,0.00015736013342874903,-3.286463723970481e-05,-0.0004423204976449563,-0.13260537385940552,18.328699111938477,-1.1441986560821533,-17.972139358520508,-0.4983420968055725,-2.2424349784851074,0.20724813640117645,0
70,0.3450150489807129,0.13260537385940552,-18.304895401000977,1.0926239490509033,17.999910354614258,0.4928489327430725,2.2424349784851074,-0.22830526530742645,0.0,0.0,0.0,0.0,0.0,0.0,0.0,0.13912636897758268,0.3942933526773176,0.32614447350624376,0.35959918939224506,0.072578202630127,0.05655393584374545,-0.18711109368630835,-0.6091658546171689,-0.0574413506101098,-0.6666457294915852,-2.5945537190019037,-0.05562211360730169,2.507972519167494,0.8763215298569863,-0.6090851748156966,-0.05753196718556838,-0.666603097082616,-2.5945565370258534,-0.05562143941554,2.507976027223799,0.8763108487046415,0.0004865217637843095,0.0016748994479460397,0.0018148517607689168,-0.00043934270778169,0.00015865442624462544,-0.00025103528969623254,0.001723863841476581,0.0,0.0,0.0,0.0,0.0,0.0,0.0,8.067980147230536e-05,-9.061657545858526e-05,4.263240896917875e-05,-2.8180239497466175e-06,6.741917616889803e-07,3.5080563050016167e-06,-1.0681152344815814e-05,-0.0004865217637843095,-0.0016748994479460397,-0.0018148517607689168,0.00043934270778169,-0.00015865442624462544,0.00025103528969623254,-0.001723863841476581,-0.13260537385940552,18.304895401000977,-1.0926239490509033,-17.999910354614258,-0.4928489327430725,-2.2424349784851074,0.22830526530742645,0
71,0.35001444816589355,0.13260537385940552,-18.304895401000977,1.0926239490509033,17.999910354614258,0.4928489327430725,2.2424349784851074,-0.22830526530742645,0.0,0.0,0.0,0.0,0.0,0.0,0.0,0.13912636897758268,0.3942933526773176,0.32614447350624376,0.35959918939224506,0.072578202630127,0.05655393584374545,-0.18711109368630835,-0.6091658546171689,-0.0574413506101098,-0.6666457294915852,-2.5945537190019037,-0.05562211360730169,2.507972519167494,0.8763215298569863,-0.6090851748156966,-0.05753196718556838,-0.666603097082616,-2.5945565370258534,-0.05562143941554,2.507976027223799,0.8763108487046415,0.0004865217637843095,0.0016748994479460397,0.0018148517607689168,-0.00043934270778169,0.00015865442624462544,-0.00025103528969623254,0.001723863841476581,0.0,0.0,0.0,0.0,0.0,0.0,0.0,8.067980147230536e-05,-9.061657545858526e-05,4.263240896917875e-05,-2.8180239497466175e-06,6.741917616889803e-07,3.5080563050016167e-06,-1.0681152344815814e-05,-0.0004865217637843095,-0.0016748994479460397,-0.0018148517607689168,0.00043934270778169,-0.00015865442624462544,0.00025103528969623254,-0.001723863841476581,-0.13260537385940552,18.304895401000977,-1.0926239490509033,-17.999910354614258,-0.4928489327430725,-2.2424349784851074,0.22830526530742645,0
72,0.3550148010253906,0.18418008089065552,-18.229516983032227,1.1164276599884033,18.023714065551758,0.4928489327430725,2.2296175956726074,-0.19351522624492645,0.0,0.0,0.0,0.0,0.0,0.0,0.0,0.13360697806020877,0.39265128425830176,0.32136615758248027,0.3621165932857537,0.07282985444804366,0.0563515568161067,-0.1881649927316965,-0.6091694738948553,-0.05744664032365147,-0.6666481019377012,-2.594555389437759,-0.055623086203336315,2.5079771881301,0.8763144853827025,-0.6090851748156966,-0.05753196718556838,-0.666603097082616,-2.5945565370258534,-0.05562143941554,2.507976027223799,0.8763108487046415,-0.0007447404506445805,0.00031787827024707885,0.0007596428970643764,-0.000747781218478018,1.9438171960475352e-05,-6.291224329297592e-05,0.0006124681976629948,0.0,0.0,0.0,0.0,0.0,0.0,0.0,8.429907915874502e-05,-8.532686191691646e-05,4.500485508518448e-05,-1.147588094330132e-06,1.6467877963152744e-06,-1.1609063008677367e-06,-3.6366780610253002e-06,0.0007447404506445805,-0.00031787827024707885,-0.0007596428970643764,0.000747781218478018,-1.9438171960475352e-05,6.291224329297592e-05,-0.0006124681976629948,-0.18418008089065552,18.229516983032227,-1.1164276599884033,-18.023714065551758,-0.4928489327430725,-2.2296175956726074,0.19351522624492645,0
73,0.36002206802368164,0.18418008089065552,-18.229516983032227,1.1164276599884033,18.023714065551758,0.4928489327430725,2.2296175956726074,-0.19351522624492645,0.0,0.0,0.0,0.0,0.0,0.0,0.0,0.13360697806020877,0.39265128425830176,0.32136615758248027,0.3621165932857537,0.07282985444804366,0.0563515568161067,-0.1881649927316965,-0.6091694738948553,-0.05744664032365147,-0.6666481019377012,-2.594555389437759,-0.055623086203336315,2.5079771881301,0.8763144853827025,-0.6090851748156966,-0.05753196718556838,-0.666603097082616,-2.5945565370258534,-0.05562143941554,2.507976027223799,0.8763108487046415,-0.0007447404506445805,0.00031787827024707885,0.0007596428970643764,-0.000747781218478018,1.9438171960475352e-05,-6.291224329297592e-05,0.0006124681976629948,0.0,0.0,0.0,0.0,0.0,0.0,0.0,8.429907915874502e-05,-8.532686191691646e-05,4.500485508518448e-05,-1.147588094330132e-06,1.6467877963152744e-06,-1.1609063008677367e-06,-3.6366780610253002e-06,0.0007447404506445805,-0.00031787827024707885,-0.0007596428970643764,0.000747781218478018,-1.9438171960475352e-05,6.291224329297592e-05,-0.0006124681976629948,-0.18418008089065552,18.229516983032227,-1.1164276599884033,-18.023714065551758,-0.4928489327430725,-2.2296175956726074,0.19351522624492645,0
74,0.36501383781433105,0.18418008089065552,-18.205713272094727,1.1680023670196533,18.047517776489258,0.4864402413368225,2.2488436698913574,-0.20724813640117645,0.0,0.0,0.0,0.0,0.0,0.0,0.0,0.13395042271493954,0.39681064927516263,0.32003341364949583,0.36688169969780804,0.07271815244938165,0.056329114285780676,-0.18764932799661202,-0.6091694738948553,-0.05744831075950673,-0.6666510193160871,-2.5945570598736145,-0.05562144095955931,2.507971767863426,0.8763191901580518,-0.6090851748156966,-0.05753196718556838,-0.666603097082616,-2.5945565370258534,-0.05562143941554,2.507976027223799,0.8763108487046415,-0.0007784426292778124,-5.017464399617345e-05,-0.0006962136576840427,-0.001344746112073514,0.0005156747457245258,-0.0001394067902075057,0.0012282243257177848,0.0,0.0,0.0,0.0,0.0,0.0,0.0,8.429907915874502e-05,-8.365642606165263e-05,4.792223347105384e-05,5.228477610863536e-07,1.544019308241662e-09,4.25936037284913e-06,-8.3414534103321e-06,0.0007784426292778124,5.017464399617345e-05,0.0006962136576840427,0.001344746112073514,-0.0005156747457245258,0.0001394067902075057,-0.0012282243257177848,-0.18418008089065552,18.205713272094727,-1.1680023670196533,-18.047517776489258,-0.4864402413368225,-2.2488436698913574,0.20724813640117645,0
75,0.3701608180999756,0.18418008089065552,-18.205713272094727,1.1680023670196533,18.047517776489258,0.4864402413368225,2.2488436698913574,-0.20724813640117645,0.0,0.0,0.0,0.0,0.0,0.0,0.0,0.13395042271493954,0.39681064927516263,0.32003341364949583,0.36688169969780804,0.07271815244938165,0.056329114285780676,-0.18764932799661202,-0.6091694738948553,-0.05744831075950673,-0.6666510193160871,-2.5945570598736145,-0.05562144095955931,2.507971767863426,0.8763191901580518,-0.6090851748156966,-0.05753196718556838,-0.666603097082616,-2.5945565370258534,-0.05562143941554,2.507976027223799,0.8763108487046415,-0.0007784426292778124,-5.017464399617345e-05,-0.0006962136576840427,-0.001344746112073514,0.0005156747457245258,-0.0001394067902075057,0.0012282243257177848,0.0,0.0,0.0,0.0,0.0,0.0,0.0,8.429907915874502e-05,-8.365642606165263e-05,4.792223347105384e-05,5.228477610863536e-07,1.544019308241662e-09,4.25936037284913e-06,-8.3414534103321e-06,0.0007784426292778124,5.017464399617345e-05,0.0006962136576840427,0.001344746112073514,-0.0005156747457245258,0.0001394067902075057,-0.0012282243257177848,-0.18418008089065552,18.205713272094727,-1.1680023670196533,-18.047517776489258,-0.4864402413368225,-2.2488436698913574,0.20724813640117645,0
76,0.3750150203704834,0.13260537385940552,-18.277124404907227,1.1680023670196533,17.999910354614258,0.5047507882118225,2.2360262870788574,-0.19351522624492645,0.0,0.0,0.0,0.0,0.0,0.0,0.0,0.13913498458447093,0.40181433690314183,0.32304683740787715,0.370570413789086,0.07314730956685342,0.057192338043625106,-0.18662086924201798,-0.6091658546171689,-0.05744330237493964,-0.666651279315925,-2.5945537190019037,-0.05562454006468296,2.507974239254568,0.8763173110843807,-0.6090851748156966,-0.05753196718556838,-0.666603097082616,-2.5945565370258534,-0.05562143941554,2.507976027223799,0.8763108487046415,0.0008281985653214313,0.0007421596172484178,1.7552585006252212e-05,-0.0003375270681039742,-0.00027977021865536306,0.0003358939252496916,0.0005637164575069084,0.0,0.0,0.0,0.0,0.0,0.0,0.0,8.067980147230536e-05,-8.866481062874687e-05,4.8182233309046474e-05,-2.8180239497466175e-06,3.100649142960543e-06,1.7879692308930828e-06,-6.462379739224922e-06,-0.0008281985653214313,-0.0007421596172484178,-1.7552585006252212e-05,0.0003375270681039742,0.00027977021865536306,-0.0003358939252496916,-0.0005637164575069084,-0.13260537385940552,18.277124404907227,-1.1680023670196533,-17.999910354614258,-0.5047507882118225,-2.2360262870788574,0.19351522624492645,0
77,0.38002848625183105,0.13260537385940552,-18.277124404907227,1.1680023670196533,17.999910354614258,0.5047507882118225,2.2360262870788574,-0.19351522624492645,0.0,0.0,0.0,0.0,0.0,0.0,0.0,0.13913498458447093,0.40181433690314183,0.32304683740787715,0.370570413789086,0.07314730956685342,0.057192338043625106,-0.18662086924201798,-0.6091658546171689,-0.05744330237493964,-0.666651279315925,-2.5945537190019037,-0.05562454006468296,2.507974239254568,0.8763173110843807,-0.6090851748156966,-0.05753196718556838,-0.666603097082616,-2.5945565370258534,-0.05562143941554,2.507976027223799,0.8763108487046415,0.0008281985653214313,0.0007421596172484178,1.7552585006252212e-05,-0.0003375270681039742,-0.00027977021865536306,0.0003358939252496916,0.0005637164575069084,0.0,0.0,0.0,0.0,0.0,0.0,0.0,8.067980147230536e-05,-8.866481062874687e-05,4.8182233309046474e-05,-2.8180239497466175e-06,3.100649142960543e-06,1.7879692308930828e-06,-6.462379739224922e-06,-0.0008281985653214313,-0.0007421596172484178,-1.7552585006252212e-05,0.0003375270681039742,0.00027977021865536306,-0.0003358939252496916,-0.0005637164575069084,-0.13260537385940552,18.277124404907227,-1.1680023670196533,-17.999910354614258,-0.5047507882118225,-2.2360262870788574,0.19351522624492645,0
78,0.3850119113922119,0.13260537385940552,-18.352502822875977,1.1164276599884033,17.972139358520508,0.4864402413368225,2.2424349784851074,-0.13858358561992645,0.0,0.0,0.0,0.0,0.0,0.0,0.0,0.1375175766958022,0.4049228752751734,0.3211661910184017,0.3713540663724122,0.07381441225427364,0.05730699511427488,-0.1853792917727258,-0.6091637485863869,-0.05743800973841577,-0.66664748081898,-2.5945517701600727,-0.05562250551139678,2.507972833194167,0.8763115607794717,-0.6090851748156966,-0.05753196718556838,-0.666603097082616,-2.5945565370258534,-0.05562143941554,2.507976027223799,0.8763108487046415,0.00010468550700781973,0.001599137333505468,0.0002706832730244442,0.000706030173842607,0.0004002022101657102,-0.00035436797691585877,-0.001154596887929027,0.0,0.0,0.0,0.0,0.0,0.0,0.0,7.857377069031557e-05,-9.395744715261223e-05,4.438373636395099e-05,-4.766865780769791e-06,1.0660958567818013e-06,3.1940296318921924e-06,-7.120748302114066e-07,-0.00010468550700781973,-0.001599137333505468,-0.0002706832730244442,-0.000706030173842607,-0.0004002022101657102,0.00035436797691585877,0.001154596887929027,-0.13260537385940552,18.352502822875977,-1.1164276599884033,-17.972139358520508,-0.4864402413368225,-2.2424349784851074,0.13858358561992645,0
79,0.3900299072265625,0.13260537385940552,-18.352502822875977,1.1164276599884033,17.972139358520508,0.4864402413368225,2.2424349784851074,-0.13858358561992645,0.0,0.0,0.0,0.0,0.0,0.0,0.0,0.1375175766958022,0.4049228752751734,0.3211661910184017,0.3713540663724122,0.07381441225427364,0.05730699511427488,-0.1853792917727258,-0.6091637485863869,-0.05743800973841577,-0.66664748081898,-2.5945517701600727,-0.05562250551139678,2.507972833194167,0.8763115607794717,-0.6090851748156966,-0.05753196718556838,-0.666603097082616,-2.5945565370258534,-0.05562143941554,2.507976027223799,0.8763108487046415,0.00010468550700781973,0.001599137333505468,0.0002706832730244442,0.000706030173842607,0.0004002022101657102,-0.00035436797691585877,-0.001154596887929027,0.0,0.0,0.0,0.0,0.0,0.0,0.0,7.857377069031557e-05,-9.395744715261223e-05,4.438373636395099e-05,-4.766865780769791e-06,1.0660958567818013e-06,3.1940296318921924e-06,-7.120748302114066e-07,-0.00010468550700781973,-0.001599137333505468,-0.0002706832730244442,-0.000706030173842607,-0.0004002022101657102,0.00035436797691585877,0.001154596887929027,-0.13260537385940552,18.352502822875977,-1.1164276599884033,-17.972139358520508,-0.4864402413368225,-2.2424349784851074,0.13858358561992645,0
