rezayati/contactInterpretation/dataset/franka_main/labeled_data/link4/d4_8.csv
index,time,tau_J0,tau_J1,tau_J2,tau_J3,tau_J4,tau_J5,tau_J6,tau_J_d0,tau_J_d1,tau_J_d2,tau_J_d3,tau_J_d4,tau_J_d5,tau_J_d6,tau_ext0,tau_ext1,tau_ext2,tau_ext3,tau_ext4,tau_ext5,tau_ext6,q0,q1,q2,q3,q4,q5,q6,q_d0,q_d1,q_d2,q_d3,q_d4,q_d5,q_d6,dq0,dq1,dq2,dq3,dq4,dq5,dq6,dq_d0,dq_d1,dq_d2,dq_d3,dq_d4,dq_d5,dq_d6,e0,e1,e2,e3,e4,e5,e6,de0,de1,de2,de3,de4,de5,de6,etau_J0,etau_J1,etau_J2,etau_J3,etau_J4,etau_J5,etau_J6,label
1,0.0,-0.4267818331718445,-22.748254776000977,-0.2007109820842743,14.131807327270508,0.07628399133682251,2.1069369316101074,-0.38577598333358765,0.0,0.0,0.0,0.0,0.0,0.0,0.0,-0.40943764609752814,0.018177071034725694,-0.22300789736582743,0.24901255902736905,-0.14432159672957803,-0.07018348673050048,-0.37153813764260885,1.6756069939762557,0.05251175265465446,0.030002584171870163,-2.752512339474718,0.03425682239731153,2.7663769951396517,0.7691813731131218,1.6754973547542302,0.052104326824870026,0.029969505109285054,-2.752394845125968,0.0342448039870148,2.7663679543071322,0.7691630533470046,-2.773291416162143e-05,-0.00018503048415771886,0.00148670699725479,-0.0007104185114351574,0.0002029025423566308,0.0004917883325992215,0.0011798305018228495,0.0,0.0,0.0,0.0,0.0,0.0,0.0,-0.00010963922202544829,-0.0004074258297844316,-3.3079062585109065e-05,0.00011749434874985809,-1.2018410296729676e-05,-9.040832519513486e-06,-1.8319766117214087e-05,2.773291416162143e-05,0.00018503048415771886,-0.00148670699725479,0.0007104185114351574,-0.0002029025423566308,-0.0004917883325992215,-0.0011798305018228495,0.4267818331718445,22.748254776000977,0.2007109820842743,-14.131807327270508,-0.07628399133682251,-2.1069369316101074,0.38577598333358765,0
2,0.005820035934448242,-0.4267818331718445,-22.795862197875977,-0.1491362750530243,14.080232620239258,0.08818584680557251,2.1197543144226074,-0.38577598333358765,0.0,0.0,0.0,0.0,0.0,0.0,0.0,-0.4016524474583782,0.01123043651914929,-0.2151345653433797,0.2551096690931904,-0.14608694178702453,-0.06872436973297066,-0.3698304240496728,1.6756069940893268,0.05251512858899021,0.02999896512420209,-2.752508720162183,0.03425585483732047,2.766375570986006,0.7691809067352149,1.6754973547542302,0.052104326824870026,0.029969505109285054,-2.752394845125968,0.0342448039870148,2.7663679543071322,0.7691630533470046,0.00029604414123221275,0.00017777875824522026,-9.742651627402163e-05,0.00039573458233187095,4.3570598723426785e-05,-0.00016540468260054577,0.0008843420515328481,0.0,0.0,0.0,0.0,0.0,0.0,0.0,-0.00010963933509655632,-0.0004108017641201861,-2.946001491703487e-05,0.00011387503621484996,-1.1050850305671656e-05,-7.616678873834104e-06,-1.785338821025384e-05,-0.00029604414123221275,-0.00017777875824522026,9.742651627402163e-05,-0.00039573458233187095,-4.3570598723426785e-05,0.00016540468260054577,-0.0008843420515328481,0.4267818331718445,22.795862197875977,0.1491362750530243,-14.080232620239258,-0.08818584680557251,-2.1197543144226074,0.38577598333358765,0
3,0.009997844696044922,-0.4267818331718445,-22.795862197875977,-0.1491362750530243,14.080232620239258,0.08818584680557251,2.1197543144226074,-0.38577598333358765,0.0,0.0,0.0,0.0,0.0,0.0,0.0,-0.4016524474583782,0.01123043651914929,-0.2151345653433797,0.2551096690931904,-0.14608694178702453,-0.06872436973297066,-0.3698304240496728,1.6756069940893268,0.05251512858899021,0.02999896512420209,-2.752508720162183,0.03425585483732047,2.766375570986006,0.7691809067352149,1.6754973547542302,0.052104326824870026,0.029969505109285054,-2.752394845125968,0.0342448039870148,2.7663679543071322,0.7691630533470046,0.00029604414123221275,0.00017777875824522026,-9.742651627402163e-05,0.00039573458233187095,4.3570598723426785e-05,-0.00016540468260054577,0.0008843420515328481,0.0,0.0,0.0,0.0,0.0,0.0,0.0,-0.00010963933509655632,-0.0004108017641201861,-2.946001491703487e-05,0.00011387503621484996,-1.1050850305671656e-05,-7.616678873834104e-06,-1.785338821025384e-05,-0.00029604414123221275,-0.00017777875824522026,9.742651627402163e-05,-0.00039573458233187095,-4.3570598723426785e-05,0.00016540468260054577,-0.0008843420515328481,0.4267818331718445,22.795862197875977,0.1491362750530243,-14.080232620239258,-0.08818584680557251,-2.1197543144226074,0.38577598333358765,0
4,0.015004158020019531,-0.3752071261405945,-22.819665908813477,-0.1253325641155243,14.056428909301758,0.09367901086807251,2.1197543144226074,-0.33084434270858765,0.0,0.0,0.0,0.0,0.0,0.0,0.0,-0.40276984417419653,0.008655650330459593,-0.2167415805915645,0.2590936183042563,-0.14559026208236056,-0.06763849055883127,-0.3686540557605055,1.675603374811641,0.05251747456252023,0.02999740062755669,-2.7525069731969065,0.03425488961936686,2.766375570986006,0.7691747992869881,1.6754973547542302,0.052104326824870026,0.029969505109285054,-2.752394845125968,0.0342448039870148,2.7663679543071322,0.7691630533470046,-0.000983499714160451,7.66910570954862e-05,-0.0001327125886343625,0.0016627696812862246,-0.00023015036997293592,-0.00015948025183308968,-0.0009664820495747195,0.0,0.0,0.0,0.0,0.0,0.0,0.0,-0.0001060200574107828,-0.0004131477376502074,-2.7895518271637415e-05,0.00011212807093841093,-1.008563235205956e-05,-7.616678873834104e-06,-1.1745939983431875e-05,0.000983499714160451,-7.66910570954862e-05,0.0001327125886343625,-0.0016627696812862246,0.00023015036997293592,0.00015948025183308968,0.0009664820495747195,0.3752071261405945,22.819665908813477,0.1253325641155243,-14.056428909301758,-0.09367901086807251,-2.1197543144226074,0.33084434270858765,0
5,0.019997358322143555,-0.3752071261405945,-22.819665908813477,-0.1253325641155243,14.056428909301758,0.09367901086807251,2.1197543144226074,-0.33084434270858765,0.0,0.0,0.0,0.0,0.0,0.0,0.0,-0.40276984417419653,0.008655650330459593,-0.2167415805915645,0.2590936183042563,-0.14559026208236056,-0.06763849055883127,-0.3686540557605055,1.675603374811641,0.05251747456252023,0.02999740062755669,-2.7525069731969065,0.03425488961936686,2.766375570986006,0.7691747992869881,1.6754973547542302,0.052104326824870026,0.029969505109285054,-2.752394845125968,0.0342448039870148,2.7663679543071322,0.7691630533470046,-0.000983499714160451,7.66910570954862e-05,-0.0001327125886343625,0.0016627696812862246,-0.00023015036997293592,-0.00015948025183308968,-0.0009664820495747195,0.0,0.0,0.0,0.0,0.0,0.0,0.0,-0.0001060200574107828,-0.0004131477376502074,-2.7895518271637415e-05,0.00011212807093841093,-1.008563235205956e-05,-7.616678873834104e-06,-1.1745939983431875e-05,0.000983499714160451,-7.66910570954862e-05,0.0001327125886343625,-0.0016627696812862246,0.00023015036997293592,0.00015948025183308968,0.0009664820495747195,0.3752071261405945,22.819665908813477,0.1253325641155243,-14.056428909301758,-0.09367901086807251,-2.1197543144226074,0.33084434270858765,0
6,0.02500009536743164,-0.3752071261405945,-22.819665908813477,-0.1253325641155243,14.056428909301758,0.09367901086807251,2.1197543144226074,-0.33084434270858765,0.0,0.0,0.0,0.0,0.0,0.0,0.0,-0.40276984417419653,0.008655650330459593,-0.2167415805915645,0.2590936183042563,-0.14559026208236056,-0.06763849055883127,-0.3686540557605055,1.675603374811641,0.05251747456252023,0.02999740062755669,-2.7525069731969065,0.03425488961936686,2.766375570986006,0.7691747992869881,1.6754973547542302,0.052104326824870026,0.029969505109285054,-2.752394845125968,0.0342448039870148,2.7663679543071322,0.7691630533470046,-0.000983499714160451,7.66910570954862e-05,-0.0001327125886343625,0.0016627696812862246,-0.00023015036997293592,-0.00015948025183308968,-0.0009664820495747195,0.0,0.0,0.0,0.0,0.0,0.0,0.0,-0.0001060200574107828,-0.0004131477376502074,-2.7895518271637415e-05,0.00011212807093841093,-1.008563235205956e-05,-7.616678873834104e-06,-1.1745939983431875e-05,0.000983499714160451,-7.66910570954862e-05,0.0001327125886343625,-0.0016627696812862246,0.00023015036997293592,0.00015948025183308968,0.0009664820495747195,0.3752071261405945,22.819665908813477,0.1253325641155243,-14.056428909301758,-0.09367901086807251,-2.1197543144226074,0.33084434270858765,0
7,0.03045034408569336,-0.4505855441093445,-22.819665908813477,-0.09756157547235489,14.108003616333008,0.08818584680557251,2.1133456230163574,-0.33725303411483765,0.0,0.0,0.0,0.0,0.0,0.0,0.0,-0.40900695351897554,0.016204626440976855,-0.22220970256088798,0.2510202567784747,-0.14476101088660456,-0.06940814640202304,-0.36515993460450047,1.6756086645251826,0.05251684503902152,0.02999305948886972,-2.7525106690385743,0.034255854837320486,2.766376283062829,0.7691797492702838,1.6754973547542302,0.052104326824870026,0.029969505109285054,-2.752394845125968,0.0342448039870148,2.7663679543071322,0.7691630533470046,0.001079194983500695,0.0005971334137697861,-0.0010484919091105042,0.0001635285328699783,-1.6497709996243643e-05,0.00022344002429965182,-0.0008278577225457405,0.0,0.0,0.0,0.0,0.0,0.0,0.0,-0.0001113097709524169,-0.00041251821415149575,-2.35543795846678e-05,0.00011582391260622771,-1.1050850305685533e-05,-8.328755696673795e-06,-1.669592327913083e-05,-0.001079194983500695,-0.0005971334137697861,0.0010484919091105042,-0.0001635285328699783,1.6497709996243643e-05,-0.00022344002429965182,0.0008278577225457405,0.4505855441093445,22.819665908813477,0.09756157547235489,-14.108003616333008,-0.08818584680557251,-2.1133456230163574,0.33725303411483765,0
8,0.03499627113342285,-0.4505855441093445,-22.819665908813477,-0.09756157547235489,14.108003616333008,0.08818584680557251,2.1133456230163574,-0.33725303411483765,0.0,0.0,0.0,0.0,0.0,0.0,0.0,-0.40900695351897554,0.016204626440976855,-0.22220970256088798,0.2510202567784747,-0.14476101088660456,-0.06940814640202304,-0.36515993460450047,1.6756086645251826,0.05251684503902152,0.02999305948886972,-2.7525106690385743,0.034255854837320486,2.766376283062829,0.7691797492702838,1.6754973547542302,0.052104326824870026,0.029969505109285054,-2.752394845125968,0.0342448039870148,2.7663679543071322,0.7691630533470046,0.001079194983500695,0.0005971334137697861,-0.0010484919091105042,0.0001635285328699783,-1.6497709996243643e-05,0.00022344002429965182,-0.0008278577225457405,0.0,0.0,0.0,0.0,0.0,0.0,0.0,-0.0001113097709524169,-0.00041251821415149575,-2.35543795846678e-05,0.00011582391260622771,-1.1050850305685533e-05,-8.328755696673795e-06,-1.669592327913083e-05,-0.001079194983500695,-0.0005971334137697861,0.0010484919091105042,-0.0001635285328699783,1.6497709996243643e-05,-0.00022344002429965182,0.0008278577225457405,0.4505855441093445,22.819665908813477,0.09756157547235489,-14.108003616333008,-0.08818584680557251,-2.1133456230163574,0.33725303411483765,0
9,0.03999781608581543,-0.4267818331718445,-22.795862197875977,-0.1729399859905243,14.108003616333008,0.09367901086807251,2.1261630058288574,-0.31711143255233765,0.0,0.0,0.0,0.0,0.0,0.0,0.0,-0.4156292134860719,0.011665441349731872,-0.2267147624534835,0.24981785607139487,-0.14438457465392923,-0.06905295237745607,-0.36349759225944217,1.6756069940893275,0.052517460059816654,0.029999216850000135,-2.7525104394157522,0.03425488961936686,2.766374858909183,0.7691743324240896,1.6754973547542302,0.052104326824870026,0.029969505109285054,-2.752394845125968,0.0342448039870148,2.7663679543071322,0.7691630533470046,-0.0001067897360449739,-8.108546293069743e-06,2.8111574100615404e-05,-0.00011825273245716934,-0.00014001063561835543,-0.0002949264550049708,-0.001973201982902634,0.0,0.0,0.0,0.0,0.0,0.0,0.0,-0.00010963933509722246,-0.0004131332349466277,-2.971174071508126e-05,0.00011559428978413777,-1.008563235205956e-05,-6.904602050994413e-06,-1.1279077084980216e-05,0.0001067897360449739,8.108546293069743e-06,-2.8111574100615404e-05,0.00011825273245716934,0.00014001063561835543,0.0002949264550049708,0.001973201982902634,0.4267818331718445,22.795862197875977,0.1729399859905243,-14.108003616333008,-0.09367901086807251,-2.1261630058288574,0.31711143255233765,0
10,0.04500460624694824,-0.4267818331718445,-22.795862197875977,-0.1729399859905243,14.108003616333008,0.09367901086807251,2.1261630058288574,-0.31711143255233765,0.0,0.0,0.0,0.0,0.0,0.0,0.0,-0.4156292134860719,0.011665441349731872,-0.2267147624534835,0.24981785607139487,-0.14438457465392923,-0.06905295237745607,-0.36349759225944217,1.6756069940893275,0.052517460059816654,0.029999216850000135,-2.7525104394157522,0.03425488961936686,2.766374858909183,0.7691743324240896,1.6754973547542302,0.052104326824870026,0.029969505109285054,-2.752394845125968,0.0342448039870148,2.7663679543071322,0.7691630533470046,-0.0001067897360449739,-8.108546293069743e-06,2.8111574100615404e-05,-0.00011825273245716934,-0.00014001063561835543,-0.0002949264550049708,-0.001973201982902634,0.0,0.0,0.0,0.0,0.0,0.0,0.0,-0.00010963933509722246,-0.0004131332349466277,-2.971174071508126e-05,0.00011559428978413777,-1.008563235205956e-05,-6.904602050994413e-06,-1.1279077084980216e-05,0.0001067897360449739,8.108546293069743e-06,-2.8111574100615404e-05,0.00011825273245716934,0.00014001063561835543,0.0002949264550049708,0.001973201982902634,0.4267818331718445,22.795862197875977,0.1729399859905243,-14.108003616333008,-0.09367901086807251,-2.1261630058288574,0.31711143255233765,0
11,0.05000638961791992,-0.4783565402030945,-22.772058486938477,-0.1491362750530243,14.108003616333008,0.09367901086807251,2.1069369316101074,-0.34457725286483765,0.0,0.0,0.0,0.0,0.0,0.0,0.0,-0.41812408032387854,0.012280552014569903,-0.23056948026056814,0.24776145001049957,-0.14495585609822828,-0.0682991346535825,-0.3628686398223594,1.6756106133670137,0.052516266085650604,0.029999441517666384,-2.7525085772335514,0.03425488961736363,2.7663769951396517,0.7691763637716845,1.6754973547542302,0.052104326824870026,0.029969505109285054,-2.752394845125968,0.0342448039870148,2.7663679543071322,0.7691630533470046,0.00013142184870430768,-0.00030800040804933814,-0.0004859090966766762,1.1051739094138216e-05,0.0038969948704884122,0.00023042803795537644,-0.0011443133117275438,0.0,0.0,0.0,0.0,0.0,0.0,0.0,-0.00011325861278344007,-0.00041193926078057774,-2.9936408381329993e-05,0.00011373210758325314,-1.0085630348828645e-05,-9.040832519513486e-06,-1.3310424679890964e-05,-0.00013142184870430768,0.00030800040804933814,0.0004859090966766762,-1.1051739094138216e-05,-0.0038969948704884122,-0.00023042803795537644,0.0011443133117275438,0.4783565402030945,22.772058486938477,0.1491362750530243,-14.108003616333008,-0.09367901086807251,-2.1069369316101074,0.34457725286483765,0
12,0.05504107475280762,-0.4783565402030945,-22.772058486938477,-0.1491362750530243,14.108003616333008,0.09367901086807251,2.1069369316101074,-0.34457725286483765,0.0,0.0,0.0,0.0,0.0,0.0,0.0,-0.41812408032387854,0.012280552014569903,-0.23056948026056814,0.24776145001049957,-0.14495585609822828,-0.0682991346535825,-0.3628686398223594,1.6756106133670137,0.052516266085650604,0.029999441517666384,-2.7525085772335514,0.03425488961736363,2.7663769951396517,0.7691763637716845,1.6754973547542302,0.052104326824870026,0.029969505109285054,-2.752394845125968,0.0342448039870148,2.7663679543071322,0.7691630533470046,0.00013142184870430768,-0.00030800040804933814,-0.0004859090966766762,1.1051739094138216e-05,0.0038969948704884122,0.00023042803795537644,-0.0011443133117275438,0.0,0.0,0.0,0.0,0.0,0.0,0.0,-0.00011325861278344007,-0.00041193926078057774,-2.9936408381329993e-05,0.00011373210758325314,-1.0085630348828645e-05,-9.040832519513486e-06,-1.3310424679890964e-05,-0.00013142184870430768,0.00030800040804933814,0.0004859090966766762,-1.1051739094138216e-05,-0.0038969948704884122,-0.00023042803795537644,0.0011443133117275438,0.4783565402030945,22.772058486938477,0.1491362750530243,-14.108003616333008,-0.09367901086807251,-2.1069369316101074,0.34457725286483765,0
13,0.06000399589538574,-0.4029781222343445,-22.720483779907227,-0.1253325641155243,14.108003616333008,0.09367901086807251,2.1261630058288574,-0.38577598333358765,0.0,0.0,0.0,0.0,0.0,0.0,0.0,-0.41634259977361143,0.009508029820152452,-0.2270396567329781,0.2525265651804801,-0.1448232750295684,-0.06828981173359623,-0.364615797674861,1.675605323653472,0.0525108317367217,0.029997136757125217,-2.7525106435173914,0.0342550079068284,2.766374858909183,0.7691819617949157,1.6754973547542302,0.052104326824870026,0.029969505109285054,-2.752394845125968,0.0342448039870148,2.7663679543071322,0.7691630533470046,-0.00010760693319594649,-0.001797148004525758,-0.0007582678639857579,0.0003788888943082302,-9.433782120645955e-05,-0.00031988434352682546,0.00033074788906969866,0.0,0.0,0.0,0.0,0.0,0.0,0.0,-0.00010796889924180597,-0.00040650491185167253,-2.7631647840163642e-05,0.00011579839142328296,-1.0203919813600582e-05,-6.904602050994413e-06,-1.890844791108126e-05,0.00010760693319594649,0.001797148004525758,0.0007582678639857579,-0.0003788888943082302,9.433782120645955e-05,0.00031988434352682546,-0.00033074788906969866,0.4029781222343445,22.720483779907227,0.1253325641155243,-14.108003616333008,-0.09367901086807251,-2.1261630058288574,0.38577598333358765,0
14,0.06500124931335449,-0.4029781222343445,-22.720483779907227,-0.1253325641155243,14.108003616333008,0.09367901086807251,2.1261630058288574,-0.38577598333358765,0.0,0.0,0.0,0.0,0.0,0.0,0.0,-0.41634259977361143,0.009508029820152452,-0.2270396567329781,0.2525265651804801,-0.1448232750295684,-0.06828981173359623,-0.364615797674861,1.675605323653472,0.0525108317367217,0.029997136757125217,-2.7525106435173914,0.0342550079068284,2.766374858909183,0.7691819617949157,1.6754973547542302,0.052104326824870026,0.029969505109285054,-2.752394845125968,0.0342448039870148,2.7663679543071322,0.7691630533470046,-0.00010760693319594649,-0.001797148004525758,-0.0007582678639857579,0.0003788888943082302,-9.433782120645955e-05,-0.00031988434352682546,0.00033074788906969866,0.0,0.0,0.0,0.0,0.0,0.0,0.0,-0.00010796889924180597,-0.00040650491185167253,-2.7631647840163642e-05,0.00011579839142328296,-1.0203919813600582e-05,-6.904602050994413e-06,-1.890844791108126e-05,0.00010760693319594649,0.001797148004525758,0.0007582678639857579,-0.0003788888943082302,9.433782120645955e-05,0.00031988434352682546,-0.00033074788906969866,0.4029781222343445,22.720483779907227,0.1253325641155243,-14.108003616333008,-0.09367901086807251,-2.1261630058288574,0.38577598333358765,0
15,0.06999969482421875,-0.2998287081718445,-22.720483779907227,-0.1253325641155243,14.080232620239258,0.08818584680557251,2.1261630058288574,-0.38577598333358765,0.0,0.0,0.0,0.0,0.0,0.0,0.0,-0.4112586426491221,0.013412511149741008,-0.22556004722879308,0.2521501823166722,-0.14426219052353623,-0.06884080227147533,-0.3668386079108703,1.6755978378492025,0.052511959895713715,0.029995171028781777,-2.752508694687225,0.034255499969593865,2.766374858909183,0.7691810200616219,1.6754973547542302,0.052104326824870026,0.029969505109285054,-2.752394845125968,0.0342448039870148,2.7663679543071322,0.7691630533470046,-0.0012048897634862532,-0.0013016247737720544,0.0006816998892992997,0.0010420059064783385,8.792102489387705e-05,-0.00034273128311968794,0.000510501681673284,0.0,0.0,0.0,0.0,0.0,0.0,0.0,-0.00010048309497223684,-0.00040763307084368955,-2.5665919496722922e-05,0.00011384956125670698,-1.0695982579064789e-05,-6.904602050994413e-06,-1.7966714617290158e-05,0.0012048897634862532,0.0013016247737720544,-0.0006816998892992997,-0.0010420059064783385,-8.792102489387705e-05,0.00034273128311968794,-0.000510501681673284,0.2998287081718445,22.720483779907227,0.1253325641155243,-14.080232620239258,-0.08818584680557251,-2.1261630058288574,0.38577598333358765,0
16,0.07499909400939941,-0.2998287081718445,-22.720483779907227,-0.1253325641155243,14.080232620239258,0.08818584680557251,2.1261630058288574,-0.38577598333358765,0.0,0.0,0.0,0.0,0.0,0.0,0.0,-0.4112586426491221,0.013412511149741008,-0.22556004722879308,0.2521501823166722,-0.14426219052353623,-0.06884080227147533,-0.3668386079108703,1.6755978378492025,0.052511959895713715,0.029995171028781777,-2.752508694687225,0.034255499969593865,2.766374858909183,0.7691810200616219,1.6754973547542302,0.052104326824870026,0.029969505109285054,-2.752394845125968,0.0342448039870148,2.7663679543071322,0.7691630533470046,-0.0012048897634862532,-0.0013016247737720544,0.0006816998892992997,0.0010420059064783385,8.792102489387705e-05,-0.00034273128311968794,0.000510501681673284,0.0,0.0,0.0,0.0,0.0,0.0,0.0,-0.00010048309497223684,-0.00040763307084368955,-2.5665919496722922e-05,0.00011384956125670698,-1.0695982579064789e-05,-6.904602050994413e-06,-1.7966714617290158e-05,0.0012048897634862532,0.0013016247737720544,-0.0006816998892992997,-0.0010420059064783385,-8.792102489387705e-05,0.00034273128311968794,-0.000510501681673284,0.2998287081718445,22.720483779907227,0.1253325641155243,-14.080232620239258,-0.08818584680557251,-2.1261630058288574,0.38577598333358765,0
17,0.08178424835205078,-0.2998287081718445,-22.720483779907227,-0.1253325641155243,14.080232620239258,0.08818584680557251,2.1261630058288574,-0.38577598333358765,0.0,0.0,0.0,0.0,0.0,0.0,0.0,-0.4112586426491221,0.013412511149741008,-0.22556004722879308,0.2521501823166722,-0.14426219052353623,-0.06884080227147533,-0.3668386079108703,1.6755978378492025,0.052511959895713715,0.029995171028781777,-2.752508694687225,0.034255499969593865,2.766374858909183,0.7691810200616219,1.6754973547542302,0.052104326824870026,0.029969505109285054,-2.752394845125968,0.0342448039870148,2.7663679543071322,0.7691630533470046,-0.0012048897634862532,-0.0013016247737720544,0.0006816998892992997,0.0010420059064783385,8.792102489387705e-05,-0.00034273128311968794,0.000510501681673284,0.0,0.0,0.0,0.0,0.0,0.0,0.0,-0.00010048309497223684,-0.00040763307084368955,-2.5665919496722922e-05,0.00011384956125670698,-1.0695982579064789e-05,-6.904602050994413e-06,-1.7966714617290158e-05,0.0012048897634862532,0.0013016247737720544,-0.0006816998892992997,-0.0010420059064783385,-8.792102489387705e-05,0.00034273128311968794,-0.000510501681673284,0.2998287081718445,22.720483779907227,0.1253325641155243,-14.080232620239258,-0.08818584680557251,-2.1261630058288574,0.38577598333358765,0
18,0.08499479293823242,-0.2998287081718445,-22.720483779907227,-0.1253325641155243,14.080232620239258,0.08818584680557251,2.1261630058288574,-0.38577598333358765,0.0,0.0,0.0,0.0,0.0,0.0,0.0,-0.4112586426491221,0.013412511149741008,-0.22556004722879308,0.2521501823166722,-0.14426219052353623,-0.06884080227147533,-0.3668386079108703,1.6755978378492025,0.052511959895713715,0.029995171028781777,-2.752508694687225,0.034255499969593865,2.766374858909183,0.7691810200616219,1.6754973547542302,0.052104326824870026,0.029969505109285054,-2.752394845125968,0.0342448039870148,2.7663679543071322,0.7691630533470046,-0.0012048897634862532,-0.0013016247737720544,0.0006816998892992997,0.0010420059064783385,8.792102489387705e-05,-0.00034273128311968794,0.000510501681673284,0.0,0.0,0.0,0.0,0.0,0.0,0.0,-0.00010048309497223684,-0.00040763307084368955,-2.5665919496722922e-05,0.00011384956125670698,-1.0695982579064789e-05,-6.904602050994413e-06,-1.7966714617290158e-05,0.0012048897634862532,0.0013016247737720544,-0.0006816998892992997,-0.0010420059064783385,-8.792102489387705e-05,0.00034273128311968794,-0.000510501681673284,0.2998287081718445,22.720483779907227,0.1253325641155243,-14.080232620239258,-0.08818584680557251,-2.1261630058288574,0.38577598333358765,0
19,0.09042668342590332,-0.3752071261405945,-22.795862197875977,-0.1253325641155243,14.108003616333008,0.07628399133682251,2.1197543144226074,-0.41324180364608765,0.0,0.0,0.0,0.0,0.0,0.0,0.0,-0.4023749984080439,0.012572205640641865,-0.22227924249789532,0.2535503850068606,-0.14374472832497662,-0.06813356597001463,-0.3672606571661096,1.6756033748102452,0.052515411374220576,0.029995162243578954,-2.752508602639532,0.03425682239731154,2.766375570986006,0.7691839674815119,1.6754973547542302,0.052104326824870026,0.029969505109285054,-2.752394845125968,0.0342448039870148,2.7663679543071322,0.7691630533470046,0.00048668614259554817,0.00031555260171998057,0.0012048143465324627,0.00015586152820560223,0.0004405865265554568,-0.010302351467745394,0.002213481392138922,0.0,0.0,0.0,0.0,0.0,0.0,0.0,-0.00010602005601501041,-0.0004110845493505502,-2.5657134293900763e-05,0.00011375751356368369,-1.2018410296736615e-05,-7.616678873834104e-06,-2.0914134507221682e-05,-0.00048668614259554817,-0.00031555260171998057,-0.0012048143465324627,-0.00015586152820560223,-0.0004405865265554568,0.010302351467745394,-0.002213481392138922,0.3752071261405945,22.795862197875977,0.1253325641155243,-14.108003616333008,-0.07628399133682251,-2.1197543144226074,0.41324180364608765,0
20,0.09499621391296387,-0.3752071261405945,-22.795862197875977,-0.1253325641155243,14.108003616333008,0.07628399133682251,2.1197543144226074,-0.41324180364608765,0.0,0.0,0.0,0.0,0.0,0.0,0.0,-0.4023749984080439,0.012572205640641865,-0.22227924249789532,0.2535503850068606,-0.14374472832497662,-0.06813356597001463,-0.3672606571661096,1.6756033748102452,0.052515411374220576,0.029995162243578954,-2.752508602639532,0.03425682239731154,2.766375570986006,0.7691839674815119,1.6754973547542302,0.052104326824870026,0.029969505109285054,-2.752394845125968,0.0342448039870148,2.7663679543071322,0.7691630533470046,0.00048668614259554817,0.00031555260171998057,0.0012048143465324627,0.00015586152820560223,0.0004405865265554568,-0.010302351467745394,0.002213481392138922,0.0,0.0,0.0,0.0,0.0,0.0,0.0,-0.00010602005601501041,-0.0004110845493505502,-2.5657134293900763e-05,0.00011375751356368369,-1.2018410296736615e-05,-7.616678873834104e-06,-2.0914134507221682e-05,-0.00048668614259554817,-0.00031555260171998057,-0.0012048143465324627,-0.00015586152820560223,-0.0004405865265554568,0.010302351467745394,-0.002213481392138922,0.3752071261405945,22.795862197875977,0.1253325641155243,-14.108003616333008,-0.07628399133682251,-2.1197543144226074,0.41324180364608765,0
21,0.09999728202819824,-0.3752071261405945,-22.795862197875977,-0.1253325641155243,14.080232620239258,0.08818584680557251,2.1197543144226074,-0.35831016302108765,0.0,0.0,0.0,0.0,0.0,0.0,0.0,-0.40172296408577207,0.010302790266353447,-0.22186779415695682,0.26238538638152137,-0.1433961067759515,-0.0657217813375938,-0.36641678255302124,1.6756033656542744,0.052516039812164614,0.029997057453149914,-2.752508720162181,0.034258693784475325,2.766375570986006,0.7691782036116919,1.6754973547542302,0.052104326824870026,0.029969505109285054,-2.752394845125968,0.0342448039870148,2.7663679543071322,0.7691630533470046,5.777585973677435e-05,0.0005548724044306771,0.00013040459192790842,0.0009612607485740148,-0.0002948414755290626,-0.0005866907071559578,0.00013799146094906786,0.0,0.0,0.0,0.0,0.0,0.0,0.0,-0.00010601090004414004,-0.00041171298729458794,-2.755234386486033e-05,0.0001138750362130736,-1.3889797460524267e-05,-7.616678873834104e-06,-1.5150264687235904e-05,-5.777585973677435e-05,-0.0005548724044306771,-0.00013040459192790842,-0.0009612607485740148,0.0002948414755290626,0.0005866907071559578,-0.00013799146094906786,0.3752071261405945,22.795862197875977,0.1253325641155243,-14.080232620239258,-0.08818584680557251,-2.1197543144226074,0.35831016302108765,0
22,0.10500168800354004,-0.3752071261405945,-22.795862197875977,-0.1253325641155243,14.080232620239258,0.08818584680557251,2.1197543144226074,-0.35831016302108765,0.0,0.0,0.0,0.0,0.0,0.0,0.0,-0.40172296408577207,0.010302790266353447,-0.22186779415695682,0.26238538638152137,-0.1433961067759515,-0.0657217813375938,-0.36641678255302124,1.6756033656542744,0.052516039812164614,0.029997057453149914,-2.752508720162181,0.034258693784475325,2.766375570986006,0.7691782036116919,1.6754973547542302,0.052104326824870026,0.029969505109285054,-2.752394845125968,0.0342448039870148,2.7663679543071322,0.7691630533470046,5.777585973677435e-05,0.0005548724044306771,0.00013040459192790842,0.0009612607485740148,-0.0002948414755290626,-0.0005866907071559578,0.00013799146094906786,0.0,0.0,0.0,0.0,0.0,0.0,0.0,-0.00010601090004414004,-0.00041171298729458794,-2.755234386486033e-05,0.0001138750362130736,-1.3889797460524267e-05,-7.616678873834104e-06,-1.5150264687235904e-05,-5.777585973677435e-05,-0.0005548724044306771,-0.00013040459192790842,-0.0009612607485740148,0.0002948414755290626,0.0005866907071559578,-0.00013799146094906786,0.3752071261405945,22.795862197875977,0.1253325641155243,-14.080232620239258,-0.08818584680557251,-2.1197543144226074,0.35831016302108765,0
23,0.11000752449035645,-0.4783565402030945,-22.772058486938477,-0.1729399859905243,14.155611038208008,0.10008770227432251,2.1133456230163574,-0.36471885442733765,0.0,0.0,0.0,0.0,0.0,0.0,0.0,-0.3981097120800133,0.01789257310816719,-0.2191681810029295,0.25090987876069676,-0.14407787712005587,-0.0688978462525868,-0.3646210556895246,1.6756106133669963,0.052513430765331034,0.029998275316119403,-2.7525140086509734,0.03425417754655042,2.766376283062829,0.7691785624762398,1.6754973547542302,0.052104326824870026,0.029969505109285054,-2.752394845125968,0.0342448039870148,2.7663679543071322,0.7691630533470046,0.001289328325887303,-0.0001969271896570968,0.0004747605860695085,-0.0011110682650359537,-0.00042806507611253217,0.00011404795414256991,0.00023578997191928318,0.0,0.0,0.0,0.0,0.0,0.0,0.0,-0.00011325861276612059,-0.0004091039404610086,-2.8770206834349138e-05,0.0001191635250052947,-9.373559535619247e-06,-8.328755696673795e-06,-1.5509129235202757e-05,-0.001289328325887303,0.0001969271896570968,-0.0004747605860695085,0.0011110682650359537,0.00042806507611253217,-0.00011404795414256991,-0.00023578997191928318,0.4783565402030945,22.772058486938477,0.1729399859905243,-14.155611038208008,-0.10008770227432251,-2.1133456230163574,0.36471885442733765,0
24,0.1150054931640625,-0.4783565402030945,-22.772058486938477,-0.1729399859905243,14.155611038208008,0.10008770227432251,2.1133456230163574,-0.36471885442733765,0.0,0.0,0.0,0.0,0.0,0.0,0.0,-0.3981097120800133,0.01789257310816719,-0.2191681810029295,0.25090987876069676,-0.14407787712005587,-0.0688978462525868,-0.3646210556895246,1.6756106133669963,0.052513430765331034,0.029998275316119403,-2.7525140086509734,0.03425417754655042,2.766376283062829,0.7691785624762398,1.6754973547542302,0.052104326824870026,0.029969505109285054,-2.752394845125968,0.0342448039870148,2.7663679543071322,0.7691630533470046,0.001289328325887303,-0.0001969271896570968,0.0004747605860695085,-0.0011110682650359537,-0.00042806507611253217,0.00011404795414256991,0.00023578997191928318,0.0,0.0,0.0,0.0,0.0,0.0,0.0,-0.00011325861276612059,-0.0004091039404610086,-2.8770206834349138e-05,0.0001191635250052947,-9.373559535619247e-06,-8.328755696673795e-06,-1.5509129235202757e-05,-0.001289328325887303,0.0001969271896570968,-0.0004747605860695085,0.0011110682650359537,0.00042806507611253217,-0.00011404795414256991,-0.00023578997191928318,0.4783565402030945,22.772058486938477,0.1729399859905243,-14.155611038208008,-0.10008770227432251,-2.1133456230163574,0.36471885442733765,0
25,0.11999869346618652,-0.4505855441093445,-22.795862197875977,-0.2007109820842743,14.131807327270508,0.09367901086807251,2.1069369316101074,-0.33725303411483765,0.0,0.0,0.0,0.0,0.0,0.0,0.0,-0.4055131601730261,0.016356027416577032,-0.2254137585606559,0.25190916907498695,-0.14379377333897794,-0.06918242697932545,-0.363643163819539,1.6756086645251826,0.05251535550033985,0.030000321355199755,-2.7525121098865934,0.03425488961736365,2.7663769951396517,0.7691755150784134,1.6754973547542302,0.052104326824870026,0.029969505109285054,-2.752394845125968,0.0342448039870148,2.7663679543071322,0.7691630533470046,-0.0002274802984875302,0.00017468030717681185,0.0005451779786873192,-0.00046608165642103626,-6.652368157844016e-05,0.0001387221198304655,-0.0009877468525478306,0.0,0.0,0.0,0.0,0.0,0.0,0.0,-0.0001113097709524169,-0.0004110286754698267,-3.081624591470128e-05,0.0001172647606253463,-1.0085630348849461e-05,-9.040832519513486e-06,-1.2461731408786036e-05,0.0002274802984875302,-0.00017468030717681185,-0.0005451779786873192,0.00046608165642103626,6.652368157844016e-05,-0.0001387221198304655,0.0009877468525478306,0.4505855441093445,22.795862197875977,0.2007109820842743,-14.131807327270508,-0.09367901086807251,-2.1069369316101074,0.33725303411483765,0
26,0.12500619888305664,-0.4505855441093445,-22.795862197875977,-0.2007109820842743,14.131807327270508,0.09367901086807251,2.1069369316101074,-0.33725303411483765,0.0,0.0,0.0,0.0,0.0,0.0,0.0,-0.4055131601730261,0.016356027416577032,-0.2254137585606559,0.25190916907498695,-0.14379377333897794,-0.06918242697932545,-0.363643163819539,1.6756086645251826,0.05251535550033985,0.030000321355199755,-2.7525121098865934,0.03425488961736365,2.7663769951396517,0.7691755150784134,1.6754973547542302,0.052104326824870026,0.029969505109285054,-2.752394845125968,0.0342448039870148,2.7663679543071322,0.7691630533470046,-0.0002274802984875302,0.00017468030717681185,0.0005451779786873192,-0.00046608165642103626,-6.652368157844016e-05,0.0001387221198304655,-0.0009877468525478306,0.0,0.0,0.0,0.0,0.0,0.0,0.0,-0.0001113097709524169,-0.0004110286754698267,-3.081624591470128e-05,0.0001172647606253463,-1.0085630348849461e-05,-9.040832519513486e-06,-1.2461731408786036e-05,0.0002274802984875302,-0.00017468030717681185,-0.0005451779786873192,0.00046608165642103626,6.652368157844016e-05,-0.0001387221198304655,0.0009877468525478306,0.4505855441093445,22.795862197875977,0.2007109820842743,-14.131807327270508,-0.09367901086807251,-2.1069369316101074,0.33725303411483765,0
27,0.13001346588134766,-0.4267818331718445,-22.772058486938477,-0.1729399859905243,14.108003616333008,0.09367901086807251,2.1069369316101074,-0.35098594427108765,0.0,0.0,0.0,0.0,0.0,0.0,0.0,-0.40768477252905283,0.013080955190069235,-0.2249117189248205,0.2535094137740557,-0.14467216478866374,-0.069243341253264,-0.36381594747582113,1.6756069940893275,0.05251353610124574,0.02999898016590809,-2.7525099802729267,0.034254889617363615,2.7663769951396517,0.7691771544957692,1.6754973547542302,0.052104326824870026,0.029969505109285054,-2.752394845125968,0.0342448039870148,2.7663679543071322,0.7691630533470046,-0.0003142612846734028,-0.0005570555874702888,2.6608013168074897e-05,0.0003819537355659111,0.0005877362795913863,0.0003656522133922067,-0.0010694712902373411,0.0,0.0,0.0,0.0,0.0,0.0,0.0,-0.00010963933509722246,-0.00040920927637571464,-2.947505662303715e-05,0.00011513514695860039,-1.0085630348814767e-05,-9.040832519513486e-06,-1.4101148764544824e-05,0.0003142612846734028,0.0005570555874702888,-2.6608013168074897e-05,-0.0003819537355659111,-0.0005877362795913863,-0.0003656522133922067,0.0010694712902373411,0.4267818331718445,22.772058486938477,0.1729399859905243,-14.108003616333008,-0.09367901086807251,-2.1069369316101074,0.35098594427108765,0
28,0.13494491577148438,-0.4267818331718445,-22.772058486938477,-0.1729399859905243,14.108003616333008,0.09367901086807251,2.1069369316101074,-0.35098594427108765,0.0,0.0,0.0,0.0,0.0,0.0,0.0,-0.40768477252905283,0.013080955190069235,-0.2249117189248205,0.2535094137740557,-0.14467216478866374,-0.069243341253264,-0.36381594747582113,1.6756069940893275,0.05251353610124574,0.02999898016590809,-2.7525099802729267,0.034254889617363615,2.7663769951396517,0.7691771544957692,1.6754973547542302,0.052104326824870026,0.029969505109285054,-2.752394845125968,0.0342448039870148,2.7663679543071322,0.7691630533470046,-0.0003142612846734028,-0.0005570555874702888,2.6608013168074897e-05,0.0003819537355659111,0.0005877362795913863,0.0003656522133922067,-0.0010694712902373411,0.0,0.0,0.0,0.0,0.0,0.0,0.0,-0.00010963933509722246,-0.00040920927637571464,-2.947505662303715e-05,0.00011513514695860039,-1.0085630348814767e-05,-9.040832519513486e-06,-1.4101148764544824e-05,0.0003142612846734028,0.0005570555874702888,-2.6608013168074897e-05,-0.0003819537355659111,-0.0005877362795913863,-0.0003656522133922067,0.0010694712902373411,0.4267818331718445,22.772058486938477,0.1729399859905243,-14.108003616333008,-0.09367901086807251,-2.1069369316101074,0.35098594427108765,0
29,0.13999295234680176,-0.4029781222343445,-22.795862197875977,-0.1253325641155243,14.108003616333008,0.09367901086807251,2.1197543144226074,-0.39218467473983765,0.0,0.0,0.0,0.0,0.0,0.0,0.0,-0.4138615255755774,0.01859465865790359,-0.2303890773890465,0.2501350817341452,-0.14365530884724803,-0.06976072122723896,-0.3654369093680331,1.675605323653472,0.05251509253931089,0.029995989973017556,-2.7525106690351184,0.034254889617363615,2.766375570986006,0.769181618594704,1.6754973547542302,0.052104326824870026,0.029969505109285054,-2.752394845125968,0.0342448039870148,2.7663679543071322,0.7691630533470046,-0.0005517038385669325,0.000628175939846971,-3.5562825403201716e-05,0.0001392379001453023,-0.0002502535063608303,2.4795104118576478e-05,0.0005067477834112828,0.0,0.0,0.0,0.0,0.0,0.0,0.0,-0.00010796889924180597,-0.0004107657144408611,-2.6484863732502417e-05,0.00011582390915032548,-1.0085630348814767e-05,-7.616678873834104e-06,-1.8565247699386944e-05,0.0005517038385669325,-0.000628175939846971,3.5562825403201716e-05,-0.0001392379001453023,0.0002502535063608303,-2.4795104118576478e-05,-0.0005067477834112828,0.4029781222343445,22.795862197875977,0.1253325641155243,-14.108003616333008,-0.09367901086807251,-2.1197543144226074,0.39218467473983765,0
30,0.1450026035308838,-0.4029781222343445,-22.795862197875977,-0.1253325641155243,14.108003616333008,0.09367901086807251,2.1197543144226074,-0.39218467473983765,0.0,0.0,0.0,0.0,0.0,0.0,0.0,-0.4138615255755774,0.01859465865790359,-0.2303890773890465,0.2501350817341452,-0.14365530884724803,-0.06976072122723896,-0.3654369093680331,1.675605323653472,0.05251509253931089,0.029995989973017556,-2.7525106690351184,0.034254889617363615,2.766375570986006,0.769181618594704,1.6754973547542302,0.052104326824870026,0.029969505109285054,-2.752394845125968,0.0342448039870148,2.7663679543071322,0.7691630533470046,-0.0005517038385669325,0.000628175939846971,-3.5562825403201716e-05,0.0001392379001453023,-0.0002502535063608303,2.4795104118576478e-05,0.0005067477834112828,0.0,0.0,0.0,0.0,0.0,0.0,0.0,-0.00010796889924180597,-0.0004107657144408611,-2.6484863732502417e-05,0.00011582390915032548,-1.0085630348814767e-05,-7.616678873834104e-06,-1.8565247699386944e-05,0.0005517038385669325,-0.000628175939846971,3.5562825403201716e-05,-0.0001392379001453023,0.0002502535063608303,-2.4795104118576478e-05,-0.0005067477834112828,0.4029781222343445,22.795862197875977,0.1253325641155243,-14.108003616333008,-0.09367901086807251,-2.1197543144226074,0.39218467473983765,0
31,0.15000009536743164,-0.3752071261405945,-22.795862197875977,-0.1729399859905243,14.131807327270508,0.08818584680557251,2.1261630058288574,-0.37845176458358765,0.0,0.0,0.0,0.0,0.0,0.0,0.0,-0.4220244222633494,0.013443907647297167,-0.23464135630140462,0.2555335137450491,-0.14262498377466165,-0.0679551839529915,-0.36778429643083854,1.675603374811641,0.0525151713874594,0.02999924891894209,-2.752512339474862,0.03425660400393078,2.766374858909183,0.7691800898080563,1.6754973547542302,0.052104326824870026,0.029969505109285054,-2.752394845125968,0.0342448039870148,2.7663679543071322,0.7691630533470046,-0.000911092775722004,0.0005066193922342596,0.0006304141922824922,5.598478022624718e-06,0.00021635724736086495,-0.00026514587232962466,0.0004528784110501522,0.0,0.0,0.0,0.0,0.0,0.0,0.0,-0.0001060200574107828,-0.0004108445625893714,-2.9743809657034603e-05,0.000117494348893743,-1.1800016915981815e-05,-6.904602050994413e-06,-1.7036461051667118e-05,0.000911092775722004,-0.0005066193922342596,-0.0006304141922824922,-5.598478022624718e-06,-0.00021635724736086495,0.00026514587232962466,-0.0004528784110501522,0.3752071261405945,22.795862197875977,0.1729399859905243,-14.131807327270508,-0.08818584680557251,-2.1261630058288574,0.37845176458358765,0
32,0.1549992561340332,-0.3752071261405945,-22.795862197875977,-0.1729399859905243,14.131807327270508,0.08818584680557251,2.1261630058288574,-0.37845176458358765,0.0,0.0,0.0,0.0,0.0,0.0,0.0,-0.4220244222633494,0.013443907647297167,-0.23464135630140462,0.2555335137450491,-0.14262498377466165,-0.0679551839529915,-0.36778429643083854,1.675603374811641,0.0525151713874594,0.02999924891894209,-2.752512339474862,0.03425660400393078,2.766374858909183,0.7691800898080563,1.6754973547542302,0.052104326824870026,0.029969505109285054,-2.752394845125968,0.0342448039870148,2.7663679543071322,0.7691630533470046,-0.000911092775722004,0.0005066193922342596,0.0006304141922824922,5.598478022624718e-06,0.00021635724736086495,-0.00026514587232962466,0.0004528784110501522,0.0,0.0,0.0,0.0,0.0,0.0,0.0,-0.0001060200574107828,-0.0004108445625893714,-2.9743809657034603e-05,0.000117494348893743,-1.1800016915981815e-05,-6.904602050994413e-06,-1.7036461051667118e-05,0.000911092775722004,-0.0005066193922342596,-0.0006304141922824922,-5.598478022624718e-06,-0.00021635724736086495,0.00026514587232962466,-0.0004528784110501522,0.3752071261405945,22.795862197875977,0.1729399859905243,-14.131807327270508,-0.08818584680557251,-2.1261630058288574,0.37845176458358765,0
33,0.16001439094543457,-0.4267818331718445,-22.748254776000977,-0.1491362750530243,14.108003616333008,0.09367901086807251,2.1197543144226074,-0.38577598333358765,0.0,0.0,0.0,0.0,0.0,0.0,0.0,-0.4169300082315374,0.01617168664194232,-0.23292088816523546,0.253324314933211,-0.14241430504673577,-0.06779346616901588,-0.36869045897797365,1.6756069940893275,0.052512464770824996,0.029996832683594706,-2.7525105925095863,0.03425488962359593,2.766375570986006,0.769180902156573,1.6754973547542302,0.052104326824870026,0.029969505109285054,-2.752394845125968,0.0342448039870148,2.7663679543071322,0.7691630533470046,0.0005616302753370022,-0.0008585001095677296,-5.6748585227509167e-05,0.0002588051455319939,-0.0002924543688792634,-0.00022031778752126693,0.0006747233217101445,0.0,0.0,0.0,0.0,0.0,0.0,0.0,-0.00010963933509722246,-0.00040813794595497,-2.732757430965252e-05,0.00011574738361819215,-1.0085636581128044e-05,-7.616678873834104e-06,-1.7848809568343782e-05,-0.0005616302753370022,0.0008585001095677296,5.6748585227509167e-05,-0.0002588051455319939,0.0002924543688792634,0.00022031778752126693,-0.0006747233217101445,0.4267818331718445,22.748254776000977,0.1491362750530243,-14.108003616333008,-0.09367901086807251,-2.1197543144226074,0.38577598333358765,0
34,0.16501474380493164,-0.4267818331718445,-22.748254776000977,-0.1491362750530243,14.108003616333008,0.09367901086807251,2.1197543144226074,-0.38577598333358765,0.0,0.0,0.0,0.0,0.0,0.0,0.0,-0.4169300082315374,0.01617168664194232,-0.23292088816523546,0.253324314933211,-0.14241430504673577,-0.06779346616901588,-0.36869045897797365,1.6756069940893275,0.052512464770824996,0.029996832683594706,-2.7525105925095863,0.03425488962359593,2.766375570986006,0.769180902156573,1.6754973547542302,0.052104326824870026,0.029969505109285054,-2.752394845125968,0.0342448039870148,2.7663679543071322,0.7691630533470046,0.0005616302753370022,-0.0008585001095677296,-5.6748585227509167e-05,0.0002588051455319939,-0.0002924543688792634,-0.00022031778752126693,0.0006747233217101445,0.0,0.0,0.0,0.0,0.0,0.0,0.0,-0.00010963933509722246,-0.00040813794595497,-2.732757430965252e-05,0.00011574738361819215,-1.0085636581128044e-05,-7.616678873834104e-06,-1.7848809568343782e-05,-0.0005616302753370022,0.0008585001095677296,5.6748585227509167e-05,-0.0002588051455319939,0.0002924543688792634,0.00022031778752126693,-0.0006747233217101445,0.4267818331718445,22.748254776000977,0.1491362750530243,-14.108003616333008,-0.09367901086807251,-2.1197543144226074,0.38577598333358765,0
35,0.1699976921081543,-0.4267818331718445,-22.748254776000977,-0.1491362750530243,14.108003616333008,0.09367901086807251,2.1197543144226074,-0.38577598333358765,0.0,0.0,0.0,0.0,0.0,0.0,0.0,-0.4169300082315374,0.01617168664194232,-0.23292088816523546,0.253324314933211,-0.14241430504673577,-0.06779346616901588,-0.36869045897797365,1.6756069940893275,0.052512464770824996,0.029996832683594706,-2.7525105925095863,0.03425488962359593,2.766375570986006,0.769180902156573,1.6754973547542302,0.052104326824870026,0.029969505109285054,-2.752394845125968,0.0342448039870148,2.7663679543071322,0.7691630533470046,0.0005616302753370022,-0.0008585001095677296,-5.6748585227509167e-05,0.0002588051455319939,-0.0002924543688792634,-0.00022031778752126693,0.0006747233217101445,0.0,0.0,0.0,0.0,0.0,0.0,0.0,-0.00010963933509722246,-0.00040813794595497,-2.732757430965252e-05,0.00011574738361819215,-1.0085636581128044e-05,-7.616678873834104e-06,-1.7848809568343782e-05,-0.0005616302753370022,0.0008585001095677296,5.6748585227509167e-05,-0.0002588051455319939,0.0002924543688792634,0.00022031778752126693,-0.0006747233217101445,0.4267818331718445,22.748254776000977,0.1491362750530243,-14.108003616333008,-0.09367901086807251,-2.1197543144226074,0.38577598333358765,0
36,0.17499756813049316,-0.4267818331718445,-22.748254776000977,-0.1491362750530243,14.108003616333008,0.09367901086807251,2.1197543144226074,-0.38577598333358765,0.0,0.0,0.0,0.0,0.0,0.0,0.0,-0.4169300082315374,0.01617168664194232,-0.23292088816523546,0.253324314933211,-0.14241430504673577,-0.06779346616901588,-0.36869045897797365,1.6756069940893275,0.052512464770824996,0.029996832683594706,-2.7525105925095863,0.03425488962359593,2.766375570986006,0.769180902156573,1.6754973547542302,0.052104326824870026,0.029969505109285054,-2.752394845125968,0.0342448039870148,2.7663679543071322,0.7691630533470046,0.0005616302753370022,-0.0008585001095677296,-5.6748585227509167e-05,0.0002588051455319939,-0.0002924543688792634,-0.00022031778752126693,0.0006747233217101445,0.0,0.0,0.0,0.0,0.0,0.0,0.0,-0.00010963933509722246,-0.00040813794595497,-2.732757430965252e-05,0.00011574738361819215,-1.0085636581128044e-05,-7.616678873834104e-06,-1.7848809568343782e-05,-0.0005616302753370022,0.0008585001095677296,5.6748585227509167e-05,-0.0002588051455319939,0.0002924543688792634,0.00022031778752126693,-0.0006747233217101445,0.4267818331718445,22.748254776000977,0.1491362750530243,-14.108003616333008,-0.09367901086807251,-2.1197543144226074,0.38577598333358765,0
37,0.17999267578125,-0.3514034152030945,-22.772058486938477,-0.1491362750530243,14.080232620239258,0.09367901086807251,2.1133456230163574,-0.35831016302108765,0.0,0.0,0.0,0.0,0.0,0.0,0.0,-0.4093523266360334,0.0172651373238303,-0.2272785214608294,0.2553483605826577,-0.1432420239424789,-0.06798933762771286,-0.3700164631830512,1.6756017042627316,0.052513422114889796,0.02999660455529733,-2.7525087201958796,0.03425595422254679,2.766376283062829,0.7691789100368817,1.6754973547542302,0.052104326824870026,0.029969505109285054,-2.752394845125968,0.0342448039870148,2.7663679543071322,0.7691630533470046,-0.0011610139661306427,-0.0001451301595256301,0.000348045294233999,0.0011962602820958642,-0.00041368123349987064,0.00010506081752653307,-0.0010167530353644514,0.0,0.0,0.0,0.0,0.0,0.0,0.0,-0.00010434950850135571,-0.0004090952900197703,-2.7099446012274903e-05,0.00011387506991145102,-1.1150235531991182e-05,-8.328755696673795e-06,-1.5856689877025154e-05,0.0011610139661306427,0.0001451301595256301,-0.000348045294233999,-0.0011962602820958642,0.00041368123349987064,-0.00010506081752653307,0.0010167530353644514,0.3514034152030945,22.772058486938477,0.1491362750530243,-14.080232620239258,-0.09367901086807251,-2.1133456230163574,0.35831016302108765,0
38,0.18504786491394043,-0.3514034152030945,-22.772058486938477,-0.1491362750530243,14.080232620239258,0.09367901086807251,2.1133456230163574,-0.35831016302108765,0.0,0.0,0.0,0.0,0.0,0.0,0.0,-0.4093523266360334,0.0172651373238303,-0.2272785214608294,0.2553483605826577,-0.1432420239424789,-0.06798933762771286,-0.3700164631830512,1.6756017042627316,0.052513422114889796,0.02999660455529733,-2.7525087201958796,0.03425595422254679,2.766376283062829,0.7691789100368817,1.6754973547542302,0.052104326824870026,0.029969505109285054,-2.752394845125968,0.0342448039870148,2.7663679543071322,0.7691630533470046,-0.0011610139661306427,-0.0001451301595256301,0.000348045294233999,0.0011962602820958642,-0.00041368123349987064,0.00010506081752653307,-0.0010167530353644514,0.0,0.0,0.0,0.0,0.0,0.0,0.0,-0.00010434950850135571,-0.0004090952900197703,-2.7099446012274903e-05,0.00011387506991145102,-1.1150235531991182e-05,-8.328755696673795e-06,-1.5856689877025154e-05,0.0011610139661306427,0.0001451301595256301,-0.000348045294233999,-0.0011962602820958642,0.00041368123349987064,-0.00010506081752653307,0.0010167530353644514,0.3514034152030945,22.772058486938477,0.1491362750530243,-14.080232620239258,-0.09367901086807251,-2.1133456230163574,0.35831016302108765,0
39,0.1900177001953125,-0.3752071261405945,-22.772058486938477,-0.09756157547235489,14.108003616333008,0.08818584680557251,2.1197543144226074,-0.38577598333358765,0.0,0.0,0.0,0.0,0.0,0.0,0.0,-0.40594131409044765,0.020251323141546013,-0.22395650874528858,0.25369574816602386,-0.1433707826109481,-0.06917644323444593,-0.3727235797538319,1.675603374811641,0.0525162661805445,0.029992976500017345,-2.7525105924745934,0.0342554999691487,2.766375570986006,0.7691809065174371,1.6754973547542302,0.052104326824870026,0.029969505109285054,-2.752394845125968,0.0342448039870148,2.7663679543071322,0.7691630533470046,-0.00024329905586213286,-0.00016705565839868702,-0.0007043904286218999,0.00029587925643843074,-4.867726673688e-05,-0.0002051188593296524,-0.00014676554473629831,0.0,0.0,0.0,0.0,0.0,0.0,0.0,-0.0001060200574107828,-0.00041193935567447604,-2.3471390732290875e-05,0.00011574734862529468,-1.069598213390005e-05,-7.616678873834104e-06,-1.7853170432458043e-05,0.00024329905586213286,0.00016705565839868702,0.0007043904286218999,-0.00029587925643843074,4.867726673688e-05,0.0002051188593296524,0.00014676554473629831,0.3752071261405945,22.772058486938477,0.09756157547235489,-14.108003616333008,-0.08818584680557251,-2.1197543144226074,0.38577598333358765,0
40,0.19502806663513184,-0.3752071261405945,-22.772058486938477,-0.09756157547235489,14.108003616333008,0.08818584680557251,2.1197543144226074,-0.38577598333358765,0.0,0.0,0.0,0.0,0.0,0.0,0.0,-0.40594131409044765,0.020251323141546013,-0.22395650874528858,0.25369574816602386,-0.1433707826109481,-0.06917644323444593,-0.3727235797538319,1.675603374811641,0.0525162661805445,0.029992976500017345,-2.7525105924745934,0.0342554999691487,2.766375570986006,0.7691809065174371,1.6754973547542302,0.052104326824870026,0.029969505109285054,-2.752394845125968,0.0342448039870148,2.7663679543071322,0.7691630533470046,-0.00024329905586213286,-0.00016705565839868702,-0.0007043904286218999,0.00029587925643843074,-4.867726673688e-05,-0.0002051188593296524,-0.00014676554473629831,0.0,0.0,0.0,0.0,0.0,0.0,0.0,-0.0001060200574107828,-0.00041193935567447604,-2.3471390732290875e-05,0.00011574734862529468,-1.069598213390005e-05,-7.616678873834104e-06,-1.7853170432458043e-05,0.00024329905586213286,0.00016705565839868702,0.0007043904286218999,-0.00029587925643843074,4.867726673688e-05,0.0002051188593296524,0.00014676554473629831,0.3752071261405945,22.772058486938477,0.09756157547235489,-14.108003616333008,-0.08818584680557251,-2.1197543144226074,0.38577598333358765,0
41,0.20000672340393066,-0.4267818331718445,-22.772058486938477,-0.1253325641155243,14.131807327270508,0.08818584680557251,2.1133456230163574,-0.39950889348983765,0.0,0.0,0.0,0.0,0.0,0.0,0.0,-0.40441970339738625,0.014106500813295644,-0.22189558192470885,0.25483761941383104,-0.14315650841786207,-0.06907951863676991,-0.37479943120305526,1.6756069666172277,0.05251350233894237,0.02999566279953641,-2.7525122374352025,0.034255499968926115,2.766376283062829,0.7691824285200125,1.6754973547542302,0.052104326824870026,0.029969505109285054,-2.752394845125968,0.0342448039870148,2.7663679543071322,0.7691630533470046,0.0008699446160507842,-0.0006836862712214803,-7.346275963234379e-05,-0.0005917228508069177,-8.952606180519154e-05,0.0001325014265858445,0.0009119218037112473,0.0,0.0,0.0,0.0,0.0,0.0,0.0,-0.00010961186299751624,-0.0004091755140723449,-2.6157690251354948e-05,0.00011739230923435429,-1.0695981911314212e-05,-8.328755696673795e-06,-1.9375173007873947e-05,-0.0008699446160507842,0.0006836862712214803,7.346275963234379e-05,0.0005917228508069177,8.952606180519154e-05,-0.0001325014265858445,-0.0009119218037112473,0.4267818331718445,22.772058486938477,0.1253325641155243,-14.131807327270508,-0.08818584680557251,-2.1133456230163574,0.39950889348983765,0
42,0.20499610900878906,-0.4267818331718445,-22.772058486938477,-0.1253325641155243,14.131807327270508,0.08818584680557251,2.1133456230163574,-0.39950889348983765,0.0,0.0,0.0,0.0,0.0,0.0,0.0,-0.40441970339738625,0.014106500813295644,-0.22189558192470885,0.25483761941383104,-0.14315650841786207,-0.06907951863676991,-0.37479943120305526,1.6756069666172277,0.05251350233894237,0.02999566279953641,-2.7525122374352025,0.034255499968926115,2.766376283062829,0.7691824285200125,1.6754973547542302,0.052104326824870026,0.029969505109285054,-2.752394845125968,0.0342448039870148,2.7663679543071322,0.7691630533470046,0.0008699446160507842,-0.0006836862712214803,-7.346275963234379e-05,-0.0005917228508069177,-8.952606180519154e-05,0.0001325014265858445,0.0009119218037112473,0.0,0.0,0.0,0.0,0.0,0.0,0.0,-0.00010961186299751624,-0.0004091755140723449,-2.6157690251354948e-05,0.00011739230923435429,-1.0695981911314212e-05,-8.328755696673795e-06,-1.9375173007873947e-05,-0.0008699446160507842,0.0006836862712214803,7.346275963234379e-05,0.0005917228508069177,8.952606180519154e-05,-0.0001325014265858445,-0.0009119218037112473,0.4267818331718445,22.772058486938477,0.1253325641155243,-14.131807327270508,-0.08818584680557251,-2.1133456230163574,0.39950889348983765,0
43,0.21001744270324707,-0.4783565402030945,-22.772058486938477,-0.1729399859905243,14.080232620239258,0.08177715539932251,2.1197543144226074,-0.39950889348983765,0.0,0.0,0.0,0.0,0.0,0.0,0.0,-0.407533683469618,0.017405818689832462,-0.22418501200448201,0.25471793113729263,-0.14265887794517917,-0.06918904414387438,-0.37404838653101863,1.6756106133668587,0.05251555394364865,0.029999012016226945,-2.7525087201965994,0.03425621204574903,2.766375570986006,0.7691834878351088,1.6754973547542302,0.052104326824870026,0.029969505109285054,-2.752394845125968,0.0342448039870148,2.7663679543071322,0.7691630533470046,0.0008744083070820212,0.0001161053387813748,0.0006931924790561054,0.0008650112343161108,0.0002664923099763375,-0.00028867401302672027,0.0012497915931333429,0.0,0.0,0.0,0.0,0.0,0.0,0.0,-0.00011325861262845294,-0.00041122711877862594,-2.9506906941891703e-05,0.00011387507063131963,-1.1408058734230231e-05,-7.616678873834104e-06,-2.0434488104181803e-05,-0.0008744083070820212,-0.0001161053387813748,-0.0006931924790561054,-0.0008650112343161108,-0.0002664923099763375,0.00028867401302672027,-0.0012497915931333429,0.4783565402030945,22.772058486938477,0.1729399859905243,-14.080232620239258,-0.08177715539932251,-2.1197543144226074,0.39950889348983765,0
44,0.21506118774414062,-0.4783565402030945,-22.772058486938477,-0.1729399859905243,14.080232620239258,0.08177715539932251,2.1197543144226074,-0.39950889348983765,0.0,0.0,0.0,0.0,0.0,0.0,0.0,-0.407533683469618,0.017405818689832462,-0.22418501200448201,0.25471793113729263,-0.14265887794517917,-0.06918904414387438,-0.37404838653101863,1.6756106133668587,0.05251555394364865,0.029999012016226945,-2.7525087201965994,0.03425621204574903,2.766375570986006,0.7691834878351088,1.6754973547542302,0.052104326824870026,0.029969505109285054,-2.752394845125968,0.0342448039870148,2.7663679543071322,0.7691630533470046,0.0008744083070820212,0.0001161053387813748,0.0006931924790561054,0.0008650112343161108,0.0002664923099763375,-0.00028867401302672027,0.0012497915931333429,0.0,0.0,0.0,0.0,0.0,0.0,0.0,-0.00011325861262845294,-0.00041122711877862594,-2.9506906941891703e-05,0.00011387507063131963,-1.1408058734230231e-05,-7.616678873834104e-06,-2.0434488104181803e-05,-0.0008744083070820212,-0.0001161053387813748,-0.0006931924790561054,-0.0008650112343161108,-0.0002664923099763375,0.00028867401302672027,-0.0012497915931333429,0.4783565402030945,22.772058486938477,0.1729399859905243,-14.080232620239258,-0.08177715539932251,-2.1197543144226074,0.39950889348983765,0
45,0.22002363204956055,-0.4267818331718445,-22.748254776000977,-0.2007109820842743,14.108003616333008,0.07628399133682251,2.1133456230163574,-0.39218467473983765,0.0,0.0,0.0,0.0,0.0,0.0,0.0,-0.410652176656706,0.019164537004746192,-0.22387412306374505,0.25448971829559486,-0.1432888558578106,-0.06916774769782165,-0.37250556214108915,1.6756069116730286,0.05251175156270865,0.03000305833608433,-2.7525106690390064,0.03425682239731153,2.766376283062829,0.7691816278018508,1.6754973547542302,0.052104326824870026,0.029969505109285054,-2.752394845125968,0.0342448039870148,2.7663679543071322,0.7691630533470046,-0.0005043806458487129,-0.0002379065427435726,0.0005710546532365663,0.0003123628751701143,0.00045559206019384,0.00019035731327397034,0.0016461242882453188,0.0,0.0,0.0,0.0,0.0,0.0,0.0,-0.00010955691879832585,-0.000407424737838627,-3.355322679927594e-05,0.00011582391303832651,-1.2018410296729676e-05,-8.328755696673795e-06,-1.8574454846209676e-05,0.0005043806458487129,0.0002379065427435726,-0.0005710546532365663,-0.0003123628751701143,-0.00045559206019384,-0.00019035731327397034,-0.0016461242882453188,0.4267818331718445,22.748254776000977,0.2007109820842743,-14.108003616333008,-0.07628399133682251,-2.1133456230163574,0.39218467473983765,0
46,0.2250359058380127,-0.4267818331718445,-22.748254776000977,-0.2007109820842743,14.108003616333008,0.07628399133682251,2.1133456230163574,-0.39218467473983765,0.0,0.0,0.0,0.0,0.0,0.0,0.0,-0.410652176656706,0.019164537004746192,-0.22387412306374505,0.25448971829559486,-0.1432888558578106,-0.06916774769782165,-0.37250556214108915,1.6756069116730286,0.05251175156270865,0.03000305833608433,-2.7525106690390064,0.03425682239731153,2.766376283062829,0.7691816278018508,1.6754973547542302,0.052104326824870026,0.029969505109285054,-2.752394845125968,0.0342448039870148,2.7663679543071322,0.7691630533470046,-0.0005043806458487129,-0.0002379065427435726,0.0005710546532365663,0.0003123628751701143,0.00045559206019384,0.00019035731327397034,0.0016461242882453188,0.0,0.0,0.0,0.0,0.0,0.0,0.0,-0.00010955691879832585,-0.000407424737838627,-3.355322679927594e-05,0.00011582391303832651,-1.2018410296729676e-05,-8.328755696673795e-06,-1.8574454846209676e-05,0.0005043806458487129,0.0002379065427435726,-0.0005710546532365663,-0.0003123628751701143,-0.00045559206019384,-0.00019035731327397034,-0.0016461242882453188,0.4267818331718445,22.748254776000977,0.2007109820842743,-14.108003616333008,-0.07628399133682251,-2.1133456230163574,0.39218467473983765,0
47,0.2300257682800293,-0.4267818331718445,-22.772058486938477,-0.2007109820842743,14.108003616333008,0.08177715539932251,2.1133456230163574,-0.34457725286483765,0.0,0.0,0.0,0.0,0.0,0.0,0.0,-0.41465294197858865,0.020713637260648086,-0.2277211022500585,0.25465537486725953,-0.14415662347073377,-0.06913052471963124,-0.36889052524330773,1.6756069940888623,0.052513658757446825,0.030001174373197142,-2.7525106690390064,0.03425621204574903,2.766376283062829,0.7691763245737578,1.6754973547542302,0.052104326824870026,0.029969505109285054,-2.752394845125968,0.0342448039870148,2.7663679543071322,0.7691630533470046,-0.0001447520386706337,0.0002560795608937885,0.000534887635009996,9.872820674574137e-05,0.0002169292913643148,-1.1610945632477976e-05,-0.00022128254070869716,0.0,0.0,0.0,0.0,0.0,0.0,0.0,-0.00010963933463203901,-0.0004093319325767994,-3.166926391208816e-05,0.00011582391303832651,-1.1408058734230231e-05,-8.328755696673795e-06,-1.3271226753208687e-05,0.0001447520386706337,-0.0002560795608937885,-0.000534887635009996,-9.872820674574137e-05,-0.0002169292913643148,1.1610945632477976e-05,0.00022128254070869716,0.4267818331718445,22.772058486938477,0.2007109820842743,-14.108003616333008,-0.08177715539932251,-2.1133456230163574,0.34457725286483765,0
48,0.23500967025756836,-0.4267818331718445,-22.772058486938477,-0.2007109820842743,14.108003616333008,0.08177715539932251,2.1133456230163574,-0.34457725286483765,0.0,0.0,0.0,0.0,0.0,0.0,0.0,-0.41465294197858865,0.020713637260648086,-0.2277211022500585,0.25465537486725953,-0.14415662347073377,-0.06913052471963124,-0.36889052524330773,1.6756069940888623,0.052513658757446825,0.030001174373197142,-2.7525106690390064,0.03425621204574903,2.766376283062829,0.7691763245737578,1.6754973547542302,0.052104326824870026,0.029969505109285054,-2.752394845125968,0.0342448039870148,2.7663679543071322,0.7691630533470046,-0.0001447520386706337,0.0002560795608937885,0.000534887635009996,9.872820674574137e-05,0.0002169292913643148,-1.1610945632477976e-05,-0.00022128254070869716,0.0,0.0,0.0,0.0,0.0,0.0,0.0,-0.00010963933463203901,-0.0004093319325767994,-3.166926391208816e-05,0.00011582391303832651,-1.1408058734230231e-05,-8.328755696673795e-06,-1.3271226753208687e-05,0.0001447520386706337,-0.0002560795608937885,-0.000534887635009996,-9.872820674574137e-05,-0.0002169292913643148,1.1610945632477976e-05,0.00022128254070869716,0.4267818331718445,22.772058486938477,0.2007109820842743,-14.108003616333008,-0.08177715539932251,-2.1133456230163574,0.34457725286483765,0
49,0.24000906944274902,-0.4029781222343445,-22.772058486938477,-0.09756157547235489,14.108003616333008,0.09367901086807251,2.1133456230163574,-0.33084434270858765,0.0,0.0,0.0,0.0,0.0,0.0,0.0,-0.4162423084169767,0.016722813250762976,-0.23055701368216797,0.25969173001026546,-0.14441926578924422,-0.06909170114475864,-0.36557783504115937,1.675605323653472,0.052515631927249985,0.029993932991332375,-2.7525106690390064,0.034254889617363615,2.766376283062829,0.7691747988024458,1.6754973547542302,0.052104326824870026,0.029969505109285054,-2.752394845125968,0.0342448039870148,2.7663679543071322,0.7691630533470046,-0.00034198988518938973,-0.0006218644001241068,-0.0010476385807860118,0.000536585742557442,-0.00028723797289811914,0.00017395471505045302,-0.001072089854313182,0.0,0.0,0.0,0.0,0.0,0.0,0.0,-0.00010796889924180597,-0.0004113051023799594,-2.4427882047321076e-05,0.00011582391303832651,-1.0085630348814767e-05,-8.328755696673795e-06,-1.1745455441136698e-05,0.00034198988518938973,0.0006218644001241068,0.0010476385807860118,-0.000536585742557442,0.00028723797289811914,-0.00017395471505045302,0.001072089854313182,0.4029781222343445,22.772058486938477,0.09756157547235489,-14.108003616333008,-0.09367901086807251,-2.1133456230163574,0.33084434270858765,0
50,0.24504709243774414,-0.4029781222343445,-22.772058486938477,-0.09756157547235489,14.108003616333008,0.09367901086807251,2.1133456230163574,-0.33084434270858765,0.0,0.0,0.0,0.0,0.0,0.0,0.0,-0.4162423084169767,0.016722813250762976,-0.23055701368216797,0.25969173001026546,-0.14441926578924422,-0.06909170114475864,-0.36557783504115937,1.675605323653472,0.052515631927249985,0.029993932991332375,-2.7525106690390064,0.034254889617363615,2.766376283062829,0.7691747988024458,1.6754973547542302,0.052104326824870026,0.029969505109285054,-2.752394845125968,0.0342448039870148,2.7663679543071322,0.7691630533470046,-0.00034198988518938973,-0.0006218644001241068,-0.0010476385807860118,0.000536585742557442,-0.00028723797289811914,0.00017395471505045302,-0.001072089854313182,0.0,0.0,0.0,0.0,0.0,0.0,0.0,-0.00010796889924180597,-0.0004113051023799594,-2.4427882047321076e-05,0.00011582391303832651,-1.0085630348814767e-05,-8.328755696673795e-06,-1.1745455441136698e-05,0.00034198988518938973,0.0006218644001241068,0.0010476385807860118,-0.000536585742557442,0.00028723797289811914,-0.00017395471505045302,0.001072089854313182,0.4029781222343445,22.772058486938477,0.09756157547235489,-14.108003616333008,-0.09367901086807251,-2.1133456230163574,0.33084434270858765,0
51,0.25003695487976074,-0.3514034152030945,-22.819665908813477,-0.1253325641155243,14.080232620239258,0.09367901086807251,2.1197543144226074,-0.34457725286483765,0.0,0.0,0.0,0.0,0.0,0.0,0.0,-0.41203433845791343,0.019004413201394517,-0.2270203635449408,0.2550720180070889,-0.144951392003885,-0.07009879963587869,-0.3638647487420831,1.6756017043757856,0.052517499510496196,0.02999566280493583,-2.7525066539028233,0.034254891077727376,2.766375570986006,0.7691773841579763,1.6754973547542302,0.052104326824870026,0.029969505109285054,-2.752394845125968,0.0342448039870148,2.7663679543071322,0.7691630533470046,-0.00047752067137484075,0.000699893615559133,0.00029447153375557916,0.0005466266823696956,-0.0003478981649877145,-7.234521506934452e-05,-0.0004515328695619437,0.0,0.0,0.0,0.0,0.0,0.0,0.0,-0.00010434962155536631,-0.00041317268562617027,-2.6157695650775442e-05,0.00011180877685523782,-1.0087090712575242e-05,-7.616678873834104e-06,-1.4330810971685537e-05,0.00047752067137484075,-0.000699893615559133,-0.00029447153375557916,-0.0005466266823696956,0.0003478981649877145,7.234521506934452e-05,0.0004515328695619437,0.3514034152030945,22.819665908813477,0.1253325641155243,-14.080232620239258,-0.09367901086807251,-2.1197543144226074,0.34457725286483765,0
52,0.2550346851348877,-0.3514034152030945,-22.819665908813477,-0.1253325641155243,14.080232620239258,0.09367901086807251,2.1197543144226074,-0.34457725286483765,0.0,0.0,0.0,0.0,0.0,0.0,0.0,-0.41203433845791343,0.019004413201394517,-0.2270203635449408,0.2550720180070889,-0.144951392003885,-0.07009879963587869,-0.3638647487420831,1.6756017043757856,0.052517499510496196,0.02999566280493583,-2.7525066539028233,0.034254891077727376,2.766375570986006,0.7691773841579763,1.6754973547542302,0.052104326824870026,0.029969505109285054,-2.752394845125968,0.0342448039870148,2.7663679543071322,0.7691630533470046,-0.00047752067137484075,0.000699893615559133,0.00029447153375557916,0.0005466266823696956,-0.0003478981649877145,-7.234521506934452e-05,-0.0004515328695619437,0.0,0.0,0.0,0.0,0.0,0.0,0.0,-0.00010434962155536631,-0.00041317268562617027,-2.6157695650775442e-05,0.00011180877685523782,-1.0087090712575242e-05,-7.616678873834104e-06,-1.4330810971685537e-05,0.00047752067137484075,-0.000699893615559133,-0.00029447153375557916,-0.0005466266823696956,0.0003478981649877145,7.234521506934452e-05,0.0004515328695619437,0.3514034152030945,22.819665908813477,0.1253325641155243,-14.080232620239258,-0.09367901086807251,-2.1197543144226074,0.34457725286483765,0
53,0.26015329360961914,-0.3752071261405945,-22.772058486938477,-0.09756157547235489,14.131807327270508,0.08818584680557251,2.1069369316101074,-0.35831016302108765,0.0,0.0,0.0,0.0,0.0,0.0,0.0,-0.40612843264379733,0.010685244848862198,-0.22482360863700365,0.2585985832539932,-0.14483107507754447,-0.06892452700633694,-0.36233793531245595,1.675603374698587,0.0525134224678339,0.02999305579610149,-2.752512339463198,0.03425549996893436,2.7663769951396517,0.769177850404734,1.6754973547542302,0.052104326824870026,0.029969505109285054,-2.752394845125968,0.0342448039870148,2.7663679543071322,0.7691630533470046,0.0010866885212427535,-0.0009130259249380793,-0.00047655729184105405,-0.0001738875136044602,-0.0002383696731679119,0.00037915739640140245,-0.0002879138103799879,0.0,0.0,0.0,0.0,0.0,0.0,0.0,-0.0001060199443567722,-0.0004090956429638748,-2.355068681643771e-05,0.0001174943372297399,-1.0695981919557618e-05,-9.040832519513486e-06,-1.4797057729332153e-05,-0.0010866885212427535,0.0009130259249380793,0.00047655729184105405,0.0001738875136044602,0.0002383696731679119,-0.00037915739640140245,0.0002879138103799879,0.3752071261405945,22.772058486938477,0.09756157547235489,-14.131807327270508,-0.08818584680557251,-2.1069369316101074,0.35831016302108765,0
54,0.26500964164733887,-0.3752071261405945,-22.772058486938477,-0.09756157547235489,14.131807327270508,0.08818584680557251,2.1069369316101074,-0.35831016302108765,0.0,0.0,0.0,0.0,0.0,0.0,0.0,-0.40612843264379733,0.010685244848862198,-0.22482360863700365,0.2585985832539932,-0.14483107507754447,-0.06892452700633694,-0.36233793531245595,1.675603374698587,0.0525134224678339,0.02999305579610149,-2.752512339463198,0.03425549996893436,2.7663769951396517,0.769177850404734,1.6754973547542302,0.052104326824870026,0.029969505109285054,-2.752394845125968,0.0342448039870148,2.7663679543071322,0.7691630533470046,0.0010866885212427535,-0.0009130259249380793,-0.00047655729184105405,-0.0001738875136044602,-0.0002383696731679119,0.00037915739640140245,-0.0002879138103799879,0.0,0.0,0.0,0.0,0.0,0.0,0.0,-0.0001060199443567722,-0.0004090956429638748,-2.355068681643771e-05,0.0001174943372297399,-1.0695981919557618e-05,-9.040832519513486e-06,-1.4797057729332153e-05,-0.0010866885212427535,0.0009130259249380793,0.00047655729184105405,0.0001738875136044602,0.0002383696731679119,-0.00037915739640140245,0.0002879138103799879,0.3752071261405945,22.772058486938477,0.09756157547235489,-14.131807327270508,-0.08818584680557251,-2.1069369316101074,0.35831016302108765,0
55,0.27001094818115234,-0.4267818331718445,-22.748254776000977,-0.09756157547235489,14.155611038208008,0.07628399133682251,2.1197543144226074,-0.37845176458358765,0.0,0.0,0.0,0.0,0.0,0.0,0.0,-0.4060463156707664,0.02004924057110362,-0.2312362410441356,0.2508919980456488,-0.14443309492482453,-0.07032050717565635,-0.3622856252864238,1.6756069940516423,0.052511751883477314,0.029993927389712502,-2.752514009910717,0.03425670401586427,2.766375570986006,0.7691843269069989,1.6754973547542302,0.052104326824870026,0.029969505109285054,-2.752394845125968,0.0342448039870148,2.7663679543071322,0.7691630533470046,0.0007138375598320655,-0.0005524308823574238,-0.0009808174087107813,-0.0013119927308664707,0.00038527622486096783,-9.992360655294479e-05,0.0009370462209230314,0.0,0.0,0.0,0.0,0.0,0.0,0.0,-0.00010963929741203415,-0.0004074250586072886,-2.4422280427448262e-05,0.00011916478474871539,-1.190002884946667e-05,-7.616678873834104e-06,-2.1273559994261504e-05,-0.0007138375598320655,0.0005524308823574238,0.0009808174087107813,0.0013119927308664707,-0.00038527622486096783,9.992360655294479e-05,-0.0009370462209230314,0.4267818331718445,22.748254776000977,0.09756157547235489,-14.155611038208008,-0.07628399133682251,-2.1197543144226074,0.37845176458358765,0
56,0.2749960422515869,-0.4267818331718445,-22.748254776000977,-0.09756157547235489,14.155611038208008,0.07628399133682251,2.1197543144226074,-0.37845176458358765,0.0,0.0,0.0,0.0,0.0,0.0,0.0,-0.4060463156707664,0.02004924057110362,-0.2312362410441356,0.2508919980456488,-0.14443309492482453,-0.07032050717565635,-0.3622856252864238,1.6756069940516423,0.052511751883477314,0.029993927389712502,-2.752514009910717,0.03425670401586427,2.766375570986006,0.7691843269069989,1.6754973547542302,0.052104326824870026,0.029969505109285054,-2.752394845125968,0.0342448039870148,2.7663679543071322,0.7691630533470046,0.0007138375598320655,-0.0005524308823574238,-0.0009808174087107813,-0.0013119927308664707,0.00038527622486096783,-9.992360655294479e-05,0.0009370462209230314,0.0,0.0,0.0,0.0,0.0,0.0,0.0,-0.00010963929741203415,-0.0004074250586072886,-2.4422280427448262e-05,0.00011916478474871539,-1.190002884946667e-05,-7.616678873834104e-06,-2.1273559994261504e-05,-0.0007138375598320655,0.0005524308823574238,0.0009808174087107813,0.0013119927308664707,-0.00038527622486096783,9.992360655294479e-05,-0.0009370462209230314,0.4267818331718445,22.748254776000977,0.09756157547235489,-14.155611038208008,-0.07628399133682251,-2.1197543144226074,0.37845176458358765,0
57,0.2800099849700928,-0.4267818331718445,-22.748254776000977,-0.09756157547235489,14.155611038208008,0.07628399133682251,2.1197543144226074,-0.37845176458358765,0.0,0.0,0.0,0.0,0.0,0.0,0.0,-0.4060463156707664,0.02004924057110362,-0.2312362410441356,0.2508919980456488,-0.14443309492482453,-0.07032050717565635,-0.3622856252864238,1.6756069940516423,0.052511751883477314,0.029993927389712502,-2.752514009910717,0.03425670401586427,2.766375570986006,0.7691843269069989,1.6754973547542302,0.052104326824870026,0.029969505109285054,-2.752394845125968,0.0342448039870148,2.7663679543071322,0.7691630533470046,0.0007138375598320655,-0.0005524308823574238,-0.0009808174087107813,-0.0013119927308664707,0.00038527622486096783,-9.992360655294479e-05,0.0009370462209230314,0.0,0.0,0.0,0.0,0.0,0.0,0.0,-0.00010963929741203415,-0.0004074250586072886,-2.4422280427448262e-05,0.00011916478474871539,-1.190002884946667e-05,-7.616678873834104e-06,-2.1273559994261504e-05,-0.0007138375598320655,0.0005524308823574238,0.0009808174087107813,0.0013119927308664707,-0.00038527622486096783,9.992360655294479e-05,-0.0009370462209230314,0.4267818331718445,22.748254776000977,0.09756157547235489,-14.155611038208008,-0.07628399133682251,-2.1197543144226074,0.37845176458358765,0
58,0.28504443168640137,-0.4267818331718445,-22.748254776000977,-0.09756157547235489,14.155611038208008,0.07628399133682251,2.1197543144226074,-0.37845176458358765,0.0,0.0,0.0,0.0,0.0,0.0,0.0,-0.4060463156707664,0.02004924057110362,-0.2312362410441356,0.2508919980456488,-0.14443309492482453,-0.07032050717565635,-0.3622856252864238,1.6756069940516423,0.052511751883477314,0.029993927389712502,-2.752514009910717,0.03425670401586427,2.766375570986006,0.7691843269069989,1.6754973547542302,0.052104326824870026,0.029969505109285054,-2.752394845125968,0.0342448039870148,2.7663679543071322,0.7691630533470046,0.0007138375598320655,-0.0005524308823574238,-0.0009808174087107813,-0.0013119927308664707,0.00038527622486096783,-9.992360655294479e-05,0.0009370462209230314,0.0,0.0,0.0,0.0,0.0,0.0,0.0,-0.00010963929741203415,-0.0004074250586072886,-2.4422280427448262e-05,0.00011916478474871539,-1.190002884946667e-05,-7.616678873834104e-06,-2.1273559994261504e-05,-0.0007138375598320655,0.0005524308823574238,0.0009808174087107813,0.0013119927308664707,-0.00038527622486096783,9.992360655294479e-05,-0.0009370462209230314,0.4267818331718445,22.748254776000977,0.09756157547235489,-14.155611038208008,-0.07628399133682251,-2.1197543144226074,0.37845176458358765,0
59,0.2900254726409912,-0.4505855441093445,-22.819665908813477,-0.1729399859905243,14.131807327270508,0.08818584680557251,2.1325716972351074,-0.33725303411483765,0.0,0.0,0.0,0.0,0.0,0.0,0.0,-0.40256697354750265,0.016030044905539755,-0.22779981724695317,0.2566774198117802,-0.14464884251264276,-0.06882499206568934,-0.36222103363276964,1.675608661472727,0.05251889470664826,0.02999829254072082,-2.752512339474862,0.03425549996825785,2.7663741468323604,0.7691755239851472,1.6754973547542302,0.052104326824870026,0.029969505109285054,-2.752394845125968,0.0342448039870148,2.7663679543071322,0.7691630533470046,0.0004966100303628474,0.0012411006824225993,0.00023981657947663048,-0.00026460132181880343,-2.5276048699875373e-05,-0.0006334330663623856,-0.0009952463661136517,0.0,0.0,0.0,0.0,0.0,0.0,0.0,-0.0001113067184967953,-0.0004145678817782314,-2.8787431435767924e-05,0.000117494348893743,-1.0695981243050157e-05,-6.192525228154722e-06,-1.2470638142580981e-05,-0.0004966100303628474,-0.0012411006824225993,-0.00023981657947663048,0.00026460132181880343,2.5276048699875373e-05,0.0006334330663623856,0.0009952463661136517,0.4505855441093445,22.819665908813477,0.1729399859905243,-14.131807327270508,-0.08818584680557251,-2.1325716972351074,0.33725303411483765,0
60,0.29506516456604004,-0.4505855441093445,-22.819665908813477,-0.1729399859905243,14.131807327270508,0.08818584680557251,2.1325716972351074,-0.33725303411483765,0.0,0.0,0.0,0.0,0.0,0.0,0.0,-0.40256697354750265,0.016030044905539755,-0.22779981724695317,0.2566774198117802,-0.14464884251264276,-0.06882499206568934,-0.36222103363276964,1.675608661472727,0.05251889470664826,0.02999829254072082,-2.752512339474862,0.03425549996825785,2.7663741468323604,0.7691755239851472,1.6754973547542302,0.052104326824870026,0.029969505109285054,-2.752394845125968,0.0342448039870148,2.7663679543071322,0.7691630533470046,0.0004966100303628474,0.0012411006824225993,0.00023981657947663048,-0.00026460132181880343,-2.5276048699875373e-05,-0.0006334330663623856,-0.0009952463661136517,0.0,0.0,0.0,0.0,0.0,0.0,0.0,-0.0001113067184967953,-0.0004145678817782314,-2.8787431435767924e-05,0.000117494348893743,-1.0695981243050157e-05,-6.192525228154722e-06,-1.2470638142580981e-05,-0.0004966100303628474,-0.0012411006824225993,-0.00023981657947663048,0.00026460132181880343,2.5276048699875373e-05,0.0006334330663623856,0.0009952463661136517,0.4505855441093445,22.819665908813477,0.1729399859905243,-14.131807327270508,-0.08818584680557251,-2.1325716972351074,0.33725303411483765,0
61,0.30001306533813477,-0.4267818331718445,-22.772058486938477,-0.1491362750530243,14.108003616333008,0.08818584680557251,2.1197543144226074,-0.35831016302108765,0.0,0.0,0.0,0.0,0.0,0.0,0.0,-0.4037232750182871,0.014767536528879112,-0.22716812447643395,0.2558823806843542,-0.14503069883855,-0.0678998951831176,-0.36164073729013535,1.6756062523426196,0.052514377827160764,0.029998806960420215,-2.7525106690390064,0.03425549996892611,2.766375688723576,0.7691782079721877,1.6754973547542302,0.052104326824870026,0.029969505109285054,-2.752394845125968,0.0342448039870148,2.7663679543071322,0.7691630533470046,-8.146102748191502e-05,-0.0003660252069298592,-0.0002541385432543401,1.2194984362021997e-05,2.1445142509188158e-05,-4.95902200594925e-05,-6.991911518628565e-05,0.0,0.0,0.0,0.0,0.0,0.0,0.0,-0.00010889758838938945,-0.0004100510022907386,-2.930185113516129e-05,0.00011582391303832651,-1.0695981911307273e-05,-7.734416443749836e-06,-1.5154625183089188e-05,8.146102748191502e-05,0.0003660252069298592,0.0002541385432543401,-1.2194984362021997e-05,-2.1445142509188158e-05,4.95902200594925e-05,6.991911518628565e-05,0.4267818331718445,22.772058486938477,0.1491362750530243,-14.108003616333008,-0.08818584680557251,-2.1197543144226074,0.35831016302108765,0
62,0.3050081729888916,-0.4267818331718445,-22.772058486938477,-0.1491362750530243,14.108003616333008,0.08818584680557251,2.1197543144226074,-0.35831016302108765,0.0,0.0,0.0,0.0,0.0,0.0,0.0,-0.4037232750182871,0.014767536528879112,-0.22716812447643395,0.2558823806843542,-0.14503069883855,-0.0678998951831176,-0.36164073729013535,1.6756062523426196,0.052514377827160764,0.029998806960420215,-2.7525106690390064,0.03425549996892611,2.766375688723576,0.7691782079721877,1.6754973547542302,0.052104326824870026,0.029969505109285054,-2.752394845125968,0.0342448039870148,2.7663679543071322,0.7691630533470046,-8.146102748191502e-05,-0.0003660252069298592,-0.0002541385432543401,1.2194984362021997e-05,2.1445142509188158e-05,-4.95902200594925e-05,-6.991911518628565e-05,0.0,0.0,0.0,0.0,0.0,0.0,0.0,-0.00010889758838938945,-0.0004100510022907386,-2.930185113516129e-05,0.00011582391303832651,-1.0695981911307273e-05,-7.734416443749836e-06,-1.5154625183089188e-05,8.146102748191502e-05,0.0003660252069298592,0.0002541385432543401,-1.2194984362021997e-05,-2.1445142509188158e-05,4.95902200594925e-05,6.991911518628565e-05,0.4267818331718445,22.772058486938477,0.1491362750530243,-14.108003616333008,-0.08818584680557251,-2.1197543144226074,0.35831016302108765,0
63,0.31000280380249023,-0.4267818331718445,-22.795862197875977,-0.1253325641155243,14.108003616333008,0.08177715539932251,2.1197543144226074,-0.35098594427108765,0.0,0.0,0.0,0.0,0.0,0.0,0.0,-0.4092239993064399,0.014334398409283931,-0.22961638251001643,0.2565978835787423,-0.14489750317530517,-0.06690186402968198,-0.36017335411718937,1.6756069940879317,0.052517252540272605,0.029997295329067617,-2.7525106662045835,0.03425621204574903,2.766376630624357,0.7691770410118278,1.6754973547542302,0.052104326824870026,0.029969505109285054,-2.752394845125968,0.0342448039870148,2.7663679543071322,0.7691630533470046,-0.00030393283962318367,0.0001287478097888958,-0.0006473937668802693,0.000513614376899242,0.00029305037190514985,0.0001754204701674137,-0.0005694215620913645,0.0,0.0,0.0,0.0,0.0,0.0,0.0,-0.00010963933370145007,-0.00041292571540257894,-2.7790219782563436e-05,0.00011582107861540791,-1.1408058734230231e-05,-8.676317224676211e-06,-1.3987664823189583e-05,0.00030393283962318367,-0.0001287478097888958,0.0006473937668802693,-0.000513614376899242,-0.00029305037190514985,-0.0001754204701674137,0.0005694215620913645,0.4267818331718445,22.795862197875977,0.1253325641155243,-14.108003616333008,-0.08177715539932251,-2.1197543144226074,0.35098594427108765,0
64,0.3150174617767334,-0.4267818331718445,-22.795862197875977,-0.1253325641155243,14.108003616333008,0.08177715539932251,2.1197543144226074,-0.35098594427108765,0.0,0.0,0.0,0.0,0.0,0.0,0.0,-0.4092239993064399,0.014334398409283931,-0.22961638251001643,0.2565978835787423,-0.14489750317530517,-0.06690186402968198,-0.36017335411718937,1.6756069940879317,0.052517252540272605,0.029997295329067617,-2.7525106662045835,0.03425621204574903,2.766376630624357,0.7691770410118278,1.6754973547542302,0.052104326824870026,0.029969505109285054,-2.752394845125968,0.0342448039870148,2.7663679543071322,0.7691630533470046,-0.00030393283962318367,0.0001287478097888958,-0.0006473937668802693,0.000513614376899242,0.00029305037190514985,0.0001754204701674137,-0.0005694215620913645,0.0,0.0,0.0,0.0,0.0,0.0,0.0,-0.00010963933370145007,-0.00041292571540257894,-2.7790219782563436e-05,0.00011582107861540791,-1.1408058734230231e-05,-8.676317224676211e-06,-1.3987664823189583e-05,0.00030393283962318367,-0.0001287478097888958,0.0006473937668802693,-0.000513614376899242,-0.00029305037190514985,-0.0001754204701674137,0.0005694215620913645,0.4267818331718445,22.795862197875977,0.1253325641155243,-14.108003616333008,-0.08177715539932251,-2.1197543144226074,0.35098594427108765,0
65,0.3200223445892334,-0.4029781222343445,-22.795862197875977,-0.1729399859905243,14.131807327270508,0.08818584680557251,2.1133456230163574,-0.38577598333358765,0.0,0.0,0.0,0.0,0.0,0.0,0.0,-0.4147035892815788,0.013251304556326097,-0.23239028860799996,0.2541875071118704,-0.1442958968975056,-0.06589166244842222,-0.3596943256995602,1.6756050764045751,0.05251509377779836,0.029998278250188186,-2.752512313965039,0.034255499968926115,2.7663762830688103,0.7691809022104249,1.6754973547542302,0.052104326824870026,0.029969505109285054,-2.752394845125968,0.0342448039870148,2.7663679543071322,0.7691630533470046,-0.0007118980688946608,1.922220324305628e-06,0.000627819903481707,-0.00043798216461093904,8.500498695819055e-05,0.0005020378393396842,0.0008498719677163917,0.0,0.0,0.0,0.0,0.0,0.0,0.0,-0.00010772165034489412,-0.0004107669529283334,-2.877314090313221e-05,0.00011746883907104433,-1.0695981911314212e-05,-8.328761678111363e-06,-1.7848863420266703e-05,0.0007118980688946608,-1.922220324305628e-06,-0.000627819903481707,0.00043798216461093904,-8.500498695819055e-05,-0.0005020378393396842,-0.0008498719677163917,0.4029781222343445,22.795862197875977,0.1729399859905243,-14.131807327270508,-0.08818584680557251,-2.1133456230163574,0.38577598333358765,0
66,0.32504916191101074,-0.4029781222343445,-22.795862197875977,-0.1729399859905243,14.131807327270508,0.08818584680557251,2.1133456230163574,-0.38577598333358765,0.0,0.0,0.0,0.0,0.0,0.0,0.0,-0.4147035892815788,0.013251304556326097,-0.23239028860799996,0.2541875071118704,-0.1442958968975056,-0.06589166244842222,-0.3596943256995602,1.6756050764045751,0.05251509377779836,0.029998278250188186,-2.752512313965039,0.034255499968926115,2.7663762830688103,0.7691809022104249,1.6754973547542302,0.052104326824870026,0.029969505109285054,-2.752394845125968,0.0342448039870148,2.7663679543071322,0.7691630533470046,-0.0007118980688946608,1.922220324305628e-06,0.000627819903481707,-0.00043798216461093904,8.500498695819055e-05,0.0005020378393396842,0.0008498719677163917,0.0,0.0,0.0,0.0,0.0,0.0,0.0,-0.00010772165034489412,-0.0004107669529283334,-2.877314090313221e-05,0.00011746883907104433,-1.0695981911314212e-05,-8.328761678111363e-06,-1.7848863420266703e-05,0.0007118980688946608,-1.922220324305628e-06,-0.000627819903481707,0.00043798216461093904,-8.500498695819055e-05,-0.0005020378393396842,-0.0008498719677163917,0.4029781222343445,22.795862197875977,0.1729399859905243,-14.131807327270508,-0.08818584680557251,-2.1133456230163574,0.38577598333358765,0
67,0.32999467849731445,-0.4267818331718445,-22.795862197875977,-0.1253325641155243,14.108003616333008,0.08818584680557251,2.1261630058288574,-0.35831016302108765,0.0,0.0,0.0,0.0,0.0,0.0,0.0,-0.41872258492653514,0.0201368205106713,-0.23428310947924866,0.24264016026383614,-0.14406559622873216,-0.0683817649584385,-0.3603214021211644,1.6756069940879317,0.052515104122409936,0.02999800541375319,-2.7525099802740787,0.034255499968926115,2.7663748981550396,0.7691778634807048,1.6754973547542302,0.052104326824870026,0.029969505109285054,-2.752394845125968,0.0342448039870148,2.7663679543071322,0.7691630533470046,0.0004285185469988191,-0.00017511012444269903,-0.0011266300105602681,0.00013175140618181504,-8.716054256840859e-05,0.00031357324584825645,0.0002745050428239439,0.0,0.0,0.0,0.0,0.0,0.0,0.0,-0.00010963933370145007,-0.00041077729753991044,-2.850030446813548e-05,0.0001151351481105678,-1.0695981911314212e-05,-6.943847907336931e-06,-1.4810133700193795e-05,-0.0004285185469988191,0.00017511012444269903,0.0011266300105602681,-0.00013175140618181504,8.716054256840859e-05,-0.00031357324584825645,-0.0002745050428239439,0.4267818331718445,22.795862197875977,0.1253325641155243,-14.108003616333008,-0.08818584680557251,-2.1261630058288574,0.35831016302108765,0
68,0.33504629135131836,-0.4267818331718445,-22.795862197875977,-0.1253325641155243,14.108003616333008,0.08818584680557251,2.1261630058288574,-0.35831016302108765,0.0,0.0,0.0,0.0,0.0,0.0,0.0,-0.41872258492653514,0.0201368205106713,-0.23428310947924866,0.24264016026383614,-0.14406559622873216,-0.0683817649584385,-0.3603214021211644,1.6756069940879317,0.052515104122409936,0.02999800541375319,-2.7525099802740787,0.034255499968926115,2.7663748981550396,0.7691778634807048,1.6754973547542302,0.052104326824870026,0.029969505109285054,-2.752394845125968,0.0342448039870148,2.7663679543071322,0.7691630533470046,0.0004285185469988191,-0.00017511012444269903,-0.0011266300105602681,0.00013175140618181504,-8.716054256840859e-05,0.00031357324584825645,0.0002745050428239439,0.0,0.0,0.0,0.0,0.0,0.0,0.0,-0.00010963933370145007,-0.00041077729753991044,-2.850030446813548e-05,0.0001151351481105678,-1.0695981911314212e-05,-6.943847907336931e-06,-1.4810133700193795e-05,-0.0004285185469988191,0.00017511012444269903,0.0011266300105602681,-0.00013175140618181504,8.716054256840859e-05,-0.00031357324584825645,-0.0002745050428239439,0.4267818331718445,22.795862197875977,0.1253325641155243,-14.108003616333008,-0.08818584680557251,-2.1261630058288574,0.35831016302108765,0
69,0.3400111198425293,-0.4267818331718445,-22.748254776000977,-0.09756157547235489,14.131807327270508,0.07628399133682251,2.1197543144226074,-0.33725303411483765,0.0,0.0,0.0,0.0,0.0,0.0,0.0,-0.4198970968399241,0.013463557337777179,-0.23637139223559853,0.25521656029622924,-0.14455720314419115,-0.06557953330400697,-0.3595713503367295,1.6756069940893275,0.052512096472609356,0.029993056495366814,-2.7525121098827126,0.03425682239731153,2.766375570986227,0.7691755108793421,1.6754973547542302,0.052104326824870026,0.029969505109285054,-2.752394845125968,0.0342448039870148,2.7663679543071322,0.7691630533470046,0.00011360264587374155,-0.0006545757342251334,-0.001555042857882952,-0.00031273907471475617,0.0006083091135144066,-6.974764441448942e-05,-0.001166142366383655,0.0,0.0,0.0,0.0,0.0,0.0,0.0,-0.00010963933509722246,-0.0004077696477393297,-2.355138608176044e-05,0.0001172647567444507,-1.2018410296729676e-05,-7.6166790949905305e-06,-1.2457532337473154e-05,-0.00011360264587374155,0.0006545757342251334,0.001555042857882952,0.00031273907471475617,-0.0006083091135144066,6.974764441448942e-05,0.001166142366383655,0.4267818331718445,22.748254776000977,0.09756157547235489,-14.131807327270508,-0.07628399133682251,-2.1197543144226074,0.33725303411483765,0
70,0.3449993133544922,-0.4267818331718445,-22.748254776000977,-0.09756157547235489,14.131807327270508,0.07628399133682251,2.1197543144226074,-0.33725303411483765,0.0,0.0,0.0,0.0,0.0,0.0,0.0,-0.4198970968399241,0.013463557337777179,-0.23637139223559853,0.25521656029622924,-0.14455720314419115,-0.06557953330400697,-0.3595713503367295,1.6756069940893275,0.052512096472609356,0.029993056495366814,-2.7525121098827126,0.03425682239731153,2.766375570986227,0.7691755108793421,1.6754973547542302,0.052104326824870026,0.029969505109285054,-2.752394845125968,0.0342448039870148,2.7663679543071322,0.7691630533470046,0.00011360264587374155,-0.0006545757342251334,-0.001555042857882952,-0.00031273907471475617,0.0006083091135144066,-6.974764441448942e-05,-0.001166142366383655,0.0,0.0,0.0,0.0,0.0,0.0,0.0,-0.00010963933509722246,-0.0004077696477393297,-2.355138608176044e-05,0.0001172647567444507,-1.2018410296729676e-05,-7.6166790949905305e-06,-1.2457532337473154e-05,-0.00011360264587374155,0.0006545757342251334,0.001555042857882952,0.00031273907471475617,-0.0006083091135144066,6.974764441448942e-05,0.001166142366383655,0.4267818331718445,22.748254776000977,0.09756157547235489,-14.131807327270508,-0.07628399133682251,-2.1197543144226074,0.33725303411483765,0
71,0.35001468658447266,-0.3514034152030945,-22.795862197875977,-0.07375786453485489,14.131807327270508,0.09367901086807251,2.1197543144226074,-0.38577598333358765,0.0,0.0,0.0,0.0,0.0,0.0,0.0,-0.40808045954417055,0.014139229510415725,-0.22627230666055895,0.254563502375497,-0.14527625148422887,-0.06609312686506069,-0.35994058821740743,1.6756017043757856,0.05251722625749041,0.02999133339793864,-2.752512339473566,0.034254534473021826,2.766375570986006,0.7691809022104009,1.6754973547542302,0.052104326824870026,0.029969505109285054,-2.752394845125968,0.0342448039870148,2.7663679543071322,0.7691630533470046,-0.0005747853857793226,0.00026581711918404713,-0.0007418676312527707,-0.0007785119797967151,-0.007324422987240679,4.789799868093416e-05,0.00043222480304463723,0.0,0.0,0.0,0.0,0.0,0.0,0.0,-0.00010434962155536631,-0.00041289943262038525,-2.1828288653585187e-05,0.00011749434759789068,-9.730486007025752e-06,-7.616678873834104e-06,-1.7848863396285886e-05,0.0005747853857793226,-0.00026581711918404713,0.0007418676312527707,0.0007785119797967151,0.007324422987240679,-4.789799868093416e-05,-0.00043222480304463723,0.3514034152030945,22.795862197875977,0.07375786453485489,-14.131807327270508,-0.09367901086807251,-2.1197543144226074,0.38577598333358765,0
72,0.3549971580505371,-0.3514034152030945,-22.795862197875977,-0.07375786453485489,14.131807327270508,0.09367901086807251,2.1197543144226074,-0.38577598333358765,0.0,0.0,0.0,0.0,0.0,0.0,0.0,-0.40808045954417055,0.014139229510415725,-0.22627230666055895,0.254563502375497,-0.14527625148422887,-0.06609312686506069,-0.35994058821740743,1.6756017043757856,0.05251722625749041,0.02999133339793864,-2.752512339473566,0.034254534473021826,2.766375570986006,0.7691809022104009,1.6754973547542302,0.052104326824870026,0.029969505109285054,-2.752394845125968,0.0342448039870148,2.7663679543071322,0.7691630533470046,-0.0005747853857793226,0.00026581711918404713,-0.0007418676312527707,-0.0007785119797967151,-0.007324422987240679,4.789799868093416e-05,0.00043222480304463723,0.0,0.0,0.0,0.0,0.0,0.0,0.0,-0.00010434962155536631,-0.00041289943262038525,-2.1828288653585187e-05,0.00011749434759789068,-9.730486007025752e-06,-7.616678873834104e-06,-1.7848863396285886e-05,0.0005747853857793226,-0.00026581711918404713,0.0007418676312527707,0.0007785119797967151,0.007324422987240679,-4.789799868093416e-05,-0.00043222480304463723,0.3514034152030945,22.795862197875977,0.07375786453485489,-14.131807327270508,-0.09367901086807251,-2.1197543144226074,0.38577598333358765,0
73,0.3600044250488281,-0.3514034152030945,-22.819665908813477,-0.1253325641155243,14.131807327270508,0.08818584680557251,2.1261630058288574,-0.37845176458358765,0.0,0.0,0.0,0.0,0.0,0.0,0.0,-0.40847331814122234,0.0170848664584692,-0.22932392492440068,0.25535386386399545,-0.14364873859607766,-0.06636437711354772,-0.36131990670043623,1.67560170132333,0.05251684179927316,0.02999563651347945,-2.7525123394398694,0.034255504348012604,2.766374858909183,0.7691800883544818,1.6754973547542302,0.052104326824870026,0.029969505109285054,-2.752394845125968,0.0342448039870148,2.7663679543071322,0.7691630533470046,-0.0002578858043644876,0.0008866887709832984,0.0004015582981632352,-0.00018509927987300445,-0.0003602050672347698,-0.00033820187287182587,0.0012350016576585525,0.0,0.0,0.0,0.0,0.0,0.0,0.0,-0.00010434656909974471,-0.0004125149744031373,-2.6131404194395386e-05,0.00011749431390128962,-1.070036099780347e-05,-6.904602050994413e-06,-1.7035007477184116e-05,0.0002578858043644876,-0.0008866887709832984,-0.0004015582981632352,0.00018509927987300445,0.0003602050672347698,0.00033820187287182587,-0.0012350016576585525,0.3514034152030945,22.819665908813477,0.1253325641155243,-14.131807327270508,-0.08818584680557251,-2.1261630058288574,0.37845176458358765,0
74,0.3650171756744385,-0.3514034152030945,-22.819665908813477,-0.1253325641155243,14.131807327270508,0.08818584680557251,2.1261630058288574,-0.37845176458358765,0.0,0.0,0.0,0.0,0.0,0.0,0.0,-0.40847331814122234,0.0170848664584692,-0.22932392492440068,0.25535386386399545,-0.14364873859607766,-0.06636437711354772,-0.36131990670043623,1.67560170132333,0.05251684179927316,0.02999563651347945,-2.7525123394398694,0.034255504348012604,2.766374858909183,0.7691800883544818,1.6754973547542302,0.052104326824870026,0.029969505109285054,-2.752394845125968,0.0342448039870148,2.7663679543071322,0.7691630533470046,-0.0002578858043644876,0.0008866887709832984,0.0004015582981632352,-0.00018509927987300445,-0.0003602050672347698,-0.00033820187287182587,0.0012350016576585525,0.0,0.0,0.0,0.0,0.0,0.0,0.0,-0.00010434656909974471,-0.0004125149744031373,-2.6131404194395386e-05,0.00011749431390128962,-1.070036099780347e-05,-6.904602050994413e-06,-1.7035007477184116e-05,0.0002578858043644876,-0.0008866887709832984,-0.0004015582981632352,0.00018509927987300445,0.0003602050672347698,0.00033820187287182587,-0.0012350016576585525,0.3514034152030945,22.819665908813477,0.1253325641155243,-14.131807327270508,-0.08818584680557251,-2.1261630058288574,0.37845176458358765,0
75,0.3699951171875,-0.3752071261405945,-22.795862197875977,-0.09756157547235489,14.131807327270508,0.08818584680557251,2.1197543144226074,-0.33725303411483765,0.0,0.0,0.0,0.0,0.0,0.0,0.0,-0.3977520726632015,0.015468797962993417,-0.22162040501729838,0.257245252492358,-0.14361739131953458,-0.06662088384981552,-0.36160957254901666,1.6756033747739392,0.05251509253911233,0.029993216329600413,-2.75251233629051,0.03425549996895084,2.766375570986006,0.7691755107177627,1.6754973547542302,0.052104326824870026,0.029969505109285054,-2.752394845125968,0.0342448039870148,2.7663679543071322,0.7691630533470046,3.8245047513489126e-05,0.00017617531153327076,-0.00010708010225938532,4.539497604363419e-05,9.562364328022022e-05,-0.000286926907012159,-0.0006301687325175247,0.0,0.0,0.0,0.0,0.0,0.0,0.0,-0.00010602001970894115,-0.0004107657142423046,-2.3711220315358883e-05,0.00011749116454184971,-1.069598193603749e-05,-7.616678873834104e-06,-1.245737075805664e-05,-3.8245047513489126e-05,-0.00017617531153327076,0.00010708010225938532,-4.539497604363419e-05,-9.562364328022022e-05,0.000286926907012159,0.0006301687325175247,0.3752071261405945,22.795862197875977,0.09756157547235489,-14.131807327270508,-0.08818584680557251,-2.1197543144226074,0.33725303411483765,0
76,0.37506532669067383,-0.3752071261405945,-22.795862197875977,-0.09756157547235489,14.131807327270508,0.08818584680557251,2.1197543144226074,-0.33725303411483765,0.0,0.0,0.0,0.0,0.0,0.0,0.0,-0.3977520726632015,0.015468797962993417,-0.22162040501729838,0.257245252492358,-0.14361739131953458,-0.06662088384981552,-0.36160957254901666,1.6756033747739392,0.05251509253911233,0.029993216329600413,-2.75251233629051,0.03425549996895084,2.766375570986006,0.7691755107177627,1.6754973547542302,0.052104326824870026,0.029969505109285054,-2.752394845125968,0.0342448039870148,2.7663679543071322,0.7691630533470046,3.8245047513489126e-05,0.00017617531153327076,-0.00010708010225938532,4.539497604363419e-05,9.562364328022022e-05,-0.000286926907012159,-0.0006301687325175247,0.0,0.0,0.0,0.0,0.0,0.0,0.0,-0.00010602001970894115,-0.0004107657142423046,-2.3711220315358883e-05,0.00011749116454184971,-1.069598193603749e-05,-7.616678873834104e-06,-1.245737075805664e-05,-3.8245047513489126e-05,-0.00017617531153327076,0.00010708010225938532,-4.539497604363419e-05,-9.562364328022022e-05,0.000286926907012159,0.0006301687325175247,0.3752071261405945,22.795862197875977,0.09756157547235489,-14.131807327270508,-0.08818584680557251,-2.1197543144226074,0.33725303411483765,0
77,0.3800349235534668,-0.4505855441093445,-22.772058486938477,-0.2007109820842743,14.131807327270508,0.08177715539932251,2.1197543144226074,-0.34457725286483765,0.0,0.0,0.0,0.0,0.0,0.0,0.0,-0.4023109202279724,0.021172686690483247,-0.2266819134607566,0.25458281074676314,-0.14275779101025474,-0.06819656186045683,-0.36070726386934165,1.6756086645251824,0.05251557949236952,0.030002383235359083,-2.752512339474844,0.03425621204574903,2.766375570986006,0.7691795034342341,1.6754973547542302,0.052104326824870026,0.029969505109285054,-2.752394845125968,0.0342448039870148,2.7663679543071322,0.7691630533470046,0.0006268544187733306,0.00013208119763786206,0.001067210019212604,-0.00046919480627550175,0.00018634707841640763,-9.655745035676483e-07,-0.00040277681921286923,0.0,0.0,0.0,0.0,0.0,0.0,0.0,-0.00011130977095219485,-0.000411252667499494,-3.287812607402976e-05,0.00011749434887597943,-1.1408058734230231e-05,-7.616678873834104e-06,-1.6450087229502586e-05,-0.0006268544187733306,-0.00013208119763786206,-0.001067210019212604,0.00046919480627550175,-0.00018634707841640763,9.655745035676483e-07,0.00040277681921286923,0.4505855441093445,22.772058486938477,0.2007109820842743,-14.131807327270508,-0.08177715539932251,-2.1197543144226074,0.34457725286483765,0
78,0.38499951362609863,-0.4505855441093445,-22.772058486938477,-0.2007109820842743,14.131807327270508,0.08177715539932251,2.1197543144226074,-0.34457725286483765,0.0,0.0,0.0,0.0,0.0,0.0,0.0,-0.4023109202279724,0.021172686690483247,-0.2266819134607566,0.25458281074676314,-0.14275779101025474,-0.06819656186045683,-0.36070726386934165,1.6756086645251824,0.05251557949236952,0.030002383235359083,-2.752512339474844,0.03425621204574903,2.766375570986006,0.7691795034342341,1.6754973547542302,0.052104326824870026,0.029969505109285054,-2.752394845125968,0.0342448039870148,2.7663679543071322,0.7691630533470046,0.0006268544187733306,0.00013208119763786206,0.001067210019212604,-0.00046919480627550175,0.00018634707841640763,-9.655745035676483e-07,-0.00040277681921286923,0.0,0.0,0.0,0.0,0.0,0.0,0.0,-0.00011130977095219485,-0.000411252667499494,-3.287812607402976e-05,0.00011749434887597943,-1.1408058734230231e-05,-7.616678873834104e-06,-1.6450087229502586e-05,-0.0006268544187733306,-0.00013208119763786206,-0.001067210019212604,0.00046919480627550175,-0.00018634707841640763,9.655745035676483e-07,0.00040277681921286923,0.4505855441093445,22.772058486938477,0.2007109820842743,-14.131807327270508,-0.08177715539932251,-2.1197543144226074,0.34457725286483765,0
79,0.3899984359741211,-0.4505855441093445,-22.795862197875977,-0.1729399859905243,14.108003616333008,0.08818584680557251,2.1133456230163574,-0.33084434270858765,0.0,0.0,0.0,0.0,0.0,0.0,0.0,-0.404265159496005,0.018552516809083135,-0.22656128252861618,0.25676954982102174,-0.14343131982505913,-0.0678264020410561,-0.3610597812794469,1.6756086645251826,0.052517227242055396,0.029998980285869763,-2.7525106690390064,0.034255499968926115,2.766376283062829,0.7691747986588849,1.6754973547542302,0.052104326824870026,0.029969505109285054,-2.752394845125968,0.0342448039870148,2.7663679543071322,0.7691630533470046,5.6913091948036474e-05,0.0004896721661228823,6.754240505348496e-05,8.740748203391425e-05,0.00014617511744736614,6.315833919583827e-05,-0.0013665605932882722,0.0,0.0,0.0,0.0,0.0,0.0,0.0,-0.0001113097709524169,-0.00041290041718537035,-2.947517658470969e-05,0.00011582391303832651,-1.0695981911314212e-05,-8.328755696673795e-06,-1.1745311880306808e-05,-5.6913091948036474e-05,-0.0004896721661228823,-6.754240505348496e-05,-8.740748203391425e-05,-0.00014617511744736614,-6.315833919583827e-05,0.0013665605932882722,0.4505855441093445,22.795862197875977,0.1729399859905243,-14.108003616333008,-0.08818584680557251,-2.1133456230163574,0.33084434270858765,0
