rezayati/contactInterpretation/dataset/franka_main/labeled_data/link4/d5_1.csv
index,time,tau_J0,tau_J1,tau_J2,tau_J3,tau_J4,tau_J5,tau_J6,tau_J_d0,tau_J_d1,tau_J_d2,tau_J_d3,tau_J_d4,tau_J_d5,tau_J_d6,tau_ext0,tau_ext1,tau_ext2,tau_ext3,tau_ext4,tau_ext5,tau_ext6,q0,q1,q2,q3,q4,q5,q6,q_d0,q_d1,q_d2,q_d3,q_d4,q_d5,q_d6,dq0,dq1,dq2,dq3,dq4,dq5,dq6,dq_d0,dq_d1,dq_d2,dq_d3,dq_d4,dq_d5,dq_d6,e0,e1,e2,e3,e4,e5,e6,de0,de1,de2,de3,de4,de5,de6,etau_J0,etau_J1,etau_J2,etau_J3,etau_J4,etau_J5,etau_J6,label
1,0.0,-0.5537349581718445,-47.24624252319336,-1.2401397228240967,20.999177932739258,0.8022971749305725,2.3458895683288574,-0.29605430364608765,0.0,0.0,0.0,0.0,0.0,0.0,0.0,-0.5425765351339633,-0.46932077649601006,-0.35370928678858005,0.5708506589667033,0.23768412092852956,0.10975036892374414,-0.3096417767594489,0.06247827047214173,0.6883786782309869,-0.07861507553144836,-1.6210595258531708,0.028136102686325704,2.287863430076175,0.8466321161461953,0.06226373270833701,0.6884179775783729,-0.07863937525950354,-1.6210372792796082,0.028167345702647853,2.2878312372101677,0.8466366937888992,-0.00014459377928222533,-0.0001426377730791158,-0.00033752878291411074,-0.000622115977420199,0.0002179954531200532,-0.0003835327128442788,-0.00013116089375857988,0.0,0.0,0.0,0.0,0.0,0.0,0.0,-0.00021453776380472162,3.929934738600149e-05,-2.4299728055177106e-05,2.2246573562645366e-05,3.124301632214874e-05,-3.219286600719684e-05,4.577642703895712e-06,0.00014459377928222533,0.0001426377730791158,0.00033752878291411074,0.000622115977420199,-0.0002179954531200532,0.0003835327128442788,0.00013116089375857988,0.5537349581718445,47.24624252319336,1.2401397228240967,-20.999177932739258,-0.8022971749305725,-2.3458895683288574,0.29605430364608765,0
2,0.005029201507568359,-0.6291133761405945,-47.24624252319336,-1.2917144298553467,20.975374221801758,0.8087058663368225,2.3266634941101074,-0.33084434270858765,0.0,0.0,0.0,0.0,0.0,0.0,0.0,-0.5539501077466554,-0.4693477909532266,-0.36343036200695855,0.5701437150538555,0.23629291074902498,0.11037397105387814,-0.30917030121631817,0.0624835601856834,0.6883786266647793,-0.07861215605689183,-1.6210585558428068,0.028135390609502788,2.287865527060787,0.8466359817120764,0.06226373270833701,0.6884179775783729,-0.07863937525950354,-1.6210372792796082,0.028167345702647853,2.2878312372101677,0.8466366937888992,0.0008937279333008554,-0.0001610479988745756,0.0006170833211006652,0.0002875317060661114,0.00010245677945891218,0.00025454684838563407,0.0007190115897890072,0.0,0.0,0.0,0.0,0.0,0.0,0.0,-0.0002198274773463904,3.9350913593527714e-05,-2.7219202611714066e-05,2.1276563198613374e-05,3.1955093145064756e-05,-3.4289850619373397e-05,7.120768227286689e-07,-0.0008937279333008554,0.0001610479988745756,-0.0006170833211006652,-0.0002875317060661114,-0.00010245677945891218,-0.00025454684838563407,-0.0007190115897890072,0.6291133761405945,47.24624252319336,1.2917144298553467,-20.975374221801758,-0.8087058663368225,-2.3266634941101074,0.33084434270858765,0
3,0.010022163391113281,-0.6291133761405945,-47.24624252319336,-1.2917144298553467,20.975374221801758,0.8087058663368225,2.3266634941101074,-0.33084434270858765,0.0,0.0,0.0,0.0,0.0,0.0,0.0,-0.5539501077466554,-0.4693477909532266,-0.36343036200695855,0.5701437150538555,0.23629291074902498,0.11037397105387814,-0.30917030121631817,0.0624835601856834,0.6883786266647793,-0.07861215605689183,-1.6210585558428068,0.028135390609502788,2.287865527060787,0.8466359817120764,0.06226373270833701,0.6884179775783729,-0.07863937525950354,-1.6210372792796082,0.028167345702647853,2.2878312372101677,0.8466366937888992,0.0008937279333008554,-0.0001610479988745756,0.0006170833211006652,0.0002875317060661114,0.00010245677945891218,0.00025454684838563407,0.0007190115897890072,0.0,0.0,0.0,0.0,0.0,0.0,0.0,-0.0002198274773463904,3.9350913593527714e-05,-2.7219202611714066e-05,2.1276563198613374e-05,3.1955093145064756e-05,-3.4289850619373397e-05,7.120768227286689e-07,-0.0008937279333008554,0.0001610479988745756,-0.0006170833211006652,-0.0002875317060661114,-0.00010245677945891218,-0.00025454684838563407,-0.0007190115897890072,0.6291133761405945,47.24624252319336,1.2917144298553467,-20.975374221801758,-0.8087058663368225,-2.3266634941101074,0.33084434270858765,0
4,0.014998674392700195,-0.5815059542655945,-47.24624252319336,-1.2679107189178467,20.947603225708008,0.8141990303993225,2.3330721855163574,-0.26858848333358765,0.0,0.0,0.0,0.0,0.0,0.0,0.0,-0.5612226821981777,-0.46328738395171265,-0.3674339373863579,0.5669070922542527,0.23560636138976307,0.10948247696445063,-0.3096859267612074,0.06248021931397287,0.6883816906393905,-0.07861159701811375,-1.6210566767753414,0.02813478025794029,2.287864841147647,0.8466290642328624,0.06226373270833701,0.6884179775783729,-0.07863937525950354,-1.6210372792796082,0.028167345702647853,2.2878312372101677,0.8466366937888992,-0.0009990654728516124,0.00012499532737873142,-0.0006494153455431844,0.0006023196924022272,4.6289215142525814e-05,-0.0001381926726613112,-0.0013733167903092584,0.0,0.0,0.0,0.0,0.0,0.0,0.0,-0.00021648660563586275,3.628693898238833e-05,-2.7778241389789238e-05,1.9397495733208814e-05,3.25654447075642e-05,-3.3603937479309565e-05,7.62955603672566e-06,0.0009990654728516124,-0.00012499532737873142,0.0006494153455431844,-0.0006023196924022272,-4.6289215142525814e-05,0.0001381926726613112,0.0013733167903092584,0.5815059542655945,47.24624252319336,1.2679107189178467,-20.947603225708008,-0.8141990303993225,-2.3330721855163574,0.26858848333358765,0
5,0.019997358322143555,-0.5815059542655945,-47.24624252319336,-1.2679107189178467,20.947603225708008,0.8141990303993225,2.3330721855163574,-0.26858848333358765,0.0,0.0,0.0,0.0,0.0,0.0,0.0,-0.5612226821981777,-0.46328738395171265,-0.3674339373863579,0.5669070922542527,0.23560636138976307,0.10948247696445063,-0.3096859267612074,0.06248021931397287,0.6883816906393905,-0.07861159701811375,-1.6210566767753414,0.02813478025794029,2.287864841147647,0.8466290642328624,0.06226373270833701,0.6884179775783729,-0.07863937525950354,-1.6210372792796082,0.028167345702647853,2.2878312372101677,0.8466366937888992,-0.0009990654728516124,0.00012499532737873142,-0.0006494153455431844,0.0006023196924022272,4.6289215142525814e-05,-0.0001381926726613112,-0.0013733167903092584,0.0,0.0,0.0,0.0,0.0,0.0,0.0,-0.00021648660563586275,3.628693898238833e-05,-2.7778241389789238e-05,1.9397495733208814e-05,3.25654447075642e-05,-3.3603937479309565e-05,7.62955603672566e-06,0.0009990654728516124,-0.00012499532737873142,0.0006494153455431844,-0.0006023196924022272,-4.6289215142525814e-05,0.0001381926726613112,0.0013733167903092584,0.5815059542655945,47.24624252319336,1.2679107189178467,-20.947603225708008,-0.8141990303993225,-2.3330721855163574,0.26858848333358765,0
6,0.024997234344482422,-0.5815059542655945,-47.24624252319336,-1.2917144298553467,21.022981643676758,0.8087058663368225,2.3394808769226074,-0.32352012395858765,0.0,0.0,0.0,0.0,0.0,0.0,0.0,-0.5500715440744741,-0.4634205889329376,-0.3585210729411278,0.5684646670359471,0.23565551931704384,0.11001574305091791,-0.308677019519191,0.06248021931397287,0.6883789169562122,-0.07860907030130478,-1.6210610106953374,0.028135390609502788,2.2878641421529733,0.8466351679099927,0.06226373270833701,0.6884179775783729,-0.07863937525950354,-1.6210372792796082,0.028167345702647853,2.2878312372101677,0.8466366937888992,-0.00027131569917641034,0.0006989231892378751,0.0004137879026878853,-0.001281791124721486,0.00015705059382820937,-0.0003134435983951572,0.000849982580698668,0.0,0.0,0.0,0.0,0.0,0.0,0.0,-0.00021648660563586275,3.9060622160635994e-05,-3.030495819876522e-05,2.3731415729200123e-05,3.1955093145064756e-05,-3.2904942805611626e-05,1.5258789064498401e-06,0.00027131569917641034,-0.0006989231892378751,-0.0004137879026878853,0.001281791124721486,-0.00015705059382820937,0.0003134435983951572,-0.000849982580698668,0.5815059542655945,47.24624252319336,1.2917144298553467,-21.022981643676758,-0.8087058663368225,-2.3394808769226074,0.32352012395858765,0
7,0.02999711036682129,-0.5815059542655945,-47.24624252319336,-1.2917144298553467,21.022981643676758,0.8087058663368225,2.3394808769226074,-0.32352012395858765,0.0,0.0,0.0,0.0,0.0,0.0,0.0,-0.5500715440744741,-0.4634205889329376,-0.3585210729411278,0.5684646670359471,0.23565551931704384,0.11001574305091791,-0.308677019519191,0.06248021931397287,0.6883789169562122,-0.07860907030130478,-1.6210610106953374,0.028135390609502788,2.2878641421529733,0.8466351679099927,0.06226373270833701,0.6884179775783729,-0.07863937525950354,-1.6210372792796082,0.028167345702647853,2.2878312372101677,0.8466366937888992,-0.00027131569917641034,0.0006989231892378751,0.0004137879026878853,-0.001281791124721486,0.00015705059382820937,-0.0003134435983951572,0.000849982580698668,0.0,0.0,0.0,0.0,0.0,0.0,0.0,-0.00021648660563586275,3.9060622160635994e-05,-3.030495819876522e-05,2.3731415729200123e-05,3.1955093145064756e-05,-3.2904942805611626e-05,1.5258789064498401e-06,0.00027131569917641034,-0.0006989231892378751,-0.0004137879026878853,0.001281791124721486,-0.00015705059382820937,0.0003134435983951572,-0.000849982580698668,0.5815059542655945,47.24624252319336,1.2917144298553467,-21.022981643676758,-0.8087058663368225,-2.3394808769226074,0.32352012395858765,0
8,0.034996986389160156,-0.5815059542655945,-47.19466781616211,-1.2163360118865967,20.947603225708008,0.8087058663368225,2.3266634941101074,-0.33084434270858765,0.0,0.0,0.0,0.0,0.0,0.0,0.0,-0.5540282422077519,-0.46608703199366536,-0.3629399389324851,0.5710097350078918,0.23619324438300857,0.10960373508235959,-0.30761493027460246,0.06248021931397287,0.688375062005591,-0.07861734813272811,-1.621053839512937,0.028135390609502788,2.2878655663066434,0.8466359810122189,0.06226373270833701,0.6884179775783729,-0.07863937525950354,-1.6210372792796082,0.028167345702647853,2.2878312372101677,0.8466366937888992,0.0002542458642680633,-0.0009735959876632838,-0.000633179789458044,0.00023788348349007308,0.0002626375632510836,-0.00034299849556990305,0.0011582746333113061,0.0,0.0,0.0,0.0,0.0,0.0,0.0,-0.00021648660563586275,4.2915572781909717e-05,-2.2027126775431283e-05,1.6560233328855034e-05,3.1955093145064756e-05,-3.4329096475715914e-05,7.127766802339508e-07,-0.0002542458642680633,0.0009735959876632838,0.000633179789458044,-0.00023788348349007308,-0.0002626375632510836,0.00034299849556990305,-0.0011582746333113061,0.5815059542655945,47.19466781616211,1.2163360118865967,-20.947603225708008,-0.8087058663368225,-2.3266634941101074,0.33084434270858765,0
9,0.04009890556335449,-0.5815059542655945,-47.19466781616211,-1.2163360118865967,20.947603225708008,0.8087058663368225,2.3266634941101074,-0.33084434270858765,0.0,0.0,0.0,0.0,0.0,0.0,0.0,-0.5540282422077519,-0.46608703199366536,-0.3629399389324851,0.5710097350078918,0.23619324438300857,0.10960373508235959,-0.30761493027460246,0.06248021931397287,0.688375062005591,-0.07861734813272811,-1.621053839512937,0.028135390609502788,2.2878655663066434,0.8466359810122189,0.06226373270833701,0.6884179775783729,-0.07863937525950354,-1.6210372792796082,0.028167345702647853,2.2878312372101677,0.8466366937888992,0.0002542458642680633,-0.0009735959876632838,-0.000633179789458044,0.00023788348349007308,0.0002626375632510836,-0.00034299849556990305,0.0011582746333113061,0.0,0.0,0.0,0.0,0.0,0.0,0.0,-0.00021648660563586275,4.2915572781909717e-05,-2.2027126775431283e-05,1.6560233328855034e-05,3.1955093145064756e-05,-3.4329096475715914e-05,7.127766802339508e-07,-0.0002542458642680633,0.0009735959876632838,0.000633179789458044,-0.00023788348349007308,-0.0002626375632510836,0.00034299849556990305,-0.0011582746333113061,0.5815059542655945,47.19466781616211,1.2163360118865967,-20.947603225708008,-0.8087058663368225,-2.3266634941101074,0.33084434270858765,0
10,0.045012474060058594,-0.5537349581718445,-47.24624252319336,-1.2163360118865967,20.975374221801758,0.8141990303993225,2.3330721855163574,-0.34457725286483765,0.0,0.0,0.0,0.0,0.0,0.0,0.0,-0.5633693584980629,-0.46780289748822945,-0.3694616716293426,0.5729563046765322,0.23689565562390866,0.10792323401594374,-0.30800762485261374,0.06247827047214173,0.6883815580032389,-0.07861507457914706,-1.6210554557355121,0.02813478025794029,2.2878648542298206,0.846637389368892,0.06226373270833701,0.6884179775783729,-0.07863937525950354,-1.6210372792796082,0.028167345702647853,2.2878312372101677,0.8466366937888992,-0.00011944506327224155,-4.696588238364743e-05,5.046474799032761e-05,-0.0002836018597467894,0.0001534814644547611,-0.00027100175796895885,0.0014316929552507986,0.0,0.0,0.0,0.0,0.0,0.0,0.0,-0.00021453776380472162,3.641957513400573e-05,-2.430068035648436e-05,1.8176455903962108e-05,3.25654447075642e-05,-3.361701965287622e-05,-6.955799928265449e-07,0.00011944506327224155,4.696588238364743e-05,-5.046474799032761e-05,0.0002836018597467894,-0.0001534814644547611,0.00027100175796895885,-0.0014316929552507986,0.5537349581718445,47.24624252319336,1.2163360118865967,-20.975374221801758,-0.8141990303993225,-2.3330721855163574,0.34457725286483765,0
11,0.05000567436218262,-0.5537349581718445,-47.24624252319336,-1.2163360118865967,20.975374221801758,0.8141990303993225,2.3330721855163574,-0.34457725286483765,0.0,0.0,0.0,0.0,0.0,0.0,0.0,-0.5633693584980629,-0.46780289748822945,-0.3694616716293426,0.5729563046765322,0.23689565562390866,0.10792323401594374,-0.30800762485261374,0.06247827047214173,0.6883815580032389,-0.07861507457914706,-1.6210554557355121,0.02813478025794029,2.2878648542298206,0.846637389368892,0.06226373270833701,0.6884179775783729,-0.07863937525950354,-1.6210372792796082,0.028167345702647853,2.2878312372101677,0.8466366937888992,-0.00011944506327224155,-4.696588238364743e-05,5.046474799032761e-05,-0.0002836018597467894,0.0001534814644547611,-0.00027100175796895885,0.0014316929552507986,0.0,0.0,0.0,0.0,0.0,0.0,0.0,-0.00021453776380472162,3.641957513400573e-05,-2.430068035648436e-05,1.8176455903962108e-05,3.25654447075642e-05,-3.361701965287622e-05,-6.955799928265449e-07,0.00011944506327224155,4.696588238364743e-05,-5.046474799032761e-05,0.0002836018597467894,-0.0001534814644547611,0.00027100175796895885,-0.0014316929552507986,0.5537349581718445,47.24624252319336,1.2163360118865967,-20.975374221801758,-0.8141990303993225,-2.3330721855163574,0.34457725286483765,0
12,0.05500364303588867,-0.5021602511405945,-47.24624252319336,-1.2401397228240967,20.975374221801758,0.8206077218055725,2.3330721855163574,-0.33084434270858765,0.0,0.0,0.0,0.0,0.0,0.0,0.0,-0.5573004474901643,-0.4698736301945602,-0.36427515525209514,0.5705043911343779,0.23830316724218298,0.10797403068445308,-0.30939013798283327,0.06247465119445533,0.6883810038897855,-0.07861286048752437,-1.621055470123782,0.028134186562564636,2.2878648542298206,0.8466359686294569,0.06226373270833701,0.6884179775783729,-0.07863937525950354,-1.6210372792796082,0.028167345702647853,2.2878312372101677,0.8466366937888992,-0.00037230598481607425,-0.0006838600911492415,0.0008000205093918579,-0.00022322867304964982,7.560465394758685e-06,-0.00020925093198879093,0.0009098973517827561,0.0,0.0,0.0,0.0,0.0,0.0,0.0,-0.0002109184861183236,3.697368858734951e-05,-2.6514771979166407e-05,1.8190844173870957e-05,3.3159140083217215e-05,-3.361701965287622e-05,7.251594422719165e-07,0.00037230598481607425,0.0006838600911492415,-0.0008000205093918579,0.00022322867304964982,-7.560465394758685e-06,0.00020925093198879093,-0.0009098973517827561,0.5021602511405945,47.24624252319336,1.2401397228240967,-20.975374221801758,-0.8206077218055725,-2.3330721855163574,0.33084434270858765,0
13,0.05994725227355957,-0.5021602511405945,-47.24624252319336,-1.2401397228240967,20.975374221801758,0.8206077218055725,2.3330721855163574,-0.33084434270858765,0.0,0.0,0.0,0.0,0.0,0.0,0.0,-0.5573004474901643,-0.4698736301945602,-0.36427515525209514,0.5705043911343779,0.23830316724218298,0.10797403068445308,-0.30939013798283327,0.06247465119445533,0.6883810038897855,-0.07861286048752437,-1.621055470123782,0.028134186562564636,2.2878648542298206,0.8466359686294569,0.06226373270833701,0.6884179775783729,-0.07863937525950354,-1.6210372792796082,0.028167345702647853,2.2878312372101677,0.8466366937888992,-0.00037230598481607425,-0.0006838600911492415,0.0008000205093918579,-0.00022322867304964982,7.560465394758685e-06,-0.00020925093198879093,0.0009098973517827561,0.0,0.0,0.0,0.0,0.0,0.0,0.0,-0.0002109184861183236,3.697368858734951e-05,-2.6514771979166407e-05,1.8190844173870957e-05,3.3159140083217215e-05,-3.361701965287622e-05,7.251594422719165e-07,0.00037230598481607425,0.0006838600911492415,-0.0008000205093918579,0.00022322867304964982,-7.560465394758685e-06,0.00020925093198879093,-0.0009098973517827561,0.5021602511405945,47.24624252319336,1.2401397228240967,-20.975374221801758,-0.8206077218055725,-2.3330721855163574,0.33084434270858765,0
14,0.06500077247619629,-0.4783565402030945,-47.27004623413086,-1.2163360118865967,20.975374221801758,0.8206077218055725,2.3330721855163574,-0.28964561223983765,0.0,0.0,0.0,0.0,0.0,0.0,0.0,-0.564103456092538,-0.46999124976037265,-0.37236765840721747,0.566984166505173,0.23926585323512886,0.10818494314752661,-0.3093692491084054,0.06247298075860007,0.6883802722580538,-0.07861531907596693,-1.6210557098142988,0.028135133614811,2.2878648542298206,0.8466302136176322,0.06226373270833701,0.6884179775783729,-0.07863937525950354,-1.6210372792796082,0.028167345702647853,2.2878312372101677,0.8466366937888992,-0.0008258444437387899,-0.0002366790843266503,-9.777757994209501e-05,0.00020893593652165836,-0.00013488761820715787,-0.0002526933736227571,-0.0007358431786663347,0.0,0.0,0.0,0.0,0.0,0.0,0.0,-0.00020924805026305976,3.7705320319103564e-05,-2.4056183536610987e-05,1.8430534690638822e-05,3.221208783685259e-05,-3.361701965287622e-05,6.480171266920465e-06,0.0008258444437387899,0.0002366790843266503,9.777757994209501e-05,-0.00020893593652165836,0.00013488761820715787,0.0002526933736227571,0.0007358431786663347,0.4783565402030945,47.27004623413086,1.2163360118865967,-20.975374221801758,-0.8206077218055725,-2.3330721855163574,0.28964561223983765,0
15,0.06999921798706055,-0.4783565402030945,-47.27004623413086,-1.2163360118865967,20.975374221801758,0.8206077218055725,2.3330721855163574,-0.28964561223983765,0.0,0.0,0.0,0.0,0.0,0.0,0.0,-0.564103456092538,-0.46999124976037265,-0.37236765840721747,0.566984166505173,0.23926585323512886,0.10818494314752661,-0.3093692491084054,0.06247298075860007,0.6883802722580538,-0.07861531907596693,-1.6210557098142988,0.028135133614811,2.2878648542298206,0.8466302136176322,0.06226373270833701,0.6884179775783729,-0.07863937525950354,-1.6210372792796082,0.028167345702647853,2.2878312372101677,0.8466366937888992,-0.0008258444437387899,-0.0002366790843266503,-9.777757994209501e-05,0.00020893593652165836,-0.00013488761820715787,-0.0002526933736227571,-0.0007358431786663347,0.0,0.0,0.0,0.0,0.0,0.0,0.0,-0.00020924805026305976,3.7705320319103564e-05,-2.4056183536610987e-05,1.8430534690638822e-05,3.221208783685259e-05,-3.361701965287622e-05,6.480171266920465e-06,0.0008258444437387899,0.0002366790843266503,9.777757994209501e-05,-0.00020893593652165836,0.00013488761820715787,0.0002526933736227571,0.0007358431786663347,0.4783565402030945,47.27004623413086,1.2163360118865967,-20.975374221801758,-0.8206077218055725,-2.3330721855163574,0.28964561223983765,0
16,0.07499909400939941,-0.5299312472343445,-47.29384994506836,-1.2163360118865967,20.947603225708008,0.8141990303993225,2.3458895683288574,-0.33725303411483765,0.0,0.0,0.0,0.0,0.0,0.0,0.0,-0.5473006436053818,-0.47029171130492325,-0.36369354792074743,0.564740485888289,0.23877463686168462,0.10894709790359523,-0.3087338551401118,0.062476600036286474,0.6883822579190588,-0.07861647306472341,-1.6210534947924318,0.028134780263954693,2.287863430076175,0.8466366525982555,0.06226373270833701,0.6884179775783729,-0.07863937525950354,-1.6210372792796082,0.028167345702647853,2.2878312372101677,0.8466366937888992,0.0005496673391803044,0.0003661520200353026,3.1354767722062306e-05,0.0011703778277296181,0.0012689484916905552,-0.0003298672655925836,0.001388024355997936,0.0,0.0,0.0,0.0,0.0,0.0,0.0,-0.00021286732794946472,3.571965931403742e-05,-2.2902194780127783e-05,1.6215512823603007e-05,3.256543869315995e-05,-3.219286600719684e-05,4.119064367369418e-08,-0.0005496673391803044,-0.0003661520200353026,-3.1354767722062306e-05,-0.0011703778277296181,-0.0012689484916905552,0.0003298672655925836,-0.001388024355997936,0.5299312472343445,47.29384994506836,1.2163360118865967,-20.947603225708008,-0.8141990303993225,-2.3458895683288574,0.33725303411483765,0
17,0.07999968528747559,-0.5299312472343445,-47.29384994506836,-1.2163360118865967,20.947603225708008,0.8141990303993225,2.3458895683288574,-0.33725303411483765,0.0,0.0,0.0,0.0,0.0,0.0,0.0,-0.5473006436053818,-0.47029171130492325,-0.36369354792074743,0.564740485888289,0.23877463686168462,0.10894709790359523,-0.3087338551401118,0.062476600036286474,0.6883822579190588,-0.07861647306472341,-1.6210534947924318,0.028134780263954693,2.287863430076175,0.8466366525982555,0.06226373270833701,0.6884179775783729,-0.07863937525950354,-1.6210372792796082,0.028167345702647853,2.2878312372101677,0.8466366937888992,0.0005496673391803044,0.0003661520200353026,3.1354767722062306e-05,0.0011703778277296181,0.0012689484916905552,-0.0003298672655925836,0.001388024355997936,0.0,0.0,0.0,0.0,0.0,0.0,0.0,-0.00021286732794946472,3.571965931403742e-05,-2.2902194780127783e-05,1.6215512823603007e-05,3.256543869315995e-05,-3.219286600719684e-05,4.119064367369418e-08,-0.0005496673391803044,-0.0003661520200353026,-3.1354767722062306e-05,-0.0011703778277296181,-0.0012689484916905552,0.0003298672655925836,-0.001388024355997936,0.5299312472343445,47.29384994506836,1.2163360118865967,-20.947603225708008,-0.8141990303993225,-2.3458895683288574,0.33725303411483765,0
18,0.08499860763549805,-0.5537349581718445,-47.27004623413086,-1.1925323009490967,20.975374221801758,0.8141990303993225,2.3266634941101074,-0.32352012395858765,0.0,0.0,0.0,0.0,0.0,0.0,0.0,-0.554332637759972,-0.46823788076551665,-0.36991960976932564,0.5622693737521057,0.23875426466332908,0.10994450126207099,-0.30866543714237626,0.06247827047214173,0.688383399377934,-0.07861841207321264,-1.6210564071185412,0.028134780257940323,2.2878655663066434,0.8466351674252438,0.06226373270833701,0.6884179775783729,-0.07863937525950354,-1.6210372792796082,0.028167345702647853,2.2878312372101677,0.8466366937888992,0.00041936436256505787,8.297273962588826e-06,-0.0007767545887858816,-7.664978526658058e-05,-2.6678348514174298e-05,-0.00012455718565205424,0.00011761546959316986,0.0,0.0,0.0,0.0,0.0,0.0,0.0,-0.00021453776380472162,3.4578200438839524e-05,-2.0963186290898217e-05,1.9127838932986307e-05,3.2565444707529506e-05,-3.4329096475715914e-05,1.526363655357521e-06,-0.00041936436256505787,-8.297273962588826e-06,0.0007767545887858816,7.664978526658058e-05,2.6678348514174298e-05,0.00012455718565205424,-0.00011761546959316986,0.5537349581718445,47.27004623413086,1.1925323009490967,-20.975374221801758,-0.8141990303993225,-2.3266634941101074,0.32352012395858765,0
19,0.09074974060058594,-0.5537349581718445,-47.27004623413086,-1.1925323009490967,20.975374221801758,0.8141990303993225,2.3266634941101074,-0.32352012395858765,0.0,0.0,0.0,0.0,0.0,0.0,0.0,-0.554332637759972,-0.46823788076551665,-0.36991960976932564,0.5622693737521057,0.23875426466332908,0.10994450126207099,-0.30866543714237626,0.06247827047214173,0.688383399377934,-0.07861841207321264,-1.6210564071185412,0.028134780257940323,2.2878655663066434,0.8466351674252438,0.06226373270833701,0.6884179775783729,-0.07863937525950354,-1.6210372792796082,0.028167345702647853,2.2878312372101677,0.8466366937888992,0.00041936436256505787,8.297273962588826e-06,-0.0007767545887858816,-7.664978526658058e-05,-2.6678348514174298e-05,-0.00012455718565205424,0.00011761546959316986,0.0,0.0,0.0,0.0,0.0,0.0,0.0,-0.00021453776380472162,3.4578200438839524e-05,-2.0963186290898217e-05,1.9127838932986307e-05,3.2565444707529506e-05,-3.4329096475715914e-05,1.526363655357521e-06,-0.00041936436256505787,-8.297273962588826e-06,0.0007767545887858816,7.664978526658058e-05,2.6678348514174298e-05,0.00012455718565205424,-0.00011761546959316986,0.5537349581718445,47.27004623413086,1.1925323009490967,-20.975374221801758,-0.8141990303993225,-2.3266634941101074,0.32352012395858765,0
20,0.09501218795776367,-0.5299312472343445,-47.27004623413086,-1.1925323009490967,20.975374221801758,0.8141990303993225,2.3266634941101074,-0.34457725286483765,0.0,0.0,0.0,0.0,0.0,0.0,0.0,-0.5533482184889391,-0.47808612594826516,-0.36876913503767905,0.5674702965477438,0.23877019129905233,0.1100501349998631,-0.3090127872664605,0.062476600036286474,0.6883824899437571,-0.07861881165047609,-1.621057828768798,0.02813478025794029,2.2878655662528082,0.8466375075909799,0.06226373270833701,0.6884179775783729,-0.07863937525950354,-1.6210372792796082,0.028167345702647853,2.2878312372101677,0.8466366937888992,-0.0006006584325982372,0.00020881200380175856,-0.0008840901765746842,0.0002022947191492338,-0.0015319217066894584,-0.00012896883605180768,0.001919017611969201,0.0,0.0,0.0,0.0,0.0,0.0,0.0,-0.00021286732794946472,3.5487634615805064e-05,-2.0563609027454688e-05,2.0549489189836123e-05,3.25654447075642e-05,-3.432904264055736e-05,-8.138020807235691e-07,0.0006006584325982372,-0.00020881200380175856,0.0008840901765746842,-0.0002022947191492338,0.0015319217066894584,0.00012896883605180768,-0.001919017611969201,0.5299312472343445,47.27004623413086,1.1925323009490967,-20.975374221801758,-0.8141990303993225,-2.3266634941101074,0.34457725286483765,0
21,0.1000051498413086,-0.5299312472343445,-47.27004623413086,-1.1925323009490967,20.975374221801758,0.8141990303993225,2.3266634941101074,-0.34457725286483765,0.0,0.0,0.0,0.0,0.0,0.0,0.0,-0.5533482184889391,-0.47808612594826516,-0.36876913503767905,0.5674702965477438,0.23877019129905233,0.1100501349998631,-0.3090127872664605,0.062476600036286474,0.6883824899437571,-0.07861881165047609,-1.621057828768798,0.02813478025794029,2.2878655662528082,0.8466375075909799,0.06226373270833701,0.6884179775783729,-0.07863937525950354,-1.6210372792796082,0.028167345702647853,2.2878312372101677,0.8466366937888992,-0.0006006584325982372,0.00020881200380175856,-0.0008840901765746842,0.0002022947191492338,-0.0015319217066894584,-0.00012896883605180768,0.001919017611969201,0.0,0.0,0.0,0.0,0.0,0.0,0.0,-0.00021286732794946472,3.5487634615805064e-05,-2.0563609027454688e-05,2.0549489189836123e-05,3.25654447075642e-05,-3.432904264055736e-05,-8.138020807235691e-07,0.0006006584325982372,-0.00020881200380175856,0.0008840901765746842,-0.0002022947191492338,0.0015319217066894584,0.00012896883605180768,-0.001919017611969201,0.5299312472343445,47.27004623413086,1.1925323009490967,-20.975374221801758,-0.8141990303993225,-2.3266634941101074,0.34457725286483765,0
22,0.10500288009643555,-0.5299312472343445,-47.27004623413086,-1.1925323009490967,20.975374221801758,0.8141990303993225,2.3266634941101074,-0.34457725286483765,0.0,0.0,0.0,0.0,0.0,0.0,0.0,-0.5533482184889391,-0.47808612594826516,-0.36876913503767905,0.5674702965477438,0.23877019129905233,0.1100501349998631,-0.3090127872664605,0.062476600036286474,0.6883824899437571,-0.07861881165047609,-1.621057828768798,0.02813478025794029,2.2878655662528082,0.8466375075909799,0.06226373270833701,0.6884179775783729,-0.07863937525950354,-1.6210372792796082,0.028167345702647853,2.2878312372101677,0.8466366937888992,-0.0006006584325982372,0.00020881200380175856,-0.0008840901765746842,0.0002022947191492338,-0.0015319217066894584,-0.00012896883605180768,0.001919017611969201,0.0,0.0,0.0,0.0,0.0,0.0,0.0,-0.00021286732794946472,3.5487634615805064e-05,-2.0563609027454688e-05,2.0549489189836123e-05,3.25654447075642e-05,-3.432904264055736e-05,-8.138020807235691e-07,0.0006006584325982372,-0.00020881200380175856,0.0008840901765746842,-0.0002022947191492338,0.0015319217066894584,0.00012896883605180768,-0.001919017611969201,0.5299312472343445,47.27004623413086,1.1925323009490967,-20.975374221801758,-0.8141990303993225,-2.3266634941101074,0.34457725286483765,0
23,0.1099998950958252,-0.5299312472343445,-47.27004623413086,-1.1925323009490967,20.975374221801758,0.8141990303993225,2.3266634941101074,-0.34457725286483765,0.0,0.0,0.0,0.0,0.0,0.0,0.0,-0.5533482184889391,-0.47808612594826516,-0.36876913503767905,0.5674702965477438,0.23877019129905233,0.1100501349998631,-0.3090127872664605,0.062476600036286474,0.6883824899437571,-0.07861881165047609,-1.621057828768798,0.02813478025794029,2.2878655662528082,0.8466375075909799,0.06226373270833701,0.6884179775783729,-0.07863937525950354,-1.6210372792796082,0.028167345702647853,2.2878312372101677,0.8466366937888992,-0.0006006584325982372,0.00020881200380175856,-0.0008840901765746842,0.0002022947191492338,-0.0015319217066894584,-0.00012896883605180768,0.001919017611969201,0.0,0.0,0.0,0.0,0.0,0.0,0.0,-0.00021286732794946472,3.5487634615805064e-05,-2.0563609027454688e-05,2.0549489189836123e-05,3.25654447075642e-05,-3.432904264055736e-05,-8.138020807235691e-07,0.0006006584325982372,-0.00020881200380175856,0.0008840901765746842,-0.0002022947191492338,0.0015319217066894584,0.00012896883605180768,-0.001919017611969201,0.5299312472343445,47.27004623413086,1.1925323009490967,-20.975374221801758,-0.8141990303993225,-2.3266634941101074,0.34457725286483765,0
24,0.11534976959228516,-0.5537349581718445,-47.19466781616211,-1.2679107189178467,20.975374221801758,0.8261008858680725,2.3266634941101074,-0.28964561223983765,0.0,0.0,0.0,0.0,0.0,0.0,0.0,-0.5598663088015622,-0.47528344629957114,-0.3707814757722633,0.5682434922774782,0.23729866021554505,0.1099419768485149,-0.30824475913343213,0.06247827047214173,0.6883771296188783,-0.07861096341737522,-1.6210555507002002,0.028133457829554873,2.2878655663066434,0.846627043263114,0.06226373270833701,0.6884179775783729,-0.07863937525950354,-1.6210372792796082,0.028167345702647853,2.2878312372101677,0.8466366937888992,-0.000627187922345706,-0.0009475203680534767,0.00015067729239970354,0.0005001398771642477,0.0005149487573428113,1.8310003858114426e-05,-0.000808779803753554,0.0,0.0,0.0,0.0,0.0,0.0,0.0,-0.00021453776380472162,4.084795949454989e-05,-2.8411842128317488e-05,1.8271420592075316e-05,3.3887873092979665e-05,-3.4329096475715914e-05,9.650525785165343e-06,0.000627187922345706,0.0009475203680534767,-0.00015067729239970354,-0.0005001398771642477,-0.0005149487573428113,-1.8310003858114426e-05,0.000808779803753554,0.5537349581718445,47.19466781616211,1.2679107189178467,-20.975374221801758,-0.8261008858680725,-2.3266634941101074,0.28964561223983765,0
25,0.12000060081481934,-0.5537349581718445,-47.19466781616211,-1.2679107189178467,20.975374221801758,0.8261008858680725,2.3266634941101074,-0.28964561223983765,0.0,0.0,0.0,0.0,0.0,0.0,0.0,-0.5598663088015622,-0.47528344629957114,-0.3707814757722633,0.5682434922774782,0.23729866021554505,0.1099419768485149,-0.30824475913343213,0.06247827047214173,0.6883771296188783,-0.07861096341737522,-1.6210555507002002,0.028133457829554873,2.2878655663066434,0.846627043263114,0.06226373270833701,0.6884179775783729,-0.07863937525950354,-1.6210372792796082,0.028167345702647853,2.2878312372101677,0.8466366937888992,-0.000627187922345706,-0.0009475203680534767,0.00015067729239970354,0.0005001398771642477,0.0005149487573428113,1.8310003858114426e-05,-0.000808779803753554,0.0,0.0,0.0,0.0,0.0,0.0,0.0,-0.00021453776380472162,4.084795949454989e-05,-2.8411842128317488e-05,1.8271420592075316e-05,3.3887873092979665e-05,-3.4329096475715914e-05,9.650525785165343e-06,0.000627187922345706,0.0009475203680534767,-0.00015067729239970354,-0.0005001398771642477,-0.0005149487573428113,-1.8310003858114426e-05,0.000808779803753554,0.5537349581718445,47.19466781616211,1.2679107189178467,-20.975374221801758,-0.8261008858680725,-2.3266634941101074,0.28964561223983765,0
26,0.1250019073486328,-0.5815059542655945,-47.21847152709961,-1.3393218517303467,20.975374221801758,0.8206077218055725,2.3266634941101074,-0.31711143255233765,0.0,0.0,0.0,0.0,0.0,0.0,0.0,-0.5607070022864963,-0.4686850617561429,-0.3702509380261313,0.5669917885657122,0.23751031442627107,0.10889571386238121,-0.3073753791082128,0.06248021931397287,0.6883769593146423,-0.07860808611994491,-1.6210554437423812,0.028134068181117373,2.287865561945993,0.8466344558085532,0.06226373270833701,0.6884179775783729,-0.07863937525950354,-1.6210372792796082,0.028167345702647853,2.2878312372101677,0.8466366937888992,-0.000250775026611158,-0.000556307645972481,0.0014470918710562733,-0.00033845544354591716,-0.00013073502742020975,-0.0005010160849015028,0.0002928302151584454,0.0,0.0,0.0,0.0,0.0,0.0,0.0,-0.00021648660563586275,4.1018263730596694e-05,-3.128913955863233e-05,1.81644627730293e-05,3.327752153048022e-05,-3.432473582520856e-05,2.2379803459315895e-06,0.000250775026611158,0.000556307645972481,-0.0014470918710562733,0.00033845544354591716,0.00013073502742020975,0.0005010160849015028,-0.0002928302151584454,0.5815059542655945,47.21847152709961,1.3393218517303467,-20.975374221801758,-0.8206077218055725,-2.3266634941101074,0.31711143255233765,0
27,0.12999725341796875,-0.5815059542655945,-47.21847152709961,-1.3393218517303467,20.975374221801758,0.8206077218055725,2.3266634941101074,-0.31711143255233765,0.0,0.0,0.0,0.0,0.0,0.0,0.0,-0.5607070022864963,-0.4686850617561429,-0.3702509380261313,0.5669917885657122,0.23751031442627107,0.10889571386238121,-0.3073753791082128,0.06248021931397287,0.6883769593146423,-0.07860808611994491,-1.6210554437423812,0.028134068181117373,2.287865561945993,0.8466344558085532,0.06226373270833701,0.6884179775783729,-0.07863937525950354,-1.6210372792796082,0.028167345702647853,2.2878312372101677,0.8466366937888992,-0.000250775026611158,-0.000556307645972481,0.0014470918710562733,-0.00033845544354591716,-0.00013073502742020975,-0.0005010160849015028,0.0002928302151584454,0.0,0.0,0.0,0.0,0.0,0.0,0.0,-0.00021648660563586275,4.1018263730596694e-05,-3.128913955863233e-05,1.81644627730293e-05,3.327752153048022e-05,-3.432473582520856e-05,2.2379803459315895e-06,0.000250775026611158,0.000556307645972481,-0.0014470918710562733,0.00033845544354591716,0.00013073502742020975,0.0005010160849015028,-0.0002928302151584454,0.5815059542655945,47.21847152709961,1.3393218517303467,-20.975374221801758,-0.8206077218055725,-2.3266634941101074,0.31711143255233765,0
28,0.1350085735321045,-0.6053096652030945,-47.24624252319336,-1.2679107189178467,20.999177932739258,0.8022971749305725,2.3330721855163574,-0.33084434270858765,0.0,0.0,0.0,0.0,0.0,0.0,0.0,-0.5614502297305103,-0.47892732245587244,-0.37068747556688747,0.575568476095768,0.23773258621201293,0.10913911700444286,-0.3077513549402863,0.062481889749828136,0.6883793435207198,-0.07861091176347464,-1.621059268666146,0.028136102686325704,2.287864854229796,0.8466359817120763,0.06226373270833701,0.6884179775783729,-0.07863937525950354,-1.6210372792796082,0.028167345702647853,2.2878312372101677,0.8466366937888992,-0.0002207149151564708,-3.662525285499772e-05,0.00035594142021783565,-0.0005688720675188606,0.00016125356666735232,-0.00011710965694541554,0.0006752279680647682,0.0,0.0,0.0,0.0,0.0,0.0,0.0,-0.00021815704149112658,3.863405765303085e-05,-2.8463496028904856e-05,2.1989386537857314e-05,3.124301632214874e-05,-3.361701962845132e-05,7.120768228396912e-07,0.0002207149151564708,3.662525285499772e-05,-0.00035594142021783565,0.0005688720675188606,-0.00016125356666735232,0.00011710965694541554,-0.0006752279680647682,0.6053096652030945,47.24624252319336,1.2679107189178467,-20.999177932739258,-0.8022971749305725,-2.3330721855163574,0.33084434270858765,0
29,0.14002728462219238,-0.6053096652030945,-47.24624252319336,-1.2679107189178467,20.999177932739258,0.8022971749305725,2.3330721855163574,-0.33084434270858765,0.0,0.0,0.0,0.0,0.0,0.0,0.0,-0.5614502297305103,-0.47892732245587244,-0.37068747556688747,0.575568476095768,0.23773258621201293,0.10913911700444286,-0.3077513549402863,0.062481889749828136,0.6883793435207198,-0.07861091176347464,-1.621059268666146,0.028136102686325704,2.287864854229796,0.8466359817120763,0.06226373270833701,0.6884179775783729,-0.07863937525950354,-1.6210372792796082,0.028167345702647853,2.2878312372101677,0.8466366937888992,-0.0002207149151564708,-3.662525285499772e-05,0.00035594142021783565,-0.0005688720675188606,0.00016125356666735232,-0.00011710965694541554,0.0006752279680647682,0.0,0.0,0.0,0.0,0.0,0.0,0.0,-0.00021815704149112658,3.863405765303085e-05,-2.8463496028904856e-05,2.1989386537857314e-05,3.124301632214874e-05,-3.361701962845132e-05,7.120768228396912e-07,0.0002207149151564708,3.662525285499772e-05,-0.00035594142021783565,0.0005688720675188606,-0.00016125356666735232,0.00011710965694541554,-0.0006752279680647682,0.6053096652030945,47.24624252319336,1.2679107189178467,-20.999177932739258,-0.8022971749305725,-2.3330721855163574,0.33084434270858765,0
30,0.14501237869262695,-0.6053096652030945,-47.24624252319336,-1.2679107189178467,21.022981643676758,0.8206077218055725,2.3202548027038574,-0.28232139348983765,0.0,0.0,0.0,0.0,0.0,0.0,0.0,-0.5696218427578957,-0.4707184582374676,-0.3736224950883167,0.5702362402708011,0.23687703046053973,0.10922508747527787,-0.30849486404046633,0.062481889749828136,0.6883807651316568,-0.0786108820189681,-1.6210588198379046,0.028134068181117373,2.2878662783834667,0.8466295301506283,0.06226373270833701,0.6884179775783729,-0.07863937525950354,-1.6210372792796082,0.028167345702647853,2.2878312372101677,0.8466366937888992,0.00016998278659818993,-0.0003923106359505304,0.00017164237290618183,-0.0013151022728106105,-0.00027301408537849743,0.0004983745140904209,-0.0008914664009971236,0.0,0.0,0.0,0.0,0.0,0.0,0.0,-0.00021815704149112658,3.721244671606172e-05,-2.849324053544322e-05,2.1540558296395673e-05,3.327752153048022e-05,-3.5041173298999695e-05,7.16363827091282e-06,-0.00016998278659818993,0.0003923106359505304,-0.00017164237290618183,0.0013151022728106105,0.00027301408537849743,-0.0004983745140904209,0.0008914664009971236,0.6053096652030945,47.24624252319336,1.2679107189178467,-21.022981643676758,-0.8206077218055725,-2.3202548027038574,0.28232139348983765,0
31,0.15090131759643555,-0.6053096652030945,-47.24624252319336,-1.2679107189178467,21.022981643676758,0.8206077218055725,2.3202548027038574,-0.28232139348983765,0.0,0.0,0.0,0.0,0.0,0.0,0.0,-0.5696218427578957,-0.4707184582374676,-0.3736224950883167,0.5702362402708011,0.23687703046053973,0.10922508747527787,-0.30849486404046633,0.062481889749828136,0.6883807651316568,-0.0786108820189681,-1.6210588198379046,0.028134068181117373,2.2878662783834667,0.8466295301506283,0.06226373270833701,0.6884179775783729,-0.07863937525950354,-1.6210372792796082,0.028167345702647853,2.2878312372101677,0.8466366937888992,0.00016998278659818993,-0.0003923106359505304,0.00017164237290618183,-0.0013151022728106105,-0.00027301408537849743,0.0004983745140904209,-0.0008914664009971236,0.0,0.0,0.0,0.0,0.0,0.0,0.0,-0.00021815704149112658,3.721244671606172e-05,-2.849324053544322e-05,2.1540558296395673e-05,3.327752153048022e-05,-3.5041173298999695e-05,7.16363827091282e-06,-0.00016998278659818993,0.0003923106359505304,-0.00017164237290618183,0.0013151022728106105,0.00027301408537849743,-0.0004983745140904209,0.0008914664009971236,0.6053096652030945,47.24624252319336,1.2679107189178467,-21.022981643676758,-0.8206077218055725,-2.3202548027038574,0.28232139348983765,0
32,0.15499639511108398,-0.5021602511405945,-47.21847152709961,-1.2917144298553467,20.975374221801758,0.8087058663368225,2.3458895683288574,-0.26858848333358765,0.0,0.0,0.0,0.0,0.0,0.0,0.0,-0.5721652864699995,-0.4710129568334829,-0.3738061661469879,0.570496134182205,0.23682525237036983,0.110624421424825,-0.3076467818215269,0.06247465119445533,0.6883788752756519,-0.078609953295652,-1.6210583340903015,0.028135390609502788,2.287863430076175,0.8466280047502542,0.06226373270833701,0.6884179775783729,-0.07863937525950354,-1.6210372792796082,0.028167345702647853,2.2878312372101677,0.8466366937888992,-0.002193938445132511,-0.0010426136991473424,0.0010197604924935667,0.00041013971824890703,0.0004674542912440213,-0.0006723728047985755,-0.0015206461766094593,0.0,0.0,0.0,0.0,0.0,0.0,0.0,-0.0002109184861183236,3.910230272097248e-05,-2.9421963851541943e-05,2.105481069336612e-05,3.1955093145064756e-05,-3.219286600719684e-05,8.689038644926761e-06,0.002193938445132511,0.0010426136991473424,-0.0010197604924935667,-0.00041013971824890703,-0.0004674542912440213,0.0006723728047985755,0.0015206461766094593,0.5021602511405945,47.21847152709961,1.2917144298553467,-20.975374221801758,-0.8087058663368225,-2.3458895683288574,0.26858848333358765,0
33,0.16001176834106445,-0.5021602511405945,-47.21847152709961,-1.2917144298553467,20.975374221801758,0.8087058663368225,2.3458895683288574,-0.26858848333358765,0.0,0.0,0.0,0.0,0.0,0.0,0.0,-0.5721652864699995,-0.4710129568334829,-0.3738061661469879,0.570496134182205,0.23682525237036983,0.110624421424825,-0.3076467818215269,0.06247465119445533,0.6883788752756519,-0.078609953295652,-1.6210583340903015,0.028135390609502788,2.287863430076175,0.8466280047502542,0.06226373270833701,0.6884179775783729,-0.07863937525950354,-1.6210372792796082,0.028167345702647853,2.2878312372101677,0.8466366937888992,-0.002193938445132511,-0.0010426136991473424,0.0010197604924935667,0.00041013971824890703,0.0004674542912440213,-0.0006723728047985755,-0.0015206461766094593,0.0,0.0,0.0,0.0,0.0,0.0,0.0,-0.0002109184861183236,3.910230272097248e-05,-2.9421963851541943e-05,2.105481069336612e-05,3.1955093145064756e-05,-3.219286600719684e-05,8.689038644926761e-06,0.002193938445132511,0.0010426136991473424,-0.0010197604924935667,-0.00041013971824890703,-0.0004674542912440213,0.0006723728047985755,0.0015206461766094593,0.5021602511405945,47.21847152709961,1.2917144298553467,-20.975374221801758,-0.8087058663368225,-2.3458895683288574,0.26858848333358765,0
34,0.16501212120056152,-0.5815059542655945,-47.24624252319336,-1.2679107189178467,20.975374221801758,0.8206077218055725,2.3266634941101074,-0.32352012395858765,0.0,0.0,0.0,0.0,0.0,0.0,0.0,-0.5735584648069184,-0.47390323633167414,-0.37488469388388773,0.572378900168601,0.2378899266353863,0.11154356060895709,-0.3074215528181783,0.06248021931397287,0.6883789357016752,-0.07861300819856247,-1.6210583870519866,0.028134068181117373,2.287864506668514,0.8466341082658819,0.06226373270833701,0.6884179775783729,-0.07863937525950354,-1.6210372792796082,0.028167345702647853,2.2878312372101677,0.8466366937888992,0.00018671201466120672,-0.0006981588313477106,0.0008908364554299043,0.00034365301821079065,-4.480337398086925e-05,0.00017415805800256767,0.000417318567377962,0.0,0.0,0.0,0.0,0.0,0.0,0.0,-0.00021648660563586275,3.9041876697676337e-05,-2.6367060941070997e-05,2.1107772378403666e-05,3.327752153048022e-05,-3.326945834647432e-05,2.585523017240021e-06,-0.00018671201466120672,0.0006981588313477106,-0.0008908364554299043,-0.00034365301821079065,4.480337398086925e-05,-0.00017415805800256767,-0.000417318567377962,0.5815059542655945,47.24624252319336,1.2679107189178467,-20.975374221801758,-0.8206077218055725,-2.3266634941101074,0.32352012395858765,0
35,0.17000031471252441,-0.5815059542655945,-47.24624252319336,-1.2679107189178467,20.975374221801758,0.8206077218055725,2.3266634941101074,-0.32352012395858765,0.0,0.0,0.0,0.0,0.0,0.0,0.0,-0.5735584648069184,-0.47390323633167414,-0.37488469388388773,0.572378900168601,0.2378899266353863,0.11154356060895709,-0.3074215528181783,0.06248021931397287,0.6883789357016752,-0.07861300819856247,-1.6210583870519866,0.028134068181117373,2.287864506668514,0.8466341082658819,0.06226373270833701,0.6884179775783729,-0.07863937525950354,-1.6210372792796082,0.028167345702647853,2.2878312372101677,0.8466366937888992,0.00018671201466120672,-0.0006981588313477106,0.0008908364554299043,0.00034365301821079065,-4.480337398086925e-05,0.00017415805800256767,0.000417318567377962,0.0,0.0,0.0,0.0,0.0,0.0,0.0,-0.00021648660563586275,3.9041876697676337e-05,-2.6367060941070997e-05,2.1107772378403666e-05,3.327752153048022e-05,-3.326945834647432e-05,2.585523017240021e-06,-0.00018671201466120672,0.0006981588313477106,-0.0008908364554299043,-0.00034365301821079065,4.480337398086925e-05,-0.00017415805800256767,-0.000417318567377962,0.5815059542655945,47.24624252319336,1.2679107189178467,-20.975374221801758,-0.8206077218055725,-2.3266634941101074,0.32352012395858765,0
36,0.17499780654907227,-0.5815059542655945,-47.27004623413086,-1.2401397228240967,21.022981643676758,0.8141990303993225,2.3202548027038574,-0.30337852239608765,0.0,0.0,0.0,0.0,0.0,0.0,0.0,-0.5759711957341029,-0.4589125423133969,-0.3761437677757654,0.5635079639903302,0.2388570623503433,0.11011794260588781,-0.30862399511440686,0.06248021931397287,0.68838320420258,-0.07861291030309817,-1.6210588201330676,0.02813478025794029,2.287862039824968,0.8466329299482821,0.06226373270833701,0.6884179775783729,-0.07863937525950354,-1.6210372792796082,0.028167345702647853,2.2878312372101677,0.8466366937888992,0.0007048992255109336,0.00033575280906820407,-0.0002088368743458262,-0.0010761756336115683,0.00014559448077418257,4.328788818265385e-06,-0.000329989509057388,0.0,0.0,0.0,0.0,0.0,0.0,0.0,-0.00021648660563586275,3.477337579282924e-05,-2.6464956405375384e-05,2.154085345940082e-05,3.25654447075642e-05,-3.080261480015167e-05,3.7638406170659167e-06,-0.0007048992255109336,-0.00033575280906820407,0.0002088368743458262,0.0010761756336115683,-0.00014559448077418257,-4.328788818265385e-06,0.000329989509057388,0.5815059542655945,47.27004623413086,1.2401397228240967,-21.022981643676758,-0.8141990303993225,-2.3202548027038574,0.30337852239608765,0
37,0.17999768257141113,-0.5815059542655945,-47.27004623413086,-1.2401397228240967,21.022981643676758,0.8141990303993225,2.3202548027038574,-0.30337852239608765,0.0,0.0,0.0,0.0,0.0,0.0,0.0,-0.5759711957341029,-0.4589125423133969,-0.3761437677757654,0.5635079639903302,0.2388570623503433,0.11011794260588781,-0.30862399511440686,0.06248021931397287,0.68838320420258,-0.07861291030309817,-1.6210588201330676,0.02813478025794029,2.287862039824968,0.8466329299482821,0.06226373270833701,0.6884179775783729,-0.07863937525950354,-1.6210372792796082,0.028167345702647853,2.2878312372101677,0.8466366937888992,0.0007048992255109336,0.00033575280906820407,-0.0002088368743458262,-0.0010761756336115683,0.00014559448077418257,4.328788818265385e-06,-0.000329989509057388,0.0,0.0,0.0,0.0,0.0,0.0,0.0,-0.00021648660563586275,3.477337579282924e-05,-2.6464956405375384e-05,2.154085345940082e-05,3.25654447075642e-05,-3.080261480015167e-05,3.7638406170659167e-06,-0.0007048992255109336,-0.00033575280906820407,0.0002088368743458262,0.0010761756336115683,-0.00014559448077418257,-4.328788818265385e-06,0.000329989509057388,0.5815059542655945,47.27004623413086,1.2401397228240967,-21.022981643676758,-0.8141990303993225,-2.3202548027038574,0.30337852239608765,0
38,0.18513941764831543,-0.5021602511405945,-47.24624252319336,-1.2401397228240967,20.947603225708008,0.8022971749305725,2.3266634941101074,-0.28964561223983765,0.0,0.0,0.0,0.0,0.0,0.0,0.0,-0.5557617012462341,-0.46175639385185013,-0.3617980036673148,0.5639332015221505,0.23904040365353102,0.10866230788695606,-0.30912604348572315,0.06247465119445533,0.6883817201265324,-0.07861575202853983,-1.6210534947547917,0.028136102686325704,2.2878655662827168,0.8466314040753576,0.06226373270833701,0.6884179775783729,-0.07863937525950354,-1.6210372792796082,0.028167345702647853,2.2878312372101677,0.8466366937888992,-0.0005460175783173663,0.00020644487108337833,0.00038637991515348837,0.00040244603334071586,0.00048537478365850425,0.0002514417397116979,-0.0012983800268704425,0.0,0.0,0.0,0.0,0.0,0.0,0.0,-0.0002109184861183236,3.625745184043794e-05,-2.3623230963706887e-05,1.6215475183489758e-05,3.124301632214874e-05,-3.4329072549077466e-05,5.289713541523078e-06,0.0005460175783173663,-0.00020644487108337833,-0.00038637991515348837,-0.00040244603334071586,-0.00048537478365850425,-0.0002514417397116979,0.0012983800268704425,0.5021602511405945,47.24624252319336,1.2401397228240967,-20.947603225708008,-0.8022971749305725,-2.3266634941101074,0.28964561223983765,0
39,0.19002246856689453,-0.5021602511405945,-47.24624252319336,-1.2401397228240967,20.947603225708008,0.8022971749305725,2.3266634941101074,-0.28964561223983765,0.0,0.0,0.0,0.0,0.0,0.0,0.0,-0.5557617012462341,-0.46175639385185013,-0.3617980036673148,0.5639332015221505,0.23904040365353102,0.10866230788695606,-0.30912604348572315,0.06247465119445533,0.6883817201265324,-0.07861575202853983,-1.6210534947547917,0.028136102686325704,2.2878655662827168,0.8466314040753576,0.06226373270833701,0.6884179775783729,-0.07863937525950354,-1.6210372792796082,0.028167345702647853,2.2878312372101677,0.8466366937888992,-0.0005460175783173663,0.00020644487108337833,0.00038637991515348837,0.00040244603334071586,0.00048537478365850425,0.0002514417397116979,-0.0012983800268704425,0.0,0.0,0.0,0.0,0.0,0.0,0.0,-0.0002109184861183236,3.625745184043794e-05,-2.3623230963706887e-05,1.6215475183489758e-05,3.124301632214874e-05,-3.4329072549077466e-05,5.289713541523078e-06,0.0005460175783173663,-0.00020644487108337833,-0.00038637991515348837,-0.00040244603334071586,-0.00048537478365850425,-0.0002514417397116979,0.0012983800268704425,0.5021602511405945,47.24624252319336,1.2401397228240967,-20.947603225708008,-0.8022971749305725,-2.3266634941101074,0.28964561223983765,0
40,0.19500946998596191,-0.5537349581718445,-47.19466781616211,-1.2401397228240967,20.975374221801758,0.8087058663368225,2.3266634941101074,-0.28964561223983765,0.0,0.0,0.0,0.0,0.0,0.0,0.0,-0.5713745013963764,-0.48020241117461987,-0.37628413270988864,0.5728029601029323,0.2388505769915881,0.11013597581079937,-0.31062038675524056,0.06247827047214173,0.6883773667343462,-0.07861333191118063,-1.6210561706622546,0.028135390609502788,2.287865566145138,0.8466314026218074,0.06226373270833701,0.6884179775783729,-0.07863937525950354,-1.6210372792796082,0.028167345702647853,2.2878312372101677,0.8466366937888992,0.00040828759658286505,-0.0016818871670077535,0.0007394145914152928,-0.00013799605598845875,0.00011535712700375773,3.470270652170451e-05,-0.0008465894925570257,0.0,0.0,0.0,0.0,0.0,0.0,0.0,-0.00021453776380472162,4.061084402662285e-05,-2.604334832291555e-05,1.8891382646435417e-05,3.1955093145064756e-05,-3.4328934970240255e-05,5.291167091803217e-06,-0.00040828759658286505,0.0016818871670077535,-0.0007394145914152928,0.00013799605598845875,-0.00011535712700375773,-3.470270652170451e-05,0.0008465894925570257,0.5537349581718445,47.19466781616211,1.2401397228240967,-20.975374221801758,-0.8087058663368225,-2.3266634941101074,0.28964561223983765,0
41,0.1999950408935547,-0.5537349581718445,-47.19466781616211,-1.2401397228240967,20.975374221801758,0.8087058663368225,2.3266634941101074,-0.28964561223983765,0.0,0.0,0.0,0.0,0.0,0.0,0.0,-0.5713745013963764,-0.48020241117461987,-0.37628413270988864,0.5728029601029323,0.2388505769915881,0.11013597581079937,-0.31062038675524056,0.06247827047214173,0.6883773667343462,-0.07861333191118063,-1.6210561706622546,0.028135390609502788,2.287865566145138,0.8466314026218074,0.06226373270833701,0.6884179775783729,-0.07863937525950354,-1.6210372792796082,0.028167345702647853,2.2878312372101677,0.8466366937888992,0.00040828759658286505,-0.0016818871670077535,0.0007394145914152928,-0.00013799605598845875,0.00011535712700375773,3.470270652170451e-05,-0.0008465894925570257,0.0,0.0,0.0,0.0,0.0,0.0,0.0,-0.00021453776380472162,4.061084402662285e-05,-2.604334832291555e-05,1.8891382646435417e-05,3.1955093145064756e-05,-3.4328934970240255e-05,5.291167091803217e-06,-0.00040828759658286505,0.0016818871670077535,-0.0007394145914152928,0.00013799605598845875,-0.00011535712700375773,-3.470270652170451e-05,0.0008465894925570257,0.5537349581718445,47.19466781616211,1.2401397228240967,-20.975374221801758,-0.8087058663368225,-2.3266634941101074,0.28964561223983765,0
42,0.2050161361694336,-0.5537349581718445,-47.24624252319336,-1.2163360118865967,20.947603225708008,0.8141990303993225,2.3394808769226074,-0.28232139348983765,0.0,0.0,0.0,0.0,0.0,0.0,0.0,-0.5613810377817836,-0.4683901618877391,-0.36987703865586535,0.5696271862254592,0.23752010625100184,0.10916376881583797,-0.3094466653732925,0.06247827047214173,0.6883807750250703,-0.07861523422258547,-1.6210559852353472,0.02813478025794029,2.287863788940287,0.8466305902732661,0.06226373270833701,0.6884179775783729,-0.07863937525950354,-1.6210372792796082,0.028167345702647853,2.2878312372101677,0.8466366937888992,0.0006856154878641349,5.1881611831860776e-05,0.00017534020046127379,0.0009615924587786597,-3.4176328616122627e-06,-0.0005819681218670783,-0.0011932256979551032,0.0,0.0,0.0,0.0,0.0,0.0,0.0,-0.00021453776380472162,3.720255330252886e-05,-2.4141036918071124e-05,1.8705955739051205e-05,3.25654447075642e-05,-3.2551730119401157e-05,6.10351563301581e-06,-0.0006856154878641349,-5.1881611831860776e-05,-0.00017534020046127379,-0.0009615924587786597,3.4176328616122627e-06,0.0005819681218670783,0.0011932256979551032,0.5537349581718445,47.24624252319336,1.2163360118865967,-20.947603225708008,-0.8141990303993225,-2.3394808769226074,0.28232139348983765,0
43,0.21001672744750977,-0.5537349581718445,-47.24624252319336,-1.2163360118865967,20.947603225708008,0.8141990303993225,2.3394808769226074,-0.28232139348983765,0.0,0.0,0.0,0.0,0.0,0.0,0.0,-0.5613810377817836,-0.4683901618877391,-0.36987703865586535,0.5696271862254592,0.23752010625100184,0.10916376881583797,-0.3094466653732925,0.06247827047214173,0.6883807750250703,-0.07861523422258547,-1.6210559852353472,0.02813478025794029,2.287863788940287,0.8466305902732661,0.06226373270833701,0.6884179775783729,-0.07863937525950354,-1.6210372792796082,0.028167345702647853,2.2878312372101677,0.8466366937888992,0.0006856154878641349,5.1881611831860776e-05,0.00017534020046127379,0.0009615924587786597,-3.4176328616122627e-06,-0.0005819681218670783,-0.0011932256979551032,0.0,0.0,0.0,0.0,0.0,0.0,0.0,-0.00021453776380472162,3.720255330252886e-05,-2.4141036918071124e-05,1.8705955739051205e-05,3.25654447075642e-05,-3.2551730119401157e-05,6.10351563301581e-06,-0.0006856154878641349,-5.1881611831860776e-05,-0.00017534020046127379,-0.0009615924587786597,3.4176328616122627e-06,0.0005819681218670783,0.0011932256979551032,0.5537349581718445,47.24624252319336,1.2163360118865967,-20.947603225708008,-0.8141990303993225,-2.3394808769226074,0.28232139348983765,0
44,0.2149980068206787,-0.5021602511405945,-47.27004623413086,-1.2679107189178467,20.999177932739258,0.8141990303993225,2.3330721855163574,-0.29605430364608765,0.0,0.0,0.0,0.0,0.0,0.0,0.0,-0.5609425816153071,-0.46899293188547897,-0.3706548244336291,0.5722679592392521,0.23737372623284256,0.10951927567168826,-0.30914421735854664,0.06247465119445533,0.6883812503507224,-0.07861382659272481,-1.6210600108629596,0.02813478025794029,2.2878648527742764,0.8466321161521806,0.06226373270833701,0.6884179775783729,-0.07863937525950354,-1.6210372792796082,0.028167345702647853,2.2878312372101677,0.8466366937888992,-0.0011381512332559213,0.0008105871069250424,0.0010025658259590602,-0.00016866575131905658,0.00010830963140125963,-4.58478120104138e-05,-0.000799630826252265,0.0,0.0,0.0,0.0,0.0,0.0,0.0,-0.0002109184861183236,3.672722765046821e-05,-2.554866677872969e-05,2.273158335142078e-05,3.25654447075642e-05,-3.3615564108746554e-05,4.577636718572364e-06,0.0011381512332559213,-0.0008105871069250424,-0.0010025658259590602,0.00016866575131905658,-0.00010830963140125963,4.58478120104138e-05,0.000799630826252265,0.5021602511405945,47.27004623413086,1.2679107189178467,-20.999177932739258,-0.8141990303993225,-2.3330721855163574,0.29605430364608765,0
45,0.22002530097961426,-0.5021602511405945,-47.27004623413086,-1.2679107189178467,20.999177932739258,0.8141990303993225,2.3330721855163574,-0.29605430364608765,0.0,0.0,0.0,0.0,0.0,0.0,0.0,-0.5609425816153071,-0.46899293188547897,-0.3706548244336291,0.5722679592392521,0.23737372623284256,0.10951927567168826,-0.30914421735854664,0.06247465119445533,0.6883812503507224,-0.07861382659272481,-1.6210600108629596,0.02813478025794029,2.2878648527742764,0.8466321161521806,0.06226373270833701,0.6884179775783729,-0.07863937525950354,-1.6210372792796082,0.028167345702647853,2.2878312372101677,0.8466366937888992,-0.0011381512332559213,0.0008105871069250424,0.0010025658259590602,-0.00016866575131905658,0.00010830963140125963,-4.58478120104138e-05,-0.000799630826252265,0.0,0.0,0.0,0.0,0.0,0.0,0.0,-0.0002109184861183236,3.672722765046821e-05,-2.554866677872969e-05,2.273158335142078e-05,3.25654447075642e-05,-3.3615564108746554e-05,4.577636718572364e-06,0.0011381512332559213,-0.0008105871069250424,-0.0010025658259590602,0.00016866575131905658,-0.00010830963140125963,4.58478120104138e-05,0.000799630826252265,0.5021602511405945,47.27004623413086,1.2679107189178467,-20.999177932739258,-0.8141990303993225,-2.3330721855163574,0.29605430364608765,0
46,0.22502732276916504,-0.6053096652030945,-47.21847152709961,-1.2679107189178467,20.975374221801758,0.8141990303993225,2.3266634941101074,-0.33725303411483765,0.0,0.0,0.0,0.0,0.0,0.0,0.0,-0.5607439239784191,-0.47652220154533065,-0.37363798561063893,0.5757001939009039,0.23796672289918355,0.11072031766470099,-0.309885669371365,0.062481889749828136,0.6883788705561005,-0.07861359811589087,-1.6210583047774452,0.02813478025794029,2.287865566306619,0.8466366936273937,0.06226373270833701,0.6884179775783729,-0.07863937525950354,-1.6210372792796082,0.028167345702647853,2.2878312372101677,0.8466366937888992,0.0010669932315370606,-0.0013650167069494835,0.0006783627084282821,0.0002865373292291772,-3.594592211812916e-05,0.000258258161025541,0.001543248556130484,0.0,0.0,0.0,0.0,0.0,0.0,0.0,-0.00021815704149112658,3.9107022272388825e-05,-2.577714361266803e-05,2.1025497837001694e-05,3.25654447075642e-05,-3.432909645129101e-05,1.6150547565985107e-10,-0.0010669932315370606,0.0013650167069494835,-0.0006783627084282821,-0.0002865373292291772,3.594592211812916e-05,-0.000258258161025541,-0.001543248556130484,0.6053096652030945,47.21847152709961,1.2679107189178467,-20.975374221801758,-0.8141990303993225,-2.3266634941101074,0.33725303411483765,0
47,0.23001313209533691,-0.6053096652030945,-47.21847152709961,-1.2679107189178467,20.975374221801758,0.8141990303993225,2.3266634941101074,-0.33725303411483765,0.0,0.0,0.0,0.0,0.0,0.0,0.0,-0.5607439239784191,-0.47652220154533065,-0.37363798561063893,0.5757001939009039,0.23796672289918355,0.11072031766470099,-0.309885669371365,0.062481889749828136,0.6883788705561005,-0.07861359811589087,-1.6210583047774452,0.02813478025794029,2.287865566306619,0.8466366936273937,0.06226373270833701,0.6884179775783729,-0.07863937525950354,-1.6210372792796082,0.028167345702647853,2.2878312372101677,0.8466366937888992,0.0010669932315370606,-0.0013650167069494835,0.0006783627084282821,0.0002865373292291772,-3.594592211812916e-05,0.000258258161025541,0.001543248556130484,0.0,0.0,0.0,0.0,0.0,0.0,0.0,-0.00021815704149112658,3.9107022272388825e-05,-2.577714361266803e-05,2.1025497837001694e-05,3.25654447075642e-05,-3.432909645129101e-05,1.6150547565985107e-10,-0.0010669932315370606,0.0013650167069494835,-0.0006783627084282821,-0.0002865373292291772,3.594592211812916e-05,-0.000258258161025541,-0.001543248556130484,0.6053096652030945,47.21847152709961,1.2679107189178467,-20.975374221801758,-0.8141990303993225,-2.3266634941101074,0.33725303411483765,0
48,0.23001313209533691,-0.6053096652030945,-47.21847152709961,-1.2679107189178467,20.975374221801758,0.8141990303993225,2.3266634941101074,-0.33725303411483765,0.0,0.0,0.0,0.0,0.0,0.0,0.0,-0.5607439239784191,-0.47652220154533065,-0.37363798561063893,0.5757001939009039,0.23796672289918355,0.11072031766470099,-0.309885669371365,0.062481889749828136,0.6883788705561005,-0.07861359811589087,-1.6210583047774452,0.02813478025794029,2.287865566306619,0.8466366936273937,0.06226373270833701,0.6884179775783729,-0.07863937525950354,-1.6210372792796082,0.028167345702647853,2.2878312372101677,0.8466366937888992,0.0010669932315370606,-0.0013650167069494835,0.0006783627084282821,0.0002865373292291772,-3.594592211812916e-05,0.000258258161025541,0.001543248556130484,0.0,0.0,0.0,0.0,0.0,0.0,0.0,-0.00021815704149112658,3.9107022272388825e-05,-2.577714361266803e-05,2.1025497837001694e-05,3.25654447075642e-05,-3.432909645129101e-05,1.6150547565985107e-10,-0.0010669932315370606,0.0013650167069494835,-0.0006783627084282821,-0.0002865373292291772,3.594592211812916e-05,-0.000258258161025541,-0.001543248556130484,0.6053096652030945,47.21847152709961,1.2679107189178467,-20.975374221801758,-0.8141990303993225,-2.3266634941101074,0.33725303411483765,0
49,0.2400038242340088,-0.6053096652030945,-47.21847152709961,-1.2679107189178467,20.975374221801758,0.8141990303993225,2.3266634941101074,-0.33725303411483765,0.0,0.0,0.0,0.0,0.0,0.0,0.0,-0.5607439239784191,-0.47652220154533065,-0.37363798561063893,0.5757001939009039,0.23796672289918355,0.11072031766470099,-0.309885669371365,0.062481889749828136,0.6883788705561005,-0.07861359811589087,-1.6210583047774452,0.02813478025794029,2.287865566306619,0.8466366936273937,0.06226373270833701,0.6884179775783729,-0.07863937525950354,-1.6210372792796082,0.028167345702647853,2.2878312372101677,0.8466366937888992,0.0010669932315370606,-0.0013650167069494835,0.0006783627084282821,0.0002865373292291772,-3.594592211812916e-05,0.000258258161025541,0.001543248556130484,0.0,0.0,0.0,0.0,0.0,0.0,0.0,-0.00021815704149112658,3.9107022272388825e-05,-2.577714361266803e-05,2.1025497837001694e-05,3.25654447075642e-05,-3.432909645129101e-05,1.6150547565985107e-10,-0.0010669932315370606,0.0013650167069494835,-0.0006783627084282821,-0.0002865373292291772,3.594592211812916e-05,-0.000258258161025541,-0.001543248556130484,0.6053096652030945,47.21847152709961,1.2679107189178467,-20.975374221801758,-0.8141990303993225,-2.3266634941101074,0.33725303411483765,0
50,0.2450120449066162,-0.6053096652030945,-47.21847152709961,-1.2679107189178467,20.975374221801758,0.8141990303993225,2.3266634941101074,-0.33725303411483765,0.0,0.0,0.0,0.0,0.0,0.0,0.0,-0.5607439239784191,-0.47652220154533065,-0.37363798561063893,0.5757001939009039,0.23796672289918355,0.11072031766470099,-0.309885669371365,0.062481889749828136,0.6883788705561005,-0.07861359811589087,-1.6210583047774452,0.02813478025794029,2.287865566306619,0.8466366936273937,0.06226373270833701,0.6884179775783729,-0.07863937525950354,-1.6210372792796082,0.028167345702647853,2.2878312372101677,0.8466366937888992,0.0010669932315370606,-0.0013650167069494835,0.0006783627084282821,0.0002865373292291772,-3.594592211812916e-05,0.000258258161025541,0.001543248556130484,0.0,0.0,0.0,0.0,0.0,0.0,0.0,-0.00021815704149112658,3.9107022272388825e-05,-2.577714361266803e-05,2.1025497837001694e-05,3.25654447075642e-05,-3.432909645129101e-05,1.6150547565985107e-10,-0.0010669932315370606,0.0013650167069494835,-0.0006783627084282821,-0.0002865373292291772,3.594592211812916e-05,-0.000258258161025541,-0.001543248556130484,0.6053096652030945,47.21847152709961,1.2679107189178467,-20.975374221801758,-0.8141990303993225,-2.3266634941101074,0.33725303411483765,0
51,0.25001049041748047,-0.5537349581718445,-47.24624252319336,-1.2163360118865967,20.975374221801758,0.8141990303993225,2.3330721855163574,-0.29605430364608765,0.0,0.0,0.0,0.0,0.0,0.0,0.0,-0.541898271731792,-0.4566005200934918,-0.3600689088916991,0.566310506993647,0.23681974242793122,0.10952654490760196,-0.3090677622571571,0.06247827047214173,0.6883796230408307,-0.07861436961585683,-1.6210586519869246,0.02813478025794029,2.2878648535837987,0.8466321117915295,0.06226373270833701,0.6884179775783729,-0.07863937525950354,-1.6210372792796082,0.028167345702647853,2.2878312372101677,0.8466366937888992,-7.561227089216508e-05,0.00017570830386626286,-0.00034640990504360337,-5.826239093513211e-05,0.0014494505306663393,-0.0003270416087429661,-0.0006718175927744409,0.0,0.0,0.0,0.0,0.0,0.0,0.0,-0.00021453776380472162,3.8354537542195644e-05,-2.500564364671387e-05,2.1372707316391626e-05,3.25654447075642e-05,-3.3616373630973584e-05,4.581997369634827e-06,7.561227089216508e-05,-0.00017570830386626286,0.00034640990504360337,5.826239093513211e-05,-0.0014494505306663393,0.0003270416087429661,0.0006718175927744409,0.5537349581718445,47.24624252319336,1.2163360118865967,-20.975374221801758,-0.8141990303993225,-2.3330721855163574,0.29605430364608765,0
52,0.2550175189971924,-0.5537349581718445,-47.24624252319336,-1.2163360118865967,20.975374221801758,0.8141990303993225,2.3330721855163574,-0.29605430364608765,0.0,0.0,0.0,0.0,0.0,0.0,0.0,-0.541898271731792,-0.4566005200934918,-0.3600689088916991,0.566310506993647,0.23681974242793122,0.10952654490760196,-0.3090677622571571,0.06247827047214173,0.6883796230408307,-0.07861436961585683,-1.6210586519869246,0.02813478025794029,2.2878648535837987,0.8466321117915295,0.06226373270833701,0.6884179775783729,-0.07863937525950354,-1.6210372792796082,0.028167345702647853,2.2878312372101677,0.8466366937888992,-7.561227089216508e-05,0.00017570830386626286,-0.00034640990504360337,-5.826239093513211e-05,0.0014494505306663393,-0.0003270416087429661,-0.0006718175927744409,0.0,0.0,0.0,0.0,0.0,0.0,0.0,-0.00021453776380472162,3.8354537542195644e-05,-2.500564364671387e-05,2.1372707316391626e-05,3.25654447075642e-05,-3.3616373630973584e-05,4.581997369634827e-06,7.561227089216508e-05,-0.00017570830386626286,0.00034640990504360337,5.826239093513211e-05,-0.0014494505306663393,0.0003270416087429661,0.0006718175927744409,0.5537349581718445,47.24624252319336,1.2163360118865967,-20.975374221801758,-0.8141990303993225,-2.3330721855163574,0.29605430364608765,0
53,0.26002073287963867,-0.5299312472343445,-47.27004623413086,-1.1925323009490967,20.975374221801758,0.8206077218055725,2.3394808769226074,-0.29605430364608765,0.0,0.0,0.0,0.0,0.0,0.0,0.0,-0.5419064680236744,-0.46368093713886294,-0.35907612205919476,0.5706382982902964,0.23795273457549426,0.10981751028434789,-0.30867260834816035,0.062476600036286474,0.6883826723524251,-0.07861664972503574,-1.621055527484382,0.028134107641599793,2.287864102907138,0.8466321160983208,0.06226373270833701,0.6884179775783729,-0.07863937525950354,-1.6210372792796082,0.028167345702647853,2.2878312372101677,0.8466366937888992,-0.0002633487214688205,0.0007939860179880101,-0.0008186331183802916,0.00024064083837380438,-0.0001914235733019473,-0.00017663181807733226,-0.0005781202017709985,0.0,0.0,0.0,0.0,0.0,0.0,0.0,-0.00021286732794946472,3.530522594774599e-05,-2.2725534467804565e-05,1.824820477391853e-05,3.3238061048060374e-05,-3.28656969701413e-05,4.577690578377869e-06,0.0002633487214688205,-0.0007939860179880101,0.0008186331183802916,-0.00024064083837380438,0.0001914235733019473,0.00017663181807733226,0.0005781202017709985,0.5299312472343445,47.27004623413086,1.1925323009490967,-20.975374221801758,-0.8206077218055725,-2.3394808769226074,0.29605430364608765,0
54,0.26502132415771484,-0.5299312472343445,-47.27004623413086,-1.1925323009490967,20.975374221801758,0.8206077218055725,2.3394808769226074,-0.29605430364608765,0.0,0.0,0.0,0.0,0.0,0.0,0.0,-0.5419064680236744,-0.46368093713886294,-0.35907612205919476,0.5706382982902964,0.23795273457549426,0.10981751028434789,-0.30867260834816035,0.062476600036286474,0.6883826723524251,-0.07861664972503574,-1.621055527484382,0.028134107641599793,2.287864102907138,0.8466321160983208,0.06226373270833701,0.6884179775783729,-0.07863937525950354,-1.6210372792796082,0.028167345702647853,2.2878312372101677,0.8466366937888992,-0.0002633487214688205,0.0007939860179880101,-0.0008186331183802916,0.00024064083837380438,-0.0001914235733019473,-0.00017663181807733226,-0.0005781202017709985,0.0,0.0,0.0,0.0,0.0,0.0,0.0,-0.00021286732794946472,3.530522594774599e-05,-2.2725534467804565e-05,1.824820477391853e-05,3.3238061048060374e-05,-3.28656969701413e-05,4.577690578377869e-06,0.0002633487214688205,-0.0007939860179880101,0.0008186331183802916,-0.00024064083837380438,0.0001914235733019473,0.00017663181807733226,0.0005781202017709985,0.5299312472343445,47.27004623413086,1.1925323009490967,-20.975374221801758,-0.8206077218055725,-2.3394808769226074,0.29605430364608765,0
55,0.27004313468933105,-0.5299312472343445,-47.21847152709961,-1.2401397228240967,20.975374221801758,0.8141990303993225,2.3266634941101074,-0.30978721380233765,0.0,0.0,0.0,0.0,0.0,0.0,0.0,-0.5439554434426048,-0.47506506375513263,-0.36035615904050966,0.5763926016598453,0.23746476844063136,0.11097093894265385,-0.3085793556993014,0.062476600036286474,0.6883797759330598,-0.07861282153133516,-1.6210579193563515,0.028134780258163045,2.2878655663064222,0.8466336420310865,0.06226373270833701,0.6884179775783729,-0.07863937525950354,-1.6210372792796082,0.028167345702647853,2.2878312372101677,0.8466366937888992,0.00020508214532491458,-0.0013578997127002982,0.0005742882545540044,4.554084360830457e-05,-1.9272560280061435e-05,0.00015842014107260097,-0.0007268182468605873,0.0,0.0,0.0,0.0,0.0,0.0,0.0,-0.00021286732794946472,3.820164531309622e-05,-2.6553728168385304e-05,2.06400767432946e-05,3.256544448480836e-05,-3.432909625455949e-05,3.0517578126776357e-06,-0.00020508214532491458,0.0013578997127002982,-0.0005742882545540044,-4.554084360830457e-05,1.9272560280061435e-05,-0.00015842014107260097,0.0007268182468605873,0.5299312472343445,47.21847152709961,1.2401397228240967,-20.975374221801758,-0.8141990303993225,-2.3266634941101074,0.30978721380233765,0
56,0.2750113010406494,-0.5299312472343445,-47.21847152709961,-1.2401397228240967,20.975374221801758,0.8141990303993225,2.3266634941101074,-0.30978721380233765,0.0,0.0,0.0,0.0,0.0,0.0,0.0,-0.5439554434426048,-0.47506506375513263,-0.36035615904050966,0.5763926016598453,0.23746476844063136,0.11097093894265385,-0.3085793556993014,0.062476600036286474,0.6883797759330598,-0.07861282153133516,-1.6210579193563515,0.028134780258163045,2.2878655663064222,0.8466336420310865,0.06226373270833701,0.6884179775783729,-0.07863937525950354,-1.6210372792796082,0.028167345702647853,2.2878312372101677,0.8466366937888992,0.00020508214532491458,-0.0013578997127002982,0.0005742882545540044,4.554084360830457e-05,-1.9272560280061435e-05,0.00015842014107260097,-0.0007268182468605873,0.0,0.0,0.0,0.0,0.0,0.0,0.0,-0.00021286732794946472,3.820164531309622e-05,-2.6553728168385304e-05,2.06400767432946e-05,3.256544448480836e-05,-3.432909625455949e-05,3.0517578126776357e-06,-0.00020508214532491458,0.0013578997127002982,-0.0005742882545540044,-4.554084360830457e-05,1.9272560280061435e-05,-0.00015842014107260097,0.0007268182468605873,0.5299312472343445,47.21847152709961,1.2401397228240967,-20.975374221801758,-0.8141990303993225,-2.3266634941101074,0.30978721380233765,0
57,0.280026912689209,-0.5299312472343445,-47.27004623413086,-1.2163360118865967,20.947603225708008,0.8261008858680725,2.3394808769226074,-0.28964561223983765,0.0,0.0,0.0,0.0,0.0,0.0,0.0,-0.5364340096178168,-0.47895889095940775,-0.3535841360102296,0.5781173833279096,0.23703336850776838,0.11083394707050877,-0.3091926227773653,0.062476600036286474,0.6883833895823196,-0.07861434648660334,-1.621054317078279,0.028133457829554873,2.2878641421529977,0.8466314040215225,0.06226373270833701,0.6884179775783729,-0.07863937525950354,-1.6210372792796082,0.028167345702647853,2.2878312372101677,0.8466366937888992,0.00020550939415080137,-9.415347100091838e-05,0.0008553605577075239,0.0008482167222612999,-0.0004855491217437825,-0.00037505103891642,-0.0006410331924342122,0.0,0.0,0.0,0.0,0.0,0.0,0.0,-0.00021286732794946472,3.458799605327023e-05,-2.502877290019856e-05,1.703779867079369e-05,3.3887873092979665e-05,-3.290494283003653e-05,5.289767376681631e-06,-0.00020550939415080137,9.415347100091838e-05,-0.0008553605577075239,-0.0008482167222612999,0.0004855491217437825,0.00037505103891642,0.0006410331924342122,0.5299312472343445,47.27004623413086,1.2163360118865967,-20.947603225708008,-0.8261008858680725,-2.3394808769226074,0.28964561223983765,0
58,0.2850008010864258,-0.5299312472343445,-47.27004623413086,-1.2163360118865967,20.947603225708008,0.8261008858680725,2.3394808769226074,-0.28964561223983765,0.0,0.0,0.0,0.0,0.0,0.0,0.0,-0.5364340096178168,-0.47895889095940775,-0.3535841360102296,0.5781173833279096,0.23703336850776838,0.11083394707050877,-0.3091926227773653,0.062476600036286474,0.6883833895823196,-0.07861434648660334,-1.621054317078279,0.028133457829554873,2.2878641421529977,0.8466314040215225,0.06226373270833701,0.6884179775783729,-0.07863937525950354,-1.6210372792796082,0.028167345702647853,2.2878312372101677,0.8466366937888992,0.00020550939415080137,-9.415347100091838e-05,0.0008553605577075239,0.0008482167222612999,-0.0004855491217437825,-0.00037505103891642,-0.0006410331924342122,0.0,0.0,0.0,0.0,0.0,0.0,0.0,-0.00021286732794946472,3.458799605327023e-05,-2.502877290019856e-05,1.703779867079369e-05,3.3887873092979665e-05,-3.290494283003653e-05,5.289767376681631e-06,-0.00020550939415080137,9.415347100091838e-05,-0.0008553605577075239,-0.0008482167222612999,0.0004855491217437825,0.00037505103891642,0.0006410331924342122,0.5299312472343445,47.27004623413086,1.2163360118865967,-20.947603225708008,-0.8261008858680725,-2.3394808769226074,0.28964561223983765,0
59,0.29001712799072266,-0.5537349581718445,-47.21847152709961,-1.2163360118865967,20.999177932739258,0.8206077218055725,2.3458895683288574,-0.30978721380233765,0.0,0.0,0.0,0.0,0.0,0.0,0.0,-0.5602631828046752,-0.4758623805612099,-0.3695099841742885,0.5736169425858528,0.23742998812520552,0.11015342043836195,-0.3081682363398178,0.06247827047214173,0.6883768883141899,-0.07861523996999599,-1.6210572289400658,0.028134068181117373,2.287863430076175,0.8466336420310865,0.06226373270833701,0.6884179775783729,-0.07863937525950354,-1.6210372792796082,0.028167345702647853,2.2878312372101677,0.8466366937888992,0.0003600900235884815,-0.0014358441758110087,-0.0007600286965416795,-0.00045100234002161394,-0.00024105035164972394,-0.00044092303238737226,-5.837096176204798e-05,0.0,0.0,0.0,0.0,0.0,0.0,0.0,-0.00021453776380472162,4.108926418300296e-05,-2.4135289507551394e-05,1.9949660457596607e-05,3.327752153048022e-05,-3.219286600719684e-05,3.0517578126776357e-06,-0.0003600900235884815,0.0014358441758110087,0.0007600286965416795,0.00045100234002161394,0.00024105035164972394,0.00044092303238737226,5.837096176204798e-05,0.5537349581718445,47.21847152709961,1.2163360118865967,-20.999177932739258,-0.8206077218055725,-2.3458895683288574,0.30978721380233765,0
60,0.2949981689453125,-0.5537349581718445,-47.21847152709961,-1.2163360118865967,20.999177932739258,0.8206077218055725,2.3458895683288574,-0.30978721380233765,0.0,0.0,0.0,0.0,0.0,0.0,0.0,-0.5602631828046752,-0.4758623805612099,-0.3695099841742885,0.5736169425858528,0.23742998812520552,0.11015342043836195,-0.3081682363398178,0.06247827047214173,0.6883768883141899,-0.07861523996999599,-1.6210572289400658,0.028134068181117373,2.287863430076175,0.8466336420310865,0.06226373270833701,0.6884179775783729,-0.07863937525950354,-1.6210372792796082,0.028167345702647853,2.2878312372101677,0.8466366937888992,0.0003600900235884815,-0.0014358441758110087,-0.0007600286965416795,-0.00045100234002161394,-0.00024105035164972394,-0.00044092303238737226,-5.837096176204798e-05,0.0,0.0,0.0,0.0,0.0,0.0,0.0,-0.00021453776380472162,4.108926418300296e-05,-2.4135289507551394e-05,1.9949660457596607e-05,3.327752153048022e-05,-3.219286600719684e-05,3.0517578126776357e-06,-0.0003600900235884815,0.0014358441758110087,0.0007600286965416795,0.00045100234002161394,0.00024105035164972394,0.00044092303238737226,5.837096176204798e-05,0.5537349581718445,47.21847152709961,1.2163360118865967,-20.999177932739258,-0.8206077218055725,-2.3458895683288574,0.30978721380233765,0
61,0.3000202178955078,-0.5815059542655945,-47.29384994506836,-1.2163360118865967,20.947603225708008,0.8261008858680725,2.3330721855163574,-0.26858848333358765,0.0,0.0,0.0,0.0,0.0,0.0,0.0,-0.5464810333278283,-0.47635409625809333,-0.36128339615599225,0.5722742604685986,0.23737136569246134,0.111277659999103,-0.3074819688867845,0.06248021931397287,0.6883848310677103,-0.07861714044656293,-1.6210542983141536,0.028133457829554873,2.2878648542298206,0.846629064394368,0.06226373270833701,0.6884179775783729,-0.07863937525950354,-1.6210372792796082,0.028167345702647853,2.2878312372101677,0.8466366937888992,0.0008457553852598033,0.0005871686886745585,-0.0008485858773580736,0.0007097914406619392,-0.0005539413347632171,-0.0001319068225986408,-0.001815212590621837,0.0,0.0,0.0,0.0,0.0,0.0,0.0,-0.00021648660563586275,3.31465106625517e-05,-2.223481294061358e-05,1.701903454542908e-05,3.3887873092979665e-05,-3.361701965287622e-05,7.629394531138978e-06,-0.0008457553852598033,-0.0005871686886745585,0.0008485858773580736,-0.0007097914406619392,0.0005539413347632171,0.0001319068225986408,0.001815212590621837,0.5815059542655945,47.29384994506836,1.2163360118865967,-20.947603225708008,-0.8261008858680725,-2.3330721855163574,0.26858848333358765,0
62,0.30501818656921387,-0.5815059542655945,-47.29384994506836,-1.2163360118865967,20.947603225708008,0.8261008858680725,2.3330721855163574,-0.26858848333358765,0.0,0.0,0.0,0.0,0.0,0.0,0.0,-0.5464810333278283,-0.47635409625809333,-0.36128339615599225,0.5722742604685986,0.23737136569246134,0.111277659999103,-0.3074819688867845,0.06248021931397287,0.6883848310677103,-0.07861714044656293,-1.6210542983141536,0.028133457829554873,2.2878648542298206,0.846629064394368,0.06226373270833701,0.6884179775783729,-0.07863937525950354,-1.6210372792796082,0.028167345702647853,2.2878312372101677,0.8466366937888992,0.0008457553852598033,0.0005871686886745585,-0.0008485858773580736,0.0007097914406619392,-0.0005539413347632171,-0.0001319068225986408,-0.001815212590621837,0.0,0.0,0.0,0.0,0.0,0.0,0.0,-0.00021648660563586275,3.31465106625517e-05,-2.223481294061358e-05,1.701903454542908e-05,3.3887873092979665e-05,-3.361701965287622e-05,7.629394531138978e-06,-0.0008457553852598033,-0.0005871686886745585,0.0008485858773580736,-0.0007097914406619392,0.0005539413347632171,0.0001319068225986408,0.001815212590621837,0.5815059542655945,47.29384994506836,1.2163360118865967,-20.947603225708008,-0.8261008858680725,-2.3330721855163574,0.26858848333358765,0
63,0.31001782417297363,-0.5815059542655945,-47.27004623413086,-1.2401397228240967,20.999177932739258,0.8022971749305725,2.3266634941101074,-0.27591270208358765,0.0,0.0,0.0,0.0,0.0,0.0,0.0,-0.5446682704767868,-0.46625216603502107,-0.36107971693362173,0.5673196866065477,0.23725600721985848,0.11058007844290668,-0.30656711105753603,0.06248021931397287,0.6883812418151518,-0.07861481157326858,-1.6210599853072913,0.028136102686325704,2.287865208733283,0.8466298781964514,0.06226373270833701,0.6884179775783729,-0.07863937525950354,-1.6210372792796082,0.028167345702647853,2.2878312372101677,0.8466366937888992,0.00046198967928310285,0.000667142594571496,0.0001874265220170728,-0.00044128394308826454,0.0005479226615625149,6.2410723816546895e-06,-0.0015225644134307112,0.0,0.0,0.0,0.0,0.0,0.0,0.0,-0.00021648660563586275,3.6735763221051876e-05,-2.4563686234962967e-05,2.2706027683172536e-05,3.124301632214874e-05,-3.3971523115461366e-05,6.815592447750873e-06,-0.00046198967928310285,-0.000667142594571496,-0.0001874265220170728,0.00044128394308826454,-0.0005479226615625149,-6.2410723816546895e-06,0.0015225644134307112,0.5815059542655945,47.27004623413086,1.2401397228240967,-20.999177932739258,-0.8022971749305725,-2.3266634941101074,0.27591270208358765,0
64,0.31503844261169434,-0.5815059542655945,-47.27004623413086,-1.2401397228240967,20.999177932739258,0.8022971749305725,2.3266634941101074,-0.27591270208358765,0.0,0.0,0.0,0.0,0.0,0.0,0.0,-0.5446682704767868,-0.46625216603502107,-0.36107971693362173,0.5673196866065477,0.23725600721985848,0.11058007844290668,-0.30656711105753603,0.06248021931397287,0.6883812418151518,-0.07861481157326858,-1.6210599853072913,0.028136102686325704,2.287865208733283,0.8466298781964514,0.06226373270833701,0.6884179775783729,-0.07863937525950354,-1.6210372792796082,0.028167345702647853,2.2878312372101677,0.8466366937888992,0.00046198967928310285,0.000667142594571496,0.0001874265220170728,-0.00044128394308826454,0.0005479226615625149,6.2410723816546895e-06,-0.0015225644134307112,0.0,0.0,0.0,0.0,0.0,0.0,0.0,-0.00021648660563586275,3.6735763221051876e-05,-2.4563686234962967e-05,2.2706027683172536e-05,3.124301632214874e-05,-3.3971523115461366e-05,6.815592447750873e-06,-0.00046198967928310285,-0.000667142594571496,-0.0001874265220170728,0.00044128394308826454,-0.0005479226615625149,-6.2410723816546895e-06,0.0015225644134307112,0.5815059542655945,47.27004623413086,1.2401397228240967,-20.999177932739258,-0.8022971749305725,-2.3266634941101074,0.27591270208358765,0
65,0.31999874114990234,-0.6053096652030945,-47.27004623413086,-1.2401397228240967,20.999177932739258,0.8261008858680725,2.3330721855163574,-0.30337852239608765,0.0,0.0,0.0,0.0,0.0,0.0,0.0,-0.558999486082207,-0.47024220218319485,-0.37116776312847477,0.5690195472194712,0.23792186403035234,0.1102402049821978,-0.30646998520435115,0.062481889749828136,0.6883803662946681,-0.07861338757230381,-1.6210572026787113,0.02813381297389666,2.287864854227802,0.8466329299542639,0.06226373270833701,0.6884179775783729,-0.07863937525950354,-1.6210372792796082,0.028167345702647853,2.2878312372101677,0.8466366937888992,0.0007378401492092197,0.0003348088704920254,-0.0003620396040501143,-0.0008595231212543226,-0.0010457070918316554,-0.0003475188702885873,-0.00012146728392831866,0.0,0.0,0.0,0.0,0.0,0.0,0.0,-0.00021815704149112658,3.7611283704719334e-05,-2.5987687199732767e-05,1.99233991031722e-05,3.353272875119412e-05,-3.3617017634490765e-05,3.7638346352952823e-06,-0.0007378401492092197,-0.0003348088704920254,0.0003620396040501143,0.0008595231212543226,0.0010457070918316554,0.0003475188702885873,0.00012146728392831866,0.6053096652030945,47.27004623413086,1.2401397228240967,-20.999177932739258,-0.8261008858680725,-2.3330721855163574,0.30337852239608765,0
66,0.3271200656890869,-0.6291133761405945,-47.21847152709961,-1.2679107189178467,20.975374221801758,0.8261008858680725,2.3266634941101074,-0.33725303411483765,0.0,0.0,0.0,0.0,0.0,0.0,0.0,-0.5524315896738208,-0.46574785733232,-0.3663178164934226,0.5656852252489968,0.23780510896367013,0.10987631008791034,-0.3066290802321824,0.0624835601856834,0.6883773956600331,-0.07861374934057175,-1.6210563983624018,0.028133457835569274,2.2878655663066434,0.8466335147130056,0.06226373270833701,0.6884179775783729,-0.07863937525950354,-1.6210372792796082,0.028167345702647853,2.2878312372101677,0.8466366937888992,0.0013411466671824199,-0.00038743898356668723,0.0005438715768375915,-0.00012161147051122042,-0.00041909516155754303,9.906840401265452e-05,0.0010330642510167599,0.0,0.0,0.0,0.0,0.0,0.0,0.0,-0.0002198274773463904,4.058191833977709e-05,-2.5625918931793112e-05,1.911908279361718e-05,3.388786707857888e-05,-3.4329096475715914e-05,3.1790758935335006e-06,-0.0013411466671824199,0.00038743898356668723,-0.0005438715768375915,0.00012161147051122042,0.00041909516155754303,-9.906840401265452e-05,-0.0010330642510167599,0.6291133761405945,47.21847152709961,1.2679107189178467,-20.975374221801758,-0.8261008858680725,-2.3266634941101074,0.33725303411483765,0
67,0.3299984931945801,-0.6291133761405945,-47.21847152709961,-1.2679107189178467,20.975374221801758,0.8261008858680725,2.3266634941101074,-0.33725303411483765,0.0,0.0,0.0,0.0,0.0,0.0,0.0,-0.5524315896738208,-0.46574785733232,-0.3663178164934226,0.5656852252489968,0.23780510896367013,0.10987631008791034,-0.3066290802321824,0.0624835601856834,0.6883773956600331,-0.07861374934057175,-1.6210563983624018,0.028133457835569274,2.2878655663066434,0.8466335147130056,0.06226373270833701,0.6884179775783729,-0.07863937525950354,-1.6210372792796082,0.028167345702647853,2.2878312372101677,0.8466366937888992,0.0013411466671824199,-0.00038743898356668723,0.0005438715768375915,-0.00012161147051122042,-0.00041909516155754303,9.906840401265452e-05,0.0010330642510167599,0.0,0.0,0.0,0.0,0.0,0.0,0.0,-0.0002198274773463904,4.058191833977709e-05,-2.5625918931793112e-05,1.911908279361718e-05,3.388786707857888e-05,-3.4329096475715914e-05,3.1790758935335006e-06,-0.0013411466671824199,0.00038743898356668723,-0.0005438715768375915,0.00012161147051122042,0.00041909516155754303,-9.906840401265452e-05,-0.0010330642510167599,0.6291133761405945,47.21847152709961,1.2679107189178467,-20.975374221801758,-0.8261008858680725,-2.3266634941101074,0.33725303411483765,0
68,0.33502864837646484,-0.6291133761405945,-47.21847152709961,-1.2679107189178467,20.975374221801758,0.8261008858680725,2.3266634941101074,-0.33725303411483765,0.0,0.0,0.0,0.0,0.0,0.0,0.0,-0.5524315896738208,-0.46574785733232,-0.3663178164934226,0.5656852252489968,0.23780510896367013,0.10987631008791034,-0.3066290802321824,0.0624835601856834,0.6883773956600331,-0.07861374934057175,-1.6210563983624018,0.028133457835569274,2.2878655663066434,0.8466335147130056,0.06226373270833701,0.6884179775783729,-0.07863937525950354,-1.6210372792796082,0.028167345702647853,2.2878312372101677,0.8466366937888992,0.0013411466671824199,-0.00038743898356668723,0.0005438715768375915,-0.00012161147051122042,-0.00041909516155754303,9.906840401265452e-05,0.0010330642510167599,0.0,0.0,0.0,0.0,0.0,0.0,0.0,-0.0002198274773463904,4.058191833977709e-05,-2.5625918931793112e-05,1.911908279361718e-05,3.388786707857888e-05,-3.4329096475715914e-05,3.1790758935335006e-06,-0.0013411466671824199,0.00038743898356668723,-0.0005438715768375915,0.00012161147051122042,0.00041909516155754303,-9.906840401265452e-05,-0.0010330642510167599,0.6291133761405945,47.21847152709961,1.2679107189178467,-20.975374221801758,-0.8261008858680725,-2.3266634941101074,0.33725303411483765,0
69,0.34002065658569336,-0.5537349581718445,-47.21847152709961,-1.2401397228240967,20.975374221801758,0.8261008858680725,2.3330721855163574,-0.30337852239608765,0.0,0.0,0.0,0.0,0.0,0.0,0.0,-0.5408924615888684,-0.46297590336589123,-0.35617489511600153,0.5680977611430903,0.23851625634508955,0.11007071251472368,-0.3075698535613287,0.06247827047214173,0.6883769632042344,-0.07861353305548112,-1.6210579465148383,0.028133457829554884,2.287864854211876,0.8466318703101525,0.06226373270833701,0.6884179775783729,-0.07863937525950354,-1.6210372792796082,0.028167345702647853,2.2878312372101677,0.8466366937888992,0.00011031202557797136,-0.00036577812345884203,0.00037865195931785614,0.00014558074437994603,-0.0004785024937542474,-5.214078144916219e-07,-0.0003671781026060356,0.0,0.0,0.0,0.0,0.0,0.0,0.0,-0.00021453776380472162,4.101437413850384e-05,-2.58422040224221e-05,2.06672352300874e-05,3.3887873092969256e-05,-3.361700170811943e-05,4.823478746640575e-06,-0.00011031202557797136,0.00036577812345884203,-0.00037865195931785614,-0.00014558074437994603,0.0004785024937542474,5.214078144916219e-07,0.0003671781026060356,0.5537349581718445,47.21847152709961,1.2401397228240967,-20.975374221801758,-0.8261008858680725,-2.3330721855163574,0.30337852239608765,0
70,0.3450183868408203,-0.5537349581718445,-47.21847152709961,-1.2401397228240967,20.975374221801758,0.8261008858680725,2.3330721855163574,-0.30337852239608765,0.0,0.0,0.0,0.0,0.0,0.0,0.0,-0.5408924615888684,-0.46297590336589123,-0.35617489511600153,0.5680977611430903,0.23851625634508955,0.11007071251472368,-0.3075698535613287,0.06247827047214173,0.6883769632042344,-0.07861353305548112,-1.6210579465148383,0.028133457829554884,2.287864854211876,0.8466318703101525,0.06226373270833701,0.6884179775783729,-0.07863937525950354,-1.6210372792796082,0.028167345702647853,2.2878312372101677,0.8466366937888992,0.00011031202557797136,-0.00036577812345884203,0.00037865195931785614,0.00014558074437994603,-0.0004785024937542474,-5.214078144916219e-07,-0.0003671781026060356,0.0,0.0,0.0,0.0,0.0,0.0,0.0,-0.00021453776380472162,4.101437413850384e-05,-2.58422040224221e-05,2.06672352300874e-05,3.3887873092969256e-05,-3.361700170811943e-05,4.823478746640575e-06,-0.00011031202557797136,0.00036577812345884203,-0.00037865195931785614,-0.00014558074437994603,0.0004785024937542474,5.214078144916219e-07,0.0003671781026060356,0.5537349581718445,47.21847152709961,1.2401397228240967,-20.975374221801758,-0.8261008858680725,-2.3330721855163574,0.30337852239608765,0
71,0.3500392436981201,-0.5815059542655945,-47.24624252319336,-1.1925323009490967,21.022981643676758,0.8141990303993225,2.3330721855163574,-0.28964561223983765,0.0,0.0,0.0,0.0,0.0,0.0,0.0,-0.5563503935221037,-0.45805580036826893,-0.36831975243557874,0.5650767928344249,0.23928958960768498,0.10979124955418172,-0.3087091700754377,0.06248021931397287,0.6883789352911551,-0.07861667504910781,-1.6210588915725752,0.02813478025794029,2.2878648542298206,0.8466282246704712,0.06226373270833701,0.6884179775783729,-0.07863937525950354,-1.6210372792796082,0.028167345702647853,2.2878312372101677,0.8466366937888992,0.0008200573510068547,9.931517732645339e-05,-0.0010736021885173934,-0.001284390450820115,0.00011100255599381821,-0.0003630407177547456,-0.0014428281539982312,0.0,0.0,0.0,0.0,0.0,0.0,0.0,-0.00021648660563586275,3.9042287217738725e-05,-2.2700210395729115e-05,2.16122929670437e-05,3.25654447075642e-05,-3.361701965287622e-05,8.469118428000577e-06,-0.0008200573510068547,-9.931517732645339e-05,0.0010736021885173934,0.001284390450820115,-0.00011100255599381821,0.0003630407177547456,0.0014428281539982312,0.5815059542655945,47.24624252319336,1.1925323009490967,-21.022981643676758,-0.8141990303993225,-2.3330721855163574,0.28964561223983765,0
72,0.3550088405609131,-0.5815059542655945,-47.24624252319336,-1.1925323009490967,21.022981643676758,0.8141990303993225,2.3330721855163574,-0.28964561223983765,0.0,0.0,0.0,0.0,0.0,0.0,0.0,-0.5563503935221037,-0.45805580036826893,-0.36831975243557874,0.5650767928344249,0.23928958960768498,0.10979124955418172,-0.3087091700754377,0.06248021931397287,0.6883789352911551,-0.07861667504910781,-1.6210588915725752,0.02813478025794029,2.2878648542298206,0.8466282246704712,0.06226373270833701,0.6884179775783729,-0.07863937525950354,-1.6210372792796082,0.028167345702647853,2.2878312372101677,0.8466366937888992,0.0008200573510068547,9.931517732645339e-05,-0.0010736021885173934,-0.001284390450820115,0.00011100255599381821,-0.0003630407177547456,-0.0014428281539982312,0.0,0.0,0.0,0.0,0.0,0.0,0.0,-0.00021648660563586275,3.9042287217738725e-05,-2.2700210395729115e-05,2.16122929670437e-05,3.25654447075642e-05,-3.361701965287622e-05,8.469118428000577e-06,-0.0008200573510068547,-9.931517732645339e-05,0.0010736021885173934,0.001284390450820115,-0.00011100255599381821,0.0003630407177547456,0.0014428281539982312,0.5815059542655945,47.24624252319336,1.1925323009490967,-21.022981643676758,-0.8141990303993225,-2.3330721855163574,0.28964561223983765,0
73,0.3600335121154785,-0.5815059542655945,-47.24624252319336,-1.1925323009490967,21.022981643676758,0.8141990303993225,2.3330721855163574,-0.28964561223983765,0.0,0.0,0.0,0.0,0.0,0.0,0.0,-0.5563503935221037,-0.45805580036826893,-0.36831975243557874,0.5650767928344249,0.23928958960768498,0.10979124955418172,-0.3087091700754377,0.06248021931397287,0.6883789352911551,-0.07861667504910781,-1.6210588915725752,0.02813478025794029,2.2878648542298206,0.8466282246704712,0.06226373270833701,0.6884179775783729,-0.07863937525950354,-1.6210372792796082,0.028167345702647853,2.2878312372101677,0.8466366937888992,0.0008200573510068547,9.931517732645339e-05,-0.0010736021885173934,-0.001284390450820115,0.00011100255599381821,-0.0003630407177547456,-0.0014428281539982312,0.0,0.0,0.0,0.0,0.0,0.0,0.0,-0.00021648660563586275,3.9042287217738725e-05,-2.2700210395729115e-05,2.16122929670437e-05,3.25654447075642e-05,-3.361701965287622e-05,8.469118428000577e-06,-0.0008200573510068547,-9.931517732645339e-05,0.0010736021885173934,0.001284390450820115,-0.00011100255599381821,0.0003630407177547456,0.0014428281539982312,0.5815059542655945,47.24624252319336,1.1925323009490967,-21.022981643676758,-0.8141990303993225,-2.3330721855163574,0.28964561223983765,0
74,0.3650171756744385,-0.5815059542655945,-47.24624252319336,-1.1925323009490967,21.022981643676758,0.8141990303993225,2.3330721855163574,-0.28964561223983765,0.0,0.0,0.0,0.0,0.0,0.0,0.0,-0.5563503935221037,-0.45805580036826893,-0.36831975243557874,0.5650767928344249,0.23928958960768498,0.10979124955418172,-0.3087091700754377,0.06248021931397287,0.6883789352911551,-0.07861667504910781,-1.6210588915725752,0.02813478025794029,2.2878648542298206,0.8466282246704712,0.06226373270833701,0.6884179775783729,-0.07863937525950354,-1.6210372792796082,0.028167345702647853,2.2878312372101677,0.8466366937888992,0.0008200573510068547,9.931517732645339e-05,-0.0010736021885173934,-0.001284390450820115,0.00011100255599381821,-0.0003630407177547456,-0.0014428281539982312,0.0,0.0,0.0,0.0,0.0,0.0,0.0,-0.00021648660563586275,3.9042287217738725e-05,-2.2700210395729115e-05,2.16122929670437e-05,3.25654447075642e-05,-3.361701965287622e-05,8.469118428000577e-06,-0.0008200573510068547,-9.931517732645339e-05,0.0010736021885173934,0.001284390450820115,-0.00011100255599381821,0.0003630407177547456,0.0014428281539982312,0.5815059542655945,47.24624252319336,1.1925323009490967,-21.022981643676758,-0.8141990303993225,-2.3330721855163574,0.28964561223983765,0
75,0.3700122833251953,-0.5299312472343445,-47.24624252319336,-1.2163360118865967,20.975374221801758,0.8141990303993225,2.3394808769226074,-0.28232139348983765,0.0,0.0,0.0,0.0,0.0,0.0,0.0,-0.5500060787285515,-0.4773569609165705,-0.3638367744316853,0.5734500600925857,0.24021424757196627,0.11052157061760286,-0.3098544124869647,0.062476600036286474,0.6883786026463126,-0.07861671070327234,-1.6210578369401836,0.02813478025794029,2.287864141614646,0.8466305902553265,0.06226373270833701,0.6884179775783729,-0.07863937525950354,-1.6210372792796082,0.028167345702647853,2.2878312372101677,0.8466366937888992,-0.0003048444203544418,-0.0005292135726840221,-0.00024414581350616,-1.3843033292791815e-05,0.00011524574132119024,-0.00016773437232074707,-0.0009654404460335371,0.0,0.0,0.0,0.0,0.0,0.0,0.0,-0.00021286732794946472,3.937493206029874e-05,-2.2664556231205557e-05,2.0557660575404313e-05,3.25654447075642e-05,-3.2904404478451e-05,6.103533572665576e-06,0.0003048444203544418,0.0005292135726840221,0.00024414581350616,1.3843033292791815e-05,-0.00011524574132119024,0.00016773437232074707,0.0009654404460335371,0.5299312472343445,47.24624252319336,1.2163360118865967,-20.975374221801758,-0.8141990303993225,-2.3394808769226074,0.28232139348983765,0
76,0.3750166893005371,-0.5299312472343445,-47.24624252319336,-1.2163360118865967,20.975374221801758,0.8141990303993225,2.3394808769226074,-0.28232139348983765,0.0,0.0,0.0,0.0,0.0,0.0,0.0,-0.5500060787285515,-0.4773569609165705,-0.3638367744316853,0.5734500600925857,0.24021424757196627,0.11052157061760286,-0.3098544124869647,0.062476600036286474,0.6883786026463126,-0.07861671070327234,-1.6210578369401836,0.02813478025794029,2.287864141614646,0.8466305902553265,0.06226373270833701,0.6884179775783729,-0.07863937525950354,-1.6210372792796082,0.028167345702647853,2.2878312372101677,0.8466366937888992,-0.0003048444203544418,-0.0005292135726840221,-0.00024414581350616,-1.3843033292791815e-05,0.00011524574132119024,-0.00016773437232074707,-0.0009654404460335371,0.0,0.0,0.0,0.0,0.0,0.0,0.0,-0.00021286732794946472,3.937493206029874e-05,-2.2664556231205557e-05,2.0557660575404313e-05,3.25654447075642e-05,-3.2904404478451e-05,6.103533572665576e-06,0.0003048444203544418,0.0005292135726840221,0.00024414581350616,1.3843033292791815e-05,-0.00011524574132119024,0.00016773437232074707,0.0009654404460335371,0.5299312472343445,47.24624252319336,1.2163360118865967,-20.975374221801758,-0.8141990303993225,-2.3394808769226074,0.28232139348983765,0
77,0.3800079822540283,-0.5537349581718445,-47.24624252319336,-1.2401397228240967,20.947603225708008,0.8325095772743225,2.3394808769226074,-0.33725303411483765,0.0,0.0,0.0,0.0,0.0,0.0,0.0,-0.554236031997902,-0.4616173234636215,-0.36540638792316976,0.5631342900209636,0.23995244696996734,0.10986548879420656,-0.30919753158959445,0.06247827047214173,0.6883793443912694,-0.07861507557104004,-1.621054292467158,0.028132745752731954,2.2878641290710364,0.8466335148745109,0.06226373270833701,0.6884179775783729,-0.07863937525950354,-1.6210372792796082,0.028167345702647853,2.2878312372101677,0.8466366937888992,0.0001522831381966306,-0.0005160309898080989,0.0003170723489144378,0.0006257242988237515,0.006623938801963358,-0.0003294446342561931,0.00148518390654515,0.0,0.0,0.0,0.0,0.0,0.0,0.0,-0.00021453776380472162,3.863318710350949e-05,-2.4299688463499947e-05,1.7013187549874687e-05,3.459994991589915e-05,-3.2891860868744516e-05,3.1789143882798854e-06,-0.0001522831381966306,0.0005160309898080989,-0.0003170723489144378,-0.0006257242988237515,-0.006623938801963358,0.0003294446342561931,-0.00148518390654515,0.5537349581718445,47.24624252319336,1.2401397228240967,-20.947603225708008,-0.8325095772743225,-2.3394808769226074,0.33725303411483765,0
78,0.3850231170654297,-0.5537349581718445,-47.24624252319336,-1.2401397228240967,20.947603225708008,0.8325095772743225,2.3394808769226074,-0.33725303411483765,0.0,0.0,0.0,0.0,0.0,0.0,0.0,-0.554236031997902,-0.4616173234636215,-0.36540638792316976,0.5631342900209636,0.23995244696996734,0.10986548879420656,-0.30919753158959445,0.06247827047214173,0.6883793443912694,-0.07861507557104004,-1.621054292467158,0.028132745752731954,2.2878641290710364,0.8466335148745109,0.06226373270833701,0.6884179775783729,-0.07863937525950354,-1.6210372792796082,0.028167345702647853,2.2878312372101677,0.8466366937888992,0.0001522831381966306,-0.0005160309898080989,0.0003170723489144378,0.0006257242988237515,0.006623938801963358,-0.0003294446342561931,0.00148518390654515,0.0,0.0,0.0,0.0,0.0,0.0,0.0,-0.00021453776380472162,3.863318710350949e-05,-2.4299688463499947e-05,1.7013187549874687e-05,3.459994991589915e-05,-3.2891860868744516e-05,3.1789143882798854e-06,-0.0001522831381966306,0.0005160309898080989,-0.0003170723489144378,-0.0006257242988237515,-0.006623938801963358,0.0003294446342561931,-0.00148518390654515,0.5537349581718445,47.24624252319336,1.2401397228240967,-20.947603225708008,-0.8325095772743225,-2.3394808769226074,0.33725303411483765,0
79,0.3900187015533447,-0.5815059542655945,-47.27004623413086,-1.2401397228240967,20.975374221801758,0.8141990303993225,2.3266634941101074,-0.33084434270858765,0.0,0.0,0.0,0.0,0.0,0.0,0.0,-0.550511907223016,-0.4679051616008839,-0.36402472999726987,0.5645780157143736,0.24011982500540582,0.11104219740457973,-0.3089522801100656,0.06248021931397287,0.6883831301828408,-0.07861266336761927,-1.621056194177933,0.02813478025794029,2.2878655663065697,0.8466359816941313,0.06226373270833701,0.6884179775783729,-0.07863937525950354,-1.6210372792796082,0.028167345702647853,2.2878312372101677,0.8466366937888992,0.0009674000937488229,0.00011882626655503984,0.00036477448247997085,6.4544925962955396e-06,0.00035737776748898987,5.0091367663764544e-05,0.0009936729047399565,0.0,0.0,0.0,0.0,0.0,0.0,0.0,-0.00021648660563586275,3.484739553205607e-05,-2.6711891884273475e-05,1.8914898324728924e-05,3.25654447075642e-05,-3.4329096401997106e-05,7.120947678185274e-07,-0.0009674000937488229,-0.00011882626655503984,-0.00036477448247997085,-6.4544925962955396e-06,-0.00035737776748898987,-5.0091367663764544e-05,-0.0009936729047399565,0.5815059542655945,47.27004623413086,1.2401397228240967,-20.975374221801758,-0.8141990303993225,-2.3266634941101074,0.33084434270858765,0
