rezayati/contactInterpretation/dataset/franka_main/labeled_data/link4/d5_3.csv
index,time,tau_J0,tau_J1,tau_J2,tau_J3,tau_J4,tau_J5,tau_J6,tau_J_d0,tau_J_d1,tau_J_d2,tau_J_d3,tau_J_d4,tau_J_d5,tau_J_d6,tau_ext0,tau_ext1,tau_ext2,tau_ext3,tau_ext4,tau_ext5,tau_ext6,q0,q1,q2,q3,q4,q5,q6,q_d0,q_d1,q_d2,q_d3,q_d4,q_d5,q_d6,dq0,dq1,dq2,dq3,dq4,dq5,dq6,dq_d0,dq_d1,dq_d2,dq_d3,dq_d4,dq_d5,dq_d6,e0,e1,e2,e3,e4,e5,e6,de0,de1,de2,de3,de4,de5,de6,etau_J0,etau_J1,etau_J2,etau_J3,etau_J4,etau_J5,etau_J6,label
1,0.0,-0.6053096652030945,-34.23751449584961,-3.9220244884490967,19.511445999145508,0.2548118233680725,1.783755898475647,-0.06991903483867645,0.0,0.0,0.0,0.0,0.0,0.0,0.0,-0.5844808978156047,-0.18545127518795182,-0.34275393065817433,0.4935503298434388,0.18555934885246275,-0.11577935079730106,-0.043939166611190836,1.0546064770430803,0.3240337065479212,-0.3923758619665093,-2.1534933907692895,0.8647485967590429,2.4659411479459155,0.5444846951622356,1.0544104758940245,0.3238615046091247,-0.39250456234122666,-2.153291787532338,0.8647539153680389,2.46587817577521,0.5445020185570556,0.0008152446387232598,-0.0006937703670860081,0.0009453950605356463,0.00031616753797454876,-0.0004875711328229715,0.0002275749127365215,0.001341819901132446,0.0,0.0,0.0,0.0,0.0,0.0,0.0,-0.00019600114905582444,-0.00017220193879646795,-0.00012870037471734985,0.00020160323695161964,5.3186089959966765e-06,-6.297217070549976e-05,1.732339481996803e-05,-0.0008152446387232598,0.0006937703670860081,-0.0009453950605356463,-0.00031616753797454876,0.0004875711328229715,-0.0002275749127365215,-0.001341819901132446,0.6053096652030945,34.23751449584961,3.9220244884490967,-19.511445999145508,-0.2548118233680725,-1.783755898475647,0.06991903483867645,0
2,0.0053975582122802734,-0.6053096652030945,-34.23751449584961,-3.9220244884490967,19.511445999145508,0.2548118233680725,1.783755898475647,-0.06991903483867645,0.0,0.0,0.0,0.0,0.0,0.0,0.0,-0.5844808978156047,-0.18545127518795182,-0.34275393065817433,0.4935503298434388,0.18555934885246275,-0.11577935079730106,-0.043939166611190836,1.0546064770430803,0.3240337065479212,-0.3923758619665093,-2.1534933907692895,0.8647485967590429,2.4659411479459155,0.5444846951622356,1.0544104758940245,0.3238615046091247,-0.39250456234122666,-2.153291787532338,0.8647539153680389,2.46587817577521,0.5445020185570556,0.0008152446387232598,-0.0006937703670860081,0.0009453950605356463,0.00031616753797454876,-0.0004875711328229715,0.0002275749127365215,0.001341819901132446,0.0,0.0,0.0,0.0,0.0,0.0,0.0,-0.00019600114905582444,-0.00017220193879646795,-0.00012870037471734985,0.00020160323695161964,5.3186089959966765e-06,-6.297217070549976e-05,1.732339481996803e-05,-0.0008152446387232598,0.0006937703670860081,-0.0009453950605356463,-0.00031616753797454876,0.0004875711328229715,-0.0002275749127365215,-0.001341819901132446,0.6053096652030945,34.23751449584961,3.9220244884490967,-19.511445999145508,-0.2548118233680725,-1.783755898475647,0.06991903483867645,0
3,0.009999990463256836,-0.5815059542655945,-34.26528549194336,-3.9220244884490967,19.535249710083008,0.2429099678993225,1.790164589881897,-0.06991903483867645,0.0,0.0,0.0,0.0,0.0,0.0,0.0,-0.5912437904412186,-0.19466249158796245,-0.34886071831115373,0.49642191929159096,0.18631332749759633,-0.11517593122476893,-0.04421278825269885,1.0546048066114122,0.324035664377538,-0.392375939731003,-2.1534950612051444,0.8647499188165627,2.465942673965165,0.5444846951084007,1.0544104758940245,0.3238615046091247,-0.39250456234122666,-2.153291787532338,0.8647539153680389,2.46587817577521,0.5445020185570556,-0.0002165567254950766,-0.0001800365379233217,0.0003201754077536298,-0.0003948516122853022,-0.0003396154347129467,7.098992289909078e-05,0.0005631927003789196,0.0,0.0,0.0,0.0,0.0,0.0,0.0,-0.00019433071738772512,-0.0001741597684132845,-0.00012862261022367205,0.00020327367280659203,3.9965514762041465e-06,-6.449818995513112e-05,1.732344865490454e-05,0.0002165567254950766,0.0001800365379233217,-0.0003201754077536298,0.0003948516122853022,0.0003396154347129467,-7.098992289909078e-05,-0.0005631927003789196,0.5815059542655945,34.26528549194336,3.9220244884490967,-19.535249710083008,-0.2429099678993225,-1.790164589881897,0.06991903483867645,0
4,0.014998197555541992,-0.5815059542655945,-34.26528549194336,-3.9220244884490967,19.535249710083008,0.2429099678993225,1.790164589881897,-0.06991903483867645,0.0,0.0,0.0,0.0,0.0,0.0,0.0,-0.5912437904412186,-0.19466249158796245,-0.34886071831115373,0.49642191929159096,0.18631332749759633,-0.11517593122476893,-0.04421278825269885,1.0546048066114122,0.324035664377538,-0.392375939731003,-2.1534950612051444,0.8647499188165627,2.465942673965165,0.5444846951084007,1.0544104758940245,0.3238615046091247,-0.39250456234122666,-2.153291787532338,0.8647539153680389,2.46587817577521,0.5445020185570556,-0.0002165567254950766,-0.0001800365379233217,0.0003201754077536298,-0.0003948516122853022,-0.0003396154347129467,7.098992289909078e-05,0.0005631927003789196,0.0,0.0,0.0,0.0,0.0,0.0,0.0,-0.00019433071738772512,-0.0001741597684132845,-0.00012862261022367205,0.00020327367280659203,3.9965514762041465e-06,-6.449818995513112e-05,1.732344865490454e-05,0.0002165567254950766,0.0001800365379233217,-0.0003201754077536298,0.0003948516122853022,0.0003396154347129467,-7.098992289909078e-05,-0.0005631927003789196,0.5815059542655945,34.26528549194336,3.9220244884490967,-19.535249710083008,-0.2429099678993225,-1.790164589881897,0.06991903483867645,0
5,0.019948720932006836,-0.6291133761405945,-34.23751449584961,-3.9497954845428467,19.511445999145508,0.2429099678993225,1.796573281288147,-0.01590292528271675,0.0,0.0,0.0,0.0,0.0,0.0,0.0,-0.5987058731152979,-0.1831912117998815,-0.353427233215633,0.48745289510125217,0.18607910149813145,-0.11582603750042196,-0.045731167470341685,1.054608147370069,0.32403370654797187,-0.3923739908896108,-2.1534933907692895,0.8647467404405246,2.4659418010952514,0.5444786933184498,1.0544104758940245,0.3238615046091247,-0.39250456234122666,-2.153291787532338,0.8647539153680389,2.46587817577521,0.5445020185570556,0.0002828095846888937,-0.00045528183302819393,0.0002660252462228839,-3.325934060145577e-05,-0.0003013980504193459,-0.00018746981420495498,-0.0012179550094580216,0.0,0.0,0.0,0.0,0.0,0.0,0.0,-0.0001976714760445475,-0.00017220193884714963,-0.00013057145161587957,0.00020160323695161964,7.174927514341789e-06,-6.362532004144938e-05,2.3325238605820253e-05,-0.0002828095846888937,0.00045528183302819393,-0.0002660252462228839,3.325934060145577e-05,0.0003013980504193459,0.00018746981420495498,0.0012179550094580216,0.6291133761405945,34.23751449584961,3.9497954845428467,-19.511445999145508,-0.2429099678993225,-1.796573281288147,0.01590292528271675,0
6,0.024998903274536133,-0.6291133761405945,-34.23751449584961,-3.9497954845428467,19.511445999145508,0.2429099678993225,1.796573281288147,-0.01590292528271675,0.0,0.0,0.0,0.0,0.0,0.0,0.0,-0.5987058731152979,-0.1831912117998815,-0.353427233215633,0.48745289510125217,0.18607910149813145,-0.11582603750042196,-0.045731167470341685,1.054608147370069,0.32403370654797187,-0.3923739908896108,-2.1534933907692895,0.8647467404405246,2.4659418010952514,0.5444786933184498,1.0544104758940245,0.3238615046091247,-0.39250456234122666,-2.153291787532338,0.8647539153680389,2.46587817577521,0.5445020185570556,0.0002828095846888937,-0.00045528183302819393,0.0002660252462228839,-3.325934060145577e-05,-0.0003013980504193459,-0.00018746981420495498,-0.0012179550094580216,0.0,0.0,0.0,0.0,0.0,0.0,0.0,-0.0001976714760445475,-0.00017220193884714963,-0.00013057145161587957,0.00020160323695161964,7.174927514341789e-06,-6.362532004144938e-05,2.3325238605820253e-05,-0.0002828095846888937,0.00045528183302819393,-0.0002660252462228839,3.325934060145577e-05,0.0003013980504193459,0.00018746981420495498,0.0012179550094580216,0.6291133761405945,34.23751449584961,3.9497954845428467,-19.511445999145508,-0.2429099678993225,-1.796573281288147,0.01590292528271675,0
7,0.030016183853149414,-0.6291133761405945,-34.26528549194336,-3.8744170665740967,19.535249710083008,0.2310081124305725,1.796573281288147,-0.008578706532716751,0.0,0.0,0.0,0.0,0.0,0.0,0.0,-0.5815846334038858,-0.1903447633875214,-0.341302856751481,0.4959269586355824,0.1850324074505651,-0.11549250852430841,-0.04594584697700722,1.0546081474831224,0.32403573339089237,-0.3923785729422152,-2.1534950612051444,0.8647512416038503,2.4659429041236396,0.5444778795163665,1.0544104758940245,0.3238615046091247,-0.39250456234122666,-2.153291787532338,0.8647539153680389,2.46587817577521,0.5445020185570556,0.0010356852449027358,0.00032992943341431666,-0.0011647877806007306,-0.00017036355036509487,0.00035543749915343105,-5.7132644956190316e-05,-0.0011776680703831802,0.0,0.0,0.0,0.0,0.0,0.0,0.0,-0.00019767158909789195,-0.0001742287817676491,-0.00012598939901148354,0.00020327367280659203,2.673764188609873e-06,-6.472834842963238e-05,2.4139040689097335e-05,-0.0010356852449027358,-0.00032992943341431666,0.0011647877806007306,0.00017036355036509487,-0.00035543749915343105,5.7132644956190316e-05,0.0011776680703831802,0.6291133761405945,34.26528549194336,3.8744170665740967,-19.535249710083008,-0.2310081124305725,-1.796573281288147,0.008578706532716751,0
8,0.03500199317932129,-0.6291133761405945,-34.26528549194336,-3.8744170665740967,19.535249710083008,0.2310081124305725,1.796573281288147,-0.008578706532716751,0.0,0.0,0.0,0.0,0.0,0.0,0.0,-0.5815846334038858,-0.1903447633875214,-0.341302856751481,0.4959269586355824,0.1850324074505651,-0.11549250852430841,-0.04594584697700722,1.0546081474831224,0.32403573339089237,-0.3923785729422152,-2.1534950612051444,0.8647512416038503,2.4659429041236396,0.5444778795163665,1.0544104758940245,0.3238615046091247,-0.39250456234122666,-2.153291787532338,0.8647539153680389,2.46587817577521,0.5445020185570556,0.0010356852449027358,0.00032992943341431666,-0.0011647877806007306,-0.00017036355036509487,0.00035543749915343105,-5.7132644956190316e-05,-0.0011776680703831802,0.0,0.0,0.0,0.0,0.0,0.0,0.0,-0.00019767158909789195,-0.0001742287817676491,-0.00012598939901148354,0.00020327367280659203,2.673764188609873e-06,-6.472834842963238e-05,2.4139040689097335e-05,-0.0010356852449027358,-0.00032992943341431666,0.0011647877806007306,0.00017036355036509487,-0.00035543749915343105,5.7132644956190316e-05,0.0011776680703831802,0.6291133761405945,34.26528549194336,3.8744170665740967,-19.535249710083008,-0.2310081124305725,-1.796573281288147,0.008578706532716751,0
9,0.04040980339050293,-0.6053096652030945,-34.31289291381836,-3.8982207775115967,19.459871292114258,0.2429099678993225,1.790164589881897,-0.008578706532716751,0.0,0.0,0.0,0.0,0.0,0.0,0.0,-0.5931760474654793,-0.1975388852266457,-0.3518881395776778,0.49498871058770627,0.1856771125467357,-0.11342206812415144,-0.044640190403149926,1.0546064770472674,0.32403899626190313,-0.39237761109936187,-2.153489771491603,0.8647499062729624,2.4659432370454155,0.5444778795163665,1.0544104758940245,0.3238615046091247,-0.39250456234122666,-2.153291787532338,0.8647539153680389,2.46587817577521,0.5445020185570556,0.00030256267345920554,0.0005855205730549288,-0.00015469414203428,0.001124888853926866,-4.384458697357997e-05,0.00016336714242446798,-0.0015891526143741973,0.0,0.0,0.0,0.0,0.0,0.0,0.0,-0.00019600115324291956,-0.0001774916527784165,-0.00012695124186479223,0.00019798395926517998,4.009095076473734e-06,-6.506127020555752e-05,2.4139040689097335e-05,-0.00030256267345920554,-0.0005855205730549288,0.00015469414203428,-0.001124888853926866,4.384458697357997e-05,-0.00016336714242446798,0.0015891526143741973,0.6053096652030945,34.31289291381836,3.8982207775115967,-19.459871292114258,-0.2429099678993225,-1.790164589881897,0.008578706532716751,0
10,0.04500102996826172,-0.6053096652030945,-34.31289291381836,-3.8982207775115967,19.459871292114258,0.2429099678993225,1.790164589881897,-0.008578706532716751,0.0,0.0,0.0,0.0,0.0,0.0,0.0,-0.5931760474654793,-0.1975388852266457,-0.3518881395776778,0.49498871058770627,0.1856771125467357,-0.11342206812415144,-0.044640190403149926,1.0546064770472674,0.32403899626190313,-0.39237761109936187,-2.153489771491603,0.8647499062729624,2.4659432370454155,0.5444778795163665,1.0544104758940245,0.3238615046091247,-0.39250456234122666,-2.153291787532338,0.8647539153680389,2.46587817577521,0.5445020185570556,0.00030256267345920554,0.0005855205730549288,-0.00015469414203428,0.001124888853926866,-4.384458697357997e-05,0.00016336714242446798,-0.0015891526143741973,0.0,0.0,0.0,0.0,0.0,0.0,0.0,-0.00019600115324291956,-0.0001774916527784165,-0.00012695124186479223,0.00019798395926517998,4.009095076473734e-06,-6.506127020555752e-05,2.4139040689097335e-05,-0.00030256267345920554,-0.0005855205730549288,0.00015469414203428,-0.001124888853926866,4.384458697357997e-05,-0.00016336714242446798,0.0015891526143741973,0.6053096652030945,34.31289291381836,3.8982207775115967,-19.459871292114258,-0.2429099678993225,-1.790164589881897,0.008578706532716751,0
11,0.049997568130493164,-0.6053096652030945,-34.31289291381836,-3.8982207775115967,19.459871292114258,0.2429099678993225,1.790164589881897,-0.008578706532716751,0.0,0.0,0.0,0.0,0.0,0.0,0.0,-0.5931760474654793,-0.1975388852266457,-0.3518881395776778,0.49498871058770627,0.1856771125467357,-0.11342206812415144,-0.044640190403149926,1.0546064770472674,0.32403899626190313,-0.39237761109936187,-2.153489771491603,0.8647499062729624,2.4659432370454155,0.5444778795163665,1.0544104758940245,0.3238615046091247,-0.39250456234122666,-2.153291787532338,0.8647539153680389,2.46587817577521,0.5445020185570556,0.00030256267345920554,0.0005855205730549288,-0.00015469414203428,0.001124888853926866,-4.384458697357997e-05,0.00016336714242446798,-0.0015891526143741973,0.0,0.0,0.0,0.0,0.0,0.0,0.0,-0.00019600115324291956,-0.0001774916527784165,-0.00012695124186479223,0.00019798395926517998,4.009095076473734e-06,-6.506127020555752e-05,2.4139040689097335e-05,-0.00030256267345920554,-0.0005855205730549288,0.00015469414203428,-0.001124888853926866,4.384458697357997e-05,-0.00016336714242446798,0.0015891526143741973,0.6053096652030945,34.31289291381836,3.8982207775115967,-19.459871292114258,-0.2429099678993225,-1.790164589881897,0.008578706532716751,0
12,0.05499768257141113,-0.6053096652030945,-34.31289291381836,-3.8982207775115967,19.459871292114258,0.2429099678993225,1.790164589881897,-0.008578706532716751,0.0,0.0,0.0,0.0,0.0,0.0,0.0,-0.5931760474654793,-0.1975388852266457,-0.3518881395776778,0.49498871058770627,0.1856771125467357,-0.11342206812415144,-0.044640190403149926,1.0546064770472674,0.32403899626190313,-0.39237761109936187,-2.153489771491603,0.8647499062729624,2.4659432370454155,0.5444778795163665,1.0544104758940245,0.3238615046091247,-0.39250456234122666,-2.153291787532338,0.8647539153680389,2.46587817577521,0.5445020185570556,0.00030256267345920554,0.0005855205730549288,-0.00015469414203428,0.001124888853926866,-4.384458697357997e-05,0.00016336714242446798,-0.0015891526143741973,0.0,0.0,0.0,0.0,0.0,0.0,0.0,-0.00019600115324291956,-0.0001774916527784165,-0.00012695124186479223,0.00019798395926517998,4.009095076473734e-06,-6.506127020555752e-05,2.4139040689097335e-05,-0.00030256267345920554,-0.0005855205730549288,0.00015469414203428,-0.001124888853926866,4.384458697357997e-05,-0.00016336714242446798,0.0015891526143741973,0.6053096652030945,34.31289291381836,3.8982207775115967,-19.459871292114258,-0.2429099678993225,-1.790164589881897,0.008578706532716751,0
13,0.05999875068664551,-0.6053096652030945,-34.26528549194336,-3.8982207775115967,19.511445999145508,0.2429099678993225,1.790164589881897,-0.002170015126466751,0.0,0.0,0.0,0.0,0.0,0.0,0.0,-0.5968047134394516,-0.18301154495964903,-0.3521457015812735,0.48437106893480186,0.18614603800038676,-0.11404086763851545,-0.04445043768736227,1.0546064770472674,0.3240356553897523,-0.39237760228280194,-2.1534933907692895,0.8647498801090344,2.465942172561898,0.5444771674395436,1.0544104758940245,0.3238615046091247,-0.39250456234122666,-2.153291787532338,0.8647539153680389,2.46587817577521,0.5445020185570556,0.0003127594826370822,0.000229658498580045,-0.00024202577978747508,-7.145809767901938e-05,-5.8055187550342755e-05,2.4598813403098458e-05,-0.0012716526780211263,0.0,0.0,0.0,0.0,0.0,0.0,0.0,-0.00019600115324291956,-0.00017415078062760214,-0.0001269600584247188,0.00020160323695161964,4.03525900449786e-06,-6.399678668822517e-05,2.485111751204805e-05,-0.0003127594826370822,-0.000229658498580045,0.00024202577978747508,7.145809767901938e-05,5.8055187550342755e-05,-2.4598813403098458e-05,0.0012716526780211263,0.6053096652030945,34.26528549194336,3.8982207775115967,-19.511445999145508,-0.2429099678993225,-1.790164589881897,0.002170015126466751,0
14,0.06521964073181152,-0.6053096652030945,-34.26528549194336,-3.8982207775115967,19.511445999145508,0.2429099678993225,1.790164589881897,-0.002170015126466751,0.0,0.0,0.0,0.0,0.0,0.0,0.0,-0.5968047134394516,-0.18301154495964903,-0.3521457015812735,0.48437106893480186,0.18614603800038676,-0.11404086763851545,-0.04445043768736227,1.0546064770472674,0.3240356553897523,-0.39237760228280194,-2.1534933907692895,0.8647498801090344,2.465942172561898,0.5444771674395436,1.0544104758940245,0.3238615046091247,-0.39250456234122666,-2.153291787532338,0.8647539153680389,2.46587817577521,0.5445020185570556,0.0003127594826370822,0.000229658498580045,-0.00024202577978747508,-7.145809767901938e-05,-5.8055187550342755e-05,2.4598813403098458e-05,-0.0012716526780211263,0.0,0.0,0.0,0.0,0.0,0.0,0.0,-0.00019600115324291956,-0.00017415078062760214,-0.0001269600584247188,0.00020160323695161964,4.03525900449786e-06,-6.399678668822517e-05,2.485111751204805e-05,-0.0003127594826370822,-0.000229658498580045,0.00024202577978747508,7.145809767901938e-05,5.8055187550342755e-05,-2.4598813403098458e-05,0.0012716526780211263,0.6053096652030945,34.26528549194336,3.8982207775115967,-19.511445999145508,-0.2429099678993225,-1.790164589881897,0.002170015126466751,0
15,0.06521964073181152,-0.6053096652030945,-34.26528549194336,-3.8982207775115967,19.511445999145508,0.2429099678993225,1.790164589881897,-0.002170015126466751,0.0,0.0,0.0,0.0,0.0,0.0,0.0,-0.5968047134394516,-0.18301154495964903,-0.3521457015812735,0.48437106893480186,0.18614603800038676,-0.11404086763851545,-0.04445043768736227,1.0546064770472674,0.3240356553897523,-0.39237760228280194,-2.1534933907692895,0.8647498801090344,2.465942172561898,0.5444771674395436,1.0544104758940245,0.3238615046091247,-0.39250456234122666,-2.153291787532338,0.8647539153680389,2.46587817577521,0.5445020185570556,0.0003127594826370822,0.000229658498580045,-0.00024202577978747508,-7.145809767901938e-05,-5.8055187550342755e-05,2.4598813403098458e-05,-0.0012716526780211263,0.0,0.0,0.0,0.0,0.0,0.0,0.0,-0.00019600115324291956,-0.00017415078062760214,-0.0001269600584247188,0.00020160323695161964,4.03525900449786e-06,-6.399678668822517e-05,2.485111751204805e-05,-0.0003127594826370822,-0.000229658498580045,0.00024202577978747508,7.145809767901938e-05,5.8055187550342755e-05,-2.4598813403098458e-05,0.0012716526780211263,0.6053096652030945,34.26528549194336,3.8982207775115967,-19.511445999145508,-0.2429099678993225,-1.790164589881897,0.002170015126466751,0
16,0.07507443428039551,-0.6053096652030945,-34.21371078491211,-3.9220244884490967,19.511445999145508,0.2429099678993225,1.796573281288147,-0.02231161668896675,0.0,0.0,0.0,0.0,0.0,0.0,0.0,-0.599625244424563,-0.18892384533462517,-0.35478071173675724,0.4870430531600716,0.18628380467988134,-0.11397856820358251,-0.04173252694127951,1.0546064770472674,0.324032039000997,-0.3923759406674569,-2.1534933907692895,0.8647498801088375,2.465941838884727,0.5444794053952727,1.0544104758940245,0.3238615046091247,-0.39250456234122666,-2.153291787532338,0.8647539153680389,2.46587817577521,0.5445020185570556,0.0002971422531743258,-0.0012235448045286436,-0.00044649653853934734,-0.00012773991295383764,7.837941849148267e-06,-0.00028071235717308247,-0.0007925738870803173,0.0,0.0,0.0,0.0,0.0,0.0,0.0,-0.00019600115324291956,-0.00017053439187225683,-0.00012862167376975764,0.00020160323695161964,4.035259201451424e-06,-6.366310951699816e-05,2.261316178286954e-05,-0.0002971422531743258,0.0012235448045286436,0.00044649653853934734,0.00012773991295383764,-7.837941849148267e-06,0.00028071235717308247,0.0007925738870803173,0.6053096652030945,34.21371078491211,3.9220244884490967,-19.511445999145508,-0.2429099678993225,-1.796573281288147,0.02231161668896675,0
17,0.07995462417602539,-0.6053096652030945,-34.21371078491211,-3.9220244884490967,19.511445999145508,0.2429099678993225,1.796573281288147,-0.02231161668896675,0.0,0.0,0.0,0.0,0.0,0.0,0.0,-0.599625244424563,-0.18892384533462517,-0.35478071173675724,0.4870430531600716,0.18628380467988134,-0.11397856820358251,-0.04173252694127951,1.0546064770472674,0.324032039000997,-0.3923759406674569,-2.1534933907692895,0.8647498801088375,2.465941838884727,0.5444794053952727,1.0544104758940245,0.3238615046091247,-0.39250456234122666,-2.153291787532338,0.8647539153680389,2.46587817577521,0.5445020185570556,0.0002971422531743258,-0.0012235448045286436,-0.00044649653853934734,-0.00012773991295383764,7.837941849148267e-06,-0.00028071235717308247,-0.0007925738870803173,0.0,0.0,0.0,0.0,0.0,0.0,0.0,-0.00019600115324291956,-0.00017053439187225683,-0.00012862167376975764,0.00020160323695161964,4.035259201451424e-06,-6.366310951699816e-05,2.261316178286954e-05,-0.0002971422531743258,0.0012235448045286436,0.00044649653853934734,0.00012773991295383764,-7.837941849148267e-06,0.00028071235717308247,0.0007925738870803173,0.6053096652030945,34.21371078491211,3.9220244884490967,-19.511445999145508,-0.2429099678993225,-1.796573281288147,0.02231161668896675,0
18,0.08499836921691895,-0.6053096652030945,-34.26528549194336,-3.9497954845428467,19.487642288208008,0.2365012764930725,1.783755898475647,-0.04977743700146675,0.0,0.0,0.0,0.0,0.0,0.0,0.0,-0.6038795372061552,-0.19328966805292605,-0.3635370532123846,0.48998191310696293,0.18637426180730418,-0.11331410924202351,-0.04124137821675133,1.0546064770472674,0.3240356553897686,-0.39237399186167776,-2.153491720333434,0.8647502782188072,2.4659433865922797,0.5444824571530852,1.0544104758940245,0.3238615046091247,-0.39250456234122666,-2.153291787532338,0.8647539153680389,2.46587817577521,0.5445020185570556,-2.3910744442537213e-05,0.0004406014652597391,0.000161537133253114,0.0007503687912869686,0.00024784678253889417,0.00014929002631559258,0.0005411682796823618,0.0,0.0,0.0,0.0,0.0,0.0,0.0,-0.00019600115324291956,-0.0001741507806438669,-0.0001305704795488971,0.00019993280109620315,3.6371492316833454e-06,-6.521081706978293e-05,1.956140397041395e-05,2.3910744442537213e-05,-0.0004406014652597391,-0.000161537133253114,-0.0007503687912869686,-0.00024784678253889417,-0.00014929002631559258,-0.0005411682796823618,0.6053096652030945,34.26528549194336,3.9497954845428467,-19.487642288208008,-0.2365012764930725,-1.783755898475647,0.04977743700146675,0
19,0.09000301361083984,-0.6053096652030945,-34.26528549194336,-3.9497954845428467,19.487642288208008,0.2365012764930725,1.783755898475647,-0.04977743700146675,0.0,0.0,0.0,0.0,0.0,0.0,0.0,-0.6038795372061552,-0.19328966805292605,-0.3635370532123846,0.48998191310696293,0.18637426180730418,-0.11331410924202351,-0.04124137821675133,1.0546064770472674,0.3240356553897686,-0.39237399186167776,-2.153491720333434,0.8647502782188072,2.4659433865922797,0.5444824571530852,1.0544104758940245,0.3238615046091247,-0.39250456234122666,-2.153291787532338,0.8647539153680389,2.46587817577521,0.5445020185570556,-2.3910744442537213e-05,0.0004406014652597391,0.000161537133253114,0.0007503687912869686,0.00024784678253889417,0.00014929002631559258,0.0005411682796823618,0.0,0.0,0.0,0.0,0.0,0.0,0.0,-0.00019600115324291956,-0.0001741507806438669,-0.0001305704795488971,0.00019993280109620315,3.6371492316833454e-06,-6.521081706978293e-05,1.956140397041395e-05,2.3910744442537213e-05,-0.0004406014652597391,-0.000161537133253114,-0.0007503687912869686,-0.00024784678253889417,-0.00014929002631559258,-0.0005411682796823618,0.6053096652030945,34.26528549194336,3.9497954845428467,-19.487642288208008,-0.2365012764930725,-1.783755898475647,0.04977743700146675,0
20,0.09499716758728027,-0.6053096652030945,-34.26528549194336,-3.9497954845428467,19.559053421020508,0.2365012764930725,1.790164589881897,-0.09097616374492645,0.0,0.0,0.0,0.0,0.0,0.0,0.0,-0.5865759436885826,-0.19234556388181484,-0.3520825117136883,0.4923757470695819,0.1858322825006762,-0.11500054430177441,-0.041610659867428755,1.0546064770472674,0.3240356553897523,-0.392373991861678,-2.153496731641,0.8647506313759095,2.4659405662222755,0.54448703478939,1.0544104758940245,0.3238615046091247,-0.39250456234122666,-2.153291787532338,0.8647539153680389,2.46587817577521,0.5445020185570556,0.0002770215583165697,0.0004323312340888597,0.0007416573095778676,-0.0007240377876958539,3.502770296432637e-06,5.7575580458593745e-05,0.0012082714034744937,0.0,0.0,0.0,0.0,0.0,0.0,0.0,-0.00019600115324291956,-0.00017415078062760214,-0.00013057047954867507,0.00020494410866200852,3.283992129454738e-06,-6.23904470655745e-05,1.4983767665621706e-05,-0.0002770215583165697,-0.0004323312340888597,-0.0007416573095778676,0.0007240377876958539,-3.502770296432637e-06,-5.7575580458593745e-05,-0.0012082714034744937,0.6053096652030945,34.26528549194336,3.9497954845428467,-19.559053421020508,-0.2365012764930725,-1.790164589881897,0.09097616374492645,0
21,0.10000205039978027,-0.6053096652030945,-34.26528549194336,-3.9497954845428467,19.559053421020508,0.2365012764930725,1.790164589881897,-0.09097616374492645,0.0,0.0,0.0,0.0,0.0,0.0,0.0,-0.5865759436885826,-0.19234556388181484,-0.3520825117136883,0.4923757470695819,0.1858322825006762,-0.11500054430177441,-0.041610659867428755,1.0546064770472674,0.3240356553897523,-0.392373991861678,-2.153496731641,0.8647506313759095,2.4659405662222755,0.54448703478939,1.0544104758940245,0.3238615046091247,-0.39250456234122666,-2.153291787532338,0.8647539153680389,2.46587817577521,0.5445020185570556,0.0002770215583165697,0.0004323312340888597,0.0007416573095778676,-0.0007240377876958539,3.502770296432637e-06,5.7575580458593745e-05,0.0012082714034744937,0.0,0.0,0.0,0.0,0.0,0.0,0.0,-0.00019600115324291956,-0.00017415078062760214,-0.00013057047954867507,0.00020494410866200852,3.283992129454738e-06,-6.23904470655745e-05,1.4983767665621706e-05,-0.0002770215583165697,-0.0004323312340888597,-0.0007416573095778676,0.0007240377876958539,-3.502770296432637e-06,-5.7575580458593745e-05,-0.0012082714034744937,0.6053096652030945,34.26528549194336,3.9497954845428467,-19.559053421020508,-0.2365012764930725,-1.790164589881897,0.09097616374492645,0
22,0.10499691963195801,-0.5537349581718445,-34.23751449584961,-3.9220244884490967,19.487642288208008,0.2365012764930725,1.783755898475647,-0.05710165575146675,0.0,0.0,0.0,0.0,0.0,0.0,0.0,-0.582573372957356,-0.1868933788349424,-0.34837663010550707,0.4900213864386633,0.1858905744679803,-0.11586456733510189,-0.044284168142383576,1.0546028577695812,0.3240337065479212,-0.3923759407035092,-2.153491720333434,0.864750513048146,2.4659430052125595,0.5444832709551686,1.0544104758940245,0.3238615046091247,-0.39250456234122666,-2.153291787532338,0.8647539153680389,2.46587817577521,0.5445020185570556,-0.0004577238094450284,-0.0005558449410836492,0.0004936957102961701,0.0009113794930845951,0.00021478808072282726,0.00012721365491846713,0.0005988700078273033,0.0,0.0,0.0,0.0,0.0,0.0,0.0,-0.00019238187555670194,-0.00017220193879646795,-0.00012862163771748536,0.00019993280109620315,3.4023198929311604e-06,-6.482943734953395e-05,1.8747601887025844e-05,0.0004577238094450284,0.0005558449410836492,-0.0004936957102961701,-0.0009113794930845951,-0.00021478808072282726,-0.00012721365491846713,-0.0005988700078273033,0.5537349581718445,34.23751449584961,3.9220244884490967,-19.487642288208008,-0.2365012764930725,-1.783755898475647,0.05710165575146675,0
23,0.1099996566772461,-0.5537349581718445,-34.23751449584961,-3.9220244884490967,19.487642288208008,0.2365012764930725,1.783755898475647,-0.05710165575146675,0.0,0.0,0.0,0.0,0.0,0.0,0.0,-0.582573372957356,-0.1868933788349424,-0.34837663010550707,0.4900213864386633,0.1858905744679803,-0.11586456733510189,-0.044284168142383576,1.0546028577695812,0.3240337065479212,-0.3923759407035092,-2.153491720333434,0.864750513048146,2.4659430052125595,0.5444832709551686,1.0544104758940245,0.3238615046091247,-0.39250456234122666,-2.153291787532338,0.8647539153680389,2.46587817577521,0.5445020185570556,-0.0004577238094450284,-0.0005558449410836492,0.0004936957102961701,0.0009113794930845951,0.00021478808072282726,0.00012721365491846713,0.0005988700078273033,0.0,0.0,0.0,0.0,0.0,0.0,0.0,-0.00019238187555670194,-0.00017220193879646795,-0.00012862163771748536,0.00019993280109620315,3.4023198929311604e-06,-6.482943734953395e-05,1.8747601887025844e-05,0.0004577238094450284,0.0005558449410836492,-0.0004936957102961701,-0.0009113794930845951,-0.00021478808072282726,-0.00012721365491846713,-0.0005988700078273033,0.5537349581718445,34.23751449584961,3.9220244884490967,-19.487642288208008,-0.2365012764930725,-1.783755898475647,0.05710165575146675,0
24,0.11499667167663574,-0.5299312472343445,-34.28908920288086,-3.8982207775115967,19.535249710083008,0.2429099678993225,1.790164589881897,-0.06351034343242645,0.0,0.0,0.0,0.0,0.0,0.0,0.0,-0.5929628186818784,-0.19263636385596386,-0.35916313930624255,0.4928445894996898,0.18674855371288948,-0.11444084286484699,-0.04576201144782033,1.0546011873337258,0.3240373258612734,-0.3923776111393644,-2.1534950612051444,0.8647499193542474,2.4659433497150083,0.5444838652940075,1.0544104758940245,0.3238615046091247,-0.39250456234122666,-2.153291787532338,0.8647539153680389,2.46587817577521,0.5445020185570556,-0.001089031495680463,0.00032490066100521317,-0.0003363909836373494,-0.00022265899788774656,-0.00013506503434031517,-0.0001839095516943432,0.0009946525185125453,0.0,0.0,0.0,0.0,0.0,0.0,0.0,-0.00019071143970128546,-0.00017582125214865574,-0.0001269512018622354,0.00020327367280659203,3.996013791529585e-06,-6.51739397983242e-05,1.815326304810405e-05,0.001089031495680463,-0.00032490066100521317,0.0003363909836373494,0.00022265899788774656,0.00013506503434031517,0.0001839095516943432,-0.0009946525185125453,0.5299312472343445,34.28908920288086,3.8982207775115967,-19.535249710083008,-0.2429099678993225,-1.790164589881897,0.06351034343242645,0
25,0.11996245384216309,-0.5299312472343445,-34.28908920288086,-3.8982207775115967,19.535249710083008,0.2429099678993225,1.790164589881897,-0.06351034343242645,0.0,0.0,0.0,0.0,0.0,0.0,0.0,-0.5929628186818784,-0.19263636385596386,-0.35916313930624255,0.4928445894996898,0.18674855371288948,-0.11444084286484699,-0.04576201144782033,1.0546011873337258,0.3240373258612734,-0.3923776111393644,-2.1534950612051444,0.8647499193542474,2.4659433497150083,0.5444838652940075,1.0544104758940245,0.3238615046091247,-0.39250456234122666,-2.153291787532338,0.8647539153680389,2.46587817577521,0.5445020185570556,-0.001089031495680463,0.00032490066100521317,-0.0003363909836373494,-0.00022265899788774656,-0.00013506503434031517,-0.0001839095516943432,0.0009946525185125453,0.0,0.0,0.0,0.0,0.0,0.0,0.0,-0.00019071143970128546,-0.00017582125214865574,-0.0001269512018622354,0.00020327367280659203,3.996013791529585e-06,-6.51739397983242e-05,1.815326304810405e-05,0.001089031495680463,-0.00032490066100521317,0.0003363909836373494,0.00022265899788774656,0.00013506503434031517,0.0001839095516943432,-0.0009946525185125453,0.5299312472343445,34.28908920288086,3.8982207775115967,-19.535249710083008,-0.2429099678993225,-1.790164589881897,0.06351034343242645,0
26,0.12500500679016113,-0.5815059542655945,-34.26528549194336,-3.8744170665740967,19.511445999145508,0.2429099678993225,1.790164589881897,-0.04336874559521675,0.0,0.0,0.0,0.0,0.0,0.0,0.0,-0.5847153299492771,-0.19512136595168333,-0.35231539289038855,0.494559694524463,0.1866805707479279,-0.11478708635590983,-0.04441914358300458,1.0546048066114122,0.32403588939317274,-0.3923792815752197,-2.1534933907692895,0.8647495656576891,2.4659422149827477,0.5444817450755975,1.0544104758940245,0.3238615046091247,-0.39250456234122666,-2.153291787532338,0.8647539153680389,2.46587817577521,0.5445020185570556,2.777491338423011e-05,-0.0003824795185122442,-0.0006013522358491139,0.00045926225821238615,-0.00015173842483935074,0.00012746072953714985,0.0004280107963974627,0.0,0.0,0.0,0.0,0.0,0.0,0.0,-0.00019433071738772512,-0.0001743847840480206,-0.00012528076600698546,0.00020160323695161964,4.34971034979359e-06,-6.403920753772496e-05,2.0273481458055187e-05,-2.777491338423011e-05,0.0003824795185122442,0.0006013522358491139,-0.00045926225821238615,0.00015173842483935074,-0.00012746072953714985,-0.0004280107963974627,0.5815059542655945,34.26528549194336,3.8744170665740967,-19.511445999145508,-0.2429099678993225,-1.790164589881897,0.04336874559521675,0
27,0.13001728057861328,-0.5815059542655945,-34.26528549194336,-3.8744170665740967,19.511445999145508,0.2429099678993225,1.790164589881897,-0.04336874559521675,0.0,0.0,0.0,0.0,0.0,0.0,0.0,-0.5847153299492771,-0.19512136595168333,-0.35231539289038855,0.494559694524463,0.1866805707479279,-0.11478708635590983,-0.04441914358300458,1.0546048066114122,0.32403588939317274,-0.3923792815752197,-2.1534933907692895,0.8647495656576891,2.4659422149827477,0.5444817450755975,1.0544104758940245,0.3238615046091247,-0.39250456234122666,-2.153291787532338,0.8647539153680389,2.46587817577521,0.5445020185570556,2.777491338423011e-05,-0.0003824795185122442,-0.0006013522358491139,0.00045926225821238615,-0.00015173842483935074,0.00012746072953714985,0.0004280107963974627,0.0,0.0,0.0,0.0,0.0,0.0,0.0,-0.00019433071738772512,-0.0001743847840480206,-0.00012528076600698546,0.00020160323695161964,4.34971034979359e-06,-6.403920753772496e-05,2.0273481458055187e-05,-2.777491338423011e-05,0.0003824795185122442,0.0006013522358491139,-0.00045926225821238615,0.00015173842483935074,-0.00012746072953714985,-0.0004280107963974627,0.5815059542655945,34.26528549194336,3.8744170665740967,-19.511445999145508,-0.2429099678993225,-1.790164589881897,0.04336874559521675,0
28,0.135023832321167,-0.6291133761405945,-34.23751449584961,-3.9220244884490967,19.487642288208008,0.2365012764930725,1.790164589881897,-0.02963583543896675,0.0,0.0,0.0,0.0,0.0,0.0,0.0,-0.5961317457128006,-0.19428017376959877,-0.35807370371955266,0.49181191077193376,0.18692995912704383,-0.11428228143261344,-0.04268840364015921,1.0546081474831228,0.32403370654924213,-0.39237591445784253,-2.153491720333434,0.8647506265845745,2.465943615929603,0.5444802191973559,1.0544104758940245,0.3238615046091247,-0.39250456234122666,-2.153291787532338,0.8647539153680389,2.46587817577521,0.5445020185570556,0.0007833222956089715,-0.0009266189583171701,-0.00013646861561899702,0.0008535168234381349,0.0001485335130477904,-8.045060557472514e-06,0.00023466345215502168,0.0,0.0,0.0,0.0,0.0,0.0,0.0,-0.00019767158909833604,-0.0001722019401174113,-0.00012864788338412536,0.00019993280109620315,3.2887834644501623e-06,-6.54401543931371e-05,2.179935969970348e-05,-0.0007833222956089715,0.0009266189583171701,0.00013646861561899702,-0.0008535168234381349,-0.0001485335130477904,8.045060557472514e-06,-0.00023466345215502168,0.6291133761405945,34.23751449584961,3.9220244884490967,-19.487642288208008,-0.2365012764930725,-1.790164589881897,0.02963583543896675,0
29,0.1400296688079834,-0.6291133761405945,-34.23751449584961,-3.9220244884490967,19.487642288208008,0.2365012764930725,1.790164589881897,-0.02963583543896675,0.0,0.0,0.0,0.0,0.0,0.0,0.0,-0.5961317457128006,-0.19428017376959877,-0.35807370371955266,0.49181191077193376,0.18692995912704383,-0.11428228143261344,-0.04268840364015921,1.0546081474831228,0.32403370654924213,-0.39237591445784253,-2.153491720333434,0.8647506265845745,2.465943615929603,0.5444802191973559,1.0544104758940245,0.3238615046091247,-0.39250456234122666,-2.153291787532338,0.8647539153680389,2.46587817577521,0.5445020185570556,0.0007833222956089715,-0.0009266189583171701,-0.00013646861561899702,0.0008535168234381349,0.0001485335130477904,-8.045060557472514e-06,0.00023466345215502168,0.0,0.0,0.0,0.0,0.0,0.0,0.0,-0.00019767158909833604,-0.0001722019401174113,-0.00012864788338412536,0.00019993280109620315,3.2887834644501623e-06,-6.54401543931371e-05,2.179935969970348e-05,-0.0007833222956089715,0.0009266189583171701,0.00013646861561899702,-0.0008535168234381349,-0.0001485335130477904,8.045060557472514e-06,-0.00023466345215502168,0.6291133761405945,34.23751449584961,3.9220244884490967,-19.487642288208008,-0.2365012764930725,-1.790164589881897,0.02963583543896675,0
30,0.14499926567077637,-0.6291133761405945,-34.26528549194336,-3.9735991954803467,19.535249710083008,0.2365012764930725,1.790164589881897,-0.04336874559521675,0.0,0.0,0.0,0.0,0.0,0.0,0.0,-0.5918602041555323,-0.19158554332810204,-0.3513921307464839,0.48991105555198083,0.18668524219663038,-0.11497293298283355,-0.04081176051970032,1.0546081474831228,0.3240356553897523,-0.3923722942079462,-2.1534950612051444,0.8647502782190014,2.4659436251433298,0.5444817465298124,1.0544104758940245,0.3238615046091247,-0.39250456234122666,-2.153291787532338,0.8647539153680389,2.46587817577521,0.5445020185570556,0.0003167269281835622,0.00030671010256572633,0.0012483063355552687,-0.0006057666414230243,0.0001780910575376253,2.7649936892639775e-06,8.182624274494917e-06,0.0,0.0,0.0,0.0,0.0,0.0,0.0,-0.00019767158909833604,-0.00017415078062760214,-0.0001322681332804332,0.00020327367280659203,3.6371490375053384e-06,-6.544936811980762e-05,2.0272027243195545e-05,-0.0003167269281835622,-0.00030671010256572633,-0.0012483063355552687,0.0006057666414230243,-0.0001780910575376253,-2.7649936892639775e-06,-8.182624274494917e-06,0.6291133761405945,34.26528549194336,3.9735991954803467,-19.535249710083008,-0.2365012764930725,-1.790164589881897,0.04336874559521675,0
31,0.1499948501586914,-0.6291133761405945,-34.26528549194336,-3.9735991954803467,19.535249710083008,0.2365012764930725,1.790164589881897,-0.04336874559521675,0.0,0.0,0.0,0.0,0.0,0.0,0.0,-0.5918602041555323,-0.19158554332810204,-0.3513921307464839,0.48991105555198083,0.18668524219663038,-0.11497293298283355,-0.04081176051970032,1.0546081474831228,0.3240356553897523,-0.3923722942079462,-2.1534950612051444,0.8647502782190014,2.4659436251433298,0.5444817465298124,1.0544104758940245,0.3238615046091247,-0.39250456234122666,-2.153291787532338,0.8647539153680389,2.46587817577521,0.5445020185570556,0.0003167269281835622,0.00030671010256572633,0.0012483063355552687,-0.0006057666414230243,0.0001780910575376253,2.7649936892639775e-06,8.182624274494917e-06,0.0,0.0,0.0,0.0,0.0,0.0,0.0,-0.00019767158909833604,-0.00017415078062760214,-0.0001322681332804332,0.00020327367280659203,3.6371490375053384e-06,-6.544936811980762e-05,2.0272027243195545e-05,-0.0003167269281835622,-0.00030671010256572633,-0.0012483063355552687,0.0006057666414230243,-0.0001780910575376253,-2.7649936892639775e-06,-8.182624274494917e-06,0.6291133761405945,34.26528549194336,3.9735991954803467,-19.535249710083008,-0.2365012764930725,-1.790164589881897,0.04336874559521675,0
32,0.15500116348266602,-0.6291133761405945,-34.26528549194336,-3.8982207775115967,19.511445999145508,0.2484031319618225,1.783755898475647,-0.01590292528271675,0.0,0.0,0.0,0.0,0.0,0.0,0.0,-0.5798147886732151,-0.18697464577645329,-0.33972807159105,0.4895083304815611,0.18578294185024477,-0.1166038342773874,-0.041208507431956594,1.0546081474831228,0.3240356553897523,-0.39237548524021376,-2.1534933907692895,0.8647461300869712,2.46594408656354,0.5444786933184579,1.0544104758940245,0.3238615046091247,-0.39250456234122666,-2.153291787532338,0.8647539153680389,2.46587817577521,0.5445020185570556,0.000934510503712863,0.0006514562002134402,-0.0001779113526533835,-1.4584726296612067e-05,-0.00015154624618840816,0.00025221152076848954,0.00219363985280637,0.0,0.0,0.0,0.0,0.0,0.0,0.0,-0.00019767158909833604,-0.00017415078062760214,-0.0001290771010128977,0.00020160323695161964,7.78528106770704e-06,-6.59107883298482e-05,2.3325238597715625e-05,-0.000934510503712863,-0.0006514562002134402,0.0001779113526533835,1.4584726296612067e-05,0.00015154624618840816,-0.00025221152076848954,-0.00219363985280637,0.6291133761405945,34.26528549194336,3.8982207775115967,-19.511445999145508,-0.2484031319618225,-1.783755898475647,0.01590292528271675,0
33,0.16000103950500488,-0.6291133761405945,-34.26528549194336,-3.8982207775115967,19.511445999145508,0.2484031319618225,1.783755898475647,-0.01590292528271675,0.0,0.0,0.0,0.0,0.0,0.0,0.0,-0.5798147886732151,-0.18697464577645329,-0.33972807159105,0.4895083304815611,0.18578294185024477,-0.1166038342773874,-0.041208507431956594,1.0546081474831228,0.3240356553897523,-0.39237548524021376,-2.1534933907692895,0.8647461300869712,2.46594408656354,0.5444786933184579,1.0544104758940245,0.3238615046091247,-0.39250456234122666,-2.153291787532338,0.8647539153680389,2.46587817577521,0.5445020185570556,0.000934510503712863,0.0006514562002134402,-0.0001779113526533835,-1.4584726296612067e-05,-0.00015154624618840816,0.00025221152076848954,0.00219363985280637,0.0,0.0,0.0,0.0,0.0,0.0,0.0,-0.00019767158909833604,-0.00017415078062760214,-0.0001290771010128977,0.00020160323695161964,7.78528106770704e-06,-6.59107883298482e-05,2.3325238597715625e-05,-0.000934510503712863,-0.0006514562002134402,0.0001779113526533835,1.4584726296612067e-05,0.00015154624618840816,-0.00025221152076848954,-0.00219363985280637,0.6291133761405945,34.26528549194336,3.8982207775115967,-19.511445999145508,-0.2484031319618225,-1.783755898475647,0.01590292528271675,0
34,0.16499853134155273,-0.6053096652030945,-34.23751449584961,-3.8982207775115967,19.511445999145508,0.2365012764930725,1.790164589881897,-0.05710165575146675,0.0,0.0,0.0,0.0,0.0,0.0,0.0,-0.5868663880821919,-0.2010144860563766,-0.34361689503245485,0.49777981308986996,0.18660329631172476,-0.11522860729071491,-0.04098355309073664,1.0546064759167284,0.3240337065479212,-0.3923776111033621,-2.1534933907692895,0.8647505919705412,2.465943624491736,0.5444832714396852,1.0544104758940245,0.3238615046091247,-0.39250456234122666,-2.153291787532338,0.8647539153680389,2.46587817577521,0.5445020185570556,0.0004016714545482186,-0.001164746286032093,0.000274882241675536,0.00017233813262261497,4.540500863419481e-05,-0.00011337115788059745,0.001088293036341526,0.0,0.0,0.0,0.0,0.0,0.0,0.0,-0.0001960000227039238,-0.00017220193879646795,-0.00012695123786454765,0.00020160323695161964,3.323397497756453e-06,-6.544871652591766e-05,1.874711737037682e-05,-0.0004016714545482186,0.001164746286032093,-0.000274882241675536,-0.00017233813262261497,-4.540500863419481e-05,0.00011337115788059745,-0.001088293036341526,0.6053096652030945,34.23751449584961,3.8982207775115967,-19.511445999145508,-0.2365012764930725,-1.790164589881897,0.05710165575146675,0
35,0.1699967384338379,-0.6053096652030945,-34.23751449584961,-3.8982207775115967,19.511445999145508,0.2365012764930725,1.790164589881897,-0.05710165575146675,0.0,0.0,0.0,0.0,0.0,0.0,0.0,-0.5868663880821919,-0.2010144860563766,-0.34361689503245485,0.49777981308986996,0.18660329631172476,-0.11522860729071491,-0.04098355309073664,1.0546064759167284,0.3240337065479212,-0.3923776111033621,-2.1534933907692895,0.8647505919705412,2.465943624491736,0.5444832714396852,1.0544104758940245,0.3238615046091247,-0.39250456234122666,-2.153291787532338,0.8647539153680389,2.46587817577521,0.5445020185570556,0.0004016714545482186,-0.001164746286032093,0.000274882241675536,0.00017233813262261497,4.540500863419481e-05,-0.00011337115788059745,0.001088293036341526,0.0,0.0,0.0,0.0,0.0,0.0,0.0,-0.0001960000227039238,-0.00017220193879646795,-0.00012695123786454765,0.00020160323695161964,3.323397497756453e-06,-6.544871652591766e-05,1.874711737037682e-05,-0.0004016714545482186,0.001164746286032093,-0.000274882241675536,-0.00017233813262261497,-4.540500863419481e-05,0.00011337115788059745,-0.001088293036341526,0.6053096652030945,34.23751449584961,3.8982207775115967,-19.511445999145508,-0.2365012764930725,-1.790164589881897,0.05710165575146675,0
36,0.17500996589660645,-0.6053096652030945,-34.23751449584961,-3.8982207775115967,19.511445999145508,0.2365012764930725,1.790164589881897,-0.05710165575146675,0.0,0.0,0.0,0.0,0.0,0.0,0.0,-0.5868663880821919,-0.2010144860563766,-0.34361689503245485,0.49777981308986996,0.18660329631172476,-0.11522860729071491,-0.04098355309073664,1.0546064759167284,0.3240337065479212,-0.3923776111033621,-2.1534933907692895,0.8647505919705412,2.465943624491736,0.5444832714396852,1.0544104758940245,0.3238615046091247,-0.39250456234122666,-2.153291787532338,0.8647539153680389,2.46587817577521,0.5445020185570556,0.0004016714545482186,-0.001164746286032093,0.000274882241675536,0.00017233813262261497,4.540500863419481e-05,-0.00011337115788059745,0.001088293036341526,0.0,0.0,0.0,0.0,0.0,0.0,0.0,-0.0001960000227039238,-0.00017220193879646795,-0.00012695123786454765,0.00020160323695161964,3.323397497756453e-06,-6.544871652591766e-05,1.874711737037682e-05,-0.0004016714545482186,0.001164746286032093,-0.000274882241675536,-0.00017233813262261497,-4.540500863419481e-05,0.00011337115788059745,-0.001088293036341526,0.6053096652030945,34.23751449584961,3.8982207775115967,-19.511445999145508,-0.2365012764930725,-1.790164589881897,0.05710165575146675,0
37,0.17999768257141113,-0.6053096652030945,-34.23751449584961,-3.8982207775115967,19.511445999145508,0.2365012764930725,1.790164589881897,-0.05710165575146675,0.0,0.0,0.0,0.0,0.0,0.0,0.0,-0.5868663880821919,-0.2010144860563766,-0.34361689503245485,0.49777981308986996,0.18660329631172476,-0.11522860729071491,-0.04098355309073664,1.0546064759167284,0.3240337065479212,-0.3923776111033621,-2.1534933907692895,0.8647505919705412,2.465943624491736,0.5444832714396852,1.0544104758940245,0.3238615046091247,-0.39250456234122666,-2.153291787532338,0.8647539153680389,2.46587817577521,0.5445020185570556,0.0004016714545482186,-0.001164746286032093,0.000274882241675536,0.00017233813262261497,4.540500863419481e-05,-0.00011337115788059745,0.001088293036341526,0.0,0.0,0.0,0.0,0.0,0.0,0.0,-0.0001960000227039238,-0.00017220193879646795,-0.00012695123786454765,0.00020160323695161964,3.323397497756453e-06,-6.544871652591766e-05,1.874711737037682e-05,-0.0004016714545482186,0.001164746286032093,-0.000274882241675536,-0.00017233813262261497,-4.540500863419481e-05,0.00011337115788059745,-0.001088293036341526,0.6053096652030945,34.23751449584961,3.8982207775115967,-19.511445999145508,-0.2365012764930725,-1.790164589881897,0.05710165575146675,0
38,0.18500447273254395,-0.5537349581718445,-34.23751449584961,-3.8982207775115967,19.535249710083008,0.2429099678993225,1.783755898475647,-0.04977743700146675,0.0,0.0,0.0,0.0,0.0,0.0,0.0,-0.5970611866052193,-0.1858269843868174,-0.3470606357807748,0.488383986331657,0.1868203629705934,-0.1155118707379829,-0.04059965354042471,1.0546028577695792,0.3240337065479212,-0.39237761113936437,-2.1534950612051444,0.8647488595552064,2.4659407653631917,0.5444824571530861,1.0544104758940245,0.3238615046091247,-0.39250456234122666,-2.153291787532338,0.8647539153680389,2.46587817577521,0.5445020185570556,-0.0009358169265558283,-0.00069243618976731,-0.00015134909231941213,-0.00039506631808962773,-8.726900885691305e-06,0.00017261622413131667,0.00011122685877329875,0.0,0.0,0.0,0.0,0.0,0.0,0.0,-0.00019238187555470354,-0.00017220193879646795,-0.00012695120186229092,0.00020327367280659203,5.055812832499562e-06,-6.258958798177616e-05,1.956140396952577e-05,0.0009358169265558283,0.00069243618976731,0.00015134909231941213,0.00039506631808962773,8.726900885691305e-06,-0.00017261622413131667,-0.00011122685877329875,0.5537349581718445,34.23751449584961,3.8982207775115967,-19.535249710083008,-0.2429099678993225,-1.783755898475647,0.04977743700146675,0
39,0.19001364707946777,-0.5537349581718445,-34.23751449584961,-3.8982207775115967,19.535249710083008,0.2429099678993225,1.783755898475647,-0.04977743700146675,0.0,0.0,0.0,0.0,0.0,0.0,0.0,-0.5970611866052193,-0.1858269843868174,-0.3470606357807748,0.488383986331657,0.1868203629705934,-0.1155118707379829,-0.04059965354042471,1.0546028577695792,0.3240337065479212,-0.39237761113936437,-2.1534950612051444,0.8647488595552064,2.4659407653631917,0.5444824571530861,1.0544104758940245,0.3238615046091247,-0.39250456234122666,-2.153291787532338,0.8647539153680389,2.46587817577521,0.5445020185570556,-0.0009358169265558283,-0.00069243618976731,-0.00015134909231941213,-0.00039506631808962773,-8.726900885691305e-06,0.00017261622413131667,0.00011122685877329875,0.0,0.0,0.0,0.0,0.0,0.0,0.0,-0.00019238187555470354,-0.00017220193879646795,-0.00012695120186229092,0.00020327367280659203,5.055812832499562e-06,-6.258958798177616e-05,1.956140396952577e-05,0.0009358169265558283,0.00069243618976731,0.00015134909231941213,0.00039506631808962773,8.726900885691305e-06,-0.00017261622413131667,-0.00011122685877329875,0.5537349581718445,34.23751449584961,3.8982207775115967,-19.535249710083008,-0.2429099678993225,-1.783755898475647,0.04977743700146675,0
40,0.19499754905700684,-0.5815059542655945,-34.26528549194336,-3.9497954845428467,19.511445999145508,0.2429099678993225,1.796573281288147,-0.04977743700146675,0.0,0.0,0.0,0.0,0.0,0.0,0.0,-0.5905056654407472,-0.19312932330597005,-0.3442499837381608,0.4957939462778177,0.18703086504936453,-0.11457934751136255,-0.04135014623308477,1.0546048066114122,0.3240356553897523,-0.3923737294050117,-2.1534933907692895,0.8647499188644163,2.465938312559867,0.5444824571530852,1.0544104758940245,0.3238615046091247,-0.39250456234122666,-2.153291787532338,0.8647539153680389,2.46587817577521,0.5445020185570556,0.00044629473747862723,0.0004630203577115851,0.0009027195956247283,0.0005971203307602388,-5.549343067241555e-05,-7.819892948482205e-07,0.00028948115764020234,0.0,0.0,0.0,0.0,0.0,0.0,0.0,-0.00019433071738772512,-0.00017415078062760214,-0.00013083293621496406,0.00020160323695161964,3.996503622594183e-06,-6.0136784656883435e-05,1.956140397041395e-05,-0.00044629473747862723,-0.0004630203577115851,-0.0009027195956247283,-0.0005971203307602388,5.549343067241555e-05,7.819892948482205e-07,-0.00028948115764020234,0.5815059542655945,34.26528549194336,3.9497954845428467,-19.511445999145508,-0.2429099678993225,-1.796573281288147,0.04977743700146675,0
41,0.1999979019165039,-0.5815059542655945,-34.26528549194336,-3.9497954845428467,19.511445999145508,0.2429099678993225,1.796573281288147,-0.04977743700146675,0.0,0.0,0.0,0.0,0.0,0.0,0.0,-0.5905056654407472,-0.19312932330597005,-0.3442499837381608,0.4957939462778177,0.18703086504936453,-0.11457934751136255,-0.04135014623308477,1.0546048066114122,0.3240356553897523,-0.3923737294050117,-2.1534933907692895,0.8647499188644163,2.465938312559867,0.5444824571530852,1.0544104758940245,0.3238615046091247,-0.39250456234122666,-2.153291787532338,0.8647539153680389,2.46587817577521,0.5445020185570556,0.00044629473747862723,0.0004630203577115851,0.0009027195956247283,0.0005971203307602388,-5.549343067241555e-05,-7.819892948482205e-07,0.00028948115764020234,0.0,0.0,0.0,0.0,0.0,0.0,0.0,-0.00019433071738772512,-0.00017415078062760214,-0.00013083293621496406,0.00020160323695161964,3.996503622594183e-06,-6.0136784656883435e-05,1.956140397041395e-05,-0.00044629473747862723,-0.0004630203577115851,-0.0009027195956247283,-0.0005971203307602388,5.549343067241555e-05,7.819892948482205e-07,-0.00028948115764020234,0.5815059542655945,34.26528549194336,3.9497954845428467,-19.511445999145508,-0.2429099678993225,-1.796573281288147,0.04977743700146675,0
42,0.20501303672790527,-0.5537349581718445,-34.26528549194336,-3.9220244884490967,19.535249710083008,0.2365012764930725,1.790164589881897,-0.08365194499492645,0.0,0.0,0.0,0.0,0.0,0.0,0.0,-0.589849655757598,-0.1934616088190545,-0.35124819989021777,0.4971801543628296,0.1878435887349216,-0.1138752438333584,-0.042611417288601905,1.0546028577695812,0.3240356553897523,-0.39237593195347203,-2.1534950612051444,0.8647506314317358,2.4659400929364788,0.5444862209873067,1.0544104758940245,0.3238615046091247,-0.39250456234122666,-2.153291787532338,0.8647539153680389,2.46587817577521,0.5445020185570556,-0.0005286109569043926,-9.017813176783851e-06,-0.000205659999612043,-2.2064593303705116e-05,0.00025763472204624774,8.071446450539186e-05,0.0010492949049342656,0.0,0.0,0.0,0.0,0.0,0.0,0.0,-0.00019238187555670194,-0.00017415078062760214,-0.00012863038775462465,0.00020327367280659203,3.28393630311119e-06,-6.191716126879854e-05,1.5797569748898788e-05,0.0005286109569043926,9.017813176783851e-06,0.000205659999612043,2.2064593303705116e-05,-0.00025763472204624774,-8.071446450539186e-05,-0.0010492949049342656,0.5537349581718445,34.26528549194336,3.9220244884490967,-19.535249710083008,-0.2365012764930725,-1.790164589881897,0.08365194499492645,0
43,0.21004652976989746,-0.5537349581718445,-34.26528549194336,-3.9220244884490967,19.535249710083008,0.2365012764930725,1.790164589881897,-0.08365194499492645,0.0,0.0,0.0,0.0,0.0,0.0,0.0,-0.589849655757598,-0.1934616088190545,-0.35124819989021777,0.4971801543628296,0.1878435887349216,-0.1138752438333584,-0.042611417288601905,1.0546028577695812,0.3240356553897523,-0.39237593195347203,-2.1534950612051444,0.8647506314317358,2.4659400929364788,0.5444862209873067,1.0544104758940245,0.3238615046091247,-0.39250456234122666,-2.153291787532338,0.8647539153680389,2.46587817577521,0.5445020185570556,-0.0005286109569043926,-9.017813176783851e-06,-0.000205659999612043,-2.2064593303705116e-05,0.00025763472204624774,8.071446450539186e-05,0.0010492949049342656,0.0,0.0,0.0,0.0,0.0,0.0,0.0,-0.00019238187555670194,-0.00017415078062760214,-0.00012863038775462465,0.00020327367280659203,3.28393630311119e-06,-6.191716126879854e-05,1.5797569748898788e-05,0.0005286109569043926,9.017813176783851e-06,0.000205659999612043,2.2064593303705116e-05,-0.00025763472204624774,-8.071446450539186e-05,-0.0010492949049342656,0.5537349581718445,34.26528549194336,3.9220244884490967,-19.535249710083008,-0.2365012764930725,-1.790164589881897,0.08365194499492645,0
44,0.21504664421081543,-0.6053096652030945,-34.23751449584961,-3.8744170665740967,19.487642288208008,0.2484031319618225,1.796573281288147,-0.02963583543896675,0.0,0.0,0.0,0.0,0.0,0.0,0.0,-0.5727379054316696,-0.1814157413338385,-0.33732383733579696,0.49238421040978353,0.1873035667837689,-0.11584201752409314,-0.04486323799902032,1.0546064770472674,0.3240337065479212,-0.39237928146706463,-2.153491720333434,0.8647493090033531,2.465942912520845,0.544480219197356,1.0544104758940245,0.3238615046091247,-0.39250456234122666,-2.153291787532338,0.8647539153680389,2.46587817577521,0.5445020185570556,0.0010806329465750802,-0.00022776949875764855,-0.0006289226042109112,0.0008384421385073441,-0.0002011223665557358,-0.0003368937577541996,-0.0011135171128920688,0.0,0.0,0.0,0.0,0.0,0.0,0.0,-0.00019600115324291956,-0.00017220193879646795,-0.00012528087416202593,0.00019993280109620315,4.606364685799669e-06,-6.473674563522991e-05,2.1799359699592458e-05,-0.0010806329465750802,0.00022776949875764855,0.0006289226042109112,-0.0008384421385073441,0.0002011223665557358,0.0003368937577541996,0.0011135171128920688,0.6053096652030945,34.23751449584961,3.8744170665740967,-19.487642288208008,-0.2484031319618225,-1.796573281288147,0.02963583543896675,0
45,0.22002434730529785,-0.6053096652030945,-34.23751449584961,-3.8744170665740967,19.487642288208008,0.2484031319618225,1.796573281288147,-0.02963583543896675,0.0,0.0,0.0,0.0,0.0,0.0,0.0,-0.5727379054316696,-0.1814157413338385,-0.33732383733579696,0.49238421040978353,0.1873035667837689,-0.11584201752409314,-0.04486323799902032,1.0546064770472674,0.3240337065479212,-0.39237928146706463,-2.153491720333434,0.8647493090033531,2.465942912520845,0.544480219197356,1.0544104758940245,0.3238615046091247,-0.39250456234122666,-2.153291787532338,0.8647539153680389,2.46587817577521,0.5445020185570556,0.0010806329465750802,-0.00022776949875764855,-0.0006289226042109112,0.0008384421385073441,-0.0002011223665557358,-0.0003368937577541996,-0.0011135171128920688,0.0,0.0,0.0,0.0,0.0,0.0,0.0,-0.00019600115324291956,-0.00017220193879646795,-0.00012528087416202593,0.00019993280109620315,4.606364685799669e-06,-6.473674563522991e-05,2.1799359699592458e-05,-0.0010806329465750802,0.00022776949875764855,0.0006289226042109112,-0.0008384421385073441,0.0002011223665557358,0.0003368937577541996,0.0011135171128920688,0.6053096652030945,34.23751449584961,3.8744170665740967,-19.487642288208008,-0.2484031319618225,-1.796573281288147,0.02963583543896675,0
46,0.22501707077026367,-0.6053096652030945,-34.21371078491211,-3.8982207775115967,19.511445999145508,0.2365012764930725,1.783755898475647,0.005154203623533249,0.0,0.0,0.0,0.0,0.0,0.0,0.0,-0.5897121295227247,-0.18278660712553568,-0.35120946399964853,0.4913927956414344,0.18803552375888757,-0.11499927324723488,-0.046321274658324744,1.0546064770472674,0.3240320361120659,-0.39237760822317863,-2.1534933907692895,0.8647506314317386,2.4659433822376897,0.5444763536374602,1.0544104758940245,0.3238615046091247,-0.39250456234122666,-2.153291787532338,0.8647539153680389,2.46587817577521,0.5445020185570556,0.00015886039063591539,-0.0006374410547269961,-0.0002757428165795713,-0.00028784079347352986,0.00011590552061554164,0.00015070663499984374,-0.002063583040789468,0.0,0.0,0.0,0.0,0.0,0.0,0.0,-0.00019600115324291956,-0.00017053150294116248,-0.00012695411804802825,0.00020160323695161964,3.2839363003356326e-06,-6.520646247976103e-05,2.5664919595436153e-05,-0.00015886039063591539,0.0006374410547269961,0.0002757428165795713,0.00028784079347352986,-0.00011590552061554164,-0.00015070663499984374,0.002063583040789468,0.6053096652030945,34.21371078491211,3.8982207775115967,-19.511445999145508,-0.2365012764930725,-1.783755898475647,-0.005154203623533249,0
47,0.22999286651611328,-0.6053096652030945,-34.21371078491211,-3.8982207775115967,19.511445999145508,0.2365012764930725,1.783755898475647,0.005154203623533249,0.0,0.0,0.0,0.0,0.0,0.0,0.0,-0.5897121295227247,-0.18278660712553568,-0.35120946399964853,0.4913927956414344,0.18803552375888757,-0.11499927324723488,-0.046321274658324744,1.0546064770472674,0.3240320361120659,-0.39237760822317863,-2.1534933907692895,0.8647506314317386,2.4659433822376897,0.5444763536374602,1.0544104758940245,0.3238615046091247,-0.39250456234122666,-2.153291787532338,0.8647539153680389,2.46587817577521,0.5445020185570556,0.00015886039063591539,-0.0006374410547269961,-0.0002757428165795713,-0.00028784079347352986,0.00011590552061554164,0.00015070663499984374,-0.002063583040789468,0.0,0.0,0.0,0.0,0.0,0.0,0.0,-0.00019600115324291956,-0.00017053150294116248,-0.00012695411804802825,0.00020160323695161964,3.2839363003356326e-06,-6.520646247976103e-05,2.5664919595436153e-05,-0.00015886039063591539,0.0006374410547269961,0.0002757428165795713,0.00028784079347352986,-0.00011590552061554164,-0.00015070663499984374,0.002063583040789468,0.6053096652030945,34.21371078491211,3.8982207775115967,-19.511445999145508,-0.2365012764930725,-1.783755898475647,-0.005154203623533249,0
48,0.23500275611877441,-0.5815059542655945,-34.31289291381836,-3.9497954845428467,19.535249710083008,0.2365012764930725,1.802981972694397,-0.05710165575146675,0.0,0.0,0.0,0.0,0.0,0.0,0.0,-0.5855532809426681,-0.1904848101578195,-0.3475255661983706,0.49591225788188503,0.18714109061286102,-0.11496338852287402,-0.045302412267923704,1.0546048066114122,0.3240389962614628,-0.3923739652919853,-2.1534950612051444,0.8647506314317386,2.4659423056440164,0.5444832709551686,1.0544104758940245,0.3238615046091247,-0.39250456234122666,-2.153291787532338,0.8647539153680389,2.46587817577521,0.5445020185570556,-0.0002711837965988485,0.0014253174977684438,0.000745016521121658,-0.0006886615384722024,-0.00014936859908672127,-0.0004246942671344064,0.0010147457035592107,0.0,0.0,0.0,0.0,0.0,0.0,0.0,-0.00019433071738772512,-0.00017749165233810205,-0.0001305970492413433,0.00020327367280659203,3.2839363003356326e-06,-6.412986880643956e-05,1.8747601887025844e-05,0.0002711837965988485,-0.0014253174977684438,-0.000745016521121658,0.0006886615384722024,0.00014936859908672127,0.0004246942671344064,-0.0010147457035592107,0.5815059542655945,34.31289291381836,3.9497954845428467,-19.535249710083008,-0.2365012764930725,-1.802981972694397,0.05710165575146675,0
49,0.2400074005126953,-0.5815059542655945,-34.31289291381836,-3.9497954845428467,19.535249710083008,0.2365012764930725,1.802981972694397,-0.05710165575146675,0.0,0.0,0.0,0.0,0.0,0.0,0.0,-0.5855532809426681,-0.1904848101578195,-0.3475255661983706,0.49591225788188503,0.18714109061286102,-0.11496338852287402,-0.045302412267923704,1.0546048066114122,0.3240389962614628,-0.3923739652919853,-2.1534950612051444,0.8647506314317386,2.4659423056440164,0.5444832709551686,1.0544104758940245,0.3238615046091247,-0.39250456234122666,-2.153291787532338,0.8647539153680389,2.46587817577521,0.5445020185570556,-0.0002711837965988485,0.0014253174977684438,0.000745016521121658,-0.0006886615384722024,-0.00014936859908672127,-0.0004246942671344064,0.0010147457035592107,0.0,0.0,0.0,0.0,0.0,0.0,0.0,-0.00019433071738772512,-0.00017749165233810205,-0.0001305970492413433,0.00020327367280659203,3.2839363003356326e-06,-6.412986880643956e-05,1.8747601887025844e-05,0.0002711837965988485,-0.0014253174977684438,-0.000745016521121658,0.0006886615384722024,0.00014936859908672127,0.0004246942671344064,-0.0010147457035592107,0.5815059542655945,34.31289291381836,3.9497954845428467,-19.535249710083008,-0.2365012764930725,-1.802981972694397,0.05710165575146675,0
50,0.2449963092803955,-0.6053096652030945,-34.26528549194336,-3.9220244884490967,19.511445999145508,0.2310081124305725,1.790164589881897,-0.04977743700146675,0.0,0.0,0.0,0.0,0.0,0.0,0.0,-0.5907699604674587,-0.1872584875409465,-0.35100391424135813,0.49290873740296776,0.18608139715283958,-0.11499810995421544,-0.04471196040472063,1.0546063946309685,0.3240358893931725,-0.3923759397312975,-2.1534933907692895,0.8647511240457311,2.4659425692204717,0.5444824571530852,1.0544104758940245,0.3238615046091247,-0.39250456234122666,-2.153291787532338,0.8647539153680389,2.46587817577521,0.5445020185570556,-2.516284539579658e-05,-2.3246166176393373e-06,-4.870660477984851e-05,0.0002032438791252075,0.0004326120487796245,-8.203577740742633e-05,0.00026577450003488896,0.0,0.0,0.0,0.0,0.0,0.0,0.0,-0.00019591873694402295,-0.00017438478404779856,-0.0001286226099291854,0.00020160323695161964,2.7913223078490645e-06,-6.439344526176782e-05,1.956140397041395e-05,2.516284539579658e-05,2.3246166176393373e-06,4.870660477984851e-05,-0.0002032438791252075,-0.0004326120487796245,8.203577740742633e-05,-0.00026577450003488896,0.6053096652030945,34.26528549194336,3.9220244884490967,-19.511445999145508,-0.2310081124305725,-1.790164589881897,0.04977743700146675,0
51,0.2499997615814209,-0.6053096652030945,-34.26528549194336,-3.9220244884490967,19.511445999145508,0.2310081124305725,1.790164589881897,-0.04977743700146675,0.0,0.0,0.0,0.0,0.0,0.0,0.0,-0.5907699604674587,-0.1872584875409465,-0.35100391424135813,0.49290873740296776,0.18608139715283958,-0.11499810995421544,-0.04471196040472063,1.0546063946309685,0.3240358893931725,-0.3923759397312975,-2.1534933907692895,0.8647511240457311,2.4659425692204717,0.5444824571530852,1.0544104758940245,0.3238615046091247,-0.39250456234122666,-2.153291787532338,0.8647539153680389,2.46587817577521,0.5445020185570556,-2.516284539579658e-05,-2.3246166176393373e-06,-4.870660477984851e-05,0.0002032438791252075,0.0004326120487796245,-8.203577740742633e-05,0.00026577450003488896,0.0,0.0,0.0,0.0,0.0,0.0,0.0,-0.00019591873694402295,-0.00017438478404779856,-0.0001286226099291854,0.00020160323695161964,2.7913223078490645e-06,-6.439344526176782e-05,1.956140397041395e-05,2.516284539579658e-05,2.3246166176393373e-06,4.870660477984851e-05,-0.0002032438791252075,-0.0004326120487796245,8.203577740742633e-05,-0.00026577450003488896,0.6053096652030945,34.26528549194336,3.9220244884490967,-19.511445999145508,-0.2310081124305725,-1.790164589881897,0.04977743700146675,0
52,0.25500917434692383,-0.5815059542655945,-34.23751449584961,-3.9220244884490967,19.511445999145508,0.2365012764930725,1.790164589881897,-0.01590292528271675,0.0,0.0,0.0,0.0,0.0,0.0,0.0,-0.5913241818837824,-0.18456630671054994,-0.3502444616237587,0.49037142902202413,0.1861085250942236,-0.11560191865454522,-0.04508315637943777,1.054604806610947,0.32403370654924213,-0.39237594059549685,-2.1534933907692895,0.864750627016588,2.46594255532444,0.5444786933184498,1.0544104758940245,0.3238615046091247,-0.39250456234122666,-2.153291787532338,0.8647539153680389,2.46587817577521,0.5445020185570556,-0.0002707712553965859,-0.0003951578884086381,-0.00023705423833686993,9.318561453594146e-05,0.00022426428706552468,6.340689180604485e-05,-0.0014425656453137623,0.0,0.0,0.0,0.0,0.0,0.0,0.0,-0.00019433071692254167,-0.0001722019401174113,-0.00012862174572980667,0.00020160323695161964,3.2883514509141065e-06,-6.437954922988709e-05,2.3325238605820253e-05,0.0002707712553965859,0.0003951578884086381,0.00023705423833686993,-9.318561453594146e-05,-0.00022426428706552468,-6.340689180604485e-05,0.0014425656453137623,0.5815059542655945,34.23751449584961,3.9220244884490967,-19.511445999145508,-0.2365012764930725,-1.790164589881897,0.01590292528271675,0
53,0.25995564460754395,-0.5815059542655945,-34.23751449584961,-3.9220244884490967,19.511445999145508,0.2365012764930725,1.790164589881897,-0.01590292528271675,0.0,0.0,0.0,0.0,0.0,0.0,0.0,-0.5913241818837824,-0.18456630671054994,-0.3502444616237587,0.49037142902202413,0.1861085250942236,-0.11560191865454522,-0.04508315637943777,1.054604806610947,0.32403370654924213,-0.39237594059549685,-2.1534933907692895,0.864750627016588,2.46594255532444,0.5444786933184498,1.0544104758940245,0.3238615046091247,-0.39250456234122666,-2.153291787532338,0.8647539153680389,2.46587817577521,0.5445020185570556,-0.0002707712553965859,-0.0003951578884086381,-0.00023705423833686993,9.318561453594146e-05,0.00022426428706552468,6.340689180604485e-05,-0.0014425656453137623,0.0,0.0,0.0,0.0,0.0,0.0,0.0,-0.00019433071692254167,-0.0001722019401174113,-0.00012862174572980667,0.00020160323695161964,3.2883514509141065e-06,-6.437954922988709e-05,2.3325238605820253e-05,0.0002707712553965859,0.0003951578884086381,0.00023705423833686993,-9.318561453594146e-05,-0.00022426428706552468,-6.340689180604485e-05,0.0014425656453137623,0.5815059542655945,34.23751449584961,3.9220244884490967,-19.511445999145508,-0.2365012764930725,-1.790164589881897,0.01590292528271675,0
54,0.2650108337402344,-0.5537349581718445,-34.26528549194336,-3.9220244884490967,19.535249710083008,0.2484031319618225,1.796573281288147,-0.02231161668896675,0.0,0.0,0.0,0.0,0.0,0.0,0.0,-0.587939005506136,-0.1856068088205769,-0.346762018836707,0.4917586315876054,0.18581046943399404,-0.1156838385352544,-0.0444786040429527,1.0546028577695812,0.3240356553897523,-0.39237594070350895,-2.1534950612051444,0.8647491912119397,2.465943021596757,0.5444794053952727,1.0544104758940245,0.3238615046091247,-0.39250456234122666,-2.153291787532338,0.8647539153680389,2.46587817577521,0.5445020185570556,-0.0008177383125154912,0.0005152236483037028,0.00012198751058808639,-0.00029989513355654186,-0.00039659778502913626,-0.0002938360127402351,-0.001174654448954095,0.0,0.0,0.0,0.0,0.0,0.0,0.0,-0.00019238187555670194,-0.00017415078062760214,-0.0001286216377177074,0.00020327367280659203,4.724156099200627e-06,-6.484582154708818e-05,2.261316178286954e-05,0.0008177383125154912,-0.0005152236483037028,-0.00012198751058808639,0.00029989513355654186,0.00039659778502913626,0.0002938360127402351,0.001174654448954095,0.5537349581718445,34.26528549194336,3.9220244884490967,-19.535249710083008,-0.2484031319618225,-1.796573281288147,0.02231161668896675,0
55,0.2699918746948242,-0.5537349581718445,-34.26528549194336,-3.9220244884490967,19.535249710083008,0.2484031319618225,1.796573281288147,-0.02231161668896675,0.0,0.0,0.0,0.0,0.0,0.0,0.0,-0.587939005506136,-0.1856068088205769,-0.346762018836707,0.4917586315876054,0.18581046943399404,-0.1156838385352544,-0.0444786040429527,1.0546028577695812,0.3240356553897523,-0.39237594070350895,-2.1534950612051444,0.8647491912119397,2.465943021596757,0.5444794053952727,1.0544104758940245,0.3238615046091247,-0.39250456234122666,-2.153291787532338,0.8647539153680389,2.46587817577521,0.5445020185570556,-0.0008177383125154912,0.0005152236483037028,0.00012198751058808639,-0.00029989513355654186,-0.00039659778502913626,-0.0002938360127402351,-0.001174654448954095,0.0,0.0,0.0,0.0,0.0,0.0,0.0,-0.00019238187555670194,-0.00017415078062760214,-0.0001286216377177074,0.00020327367280659203,4.724156099200627e-06,-6.484582154708818e-05,2.261316178286954e-05,0.0008177383125154912,-0.0005152236483037028,-0.00012198751058808639,0.00029989513355654186,0.00039659778502913626,0.0002938360127402351,0.001174654448954095,0.5537349581718445,34.26528549194336,3.9220244884490967,-19.535249710083008,-0.2484031319618225,-1.796573281288147,0.02231161668896675,0
56,0.27503013610839844,-0.5537349581718445,-34.26528549194336,-3.9220244884490967,19.487642288208008,0.2429099678993225,1.783755898475647,-0.05710165575146675,0.0,0.0,0.0,0.0,0.0,0.0,0.0,-0.5918003445132026,-0.19178118717771728,-0.3535695141704326,0.49300497811993066,0.18618258152587358,-0.11479149188847253,-0.04444404814593416,1.0546028577695812,0.3240358893931725,-0.3923759407035092,-2.153491720333434,0.8647463867413062,2.4659428713959937,0.5444832709551686,1.0544104758940245,0.3238615046091247,-0.39250456234122666,-2.153291787532338,0.8647539153680389,2.46587817577521,0.5445020185570556,-0.000899809719636436,0.00013025204797979722,0.0002354995176338846,0.0005040575394957657,-0.0002092841610991691,0.00023937823424517913,0.001093165478074171,0.0,0.0,0.0,0.0,0.0,0.0,0.0,-0.00019238187555670194,-0.00017438478404779856,-0.00012862163771748536,0.00019993280109620315,7.528626732700161e-06,-6.469562078370572e-05,1.8747601887025844e-05,0.000899809719636436,-0.00013025204797979722,-0.0002354995176338846,-0.0005040575394957657,0.0002092841610991691,-0.00023937823424517913,-0.001093165478074171,0.5537349581718445,34.26528549194336,3.9220244884490967,-19.487642288208008,-0.2429099678993225,-1.783755898475647,0.05710165575146675,0
57,0.2800276279449463,-0.5537349581718445,-34.26528549194336,-3.9220244884490967,19.487642288208008,0.2429099678993225,1.783755898475647,-0.05710165575146675,0.0,0.0,0.0,0.0,0.0,0.0,0.0,-0.5918003445132026,-0.19178118717771728,-0.3535695141704326,0.49300497811993066,0.18618258152587358,-0.11479149188847253,-0.04444404814593416,1.0546028577695812,0.3240358893931725,-0.3923759407035092,-2.153491720333434,0.8647463867413062,2.4659428713959937,0.5444832709551686,1.0544104758940245,0.3238615046091247,-0.39250456234122666,-2.153291787532338,0.8647539153680389,2.46587817577521,0.5445020185570556,-0.000899809719636436,0.00013025204797979722,0.0002354995176338846,0.0005040575394957657,-0.0002092841610991691,0.00023937823424517913,0.001093165478074171,0.0,0.0,0.0,0.0,0.0,0.0,0.0,-0.00019238187555670194,-0.00017438478404779856,-0.00012862163771748536,0.00019993280109620315,7.528626732700161e-06,-6.469562078370572e-05,1.8747601887025844e-05,0.000899809719636436,-0.00013025204797979722,-0.0002354995176338846,-0.0005040575394957657,0.0002092841610991691,-0.00023937823424517913,-0.001093165478074171,0.5537349581718445,34.26528549194336,3.9220244884490967,-19.487642288208008,-0.2429099678993225,-1.783755898475647,0.05710165575146675,0
58,0.28501224517822266,-0.5537349581718445,-34.26528549194336,-3.9220244884490967,19.487642288208008,0.2429099678993225,1.783755898475647,-0.05710165575146675,0.0,0.0,0.0,0.0,0.0,0.0,0.0,-0.5918003445132026,-0.19178118717771728,-0.3535695141704326,0.49300497811993066,0.18618258152587358,-0.11479149188847253,-0.04444404814593416,1.0546028577695812,0.3240358893931725,-0.3923759407035092,-2.153491720333434,0.8647463867413062,2.4659428713959937,0.5444832709551686,1.0544104758940245,0.3238615046091247,-0.39250456234122666,-2.153291787532338,0.8647539153680389,2.46587817577521,0.5445020185570556,-0.000899809719636436,0.00013025204797979722,0.0002354995176338846,0.0005040575394957657,-0.0002092841610991691,0.00023937823424517913,0.001093165478074171,0.0,0.0,0.0,0.0,0.0,0.0,0.0,-0.00019238187555670194,-0.00017438478404779856,-0.00012862163771748536,0.00019993280109620315,7.528626732700161e-06,-6.469562078370572e-05,1.8747601887025844e-05,0.000899809719636436,-0.00013025204797979722,-0.0002354995176338846,-0.0005040575394957657,0.0002092841610991691,-0.00023937823424517913,-0.001093165478074171,0.5537349581718445,34.26528549194336,3.9220244884490967,-19.487642288208008,-0.2429099678993225,-1.783755898475647,0.05710165575146675,0
59,0.28999829292297363,-0.5537349581718445,-34.26528549194336,-3.9220244884490967,19.487642288208008,0.2429099678993225,1.783755898475647,-0.05710165575146675,0.0,0.0,0.0,0.0,0.0,0.0,0.0,-0.5918003445132026,-0.19178118717771728,-0.3535695141704326,0.49300497811993066,0.18618258152587358,-0.11479149188847253,-0.04444404814593416,1.0546028577695812,0.3240358893931725,-0.3923759407035092,-2.153491720333434,0.8647463867413062,2.4659428713959937,0.5444832709551686,1.0544104758940245,0.3238615046091247,-0.39250456234122666,-2.153291787532338,0.8647539153680389,2.46587817577521,0.5445020185570556,-0.000899809719636436,0.00013025204797979722,0.0002354995176338846,0.0005040575394957657,-0.0002092841610991691,0.00023937823424517913,0.001093165478074171,0.0,0.0,0.0,0.0,0.0,0.0,0.0,-0.00019238187555670194,-0.00017438478404779856,-0.00012862163771748536,0.00019993280109620315,7.528626732700161e-06,-6.469562078370572e-05,1.8747601887025844e-05,0.000899809719636436,-0.00013025204797979722,-0.0002354995176338846,-0.0005040575394957657,0.0002092841610991691,-0.00023937823424517913,-0.001093165478074171,0.5537349581718445,34.26528549194336,3.9220244884490967,-19.487642288208008,-0.2429099678993225,-1.783755898475647,0.05710165575146675,0
60,0.29495763778686523,-0.5815059542655945,-34.26528549194336,-3.8982207775115967,19.535249710083008,0.2429099678993225,1.790164589881897,-0.008578706532716751,0.0,0.0,0.0,0.0,0.0,0.0,0.0,-0.5917560930748307,-0.19204121868816537,-0.3576432117779948,0.4925759326503326,0.18650215083307314,-0.11417626079278369,-0.04430017189472817,1.0546048066114122,0.32403565539019263,-0.3923754852403674,-2.1534950612051444,0.8647499192944332,2.4659390331964053,0.5444778795163665,1.0544104758940245,0.3238615046091247,-0.39250456234122666,-2.153291787532338,0.8647539153680389,2.46587817577521,0.5445020185570556,0.0001350922874230379,3.2104379581552193e-06,-0.0006258628604283177,-0.0004049819376657083,-0.00020037141443256343,-6.541925696318375e-05,-0.001609076809565847,0.0,0.0,0.0,0.0,0.0,0.0,0.0,-0.00019433071738772512,-0.0001741507810679166,-0.00012907710085924284,0.00020327367280659203,3.996073605683215e-06,-6.085742119532611e-05,2.4139040689097335e-05,-0.0001350922874230379,-3.2104379581552193e-06,0.0006258628604283177,0.0004049819376657083,0.00020037141443256343,6.541925696318375e-05,0.001609076809565847,0.5815059542655945,34.26528549194336,3.8982207775115967,-19.535249710083008,-0.2429099678993225,-1.790164589881897,0.008578706532716751,0
61,0.29995203018188477,-0.5815059542655945,-34.26528549194336,-3.8982207775115967,19.535249710083008,0.2429099678993225,1.790164589881897,-0.008578706532716751,0.0,0.0,0.0,0.0,0.0,0.0,0.0,-0.5917560930748307,-0.19204121868816537,-0.3576432117779948,0.4925759326503326,0.18650215083307314,-0.11417626079278369,-0.04430017189472817,1.0546048066114122,0.32403565539019263,-0.3923754852403674,-2.1534950612051444,0.8647499192944332,2.4659390331964053,0.5444778795163665,1.0544104758940245,0.3238615046091247,-0.39250456234122666,-2.153291787532338,0.8647539153680389,2.46587817577521,0.5445020185570556,0.0001350922874230379,3.2104379581552193e-06,-0.0006258628604283177,-0.0004049819376657083,-0.00020037141443256343,-6.541925696318375e-05,-0.001609076809565847,0.0,0.0,0.0,0.0,0.0,0.0,0.0,-0.00019433071738772512,-0.0001741507810679166,-0.00012907710085924284,0.00020327367280659203,3.996073605683215e-06,-6.085742119532611e-05,2.4139040689097335e-05,-0.0001350922874230379,-3.2104379581552193e-06,0.0006258628604283177,0.0004049819376657083,0.00020037141443256343,6.541925696318375e-05,0.001609076809565847,0.5815059542655945,34.26528549194336,3.8982207775115967,-19.535249710083008,-0.2429099678993225,-1.790164589881897,0.008578706532716751,0
62,0.30499839782714844,-0.6053096652030945,-34.28908920288086,-3.9220244884490967,19.535249710083008,0.2429099678993225,1.783755898475647,-0.06351034343242645,0.0,0.0,0.0,0.0,0.0,0.0,0.0,-0.5914603084233068,-0.19008776698316618,-0.3591045314997567,0.4922324795137611,0.18672678243125407,-0.11407908874228734,-0.04407616493453813,1.0546064770472674,0.32403732582560757,-0.3923759406915084,-2.1534950612051444,0.8647456808023979,2.465943986404157,0.5444839830315775,1.0544104758940245,0.3238615046091247,-0.39250456234122666,-2.153291787532338,0.8647539153680389,2.46587817577521,0.5445020185570556,0.0003595399604734917,0.0008196018091379067,-0.00012629449127961426,5.92636244944414e-06,1.8676643767913725e-05,0.00023470533183022566,0.000443661064639155,0.0,0.0,0.0,0.0,0.0,0.0,0.0,-0.00019600115324291956,-0.0001758212164828521,-0.0001286216497182746,0.00020327367280659203,8.234565641029867e-06,-6.581062894683853e-05,1.8035525478077297e-05,-0.0003595399604734917,-0.0008196018091379067,0.00012629449127961426,-5.92636244944414e-06,-1.8676643767913725e-05,-0.00023470533183022566,-0.000443661064639155,0.6053096652030945,34.28908920288086,3.9220244884490967,-19.535249710083008,-0.2429099678993225,-1.783755898475647,0.06351034343242645,0
63,0.3100008964538574,-0.6053096652030945,-34.28908920288086,-3.9220244884490967,19.535249710083008,0.2429099678993225,1.783755898475647,-0.06351034343242645,0.0,0.0,0.0,0.0,0.0,0.0,0.0,-0.5914603084233068,-0.19008776698316618,-0.3591045314997567,0.4922324795137611,0.18672678243125407,-0.11407908874228734,-0.04407616493453813,1.0546064770472674,0.32403732582560757,-0.3923759406915084,-2.1534950612051444,0.8647456808023979,2.465943986404157,0.5444839830315775,1.0544104758940245,0.3238615046091247,-0.39250456234122666,-2.153291787532338,0.8647539153680389,2.46587817577521,0.5445020185570556,0.0003595399604734917,0.0008196018091379067,-0.00012629449127961426,5.92636244944414e-06,1.8676643767913725e-05,0.00023470533183022566,0.000443661064639155,0.0,0.0,0.0,0.0,0.0,0.0,0.0,-0.00019600115324291956,-0.0001758212164828521,-0.0001286216497182746,0.00020327367280659203,8.234565641029867e-06,-6.581062894683853e-05,1.8035525478077297e-05,-0.0003595399604734917,-0.0008196018091379067,0.00012629449127961426,-5.92636244944414e-06,-1.8676643767913725e-05,-0.00023470533183022566,-0.000443661064639155,0.6053096652030945,34.28908920288086,3.9220244884490967,-19.535249710083008,-0.2429099678993225,-1.783755898475647,0.06351034343242645,0
64,0.315000057220459,-0.5815059542655945,-34.31289291381836,-3.9220244884490967,19.511445999145508,0.2365012764930725,1.790164589881897,-0.04336874559521675,0.0,0.0,0.0,0.0,0.0,0.0,0.0,-0.5869875490764609,-0.19298670390616987,-0.3545057991090377,0.49474737960040993,0.18675906195190586,-0.11439275568684629,-0.04450792228595516,1.0546048062722506,0.3240389962614628,-0.3923759397314474,-2.1534933907692895,0.864750631405818,2.465942629407427,0.5444817450762622,1.0544104758940245,0.3238615046091247,-0.39250456234122666,-2.153291787532338,0.8647539153680389,2.46587817577521,0.5445020185570556,-0.0003785140313012032,0.0008192573127863773,0.0004101440337739531,0.0003331295318332129,0.00014595606865795945,9.848260825305934e-05,-0.00024144114810410722,0.0,0.0,0.0,0.0,0.0,0.0,0.0,-0.0001943303782261374,-0.00017749165233810205,-0.00012862260977924977,0.00020160323695161964,3.283962220934633e-06,-6.445363221718736e-05,2.0273480793364662e-05,0.0003785140313012032,-0.0008192573127863773,-0.0004101440337739531,-0.0003331295318332129,-0.00014595606865795945,-9.848260825305934e-05,0.00024144114810410722,0.5815059542655945,34.31289291381836,3.9220244884490967,-19.511445999145508,-0.2365012764930725,-1.790164589881897,0.04336874559521675,0
65,0.32000064849853516,-0.5815059542655945,-34.31289291381836,-3.9220244884490967,19.511445999145508,0.2365012764930725,1.790164589881897,-0.04336874559521675,0.0,0.0,0.0,0.0,0.0,0.0,0.0,-0.5869875490764609,-0.19298670390616987,-0.3545057991090377,0.49474737960040993,0.18675906195190586,-0.11439275568684629,-0.04450792228595516,1.0546048062722506,0.3240389962614628,-0.3923759397314474,-2.1534933907692895,0.864750631405818,2.465942629407427,0.5444817450762622,1.0544104758940245,0.3238615046091247,-0.39250456234122666,-2.153291787532338,0.8647539153680389,2.46587817577521,0.5445020185570556,-0.0003785140313012032,0.0008192573127863773,0.0004101440337739531,0.0003331295318332129,0.00014595606865795945,9.848260825305934e-05,-0.00024144114810410722,0.0,0.0,0.0,0.0,0.0,0.0,0.0,-0.0001943303782261374,-0.00017749165233810205,-0.00012862260977924977,0.00020160323695161964,3.283962220934633e-06,-6.445363221718736e-05,2.0273480793364662e-05,0.0003785140313012032,-0.0008192573127863773,-0.0004101440337739531,-0.0003331295318332129,-0.00014595606865795945,-9.848260825305934e-05,0.00024144114810410722,0.5815059542655945,34.31289291381836,3.9220244884490967,-19.511445999145508,-0.2365012764930725,-1.790164589881897,0.04336874559521675,0
66,0.3249673843383789,-0.6291133761405945,-34.26528549194336,-3.9220244884490967,19.511445999145508,0.2484031319618225,1.783755898475647,-0.05710165575146675,0.0,0.0,0.0,0.0,0.0,0.0,0.0,-0.5860227961930007,-0.18494715970771855,-0.349457536810162,0.48856776480724173,0.18646615088998653,-0.11470675461671602,-0.04589443733772913,1.054608147483121,0.3240356582786834,-0.39237591445783704,-2.1534933907692895,0.8647457768224199,2.465940756958822,0.5444800920407805,1.0544104758940245,0.3238615046091247,-0.39250456234122666,-2.153291787532338,0.8647539153680389,2.46587817577521,0.5445020185570556,0.000873751583991947,0.000522996550889573,0.00047879894512926435,-0.00021445472519434678,-0.0003107324439738664,0.00041974954540716997,0.000531884975860315,0.0,0.0,0.0,0.0,0.0,0.0,0.0,-0.00019767158909655969,-0.0001741536695586965,-0.00012864788338962097,0.00020160323695161964,8.138545618985304e-06,-6.25811836121315e-05,2.1926516275083685e-05,-0.000873751583991947,-0.000522996550889573,-0.00047879894512926435,0.00021445472519434678,0.0003107324439738664,-0.00041974954540716997,-0.000531884975860315,0.6291133761405945,34.26528549194336,3.9220244884490967,-19.511445999145508,-0.2484031319618225,-1.783755898475647,0.05710165575146675,0
67,0.32999587059020996,-0.6291133761405945,-34.26528549194336,-3.9220244884490967,19.511445999145508,0.2484031319618225,1.783755898475647,-0.05710165575146675,0.0,0.0,0.0,0.0,0.0,0.0,0.0,-0.5860227961930007,-0.18494715970771855,-0.349457536810162,0.48856776480724173,0.18646615088998653,-0.11470675461671602,-0.04589443733772913,1.054608147483121,0.3240356582786834,-0.39237591445783704,-2.1534933907692895,0.8647457768224199,2.465940756958822,0.5444800920407805,1.0544104758940245,0.3238615046091247,-0.39250456234122666,-2.153291787532338,0.8647539153680389,2.46587817577521,0.5445020185570556,0.000873751583991947,0.000522996550889573,0.00047879894512926435,-0.00021445472519434678,-0.0003107324439738664,0.00041974954540716997,0.000531884975860315,0.0,0.0,0.0,0.0,0.0,0.0,0.0,-0.00019767158909655969,-0.0001741536695586965,-0.00012864788338962097,0.00020160323695161964,8.138545618985304e-06,-6.25811836121315e-05,2.1926516275083685e-05,-0.000873751583991947,-0.000522996550889573,-0.00047879894512926435,0.00021445472519434678,0.0003107324439738664,-0.00041974954540716997,-0.000531884975860315,0.6291133761405945,34.26528549194336,3.9220244884490967,-19.511445999145508,-0.2484031319618225,-1.783755898475647,0.05710165575146675,0
68,0.3350083827972412,-0.6291133761405945,-34.23751449584961,-3.9497954845428467,19.487642288208008,0.2429099678993225,1.783755898475647,-0.06351034343242645,0.0,0.0,0.0,0.0,0.0,0.0,0.0,-0.5889047339612942,-0.1917502033921877,-0.3502019713876454,0.49269165329645287,0.18651713433954561,-0.11375857555438255,-0.045658700086387116,1.0546081474831228,0.32403370654793745,-0.3923739918615298,-2.153491720333434,0.8647499193349764,2.465943398045029,0.5444839830136324,1.0544104758940245,0.3238615046091247,-0.39250456234122666,-2.153291787532338,0.8647539153680389,2.46587817577521,0.5445020185570556,0.0010540967587575334,-0.00031759996440298814,0.0006387040220554249,0.0006302225344115006,-0.0002046018017651427,0.00015922106103666804,0.000648195924048023,0.0,0.0,0.0,0.0,0.0,0.0,0.0,-0.00019767158909833604,-0.0001722019388127327,-0.00013057047969683433,0.00019993280109620315,3.996033062558801e-06,-6.522226981919843e-05,1.8035543423167155e-05,-0.0010540967587575334,0.00031759996440298814,-0.0006387040220554249,-0.0006302225344115006,0.0002046018017651427,-0.00015922106103666804,-0.000648195924048023,0.6291133761405945,34.23751449584961,3.9497954845428467,-19.487642288208008,-0.2429099678993225,-1.783755898475647,0.06351034343242645,0
69,0.34004783630371094,-0.6291133761405945,-34.23751449584961,-3.9497954845428467,19.487642288208008,0.2429099678993225,1.783755898475647,-0.06351034343242645,0.0,0.0,0.0,0.0,0.0,0.0,0.0,-0.5889047339612942,-0.1917502033921877,-0.3502019713876454,0.49269165329645287,0.18651713433954561,-0.11375857555438255,-0.045658700086387116,1.0546081474831228,0.32403370654793745,-0.3923739918615298,-2.153491720333434,0.8647499193349764,2.465943398045029,0.5444839830136324,1.0544104758940245,0.3238615046091247,-0.39250456234122666,-2.153291787532338,0.8647539153680389,2.46587817577521,0.5445020185570556,0.0010540967587575334,-0.00031759996440298814,0.0006387040220554249,0.0006302225344115006,-0.0002046018017651427,0.00015922106103666804,0.000648195924048023,0.0,0.0,0.0,0.0,0.0,0.0,0.0,-0.00019767158909833604,-0.0001722019388127327,-0.00013057047969683433,0.00019993280109620315,3.996033062558801e-06,-6.522226981919843e-05,1.8035543423167155e-05,-0.0010540967587575334,0.00031759996440298814,-0.0006387040220554249,-0.0006302225344115006,0.0002046018017651427,-0.00015922106103666804,-0.000648195924048023,0.6291133761405945,34.23751449584961,3.9497954845428467,-19.487642288208008,-0.2429099678993225,-1.783755898475647,0.06351034343242645,0
70,0.3450601100921631,-0.6053096652030945,-34.26528549194336,-3.8982207775115967,19.511445999145508,0.2429099678993225,1.790164589881897,-0.002170015126466751,0.0,0.0,0.0,0.0,0.0,0.0,0.0,-0.5911030283379712,-0.19009164344108512,-0.352767651438921,0.4940029142235012,0.18675084157174174,-0.11386809191954475,-0.04547466478059615,1.0546064770472674,0.3240356553897523,-0.39237761081534384,-2.1534933907692895,0.8647467404405272,2.4659436927969374,0.5444771674395432,1.0544104758940245,0.3238615046091247,-0.39250456234122666,-2.153291787532338,0.8647539153680389,2.46587817577521,0.5445020185570556,-0.0002087535415578038,0.00041278730224559294,-0.0003661668448796966,0.00023172449534397408,-0.0001449959898057335,2.9544361296541283e-05,-0.004624329242449894,0.0,0.0,0.0,0.0,0.0,0.0,0.0,-0.00019600115324291956,-0.00017415078062760214,-0.00012695152588282355,0.00020160323695161964,7.174927511677254e-06,-6.551702172741258e-05,2.4851117512381116e-05,0.0002087535415578038,-0.00041278730224559294,0.0003661668448796966,-0.00023172449534397408,0.0001449959898057335,-2.9544361296541283e-05,0.004624329242449894,0.6053096652030945,34.26528549194336,3.8982207775115967,-19.511445999145508,-0.2429099678993225,-1.790164589881897,0.002170015126466751,0
71,0.34999656677246094,-0.6053096652030945,-34.26528549194336,-3.8982207775115967,19.511445999145508,0.2429099678993225,1.790164589881897,-0.002170015126466751,0.0,0.0,0.0,0.0,0.0,0.0,0.0,-0.5911030283379712,-0.19009164344108512,-0.352767651438921,0.4940029142235012,0.18675084157174174,-0.11386809191954475,-0.04547466478059615,1.0546064770472674,0.3240356553897523,-0.39237761081534384,-2.1534933907692895,0.8647467404405272,2.4659436927969374,0.5444771674395432,1.0544104758940245,0.3238615046091247,-0.39250456234122666,-2.153291787532338,0.8647539153680389,2.46587817577521,0.5445020185570556,-0.0002087535415578038,0.00041278730224559294,-0.0003661668448796966,0.00023172449534397408,-0.0001449959898057335,2.9544361296541283e-05,-0.004624329242449894,0.0,0.0,0.0,0.0,0.0,0.0,0.0,-0.00019600115324291956,-0.00017415078062760214,-0.00012695152588282355,0.00020160323695161964,7.174927511677254e-06,-6.551702172741258e-05,2.4851117512381116e-05,0.0002087535415578038,-0.00041278730224559294,0.0003661668448796966,-0.00023172449534397408,0.0001449959898057335,-2.9544361296541283e-05,0.004624329242449894,0.6053096652030945,34.26528549194336,3.8982207775115967,-19.511445999145508,-0.2429099678993225,-1.790164589881897,0.002170015126466751,0
72,0.3549940586090088,-0.5537349581718445,-34.26528549194336,-3.9220244884490967,19.535249710083008,0.2429099678993225,1.790164589881897,-0.008578706532716751,0.0,0.0,0.0,0.0,0.0,0.0,0.0,-0.5822440139979803,-0.1911519696503808,-0.34284084664806347,0.49892855232393846,0.18629666139960732,-0.11456057717216915,-0.04430421455971506,1.0546028577695812,0.3240356553897523,-0.39237591409781786,-2.1534950612051444,0.864749919175465,2.4659437326526468,0.5444782327290763,1.0544104758940245,0.3238615046091247,-0.39250456234122666,-2.153291787532338,0.8647539153680389,2.46587817577521,0.5445020185570556,-0.0005109502148471317,0.0001891786594214143,0.0004833838496457718,-0.00025617460581530874,8.60948765250561e-05,-8.652805505098457e-05,-0.0019080502632518152,0.0,0.0,0.0,0.0,0.0,0.0,0.0,-0.00019238187555670194,-0.00017415078062760214,-0.0001286482434088021,0.00020327367280659203,3.996192573962887e-06,-6.555687743681204e-05,2.3785827979350138e-05,0.0005109502148471317,-0.0001891786594214143,-0.0004833838496457718,0.00025617460581530874,-8.60948765250561e-05,8.652805505098457e-05,0.0019080502632518152,0.5537349581718445,34.26528549194336,3.9220244884490967,-19.535249710083008,-0.2429099678993225,-1.790164589881897,0.008578706532716751,0
73,0.3600478172302246,-0.5537349581718445,-34.26528549194336,-3.9220244884490967,19.535249710083008,0.2429099678993225,1.790164589881897,-0.008578706532716751,0.0,0.0,0.0,0.0,0.0,0.0,0.0,-0.5822440139979803,-0.1911519696503808,-0.34284084664806347,0.49892855232393846,0.18629666139960732,-0.11456057717216915,-0.04430421455971506,1.0546028577695812,0.3240356553897523,-0.39237591409781786,-2.1534950612051444,0.864749919175465,2.4659437326526468,0.5444782327290763,1.0544104758940245,0.3238615046091247,-0.39250456234122666,-2.153291787532338,0.8647539153680389,2.46587817577521,0.5445020185570556,-0.0005109502148471317,0.0001891786594214143,0.0004833838496457718,-0.00025617460581530874,8.60948765250561e-05,-8.652805505098457e-05,-0.0019080502632518152,0.0,0.0,0.0,0.0,0.0,0.0,0.0,-0.00019238187555670194,-0.00017415078062760214,-0.0001286482434088021,0.00020327367280659203,3.996192573962887e-06,-6.555687743681204e-05,2.3785827979350138e-05,0.0005109502148471317,-0.0001891786594214143,-0.0004833838496457718,0.00025617460581530874,-8.60948765250561e-05,8.652805505098457e-05,0.0019080502632518152,0.5537349581718445,34.26528549194336,3.9220244884490967,-19.535249710083008,-0.2429099678993225,-1.790164589881897,0.008578706532716751,0
74,0.36503076553344727,-0.5815059542655945,-34.28908920288086,-3.9497954845428467,19.511445999145508,0.2429099678993225,1.790164589881897,-0.06991903483867645,0.0,0.0,0.0,0.0,0.0,0.0,0.0,-0.5857993093607218,-0.1832717459444213,-0.3461962940399982,0.49364070251020004,0.18705825173062843,-0.11518697316953312,-0.04386792732832698,1.0546048066114122,0.3240373261465999,-0.3923739918616279,-2.1534933907692895,0.8647499188703985,2.465943393311752,0.544484695109065,1.0544104758940245,0.3238615046091247,-0.39250456234122666,-2.153291787532338,0.8647539153680389,2.46587817577521,0.5445020185570556,0.0002886501130418708,0.0007865762132963104,0.0013604822740645574,0.00014729079372746424,-6.085058764769052e-05,-8.624619777769562e-05,0.0011642830419480964,0.0,0.0,0.0,0.0,0.0,0.0,0.0,-0.00019433071738772512,-0.0001758215374751959,-0.00013057047959874613,0.00020160323695161964,3.9964976403794594e-06,-6.521753654187279e-05,1.732344799054708e-05,-0.0002886501130418708,-0.0007865762132963104,-0.0013604822740645574,-0.00014729079372746424,6.085058764769052e-05,8.624619777769562e-05,-0.0011642830419480964,0.5815059542655945,34.28908920288086,3.9497954845428467,-19.511445999145508,-0.2429099678993225,-1.790164589881897,0.06991903483867645,0
75,0.3700096607208252,-0.5815059542655945,-34.28908920288086,-3.9497954845428467,19.511445999145508,0.2429099678993225,1.790164589881897,-0.06991903483867645,0.0,0.0,0.0,0.0,0.0,0.0,0.0,-0.5857993093607218,-0.1832717459444213,-0.3461962940399982,0.49364070251020004,0.18705825173062843,-0.11518697316953312,-0.04386792732832698,1.0546048066114122,0.3240373261465999,-0.3923739918616279,-2.1534933907692895,0.8647499188703985,2.465943393311752,0.544484695109065,1.0544104758940245,0.3238615046091247,-0.39250456234122666,-2.153291787532338,0.8647539153680389,2.46587817577521,0.5445020185570556,0.0002886501130418708,0.0007865762132963104,0.0013604822740645574,0.00014729079372746424,-6.085058764769052e-05,-8.624619777769562e-05,0.0011642830419480964,0.0,0.0,0.0,0.0,0.0,0.0,0.0,-0.00019433071738772512,-0.0001758215374751959,-0.00013057047959874613,0.00020160323695161964,3.9964976403794594e-06,-6.521753654187279e-05,1.732344799054708e-05,-0.0002886501130418708,-0.0007865762132963104,-0.0013604822740645574,-0.00014729079372746424,6.085058764769052e-05,8.624619777769562e-05,-0.0011642830419480964,0.5815059542655945,34.28908920288086,3.9497954845428467,-19.511445999145508,-0.2429099678993225,-1.790164589881897,0.06991903483867645,0
76,0.3757174015045166,-0.5537349581718445,-34.26528549194336,-3.8982207775115967,19.511445999145508,0.2429099678993225,1.783755898475647,-0.04977743700146675,0.0,0.0,0.0,0.0,0.0,0.0,0.0,-0.5926415215494172,-0.19051567208428408,-0.3521398483906392,0.49911382047629604,0.18742550401917413,-0.11404300958826993,-0.043861539417080014,1.0546028577695812,0.3240356553897541,-0.3923776111393644,-2.1534933907692895,0.8647499193549129,2.4659408742161877,0.5444824571530852,1.0544104758940245,0.3238615046091247,-0.39250456234122666,-2.153291787532338,0.8647539153680389,2.46587817577521,0.5445020185570556,-0.0007119324284562676,3.814640357949407e-05,-0.0003628691148005882,0.000797264327267162,-9.019567640365047e-05,0.00022762705079487438,0.00019046137659439464,0.0,0.0,0.0,0.0,0.0,0.0,0.0,-0.00019238187555670194,-0.0001741507806293785,-0.0001269512018622354,0.00020160323695161964,3.996013126061904e-06,-6.269844097772648e-05,1.956140397041395e-05,0.0007119324284562676,-3.814640357949407e-05,0.0003628691148005882,-0.000797264327267162,9.019567640365047e-05,-0.00022762705079487438,-0.00019046137659439464,0.5537349581718445,34.26528549194336,3.8982207775115967,-19.511445999145508,-0.2429099678993225,-1.783755898475647,0.04977743700146675,0
77,0.37999653816223145,-0.5537349581718445,-34.26528549194336,-3.8982207775115967,19.511445999145508,0.2429099678993225,1.783755898475647,-0.04977743700146675,0.0,0.0,0.0,0.0,0.0,0.0,0.0,-0.5926415215494172,-0.19051567208428408,-0.3521398483906392,0.49911382047629604,0.18742550401917413,-0.11404300958826993,-0.043861539417080014,1.0546028577695812,0.3240356553897541,-0.3923776111393644,-2.1534933907692895,0.8647499193549129,2.4659408742161877,0.5444824571530852,1.0544104758940245,0.3238615046091247,-0.39250456234122666,-2.153291787532338,0.8647539153680389,2.46587817577521,0.5445020185570556,-0.0007119324284562676,3.814640357949407e-05,-0.0003628691148005882,0.000797264327267162,-9.019567640365047e-05,0.00022762705079487438,0.00019046137659439464,0.0,0.0,0.0,0.0,0.0,0.0,0.0,-0.00019238187555670194,-0.0001741507806293785,-0.0001269512018622354,0.00020160323695161964,3.996013126061904e-06,-6.269844097772648e-05,1.956140397041395e-05,0.0007119324284562676,-3.814640357949407e-05,0.0003628691148005882,-0.000797264327267162,9.019567640365047e-05,-0.00022762705079487438,-0.00019046137659439464,0.5537349581718445,34.26528549194336,3.8982207775115967,-19.511445999145508,-0.2429099678993225,-1.783755898475647,0.04977743700146675,0
78,0.3849954605102539,-0.6053096652030945,-34.26528549194336,-3.8982207775115967,19.535249710083008,0.2365012764930725,1.790164589881897,-0.03604452684521675,0.0,0.0,0.0,0.0,0.0,0.0,0.0,-0.5895378050803106,-0.1848956010312138,-0.34801220792109716,0.4933777355902826,0.186820736407398,-0.11485185048770681,-0.04493988272591509,1.0546064770472674,0.3240358893931725,-0.3923776111393644,-2.1534950612051444,0.8647506314317386,2.465940396734901,0.544480931274179,1.0544104758940245,0.3238615046091247,-0.39250456234122666,-2.153291787532338,0.8647539153680389,2.46587817577521,0.5445020185570556,0.0004505191165140953,0.00011145639022136397,-0.0005415914203376798,-0.00028430924576983195,0.0001889894523115355,-6.906367036141601e-05,-0.0004034966756630232,0.0,0.0,0.0,0.0,0.0,0.0,0.0,-0.00019600115324291956,-0.00017438478404779856,-0.0001269512018622354,0.00020327367280659203,3.2839363003356326e-06,-6.22209596912171e-05,2.1087282876641744e-05,-0.0004505191165140953,-0.00011145639022136397,0.0005415914203376798,0.00028430924576983195,-0.0001889894523115355,6.906367036141601e-05,0.0004034966756630232,0.6053096652030945,34.26528549194336,3.8982207775115967,-19.535249710083008,-0.2365012764930725,-1.790164589881897,0.03604452684521675,0
79,0.3899970054626465,-0.6053096652030945,-34.26528549194336,-3.8982207775115967,19.535249710083008,0.2365012764930725,1.790164589881897,-0.03604452684521675,0.0,0.0,0.0,0.0,0.0,0.0,0.0,-0.5895378050803106,-0.1848956010312138,-0.34801220792109716,0.4933777355902826,0.186820736407398,-0.11485185048770681,-0.04493988272591509,1.0546064770472674,0.3240358893931725,-0.3923776111393644,-2.1534950612051444,0.8647506314317386,2.465940396734901,0.544480931274179,1.0544104758940245,0.3238615046091247,-0.39250456234122666,-2.153291787532338,0.8647539153680389,2.46587817577521,0.5445020185570556,0.0004505191165140953,0.00011145639022136397,-0.0005415914203376798,-0.00028430924576983195,0.0001889894523115355,-6.906367036141601e-05,-0.0004034966756630232,0.0,0.0,0.0,0.0,0.0,0.0,0.0,-0.00019600115324291956,-0.00017438478404779856,-0.0001269512018622354,0.00020327367280659203,3.2839363003356326e-06,-6.22209596912171e-05,2.1087282876641744e-05,-0.0004505191165140953,-0.00011145639022136397,0.0005415914203376798,0.00028430924576983195,-0.0001889894523115355,6.906367036141601e-05,0.0004034966756630232,0.6053096652030945,34.26528549194336,3.8982207775115967,-19.535249710083008,-0.2365012764930725,-1.790164589881897,0.03604452684521675,0
80,0.3950047492980957,-0.6053096652030945,-34.26528549194336,-3.8982207775115967,19.535249710083008,0.2365012764930725,1.790164589881897,-0.03604452684521675,0.0,0.0,0.0,0.0,0.0,0.0,0.0,-0.5895378050803106,-0.1848956010312138,-0.34801220792109716,0.4933777355902826,0.186820736407398,-0.11485185048770681,-0.04493988272591509,1.0546064770472674,0.3240358893931725,-0.3923776111393644,-2.1534950612051444,0.8647506314317386,2.465940396734901,0.544480931274179,1.0544104758940245,0.3238615046091247,-0.39250456234122666,-2.153291787532338,0.8647539153680389,2.46587817577521,0.5445020185570556,0.0004505191165140953,0.00011145639022136397,-0.0005415914203376798,-0.00028430924576983195,0.0001889894523115355,-6.906367036141601e-05,-0.0004034966756630232,0.0,0.0,0.0,0.0,0.0,0.0,0.0,-0.00019600115324291956,-0.00017438478404779856,-0.0001269512018622354,0.00020327367280659203,3.2839363003356326e-06,-6.22209596912171e-05,2.1087282876641744e-05,-0.0004505191165140953,-0.00011145639022136397,0.0005415914203376798,0.00028430924576983195,-0.0001889894523115355,6.906367036141601e-05,0.0004034966756630232,0.6053096652030945,34.26528549194336,3.8982207775115967,-19.535249710083008,-0.2365012764930725,-1.790164589881897,0.03604452684521675,0
