rezayati/contactInterpretation/dataset/franka_main/labeled_data/link4/d5_4.csv
index,time,tau_J0,tau_J1,tau_J2,tau_J3,tau_J4,tau_J5,tau_J6,tau_J_d0,tau_J_d1,tau_J_d2,tau_J_d3,tau_J_d4,tau_J_d5,tau_J_d6,tau_ext0,tau_ext1,tau_ext2,tau_ext3,tau_ext4,tau_ext5,tau_ext6,q0,q1,q2,q3,q4,q5,q6,q_d0,q_d1,q_d2,q_d3,q_d4,q_d5,q_d6,dq0,dq1,dq2,dq3,dq4,dq5,dq6,dq_d0,dq_d1,dq_d2,dq_d3,dq_d4,dq_d5,dq_d6,e0,e1,e2,e3,e4,e5,e6,de0,de1,de2,de3,de4,de5,de6,etau_J0,etau_J1,etau_J2,etau_J3,etau_J4,etau_J5,etau_J6,label
1,0.0,-0.3514034152030945,-19.868005752563477,-0.3990752398967743,20.031160354614258,0.5642600655555725,2.4694857597351074,-0.24112264811992645,0.0,0.0,0.0,0.0,0.0,0.0,0.0,-0.38833616450264824,-0.11173639775884205,-0.2162050444266838,0.25539307961895696,-0.018451504578560957,0.09245571942113832,-0.2025696414263967,1.2135121658015668,-0.2203043510558312,-0.007328359786554144,-2.6042806897414357,-0.10895616453883283,2.468121322684818,0.8264733246084717,1.2134413937687574,-0.2202432315892585,-0.0075118285948192216,-2.6038483821997875,-0.10888392708698907,2.4681821257803174,0.826474908251239,-0.0007458482228127165,0.0008191747020029628,-0.00033742713202263594,0.00022049940145746398,0.003125532282569447,-0.00014457041813590148,-0.004984010925563452,0.0,0.0,0.0,0.0,0.0,0.0,0.0,-7.077203280947408e-05,6.111946657272327e-05,-0.00018346880826507726,0.0004323075416481359,7.223745184375963e-05,6.080309549938434e-05,1.5836427673665554e-06,0.0007458482228127165,-0.0008191747020029628,0.00033742713202263594,-0.00022049940145746398,-0.003125532282569447,0.00014457041813590148,0.004984010925563452,0.3514034152030945,19.868005752563477,0.3990752398967743,-20.031160354614258,-0.5642600655555725,-2.4694857597351074,0.24112264811992645,0
2,0.004990816116333008,-0.3752071261405945,-19.844202041625977,-0.3990752398967743,20.007356643676758,0.5697532296180725,2.4630770683288574,-0.22098104655742645,0.0,0.0,0.0,0.0,0.0,0.0,0.0,-0.3908530631648898,-0.1276231137667293,-0.22079571461869346,0.2867372338140995,-0.016605857785061365,0.09690235291539999,-0.20174967989274925,1.2135138362374223,-0.2203060214916865,-0.007327972092669882,-2.6042790193055807,-0.10895783949560589,2.468122034761641,0.8264710866527425,1.2134413937687574,-0.2202432315892585,-0.0075118285948192216,-2.6038483821997875,-0.10888392708698907,2.4681821257803174,0.826474908251239,-0.00030297429592534756,0.00024669243397041626,-0.00043461954945462033,-0.0021770443863478434,0.00010777216998872118,9.273918340983155e-05,0.0007332380923803609,0.0,0.0,0.0,0.0,0.0,0.0,0.0,-7.244246866489057e-05,6.278990242800098e-05,-0.00018385650214933994,0.0004306371057931635,7.391240861681636e-05,6.009101867654465e-05,3.8215984965450644e-06,0.00030297429592534756,-0.00024669243397041626,0.00043461954945462033,0.0021770443863478434,-0.00010777216998872118,-9.273918340983155e-05,-0.0007332380923803609,0.3752071261405945,19.844202041625977,0.3990752398967743,-20.007356643676758,-0.5697532296180725,-2.4630770683288574,0.22098104655742645,0
3,0.009988069534301758,-0.3752071261405945,-19.844202041625977,-0.3990752398967743,20.007356643676758,0.5697532296180725,2.4630770683288574,-0.22098104655742645,0.0,0.0,0.0,0.0,0.0,0.0,0.0,-0.3908530631648898,-0.1276231137667293,-0.22079571461869346,0.2867372338140995,-0.016605857785061365,0.09690235291539999,-0.20174967989274925,1.2135138362374223,-0.2203060214916865,-0.007327972092669882,-2.6042790193055807,-0.10895783949560589,2.468122034761641,0.8264710866527425,1.2134413937687574,-0.2202432315892585,-0.0075118285948192216,-2.6038483821997875,-0.10888392708698907,2.4681821257803174,0.826474908251239,-0.00030297429592534756,0.00024669243397041626,-0.00043461954945462033,-0.0021770443863478434,0.00010777216998872118,9.273918340983155e-05,0.0007332380923803609,0.0,0.0,0.0,0.0,0.0,0.0,0.0,-7.244246866489057e-05,6.278990242800098e-05,-0.00018385650214933994,0.0004306371057931635,7.391240861681636e-05,6.009101867654465e-05,3.8215984965450644e-06,0.00030297429592534756,-0.00024669243397041626,0.00043461954945462033,0.0021770443863478434,-0.00010777216998872118,-9.273918340983155e-05,-0.0007332380923803609,0.3752071261405945,19.844202041625977,0.3990752398967743,-20.007356643676758,-0.5697532296180725,-2.4630770683288574,0.22098104655742645,0
4,0.014987707138061523,-0.3752071261405945,-19.844202041625977,-0.3990752398967743,20.007356643676758,0.5697532296180725,2.4630770683288574,-0.22098104655742645,0.0,0.0,0.0,0.0,0.0,0.0,0.0,-0.3908530631648898,-0.1276231137667293,-0.22079571461869346,0.2867372338140995,-0.016605857785061365,0.09690235291539999,-0.20174967989274925,1.2135138362374223,-0.2203060214916865,-0.007327972092669882,-2.6042790193055807,-0.10895783949560589,2.468122034761641,0.8264710866527425,1.2134413937687574,-0.2202432315892585,-0.0075118285948192216,-2.6038483821997875,-0.10888392708698907,2.4681821257803174,0.826474908251239,-0.00030297429592534756,0.00024669243397041626,-0.00043461954945462033,-0.0021770443863478434,0.00010777216998872118,9.273918340983155e-05,0.0007332380923803609,0.0,0.0,0.0,0.0,0.0,0.0,0.0,-7.244246866489057e-05,6.278990242800098e-05,-0.00018385650214933994,0.0004306371057931635,7.391240861681636e-05,6.009101867654465e-05,3.8215984965450644e-06,0.00030297429592534756,-0.00024669243397041626,0.00043461954945462033,0.0021770443863478434,-0.00010777216998872118,-9.273918340983155e-05,-0.0007332380923803609,0.3752071261405945,19.844202041625977,0.3990752398967743,-20.007356643676758,-0.5697532296180725,-2.4630770683288574,0.22098104655742645,0
5,0.019987821578979492,-0.3752071261405945,-19.844202041625977,-0.3990752398967743,20.007356643676758,0.5697532296180725,2.4630770683288574,-0.22098104655742645,0.0,0.0,0.0,0.0,0.0,0.0,0.0,-0.3908530631648898,-0.1276231137667293,-0.22079571461869346,0.2867372338140995,-0.016605857785061365,0.09690235291539999,-0.20174967989274925,1.2135138362374223,-0.2203060214916865,-0.007327972092669882,-2.6042790193055807,-0.10895783949560589,2.468122034761641,0.8264710866527425,1.2134413937687574,-0.2202432315892585,-0.0075118285948192216,-2.6038483821997875,-0.10888392708698907,2.4681821257803174,0.826474908251239,-0.00030297429592534756,0.00024669243397041626,-0.00043461954945462033,-0.0021770443863478434,0.00010777216998872118,9.273918340983155e-05,0.0007332380923803609,0.0,0.0,0.0,0.0,0.0,0.0,0.0,-7.244246866489057e-05,6.278990242800098e-05,-0.00018385650214933994,0.0004306371057931635,7.391240861681636e-05,6.009101867654465e-05,3.8215984965450644e-06,0.00030297429592534756,-0.00024669243397041626,0.00043461954945462033,0.0021770443863478434,-0.00010777216998872118,-9.273918340983155e-05,-0.0007332380923803609,0.3752071261405945,19.844202041625977,0.3990752398967743,-20.007356643676758,-0.5697532296180725,-2.4630770683288574,0.22098104655742645,0
6,0.025002717971801758,-0.4267818331718445,-19.868005752563477,-0.4228789508342743,20.031160354614258,0.5816550850868225,2.4694857597351074,-0.17978231608867645,0.0,0.0,0.0,0.0,0.0,0.0,0.0,-0.3942959720953159,-0.12053737811965484,-0.22322687669376312,0.2710128164031704,-0.016198799567622147,0.0944358475881989,-0.2011980298423625,1.2135174555151087,-0.2203043510558312,-0.007326059044998127,-2.6042806897414357,-0.10895809732481795,2.468121322684818,0.8264665090160237,1.2134413937687574,-0.2202432315892585,-0.0075118285948192216,-2.6038483821997875,-0.10888392708698907,2.4681821257803174,0.826474908251239,0.000409154915002904,0.0002369527378252782,-0.00019504170974778555,-0.00039811160292348353,-0.0003754944358939118,-0.0001980319230376208,-0.0007223930160498741,0.0,0.0,0.0,0.0,0.0,0.0,0.0,-7.606174635133023e-05,6.111946657272327e-05,-0.0001857695498210946,0.0004323075416481359,7.417023782887999e-05,6.080309549938434e-05,8.399235215339473e-06,-0.000409154915002904,-0.0002369527378252782,0.00019504170974778555,0.00039811160292348353,0.0003754944358939118,0.0001980319230376208,0.0007223930160498741,0.4267818331718445,19.868005752563477,0.4228789508342743,-20.031160354614258,-0.5816550850868225,-2.4694857597351074,0.17978231608867645,0
7,0.03000354766845703,-0.4267818331718445,-19.868005752563477,-0.4228789508342743,20.031160354614258,0.5816550850868225,2.4694857597351074,-0.17978231608867645,0.0,0.0,0.0,0.0,0.0,0.0,0.0,-0.3942959720953159,-0.12053737811965484,-0.22322687669376312,0.2710128164031704,-0.016198799567622147,0.0944358475881989,-0.2011980298423625,1.2135174555151087,-0.2203043510558312,-0.007326059044998127,-2.6042806897414357,-0.10895809732481795,2.468121322684818,0.8264665090160237,1.2134413937687574,-0.2202432315892585,-0.0075118285948192216,-2.6038483821997875,-0.10888392708698907,2.4681821257803174,0.826474908251239,0.000409154915002904,0.0002369527378252782,-0.00019504170974778555,-0.00039811160292348353,-0.0003754944358939118,-0.0001980319230376208,-0.0007223930160498741,0.0,0.0,0.0,0.0,0.0,0.0,0.0,-7.606174635133023e-05,6.111946657272327e-05,-0.0001857695498210946,0.0004323075416481359,7.417023782887999e-05,6.080309549938434e-05,8.399235215339473e-06,-0.000409154915002904,-0.0002369527378252782,0.00019504170974778555,0.00039811160292348353,0.0003754944358939118,0.0001980319230376208,0.0007223930160498741,0.4267818331718445,19.868005752563477,0.4228789508342743,-20.031160354614258,-0.5816550850868225,-2.4694857597351074,0.17978231608867645,0
8,0.03502225875854492,-0.4267818331718445,-19.868005752563477,-0.4228789508342743,20.031160354614258,0.5816550850868225,2.4694857597351074,-0.17978231608867645,0.0,0.0,0.0,0.0,0.0,0.0,0.0,-0.3942959720953159,-0.12053737811965484,-0.22322687669376312,0.2710128164031704,-0.016198799567622147,0.0944358475881989,-0.2011980298423625,1.2135174555151087,-0.2203043510558312,-0.007326059044998127,-2.6042806897414357,-0.10895809732481795,2.468121322684818,0.8264665090160237,1.2134413937687574,-0.2202432315892585,-0.0075118285948192216,-2.6038483821997875,-0.10888392708698907,2.4681821257803174,0.826474908251239,0.000409154915002904,0.0002369527378252782,-0.00019504170974778555,-0.00039811160292348353,-0.0003754944358939118,-0.0001980319230376208,-0.0007223930160498741,0.0,0.0,0.0,0.0,0.0,0.0,0.0,-7.606174635133023e-05,6.111946657272327e-05,-0.0001857695498210946,0.0004323075416481359,7.417023782887999e-05,6.080309549938434e-05,8.399235215339473e-06,-0.000409154915002904,-0.0002369527378252782,0.00019504170974778555,0.00039811160292348353,0.0003754944358939118,0.0001980319230376208,0.0007223930160498741,0.4267818331718445,19.868005752563477,0.4228789508342743,-20.031160354614258,-0.5816550850868225,-2.4694857597351074,0.17978231608867645,0
9,0.04001927375793457,-0.4267818331718445,-19.868005752563477,-0.4228789508342743,20.031160354614258,0.5816550850868225,2.4694857597351074,-0.17978231608867645,0.0,0.0,0.0,0.0,0.0,0.0,0.0,-0.3942959720953159,-0.12053737811965484,-0.22322687669376312,0.2710128164031704,-0.016198799567622147,0.0944358475881989,-0.2011980298423625,1.2135174555151087,-0.2203043510558312,-0.007326059044998127,-2.6042806897414357,-0.10895809732481795,2.468121322684818,0.8264665090160237,1.2134413937687574,-0.2202432315892585,-0.0075118285948192216,-2.6038483821997875,-0.10888392708698907,2.4681821257803174,0.826474908251239,0.000409154915002904,0.0002369527378252782,-0.00019504170974778555,-0.00039811160292348353,-0.0003754944358939118,-0.0001980319230376208,-0.0007223930160498741,0.0,0.0,0.0,0.0,0.0,0.0,0.0,-7.606174635133023e-05,6.111946657272327e-05,-0.0001857695498210946,0.0004323075416481359,7.417023782887999e-05,6.080309549938434e-05,8.399235215339473e-06,-0.000409154915002904,-0.0002369527378252782,0.00019504170974778555,0.00039811160292348353,0.0003754944358939118,0.0001980319230376208,0.0007223930160498741,0.4267818331718445,19.868005752563477,0.4228789508342743,-20.031160354614258,-0.5816550850868225,-2.4694857597351074,0.17978231608867645,0
10,0.04500174522399902,-0.4267818331718445,-19.868005752563477,-0.4228789508342743,20.031160354614258,0.5816550850868225,2.4694857597351074,-0.17978231608867645,0.0,0.0,0.0,0.0,0.0,0.0,0.0,-0.3942959720953159,-0.12053737811965484,-0.22322687669376312,0.2710128164031704,-0.016198799567622147,0.0944358475881989,-0.2011980298423625,1.2135174555151087,-0.2203043510558312,-0.007326059044998127,-2.6042806897414357,-0.10895809732481795,2.468121322684818,0.8264665090160237,1.2134413937687574,-0.2202432315892585,-0.0075118285948192216,-2.6038483821997875,-0.10888392708698907,2.4681821257803174,0.826474908251239,0.000409154915002904,0.0002369527378252782,-0.00019504170974778555,-0.00039811160292348353,-0.0003754944358939118,-0.0001980319230376208,-0.0007223930160498741,0.0,0.0,0.0,0.0,0.0,0.0,0.0,-7.606174635133023e-05,6.111946657272327e-05,-0.0001857695498210946,0.0004323075416481359,7.417023782887999e-05,6.080309549938434e-05,8.399235215339473e-06,-0.000409154915002904,-0.0002369527378252782,0.00019504170974778555,0.00039811160292348353,0.0003754944358939118,0.0001980319230376208,0.0007223930160498741,0.4267818331718445,19.868005752563477,0.4228789508342743,-20.031160354614258,-0.5816550850868225,-2.4694857597351074,0.17978231608867645,0
11,0.04999947547912598,-0.4029781222343445,-19.816431045532227,-0.4228789508342743,20.031160354614258,0.5697532296180725,2.4566683769226074,-0.22830526530742645,0.0,0.0,0.0,0.0,0.0,0.0,0.0,-0.3978206759276236,-0.1037032879781184,-0.22686814084281615,0.24627085648514394,-0.014658203527443575,0.09182510012731014,-0.20071701914817017,1.2135157850792533,-0.22030797033351762,-0.007327010720136745,-2.6042806897414357,-0.10895677489042283,2.4681227468923725,0.8264719006183252,1.2134413937687574,-0.2202432315892585,-0.0075118285948192216,-2.6038483821997875,-0.10888392708698907,2.4681821257803174,0.826474908251239,0.00038487101111393324,-0.00031982302564450426,-0.000586036669663038,5.915003991596501e-05,-0.00010812657424709733,0.00027533669755161987,0.0014666579791588643,0.0,0.0,0.0,0.0,0.0,0.0,0.0,-7.439131049591374e-05,6.473874425913517e-05,-0.00018481787468247694,0.0004323075416481359,7.284780343375097e-05,5.9378887944827596e-05,3.0076329138317703e-06,-0.00038487101111393324,0.00031982302564450426,0.000586036669663038,-5.915003991596501e-05,0.00010812657424709733,-0.00027533669755161987,-0.0014666579791588643,0.4029781222343445,19.816431045532227,0.4228789508342743,-20.031160354614258,-0.5697532296180725,-2.4566683769226074,0.22830526530742645,0
12,0.05502200126647949,-0.4029781222343445,-19.816431045532227,-0.4228789508342743,20.031160354614258,0.5697532296180725,2.4566683769226074,-0.22830526530742645,0.0,0.0,0.0,0.0,0.0,0.0,0.0,-0.3978206759276236,-0.1037032879781184,-0.22686814084281615,0.24627085648514394,-0.014658203527443575,0.09182510012731014,-0.20071701914817017,1.2135157850792533,-0.22030797033351762,-0.007327010720136745,-2.6042806897414357,-0.10895677489042283,2.4681227468923725,0.8264719006183252,1.2134413937687574,-0.2202432315892585,-0.0075118285948192216,-2.6038483821997875,-0.10888392708698907,2.4681821257803174,0.826474908251239,0.00038487101111393324,-0.00031982302564450426,-0.000586036669663038,5.915003991596501e-05,-0.00010812657424709733,0.00027533669755161987,0.0014666579791588643,0.0,0.0,0.0,0.0,0.0,0.0,0.0,-7.439131049591374e-05,6.473874425913517e-05,-0.00018481787468247694,0.0004323075416481359,7.284780343375097e-05,5.9378887944827596e-05,3.0076329138317703e-06,-0.00038487101111393324,0.00031982302564450426,0.000586036669663038,-5.915003991596501e-05,0.00010812657424709733,-0.00027533669755161987,-0.0014666579791588643,0.4029781222343445,19.816431045532227,0.4228789508342743,-20.031160354614258,-0.5697532296180725,-2.4566683769226074,0.22830526530742645,0
13,0.060001373291015625,-0.4267818331718445,-19.816431045532227,-0.4466826617717743,20.007356643676758,0.5761619210243225,2.4630770683288574,-0.21457235515117645,0.0,0.0,0.0,0.0,0.0,0.0,0.0,-0.3915550816596992,-0.10507331609089261,-0.2226233230533837,0.2469267279002656,-0.015023411822053289,0.09180213467915405,-0.19995226025959897,1.2135174555151087,-0.22030797033351762,-0.0073253696595143615,-2.6042790193055807,-0.10895749134833702,2.4681223879743506,0.8264703745759204,1.2134413937687574,-0.2202432315892585,-0.0075118285948192216,-2.6038483821997875,-0.10888392708698907,2.4681821257803174,0.826474908251239,0.0005504739229553675,-0.0004007835765415347,0.00042835644657628134,0.00031761816502008514,-0.00026468453018623243,2.2555229367372667e-05,0.001197006207011153,0.0,0.0,0.0,0.0,0.0,0.0,0.0,-7.606174635133023e-05,6.473874425913517e-05,-0.00018645893530486006,0.0004306371057931635,7.356426134794147e-05,5.973780596679745e-05,4.5336753186075995e-06,-0.0005504739229553675,0.0004007835765415347,-0.00042835644657628134,-0.00031761816502008514,0.00026468453018623243,-2.2555229367372667e-05,-0.001197006207011153,0.4267818331718445,19.816431045532227,0.4466826617717743,-20.007356643676758,-0.5761619210243225,-2.4630770683288574,0.21457235515117645,0
14,0.06499671936035156,-0.4267818331718445,-19.816431045532227,-0.4466826617717743,20.007356643676758,0.5761619210243225,2.4630770683288574,-0.21457235515117645,0.0,0.0,0.0,0.0,0.0,0.0,0.0,-0.3915550816596992,-0.10507331609089261,-0.2226233230533837,0.2469267279002656,-0.015023411822053289,0.09180213467915405,-0.19995226025959897,1.2135174555151087,-0.22030797033351762,-0.0073253696595143615,-2.6042790193055807,-0.10895749134833702,2.4681223879743506,0.8264703745759204,1.2134413937687574,-0.2202432315892585,-0.0075118285948192216,-2.6038483821997875,-0.10888392708698907,2.4681821257803174,0.826474908251239,0.0005504739229553675,-0.0004007835765415347,0.00042835644657628134,0.00031761816502008514,-0.00026468453018623243,2.2555229367372667e-05,0.001197006207011153,0.0,0.0,0.0,0.0,0.0,0.0,0.0,-7.606174635133023e-05,6.473874425913517e-05,-0.00018645893530486006,0.0004306371057931635,7.356426134794147e-05,5.973780596679745e-05,4.5336753186075995e-06,-0.0005504739229553675,0.0004007835765415347,-0.00042835644657628134,-0.00031761816502008514,0.00026468453018623243,-2.2555229367372667e-05,-0.001197006207011153,0.4267818331718445,19.816431045532227,0.4466826617717743,-20.007356643676758,-0.5761619210243225,-2.4630770683288574,0.21457235515117645,0
15,0.06999468803405762,-0.4029781222343445,-19.844202041625977,-0.3990752398967743,20.007356643676758,0.5697532296180725,2.4694857597351074,-0.19351522624492645,0.0,0.0,0.0,0.0,0.0,0.0,0.0,-0.39492590489559765,-0.10727688967869999,-0.223073138862076,0.25275689431198173,-0.015049282660866286,0.09292403852475523,-0.20001655303012786,1.2135157850792533,-0.2203060214916865,-0.007328681955122816,-2.604278772056684,-0.10895358107489835,2.4681213226868115,0.8264680347334245,1.2134413937687574,-0.2202432315892585,-0.0075118285948192216,-2.6038483821997875,-0.10888392708698907,2.4681821257803174,0.826474908251239,-0.0002044548528730705,0.00011385020212944343,-0.0008340611280761543,0.0009706455808518931,-1.2148148750655581e-05,-0.00018213689651488477,-0.0002515795466500239,0.0,0.0,0.0,0.0,0.0,0.0,0.0,-7.439131049591374e-05,6.278990242800098e-05,-0.00018314663969640557,0.00043038985689625164,6.965398790927113e-05,6.080309350586788e-05,6.873517814587338e-06,0.0002044548528730705,-0.00011385020212944343,0.0008340611280761543,-0.0009706455808518931,1.2148148750655581e-05,0.00018213689651488477,0.0002515795466500239,0.4029781222343445,19.844202041625977,0.3990752398967743,-20.007356643676758,-0.5697532296180725,-2.4694857597351074,0.19351522624492645,0
16,0.07503962516784668,-0.4029781222343445,-19.844202041625977,-0.3990752398967743,20.007356643676758,0.5697532296180725,2.4694857597351074,-0.19351522624492645,0.0,0.0,0.0,0.0,0.0,0.0,0.0,-0.39492590489559765,-0.10727688967869999,-0.223073138862076,0.25275689431198173,-0.015049282660866286,0.09292403852475523,-0.20001655303012786,1.2135157850792533,-0.2203060214916865,-0.007328681955122816,-2.604278772056684,-0.10895358107489835,2.4681213226868115,0.8264680347334245,1.2134413937687574,-0.2202432315892585,-0.0075118285948192216,-2.6038483821997875,-0.10888392708698907,2.4681821257803174,0.826474908251239,-0.0002044548528730705,0.00011385020212944343,-0.0008340611280761543,0.0009706455808518931,-1.2148148750655581e-05,-0.00018213689651488477,-0.0002515795466500239,0.0,0.0,0.0,0.0,0.0,0.0,0.0,-7.439131049591374e-05,6.278990242800098e-05,-0.00018314663969640557,0.00043038985689625164,6.965398790927113e-05,6.080309350586788e-05,6.873517814587338e-06,0.0002044548528730705,-0.00011385020212944343,0.0008340611280761543,-0.0009706455808518931,1.2148148750655581e-05,0.00018213689651488477,0.0002515795466500239,0.4029781222343445,19.844202041625977,0.3990752398967743,-20.007356643676758,-0.5697532296180725,-2.4694857597351074,0.19351522624492645,0
17,0.07998895645141602,-0.4029781222343445,-19.868005752563477,-0.4466826617717743,20.007356643676758,0.5697532296180725,2.4566683769226074,-0.17978231608867645,0.0,0.0,0.0,0.0,0.0,0.0,0.0,-0.3983191333062148,-0.10267565340934812,-0.2228552103094944,0.24591883241269114,-0.015778192104388914,0.09145191986817904,-0.20121750080030731,1.2135157850792533,-0.2203043510558312,-0.007325341407981294,-2.604279019304185,-0.10895571026721057,2.4681227468384637,0.8264665090160228,1.2134413937687574,-0.2202432315892585,-0.0075118285948192216,-2.6038483821997875,-0.10888392708698907,2.4681821257803174,0.826474908251239,0.00010886855442090545,0.0005531493161036673,0.0003787965012532363,0.00019414760298608815,-0.00022685995506462202,0.0004281319769577551,-0.000843710888675648,0.0,0.0,0.0,0.0,0.0,0.0,0.0,-7.439131049591374e-05,6.111946657272327e-05,-0.00018648718683792788,0.0004306371043973911,7.178318022149632e-05,5.937894185370496e-05,8.399235216227652e-06,-0.00010886855442090545,-0.0005531493161036673,-0.0003787965012532363,-0.00019414760298608815,0.00022685995506462202,-0.0004281319769577551,0.000843710888675648,0.4029781222343445,19.868005752563477,0.4466826617717743,-20.007356643676758,-0.5697532296180725,-2.4566683769226074,0.17978231608867645,0
18,0.08495497703552246,-0.4029781222343445,-19.868005752563477,-0.4466826617717743,20.007356643676758,0.5697532296180725,2.4566683769226074,-0.17978231608867645,0.0,0.0,0.0,0.0,0.0,0.0,0.0,-0.3983191333062148,-0.10267565340934812,-0.2228552103094944,0.24591883241269114,-0.015778192104388914,0.09145191986817904,-0.20121750080030731,1.2135157850792533,-0.2203043510558312,-0.007325341407981294,-2.604279019304185,-0.10895571026721057,2.4681227468384637,0.8264665090160228,1.2134413937687574,-0.2202432315892585,-0.0075118285948192216,-2.6038483821997875,-0.10888392708698907,2.4681821257803174,0.826474908251239,0.00010886855442090545,0.0005531493161036673,0.0003787965012532363,0.00019414760298608815,-0.00022685995506462202,0.0004281319769577551,-0.000843710888675648,0.0,0.0,0.0,0.0,0.0,0.0,0.0,-7.439131049591374e-05,6.111946657272327e-05,-0.00018648718683792788,0.0004306371043973911,7.178318022149632e-05,5.937894185370496e-05,8.399235216227652e-06,-0.00010886855442090545,-0.0005531493161036673,-0.0003787965012532363,-0.00019414760298608815,0.00022685995506462202,-0.0004281319769577551,0.000843710888675648,0.4029781222343445,19.868005752563477,0.4466826617717743,-20.007356643676758,-0.5697532296180725,-2.4566683769226074,0.17978231608867645,0
19,0.08999300003051758,-0.3752071261405945,-19.792627334594727,-0.4228789508342743,20.082735061645508,0.5642600655555725,2.4493441581726074,-0.17337362468242645,0.0,0.0,0.0,0.0,0.0,0.0,0.0,-0.3965690144707775,-0.1076964392605764,-0.22124490545436032,0.24924031980221806,-0.01708252229707864,0.09256288012910883,-0.20172625778258652,1.2135138362374223,-0.22030964076937287,-0.00732633088403367,-2.6042820837790503,-0.10895616452083083,2.468123560640547,0.8264657969392009,1.2134413937687574,-0.2202432315892585,-0.0075118285948192216,-2.6038483821997875,-0.10888392708698907,2.4681821257803174,0.826474908251239,-0.0002333160445203582,-0.0015784611814127563,0.00045187985627035695,-0.0017205210630851884,2.7967061298115647e-05,0.0005143745529600514,-0.0008420187399640355,0.0,0.0,0.0,0.0,0.0,0.0,0.0,-7.244246866489057e-05,6.640918011438512e-05,-0.0001854977107855517,0.00043370157926281294,7.223743384175696e-05,5.856513977020583e-05,9.111312038179165e-06,0.0002333160445203582,0.0015784611814127563,-0.00045187985627035695,0.0017205210630851884,-2.7967061298115647e-05,-0.0005143745529600514,0.0008420187399640355,0.3752071261405945,19.792627334594727,0.4228789508342743,-20.082735061645508,-0.5642600655555725,-2.4493441581726074,0.17337362468242645,0
20,0.09502053260803223,-0.3752071261405945,-19.792627334594727,-0.4228789508342743,20.082735061645508,0.5642600655555725,2.4493441581726074,-0.17337362468242645,0.0,0.0,0.0,0.0,0.0,0.0,0.0,-0.3965690144707775,-0.1076964392605764,-0.22124490545436032,0.24924031980221806,-0.01708252229707864,0.09256288012910883,-0.20172625778258652,1.2135138362374223,-0.22030964076937287,-0.00732633088403367,-2.6042820837790503,-0.10895616452083083,2.468123560640547,0.8264657969392009,1.2134413937687574,-0.2202432315892585,-0.0075118285948192216,-2.6038483821997875,-0.10888392708698907,2.4681821257803174,0.826474908251239,-0.0002333160445203582,-0.0015784611814127563,0.00045187985627035695,-0.0017205210630851884,2.7967061298115647e-05,0.0005143745529600514,-0.0008420187399640355,0.0,0.0,0.0,0.0,0.0,0.0,0.0,-7.244246866489057e-05,6.640918011438512e-05,-0.0001854977107855517,0.00043370157926281294,7.223743384175696e-05,5.856513977020583e-05,9.111312038179165e-06,0.0002333160445203582,0.0015784611814127563,-0.00045187985627035695,0.0017205210630851884,-2.7967061298115647e-05,-0.0005143745529600514,0.0008420187399640355,0.3752071261405945,19.792627334594727,0.4228789508342743,-20.082735061645508,-0.5642600655555725,-2.4493441581726074,0.17337362468242645,0
21,0.09999322891235352,-0.3752071261405945,-19.868005752563477,-0.3990752398967743,20.031160354614258,0.5523582100868225,2.4493441581726074,-0.22830526530742645,0.0,0.0,0.0,0.0,0.0,0.0,0.0,-0.390740997723069,-0.10560540534090185,-0.21575326331644684,0.24998528248789006,-0.017881294170698257,0.0930184325660857,-0.20154301069518057,1.2135138362374223,-0.2203043510558312,-0.00732867336647915,-2.6042806897372484,-0.10895484211047486,2.468123560640547,0.8264719004548258,1.2134413937687574,-0.2202432315892585,-0.0075118285948192216,-2.6038483821997875,-0.10888392708698907,2.4681821257803174,0.826474908251239,0.0005123114920043232,0.0007212584841980842,-1.7319033719355986e-05,0.00012046868041653881,0.00041999568486457433,0.0005188861809010538,0.0010726081708331196,0.0,0.0,0.0,0.0,0.0,0.0,0.0,-7.244246866489057e-05,6.111946657272327e-05,-0.00018315522834007163,0.00043230753746081874,7.091502348578749e-05,5.856513977020583e-05,3.0077964132679824e-06,-0.0005123114920043232,-0.0007212584841980842,1.7319033719355986e-05,-0.00012046868041653881,-0.00041999568486457433,-0.0005188861809010538,-0.0010726081708331196,0.3752071261405945,19.868005752563477,0.3990752398967743,-20.031160354614258,-0.5523582100868225,-2.4493441581726074,0.22830526530742645,0
22,0.10501456260681152,-0.3752071261405945,-19.868005752563477,-0.3990752398967743,20.031160354614258,0.5523582100868225,2.4493441581726074,-0.22830526530742645,0.0,0.0,0.0,0.0,0.0,0.0,0.0,-0.390740997723069,-0.10560540534090185,-0.21575326331644684,0.24998528248789006,-0.017881294170698257,0.0930184325660857,-0.20154301069518057,1.2135138362374223,-0.2203043510558312,-0.00732867336647915,-2.6042806897372484,-0.10895484211047486,2.468123560640547,0.8264719004548258,1.2134413937687574,-0.2202432315892585,-0.0075118285948192216,-2.6038483821997875,-0.10888392708698907,2.4681821257803174,0.826474908251239,0.0005123114920043232,0.0007212584841980842,-1.7319033719355986e-05,0.00012046868041653881,0.00041999568486457433,0.0005188861809010538,0.0010726081708331196,0.0,0.0,0.0,0.0,0.0,0.0,0.0,-7.244246866489057e-05,6.111946657272327e-05,-0.00018315522834007163,0.00043230753746081874,7.091502348578749e-05,5.856513977020583e-05,3.0077964132679824e-06,-0.0005123114920043232,-0.0007212584841980842,1.7319033719355986e-05,-0.00012046868041653881,-0.00041999568486457433,-0.0005188861809010538,-0.0010726081708331196,0.3752071261405945,19.868005752563477,0.3990752398967743,-20.031160354614258,-0.5523582100868225,-2.4493441581726074,0.22830526530742645,0
23,0.11000585556030273,-0.4029781222343445,-19.844202041625977,-0.4228789508342743,20.054964065551758,0.5697532296180725,2.4630770683288574,-0.15964071452617645,0.0,0.0,0.0,0.0,0.0,0.0,0.0,-0.3953097611737738,-0.10705443227875762,-0.2206593948988889,0.25111394161226075,-0.01808053225616511,0.09254329219685174,-0.20333915165897515,1.2135157850792533,-0.2203060214916865,-0.007324672703071256,-2.604282360177291,-0.10895677489042281,2.468122034761641,0.8264642710602945,1.2134413937687574,-0.2202432315892585,-0.0075118285948192216,-2.6038483821997875,-0.10888392708698907,2.4681821257803174,0.826474908251239,0.00021948105227690676,-6.610553319962072e-05,0.0005190188176677816,-0.0005715910766304767,-0.0001689870214851863,-6.068902687724305e-05,-0.001930133579305214,0.0,0.0,0.0,0.0,0.0,0.0,0.0,-7.439131049591374e-05,6.278990242800098e-05,-0.00018715589174796588,0.0004339779775035524,7.284780343373709e-05,6.009101867654465e-05,1.0637190944517982e-05,-0.00021948105227690676,6.610553319962072e-05,-0.0005190188176677816,0.0005715910766304767,0.0001689870214851863,6.068902687724305e-05,0.001930133579305214,0.4029781222343445,19.844202041625977,0.4228789508342743,-20.054964065551758,-0.5697532296180725,-2.4630770683288574,0.15964071452617645,0
24,0.11499261856079102,-0.4029781222343445,-19.844202041625977,-0.4228789508342743,20.054964065551758,0.5697532296180725,2.4630770683288574,-0.15964071452617645,0.0,0.0,0.0,0.0,0.0,0.0,0.0,-0.3953097611737738,-0.10705443227875762,-0.2206593948988889,0.25111394161226075,-0.01808053225616511,0.09254329219685174,-0.20333915165897515,1.2135157850792533,-0.2203060214916865,-0.007324672703071256,-2.604282360177291,-0.10895677489042281,2.468122034761641,0.8264642710602945,1.2134413937687574,-0.2202432315892585,-0.0075118285948192216,-2.6038483821997875,-0.10888392708698907,2.4681821257803174,0.826474908251239,0.00021948105227690676,-6.610553319962072e-05,0.0005190188176677816,-0.0005715910766304767,-0.0001689870214851863,-6.068902687724305e-05,-0.001930133579305214,0.0,0.0,0.0,0.0,0.0,0.0,0.0,-7.439131049591374e-05,6.278990242800098e-05,-0.00018715589174796588,0.0004339779775035524,7.284780343373709e-05,6.009101867654465e-05,1.0637190944517982e-05,-0.00021948105227690676,6.610553319962072e-05,-0.0005190188176677816,0.0005715910766304767,0.0001689870214851863,6.068902687724305e-05,0.001930133579305214,0.4029781222343445,19.844202041625977,0.4228789508342743,-20.054964065551758,-0.5697532296180725,-2.4630770683288574,0.15964071452617645,0
25,0.11999344825744629,-0.4029781222343445,-19.844202041625977,-0.4228789508342743,20.054964065551758,0.5697532296180725,2.4630770683288574,-0.15964071452617645,0.0,0.0,0.0,0.0,0.0,0.0,0.0,-0.3953097611737738,-0.10705443227875762,-0.2206593948988889,0.25111394161226075,-0.01808053225616511,0.09254329219685174,-0.20333915165897515,1.2135157850792533,-0.2203060214916865,-0.007324672703071256,-2.604282360177291,-0.10895677489042281,2.468122034761641,0.8264642710602945,1.2134413937687574,-0.2202432315892585,-0.0075118285948192216,-2.6038483821997875,-0.10888392708698907,2.4681821257803174,0.826474908251239,0.00021948105227690676,-6.610553319962072e-05,0.0005190188176677816,-0.0005715910766304767,-0.0001689870214851863,-6.068902687724305e-05,-0.001930133579305214,0.0,0.0,0.0,0.0,0.0,0.0,0.0,-7.439131049591374e-05,6.278990242800098e-05,-0.00018715589174796588,0.0004339779775035524,7.284780343373709e-05,6.009101867654465e-05,1.0637190944517982e-05,-0.00021948105227690676,6.610553319962072e-05,-0.0005190188176677816,0.0005715910766304767,0.0001689870214851863,6.068902687724305e-05,0.001930133579305214,0.4029781222343445,19.844202041625977,0.4228789508342743,-20.054964065551758,-0.5697532296180725,-2.4630770683288574,0.15964071452617645,0
26,0.12499713897705078,-0.4029781222343445,-19.844202041625977,-0.4228789508342743,20.054964065551758,0.5697532296180725,2.4630770683288574,-0.15964071452617645,0.0,0.0,0.0,0.0,0.0,0.0,0.0,-0.3953097611737738,-0.10705443227875762,-0.2206593948988889,0.25111394161226075,-0.01808053225616511,0.09254329219685174,-0.20333915165897515,1.2135157850792533,-0.2203060214916865,-0.007324672703071256,-2.604282360177291,-0.10895677489042281,2.468122034761641,0.8264642710602945,1.2134413937687574,-0.2202432315892585,-0.0075118285948192216,-2.6038483821997875,-0.10888392708698907,2.4681821257803174,0.826474908251239,0.00021948105227690676,-6.610553319962072e-05,0.0005190188176677816,-0.0005715910766304767,-0.0001689870214851863,-6.068902687724305e-05,-0.001930133579305214,0.0,0.0,0.0,0.0,0.0,0.0,0.0,-7.439131049591374e-05,6.278990242800098e-05,-0.00018715589174796588,0.0004339779775035524,7.284780343373709e-05,6.009101867654465e-05,1.0637190944517982e-05,-0.00021948105227690676,6.610553319962072e-05,-0.0005190188176677816,0.0005715910766304767,0.0001689870214851863,6.068902687724305e-05,0.001930133579305214,0.4029781222343445,19.844202041625977,0.4228789508342743,-20.054964065551758,-0.5697532296180725,-2.4630770683288574,0.15964071452617645,0
27,0.12999439239501953,-0.4267818331718445,-19.891809463500977,-0.4228789508342743,20.007356643676758,0.5642600655555725,2.4694857597351074,-0.17337362468242645,0.0,0.0,0.0,0.0,0.0,0.0,0.0,-0.39852398751860574,-0.12551032075262034,-0.22028332804249248,0.28302140228829603,-0.016833296574807373,0.09631917217002013,-0.2033936368076888,1.2135174555151087,-0.22030268061997596,-0.007327011719276382,-2.6042790193055807,-0.10895580967046596,2.468121322684818,0.8264657969392009,1.2134413937687574,-0.2202432315892585,-0.0075118285948192216,-2.6038483821997875,-0.10888392708698907,2.4681821257803174,0.826474908251239,-1.527234052459081e-05,0.0012403446071680769,-3.667929226696583e-05,0.00034441541075929354,0.002932247927295278,-0.0001995926980819712,-0.001284731775145905,0.0,0.0,0.0,0.0,0.0,0.0,0.0,-7.606174635133023e-05,5.944903071747332e-05,-0.0001848168755428396,0.0004306371057931635,7.188258347688714e-05,6.080309549938434e-05,9.111312038179165e-06,1.527234052459081e-05,-0.0012403446071680769,3.667929226696583e-05,-0.00034441541075929354,-0.002932247927295278,0.0001995926980819712,0.001284731775145905,0.4267818331718445,19.891809463500977,0.4228789508342743,-20.007356643676758,-0.5642600655555725,-2.4694857597351074,0.17337362468242645,0
28,0.13506317138671875,-0.4267818331718445,-19.891809463500977,-0.4228789508342743,20.007356643676758,0.5642600655555725,2.4694857597351074,-0.17337362468242645,0.0,0.0,0.0,0.0,0.0,0.0,0.0,-0.39852398751860574,-0.12551032075262034,-0.22028332804249248,0.28302140228829603,-0.016833296574807373,0.09631917217002013,-0.2033936368076888,1.2135174555151087,-0.22030268061997596,-0.007327011719276382,-2.6042790193055807,-0.10895580967046596,2.468121322684818,0.8264657969392009,1.2134413937687574,-0.2202432315892585,-0.0075118285948192216,-2.6038483821997875,-0.10888392708698907,2.4681821257803174,0.826474908251239,-1.527234052459081e-05,0.0012403446071680769,-3.667929226696583e-05,0.00034441541075929354,0.002932247927295278,-0.0001995926980819712,-0.001284731775145905,0.0,0.0,0.0,0.0,0.0,0.0,0.0,-7.606174635133023e-05,5.944903071747332e-05,-0.0001848168755428396,0.0004306371057931635,7.188258347688714e-05,6.080309549938434e-05,9.111312038179165e-06,1.527234052459081e-05,-0.0012403446071680769,3.667929226696583e-05,-0.00034441541075929354,-0.002932247927295278,0.0001995926980819712,0.001284731775145905,0.4267818331718445,19.891809463500977,0.4228789508342743,-20.007356643676758,-0.5642600655555725,-2.4694857597351074,0.17337362468242645,0
29,0.14000511169433594,-0.4029781222343445,-19.844202041625977,-0.3990752398967743,20.007356643676758,0.5642600655555725,2.4630770683288574,-0.17978231608867645,0.0,0.0,0.0,0.0,0.0,0.0,0.0,-0.3925373926740061,-0.09594013188866364,-0.21281501346477658,0.23981224033929777,-0.01937784492118678,0.09021682969523669,-0.2031020534731965,1.2135157850792533,-0.2203060214916865,-0.0073286052104748365,-2.6042790193055807,-0.10895616453819257,2.468122034761641,0.8264665090160237,1.2134413937687574,-0.2202432315892585,-0.0075118285948192216,-2.6038483821997875,-0.10888392708698907,2.4681821257803174,0.826474908251239,4.1664063377256716e-05,0.00021046075260284524,-0.0004356720722424734,0.00028314065511086695,0.00020737062056935108,0.00014768076939790825,-0.0011412489167269473,0.0,0.0,0.0,0.0,0.0,0.0,0.0,-7.439131049591374e-05,6.278990242800098e-05,-0.00018322338434438503,0.0004306371057931635,7.223745120349401e-05,6.009101867654465e-05,8.399235215339473e-06,-4.1664063377256716e-05,-0.00021046075260284524,0.0004356720722424734,-0.00028314065511086695,-0.00020737062056935108,-0.00014768076939790825,0.0011412489167269473,0.4029781222343445,19.844202041625977,0.3990752398967743,-20.007356643676758,-0.5642600655555725,-2.4630770683288574,0.17978231608867645,0
30,0.1449899673461914,-0.4029781222343445,-19.844202041625977,-0.3990752398967743,20.007356643676758,0.5642600655555725,2.4630770683288574,-0.17978231608867645,0.0,0.0,0.0,0.0,0.0,0.0,0.0,-0.3925373926740061,-0.09594013188866364,-0.21281501346477658,0.23981224033929777,-0.01937784492118678,0.09021682969523669,-0.2031020534731965,1.2135157850792533,-0.2203060214916865,-0.0073286052104748365,-2.6042790193055807,-0.10895616453819257,2.468122034761641,0.8264665090160237,1.2134413937687574,-0.2202432315892585,-0.0075118285948192216,-2.6038483821997875,-0.10888392708698907,2.4681821257803174,0.826474908251239,4.1664063377256716e-05,0.00021046075260284524,-0.0004356720722424734,0.00028314065511086695,0.00020737062056935108,0.00014768076939790825,-0.0011412489167269473,0.0,0.0,0.0,0.0,0.0,0.0,0.0,-7.439131049591374e-05,6.278990242800098e-05,-0.00018322338434438503,0.0004306371057931635,7.223745120349401e-05,6.009101867654465e-05,8.399235215339473e-06,-4.1664063377256716e-05,-0.00021046075260284524,0.0004356720722424734,-0.00028314065511086695,-0.00020737062056935108,-0.00014768076939790825,0.0011412489167269473,0.4029781222343445,19.844202041625977,0.3990752398967743,-20.007356643676758,-0.5642600655555725,-2.4630770683288574,0.17978231608867645,0
31,0.14999628067016602,-0.4267818331718445,-19.868005752563477,-0.4228789508342743,20.054964065551758,0.5642600655555725,2.4630770683288574,-0.22098104655742645,0.0,0.0,0.0,0.0,0.0,0.0,0.0,-0.3918667432866439,-0.10130525818284197,-0.2106315188042959,0.24202862734608468,-0.019661112853237392,0.09125856832618881,-0.20293159007793454,1.2135174555151087,-0.2203043510558312,-0.007326725106533417,-2.604282360177291,-0.10895616453886031,2.468122034761641,0.8264710866527425,1.2134413937687574,-0.2202432315892585,-0.0075118285948192216,-2.6038483821997875,-0.10888392708698907,2.4681821257803174,0.826474908251239,0.0004931342289737917,0.0008572773328040345,0.0006629791103129043,-0.00041290010275672236,0.0017391631557295525,0.00016434819978751076,0.0005418264661173082,0.0,0.0,0.0,0.0,0.0,0.0,0.0,-7.606174635133023e-05,6.111946657272327e-05,-0.00018510348828580485,0.0004339779775035524,7.223745187123765e-05,6.009101867654465e-05,3.8215984965450644e-06,-0.0004931342289737917,-0.0008572773328040345,-0.0006629791103129043,0.00041290010275672236,-0.0017391631557295525,-0.00016434819978751076,-0.0005418264661173082,0.4267818331718445,19.868005752563477,0.4228789508342743,-20.054964065551758,-0.5642600655555725,-2.4630770683288574,0.22098104655742645,0
32,0.15502166748046875,-0.4267818331718445,-19.868005752563477,-0.4228789508342743,20.054964065551758,0.5642600655555725,2.4630770683288574,-0.22098104655742645,0.0,0.0,0.0,0.0,0.0,0.0,0.0,-0.3918667432866439,-0.10130525818284197,-0.2106315188042959,0.24202862734608468,-0.019661112853237392,0.09125856832618881,-0.20293159007793454,1.2135174555151087,-0.2203043510558312,-0.007326725106533417,-2.604282360177291,-0.10895616453886031,2.468122034761641,0.8264710866527425,1.2134413937687574,-0.2202432315892585,-0.0075118285948192216,-2.6038483821997875,-0.10888392708698907,2.4681821257803174,0.826474908251239,0.0004931342289737917,0.0008572773328040345,0.0006629791103129043,-0.00041290010275672236,0.0017391631557295525,0.00016434819978751076,0.0005418264661173082,0.0,0.0,0.0,0.0,0.0,0.0,0.0,-7.606174635133023e-05,6.111946657272327e-05,-0.00018510348828580485,0.0004339779775035524,7.223745187123765e-05,6.009101867654465e-05,3.8215984965450644e-06,-0.0004931342289737917,-0.0008572773328040345,-0.0006629791103129043,0.00041290010275672236,-0.0017391631557295525,-0.00016434819978751076,-0.0005418264661173082,0.4267818331718445,19.868005752563477,0.4228789508342743,-20.054964065551758,-0.5642600655555725,-2.4630770683288574,0.22098104655742645,0
33,0.1599891185760498,-0.3752071261405945,-19.844202041625977,-0.4228789508342743,19.983552932739258,0.5697532296180725,2.4630770683288574,-0.18710653483867645,0.0,0.0,0.0,0.0,0.0,0.0,0.0,-0.39959595825953786,-0.0980576618543971,-0.21543042479127583,0.24226594617253513,-0.01823298129312958,0.09133628286050051,-0.2036699450293363,1.2135138362374223,-0.2203060214916865,-0.0073249072289541,-2.6042773488697253,-0.10895677489042281,2.468122034761641,0.8264673228181071,1.2134413937687574,-0.2202432315892585,-0.0075118285948192216,-2.6038483821997875,-0.10888392708698907,2.4681821257803174,0.826474908251239,-0.000501408654560222,0.00043458356477523385,0.00020916081776793137,0.0009608695811304583,0.0001556757540008008,0.0002509321666374315,-0.0005717364202808149,0.0,0.0,0.0,0.0,0.0,0.0,0.0,-7.244246866489057e-05,6.278990242800098e-05,-0.00018692136586512167,0.000428966669937747,7.284780343373709e-05,6.009101867654465e-05,7.585433131951369e-06,0.000501408654560222,-0.00043458356477523385,-0.00020916081776793137,-0.0009608695811304583,-0.0001556757540008008,-0.0002509321666374315,0.0005717364202808149,0.3752071261405945,19.844202041625977,0.4228789508342743,-19.983552932739258,-0.5697532296180725,-2.4630770683288574,0.18710653483867645,0
34,0.164947509765625,-0.3752071261405945,-19.844202041625977,-0.4228789508342743,19.983552932739258,0.5697532296180725,2.4630770683288574,-0.18710653483867645,0.0,0.0,0.0,0.0,0.0,0.0,0.0,-0.39959595825953786,-0.0980576618543971,-0.21543042479127583,0.24226594617253513,-0.01823298129312958,0.09133628286050051,-0.2036699450293363,1.2135138362374223,-0.2203060214916865,-0.0073249072289541,-2.6042773488697253,-0.10895677489042281,2.468122034761641,0.8264673228181071,1.2134413937687574,-0.2202432315892585,-0.0075118285948192216,-2.6038483821997875,-0.10888392708698907,2.4681821257803174,0.826474908251239,-0.000501408654560222,0.00043458356477523385,0.00020916081776793137,0.0009608695811304583,0.0001556757540008008,0.0002509321666374315,-0.0005717364202808149,0.0,0.0,0.0,0.0,0.0,0.0,0.0,-7.244246866489057e-05,6.278990242800098e-05,-0.00018692136586512167,0.000428966669937747,7.284780343373709e-05,6.009101867654465e-05,7.585433131951369e-06,0.000501408654560222,-0.00043458356477523385,-0.00020916081776793137,-0.0009608695811304583,-0.0001556757540008008,-0.0002509321666374315,0.0005717364202808149,0.3752071261405945,19.844202041625977,0.4228789508342743,-19.983552932739258,-0.5697532296180725,-2.4630770683288574,0.18710653483867645,0
35,0.16999363899230957,-0.4267818331718445,-19.792627334594727,-0.4466826617717743,20.054964065551758,0.5697532296180725,2.4694857597351074,-0.21457235515117645,0.0,0.0,0.0,0.0,0.0,0.0,0.0,-0.39741913870594187,-0.10580098246478059,-0.21462895112641261,0.253024177635799,-0.0172626892889655,0.09397903395958068,-0.20369671210823934,1.2135174555151087,-0.22030964076937287,-0.007324633816772157,-2.604282360177291,-0.10895996870597202,2.468121322684818,0.8264703745759195,1.2134413937687574,-0.2202432315892585,-0.0075118285948192216,-2.6038483821997875,-0.10888392708698907,2.4681821257803174,0.826474908251239,0.0012393506570366143,-0.0012435275521936323,0.0007734988391152764,-0.0006648947260310356,-0.00015807133035078205,-0.0053786121131078135,0.0012698721911081708,0.0,0.0,0.0,0.0,0.0,0.0,0.0,-7.606174635133023e-05,6.640918011438512e-05,-0.00018719477804706418,0.0004339779775035524,7.604161898294715e-05,6.080309549938434e-05,4.533675319495778e-06,-0.0012393506570366143,0.0012435275521936323,-0.0007734988391152764,0.0006648947260310356,0.00015807133035078205,0.0053786121131078135,-0.0012698721911081708,0.4267818331718445,19.792627334594727,0.4466826617717743,-20.054964065551758,-0.5697532296180725,-2.4694857597351074,0.21457235515117645,0
36,0.17499399185180664,-0.4267818331718445,-19.792627334594727,-0.4466826617717743,20.054964065551758,0.5697532296180725,2.4694857597351074,-0.21457235515117645,0.0,0.0,0.0,0.0,0.0,0.0,0.0,-0.39741913870594187,-0.10580098246478059,-0.21462895112641261,0.253024177635799,-0.0172626892889655,0.09397903395958068,-0.20369671210823934,1.2135174555151087,-0.22030964076937287,-0.007324633816772157,-2.604282360177291,-0.10895996870597202,2.468121322684818,0.8264703745759195,1.2134413937687574,-0.2202432315892585,-0.0075118285948192216,-2.6038483821997875,-0.10888392708698907,2.4681821257803174,0.826474908251239,0.0012393506570366143,-0.0012435275521936323,0.0007734988391152764,-0.0006648947260310356,-0.00015807133035078205,-0.0053786121131078135,0.0012698721911081708,0.0,0.0,0.0,0.0,0.0,0.0,0.0,-7.606174635133023e-05,6.640918011438512e-05,-0.00018719477804706418,0.0004339779775035524,7.604161898294715e-05,6.080309549938434e-05,4.533675319495778e-06,-0.0012393506570366143,0.0012435275521936323,-0.0007734988391152764,0.0006648947260310356,0.00015807133035078205,0.0053786121131078135,-0.0012698721911081708,0.4267818331718445,19.792627334594727,0.4466826617717743,-20.054964065551758,-0.5697532296180725,-2.4694857597351074,0.21457235515117645,0
37,0.1800370216369629,-0.3752071261405945,-19.844202041625977,-0.4466826617717743,20.054964065551758,0.5578513741493225,2.4630770683288574,-0.23471395671367645,0.0,0.0,0.0,0.0,0.0,0.0,0.0,-0.40039720714849864,-0.09982191499713064,-0.2207794464121472,0.24451854588417946,-0.017120809276270677,0.09159741433416706,-0.2023739647727253,1.2135138362374223,-0.2203060214916865,-0.007322529888904134,-2.604282360177291,-0.10895545248006658,2.4681220352461573,0.8264726125316487,1.2134413937687574,-0.2202432315892585,-0.0075118285948192216,-2.6038483821997875,-0.10888392708698907,2.4681821257803174,0.826474908251239,-0.000799707611970101,-0.00018813677867435957,0.0005322225188043065,-0.0005748337336616945,0.0003716993598726618,0.0009027620763635206,0.00143351488500131,0.0,0.0,0.0,0.0,0.0,0.0,0.0,-7.244246866489057e-05,6.278990242800098e-05,-0.00018929870591508774,0.0004339779775035524,7.152539307750394e-05,6.009053416011767e-05,2.295719590317269e-06,0.000799707611970101,0.00018813677867435957,-0.0005322225188043065,0.0005748337336616945,-0.0003716993598726618,-0.0009027620763635206,-0.00143351488500131,0.3752071261405945,19.844202041625977,0.4466826617717743,-20.054964065551758,-0.5578513741493225,-2.4630770683288574,0.23471395671367645,0
38,0.18499302864074707,-0.3752071261405945,-19.844202041625977,-0.4466826617717743,20.054964065551758,0.5578513741493225,2.4630770683288574,-0.23471395671367645,0.0,0.0,0.0,0.0,0.0,0.0,0.0,-0.40039720714849864,-0.09982191499713064,-0.2207794464121472,0.24451854588417946,-0.017120809276270677,0.09159741433416706,-0.2023739647727253,1.2135138362374223,-0.2203060214916865,-0.007322529888904134,-2.604282360177291,-0.10895545248006658,2.4681220352461573,0.8264726125316487,1.2134413937687574,-0.2202432315892585,-0.0075118285948192216,-2.6038483821997875,-0.10888392708698907,2.4681821257803174,0.826474908251239,-0.000799707611970101,-0.00018813677867435957,0.0005322225188043065,-0.0005748337336616945,0.0003716993598726618,0.0009027620763635206,0.00143351488500131,0.0,0.0,0.0,0.0,0.0,0.0,0.0,-7.244246866489057e-05,6.278990242800098e-05,-0.00018929870591508774,0.0004339779775035524,7.152539307750394e-05,6.009053416011767e-05,2.295719590317269e-06,0.000799707611970101,0.00018813677867435957,-0.0005322225188043065,0.0005748337336616945,-0.0003716993598726618,-0.0009027620763635206,-0.00143351488500131,0.3752071261405945,19.844202041625977,0.4466826617717743,-20.054964065551758,-0.5578513741493225,-2.4630770683288574,0.23471395671367645,0
39,0.18999147415161133,-0.3752071261405945,-19.868005752563477,-0.3990752398967743,20.031160354614258,0.5697532296180725,2.4630770683288574,-0.17337362468242645,0.0,0.0,0.0,0.0,0.0,0.0,0.0,-0.3971481792881947,-0.09997941882297304,-0.21712855166218234,0.24797073608487216,-0.017505114497049813,0.09272355225796554,-0.20325451725443763,1.2135138362374223,-0.2203043510558312,-0.007328001304347788,-2.6042806897414357,-0.10895678803369678,2.4681252136760317,0.8264657969392009,1.2134413937687574,-0.2202432315892585,-0.0075118285948192216,-2.6038483821997875,-0.10888392708698907,2.4681821257803174,0.826474908251239,-0.000682395808966893,0.0007199325397188141,-0.00011724348638962255,8.739632730034967e-05,-4.74855835279686e-05,0.0001198024166631626,-0.001010578494837013,0.0,0.0,0.0,0.0,0.0,0.0,0.0,-7.244246866489057e-05,6.111946657272327e-05,-0.0001838272904714335,0.0004323075416481359,7.286094670770626e-05,5.691210428571125e-05,9.111312038179165e-06,0.000682395808966893,-0.0007199325397188141,0.00011724348638962255,-8.739632730034967e-05,4.74855835279686e-05,-0.0001198024166631626,0.001010578494837013,0.3752071261405945,19.868005752563477,0.3990752398967743,-20.031160354614258,-0.5697532296180725,-2.4630770683288574,0.17337362468242645,0
40,0.1949918270111084,-0.3752071261405945,-19.868005752563477,-0.3990752398967743,20.031160354614258,0.5697532296180725,2.4630770683288574,-0.17337362468242645,0.0,0.0,0.0,0.0,0.0,0.0,0.0,-0.3971481792881947,-0.09997941882297304,-0.21712855166218234,0.24797073608487216,-0.017505114497049813,0.09272355225796554,-0.20325451725443763,1.2135138362374223,-0.2203043510558312,-0.007328001304347788,-2.6042806897414357,-0.10895678803369678,2.4681252136760317,0.8264657969392009,1.2134413937687574,-0.2202432315892585,-0.0075118285948192216,-2.6038483821997875,-0.10888392708698907,2.4681821257803174,0.826474908251239,-0.000682395808966893,0.0007199325397188141,-0.00011724348638962255,8.739632730034967e-05,-4.74855835279686e-05,0.0001198024166631626,-0.001010578494837013,0.0,0.0,0.0,0.0,0.0,0.0,0.0,-7.244246866489057e-05,6.111946657272327e-05,-0.0001838272904714335,0.0004323075416481359,7.286094670770626e-05,5.691210428571125e-05,9.111312038179165e-06,0.000682395808966893,-0.0007199325397188141,0.00011724348638962255,-8.739632730034967e-05,4.74855835279686e-05,-0.0001198024166631626,0.001010578494837013,0.3752071261405945,19.868005752563477,0.3990752398967743,-20.031160354614258,-0.5697532296180725,-2.4630770683288574,0.17337362468242645,0
41,0.19999051094055176,-0.4029781222343445,-19.868005752563477,-0.3713042438030243,20.031160354614258,0.5578513741493225,2.4630770683288574,-0.17337362468242645,0.0,0.0,0.0,0.0,0.0,0.0,0.0,-0.3954462998600031,-0.1119290162110968,-0.21284254572073114,0.25734588233980527,-0.017185827106016103,0.0944496099322619,-0.20258812017827899,1.2135157850792533,-0.2203043510558312,-0.0073296782533598765,-2.604280690613566,-0.10895545246206213,2.4681220347855675,0.8264657969392009,1.2134413937687574,-0.2202432315892585,-0.0075118285948192216,-2.6038483821997875,-0.10888392708698907,2.4681821257803174,0.826474908251239,0.0004294871227428014,0.00016541921333333896,-0.0008243250600422306,0.0003140306018257992,0.0004937384027324889,0.00016858790858975418,-0.001134664868804244,0.0,0.0,0.0,0.0,0.0,0.0,0.0,-7.439131049591374e-05,6.111946657272327e-05,-0.00018215034145934502,0.0004323084137785038,7.152537507305878e-05,6.00909947499062e-05,9.111312038179165e-06,-0.0004294871227428014,-0.00016541921333333896,0.0008243250600422306,-0.0003140306018257992,-0.0004937384027324889,-0.00016858790858975418,0.001134664868804244,0.4029781222343445,19.868005752563477,0.3713042438030243,-20.031160354614258,-0.5578513741493225,-2.4630770683288574,0.17337362468242645,0
42,0.20576214790344238,-0.4029781222343445,-19.868005752563477,-0.3713042438030243,20.031160354614258,0.5578513741493225,2.4630770683288574,-0.17337362468242645,0.0,0.0,0.0,0.0,0.0,0.0,0.0,-0.3954462998600031,-0.1119290162110968,-0.21284254572073114,0.25734588233980527,-0.017185827106016103,0.0944496099322619,-0.20258812017827899,1.2135157850792533,-0.2203043510558312,-0.0073296782533598765,-2.604280690613566,-0.10895545246206213,2.4681220347855675,0.8264657969392009,1.2134413937687574,-0.2202432315892585,-0.0075118285948192216,-2.6038483821997875,-0.10888392708698907,2.4681821257803174,0.826474908251239,0.0004294871227428014,0.00016541921333333896,-0.0008243250600422306,0.0003140306018257992,0.0004937384027324889,0.00016858790858975418,-0.001134664868804244,0.0,0.0,0.0,0.0,0.0,0.0,0.0,-7.439131049591374e-05,6.111946657272327e-05,-0.00018215034145934502,0.0004323084137785038,7.152537507305878e-05,6.00909947499062e-05,9.111312038179165e-06,-0.0004294871227428014,-0.00016541921333333896,0.0008243250600422306,-0.0003140306018257992,-0.0004937384027324889,-0.00016858790858975418,0.001134664868804244,0.4029781222343445,19.868005752563477,0.3713042438030243,-20.031160354614258,-0.5578513741493225,-2.4630770683288574,0.17337362468242645,0
43,0.2099928855895996,-0.4267818331718445,-19.868005752563477,-0.3990752398967743,20.031160354614258,0.5761619210243225,2.4694857597351074,-0.19351522624492645,0.0,0.0,0.0,0.0,0.0,0.0,0.0,-0.3994594599957839,-0.1076016612053498,-0.21842058283527577,0.25300254524623994,-0.016403154661051498,0.093297182220191,-0.20330249809152742,1.2135174555151087,-0.2203043510558312,-0.007326580619703035,-2.6042806897414406,-0.10895744753742413,2.468121322684818,0.82646803489493,1.2134413937687574,-0.2202432315892585,-0.0075118285948192216,-2.6038483821997875,-0.10888392708698907,2.4681821257803174,0.826474908251239,0.0005013740067172879,0.0006091636141517695,-0.0005252035299262155,-0.00022814108178019024,-0.00012016861007804526,-0.00023319186048608475,-0.0002611112130906738,0.0,0.0,0.0,0.0,0.0,0.0,0.0,-7.606174635133023e-05,6.111946657272327e-05,-0.00018524797511618694,0.0004323075416530209,7.352045043505784e-05,6.080309549938434e-05,6.8733563090006555e-06,-0.0005013740067172879,-0.0006091636141517695,0.0005252035299262155,0.00022814108178019024,0.00012016861007804526,0.00023319186048608475,0.0002611112130906738,0.4267818331718445,19.868005752563477,0.3990752398967743,-20.031160354614258,-0.5761619210243225,-2.4694857597351074,0.19351522624492645,0
44,0.21500086784362793,-0.4267818331718445,-19.868005752563477,-0.3990752398967743,20.031160354614258,0.5761619210243225,2.4694857597351074,-0.19351522624492645,0.0,0.0,0.0,0.0,0.0,0.0,0.0,-0.3994594599957839,-0.1076016612053498,-0.21842058283527577,0.25300254524623994,-0.016403154661051498,0.093297182220191,-0.20330249809152742,1.2135174555151087,-0.2203043510558312,-0.007326580619703035,-2.6042806897414406,-0.10895744753742413,2.468121322684818,0.82646803489493,1.2134413937687574,-0.2202432315892585,-0.0075118285948192216,-2.6038483821997875,-0.10888392708698907,2.4681821257803174,0.826474908251239,0.0005013740067172879,0.0006091636141517695,-0.0005252035299262155,-0.00022814108178019024,-0.00012016861007804526,-0.00023319186048608475,-0.0002611112130906738,0.0,0.0,0.0,0.0,0.0,0.0,0.0,-7.606174635133023e-05,6.111946657272327e-05,-0.00018524797511618694,0.0004323075416530209,7.352045043505784e-05,6.080309549938434e-05,6.8733563090006555e-06,-0.0005013740067172879,-0.0006091636141517695,0.0005252035299262155,0.00022814108178019024,0.00012016861007804526,0.00023319186048608475,0.0002611112130906738,0.4267818331718445,19.868005752563477,0.3990752398967743,-20.031160354614258,-0.5761619210243225,-2.4694857597351074,0.19351522624492645,0
45,0.22007083892822266,-0.4267818331718445,-19.868005752563477,-0.3990752398967743,20.031160354614258,0.5761619210243225,2.4694857597351074,-0.19351522624492645,0.0,0.0,0.0,0.0,0.0,0.0,0.0,-0.3994594599957839,-0.1076016612053498,-0.21842058283527577,0.25300254524623994,-0.016403154661051498,0.093297182220191,-0.20330249809152742,1.2135174555151087,-0.2203043510558312,-0.007326580619703035,-2.6042806897414406,-0.10895744753742413,2.468121322684818,0.82646803489493,1.2134413937687574,-0.2202432315892585,-0.0075118285948192216,-2.6038483821997875,-0.10888392708698907,2.4681821257803174,0.826474908251239,0.0005013740067172879,0.0006091636141517695,-0.0005252035299262155,-0.00022814108178019024,-0.00012016861007804526,-0.00023319186048608475,-0.0002611112130906738,0.0,0.0,0.0,0.0,0.0,0.0,0.0,-7.606174635133023e-05,6.111946657272327e-05,-0.00018524797511618694,0.0004323075416530209,7.352045043505784e-05,6.080309549938434e-05,6.8733563090006555e-06,-0.0005013740067172879,-0.0006091636141517695,0.0005252035299262155,0.00022814108178019024,0.00012016861007804526,0.00023319186048608475,0.0002611112130906738,0.4267818331718445,19.868005752563477,0.3990752398967743,-20.031160354614258,-0.5761619210243225,-2.4694857597351074,0.19351522624492645,0
46,0.22496366500854492,-0.4267818331718445,-19.868005752563477,-0.3990752398967743,20.031160354614258,0.5761619210243225,2.4694857597351074,-0.19351522624492645,0.0,0.0,0.0,0.0,0.0,0.0,0.0,-0.3994594599957839,-0.1076016612053498,-0.21842058283527577,0.25300254524623994,-0.016403154661051498,0.093297182220191,-0.20330249809152742,1.2135174555151087,-0.2203043510558312,-0.007326580619703035,-2.6042806897414406,-0.10895744753742413,2.468121322684818,0.82646803489493,1.2134413937687574,-0.2202432315892585,-0.0075118285948192216,-2.6038483821997875,-0.10888392708698907,2.4681821257803174,0.826474908251239,0.0005013740067172879,0.0006091636141517695,-0.0005252035299262155,-0.00022814108178019024,-0.00012016861007804526,-0.00023319186048608475,-0.0002611112130906738,0.0,0.0,0.0,0.0,0.0,0.0,0.0,-7.606174635133023e-05,6.111946657272327e-05,-0.00018524797511618694,0.0004323075416530209,7.352045043505784e-05,6.080309549938434e-05,6.8733563090006555e-06,-0.0005013740067172879,-0.0006091636141517695,0.0005252035299262155,0.00022814108178019024,0.00012016861007804526,0.00023319186048608475,0.0002611112130906738,0.4267818331718445,19.868005752563477,0.3990752398967743,-20.031160354614258,-0.5761619210243225,-2.4694857597351074,0.19351522624492645,0
47,0.22998547554016113,-0.3752071261405945,-19.844202041625977,-0.4466826617717743,20.082735061645508,0.5761619210243225,2.4566683769226074,-0.20083944499492645,0.0,0.0,0.0,0.0,0.0,0.0,0.0,-0.3911418125096911,-0.10871855034737792,-0.21312641548532524,0.25362250565762556,-0.015097019330735106,0.09353605454422513,-0.20449680380301524,1.2135138362374223,-0.2203060214916865,-0.007325370513604285,-2.604284309019122,-0.10895748696702315,2.4681227468384637,0.8264688486970133,1.2134413937687574,-0.2202432315892585,-0.0075118285948192216,-2.6038483821997875,-0.10888392708698907,2.4681821257803174,0.826474908251239,-3.2348148570161134e-05,0.00038798978697117794,0.0008100399778044414,-0.0013735355565007172,-0.00019260671349583734,0.00015762908268317775,-0.00012106508054329712,0.0,0.0,0.0,0.0,0.0,0.0,0.0,-7.244246866489057e-05,6.278990242800098e-05,-0.00018645808121493627,0.00043592681933457555,7.355988003407421e-05,5.937894185370496e-05,6.0595542257235735e-06,3.2348148570161134e-05,-0.00038798978697117794,-0.0008100399778044414,0.0013735355565007172,0.00019260671349583734,-0.00015762908268317775,0.00012106508054329712,0.3752071261405945,19.844202041625977,0.4466826617717743,-20.082735061645508,-0.5761619210243225,-2.4566683769226074,0.20083944499492645,0
48,0.23494410514831543,-0.3752071261405945,-19.844202041625977,-0.4466826617717743,20.082735061645508,0.5761619210243225,2.4566683769226074,-0.20083944499492645,0.0,0.0,0.0,0.0,0.0,0.0,0.0,-0.3911418125096911,-0.10871855034737792,-0.21312641548532524,0.25362250565762556,-0.015097019330735106,0.09353605454422513,-0.20449680380301524,1.2135138362374223,-0.2203060214916865,-0.007325370513604285,-2.604284309019122,-0.10895748696702315,2.4681227468384637,0.8264688486970133,1.2134413937687574,-0.2202432315892585,-0.0075118285948192216,-2.6038483821997875,-0.10888392708698907,2.4681821257803174,0.826474908251239,-3.2348148570161134e-05,0.00038798978697117794,0.0008100399778044414,-0.0013735355565007172,-0.00019260671349583734,0.00015762908268317775,-0.00012106508054329712,0.0,0.0,0.0,0.0,0.0,0.0,0.0,-7.244246866489057e-05,6.278990242800098e-05,-0.00018645808121493627,0.00043592681933457555,7.355988003407421e-05,5.937894185370496e-05,6.0595542257235735e-06,3.2348148570161134e-05,-0.00038798978697117794,-0.0008100399778044414,0.0013735355565007172,0.00019260671349583734,-0.00015762908268317775,0.00012106508054329712,0.3752071261405945,19.844202041625977,0.4466826617717743,-20.082735061645508,-0.5761619210243225,-2.4566683769226074,0.20083944499492645,0
49,0.24009132385253906,-0.3752071261405945,-19.844202041625977,-0.4466826617717743,20.054964065551758,0.5697532296180725,2.4630770683288574,-0.17978231608867645,0.0,0.0,0.0,0.0,0.0,0.0,0.0,-0.3911962952702513,-0.10737763617370857,-0.219482337913719,0.25410319696657785,-0.014988956925601826,0.09321892747341455,-0.2062124010831836,1.2135138362374223,-0.2203060214916865,-0.007324660340429232,-2.604282360177291,-0.10895677489042281,2.468122034815476,0.8264665090160237,1.2134413937687574,-0.2202432315892585,-0.0075118285948192216,-2.6038483821997875,-0.10888392708698907,2.4681821257803174,0.826474908251239,-0.000496919405176171,0.0005152571979081147,0.00016961251841061714,-0.0006044348001259715,0.0008783020896585031,6.561897626566592e-05,-0.0012927322387595386,0.0,0.0,0.0,0.0,0.0,0.0,0.0,-7.244246866489057e-05,6.278990242800098e-05,-0.00018716825438998969,0.0004339779775035524,7.284780343373709e-05,6.0090964841386096e-05,8.399235215339473e-06,0.000496919405176171,-0.0005152571979081147,-0.00016961251841061714,0.0006044348001259715,-0.0008783020896585031,-6.561897626566592e-05,0.0012927322387595386,0.3752071261405945,19.844202041625977,0.4466826617717743,-20.054964065551758,-0.5697532296180725,-2.4630770683288574,0.17978231608867645,0
50,0.24500656127929688,-0.3752071261405945,-19.844202041625977,-0.4466826617717743,20.054964065551758,0.5697532296180725,2.4630770683288574,-0.17978231608867645,0.0,0.0,0.0,0.0,0.0,0.0,0.0,-0.3911962952702513,-0.10737763617370857,-0.219482337913719,0.25410319696657785,-0.014988956925601826,0.09321892747341455,-0.2062124010831836,1.2135138362374223,-0.2203060214916865,-0.007324660340429232,-2.604282360177291,-0.10895677489042281,2.468122034815476,0.8264665090160237,1.2134413937687574,-0.2202432315892585,-0.0075118285948192216,-2.6038483821997875,-0.10888392708698907,2.4681821257803174,0.826474908251239,-0.000496919405176171,0.0005152571979081147,0.00016961251841061714,-0.0006044348001259715,0.0008783020896585031,6.561897626566592e-05,-0.0012927322387595386,0.0,0.0,0.0,0.0,0.0,0.0,0.0,-7.244246866489057e-05,6.278990242800098e-05,-0.00018716825438998969,0.0004339779775035524,7.284780343373709e-05,6.0090964841386096e-05,8.399235215339473e-06,0.000496919405176171,-0.0005152571979081147,-0.00016961251841061714,0.0006044348001259715,-0.0008783020896585031,-6.561897626566592e-05,0.0012927322387595386,0.3752071261405945,19.844202041625977,0.4466826617717743,-20.054964065551758,-0.5697532296180725,-2.4630770683288574,0.17978231608867645,0
51,0.25026774406433105,-0.4029781222343445,-19.891809463500977,-0.4704863727092743,20.007356643676758,0.5642600655555725,2.4566683769226074,-0.15964071452617645,0.0,0.0,0.0,0.0,0.0,0.0,0.0,-0.39431805869827685,-0.08682380547190499,-0.22628498338177713,0.2202024034702853,-0.014250920981797434,0.08707780939836517,-0.20627466426603402,1.2135157850792533,-0.22030268061997596,-0.007321490692853707,-2.6042790193055807,-0.10895616453886031,2.4681227468384637,0.8264642710602945,1.2134413937687574,-0.2202432315892585,-0.0075118285948192216,-2.6038483821997875,-0.10888392708698907,2.4681821257803174,0.826474908251239,-9.292523856266521e-05,0.0009709725149688598,0.0007369839764927296,0.0008163855771231032,-0.0013719175863292552,0.0002285667713022157,-0.0017047886968886855,0.0,0.0,0.0,0.0,0.0,0.0,0.0,-7.439131049591374e-05,5.944903071747332e-05,-0.00019033790196551492,0.0004306371057931635,7.223745187123765e-05,5.937894185370496e-05,1.0637190944517982e-05,9.292523856266521e-05,-0.0009709725149688598,-0.0007369839764927296,-0.0008163855771231032,0.0013719175863292552,-0.0002285667713022157,0.0017047886968886855,0.4029781222343445,19.891809463500977,0.4704863727092743,-20.007356643676758,-0.5642600655555725,-2.4566683769226074,0.15964071452617645,0
52,0.2550504207611084,-0.4029781222343445,-19.891809463500977,-0.4704863727092743,20.007356643676758,0.5642600655555725,2.4566683769226074,-0.15964071452617645,0.0,0.0,0.0,0.0,0.0,0.0,0.0,-0.39431805869827685,-0.08682380547190499,-0.22628498338177713,0.2202024034702853,-0.014250920981797434,0.08707780939836517,-0.20627466426603402,1.2135157850792533,-0.22030268061997596,-0.007321490692853707,-2.6042790193055807,-0.10895616453886031,2.4681227468384637,0.8264642710602945,1.2134413937687574,-0.2202432315892585,-0.0075118285948192216,-2.6038483821997875,-0.10888392708698907,2.4681821257803174,0.826474908251239,-9.292523856266521e-05,0.0009709725149688598,0.0007369839764927296,0.0008163855771231032,-0.0013719175863292552,0.0002285667713022157,-0.0017047886968886855,0.0,0.0,0.0,0.0,0.0,0.0,0.0,-7.439131049591374e-05,5.944903071747332e-05,-0.00019033790196551492,0.0004306371057931635,7.223745187123765e-05,5.937894185370496e-05,1.0637190944517982e-05,9.292523856266521e-05,-0.0009709725149688598,-0.0007369839764927296,-0.0008163855771231032,0.0013719175863292552,-0.0002285667713022157,0.0017047886968886855,0.4029781222343445,19.891809463500977,0.4704863727092743,-20.007356643676758,-0.5642600655555725,-2.4566683769226074,0.15964071452617645,0
53,0.25998973846435547,-0.4267818331718445,-19.816431045532227,-0.4466826617717743,20.031160354614258,0.5642600655555725,2.4694857597351074,-0.22098104655742645,0.0,0.0,0.0,0.0,0.0,0.0,0.0,-0.39319498831580985,-0.11007959851919374,-0.22574207128613738,0.25520220973380137,-0.014105903622911664,0.09249790491212313,-0.20493539936049193,1.2135174555151087,-0.22030797033351762,-0.007325370621403916,-2.6042806897414357,-0.10895651940725468,2.468121322684818,0.8264710866527425,1.2134413937687574,-0.2202432315892585,-0.0075118285948192216,-2.6038483821997875,-0.10888392708698907,2.4681821257803174,0.826474908251239,0.0005541283126982654,-0.0007800785716807766,0.0006246919434716529,-0.0004839123680623717,0.00019944671605373935,-0.0002582868159860629,0.0007350953566801223,0.0,0.0,0.0,0.0,0.0,0.0,0.0,-7.606174635133023e-05,6.473874425913517e-05,-0.00018645797341530594,0.0004323075416481359,7.259232026560203e-05,6.080309549938434e-05,3.8215984965450644e-06,-0.0005541283126982654,0.0007800785716807766,-0.0006246919434716529,0.0004839123680623717,-0.00019944671605373935,0.0002582868159860629,-0.0007350953566801223,0.4267818331718445,19.816431045532227,0.4466826617717743,-20.031160354614258,-0.5642600655555725,-2.4694857597351074,0.22098104655742645,0
54,0.2649993896484375,-0.4267818331718445,-19.816431045532227,-0.4466826617717743,20.031160354614258,0.5642600655555725,2.4694857597351074,-0.22098104655742645,0.0,0.0,0.0,0.0,0.0,0.0,0.0,-0.39319498831580985,-0.11007959851919374,-0.22574207128613738,0.25520220973380137,-0.014105903622911664,0.09249790491212313,-0.20493539936049193,1.2135174555151087,-0.22030797033351762,-0.007325370621403916,-2.6042806897414357,-0.10895651940725468,2.468121322684818,0.8264710866527425,1.2134413937687574,-0.2202432315892585,-0.0075118285948192216,-2.6038483821997875,-0.10888392708698907,2.4681821257803174,0.826474908251239,0.0005541283126982654,-0.0007800785716807766,0.0006246919434716529,-0.0004839123680623717,0.00019944671605373935,-0.0002582868159860629,0.0007350953566801223,0.0,0.0,0.0,0.0,0.0,0.0,0.0,-7.606174635133023e-05,6.473874425913517e-05,-0.00018645797341530594,0.0004323075416481359,7.259232026560203e-05,6.080309549938434e-05,3.8215984965450644e-06,-0.0005541283126982654,0.0007800785716807766,-0.0006246919434716529,0.0004839123680623717,-0.00019944671605373935,0.0002582868159860629,-0.0007350953566801223,0.4267818331718445,19.816431045532227,0.4466826617717743,-20.031160354614258,-0.5642600655555725,-2.4694857597351074,0.22098104655742645,0
55,0.26999402046203613,-0.3752071261405945,-19.844202041625977,-0.3713042438030243,20.007356643676758,0.5761619210243225,2.4566683769226074,-0.20724813640117645,0.0,0.0,0.0,0.0,0.0,0.0,0.0,-0.3962251231913933,-0.11181664020314375,-0.22692319556638596,0.25941442231296424,-0.014874125473092394,0.09349257949993106,-0.20529462283801442,1.2135138362374223,-0.2203060214916865,-0.007328529791808372,-2.6042790182880955,-0.10895748696924897,2.4681227468384637,0.8264695607738363,1.2134413937687574,-0.2202432315892585,-0.0075118285948192216,-2.6038483821997875,-0.10888392708698907,2.4681821257803174,0.826474908251239,-0.0008224529055719042,0.0003008369573133802,-0.0011475764348063756,0.00031902162895001073,-0.000345676031458499,0.0003037889863949467,0.00046093574161079067,0.0,0.0,0.0,0.0,0.0,0.0,0.0,-7.244246866489057e-05,6.278990242800098e-05,-0.0001832988030108498,0.0004306360883079563,7.355988225989096e-05,5.937894185370496e-05,5.34747740277286e-06,0.0008224529055719042,-0.0003008369573133802,0.0011475764348063756,-0.00031902162895001073,0.000345676031458499,-0.0003037889863949467,-0.00046093574161079067,0.3752071261405945,19.844202041625977,0.3713042438030243,-20.007356643676758,-0.5761619210243225,-2.4566683769226074,0.20724813640117645,0
56,0.2750115394592285,-0.3752071261405945,-19.844202041625977,-0.3713042438030243,20.007356643676758,0.5761619210243225,2.4566683769226074,-0.20724813640117645,0.0,0.0,0.0,0.0,0.0,0.0,0.0,-0.3962251231913933,-0.11181664020314375,-0.22692319556638596,0.25941442231296424,-0.014874125473092394,0.09349257949993106,-0.20529462283801442,1.2135138362374223,-0.2203060214916865,-0.007328529791808372,-2.6042790182880955,-0.10895748696924897,2.4681227468384637,0.8264695607738363,1.2134413937687574,-0.2202432315892585,-0.0075118285948192216,-2.6038483821997875,-0.10888392708698907,2.4681821257803174,0.826474908251239,-0.0008224529055719042,0.0003008369573133802,-0.0011475764348063756,0.00031902162895001073,-0.000345676031458499,0.0003037889863949467,0.00046093574161079067,0.0,0.0,0.0,0.0,0.0,0.0,0.0,-7.244246866489057e-05,6.278990242800098e-05,-0.0001832988030108498,0.0004306360883079563,7.355988225989096e-05,5.937894185370496e-05,5.34747740277286e-06,0.0008224529055719042,-0.0003008369573133802,0.0011475764348063756,-0.00031902162895001073,0.000345676031458499,-0.0003037889863949467,-0.00046093574161079067,0.3752071261405945,19.844202041625977,0.3713042438030243,-20.007356643676758,-0.5761619210243225,-2.4566683769226074,0.20724813640117645,0
57,0.28000831604003906,-0.3752071261405945,-19.868005752563477,-0.4228789508342743,20.031160354614258,0.5578513741493225,2.4566683769226074,-0.16604940593242645,0.0,0.0,0.0,0.0,0.0,0.0,0.0,-0.3959936068960803,-0.11799826221550554,-0.22047999255839634,0.26063415251070965,-0.015635425189453232,0.09376617757092437,-0.20449662548862896,1.2135138362374223,-0.2203043510558312,-0.007326300636500936,-2.60428068974143,-0.1089554524620374,2.4681227468384637,0.8264681620515054,1.2134413937687574,-0.2202432315892585,-0.0075118285948192216,-2.6038483821997875,-0.10888392708698907,2.4681821257803174,0.826474908251239,-0.00023960465413943967,0.00018158538684137087,0.0003616529563290823,-0.00012183317246738952,0.00025629560264956976,0.0001601797039596669,-0.0016952419225489865,0.0,0.0,0.0,0.0,0.0,0.0,0.0,-7.244246866489057e-05,6.111946657272327e-05,-0.0001855279583182854,0.00043230754164236274,7.152537504832857e-05,5.937894185370496e-05,6.7461997336204504e-06,0.00023960465413943967,-0.00018158538684137087,-0.0003616529563290823,0.00012183317246738952,-0.00025629560264956976,-0.0001601797039596669,0.0016952419225489865,0.3752071261405945,19.868005752563477,0.4228789508342743,-20.031160354614258,-0.5578513741493225,-2.4566683769226074,0.16604940593242645,0
58,0.2849874496459961,-0.3752071261405945,-19.868005752563477,-0.4228789508342743,20.031160354614258,0.5578513741493225,2.4566683769226074,-0.16604940593242645,0.0,0.0,0.0,0.0,0.0,0.0,0.0,-0.3959936068960803,-0.11799826221550554,-0.22047999255839634,0.26063415251070965,-0.015635425189453232,0.09376617757092437,-0.20449662548862896,1.2135138362374223,-0.2203043510558312,-0.007326300636500936,-2.60428068974143,-0.1089554524620374,2.4681227468384637,0.8264681620515054,1.2134413937687574,-0.2202432315892585,-0.0075118285948192216,-2.6038483821997875,-0.10888392708698907,2.4681821257803174,0.826474908251239,-0.00023960465413943967,0.00018158538684137087,0.0003616529563290823,-0.00012183317246738952,0.00025629560264956976,0.0001601797039596669,-0.0016952419225489865,0.0,0.0,0.0,0.0,0.0,0.0,0.0,-7.244246866489057e-05,6.111946657272327e-05,-0.0001855279583182854,0.00043230754164236274,7.152537504832857e-05,5.937894185370496e-05,6.7461997336204504e-06,0.00023960465413943967,-0.00018158538684137087,-0.0003616529563290823,0.00012183317246738952,-0.00025629560264956976,-0.0001601797039596669,0.0016952419225489865,0.3752071261405945,19.868005752563477,0.4228789508342743,-20.031160354614258,-0.5578513741493225,-2.4566683769226074,0.16604940593242645,0
59,0.2900087833404541,-0.3752071261405945,-19.844202041625977,-0.4228789508342743,20.007356643676758,0.5642600655555725,2.4694857597351074,-0.20724813640117645,0.0,0.0,0.0,0.0,0.0,0.0,0.0,-0.39761393280888285,-0.11746252844360214,-0.2176151398707582,0.2584551602752883,-0.016026335911223696,0.09285023619166774,-0.20335750707405756,1.2135138362374223,-0.2203060214916865,-0.007327040740821816,-2.6042790193055807,-0.10895616453886033,2.468121322684818,0.8264695607917814,1.2134413937687574,-0.2202432315892585,-0.0075118285948192216,-2.6038483821997875,-0.10888392708698907,2.4681821257803174,0.826474908251239,-0.0005150913217723377,-0.0003748418884092779,0.0007742966368946491,0.00028497129700720677,0.0001761150652615449,-5.706884133855987e-05,0.00021469548535499991,0.0,0.0,0.0,0.0,0.0,0.0,0.0,-7.244246866489057e-05,6.278990242800098e-05,-0.0001847878539974054,0.0004306371057931635,7.223745187125152e-05,6.080309549938434e-05,5.3474594576830015e-06,0.0005150913217723377,0.0003748418884092779,-0.0007742966368946491,-0.00028497129700720677,-0.0001761150652615449,5.706884133855987e-05,-0.00021469548535499991,0.3752071261405945,19.844202041625977,0.4228789508342743,-20.007356643676758,-0.5642600655555725,-2.4694857597351074,0.20724813640117645,0
60,0.29500246047973633,-0.3752071261405945,-19.844202041625977,-0.4228789508342743,20.007356643676758,0.5642600655555725,2.4694857597351074,-0.20724813640117645,0.0,0.0,0.0,0.0,0.0,0.0,0.0,-0.39761393280888285,-0.11746252844360214,-0.2176151398707582,0.2584551602752883,-0.016026335911223696,0.09285023619166774,-0.20335750707405756,1.2135138362374223,-0.2203060214916865,-0.007327040740821816,-2.6042790193055807,-0.10895616453886033,2.468121322684818,0.8264695607917814,1.2134413937687574,-0.2202432315892585,-0.0075118285948192216,-2.6038483821997875,-0.10888392708698907,2.4681821257803174,0.826474908251239,-0.0005150913217723377,-0.0003748418884092779,0.0007742966368946491,0.00028497129700720677,0.0001761150652615449,-5.706884133855987e-05,0.00021469548535499991,0.0,0.0,0.0,0.0,0.0,0.0,0.0,-7.244246866489057e-05,6.278990242800098e-05,-0.0001847878539974054,0.0004306371057931635,7.223745187125152e-05,6.080309549938434e-05,5.3474594576830015e-06,0.0005150913217723377,0.0003748418884092779,-0.0007742966368946491,-0.00028497129700720677,-0.0001761150652615449,5.706884133855987e-05,-0.00021469548535499991,0.3752071261405945,19.844202041625977,0.4228789508342743,-20.007356643676758,-0.5642600655555725,-2.4694857597351074,0.20724813640117645,0
61,0.29999232292175293,-0.4267818331718445,-19.868005752563477,-0.4228789508342743,19.983552932739258,0.5642600655555725,2.4630770683288574,-0.20724813640117645,0.0,0.0,0.0,0.0,0.0,0.0,0.0,-0.4006606540870917,-0.1147726221957734,-0.21907077505012731,0.25556340573162717,-0.01621602968939546,0.0925252277688775,-0.2021091685176235,1.2135174555151087,-0.2203043510558312,-0.007327041057704232,-2.6042773488697253,-0.10895616453886033,2.468122034761641,0.8264696000196929,1.2134413937687574,-0.2202432315892585,-0.0075118285948192216,-2.6038483821997875,-0.10888392708698907,2.4681821257803174,0.826474908251239,0.000314504182472069,0.0006176642690087136,0.00015534614869806206,0.0012062266456829963,0.00016333735338029621,2.298902515837224e-06,-7.401008274320529e-05,0.0,0.0,0.0,0.0,0.0,0.0,0.0,-7.606174635133023e-05,6.111946657272327e-05,-0.00018478753711498926,0.000428966669937747,7.223745187125152e-05,6.009101867654465e-05,5.308231546097275e-06,-0.000314504182472069,-0.0006176642690087136,-0.00015534614869806206,-0.0012062266456829963,-0.00016333735338029621,-2.298902515837224e-06,7.401008274320529e-05,0.4267818331718445,19.868005752563477,0.4228789508342743,-19.983552932739258,-0.5642600655555725,-2.4630770683288574,0.20724813640117645,0
62,0.3050038814544678,-0.4267818331718445,-19.868005752563477,-0.4228789508342743,19.983552932739258,0.5642600655555725,2.4630770683288574,-0.20724813640117645,0.0,0.0,0.0,0.0,0.0,0.0,0.0,-0.4006606540870917,-0.1147726221957734,-0.21907077505012731,0.25556340573162717,-0.01621602968939546,0.0925252277688775,-0.2021091685176235,1.2135174555151087,-0.2203043510558312,-0.007327041057704232,-2.6042773488697253,-0.10895616453886033,2.468122034761641,0.8264696000196929,1.2134413937687574,-0.2202432315892585,-0.0075118285948192216,-2.6038483821997875,-0.10888392708698907,2.4681821257803174,0.826474908251239,0.000314504182472069,0.0006176642690087136,0.00015534614869806206,0.0012062266456829963,0.00016333735338029621,2.298902515837224e-06,-7.401008274320529e-05,0.0,0.0,0.0,0.0,0.0,0.0,0.0,-7.606174635133023e-05,6.111946657272327e-05,-0.00018478753711498926,0.000428966669937747,7.223745187125152e-05,6.009101867654465e-05,5.308231546097275e-06,-0.000314504182472069,-0.0006176642690087136,-0.00015534614869806206,-0.0012062266456829963,-0.00016333735338029621,-2.298902515837224e-06,7.401008274320529e-05,0.4267818331718445,19.868005752563477,0.4228789508342743,-19.983552932739258,-0.5642600655555725,-2.4630770683288574,0.20724813640117645,0
63,0.3100249767303467,-0.3514034152030945,-19.844202041625977,-0.3990752398967743,20.031160354614258,0.5642600655555725,2.4630770683288574,-0.17337362468242645,0.0,0.0,0.0,0.0,0.0,0.0,0.0,-0.3981761813321642,-0.11550245781234336,-0.21483757849274734,0.2530485680157806,-0.016686096380350044,0.09242574946176944,-0.2024015183607581,1.2135121658015668,-0.2203060214916865,-0.00732871150558696,-2.6042806897414357,-0.10895616453886033,2.468122034761641,0.8264657969398654,1.2134413937687574,-0.2202432315892585,-0.0075118285948192216,-2.6038483821997875,-0.10888392708698907,2.4681821257803174,0.826474908251239,-0.0011879967005878984,-0.00031469686923787335,-0.0005653770250685474,-0.0004163449139399195,0.00023482516198070446,0.000199316221695103,-0.0015293105939071768,0.0,0.0,0.0,0.0,0.0,0.0,0.0,-7.077203280947408e-05,6.278990242800098e-05,-0.00018311708923226134,0.0004323075416481359,7.223745187125152e-05,6.009101867654465e-05,9.111311373599662e-06,0.0011879967005878984,0.00031469686923787335,0.0005653770250685474,0.0004163449139399195,-0.00023482516198070446,-0.000199316221695103,0.0015293105939071768,0.3514034152030945,19.844202041625977,0.3990752398967743,-20.031160354614258,-0.5642600655555725,-2.4630770683288574,0.17337362468242645,0
64,0.3150033950805664,-0.3514034152030945,-19.844202041625977,-0.3990752398967743,20.031160354614258,0.5642600655555725,2.4630770683288574,-0.17337362468242645,0.0,0.0,0.0,0.0,0.0,0.0,0.0,-0.3981761813321642,-0.11550245781234336,-0.21483757849274734,0.2530485680157806,-0.016686096380350044,0.09242574946176944,-0.2024015183607581,1.2135121658015668,-0.2203060214916865,-0.00732871150558696,-2.6042806897414357,-0.10895616453886033,2.468122034761641,0.8264657969398654,1.2134413937687574,-0.2202432315892585,-0.0075118285948192216,-2.6038483821997875,-0.10888392708698907,2.4681821257803174,0.826474908251239,-0.0011879967005878984,-0.00031469686923787335,-0.0005653770250685474,-0.0004163449139399195,0.00023482516198070446,0.000199316221695103,-0.0015293105939071768,0.0,0.0,0.0,0.0,0.0,0.0,0.0,-7.077203280947408e-05,6.278990242800098e-05,-0.00018311708923226134,0.0004323075416481359,7.223745187125152e-05,6.009101867654465e-05,9.111311373599662e-06,0.0011879967005878984,0.00031469686923787335,0.0005653770250685474,0.0004163449139399195,-0.00023482516198070446,-0.000199316221695103,0.0015293105939071768,0.3514034152030945,19.844202041625977,0.3990752398967743,-20.031160354614258,-0.5642600655555725,-2.4630770683288574,0.17337362468242645,0
65,0.3199918270111084,-0.4267818331718445,-19.816431045532227,-0.3990752398967743,20.082735061645508,0.5642600655555725,2.4694857597351074,-0.20083944499492645,0.0,0.0,0.0,0.0,0.0,0.0,0.0,-0.3948831937210133,-0.11496519966169412,-0.21442732628359557,0.25302655529984075,-0.016991385445425583,0.09290047044884474,-0.20251101338687247,1.2135174555151087,-0.22030797033351762,-0.0073265796510560335,-2.604284309019122,-0.10895616453886033,2.468121322684818,0.8264688448208793,1.2134413937687574,-0.2202432315892585,-0.0075118285948192216,-2.6038483821997875,-0.10888392708698907,2.4681821257803174,0.826474908251239,0.00013771168890528722,-0.0006002087753787915,-0.00010263189427878347,-0.0014749257013811966,0.001310940497823583,-0.0002875368772576185,0.00018144131943574553,0.0,0.0,0.0,0.0,0.0,0.0,0.0,-7.606174635133023e-05,6.473874425913517e-05,-0.0001852489437631881,0.00043592681933457555,7.223745187125152e-05,6.080309549938434e-05,6.063430359692923e-06,-0.00013771168890528722,0.0006002087753787915,0.00010263189427878347,0.0014749257013811966,-0.001310940497823583,0.0002875368772576185,-0.00018144131943574553,0.4267818331718445,19.816431045532227,0.3990752398967743,-20.082735061645508,-0.5642600655555725,-2.4694857597351074,0.20083944499492645,0
66,0.32503223419189453,-0.4267818331718445,-19.816431045532227,-0.3990752398967743,20.082735061645508,0.5642600655555725,2.4694857597351074,-0.20083944499492645,0.0,0.0,0.0,0.0,0.0,0.0,0.0,-0.3948831937210133,-0.11496519966169412,-0.21442732628359557,0.25302655529984075,-0.016991385445425583,0.09290047044884474,-0.20251101338687247,1.2135174555151087,-0.22030797033351762,-0.0073265796510560335,-2.604284309019122,-0.10895616453886033,2.468121322684818,0.8264688448208793,1.2134413937687574,-0.2202432315892585,-0.0075118285948192216,-2.6038483821997875,-0.10888392708698907,2.4681821257803174,0.826474908251239,0.00013771168890528722,-0.0006002087753787915,-0.00010263189427878347,-0.0014749257013811966,0.001310940497823583,-0.0002875368772576185,0.00018144131943574553,0.0,0.0,0.0,0.0,0.0,0.0,0.0,-7.606174635133023e-05,6.473874425913517e-05,-0.0001852489437631881,0.00043592681933457555,7.223745187125152e-05,6.080309549938434e-05,6.063430359692923e-06,-0.00013771168890528722,0.0006002087753787915,0.00010263189427878347,0.0014749257013811966,-0.001310940497823583,0.0002875368772576185,-0.00018144131943574553,0.4267818331718445,19.816431045532227,0.3990752398967743,-20.082735061645508,-0.5642600655555725,-2.4694857597351074,0.20083944499492645,0
67,0.33003735542297363,-0.4267818331718445,-19.816431045532227,-0.3990752398967743,20.082735061645508,0.5642600655555725,2.4694857597351074,-0.20083944499492645,0.0,0.0,0.0,0.0,0.0,0.0,0.0,-0.3948831937210133,-0.11496519966169412,-0.21442732628359557,0.25302655529984075,-0.016991385445425583,0.09290047044884474,-0.20251101338687247,1.2135174555151087,-0.22030797033351762,-0.0073265796510560335,-2.604284309019122,-0.10895616453886033,2.468121322684818,0.8264688448208793,1.2134413937687574,-0.2202432315892585,-0.0075118285948192216,-2.6038483821997875,-0.10888392708698907,2.4681821257803174,0.826474908251239,0.00013771168890528722,-0.0006002087753787915,-0.00010263189427878347,-0.0014749257013811966,0.001310940497823583,-0.0002875368772576185,0.00018144131943574553,0.0,0.0,0.0,0.0,0.0,0.0,0.0,-7.606174635133023e-05,6.473874425913517e-05,-0.0001852489437631881,0.00043592681933457555,7.223745187125152e-05,6.080309549938434e-05,6.063430359692923e-06,-0.00013771168890528722,0.0006002087753787915,0.00010263189427878347,0.0014749257013811966,-0.001310940497823583,0.0002875368772576185,-0.00018144131943574553,0.4267818331718445,19.816431045532227,0.3990752398967743,-20.082735061645508,-0.5642600655555725,-2.4694857597351074,0.20083944499492645,0
68,0.3350074291229248,-0.4267818331718445,-19.816431045532227,-0.3990752398967743,20.082735061645508,0.5642600655555725,2.4694857597351074,-0.20083944499492645,0.0,0.0,0.0,0.0,0.0,0.0,0.0,-0.3948831937210133,-0.11496519966169412,-0.21442732628359557,0.25302655529984075,-0.016991385445425583,0.09290047044884474,-0.20251101338687247,1.2135174555151087,-0.22030797033351762,-0.0073265796510560335,-2.604284309019122,-0.10895616453886033,2.468121322684818,0.8264688448208793,1.2134413937687574,-0.2202432315892585,-0.0075118285948192216,-2.6038483821997875,-0.10888392708698907,2.4681821257803174,0.826474908251239,0.00013771168890528722,-0.0006002087753787915,-0.00010263189427878347,-0.0014749257013811966,0.001310940497823583,-0.0002875368772576185,0.00018144131943574553,0.0,0.0,0.0,0.0,0.0,0.0,0.0,-7.606174635133023e-05,6.473874425913517e-05,-0.0001852489437631881,0.00043592681933457555,7.223745187125152e-05,6.080309549938434e-05,6.063430359692923e-06,-0.00013771168890528722,0.0006002087753787915,0.00010263189427878347,0.0014749257013811966,-0.001310940497823583,0.0002875368772576185,-0.00018144131943574553,0.4267818331718445,19.816431045532227,0.3990752398967743,-20.082735061645508,-0.5642600655555725,-2.4694857597351074,0.20083944499492645,0
69,0.34018754959106445,-0.3752071261405945,-19.868005752563477,-0.4228789508342743,20.007356643676758,0.5642600655555725,2.4694857597351074,-0.17337362468242645,0.0,0.0,0.0,0.0,0.0,0.0,0.0,-0.3961886066818552,-0.11468075504124067,-0.21239327524095022,0.2555703835050337,-0.016086790146502765,0.09250143823472642,-0.20214942946787956,1.2135138362374223,-0.2203043510558312,-0.007326961679175585,-2.6042790193055807,-0.10895616453886033,2.468121322684818,0.8264657969930141,1.2134413937687574,-0.2202432315892585,-0.0075118285948192216,-2.6038483821997875,-0.10888392708698907,2.4681821257803174,0.826474908251239,-0.0006637882464739936,0.0004999523098200663,0.00013579184477310608,0.0005915165629620673,0.00010967445630858377,-0.00019127422414299435,-0.0014345182005780263,0.0,0.0,0.0,0.0,0.0,0.0,0.0,-7.244246866489057e-05,6.111946657272327e-05,-0.00018486691564363698,0.0004306371057931635,7.223745187125152e-05,6.080309549938434e-05,9.111258224892005e-06,0.0006637882464739936,-0.0004999523098200663,-0.00013579184477310608,-0.0005915165629620673,-0.00010967445630858377,0.00019127422414299435,0.0014345182005780263,0.3752071261405945,19.868005752563477,0.4228789508342743,-20.007356643676758,-0.5642600655555725,-2.4694857597351074,0.17337362468242645,0
70,0.34499382972717285,-0.3752071261405945,-19.868005752563477,-0.4228789508342743,20.007356643676758,0.5642600655555725,2.4694857597351074,-0.17337362468242645,0.0,0.0,0.0,0.0,0.0,0.0,0.0,-0.3961886066818552,-0.11468075504124067,-0.21239327524095022,0.2555703835050337,-0.016086790146502765,0.09250143823472642,-0.20214942946787956,1.2135138362374223,-0.2203043510558312,-0.007326961679175585,-2.6042790193055807,-0.10895616453886033,2.468121322684818,0.8264657969930141,1.2134413937687574,-0.2202432315892585,-0.0075118285948192216,-2.6038483821997875,-0.10888392708698907,2.4681821257803174,0.826474908251239,-0.0006637882464739936,0.0004999523098200663,0.00013579184477310608,0.0005915165629620673,0.00010967445630858377,-0.00019127422414299435,-0.0014345182005780263,0.0,0.0,0.0,0.0,0.0,0.0,0.0,-7.244246866489057e-05,6.111946657272327e-05,-0.00018486691564363698,0.0004306371057931635,7.223745187125152e-05,6.080309549938434e-05,9.111258224892005e-06,0.0006637882464739936,-0.0004999523098200663,-0.00013579184477310608,-0.0005915165629620673,-0.00010967445630858377,0.00019127422414299435,0.0014345182005780263,0.3752071261405945,19.868005752563477,0.4228789508342743,-20.007356643676758,-0.5642600655555725,-2.4694857597351074,0.17337362468242645,0
71,0.3499448299407959,-0.4267818331718445,-19.816431045532227,-0.4228789508342743,20.007356643676758,0.5761619210243225,2.4630770683288574,-0.22098104655742645,0.0,0.0,0.0,0.0,0.0,0.0,0.0,-0.3981967145165579,-0.11159957526929008,-0.21465139523913335,0.2576447817422853,-0.016029890415052945,0.09270362362743022,-0.20261476342510432,1.2135174555151087,-0.22030797033351762,-0.007327003039755502,-2.6042790193055807,-0.10895748696724573,2.468122034761641,0.8264710866527428,1.2134413937687574,-0.2202432315892585,-0.0075118285948192216,-2.6038483821997875,-0.10888392708698907,2.4681821257803174,0.826474908251239,0.0009706923730244982,-0.0002798695672013841,0.00020575973461567932,0.0008527732702028436,-0.00029028162098351286,0.00019267150399160575,0.0004785270213803576,0.0,0.0,0.0,0.0,0.0,0.0,0.0,-7.606174635133023e-05,6.473874425913517e-05,-0.00018482555506371939,0.0004306371057931635,7.355988025666005e-05,6.009101867654465e-05,3.8215984962119975e-06,-0.0009706923730244982,0.0002798695672013841,-0.00020575973461567932,-0.0008527732702028436,0.00029028162098351286,-0.00019267150399160575,-0.0004785270213803576,0.4267818331718445,19.816431045532227,0.4228789508342743,-20.007356643676758,-0.5761619210243225,-2.4630770683288574,0.22098104655742645,0
72,0.3549976348876953,-0.4267818331718445,-19.816431045532227,-0.4228789508342743,20.007356643676758,0.5761619210243225,2.4630770683288574,-0.22098104655742645,0.0,0.0,0.0,0.0,0.0,0.0,0.0,-0.3981967145165579,-0.11159957526929008,-0.21465139523913335,0.2576447817422853,-0.016029890415052945,0.09270362362743022,-0.20261476342510432,1.2135174555151087,-0.22030797033351762,-0.007327003039755502,-2.6042790193055807,-0.10895748696724573,2.468122034761641,0.8264710866527428,1.2134413937687574,-0.2202432315892585,-0.0075118285948192216,-2.6038483821997875,-0.10888392708698907,2.4681821257803174,0.826474908251239,0.0009706923730244982,-0.0002798695672013841,0.00020575973461567932,0.0008527732702028436,-0.00029028162098351286,0.00019267150399160575,0.0004785270213803576,0.0,0.0,0.0,0.0,0.0,0.0,0.0,-7.606174635133023e-05,6.473874425913517e-05,-0.00018482555506371939,0.0004306371057931635,7.355988025666005e-05,6.009101867654465e-05,3.8215984962119975e-06,-0.0009706923730244982,0.0002798695672013841,-0.00020575973461567932,-0.0008527732702028436,0.00029028162098351286,-0.00019267150399160575,-0.0004785270213803576,0.4267818331718445,19.816431045532227,0.4228789508342743,-20.007356643676758,-0.5761619210243225,-2.4630770683288574,0.22098104655742645,0
73,0.36003684997558594,-0.4029781222343445,-19.844202041625977,-0.4228789508342743,20.054964065551758,0.5697532296180725,2.4566683769226074,-0.22098104655742645,0.0,0.0,0.0,0.0,0.0,0.0,0.0,-0.4017777921941608,-0.11297980858728121,-0.2196049610623004,0.2600104742443994,-0.015297277534787067,0.09319997853593888,-0.20225981052366598,1.2135157850792533,-0.2203060214916865,-0.007324585086164645,-2.604282360177291,-0.10895677489042283,2.4681227468384637,0.8264710866527425,1.2134413937687574,-0.2202432315892585,-0.0075118285948192216,-2.6038483821997875,-0.10888392708698907,2.4681821257803174,0.826474908251239,0.00011331524369506026,0.00023199972399655171,0.00043906704657365597,-0.0005189705823400754,-0.003924905480705544,0.0002907783800757156,0.00036846741079009506,0.0,0.0,0.0,0.0,0.0,0.0,0.0,-7.439131049591374e-05,6.278990242800098e-05,-0.00018724350865457692,0.0004339779775035524,7.284780343375097e-05,5.937894185370496e-05,3.8215984965450644e-06,-0.00011331524369506026,-0.00023199972399655171,-0.00043906704657365597,0.0005189705823400754,0.003924905480705544,-0.0002907783800757156,-0.00036846741079009506,0.4029781222343445,19.844202041625977,0.4228789508342743,-20.054964065551758,-0.5697532296180725,-2.4566683769226074,0.22098104655742645,0
74,0.36505794525146484,-0.4029781222343445,-19.844202041625977,-0.4228789508342743,20.054964065551758,0.5697532296180725,2.4566683769226074,-0.22098104655742645,0.0,0.0,0.0,0.0,0.0,0.0,0.0,-0.4017777921941608,-0.11297980858728121,-0.2196049610623004,0.2600104742443994,-0.015297277534787067,0.09319997853593888,-0.20225981052366598,1.2135157850792533,-0.2203060214916865,-0.007324585086164645,-2.604282360177291,-0.10895677489042283,2.4681227468384637,0.8264710866527425,1.2134413937687574,-0.2202432315892585,-0.0075118285948192216,-2.6038483821997875,-0.10888392708698907,2.4681821257803174,0.826474908251239,0.00011331524369506026,0.00023199972399655171,0.00043906704657365597,-0.0005189705823400754,-0.003924905480705544,0.0002907783800757156,0.00036846741079009506,0.0,0.0,0.0,0.0,0.0,0.0,0.0,-7.439131049591374e-05,6.278990242800098e-05,-0.00018724350865457692,0.0004339779775035524,7.284780343375097e-05,5.937894185370496e-05,3.8215984965450644e-06,-0.00011331524369506026,-0.00023199972399655171,-0.00043906704657365597,0.0005189705823400754,0.003924905480705544,-0.0002907783800757156,-0.00036846741079009506,0.4029781222343445,19.844202041625977,0.4228789508342743,-20.054964065551758,-0.5697532296180725,-2.4566683769226074,0.22098104655742645,0
75,0.37001562118530273,-0.4029781222343445,-19.868005752563477,-0.3990752398967743,20.007356643676758,0.5761619210243225,2.4630770683288574,-0.21457235515117645,0.0,0.0,0.0,0.0,0.0,0.0,0.0,-0.40116616020557305,-0.10976542911995028,-0.21739011536007619,0.25506871714979185,-0.015357520320818316,0.09233772431645573,-0.20267270526147693,1.2135157850792533,-0.2203043510558312,-0.007328631283334765,-2.6042790193055807,-0.10895748696724573,2.468122034761641,0.8264714342140489,1.2134413937687574,-0.2202432315892585,-0.0075118285948192216,-2.6038483821997875,-0.10888392708698907,2.4681821257803174,0.826474908251239,0.00013167507955596562,0.0005135276593435,-0.0005091892661298468,0.0003567591638545458,-0.0005587444305795514,-6.456540010439035e-05,0.000599419847556903,0.0,0.0,0.0,0.0,0.0,0.0,0.0,-7.439131049591374e-05,6.111946657272327e-05,-0.00018319731148445668,0.0004306371057931635,7.355988025666005e-05,6.009101867654465e-05,3.4740371901431644e-06,-0.00013167507955596562,-0.0005135276593435,0.0005091892661298468,-0.0003567591638545458,0.0005587444305795514,6.456540010439035e-05,-0.000599419847556903,0.4029781222343445,19.868005752563477,0.3990752398967743,-20.007356643676758,-0.5761619210243225,-2.4630770683288574,0.21457235515117645,0
76,0.3749561309814453,-0.4029781222343445,-19.868005752563477,-0.3990752398967743,20.007356643676758,0.5761619210243225,2.4630770683288574,-0.21457235515117645,0.0,0.0,0.0,0.0,0.0,0.0,0.0,-0.40116616020557305,-0.10976542911995028,-0.21739011536007619,0.25506871714979185,-0.015357520320818316,0.09233772431645573,-0.20267270526147693,1.2135157850792533,-0.2203043510558312,-0.007328631283334765,-2.6042790193055807,-0.10895748696724573,2.468122034761641,0.8264714342140489,1.2134413937687574,-0.2202432315892585,-0.0075118285948192216,-2.6038483821997875,-0.10888392708698907,2.4681821257803174,0.826474908251239,0.00013167507955596562,0.0005135276593435,-0.0005091892661298468,0.0003567591638545458,-0.0005587444305795514,-6.456540010439035e-05,0.000599419847556903,0.0,0.0,0.0,0.0,0.0,0.0,0.0,-7.439131049591374e-05,6.111946657272327e-05,-0.00018319731148445668,0.0004306371057931635,7.355988025666005e-05,6.009101867654465e-05,3.4740371901431644e-06,-0.00013167507955596562,-0.0005135276593435,0.0005091892661298468,-0.0003567591638545458,0.0005587444305795514,6.456540010439035e-05,-0.000599419847556903,0.4029781222343445,19.868005752563477,0.3990752398967743,-20.007356643676758,-0.5761619210243225,-2.4630770683288574,0.21457235515117645,0
77,0.3799889087677002,-0.4029781222343445,-19.844202041625977,-0.3990752398967743,20.007356643676758,0.5578513741493225,2.4566683769226074,-0.16604940593242645,0.0,0.0,0.0,0.0,0.0,0.0,0.0,-0.3957840827412732,-0.11144193221772233,-0.21272993890179365,0.2574535895027907,-0.01578120089188239,0.09327116199567169,-0.20318665966839575,1.2135157850792533,-0.2203060214916865,-0.0073279895213961685,-2.6042790193055807,-0.10895540865112452,2.4681227468384637,0.8264649831430991,1.2134413937687574,-0.2202432315892585,-0.0075118285948192216,-2.6038483821997875,-0.10888392708698907,2.4681821257803174,0.826474908251239,0.0005497988367027147,9.124074472047379e-05,-0.0003792918257131067,0.0012106541215285767,0.005830028008970738,0.0002503477952259915,-0.0015611506255875259,0.0,0.0,0.0,0.0,0.0,0.0,0.0,-7.439131049591374e-05,6.278990242800098e-05,-0.0001838390734230531,0.0004306371057931635,7.148156413544493e-05,5.937894185370496e-05,9.925108139907657e-06,-0.0005497988367027147,-9.124074472047379e-05,0.0003792918257131067,-0.0012106541215285767,-0.005830028008970738,-0.0002503477952259915,0.0015611506255875259,0.4029781222343445,19.844202041625977,0.3990752398967743,-20.007356643676758,-0.5578513741493225,-2.4566683769226074,0.16604940593242645,0
78,0.3849489688873291,-0.4029781222343445,-19.844202041625977,-0.3990752398967743,20.007356643676758,0.5578513741493225,2.4566683769226074,-0.16604940593242645,0.0,0.0,0.0,0.0,0.0,0.0,0.0,-0.3957840827412732,-0.11144193221772233,-0.21272993890179365,0.2574535895027907,-0.01578120089188239,0.09327116199567169,-0.20318665966839575,1.2135157850792533,-0.2203060214916865,-0.0073279895213961685,-2.6042790193055807,-0.10895540865112452,2.4681227468384637,0.8264649831430991,1.2134413937687574,-0.2202432315892585,-0.0075118285948192216,-2.6038483821997875,-0.10888392708698907,2.4681821257803174,0.826474908251239,0.0005497988367027147,9.124074472047379e-05,-0.0003792918257131067,0.0012106541215285767,0.005830028008970738,0.0002503477952259915,-0.0015611506255875259,0.0,0.0,0.0,0.0,0.0,0.0,0.0,-7.439131049591374e-05,6.278990242800098e-05,-0.0001838390734230531,0.0004306371057931635,7.148156413544493e-05,5.937894185370496e-05,9.925108139907657e-06,-0.0005497988367027147,-9.124074472047379e-05,0.0003792918257131067,-0.0012106541215285767,-0.005830028008970738,-0.0002503477952259915,0.0015611506255875259,0.4029781222343445,19.844202041625977,0.3990752398967743,-20.007356643676758,-0.5578513741493225,-2.4566683769226074,0.16604940593242645,0
79,0.3899874687194824,-0.3752071261405945,-19.844202041625977,-0.3990752398967743,20.007356643676758,0.5642600655555725,2.4566683769226074,-0.19351522624492645,0.0,0.0,0.0,0.0,0.0,0.0,0.0,-0.39468938068199255,-0.10503855826826046,-0.2112824597163059,0.25201261385448986,-0.01570575789854224,0.09181675224603258,-0.2033565867802166,1.2135138362374223,-0.2203060214916865,-0.007328685190204621,-2.6042790193055807,-0.10895616453811838,2.4681231000511734,0.8264680348949301,1.2134413937687574,-0.2202432315892585,-0.0075118285948192216,-2.6038483821997875,-0.10888392708698907,2.4681821257803174,0.826474908251239,-0.00014854445545948173,6.86271316968525e-05,-0.00023342681422014764,0.0005839452546221291,0.0005427762954428998,0.00020783844822147988,-0.000662991282570541,0.0,0.0,0.0,0.0,0.0,0.0,0.0,-7.244246866489057e-05,6.278990242800098e-05,-0.0001831434046146007,0.0004306371057931635,7.223745112930335e-05,5.902572914395776e-05,6.873356308889633e-06,0.00014854445545948173,-6.86271316968525e-05,0.00023342681422014764,-0.0005839452546221291,-0.0005427762954428998,-0.00020783844822147988,0.000662991282570541,0.3752071261405945,19.844202041625977,0.3990752398967743,-20.007356643676758,-0.5642600655555725,-2.4566683769226074,0.19351522624492645,0
