rezayati/contactInterpretation/dataset/franka_main/labeled_data/link4/d5_5.csv
index,time,tau_J0,tau_J1,tau_J2,tau_J3,tau_J4,tau_J5,tau_J6,tau_J_d0,tau_J_d1,tau_J_d2,tau_J_d3,tau_J_d4,tau_J_d5,tau_J_d6,tau_ext0,tau_ext1,tau_ext2,tau_ext3,tau_ext4,tau_ext5,tau_ext6,q0,q1,q2,q3,q4,q5,q6,q_d0,q_d1,q_d2,q_d3,q_d4,q_d5,q_d6,dq0,dq1,dq2,dq3,dq4,dq5,dq6,dq_d0,dq_d1,dq_d2,dq_d3,dq_d4,dq_d5,dq_d6,e0,e1,e2,e3,e4,e5,e6,de0,de1,de2,de3,de4,de5,de6,etau_J0,etau_J1,etau_J2,etau_J3,etau_J4,etau_J5,etau_J6,label
1,0.0,-0.5815059542655945,-46.57577133178711,-5.489101886749268,19.535249710083008,0.7665916085243225,2.3458895683288574,-0.20083944499492645,0.0,0.0,0.0,0.0,0.0,0.0,0.0,-0.6454164700154098,-0.2249488979269234,-0.3939644190177265,0.32984192236671245,0.192643025496913,0.09534075012634943,-0.185554825239578,0.8780147811864552,0.7557500549623439,-0.282436158403693,-1.6690510390264943,0.14141012911690382,2.403577238351759,1.0273495086481172,0.878092876070424,0.7554597494309409,-0.2825552651693207,-1.6690993614607135,0.1414185955172306,2.4034451173676383,1.0273381002308042,-0.0003723541612938048,0.0001687519628426679,-0.0011388198313001998,-0.00017101257824651077,0.0003628985512373167,0.0005229261731716256,0.0010526572285592247,0.0,0.0,0.0,0.0,0.0,0.0,0.0,7.809488396881559e-05,-0.0002903055314030789,-0.00011910676562770783,-4.832243421915017e-05,8.466400326784251e-06,-0.0001321209841207427,-1.1408417313063524e-05,0.0003723541612938048,-0.0001687519628426679,0.0011388198313001998,0.00017101257824651077,-0.0003628985512373167,-0.0005229261731716256,-0.0010526572285592247,0.5815059542655945,46.57577133178711,5.489101886749268,-19.535249710083008,-0.7665916085243225,-2.3458895683288574,0.20083944499492645,0
2,0.003209352493286133,-0.6053096652030945,-46.50039291381836,-5.512905597686768,19.535249710083008,0.7730002999305725,2.3660311698913574,-0.22098104655742645,0.0,0.0,0.0,0.0,0.0,0.0,0.0,-0.6461262256023843,-0.2263650156998284,-0.39918134957244616,0.3259451599400899,0.19232595971117425,0.09517394624292232,-0.18588373373549236,0.8780164516223105,0.755744869249735,-0.28243667083672674,-1.6690510390264943,0.14140481259377505,2.40357463541291,1.0273506604754452,0.878092876070424,0.7554597494309409,-0.2825552651693207,-1.6690993614607135,0.1414185955172306,2.4034451173676383,1.0273381002308042,0.0006446222674734047,-0.0014801882062157525,-0.0004485153499582981,-0.0003472667589756102,0.00019271911378552652,-0.00018360301902473715,0.0014176201847651748,0.0,0.0,0.0,0.0,0.0,0.0,0.0,7.642444811351012e-05,-0.00028511981879419945,-0.00011859433259397978,-4.832243421915017e-05,1.3782923455551988e-05,-0.00012951804527183697,-1.2560244641024454e-05,-0.0006446222674734047,0.0014801882062157525,0.0004485153499582981,0.0003472667589756102,-0.00019271911378552652,0.00018360301902473715,-0.0014176201847651748,0.6053096652030945,46.50039291381836,5.512905597686768,-19.535249710083008,-0.7730002999305725,-2.3660311698913574,0.22098104655742645,0
3,0.008195638656616211,-0.6053096652030945,-46.50039291381836,-5.512905597686768,19.535249710083008,0.7730002999305725,2.3660311698913574,-0.22098104655742645,0.0,0.0,0.0,0.0,0.0,0.0,0.0,-0.6461262256023843,-0.2263650156998284,-0.39918134957244616,0.3259451599400899,0.19232595971117425,0.09517394624292232,-0.18588373373549236,0.8780164516223105,0.755744869249735,-0.28243667083672674,-1.6690510390264943,0.14140481259377505,2.40357463541291,1.0273506604754452,0.878092876070424,0.7554597494309409,-0.2825552651693207,-1.6690993614607135,0.1414185955172306,2.4034451173676383,1.0273381002308042,0.0006446222674734047,-0.0014801882062157525,-0.0004485153499582981,-0.0003472667589756102,0.00019271911378552652,-0.00018360301902473715,0.0014176201847651748,0.0,0.0,0.0,0.0,0.0,0.0,0.0,7.642444811351012e-05,-0.00028511981879419945,-0.00011859433259397978,-4.832243421915017e-05,1.3782923455551988e-05,-0.00012951804527183697,-1.2560244641024454e-05,-0.0006446222674734047,0.0014801882062157525,0.0004485153499582981,0.0003472667589756102,-0.00019271911378552652,0.00018360301902473715,-0.0014176201847651748,0.6053096652030945,46.50039291381836,5.512905597686768,-19.535249710083008,-0.7730002999305725,-2.3660311698913574,0.22098104655742645,0
4,0.01319122314453125,-0.6053096652030945,-46.54800033569336,-5.612087726593018,19.559053421020508,0.7730002999305725,2.3522982597351074,-0.16604940593242645,0.0,0.0,0.0,0.0,0.0,0.0,0.0,-0.6448563009044808,-0.2284313784717825,-0.40177129870031886,0.32686498852928814,0.192693355798383,0.09556322917627502,-0.18600790174540996,0.8780164545657496,0.755748348826392,-0.2824275278645228,-1.6690527094623497,0.14140838151620905,2.4035729956127114,1.027344556959139,0.878092876070424,0.7554597494309409,-0.2825552651693207,-1.6690993614607135,0.1414185955172306,2.4034451173676383,1.0273381002308042,-8.571254295141585e-05,0.00036601457181330895,0.0016564165412069202,-0.0005560364427585144,0.00015981957844174758,0.00028403826533869613,-0.0009129648091426595,0.0,0.0,0.0,0.0,0.0,0.0,0.0,7.642150467435105e-05,-0.0002885993954511168,-0.00012773730479792578,-4.665199836373368e-05,1.0214001021552344e-05,-0.00012787824507309864,-6.456728334880424e-06,8.571254295141585e-05,-0.00036601457181330895,-0.0016564165412069202,0.0005560364427585144,-0.00015981957844174758,-0.00028403826533869613,0.0009129648091426595,0.6053096652030945,46.54800033569336,5.612087726593018,-19.559053421020508,-0.7730002999305725,-2.3522982597351074,0.16604940593242645,0
5,0.018210172653198242,-0.6053096652030945,-46.54800033569336,-5.612087726593018,19.559053421020508,0.7730002999305725,2.3522982597351074,-0.16604940593242645,0.0,0.0,0.0,0.0,0.0,0.0,0.0,-0.6448563009044808,-0.2284313784717825,-0.40177129870031886,0.32686498852928814,0.192693355798383,0.09556322917627502,-0.18600790174540996,0.8780164545657496,0.755748348826392,-0.2824275278645228,-1.6690527094623497,0.14140838151620905,2.4035729956127114,1.027344556959139,0.878092876070424,0.7554597494309409,-0.2825552651693207,-1.6690993614607135,0.1414185955172306,2.4034451173676383,1.0273381002308042,-8.571254295141585e-05,0.00036601457181330895,0.0016564165412069202,-0.0005560364427585144,0.00015981957844174758,0.00028403826533869613,-0.0009129648091426595,0.0,0.0,0.0,0.0,0.0,0.0,0.0,7.642150467435105e-05,-0.0002885993954511168,-0.00012773730479792578,-4.665199836373368e-05,1.0214001021552344e-05,-0.00012787824507309864,-6.456728334880424e-06,8.571254295141585e-05,-0.00036601457181330895,-0.0016564165412069202,0.0005560364427585144,-0.00015981957844174758,-0.00028403826533869613,0.0009129648091426595,0.6053096652030945,46.54800033569336,5.612087726593018,-19.559053421020508,-0.7730002999305725,-2.3522982597351074,0.16604940593242645,0
6,0.02323436737060547,-0.6568843722343445,-46.57577133178711,-5.588284015655518,19.511445999145508,0.7784934639930725,2.3522982597351074,-0.22098104655742645,0.0,0.0,0.0,0.0,0.0,0.0,0.0,-0.6343024230047563,-0.23530491742377654,-0.3964232590152024,0.3337726791244029,0.19241445446193045,0.09584241615575083,-0.1860385235573138,0.8780200709000134,0.7557501599276238,-0.28242920574221153,-1.669051514357851,0.14140529825975967,2.40357419504297,1.027350660474764,0.878092876070424,0.7554597494309409,-0.2825552651693207,-1.6690993614607135,0.1414185955172306,2.4034451173676383,1.0273381002308042,0.0005955198929709653,0.0005778801101914241,0.00035033835845339967,0.0008301710243141454,-3.845377979821168e-05,0.00046188784719850787,0.0010490217375114358,0.0,0.0,0.0,0.0,0.0,0.0,0.0,7.280517041052814e-05,-0.00029041049668299124,-0.00012605942710919305,-4.7847102862430546e-05,1.3297257470928914e-05,-0.00012907767533176795,-1.2560243959791606e-05,-0.0005955198929709653,-0.0005778801101914241,-0.00035033835845339967,-0.0008301710243141454,3.845377979821168e-05,-0.00046188784719850787,-0.0010490217375114358,0.6568843722343445,46.57577133178711,5.588284015655518,-19.511445999145508,-0.7784934639930725,-2.3522982597351074,0.22098104655742645,0
7,0.028196096420288086,-0.6568843722343445,-46.57577133178711,-5.588284015655518,19.511445999145508,0.7784934639930725,2.3522982597351074,-0.22098104655742645,0.0,0.0,0.0,0.0,0.0,0.0,0.0,-0.6343024230047563,-0.23530491742377654,-0.3964232590152024,0.3337726791244029,0.19241445446193045,0.09584241615575083,-0.1860385235573138,0.8780200709000134,0.7557501599276238,-0.28242920574221153,-1.669051514357851,0.14140529825975967,2.40357419504297,1.027350660474764,0.878092876070424,0.7554597494309409,-0.2825552651693207,-1.6690993614607135,0.1414185955172306,2.4034451173676383,1.0273381002308042,0.0005955198929709653,0.0005778801101914241,0.00035033835845339967,0.0008301710243141454,-3.845377979821168e-05,0.00046188784719850787,0.0010490217375114358,0.0,0.0,0.0,0.0,0.0,0.0,0.0,7.280517041052814e-05,-0.00029041049668299124,-0.00012605942710919305,-4.7847102862430546e-05,1.3297257470928914e-05,-0.00012907767533176795,-1.2560243959791606e-05,-0.0005955198929709653,-0.0005778801101914241,-0.00035033835845339967,-0.0008301710243141454,3.845377979821168e-05,-0.00046188784719850787,-0.0010490217375114358,0.6568843722343445,46.57577133178711,5.588284015655518,-19.511445999145508,-0.7784934639930725,-2.3522982597351074,0.22098104655742645,0
8,0.03319430351257324,-0.6568843722343445,-46.57577133178711,-5.564480304718018,19.559053421020508,0.7730002999305725,2.3596224784851074,-0.15964071452617645,0.0,0.0,0.0,0.0,0.0,0.0,0.0,-0.6403159031826209,-0.22679646886868074,-0.4006288569992964,0.3297745563378886,0.19257060130943604,0.09554110484794101,-0.1868480691696288,0.8780200708999969,0.7557500809627292,-0.2824309062443918,-1.6690527094744627,0.14140933851716633,2.403573397290545,1.0273438453789456,0.878092876070424,0.7554597494309409,-0.2825552651693207,-1.6690993614607135,0.1414185955172306,2.4034451173676383,1.0273381002308042,-5.938368495110375e-05,0.00042263101306377925,-0.0005221435792719164,-0.000552108321159943,0.00014163900259867943,0.00017371398693228672,-0.0016652379264720444,0.0,0.0,0.0,0.0,0.0,0.0,0.0,7.280517042707046e-05,-0.0002903315317883681,-0.00012435892492890233,-4.6651986250756394e-05,9.257000064266663e-06,-0.00012827992290675994,-5.745148141445e-06,5.938368495110375e-05,-0.00042263101306377925,0.0005221435792719164,0.000552108321159943,-0.00014163900259867943,-0.00017371398693228672,0.0016652379264720444,0.6568843722343445,46.57577133178711,5.564480304718018,-19.559053421020508,-0.7730002999305725,-2.3596224784851074,0.15964071452617645,0
9,0.038192033767700195,-0.6568843722343445,-46.57577133178711,-5.564480304718018,19.559053421020508,0.7730002999305725,2.3596224784851074,-0.15964071452617645,0.0,0.0,0.0,0.0,0.0,0.0,0.0,-0.6403159031826209,-0.22679646886868074,-0.4006288569992964,0.3297745563378886,0.19257060130943604,0.09554110484794101,-0.1868480691696288,0.8780200708999969,0.7557500809627292,-0.2824309062443918,-1.6690527094744627,0.14140933851716633,2.403573397290545,1.0273438453789456,0.878092876070424,0.7554597494309409,-0.2825552651693207,-1.6690993614607135,0.1414185955172306,2.4034451173676383,1.0273381002308042,-5.938368495110375e-05,0.00042263101306377925,-0.0005221435792719164,-0.000552108321159943,0.00014163900259867943,0.00017371398693228672,-0.0016652379264720444,0.0,0.0,0.0,0.0,0.0,0.0,0.0,7.280517042707046e-05,-0.0002903315317883681,-0.00012435892492890233,-4.6651986250756394e-05,9.257000064266663e-06,-0.00012827992290675994,-5.745148141445e-06,5.938368495110375e-05,-0.00042263101306377925,0.0005221435792719164,0.000552108321159943,-0.00014163900259867943,-0.00017371398693228672,0.0016652379264720444,0.6568843722343445,46.57577133178711,5.564480304718018,-19.559053421020508,-0.7730002999305725,-2.3596224784851074,0.15964071452617645,0
10,0.04315614700317383,-0.6568843722343445,-46.57577133178711,-5.564480304718018,19.559053421020508,0.7730002999305725,2.3596224784851074,-0.15964071452617645,0.0,0.0,0.0,0.0,0.0,0.0,0.0,-0.6403159031826209,-0.22679646886868074,-0.4006288569992964,0.3297745563378886,0.19257060130943604,0.09554110484794101,-0.1868480691696288,0.8780200708999969,0.7557500809627292,-0.2824309062443918,-1.6690527094744627,0.14140933851716633,2.403573397290545,1.0273438453789456,0.878092876070424,0.7554597494309409,-0.2825552651693207,-1.6690993614607135,0.1414185955172306,2.4034451173676383,1.0273381002308042,-5.938368495110375e-05,0.00042263101306377925,-0.0005221435792719164,-0.000552108321159943,0.00014163900259867943,0.00017371398693228672,-0.0016652379264720444,0.0,0.0,0.0,0.0,0.0,0.0,0.0,7.280517042707046e-05,-0.0002903315317883681,-0.00012435892492890233,-4.6651986250756394e-05,9.257000064266663e-06,-0.00012827992290675994,-5.745148141445e-06,5.938368495110375e-05,-0.00042263101306377925,0.0005221435792719164,0.000552108321159943,-0.00014163900259867943,-0.00017371398693228672,0.0016652379264720444,0.6568843722343445,46.57577133178711,5.564480304718018,-19.559053421020508,-0.7730002999305725,-2.3596224784851074,0.15964071452617645,0
11,0.04819440841674805,-0.6568843722343445,-46.57577133178711,-5.564480304718018,19.559053421020508,0.7730002999305725,2.3596224784851074,-0.15964071452617645,0.0,0.0,0.0,0.0,0.0,0.0,0.0,-0.6403159031826209,-0.22679646886868074,-0.4006288569992964,0.3297745563378886,0.19257060130943604,0.09554110484794101,-0.1868480691696288,0.8780200708999969,0.7557500809627292,-0.2824309062443918,-1.6690527094744627,0.14140933851716633,2.403573397290545,1.0273438453789456,0.878092876070424,0.7554597494309409,-0.2825552651693207,-1.6690993614607135,0.1414185955172306,2.4034451173676383,1.0273381002308042,-5.938368495110375e-05,0.00042263101306377925,-0.0005221435792719164,-0.000552108321159943,0.00014163900259867943,0.00017371398693228672,-0.0016652379264720444,0.0,0.0,0.0,0.0,0.0,0.0,0.0,7.280517042707046e-05,-0.0002903315317883681,-0.00012435892492890233,-4.6651986250756394e-05,9.257000064266663e-06,-0.00012827992290675994,-5.745148141445e-06,5.938368495110375e-05,-0.00042263101306377925,0.0005221435792719164,0.000552108321159943,-0.00014163900259867943,-0.00017371398693228672,0.0016652379264720444,0.6568843722343445,46.57577133178711,5.564480304718018,-19.559053421020508,-0.7730002999305725,-2.3596224784851074,0.15964071452617645,0
12,0.0531926155090332,-0.7084590792655945,-46.59957504272461,-5.612087726593018,19.559053421020508,0.7610984444618225,2.3522982597351074,-0.22098104655742645,0.0,0.0,0.0,0.0,0.0,0.0,0.0,-0.6518703888657236,-0.2205331225802772,-0.4041121472935404,0.32782241072924545,0.1928697664943796,0.0959956631034965,-0.18818577731476124,0.8780237696505429,0.7557517264677331,-0.28242830700783356,-1.6690527094623497,0.14140711774591525,2.4035773720799876,1.0273506604747669,0.878092876070424,0.7554597494309409,-0.2825552651693207,-1.6690993614607135,0.1414185955172306,2.4034451173676383,1.0273381002308042,0.00016051034647491654,0.001115901076674552,0.00020259784280456472,-0.0008070930247509207,0.0005633042366854882,0.0005083439613235984,0.0011612411234782638,0.0,0.0,0.0,0.0,0.0,0.0,0.0,6.910641988111532e-05,-0.00029197703679229026,-0.00012695816148716732,-4.665199836373368e-05,1.1477771315354657e-05,-0.00013225471234923347,-1.2560243962678186e-05,-0.00016051034647491654,-0.001115901076674552,-0.00020259784280456472,0.0008070930247509207,-0.0005633042366854882,-0.0005083439613235984,-0.0011612411234782638,0.7084590792655945,46.59957504272461,5.612087726593018,-19.559053421020508,-0.7610984444618225,-2.3522982597351074,0.22098104655742645,0
13,0.05820131301879883,-0.7084590792655945,-46.59957504272461,-5.612087726593018,19.559053421020508,0.7610984444618225,2.3522982597351074,-0.22098104655742645,0.0,0.0,0.0,0.0,0.0,0.0,0.0,-0.6518703888657236,-0.2205331225802772,-0.4041121472935404,0.32782241072924545,0.1928697664943796,0.0959956631034965,-0.18818577731476124,0.8780237696505429,0.7557517264677331,-0.28242830700783356,-1.6690527094623497,0.14140711774591525,2.4035773720799876,1.0273506604747669,0.878092876070424,0.7554597494309409,-0.2825552651693207,-1.6690993614607135,0.1414185955172306,2.4034451173676383,1.0273381002308042,0.00016051034647491654,0.001115901076674552,0.00020259784280456472,-0.0008070930247509207,0.0005633042366854882,0.0005083439613235984,0.0011612411234782638,0.0,0.0,0.0,0.0,0.0,0.0,0.0,6.910641988111532e-05,-0.00029197703679229026,-0.00012695816148716732,-4.665199836373368e-05,1.1477771315354657e-05,-0.00013225471234923347,-1.2560243962678186e-05,-0.00016051034647491654,-0.001115901076674552,-0.00020259784280456472,0.0008070930247509207,-0.0005633042366854882,-0.0005083439613235984,-0.0011612411234782638,0.7084590792655945,46.59957504272461,5.612087726593018,-19.559053421020508,-0.7610984444618225,-2.3522982597351074,0.22098104655742645,0
14,0.0632021427154541,-0.6806880831718445,-46.54800033569336,-5.635891437530518,19.511445999145508,0.7730002999305725,2.3660311698913574,-0.20083944499492645,0.0,0.0,0.0,0.0,0.0,0.0,0.0,-0.6525191384786555,-0.22187828180837563,-0.39764940494754564,0.33054875036445164,0.1919151840145339,0.09707632821962388,-0.1886939366026513,0.8780217413360015,0.7557483401233477,-0.28242589108633703,-1.6690493685906391,0.14140792104829944,2.4035714695625923,1.027348422684578,0.878092876070424,0.7554597494309409,-0.2825552651693207,-1.6690993614607135,0.1414185955172306,2.4034451173676383,1.0273381002308042,-0.000658736887181843,3.5676331459740286e-05,0.00044332845692737907,0.0005805274310947953,7.767126386335307e-06,-8.061427823526389e-05,0.0007475729733028657,0.0,0.0,0.0,0.0,0.0,0.0,0.0,7.113473442244e-05,-0.00028859069240683155,-0.0001293740829836909,-4.999287007434461e-05,1.0674468931159975e-05,-0.00012635219495393812,-1.0322453773747853e-05,0.000658736887181843,-3.5676331459740286e-05,-0.00044332845692737907,-0.0005805274310947953,-7.767126386335307e-06,8.061427823526389e-05,-0.0007475729733028657,0.6806880831718445,46.54800033569336,5.635891437530518,-19.511445999145508,-0.7730002999305725,-2.3660311698913574,0.20083944499492645,0
15,0.06818723678588867,-0.6806880831718445,-46.54800033569336,-5.635891437530518,19.511445999145508,0.7730002999305725,2.3660311698913574,-0.20083944499492645,0.0,0.0,0.0,0.0,0.0,0.0,0.0,-0.6525191384786555,-0.22187828180837563,-0.39764940494754564,0.33054875036445164,0.1919151840145339,0.09707632821962388,-0.1886939366026513,0.8780217413360015,0.7557483401233477,-0.28242589108633703,-1.6690493685906391,0.14140792104829944,2.4035714695625923,1.027348422684578,0.878092876070424,0.7554597494309409,-0.2825552651693207,-1.6690993614607135,0.1414185955172306,2.4034451173676383,1.0273381002308042,-0.000658736887181843,3.5676331459740286e-05,0.00044332845692737907,0.0005805274310947953,7.767126386335307e-06,-8.061427823526389e-05,0.0007475729733028657,0.0,0.0,0.0,0.0,0.0,0.0,0.0,7.113473442244e-05,-0.00028859069240683155,-0.0001293740829836909,-4.999287007434461e-05,1.0674468931159975e-05,-0.00012635219495393812,-1.0322453773747853e-05,0.000658736887181843,-3.5676331459740286e-05,-0.00044332845692737907,-0.0005805274310947953,-7.767126386335307e-06,8.061427823526389e-05,-0.0007475729733028657,0.6806880831718445,46.54800033569336,5.635891437530518,-19.511445999145508,-0.7730002999305725,-2.3660311698913574,0.20083944499492645,0
16,0.07320880889892578,-0.7084590792655945,-46.57577133178711,-5.588284015655518,19.511445999145508,0.7730002999305725,2.3522982597351074,-0.18710653483867645,0.0,0.0,0.0,0.0,0.0,0.0,0.0,-0.6586570969745466,-0.21471269810781396,-0.39756615872839024,0.32540545407882926,0.19101257274187616,0.09621171491665345,-0.18834280386433827,0.8780236901776832,0.7557500669467918,-0.28242919700427654,-1.6690493686996555,0.14140940495274462,2.403576329985269,1.0273468966401293,0.878092876070424,0.7554597494309409,-0.2825552651693207,-1.6690993614607135,0.1414185955172306,2.4034451173676383,1.0273381002308042,6.66350386140864e-05,0.0008575920589108975,-0.00015263287088556599,0.0002094114454301737,9.735032420605985e-05,0.00016864342345620923,0.00021192152850752307,0.0,0.0,0.0,0.0,0.0,0.0,0.0,6.918589274074183e-05,-0.00029031751585095744,-0.00012606816504417973,-4.999276105799311e-05,9.190564485977992e-06,-0.000131212617630716,-8.796409325162458e-06,-6.66350386140864e-05,-0.0008575920589108975,0.00015263287088556599,-0.0002094114454301737,-9.735032420605985e-05,-0.00016864342345620923,-0.00021192152850752307,0.7084590792655945,46.57577133178711,5.588284015655518,-19.511445999145508,-0.7730002999305725,-2.3522982597351074,0.18710653483867645,0
17,0.07821249961853027,-0.7084590792655945,-46.57577133178711,-5.588284015655518,19.511445999145508,0.7730002999305725,2.3522982597351074,-0.18710653483867645,0.0,0.0,0.0,0.0,0.0,0.0,0.0,-0.6586570969745466,-0.21471269810781396,-0.39756615872839024,0.32540545407882926,0.19101257274187616,0.09621171491665345,-0.18834280386433827,0.8780236901776832,0.7557500669467918,-0.28242919700427654,-1.6690493686996555,0.14140940495274462,2.403576329985269,1.0273468966401293,0.878092876070424,0.7554597494309409,-0.2825552651693207,-1.6690993614607135,0.1414185955172306,2.4034451173676383,1.0273381002308042,6.66350386140864e-05,0.0008575920589108975,-0.00015263287088556599,0.0002094114454301737,9.735032420605985e-05,0.00016864342345620923,0.00021192152850752307,0.0,0.0,0.0,0.0,0.0,0.0,0.0,6.918589274074183e-05,-0.00029031751585095744,-0.00012606816504417973,-4.999276105799311e-05,9.190564485977992e-06,-0.000131212617630716,-8.796409325162458e-06,-6.66350386140864e-05,-0.0008575920589108975,0.00015263287088556599,-0.0002094114454301737,-9.735032420605985e-05,-0.00016864342345620923,-0.00021192152850752307,0.7084590792655945,46.57577133178711,5.588284015655518,-19.511445999145508,-0.7730002999305725,-2.3522982597351074,0.18710653483867645,0
18,0.08319211006164551,-0.7084590792655945,-46.54800033569336,-5.588284015655518,19.535249710083008,0.7784934639930725,2.3660311698913574,-0.22098104655742645,0.0,0.0,0.0,0.0,0.0,0.0,0.0,-0.6596614776741433,-0.21823105324126013,-0.3956185578488277,0.32611624693816266,0.1908939521983861,0.09573164434536562,-0.18698781290137717,0.8780240090502683,0.7557481090089243,-0.2824299249790541,-1.669051039026495,0.14140512750669362,2.40357503507817,1.027350660474764,0.878092876070424,0.7554597494309409,-0.2825552651693207,-1.6690993614607135,0.1414185955172306,2.4034451173676383,1.0273381002308042,0.0006538355680260717,6.845284796024433e-06,4.6779294390089e-05,-0.0003220347071508619,-0.00013129590136231578,-0.00029754224323443957,0.001878509216223368,0.0,0.0,0.0,0.0,0.0,0.0,0.0,6.88670201556274e-05,-0.0002883595779834547,-0.00012534019026660959,-4.8322434218484034e-05,1.346801053697666e-05,-0.00012991771053183498,-1.2560243959791606e-05,-0.0006538355680260717,-6.845284796024433e-06,-4.6779294390089e-05,0.0003220347071508619,0.00013129590136231578,0.00029754224323443957,-0.001878509216223368,0.7084590792655945,46.54800033569336,5.588284015655518,-19.535249710083008,-0.7784934639930725,-2.3660311698913574,0.22098104655742645,0
19,0.08871293067932129,-0.7084590792655945,-46.54800033569336,-5.588284015655518,19.535249710083008,0.7784934639930725,2.3660311698913574,-0.22098104655742645,0.0,0.0,0.0,0.0,0.0,0.0,0.0,-0.6596614776741433,-0.21823105324126013,-0.3956185578488277,0.32611624693816266,0.1908939521983861,0.09573164434536562,-0.18698781290137717,0.8780240090502683,0.7557481090089243,-0.2824299249790541,-1.669051039026495,0.14140512750669362,2.40357503507817,1.027350660474764,0.878092876070424,0.7554597494309409,-0.2825552651693207,-1.6690993614607135,0.1414185955172306,2.4034451173676383,1.0273381002308042,0.0006538355680260717,6.845284796024433e-06,4.6779294390089e-05,-0.0003220347071508619,-0.00013129590136231578,-0.00029754224323443957,0.001878509216223368,0.0,0.0,0.0,0.0,0.0,0.0,0.0,6.88670201556274e-05,-0.0002883595779834547,-0.00012534019026660959,-4.8322434218484034e-05,1.346801053697666e-05,-0.00012991771053183498,-1.2560243959791606e-05,-0.0006538355680260717,-6.845284796024433e-06,-4.6779294390089e-05,0.0003220347071508619,0.00013129590136231578,0.00029754224323443957,-0.001878509216223368,0.7084590792655945,46.54800033569336,5.588284015655518,-19.535249710083008,-0.7784934639930725,-2.3660311698913574,0.22098104655742645,0
20,0.09319281578063965,-0.6568843722343445,-46.54800033569336,-5.564480304718018,19.511445999145508,0.7730002999305725,2.3660311698913574,-0.16604940593242645,0.0,0.0,0.0,0.0,0.0,0.0,0.0,-0.6490373689987564,-0.23233144888829999,-0.38991455978613243,0.3352389863839819,0.19098699943961994,0.09673498242453957,-0.18565975686051012,0.8780200710458005,0.7557502121520284,-0.2824309052932539,-1.6690493685906391,0.14140471468262023,2.4035751064686424,1.02734457036814,0.878092876070424,0.7554597494309409,-0.2825552651693207,-1.6690993614607135,0.1414185955172306,2.4034451173676383,1.0273381002308042,0.00038948927304641634,-0.0001439580156336743,5.811355701349346e-05,0.0004944272758214593,0.0003209341972882367,-0.0002590526451753963,-0.000749487177431257,0.0,0.0,0.0,0.0,0.0,0.0,0.0,7.280502462347904e-05,-0.0002904627210875699,-0.0001243598760668485,-4.999287007434461e-05,1.3880834610374704e-05,-0.0001299891010040355,-6.470137335901072e-06,-0.00038948927304641634,0.0001439580156336743,-5.811355701349346e-05,-0.0004944272758214593,-0.0003209341972882367,0.0002590526451753963,0.000749487177431257,0.6568843722343445,46.54800033569336,5.564480304718018,-19.511445999145508,-0.7730002999305725,-2.3660311698913574,0.16604940593242645,0
21,0.09819149971008301,-0.6568843722343445,-46.54800033569336,-5.564480304718018,19.511445999145508,0.7730002999305725,2.3660311698913574,-0.16604940593242645,0.0,0.0,0.0,0.0,0.0,0.0,0.0,-0.6490373689987564,-0.23233144888829999,-0.38991455978613243,0.3352389863839819,0.19098699943961994,0.09673498242453957,-0.18565975686051012,0.8780200710458005,0.7557502121520284,-0.2824309052932539,-1.6690493685906391,0.14140471468262023,2.4035751064686424,1.02734457036814,0.878092876070424,0.7554597494309409,-0.2825552651693207,-1.6690993614607135,0.1414185955172306,2.4034451173676383,1.0273381002308042,0.00038948927304641634,-0.0001439580156336743,5.811355701349346e-05,0.0004944272758214593,0.0003209341972882367,-0.0002590526451753963,-0.000749487177431257,0.0,0.0,0.0,0.0,0.0,0.0,0.0,7.280502462347904e-05,-0.0002904627210875699,-0.0001243598760668485,-4.999287007434461e-05,1.3880834610374704e-05,-0.0001299891010040355,-6.470137335901072e-06,-0.00038948927304641634,0.0001439580156336743,-5.811355701349346e-05,-0.0004944272758214593,-0.0003209341972882367,0.0002590526451753963,0.000749487177431257,0.6568843722343445,46.54800033569336,5.564480304718018,-19.511445999145508,-0.7730002999305725,-2.3660311698913574,0.16604940593242645,0
22,0.10319066047668457,-0.6053096652030945,-46.57577133178711,-5.536709308624268,19.535249710083008,0.7784934639930725,2.3596224784851074,-0.20724813640117645,0.0,0.0,0.0,0.0,0.0,0.0,0.0,-0.6516174168277117,-0.2187699947159831,-0.3939842653645761,0.3292076449310812,0.19135894669502795,0.09506035345588729,-0.18535792168645404,0.8780164516223105,0.7557500819609263,-0.28243281656709457,-1.6690510390264943,0.1414053040178717,2.403573747721128,1.0273491345958585,0.878092876070424,0.7554597494309409,-0.2825552651693207,-1.6690993614607135,0.1414185955172306,2.4034451173676383,1.0273381002308042,0.0004078361085991798,0.0006317761199306598,-0.00018293283141430163,-6.295160200590731e-05,9.408467997676594e-05,8.86987989209858e-06,0.0009372232604757105,0.0,0.0,0.0,0.0,0.0,0.0,0.0,7.642444811351012e-05,-0.0002903325299854487,-0.00012244860222615506,-4.832243421915017e-05,1.3291499358886183e-05,-0.0001286303534895339,-1.1034365054340967e-05,-0.0004078361085991798,-0.0006317761199306598,0.00018293283141430163,6.295160200590731e-05,-9.408467997676594e-05,-8.86987989209858e-06,-0.0009372232604757105,0.6053096652030945,46.57577133178711,5.536709308624268,-19.535249710083008,-0.7784934639930725,-2.3596224784851074,0.20724813640117645,0
23,0.10822033882141113,-0.6053096652030945,-46.57577133178711,-5.536709308624268,19.535249710083008,0.7784934639930725,2.3596224784851074,-0.20724813640117645,0.0,0.0,0.0,0.0,0.0,0.0,0.0,-0.6516174168277117,-0.2187699947159831,-0.3939842653645761,0.3292076449310812,0.19135894669502795,0.09506035345588729,-0.18535792168645404,0.8780164516223105,0.7557500819609263,-0.28243281656709457,-1.6690510390264943,0.1414053040178717,2.403573747721128,1.0273491345958585,0.878092876070424,0.7554597494309409,-0.2825552651693207,-1.6690993614607135,0.1414185955172306,2.4034451173676383,1.0273381002308042,0.0004078361085991798,0.0006317761199306598,-0.00018293283141430163,-6.295160200590731e-05,9.408467997676594e-05,8.86987989209858e-06,0.0009372232604757105,0.0,0.0,0.0,0.0,0.0,0.0,0.0,7.642444811351012e-05,-0.0002903325299854487,-0.00012244860222615506,-4.832243421915017e-05,1.3291499358886183e-05,-0.0001286303534895339,-1.1034365054340967e-05,-0.0004078361085991798,-0.0006317761199306598,0.00018293283141430163,6.295160200590731e-05,-9.408467997676594e-05,-8.86987989209858e-06,-0.0009372232604757105,0.6053096652030945,46.57577133178711,5.536709308624268,-19.535249710083008,-0.7784934639930725,-2.3596224784851074,0.20724813640117645,0
24,0.11315202713012695,-0.5815059542655945,-46.57577133178711,-5.564480304718018,19.511445999145508,0.7784934639930725,2.3724398612976074,-0.16604940593242645,0.0,0.0,0.0,0.0,0.0,0.0,0.0,-0.6538592165296085,-0.22729906571438072,-0.4028290434069266,0.331238152382962,0.1926371322045052,0.09552065082622967,-0.18675911560648886,0.8780147811864552,0.7557500841722126,-0.28243110529526444,-1.6690493685906391,0.14140549638441458,2.403574271148072,1.027344556959139,0.878092876070424,0.7554597494309409,-0.2825552651693207,-1.6690993614607135,0.1414185955172306,2.4034451173676383,1.0273381002308042,-0.0003695198870848381,0.0002578625966895691,0.000704847098218027,0.0004258794314724631,-0.00026013672664358136,-0.00021458761605998915,-0.0007868874742551027,0.0,0.0,0.0,0.0,0.0,0.0,0.0,7.809488396881559e-05,-0.0002903347412717139,-0.00012415987405628437,-4.999287007434461e-05,1.3099132816024595e-05,-0.00012915378043354409,-6.456728334880424e-06,0.0003695198870848381,-0.0002578625966895691,-0.000704847098218027,-0.0004258794314724631,0.00026013672664358136,0.00021458761605998915,0.0007868874742551027,0.5815059542655945,46.57577133178711,5.564480304718018,-19.511445999145508,-0.7784934639930725,-2.3724398612976074,0.16604940593242645,0
25,0.11819291114807129,-0.5815059542655945,-46.57577133178711,-5.564480304718018,19.511445999145508,0.7784934639930725,2.3724398612976074,-0.16604940593242645,0.0,0.0,0.0,0.0,0.0,0.0,0.0,-0.6538592165296085,-0.22729906571438072,-0.4028290434069266,0.331238152382962,0.1926371322045052,0.09552065082622967,-0.18675911560648886,0.8780147811864552,0.7557500841722126,-0.28243110529526444,-1.6690493685906391,0.14140549638441458,2.403574271148072,1.027344556959139,0.878092876070424,0.7554597494309409,-0.2825552651693207,-1.6690993614607135,0.1414185955172306,2.4034451173676383,1.0273381002308042,-0.0003695198870848381,0.0002578625966895691,0.000704847098218027,0.0004258794314724631,-0.00026013672664358136,-0.00021458761605998915,-0.0007868874742551027,0.0,0.0,0.0,0.0,0.0,0.0,0.0,7.809488396881559e-05,-0.0002903347412717139,-0.00012415987405628437,-4.999287007434461e-05,1.3099132816024595e-05,-0.00012915378043354409,-6.456728334880424e-06,0.0003695198870848381,-0.0002578625966895691,-0.000704847098218027,-0.0004258794314724631,0.00026013672664358136,0.00021458761605998915,0.0007868874742551027,0.5815059542655945,46.57577133178711,5.564480304718018,-19.511445999145508,-0.7784934639930725,-2.3724398612976074,0.16604940593242645,0
26,0.12319397926330566,-0.5815059542655945,-46.57577133178711,-5.536709308624268,19.535249710083008,0.7730002999305725,2.3660311698913574,-0.23471395671367645,0.0,0.0,0.0,0.0,0.0,0.0,0.0,-0.6487906829877748,-0.2167246468506446,-0.40256611903187683,0.3232271651473734,0.19249630783436616,0.09499603414592002,-0.18747694583475236,0.8780147811864552,0.7557521622766729,-0.28243312953597216,-1.6690510390264943,0.1414047289475718,2.4035725104239094,1.0273521863536703,0.878092876070424,0.7554597494309409,-0.2825552651693207,-1.6690993614607135,0.1414185955172306,2.4034451173676383,1.0273381002308042,-0.000271109382315449,0.0007177917627073351,-0.000246518057240267,-0.00013752083272056348,3.12949043157577e-05,-0.0004314126904870039,0.0016399853211208214,0.0,0.0,0.0,0.0,0.0,0.0,0.0,7.809488396881559e-05,-0.0002924128457320041,-0.00012213563334856348,-4.832243421915017e-05,1.3866569658793626e-05,-0.00012739305627107456,-1.4086122866130424e-05,0.000271109382315449,-0.0007177917627073351,0.000246518057240267,0.00013752083272056348,-3.12949043157577e-05,0.0004314126904870039,-0.0016399853211208214,0.5815059542655945,46.57577133178711,5.536709308624268,-19.535249710083008,-0.7730002999305725,-2.3660311698913574,0.23471395671367645,0
27,0.12819433212280273,-0.5815059542655945,-46.57577133178711,-5.536709308624268,19.535249710083008,0.7730002999305725,2.3660311698913574,-0.23471395671367645,0.0,0.0,0.0,0.0,0.0,0.0,0.0,-0.6487906829877748,-0.2167246468506446,-0.40256611903187683,0.3232271651473734,0.19249630783436616,0.09499603414592002,-0.18747694583475236,0.8780147811864552,0.7557521622766729,-0.28243312953597216,-1.6690510390264943,0.1414047289475718,2.4035725104239094,1.0273521863536703,0.878092876070424,0.7554597494309409,-0.2825552651693207,-1.6690993614607135,0.1414185955172306,2.4034451173676383,1.0273381002308042,-0.000271109382315449,0.0007177917627073351,-0.000246518057240267,-0.00013752083272056348,3.12949043157577e-05,-0.0004314126904870039,0.0016399853211208214,0.0,0.0,0.0,0.0,0.0,0.0,0.0,7.809488396881559e-05,-0.0002924128457320041,-0.00012213563334856348,-4.832243421915017e-05,1.3866569658793626e-05,-0.00012739305627107456,-1.4086122866130424e-05,0.000271109382315449,-0.0007177917627073351,0.000246518057240267,0.00013752083272056348,-3.12949043157577e-05,0.0004314126904870039,-0.0016399853211208214,0.5815059542655945,46.57577133178711,5.536709308624268,-19.535249710083008,-0.7730002999305725,-2.3660311698913574,0.23471395671367645,0
28,0.13320469856262207,-0.5537349581718445,-46.54800033569336,-5.564480304718018,19.511445999145508,0.7784934639930725,2.3522982597351074,-0.17337362468242645,0.0,0.0,0.0,0.0,0.0,0.0,0.0,-0.6372080917726358,-0.23207874277257332,-0.399530503604045,0.33090436976579257,0.19292000855680203,0.09559186744052244,-0.1879122161226259,0.878012832344624,0.7557502988305368,-0.28243113939355147,-1.6690493685906391,0.14140565449976375,2.4035740934618333,1.0273453707612223,0.878092876070424,0.7554597494309409,-0.2825552651693207,-1.6690993614607135,0.1414185955172306,2.4034451173676383,1.0273381002308042,-0.0018357320071479908,-0.0005075652513783994,0.000533934926843825,0.000491920767812274,-0.00015171070735199723,0.00045435670246078187,-0.0007431173256479834,0.0,0.0,0.0,0.0,0.0,0.0,0.0,8.004372579994978e-05,-0.00029054939959594073,-0.0001241257757692571,-4.999287007434461e-05,1.2941017466849836e-05,-0.0001289760941949325,-7.270530418157506e-06,0.0018357320071479908,0.0005075652513783994,-0.000533934926843825,-0.000491920767812274,0.00015171070735199723,-0.00045435670246078187,0.0007431173256479834,0.5537349581718445,46.54800033569336,5.564480304718018,-19.511445999145508,-0.7784934639930725,-2.3522982597351074,0.17337362468242645,0
29,0.13819622993469238,-0.5537349581718445,-46.54800033569336,-5.564480304718018,19.511445999145508,0.7784934639930725,2.3522982597351074,-0.17337362468242645,0.0,0.0,0.0,0.0,0.0,0.0,0.0,-0.6372080917726358,-0.23207874277257332,-0.399530503604045,0.33090436976579257,0.19292000855680203,0.09559186744052244,-0.1879122161226259,0.878012832344624,0.7557502988305368,-0.28243113939355147,-1.6690493685906391,0.14140565449976375,2.4035740934618333,1.0273453707612223,0.878092876070424,0.7554597494309409,-0.2825552651693207,-1.6690993614607135,0.1414185955172306,2.4034451173676383,1.0273381002308042,-0.0018357320071479908,-0.0005075652513783994,0.000533934926843825,0.000491920767812274,-0.00015171070735199723,0.00045435670246078187,-0.0007431173256479834,0.0,0.0,0.0,0.0,0.0,0.0,0.0,8.004372579994978e-05,-0.00029054939959594073,-0.0001241257757692571,-4.999287007434461e-05,1.2941017466849836e-05,-0.0001289760941949325,-7.270530418157506e-06,0.0018357320071479908,0.0005075652513783994,-0.000533934926843825,-0.000491920767812274,0.00015171070735199723,-0.00045435670246078187,0.0007431173256479834,0.5537349581718445,46.54800033569336,5.564480304718018,-19.511445999145508,-0.7784934639930725,-2.3522982597351074,0.17337362468242645,0
30,0.14319157600402832,-0.6806880831718445,-46.52419662475586,-5.588284015655518,19.535249710083008,0.7546897530555725,2.3458895683288574,-0.21457235515117645,0.0,0.0,0.0,0.0,0.0,0.0,0.0,-0.6495660166561318,-0.22050718310934372,-0.40331719110109404,0.32115322440484717,0.19304733387771772,0.09425548812426802,-0.18748950851355975,0.8780217413358521,0.7557473747060577,-0.282430133090627,-1.6690510390264943,0.14141003541344585,2.4035772269921827,1.0273499498878302,0.878092876070424,0.7554597494309409,-0.2825552651693207,-1.6690993614607135,0.1414185955172306,2.4034451173676383,1.0273381002308042,0.0005723819763702238,-0.0008824915335932009,0.000206763688096811,-0.00048821015912569156,0.000945212592463753,0.0004112235964080097,0.0012471217472114734,0.0,0.0,0.0,0.0,0.0,0.0,0.0,7.113473457187602e-05,-0.0002876252751168318,-0.00012513207869374599,-4.832243421915017e-05,8.560103784749362e-06,-0.00013210962454435204,-1.1849657026052896e-05,-0.0005723819763702238,0.0008824915335932009,-0.000206763688096811,0.00048821015912569156,-0.000945212592463753,-0.0004112235964080097,-0.0012471217472114734,0.6806880831718445,46.52419662475586,5.588284015655518,-19.535249710083008,-0.7546897530555725,-2.3458895683288574,0.21457235515117645,0
31,0.14819002151489258,-0.6806880831718445,-46.52419662475586,-5.588284015655518,19.535249710083008,0.7546897530555725,2.3458895683288574,-0.21457235515117645,0.0,0.0,0.0,0.0,0.0,0.0,0.0,-0.6495660166561318,-0.22050718310934372,-0.40331719110109404,0.32115322440484717,0.19304733387771772,0.09425548812426802,-0.18748950851355975,0.8780217413358521,0.7557473747060577,-0.282430133090627,-1.6690510390264943,0.14141003541344585,2.4035772269921827,1.0273499498878302,0.878092876070424,0.7554597494309409,-0.2825552651693207,-1.6690993614607135,0.1414185955172306,2.4034451173676383,1.0273381002308042,0.0005723819763702238,-0.0008824915335932009,0.000206763688096811,-0.00048821015912569156,0.000945212592463753,0.0004112235964080097,0.0012471217472114734,0.0,0.0,0.0,0.0,0.0,0.0,0.0,7.113473457187602e-05,-0.0002876252751168318,-0.00012513207869374599,-4.832243421915017e-05,8.560103784749362e-06,-0.00013210962454435204,-1.1849657026052896e-05,-0.0005723819763702238,0.0008824915335932009,-0.000206763688096811,0.00048821015912569156,-0.000945212592463753,-0.0004112235964080097,-0.0012471217472114734,0.6806880831718445,46.52419662475586,5.588284015655518,-19.535249710083008,-0.7546897530555725,-2.3458895683288574,0.21457235515117645,0
32,0.15319252014160156,-0.6806880831718445,-46.52419662475586,-5.588284015655518,19.535249710083008,0.7546897530555725,2.3458895683288574,-0.21457235515117645,0.0,0.0,0.0,0.0,0.0,0.0,0.0,-0.6495660166561318,-0.22050718310934372,-0.40331719110109404,0.32115322440484717,0.19304733387771772,0.09425548812426802,-0.18748950851355975,0.8780217413358521,0.7557473747060577,-0.282430133090627,-1.6690510390264943,0.14141003541344585,2.4035772269921827,1.0273499498878302,0.878092876070424,0.7554597494309409,-0.2825552651693207,-1.6690993614607135,0.1414185955172306,2.4034451173676383,1.0273381002308042,0.0005723819763702238,-0.0008824915335932009,0.000206763688096811,-0.00048821015912569156,0.000945212592463753,0.0004112235964080097,0.0012471217472114734,0.0,0.0,0.0,0.0,0.0,0.0,0.0,7.113473457187602e-05,-0.0002876252751168318,-0.00012513207869374599,-4.832243421915017e-05,8.560103784749362e-06,-0.00013210962454435204,-1.1849657026052896e-05,-0.0005723819763702238,0.0008824915335932009,-0.000206763688096811,0.00048821015912569156,-0.000945212592463753,-0.0004112235964080097,-0.0012471217472114734,0.6806880831718445,46.52419662475586,5.588284015655518,-19.535249710083008,-0.7546897530555725,-2.3458895683288574,0.21457235515117645,0
33,0.15822196006774902,-0.6806880831718445,-46.52419662475586,-5.588284015655518,19.535249710083008,0.7546897530555725,2.3458895683288574,-0.21457235515117645,0.0,0.0,0.0,0.0,0.0,0.0,0.0,-0.6495660166561318,-0.22050718310934372,-0.40331719110109404,0.32115322440484717,0.19304733387771772,0.09425548812426802,-0.18748950851355975,0.8780217413358521,0.7557473747060577,-0.282430133090627,-1.6690510390264943,0.14141003541344585,2.4035772269921827,1.0273499498878302,0.878092876070424,0.7554597494309409,-0.2825552651693207,-1.6690993614607135,0.1414185955172306,2.4034451173676383,1.0273381002308042,0.0005723819763702238,-0.0008824915335932009,0.000206763688096811,-0.00048821015912569156,0.000945212592463753,0.0004112235964080097,0.0012471217472114734,0.0,0.0,0.0,0.0,0.0,0.0,0.0,7.113473457187602e-05,-0.0002876252751168318,-0.00012513207869374599,-4.832243421915017e-05,8.560103784749362e-06,-0.00013210962454435204,-1.1849657026052896e-05,-0.0005723819763702238,0.0008824915335932009,-0.000206763688096811,0.00048821015912569156,-0.000945212592463753,-0.0004112235964080097,-0.0012471217472114734,0.6806880831718445,46.52419662475586,5.588284015655518,-19.535249710083008,-0.7546897530555725,-2.3458895683288574,0.21457235515117645,0
34,0.16319060325622559,-0.7322627902030945,-46.57577133178711,-5.588284015655518,19.535249710083008,0.7730002999305725,2.3660311698913574,-0.15231649577617645,0.0,0.0,0.0,0.0,0.0,0.0,0.0,-0.6472301538840991,-0.22801138761759834,-0.39795756294327933,0.32692738089878914,0.19243049868150822,0.09479939257148398,-0.18714806464225286,0.8780253606135385,0.7557501342521669,-0.28242920660346804,-1.6690510390264943,0.14140786952769419,2.403571978909069,1.0273430310802412,0.878092876070424,0.7554597494309409,-0.2825552651693207,-1.6690993614607135,0.1414185955172306,2.4034451173676383,1.0273381002308042,0.0006712857142234438,0.00038915299861386925,0.0004777065204126778,-9.218647718303401e-05,2.1678007471908547e-05,-5.6476119506764035e-05,-0.0012868673671574224,0.0,0.0,0.0,0.0,0.0,0.0,0.0,6.751545688543636e-05,-0.0002903848212260085,-0.0001260585658526825,-4.832243421915017e-05,1.0725989536414238e-05,-0.00012686154143048967,-4.930849436979301e-06,-0.0006712857142234438,-0.00038915299861386925,-0.0004777065204126778,9.218647718303401e-05,-2.1678007471908547e-05,5.6476119506764035e-05,0.0012868673671574224,0.7322627902030945,46.57577133178711,5.588284015655518,-19.535249710083008,-0.7730002999305725,-2.3660311698913574,0.15231649577617645,0
35,0.16819143295288086,-0.7322627902030945,-46.57577133178711,-5.588284015655518,19.535249710083008,0.7730002999305725,2.3660311698913574,-0.15231649577617645,0.0,0.0,0.0,0.0,0.0,0.0,0.0,-0.6472301538840991,-0.22801138761759834,-0.39795756294327933,0.32692738089878914,0.19243049868150822,0.09479939257148398,-0.18714806464225286,0.8780253606135385,0.7557501342521669,-0.28242920660346804,-1.6690510390264943,0.14140786952769419,2.403571978909069,1.0273430310802412,0.878092876070424,0.7554597494309409,-0.2825552651693207,-1.6690993614607135,0.1414185955172306,2.4034451173676383,1.0273381002308042,0.0006712857142234438,0.00038915299861386925,0.0004777065204126778,-9.218647718303401e-05,2.1678007471908547e-05,-5.6476119506764035e-05,-0.0012868673671574224,0.0,0.0,0.0,0.0,0.0,0.0,0.0,6.751545688543636e-05,-0.0002903848212260085,-0.0001260585658526825,-4.832243421915017e-05,1.0725989536414238e-05,-0.00012686154143048967,-4.930849436979301e-06,-0.0006712857142234438,-0.00038915299861386925,-0.0004777065204126778,9.218647718303401e-05,-2.1678007471908547e-05,5.6476119506764035e-05,0.0012868673671574224,0.7322627902030945,46.57577133178711,5.588284015655518,-19.535249710083008,-0.7730002999305725,-2.3660311698913574,0.15231649577617645,0
36,0.1732189655303955,-0.6806880831718445,-46.57577133178711,-5.588284015655518,19.559053421020508,0.7849021553993225,2.3596224784851074,-0.19351522624492645,0.0,0.0,0.0,0.0,0.0,0.0,0.0,-0.6530920755934713,-0.2271566562818989,-0.396028250155735,0.3303301838942906,0.19179473753709872,0.09528473614759356,-0.18670240472994695,0.8780238880842104,0.7557503153948895,-0.2824315383937455,-1.6690527094623497,0.14140808995860654,2.403575346126647,1.0273474909793816,0.878092876070424,0.7554597494309409,-0.2825552651693207,-1.6690993614607135,0.1414185955172306,2.4034451173676383,1.0273381002308042,-0.0007631609792284703,0.0007400318190118847,-4.41758915664234e-06,-0.0003941930896709094,-0.00023505528051975924,8.578916908044715e-05,0.00012863246768378753,0.0,0.0,0.0,0.0,0.0,0.0,0.0,6.89879862135756e-05,-0.000290565963948608,-0.00012372677557520584,-4.665199836373368e-05,1.0505558624057665e-05,-0.0001302287590085882,-9.390748577420283e-06,0.0007631609792284703,-0.0007400318190118847,4.41758915664234e-06,0.0003941930896709094,0.00023505528051975924,-8.578916908044715e-05,-0.00012863246768378753,0.6806880831718445,46.57577133178711,5.588284015655518,-19.559053421020508,-0.7849021553993225,-2.3596224784851074,0.19351522624492645,0
37,0.17821598052978516,-0.6806880831718445,-46.57577133178711,-5.588284015655518,19.559053421020508,0.7849021553993225,2.3596224784851074,-0.19351522624492645,0.0,0.0,0.0,0.0,0.0,0.0,0.0,-0.6530920755934713,-0.2271566562818989,-0.396028250155735,0.3303301838942906,0.19179473753709872,0.09528473614759356,-0.18670240472994695,0.8780238880842104,0.7557503153948895,-0.2824315383937455,-1.6690527094623497,0.14140808995860654,2.403575346126647,1.0273474909793816,0.878092876070424,0.7554597494309409,-0.2825552651693207,-1.6690993614607135,0.1414185955172306,2.4034451173676383,1.0273381002308042,-0.0007631609792284703,0.0007400318190118847,-4.41758915664234e-06,-0.0003941930896709094,-0.00023505528051975924,8.578916908044715e-05,0.00012863246768378753,0.0,0.0,0.0,0.0,0.0,0.0,0.0,6.89879862135756e-05,-0.000290565963948608,-0.00012372677557520584,-4.665199836373368e-05,1.0505558624057665e-05,-0.0001302287590085882,-9.390748577420283e-06,0.0007631609792284703,-0.0007400318190118847,4.41758915664234e-06,0.0003941930896709094,0.00023505528051975924,-8.578916908044715e-05,-0.00012863246768378753,0.6806880831718445,46.57577133178711,5.588284015655518,-19.559053421020508,-0.7849021553993225,-2.3596224784851074,0.19351522624492645,0
38,0.18314862251281738,-0.6568843722343445,-46.54800033569336,-5.588284015655518,19.535249710083008,0.7784934639930725,2.3724398612976074,-0.22098104655742645,0.0,0.0,0.0,0.0,0.0,0.0,0.0,-0.6586874374393041,-0.21775167167843998,-0.39642303281930263,0.3272221409695233,0.1918876949050418,0.09486896809007989,-0.1866203293404158,0.8780200797679998,0.7557502121865366,-0.2824294579366591,-1.6690510390264943,0.14140773063426648,2.4035707827820363,1.0273506604808214,0.878092876070424,0.7554597494309409,-0.2825552651693207,-1.6690993614607135,0.1414185955172306,2.4034451173676383,1.0273381002308042,-0.0010380393778705727,-2.5306554502117323e-05,-0.0001931850783075588,-0.00020729237421689982,0.00010782229786221883,-0.0004004467741080497,0.0013104270358435478,0.0,0.0,0.0,0.0,0.0,0.0,0.0,7.279630242418289e-05,-0.00029046275559574397,-0.0001258072326616455,-4.832243421915017e-05,1.0864882964117806e-05,-0.00012566541439795742,-1.2560250017168428e-05,0.0010380393778705727,2.5306554502117323e-05,0.0001931850783075588,0.00020729237421689982,-0.00010782229786221883,0.0004004467741080497,-0.0013104270358435478,0.6568843722343445,46.54800033569336,5.588284015655518,-19.535249710083008,-0.7784934639930725,-2.3724398612976074,0.22098104655742645,0
39,0.18819594383239746,-0.6568843722343445,-46.54800033569336,-5.588284015655518,19.535249710083008,0.7784934639930725,2.3724398612976074,-0.22098104655742645,0.0,0.0,0.0,0.0,0.0,0.0,0.0,-0.6586874374393041,-0.21775167167843998,-0.39642303281930263,0.3272221409695233,0.1918876949050418,0.09486896809007989,-0.1866203293404158,0.8780200797679998,0.7557502121865366,-0.2824294579366591,-1.6690510390264943,0.14140773063426648,2.4035707827820363,1.0273506604808214,0.878092876070424,0.7554597494309409,-0.2825552651693207,-1.6690993614607135,0.1414185955172306,2.4034451173676383,1.0273381002308042,-0.0010380393778705727,-2.5306554502117323e-05,-0.0001931850783075588,-0.00020729237421689982,0.00010782229786221883,-0.0004004467741080497,0.0013104270358435478,0.0,0.0,0.0,0.0,0.0,0.0,0.0,7.279630242418289e-05,-0.00029046275559574397,-0.0001258072326616455,-4.832243421915017e-05,1.0864882964117806e-05,-0.00012566541439795742,-1.2560250017168428e-05,0.0010380393778705727,2.5306554502117323e-05,0.0001931850783075588,0.00020729237421689982,-0.00010782229786221883,0.0004004467741080497,-0.0013104270358435478,0.6568843722343445,46.54800033569336,5.588284015655518,-19.535249710083008,-0.7784934639930725,-2.3724398612976074,0.22098104655742645,0
40,0.1932055950164795,-0.6806880831718445,-46.57577133178711,-5.635891437530518,19.559053421020508,0.7784934639930725,2.3724398612976074,-0.20724813640117645,0.0,0.0,0.0,0.0,0.0,0.0,0.0,-0.6629410768577961,-0.2373548460659111,-0.4029175628931656,0.3371903587818511,0.19249782728972256,0.09681139551846997,-0.1862224880652754,0.8780217423170151,0.755750765749771,-0.2824258564181861,-1.6690527094623497,0.14140847544748972,2.4035711447141344,1.0273491345958576,0.878092876070424,0.7554597494309409,-0.2825552651693207,-1.6690993614607135,0.1414185955172306,2.4034451173676383,1.0273381002308042,9.138912741699447e-05,6.520226017824886e-05,0.0009626119949138081,-0.0003822981657089979,2.7830163346589567e-05,-0.00032111676355149393,0.0010030226486086543,0.0,0.0,0.0,0.0,0.0,0.0,0.0,7.113375340883632e-05,-0.00029101631883010626,-0.0001294087511345965,-4.665199836373368e-05,1.0120069740882087e-05,-0.0001260273464960271,-1.1034365053452788e-05,-9.138912741699447e-05,-6.520226017824886e-05,-0.0009626119949138081,0.0003822981657089979,-2.7830163346589567e-05,0.00032111676355149393,-0.0010030226486086543,0.6806880831718445,46.57577133178711,5.635891437530518,-19.559053421020508,-0.7784934639930725,-2.3724398612976074,0.20724813640117645,0
41,0.19820308685302734,-0.6806880831718445,-46.57577133178711,-5.635891437530518,19.559053421020508,0.7784934639930725,2.3724398612976074,-0.20724813640117645,0.0,0.0,0.0,0.0,0.0,0.0,0.0,-0.6629410768577961,-0.2373548460659111,-0.4029175628931656,0.3371903587818511,0.19249782728972256,0.09681139551846997,-0.1862224880652754,0.8780217423170151,0.755750765749771,-0.2824258564181861,-1.6690527094623497,0.14140847544748972,2.4035711447141344,1.0273491345958576,0.878092876070424,0.7554597494309409,-0.2825552651693207,-1.6690993614607135,0.1414185955172306,2.4034451173676383,1.0273381002308042,9.138912741699447e-05,6.520226017824886e-05,0.0009626119949138081,-0.0003822981657089979,2.7830163346589567e-05,-0.00032111676355149393,0.0010030226486086543,0.0,0.0,0.0,0.0,0.0,0.0,0.0,7.113375340883632e-05,-0.00029101631883010626,-0.0001294087511345965,-4.665199836373368e-05,1.0120069740882087e-05,-0.0001260273464960271,-1.1034365053452788e-05,-9.138912741699447e-05,-6.520226017824886e-05,-0.0009626119949138081,0.0003822981657089979,-2.7830163346589567e-05,0.00032111676355149393,-0.0010030226486086543,0.6806880831718445,46.57577133178711,5.635891437530518,-19.559053421020508,-0.7784934639930725,-2.3724398612976074,0.20724813640117645,0
42,0.20325469970703125,-0.6568843722343445,-46.54800033569336,-5.588284015655518,19.535249710083008,0.7730002999305725,2.3522982597351074,-0.18710653483867645,0.0,0.0,0.0,0.0,0.0,0.0,0.0,-0.6537519095321153,-0.21024056536801988,-0.3960045827156996,0.32526868291621774,0.19231031107870922,0.09516138222468254,-0.18651669180330036,0.8780203102997279,0.7557504548249334,-0.28243132932056947,-1.6690510390264943,0.1414057830573248,2.4035734489431975,1.0273468966401285,0.878092876070424,0.7554597494309409,-0.2825552651693207,-1.6690993614607135,0.1414185955172306,2.4034451173676383,1.0273381002308042,0.0005307157993370136,0.0003767363232899764,0.00015473305788630973,0.0001168645211435853,0.0002894153028411342,0.0002927836750164687,-3.998130962281975e-05,0.0,0.0,0.0,0.0,0.0,0.0,0.0,7.256577069603143e-05,-0.000290705393992563,-0.0001239358487512554,-4.832243421915017e-05,1.2812459905808815e-05,-0.00012833157555913743,-8.796409324274279e-06,-0.0005307157993370136,-0.0003767363232899764,-0.00015473305788630973,-0.0001168645211435853,-0.0002894153028411342,-0.0002927836750164687,3.998130962281975e-05,0.6568843722343445,46.54800033569336,5.588284015655518,-19.535249710083008,-0.7730002999305725,-2.3522982597351074,0.18710653483867645,0
43,0.20819640159606934,-0.6568843722343445,-46.54800033569336,-5.588284015655518,19.535249710083008,0.7730002999305725,2.3522982597351074,-0.18710653483867645,0.0,0.0,0.0,0.0,0.0,0.0,0.0,-0.6537519095321153,-0.21024056536801988,-0.3960045827156996,0.32526868291621774,0.19231031107870922,0.09516138222468254,-0.18651669180330036,0.8780203102997279,0.7557504548249334,-0.28243132932056947,-1.6690510390264943,0.1414057830573248,2.4035734489431975,1.0273468966401285,0.878092876070424,0.7554597494309409,-0.2825552651693207,-1.6690993614607135,0.1414185955172306,2.4034451173676383,1.0273381002308042,0.0005307157993370136,0.0003767363232899764,0.00015473305788630973,0.0001168645211435853,0.0002894153028411342,0.0002927836750164687,-3.998130962281975e-05,0.0,0.0,0.0,0.0,0.0,0.0,0.0,7.256577069603143e-05,-0.000290705393992563,-0.0001239358487512554,-4.832243421915017e-05,1.2812459905808815e-05,-0.00012833157555913743,-8.796409324274279e-06,-0.0005307157993370136,-0.0003767363232899764,-0.00015473305788630973,-0.0001168645211435853,-0.0002894153028411342,-0.0002927836750164687,3.998130962281975e-05,0.6568843722343445,46.54800033569336,5.588284015655518,-19.535249710083008,-0.7730002999305725,-2.3522982597351074,0.18710653483867645,0
44,0.21319150924682617,-0.6568843722343445,-46.50039291381836,-5.536709308624268,19.487642288208008,0.7784934639930725,2.3596224784851074,-0.16604940593242645,0.0,0.0,0.0,0.0,0.0,0.0,0.0,-0.6571198646229177,-0.22070138393262823,-0.4034090418363719,0.3286944114316296,0.19301919156837197,0.09531077549648098,-0.1863254248894919,0.8780200709013483,0.7557447653684709,-0.2824349492522759,-1.669047698154784,0.1414040776055793,2.403572177434666,1.027344556959139,0.878092876070424,0.7554597494309409,-0.2825552651693207,-1.6690993614607135,0.1414185955172306,2.4034451173676383,1.0273381002308042,0.0005637019404387171,-0.0012918392242062934,-0.0007193458942837005,0.0005395865960014443,1.426916879125516e-05,0.0001173811171699703,-0.0006661374169664603,0.0,0.0,0.0,0.0,0.0,0.0,0.0,7.2805169075707e-05,-0.00028501593753005317,-0.00012031591704481093,-5.166330592953905e-05,1.4517911651301674e-05,-0.00012706006702778438,-6.456728334880424e-06,-0.0005637019404387171,0.0012918392242062934,0.0007193458942837005,-0.0005395865960014443,-1.426916879125516e-05,-0.0001173811171699703,0.0006661374169664603,0.6568843722343445,46.50039291381836,5.536709308624268,-19.487642288208008,-0.7784934639930725,-2.3596224784851074,0.16604940593242645,0
45,0.2181544303894043,-0.6568843722343445,-46.50039291381836,-5.536709308624268,19.487642288208008,0.7784934639930725,2.3596224784851074,-0.16604940593242645,0.0,0.0,0.0,0.0,0.0,0.0,0.0,-0.6571198646229177,-0.22070138393262823,-0.4034090418363719,0.3286944114316296,0.19301919156837197,0.09531077549648098,-0.1863254248894919,0.8780200709013483,0.7557447653684709,-0.2824349492522759,-1.669047698154784,0.1414040776055793,2.403572177434666,1.027344556959139,0.878092876070424,0.7554597494309409,-0.2825552651693207,-1.6690993614607135,0.1414185955172306,2.4034451173676383,1.0273381002308042,0.0005637019404387171,-0.0012918392242062934,-0.0007193458942837005,0.0005395865960014443,1.426916879125516e-05,0.0001173811171699703,-0.0006661374169664603,0.0,0.0,0.0,0.0,0.0,0.0,0.0,7.2805169075707e-05,-0.00028501593753005317,-0.00012031591704481093,-5.166330592953905e-05,1.4517911651301674e-05,-0.00012706006702778438,-6.456728334880424e-06,-0.0005637019404387171,0.0012918392242062934,0.0007193458942837005,-0.0005395865960014443,-1.426916879125516e-05,-0.0001173811171699703,0.0006661374169664603,0.6568843722343445,46.50039291381836,5.536709308624268,-19.487642288208008,-0.7784934639930725,-2.3596224784851074,0.16604940593242645,0
46,0.2181544303894043,-0.6568843722343445,-46.50039291381836,-5.536709308624268,19.487642288208008,0.7784934639930725,2.3596224784851074,-0.16604940593242645,0.0,0.0,0.0,0.0,0.0,0.0,0.0,-0.6571198646229177,-0.22070138393262823,-0.4034090418363719,0.3286944114316296,0.19301919156837197,0.09531077549648098,-0.1863254248894919,0.8780200709013483,0.7557447653684709,-0.2824349492522759,-1.669047698154784,0.1414040776055793,2.403572177434666,1.027344556959139,0.878092876070424,0.7554597494309409,-0.2825552651693207,-1.6690993614607135,0.1414185955172306,2.4034451173676383,1.0273381002308042,0.0005637019404387171,-0.0012918392242062934,-0.0007193458942837005,0.0005395865960014443,1.426916879125516e-05,0.0001173811171699703,-0.0006661374169664603,0.0,0.0,0.0,0.0,0.0,0.0,0.0,7.2805169075707e-05,-0.00028501593753005317,-0.00012031591704481093,-5.166330592953905e-05,1.4517911651301674e-05,-0.00012706006702778438,-6.456728334880424e-06,-0.0005637019404387171,0.0012918392242062934,0.0007193458942837005,-0.0005395865960014443,-1.426916879125516e-05,-0.0001173811171699703,0.0006661374169664603,0.6568843722343445,46.50039291381836,5.536709308624268,-19.487642288208008,-0.7784934639930725,-2.3596224784851074,0.16604940593242645,0
47,0.2283463478088379,-0.6291133761405945,-46.57577133178711,-5.512905597686768,19.511445999145508,0.7849021553993225,2.3596224784851074,-0.17337362468242645,0.0,0.0,0.0,0.0,0.0,0.0,0.0,-0.6492052270720986,-0.23548006980748257,-0.4014574975370777,0.33480982094944983,0.19400635199549762,0.09678111072724269,-0.18616573415804646,0.8780181495302652,0.7557501618997625,-0.2824345916980201,-1.6690493685906391,0.14140690042499543,2.4035732751854737,1.0273453707612223,0.878092876070424,0.7554597494309409,-0.2825552651693207,-1.6690993614607135,0.1414185955172306,2.4034451173676383,1.0273381002308042,0.0006654287227573481,2.2950762772072002e-05,-0.0009766089908194106,0.0006375018475305291,-0.00013107026443932979,0.00010393252980887319,-0.000880832065576872,0.0,0.0,0.0,0.0,0.0,0.0,0.0,7.472654015872049e-05,-0.0002904124688216658,-0.00012067347130062522,-4.999287007434461e-05,1.1695092235169957e-05,-0.0001281578178353726,-7.270530418157506e-06,-0.0006654287227573481,-2.2950762772072002e-05,0.0009766089908194106,-0.0006375018475305291,0.00013107026443932979,-0.00010393252980887319,0.000880832065576872,0.6291133761405945,46.57577133178711,5.512905597686768,-19.511445999145508,-0.7849021553993225,-2.3596224784851074,0.17337362468242645,0
48,0.23319482803344727,-0.6291133761405945,-46.57577133178711,-5.512905597686768,19.511445999145508,0.7849021553993225,2.3596224784851074,-0.17337362468242645,0.0,0.0,0.0,0.0,0.0,0.0,0.0,-0.6492052270720986,-0.23548006980748257,-0.4014574975370777,0.33480982094944983,0.19400635199549762,0.09678111072724269,-0.18616573415804646,0.8780181495302652,0.7557501618997625,-0.2824345916980201,-1.6690493685906391,0.14140690042499543,2.4035732751854737,1.0273453707612223,0.878092876070424,0.7554597494309409,-0.2825552651693207,-1.6690993614607135,0.1414185955172306,2.4034451173676383,1.0273381002308042,0.0006654287227573481,2.2950762772072002e-05,-0.0009766089908194106,0.0006375018475305291,-0.00013107026443932979,0.00010393252980887319,-0.000880832065576872,0.0,0.0,0.0,0.0,0.0,0.0,0.0,7.472654015872049e-05,-0.0002904124688216658,-0.00012067347130062522,-4.999287007434461e-05,1.1695092235169957e-05,-0.0001281578178353726,-7.270530418157506e-06,-0.0006654287227573481,-2.2950762772072002e-05,0.0009766089908194106,-0.0006375018475305291,0.00013107026443932979,-0.00010393252980887319,0.000880832065576872,0.6291133761405945,46.57577133178711,5.512905597686768,-19.511445999145508,-0.7849021553993225,-2.3596224784851074,0.17337362468242645,0
49,0.23821425437927246,-0.6053096652030945,-46.54800033569336,-5.536709308624268,19.559053421020508,0.7784934639930725,2.3596224784851074,-0.21457235515117645,0.0,0.0,0.0,0.0,0.0,0.0,0.0,-0.6530632275300798,-0.23556480098244817,-0.4045711398563626,0.33195520038198434,0.19470925546461032,0.09690244683089981,-0.18659349680109477,0.8780164516224654,0.7557502246700126,-0.28243305057110496,-1.6690527094623497,0.1414086706650156,2.4035721633872935,1.0273499483979411,0.878092876070424,0.7554597494309409,-0.2825552651693207,-1.6690993614607135,0.1414185955172306,2.4034451173676383,1.0273381002308042,-0.00010517998703502143,-0.0006906505172026735,-0.0007311083531905078,-0.00048339644647342895,0.00011246198333423375,3.0064695339867362e-05,0.0015021658717025424,0.0,0.0,0.0,0.0,0.0,0.0,0.0,7.642444795852299e-05,-0.00029047523907177464,-0.00012221459821576408,-4.665199836373368e-05,9.924852214987512e-06,-0.00012704601965518592,-1.1848167136951915e-05,0.00010517998703502143,0.0006906505172026735,0.0007311083531905078,0.00048339644647342895,-0.00011246198333423375,-3.0064695339867362e-05,-0.0015021658717025424,0.6053096652030945,46.54800033569336,5.536709308624268,-19.559053421020508,-0.7784934639930725,-2.3596224784851074,0.21457235515117645,0
50,0.24318814277648926,-0.6053096652030945,-46.54800033569336,-5.536709308624268,19.559053421020508,0.7784934639930725,2.3596224784851074,-0.21457235515117645,0.0,0.0,0.0,0.0,0.0,0.0,0.0,-0.6530632275300798,-0.23556480098244817,-0.4045711398563626,0.33195520038198434,0.19470925546461032,0.09690244683089981,-0.18659349680109477,0.8780164516224654,0.7557502246700126,-0.28243305057110496,-1.6690527094623497,0.1414086706650156,2.4035721633872935,1.0273499483979411,0.878092876070424,0.7554597494309409,-0.2825552651693207,-1.6690993614607135,0.1414185955172306,2.4034451173676383,1.0273381002308042,-0.00010517998703502143,-0.0006906505172026735,-0.0007311083531905078,-0.00048339644647342895,0.00011246198333423375,3.0064695339867362e-05,0.0015021658717025424,0.0,0.0,0.0,0.0,0.0,0.0,0.0,7.642444795852299e-05,-0.00029047523907177464,-0.00012221459821576408,-4.665199836373368e-05,9.924852214987512e-06,-0.00012704601965518592,-1.1848167136951915e-05,0.00010517998703502143,0.0006906505172026735,0.0007311083531905078,0.00048339644647342895,-0.00011246198333423375,-3.0064695339867362e-05,-0.0015021658717025424,0.6053096652030945,46.54800033569336,5.536709308624268,-19.559053421020508,-0.7784934639930725,-2.3596224784851074,0.21457235515117645,0
51,0.248152494430542,-0.6053096652030945,-46.54800033569336,-5.536709308624268,19.559053421020508,0.7784934639930725,2.3596224784851074,-0.21457235515117645,0.0,0.0,0.0,0.0,0.0,0.0,0.0,-0.6530632275300798,-0.23556480098244817,-0.4045711398563626,0.33195520038198434,0.19470925546461032,0.09690244683089981,-0.18659349680109477,0.8780164516224654,0.7557502246700126,-0.28243305057110496,-1.6690527094623497,0.1414086706650156,2.4035721633872935,1.0273499483979411,0.878092876070424,0.7554597494309409,-0.2825552651693207,-1.6690993614607135,0.1414185955172306,2.4034451173676383,1.0273381002308042,-0.00010517998703502143,-0.0006906505172026735,-0.0007311083531905078,-0.00048339644647342895,0.00011246198333423375,3.0064695339867362e-05,0.0015021658717025424,0.0,0.0,0.0,0.0,0.0,0.0,0.0,7.642444795852299e-05,-0.00029047523907177464,-0.00012221459821576408,-4.665199836373368e-05,9.924852214987512e-06,-0.00012704601965518592,-1.1848167136951915e-05,0.00010517998703502143,0.0006906505172026735,0.0007311083531905078,0.00048339644647342895,-0.00011246198333423375,-3.0064695339867362e-05,-0.0015021658717025424,0.6053096652030945,46.54800033569336,5.536709308624268,-19.559053421020508,-0.7784934639930725,-2.3596224784851074,0.21457235515117645,0
52,0.25319480895996094,-0.6053096652030945,-46.54800033569336,-5.536709308624268,19.559053421020508,0.7784934639930725,2.3596224784851074,-0.21457235515117645,0.0,0.0,0.0,0.0,0.0,0.0,0.0,-0.6530632275300798,-0.23556480098244817,-0.4045711398563626,0.33195520038198434,0.19470925546461032,0.09690244683089981,-0.18659349680109477,0.8780164516224654,0.7557502246700126,-0.28243305057110496,-1.6690527094623497,0.1414086706650156,2.4035721633872935,1.0273499483979411,0.878092876070424,0.7554597494309409,-0.2825552651693207,-1.6690993614607135,0.1414185955172306,2.4034451173676383,1.0273381002308042,-0.00010517998703502143,-0.0006906505172026735,-0.0007311083531905078,-0.00048339644647342895,0.00011246198333423375,3.0064695339867362e-05,0.0015021658717025424,0.0,0.0,0.0,0.0,0.0,0.0,0.0,7.642444795852299e-05,-0.00029047523907177464,-0.00012221459821576408,-4.665199836373368e-05,9.924852214987512e-06,-0.00012704601965518592,-1.1848167136951915e-05,0.00010517998703502143,0.0006906505172026735,0.0007311083531905078,0.00048339644647342895,-0.00011246198333423375,-3.0064695339867362e-05,-0.0015021658717025424,0.6053096652030945,46.54800033569336,5.536709308624268,-19.559053421020508,-0.7784934639930725,-2.3596224784851074,0.21457235515117645,0
53,0.2581925392150879,-0.6291133761405945,-46.57577133178711,-5.536709308624268,19.535249710083008,0.7730002999305725,2.3596224784851074,-0.20083944499492645,0.0,0.0,0.0,0.0,0.0,0.0,0.0,-0.6419443020640001,-0.21460408239809933,-0.3969345432425558,0.3219709221046257,0.19455556451642014,0.09405188070709618,-0.1865535461257661,0.8780181223852144,0.755750297750927,-0.28243281667541215,-1.6690531847937062,0.14140802123055327,2.4035753814874266,1.0273484225190348,0.878092876070424,0.7554597494309409,-0.2825552651693207,-1.6690993614607135,0.1414185955172306,2.4034451173676383,1.0273381002308042,0.00020082389214280056,0.0005776082191312422,-0.0005739663139268538,-0.000628065511828666,0.00022506278665396166,-9.301958850903836e-05,0.00045405354756887956,0.0,0.0,0.0,0.0,0.0,0.0,0.0,7.475368520959425e-05,-0.00029054831998609476,-0.00012244849390857793,-4.6176667007236105e-05,1.0574286677333955e-05,-0.00013026411978822594,-1.0322288230613097e-05,-0.00020082389214280056,-0.0005776082191312422,0.0005739663139268538,0.000628065511828666,-0.00022506278665396166,9.301958850903836e-05,-0.00045405354756887956,0.6291133761405945,46.57577133178711,5.536709308624268,-19.535249710083008,-0.7730002999305725,-2.3596224784851074,0.20083944499492645,0
54,0.26320457458496094,-0.6291133761405945,-46.57577133178711,-5.536709308624268,19.535249710083008,0.7730002999305725,2.3596224784851074,-0.20083944499492645,0.0,0.0,0.0,0.0,0.0,0.0,0.0,-0.6419443020640001,-0.21460408239809933,-0.3969345432425558,0.3219709221046257,0.19455556451642014,0.09405188070709618,-0.1865535461257661,0.8780181223852144,0.755750297750927,-0.28243281667541215,-1.6690531847937062,0.14140802123055327,2.4035753814874266,1.0273484225190348,0.878092876070424,0.7554597494309409,-0.2825552651693207,-1.6690993614607135,0.1414185955172306,2.4034451173676383,1.0273381002308042,0.00020082389214280056,0.0005776082191312422,-0.0005739663139268538,-0.000628065511828666,0.00022506278665396166,-9.301958850903836e-05,0.00045405354756887956,0.0,0.0,0.0,0.0,0.0,0.0,0.0,7.475368520959425e-05,-0.00029054831998609476,-0.00012244849390857793,-4.6176667007236105e-05,1.0574286677333955e-05,-0.00013026411978822594,-1.0322288230613097e-05,-0.00020082389214280056,-0.0005776082191312422,0.0005739663139268538,0.000628065511828666,-0.00022506278665396166,9.301958850903836e-05,-0.00045405354756887956,0.6291133761405945,46.57577133178711,5.536709308624268,-19.535249710083008,-0.7730002999305725,-2.3596224784851074,0.20083944499492645,0
55,0.26819491386413574,-0.6568843722343445,-46.54800033569336,-5.536709308624268,19.487642288208008,0.7849021553993225,2.3660311698913574,-0.18710653483867645,0.0,0.0,0.0,0.0,0.0,0.0,0.0,-0.6483702590894473,-0.23139913920328734,-0.4032412864394061,0.3304137273781838,0.19486541171311056,0.09472926119953229,-0.18611805963022296,0.8780200708999987,0.7557502131150551,-0.2824350265993965,-1.669047698166897,0.14140347705847242,2.4035719614646616,1.0273468966401285,0.878092876070424,0.7554597494309409,-0.2825552651693207,-1.6690993614607135,0.1414185955172306,2.4034451173676383,1.0273381002308042,0.00021575263752214124,-2.7322468059557188e-05,-0.0007196106037437477,0.0009937161156534948,-0.00013645018824799798,-0.00018769201579600236,0.0005076071977389909,0.0,0.0,0.0,0.0,0.0,0.0,0.0,7.280517042529411e-05,-0.0002904636841142283,-0.00012023856992421367,-5.166329381656176e-05,1.5118458758178743e-05,-0.00012684409702323762,-8.796409324274279e-06,-0.00021575263752214124,2.7322468059557188e-05,0.0007196106037437477,-0.0009937161156534948,0.00013645018824799798,0.00018769201579600236,-0.0005076071977389909,0.6568843722343445,46.54800033569336,5.536709308624268,-19.487642288208008,-0.7849021553993225,-2.3660311698913574,0.18710653483867645,0
56,0.27321600914001465,-0.6568843722343445,-46.54800033569336,-5.536709308624268,19.487642288208008,0.7849021553993225,2.3660311698913574,-0.18710653483867645,0.0,0.0,0.0,0.0,0.0,0.0,0.0,-0.6483702590894473,-0.23139913920328734,-0.4032412864394061,0.3304137273781838,0.19486541171311056,0.09472926119953229,-0.18611805963022296,0.8780200708999987,0.7557502131150551,-0.2824350265993965,-1.669047698166897,0.14140347705847242,2.4035719614646616,1.0273468966401285,0.878092876070424,0.7554597494309409,-0.2825552651693207,-1.6690993614607135,0.1414185955172306,2.4034451173676383,1.0273381002308042,0.00021575263752214124,-2.7322468059557188e-05,-0.0007196106037437477,0.0009937161156534948,-0.00013645018824799798,-0.00018769201579600236,0.0005076071977389909,0.0,0.0,0.0,0.0,0.0,0.0,0.0,7.280517042529411e-05,-0.0002904636841142283,-0.00012023856992421367,-5.166329381656176e-05,1.5118458758178743e-05,-0.00012684409702323762,-8.796409324274279e-06,-0.00021575263752214124,2.7322468059557188e-05,0.0007196106037437477,-0.0009937161156534948,0.00013645018824799798,0.00018769201579600236,-0.0005076071977389909,0.6568843722343445,46.54800033569336,5.536709308624268,-19.487642288208008,-0.7849021553993225,-2.3660311698913574,0.18710653483867645,0
57,0.2781515121459961,-0.6568843722343445,-46.52419662475586,-5.588284015655518,19.511445999145508,0.7665916085243225,2.3596224784851074,-0.17978231608867645,0.0,0.0,0.0,0.0,0.0,0.0,0.0,-0.6641172277395856,-0.2178349095584764,-0.4115824571392336,0.32072641228248755,0.19514899243804784,0.09388586645221073,-0.18523664231506623,0.8780200708999969,0.7557464356959643,-0.2824320051645967,-1.6690493685906391,0.14140874656692143,2.4035733838277515,1.0273460833346748,0.878092876070424,0.7554597494309409,-0.2825552651693207,-1.6690993614607135,0.1414185955172306,2.4034451173676383,1.0273381002308042,-0.0008454913657726761,-0.0004530573925350603,0.0001862820179544358,0.00026951213914107574,0.00035289466285791474,6.643593774746275e-05,-0.0001295826146397797,0.0,0.0,0.0,0.0,0.0,0.0,0.0,7.280517042707046e-05,-0.0002866862650234836,-0.00012326000472401288,-4.999287007434461e-05,9.848950309171434e-06,-0.0001282664601132133,-7.983103870623509e-06,0.0008454913657726761,0.0004530573925350603,-0.0001862820179544358,-0.00026951213914107574,-0.00035289466285791474,-6.643593774746275e-05,0.0001295826146397797,0.6568843722343445,46.52419662475586,5.588284015655518,-19.511445999145508,-0.7665916085243225,-2.3596224784851074,0.17978231608867645,0
58,0.28316235542297363,-0.6568843722343445,-46.52419662475586,-5.588284015655518,19.511445999145508,0.7665916085243225,2.3596224784851074,-0.17978231608867645,0.0,0.0,0.0,0.0,0.0,0.0,0.0,-0.6641172277395856,-0.2178349095584764,-0.4115824571392336,0.32072641228248755,0.19514899243804784,0.09388586645221073,-0.18523664231506623,0.8780200708999969,0.7557464356959643,-0.2824320051645967,-1.6690493685906391,0.14140874656692143,2.4035733838277515,1.0273460833346748,0.878092876070424,0.7554597494309409,-0.2825552651693207,-1.6690993614607135,0.1414185955172306,2.4034451173676383,1.0273381002308042,-0.0008454913657726761,-0.0004530573925350603,0.0001862820179544358,0.00026951213914107574,0.00035289466285791474,6.643593774746275e-05,-0.0001295826146397797,0.0,0.0,0.0,0.0,0.0,0.0,0.0,7.280517042707046e-05,-0.0002866862650234836,-0.00012326000472401288,-4.999287007434461e-05,9.848950309171434e-06,-0.0001282664601132133,-7.983103870623509e-06,0.0008454913657726761,0.0004530573925350603,-0.0001862820179544358,-0.00026951213914107574,-0.00035289466285791474,-6.643593774746275e-05,0.0001295826146397797,0.6568843722343445,46.52419662475586,5.588284015655518,-19.511445999145508,-0.7665916085243225,-2.3596224784851074,0.17978231608867645,0
59,0.2881960868835449,-0.6568843722343445,-46.54800033569336,-5.588284015655518,19.511445999145508,0.7784934639930725,2.3660311698913574,-0.15964071452617645,0.0,0.0,0.0,0.0,0.0,0.0,0.0,-0.6474440818732361,-0.23449174454463764,-0.39991719478924626,0.3317246653709772,0.19388431992373523,0.09594008142760128,-0.18524445794562786,0.8780200712270456,0.755750298818641,-0.28242922683655375,-1.6690496070092182,0.14140742442681484,2.403571927914059,1.027343844882319,0.878092876070424,0.7554597494309409,-0.2825552651693207,-1.6690993614607135,0.1414185955172306,2.4034451173676383,1.0273381002308042,-0.0010254134846988967,-7.637515527791642e-05,0.00017485782012630988,0.0002023079581790257,-0.00033748453066461233,7.412622222154791e-06,-0.0009986568327580753,0.0,0.0,0.0,0.0,0.0,0.0,0.0,7.280484337834903e-05,-0.00029054938770012306,-0.00012603833276697562,-4.9754451495243046e-05,1.1171090415762475e-05,-0.00012681054642049716,-5.744651514705268e-06,0.0010254134846988967,7.637515527791642e-05,-0.00017485782012630988,-0.0002023079581790257,0.00033748453066461233,-7.412622222154791e-06,0.0009986568327580753,0.6568843722343445,46.54800033569336,5.588284015655518,-19.511445999145508,-0.7784934639930725,-2.3660311698913574,0.15964071452617645,0
60,0.2931942939758301,-0.6568843722343445,-46.54800033569336,-5.588284015655518,19.511445999145508,0.7784934639930725,2.3660311698913574,-0.15964071452617645,0.0,0.0,0.0,0.0,0.0,0.0,0.0,-0.6474440818732361,-0.23449174454463764,-0.39991719478924626,0.3317246653709772,0.19388431992373523,0.09594008142760128,-0.18524445794562786,0.8780200712270456,0.755750298818641,-0.28242922683655375,-1.6690496070092182,0.14140742442681484,2.403571927914059,1.027343844882319,0.878092876070424,0.7554597494309409,-0.2825552651693207,-1.6690993614607135,0.1414185955172306,2.4034451173676383,1.0273381002308042,-0.0010254134846988967,-7.637515527791642e-05,0.00017485782012630988,0.0002023079581790257,-0.00033748453066461233,7.412622222154791e-06,-0.0009986568327580753,0.0,0.0,0.0,0.0,0.0,0.0,0.0,7.280484337834903e-05,-0.00029054938770012306,-0.00012603833276697562,-4.9754451495243046e-05,1.1171090415762475e-05,-0.00012681054642049716,-5.744651514705268e-06,0.0010254134846988967,7.637515527791642e-05,-0.00017485782012630988,-0.0002023079581790257,0.00033748453066461233,-7.412622222154791e-06,0.0009986568327580753,0.6568843722343445,46.54800033569336,5.588284015655518,-19.511445999145508,-0.7784934639930725,-2.3660311698913574,0.15964071452617645,0
61,0.2982034683227539,-0.6806880831718445,-46.54800033569336,-5.588284015655518,19.511445999145508,0.7903953194618225,2.3522982597351074,-0.21457235515117645,0.0,0.0,0.0,0.0,0.0,0.0,0.0,-0.652110859794893,-0.21761450987346798,-0.39911588823423527,0.32338859569465406,0.19278200748616034,0.09545003458853146,-0.18574806223231777,0.8780217413358575,0.7557481148238524,-0.28242919985785014,-1.6690493774249946,0.14140752464870257,2.403572978590895,1.0273499483979411,0.878092876070424,0.7554597494309409,-0.2825552651693207,-1.6690993614607135,0.1414185955172306,2.4034451173676383,1.0273381002308042,-0.00022854926836982548,0.0003646500448870411,-0.0002197433987432137,0.00011372218735762813,-0.0003237816215227421,0.00028631988454326187,0.0011241601543690676,0.0,0.0,0.0,0.0,0.0,0.0,0.0,7.113473456643593e-05,-0.0002883653929115493,-0.0001260653114705801,-4.998403571887522e-05,1.1070868528029187e-05,-0.0001278612232566978,-1.1848167136951915e-05,0.00022854926836982548,-0.0003646500448870411,0.0002197433987432137,-0.00011372218735762813,0.0003237816215227421,-0.00028631988454326187,-0.0011241601543690676,0.6806880831718445,46.54800033569336,5.588284015655518,-19.511445999145508,-0.7903953194618225,-2.3522982597351074,0.21457235515117645,0
62,0.303192138671875,-0.6806880831718445,-46.54800033569336,-5.588284015655518,19.511445999145508,0.7903953194618225,2.3522982597351074,-0.21457235515117645,0.0,0.0,0.0,0.0,0.0,0.0,0.0,-0.652110859794893,-0.21761450987346798,-0.39911588823423527,0.32338859569465406,0.19278200748616034,0.09545003458853146,-0.18574806223231777,0.8780217413358575,0.7557481148238524,-0.28242919985785014,-1.6690493774249946,0.14140752464870257,2.403572978590895,1.0273499483979411,0.878092876070424,0.7554597494309409,-0.2825552651693207,-1.6690993614607135,0.1414185955172306,2.4034451173676383,1.0273381002308042,-0.00022854926836982548,0.0003646500448870411,-0.0002197433987432137,0.00011372218735762813,-0.0003237816215227421,0.00028631988454326187,0.0011241601543690676,0.0,0.0,0.0,0.0,0.0,0.0,0.0,7.113473456643593e-05,-0.0002883653929115493,-0.0001260653114705801,-4.998403571887522e-05,1.1070868528029187e-05,-0.0001278612232566978,-1.1848167136951915e-05,0.00022854926836982548,-0.0003646500448870411,0.0002197433987432137,-0.00011372218735762813,0.0003237816215227421,-0.00028631988454326187,-0.0011241601543690676,0.6806880831718445,46.54800033569336,5.588284015655518,-19.511445999145508,-0.7903953194618225,-2.3522982597351074,0.21457235515117645,0
63,0.3081977367401123,-0.6806880831718445,-46.57577133178711,-5.588284015655518,19.511445999145508,0.7730002999305725,2.3660311698913574,-0.17337362468242645,0.0,0.0,0.0,0.0,0.0,0.0,0.0,-0.6522570724594468,-0.22532603873335816,-0.40004768935246626,0.33017822151770904,0.19282211447839567,0.09564467331224537,-0.1862614652558903,0.8780217413843037,0.7557500549736459,-0.28243130299919544,-1.6690493715300414,0.1414090991860042,2.4035715830415696,1.0273453707612223,0.878092876070424,0.7554597494309409,-0.2825552651693207,-1.6690993614607135,0.1414185955172306,2.4034451173676383,1.0273381002308042,0.000107122153240005,0.0007805329819399487,-6.523922386614198e-05,0.0006634142296202883,0.00030859815510408267,-0.000151083677053155,-0.000710735334363626,0.0,0.0,0.0,0.0,0.0,0.0,0.0,7.113468612029994e-05,-0.0002903055427050383,-0.0001239621701252802,-4.998993067206747e-05,9.496331226405141e-06,-0.00012646567393126418,-7.270530418157506e-06,-0.000107122153240005,-0.0007805329819399487,6.523922386614198e-05,-0.0006634142296202883,-0.00030859815510408267,0.000151083677053155,0.000710735334363626,0.6806880831718445,46.57577133178711,5.588284015655518,-19.511445999145508,-0.7730002999305725,-2.3660311698913574,0.17337362468242645,0
64,0.3131906986236572,-0.6806880831718445,-46.57577133178711,-5.588284015655518,19.511445999145508,0.7730002999305725,2.3660311698913574,-0.17337362468242645,0.0,0.0,0.0,0.0,0.0,0.0,0.0,-0.6522570724594468,-0.22532603873335816,-0.40004768935246626,0.33017822151770904,0.19282211447839567,0.09564467331224537,-0.1862614652558903,0.8780217413843037,0.7557500549736459,-0.28243130299919544,-1.6690493715300414,0.1414090991860042,2.4035715830415696,1.0273453707612223,0.878092876070424,0.7554597494309409,-0.2825552651693207,-1.6690993614607135,0.1414185955172306,2.4034451173676383,1.0273381002308042,0.000107122153240005,0.0007805329819399487,-6.523922386614198e-05,0.0006634142296202883,0.00030859815510408267,-0.000151083677053155,-0.000710735334363626,0.0,0.0,0.0,0.0,0.0,0.0,0.0,7.113468612029994e-05,-0.0002903055427050383,-0.0001239621701252802,-4.998993067206747e-05,9.496331226405141e-06,-0.00012646567393126418,-7.270530418157506e-06,-0.000107122153240005,-0.0007805329819399487,6.523922386614198e-05,-0.0006634142296202883,-0.00030859815510408267,0.000151083677053155,0.000710735334363626,0.6806880831718445,46.57577133178711,5.588284015655518,-19.511445999145508,-0.7730002999305725,-2.3660311698913574,0.17337362468242645,0
65,0.3182206153869629,-0.6291133761405945,-46.57577133178711,-5.588284015655518,19.586824417114258,0.7903953194618225,2.3522982597351074,-0.21457235515117645,0.0,0.0,0.0,0.0,0.0,0.0,0.0,-0.6568376877697146,-0.22426323288756433,-0.4022786563038569,0.3290628995005904,0.19310545290531056,0.09590818791186147,-0.18659722239882462,0.8780181220945046,0.7557500905919071,-0.28242919708729924,-1.6690546583041974,0.14140740229900983,2.403573111717995,1.0273499483979411,0.878092876070424,0.7554597494309409,-0.2825552651693207,-1.6690993614607135,0.1414185955172306,2.4034451173676383,1.0273381002308042,-0.0005817313852907398,0.0001465270492216089,0.000142689745238617,-0.001409150708534776,-0.0004283610987285805,0.00024074426097052244,0.0007869976163132665,0.0,0.0,0.0,0.0,0.0,0.0,0.0,7.475397591938382e-05,-0.0002903411609662676,-0.0001260680820214799,-4.470315651605716e-05,1.1193218220767465e-05,-0.00012799435035670825,-1.1848167136951915e-05,0.0005817313852907398,-0.0001465270492216089,-0.000142689745238617,0.001409150708534776,0.0004283610987285805,-0.00024074426097052244,-0.0007869976163132665,0.6291133761405945,46.57577133178711,5.588284015655518,-19.586824417114258,-0.7903953194618225,-2.3522982597351074,0.21457235515117645,0
66,0.32320261001586914,-0.6291133761405945,-46.57577133178711,-5.588284015655518,19.586824417114258,0.7903953194618225,2.3522982597351074,-0.21457235515117645,0.0,0.0,0.0,0.0,0.0,0.0,0.0,-0.6568376877697146,-0.22426323288756433,-0.4022786563038569,0.3290628995005904,0.19310545290531056,0.09590818791186147,-0.18659722239882462,0.8780181220945046,0.7557500905919071,-0.28242919708729924,-1.6690546583041974,0.14140740229900983,2.403573111717995,1.0273499483979411,0.878092876070424,0.7554597494309409,-0.2825552651693207,-1.6690993614607135,0.1414185955172306,2.4034451173676383,1.0273381002308042,-0.0005817313852907398,0.0001465270492216089,0.000142689745238617,-0.001409150708534776,-0.0004283610987285805,0.00024074426097052244,0.0007869976163132665,0.0,0.0,0.0,0.0,0.0,0.0,0.0,7.475397591938382e-05,-0.0002903411609662676,-0.0001260680820214799,-4.470315651605716e-05,1.1193218220767465e-05,-0.00012799435035670825,-1.1848167136951915e-05,0.0005817313852907398,-0.0001465270492216089,-0.000142689745238617,0.001409150708534776,0.0004283610987285805,-0.00024074426097052244,-0.0007869976163132665,0.6291133761405945,46.57577133178711,5.588284015655518,-19.586824417114258,-0.7903953194618225,-2.3522982597351074,0.21457235515117645,0
67,0.3281888961791992,-0.6053096652030945,-46.59957504272461,-5.588284015655518,19.535249710083008,0.7903953194618225,2.3660311698913574,-0.15964071452617645,0.0,0.0,0.0,0.0,0.0,0.0,0.0,-0.6640923497503999,-0.21788508677476887,-0.40584203412427183,0.32595191553911823,0.19332573552153476,0.09564062912798751,-0.18729427719042976,0.8780186768623822,0.7557517542871242,-0.2824293010769314,-1.6690510390264943,0.141404203137191,2.403571861152288,1.027343844882316,0.878092876070424,0.7554597494309409,-0.2825552651693207,-1.6690993614607135,0.1414185955172306,2.4034451173676383,1.0273381002308042,-0.000864968992169235,0.0013878020554866078,0.00039096569589434297,0.0001044429949576255,-0.0005211000159544892,-0.0001203698541494439,-0.0007902493409885153,0.0,0.0,0.0,0.0,0.0,0.0,0.0,7.419920804174751e-05,-0.0002920048561833033,-0.00012596409238929684,-4.832243421915017e-05,1.4392380039612851e-05,-0.0001267437846497188,-5.744651511818688e-06,0.000864968992169235,-0.0013878020554866078,-0.00039096569589434297,-0.0001044429949576255,0.0005211000159544892,0.0001203698541494439,0.0007902493409885153,0.6053096652030945,46.59957504272461,5.588284015655518,-19.535249710083008,-0.7903953194618225,-2.3660311698913574,0.15964071452617645,0
68,0.33315515518188477,-0.6053096652030945,-46.59957504272461,-5.588284015655518,19.535249710083008,0.7903953194618225,2.3660311698913574,-0.15964071452617645,0.0,0.0,0.0,0.0,0.0,0.0,0.0,-0.6640923497503999,-0.21788508677476887,-0.40584203412427183,0.32595191553911823,0.19332573552153476,0.09564062912798751,-0.18729427719042976,0.8780186768623822,0.7557517542871242,-0.2824293010769314,-1.6690510390264943,0.141404203137191,2.403571861152288,1.027343844882316,0.878092876070424,0.7554597494309409,-0.2825552651693207,-1.6690993614607135,0.1414185955172306,2.4034451173676383,1.0273381002308042,-0.000864968992169235,0.0013878020554866078,0.00039096569589434297,0.0001044429949576255,-0.0005211000159544892,-0.0001203698541494439,-0.0007902493409885153,0.0,0.0,0.0,0.0,0.0,0.0,0.0,7.419920804174751e-05,-0.0002920048561833033,-0.00012596409238929684,-4.832243421915017e-05,1.4392380039612851e-05,-0.0001267437846497188,-5.744651511818688e-06,0.000864968992169235,-0.0013878020554866078,-0.00039096569589434297,-0.0001044429949576255,0.0005211000159544892,0.0001203698541494439,0.0007902493409885153,0.6053096652030945,46.59957504272461,5.588284015655518,-19.535249710083008,-0.7903953194618225,-2.3660311698913574,0.15964071452617645,0
69,0.338193416595459,-0.6053096652030945,-46.59957504272461,-5.588284015655518,19.535249710083008,0.7903953194618225,2.3660311698913574,-0.15964071452617645,0.0,0.0,0.0,0.0,0.0,0.0,0.0,-0.6640923497503999,-0.21788508677476887,-0.40584203412427183,0.32595191553911823,0.19332573552153476,0.09564062912798751,-0.18729427719042976,0.8780186768623822,0.7557517542871242,-0.2824293010769314,-1.6690510390264943,0.141404203137191,2.403571861152288,1.027343844882316,0.878092876070424,0.7554597494309409,-0.2825552651693207,-1.6690993614607135,0.1414185955172306,2.4034451173676383,1.0273381002308042,-0.000864968992169235,0.0013878020554866078,0.00039096569589434297,0.0001044429949576255,-0.0005211000159544892,-0.0001203698541494439,-0.0007902493409885153,0.0,0.0,0.0,0.0,0.0,0.0,0.0,7.419920804174751e-05,-0.0002920048561833033,-0.00012596409238929684,-4.832243421915017e-05,1.4392380039612851e-05,-0.0001267437846497188,-5.744651511818688e-06,0.000864968992169235,-0.0013878020554866078,-0.00039096569589434297,-0.0001044429949576255,0.0005211000159544892,0.0001203698541494439,0.0007902493409885153,0.6053096652030945,46.59957504272461,5.588284015655518,-19.535249710083008,-0.7903953194618225,-2.3660311698913574,0.15964071452617645,0
70,0.34319090843200684,-0.6053096652030945,-46.59957504272461,-5.588284015655518,19.535249710083008,0.7903953194618225,2.3660311698913574,-0.15964071452617645,0.0,0.0,0.0,0.0,0.0,0.0,0.0,-0.6640923497503999,-0.21788508677476887,-0.40584203412427183,0.32595191553911823,0.19332573552153476,0.09564062912798751,-0.18729427719042976,0.8780186768623822,0.7557517542871242,-0.2824293010769314,-1.6690510390264943,0.141404203137191,2.403571861152288,1.027343844882316,0.878092876070424,0.7554597494309409,-0.2825552651693207,-1.6690993614607135,0.1414185955172306,2.4034451173676383,1.0273381002308042,-0.000864968992169235,0.0013878020554866078,0.00039096569589434297,0.0001044429949576255,-0.0005211000159544892,-0.0001203698541494439,-0.0007902493409885153,0.0,0.0,0.0,0.0,0.0,0.0,0.0,7.419920804174751e-05,-0.0002920048561833033,-0.00012596409238929684,-4.832243421915017e-05,1.4392380039612851e-05,-0.0001267437846497188,-5.744651511818688e-06,0.000864968992169235,-0.0013878020554866078,-0.00039096569589434297,-0.0001044429949576255,0.0005211000159544892,0.0001203698541494439,0.0007902493409885153,0.6053096652030945,46.59957504272461,5.588284015655518,-19.535249710083008,-0.7903953194618225,-2.3660311698913574,0.15964071452617645,0
71,0.3481898307800293,-0.6053096652030945,-46.54800033569336,-5.588284015655518,19.535249710083008,0.7730002999305725,2.3660311698913574,-0.19351522624492645,0.0,0.0,0.0,0.0,0.0,0.0,0.0,-0.6529618959756739,-0.22049851204013615,-0.4017653031460856,0.3293281884077474,0.19313719220330383,0.09626562451339196,-0.18736156802312615,0.8780164604651897,0.7557488081303493,-0.2824291969690009,-1.6690510400076408,0.14140575728103685,2.4035758131954554,1.0273476087169515,0.878092876070424,0.7554597494309409,-0.2825552651693207,-1.6690993614607135,0.1414185955172306,2.4034451173676383,1.0273381002308042,-0.0005800275430266846,0.00011887798508150333,0.0004017255007222341,7.054375234930997e-05,0.0003563205773423238,-0.00016913517280784778,0.0004742614624784272,0.0,0.0,0.0,0.0,0.0,0.0,0.0,7.641560523430346e-05,-0.00028905869940842877,-0.000126068200319851,-4.832145307265279e-05,1.2838236193746244e-05,-0.00013069582781710665,-9.508486147336015e-06,0.0005800275430266846,-0.00011887798508150333,-0.0004017255007222341,-7.054375234930997e-05,-0.0003563205773423238,0.00016913517280784778,-0.0004742614624784272,0.6053096652030945,46.54800033569336,5.588284015655518,-19.535249710083008,-0.7730002999305725,-2.3660311698913574,0.19351522624492645,0
72,0.353191614151001,-0.6053096652030945,-46.54800033569336,-5.588284015655518,19.535249710083008,0.7730002999305725,2.3660311698913574,-0.19351522624492645,0.0,0.0,0.0,0.0,0.0,0.0,0.0,-0.6529618959756739,-0.22049851204013615,-0.4017653031460856,0.3293281884077474,0.19313719220330383,0.09626562451339196,-0.18736156802312615,0.8780164604651897,0.7557488081303493,-0.2824291969690009,-1.6690510400076408,0.14140575728103685,2.4035758131954554,1.0273476087169515,0.878092876070424,0.7554597494309409,-0.2825552651693207,-1.6690993614607135,0.1414185955172306,2.4034451173676383,1.0273381002308042,-0.0005800275430266846,0.00011887798508150333,0.0004017255007222341,7.054375234930997e-05,0.0003563205773423238,-0.00016913517280784778,0.0004742614624784272,0.0,0.0,0.0,0.0,0.0,0.0,0.0,7.641560523430346e-05,-0.00028905869940842877,-0.000126068200319851,-4.832145307265279e-05,1.2838236193746244e-05,-0.00013069582781710665,-9.508486147336015e-06,0.0005800275430266846,-0.00011887798508150333,-0.0004017255007222341,-7.054375234930997e-05,-0.0003563205773423238,0.00016913517280784778,-0.0004742614624784272,0.6053096652030945,46.54800033569336,5.588284015655518,-19.535249710083008,-0.7730002999305725,-2.3660311698913574,0.19351522624492645,0
73,0.35816311836242676,-0.5815059542655945,-46.50039291381836,-5.536709308624268,19.535249710083008,0.7784934639930725,2.3660311698913574,-0.17337362468242645,0.0,0.0,0.0,0.0,0.0,0.0,0.0,-0.6396302146562239,-0.2226355114242542,-0.3983309292968605,0.33136391382898495,0.1931778252261376,0.09657826796015559,-0.1872441988867391,0.878014781186505,0.7557447740616344,-0.2824331582099455,-1.6690510390264999,0.14140554007230208,2.4035751443154756,1.0273453709267655,0.878092876070424,0.7554597494309409,-0.2825552651693207,-1.6690993614607135,0.1414185955172306,2.4034451173676383,1.0273381002308042,2.1969883925421392e-05,-0.0012309218149892933,-0.0007463761432540627,-0.0003172185613397299,-7.244541470912812e-05,-0.00021158990881810054,-0.0007966775275712663,0.0,0.0,0.0,0.0,0.0,0.0,0.0,7.809488391896657e-05,-0.00028502463069357553,-0.0001221069593752011,-4.832243421359905e-05,1.3055444928522508e-05,-0.00013002694783725843,-7.270695961292262e-06,-2.1969883925421392e-05,0.0012309218149892933,0.0007463761432540627,0.0003172185613397299,7.244541470912812e-05,0.00021158990881810054,0.0007966775275712663,0.5815059542655945,46.50039291381836,5.536709308624268,-19.535249710083008,-0.7784934639930725,-2.3660311698913574,0.17337362468242645,0
74,0.3631899356842041,-0.5815059542655945,-46.50039291381836,-5.536709308624268,19.535249710083008,0.7784934639930725,2.3660311698913574,-0.17337362468242645,0.0,0.0,0.0,0.0,0.0,0.0,0.0,-0.6396302146562239,-0.2226355114242542,-0.3983309292968605,0.33136391382898495,0.1931778252261376,0.09657826796015559,-0.1872441988867391,0.878014781186505,0.7557447740616344,-0.2824331582099455,-1.6690510390264999,0.14140554007230208,2.4035751443154756,1.0273453709267655,0.878092876070424,0.7554597494309409,-0.2825552651693207,-1.6690993614607135,0.1414185955172306,2.4034451173676383,1.0273381002308042,2.1969883925421392e-05,-0.0012309218149892933,-0.0007463761432540627,-0.0003172185613397299,-7.244541470912812e-05,-0.00021158990881810054,-0.0007966775275712663,0.0,0.0,0.0,0.0,0.0,0.0,0.0,7.809488391896657e-05,-0.00028502463069357553,-0.0001221069593752011,-4.832243421359905e-05,1.3055444928522508e-05,-0.00013002694783725843,-7.270695961292262e-06,-2.1969883925421392e-05,0.0012309218149892933,0.0007463761432540627,0.0003172185613397299,7.244541470912812e-05,0.00021158990881810054,0.0007966775275712663,0.5815059542655945,46.50039291381836,5.536709308624268,-19.535249710083008,-0.7784934639930725,-2.3660311698913574,0.17337362468242645,0
75,0.36818981170654297,-0.6291133761405945,-46.52419662475586,-5.588284015655518,19.511445999145508,0.7903953194618225,2.3596224784851074,-0.20083944499492645,0.0,0.0,0.0,0.0,0.0,0.0,0.0,-0.6420868536793302,-0.21456306324299343,-0.40431268133945725,0.3265923021344401,0.19320924843837262,0.09616033167695241,-0.18782430602393427,0.8780181220581657,0.7557464388940435,-0.28242919989494053,-1.6690493685906391,0.1414041789256772,2.403572339281444,1.0273484269887028,0.878092876070424,0.7554597494309409,-0.2825552651693207,-1.6690993614607135,0.1414185955172306,2.4034451173676383,1.0273381002308042,0.00045953497992473266,-2.0972918048915366e-05,0.0008901606779059167,0.00041719718357342486,-0.00036142653564613317,0.00015752788412672406,0.0005259372674165188,0.0,0.0,0.0,0.0,0.0,0.0,0.0,7.475401225831568e-05,-0.00028668946310261845,-0.00012606527438019377,-4.999287007434461e-05,1.4416591553406688e-05,-0.00012722191380554193,-1.0326757898582173e-05,-0.00045953497992473266,2.0972918048915366e-05,-0.0008901606779059167,-0.00041719718357342486,0.00036142653564613317,-0.00015752788412672406,-0.0005259372674165188,0.6291133761405945,46.52419662475586,5.588284015655518,-19.511445999145508,-0.7903953194618225,-2.3596224784851074,0.20083944499492645,0
76,0.3731954097747803,-0.6291133761405945,-46.52419662475586,-5.588284015655518,19.511445999145508,0.7903953194618225,2.3596224784851074,-0.20083944499492645,0.0,0.0,0.0,0.0,0.0,0.0,0.0,-0.6420868536793302,-0.21456306324299343,-0.40431268133945725,0.3265923021344401,0.19320924843837262,0.09616033167695241,-0.18782430602393427,0.8780181220581657,0.7557464388940435,-0.28242919989494053,-1.6690493685906391,0.1414041789256772,2.403572339281444,1.0273484269887028,0.878092876070424,0.7554597494309409,-0.2825552651693207,-1.6690993614607135,0.1414185955172306,2.4034451173676383,1.0273381002308042,0.00045953497992473266,-2.0972918048915366e-05,0.0008901606779059167,0.00041719718357342486,-0.00036142653564613317,0.00015752788412672406,0.0005259372674165188,0.0,0.0,0.0,0.0,0.0,0.0,0.0,7.475401225831568e-05,-0.00028668946310261845,-0.00012606527438019377,-4.999287007434461e-05,1.4416591553406688e-05,-0.00012722191380554193,-1.0326757898582173e-05,-0.00045953497992473266,2.0972918048915366e-05,-0.0008901606779059167,-0.00041719718357342486,0.00036142653564613317,-0.00015752788412672406,-0.0005259372674165188,0.6291133761405945,46.52419662475586,5.588284015655518,-19.511445999145508,-0.7903953194618225,-2.3596224784851074,0.20083944499492645,0
77,0.3781900405883789,-0.6568843722343445,-46.50039291381836,-5.564480304718018,19.511445999145508,0.7849021553993225,2.3522982597351074,-0.15231649577617645,0.0,0.0,0.0,0.0,0.0,0.0,0.0,-0.6548056466880966,-0.20863259657223013,-0.41341391209777534,0.322207149983808,0.19376437520275308,0.09563638277788233,-0.18778056761342546,0.8780200708999969,0.7557471316394735,-0.2824329821375262,-1.6690493685906391,0.14140765685911585,2.4035740758527386,1.027343031080258,0.878092876070424,0.7554597494309409,-0.2825552651693207,-1.6690993614607135,0.1414185955172306,2.4034451173676383,1.0273381002308042,-0.00016154512817036543,-0.00024183976914010126,0.00015236627034962742,0.0002821117862104737,-0.00013240728841755923,0.0002414386180534614,-0.0014957245846068624,0.0,0.0,0.0,0.0,0.0,0.0,0.0,7.280517042707046e-05,-0.0002873822085326383,-0.00012228303179451228,-4.999287007434461e-05,1.0938658114745259e-05,-0.0001289584851003056,-4.930849453854691e-06,0.00016154512817036543,0.00024183976914010126,-0.00015236627034962742,-0.0002821117862104737,0.00013240728841755923,-0.0002414386180534614,0.0014957245846068624,0.6568843722343445,46.50039291381836,5.564480304718018,-19.511445999145508,-0.7849021553993225,-2.3522982597351074,0.15231649577617645,0
78,0.3831906318664551,-0.6568843722343445,-46.50039291381836,-5.564480304718018,19.511445999145508,0.7849021553993225,2.3522982597351074,-0.15231649577617645,0.0,0.0,0.0,0.0,0.0,0.0,0.0,-0.6548056466880966,-0.20863259657223013,-0.41341391209777534,0.322207149983808,0.19376437520275308,0.09563638277788233,-0.18778056761342546,0.8780200708999969,0.7557471316394735,-0.2824329821375262,-1.6690493685906391,0.14140765685911585,2.4035740758527386,1.027343031080258,0.878092876070424,0.7554597494309409,-0.2825552651693207,-1.6690993614607135,0.1414185955172306,2.4034451173676383,1.0273381002308042,-0.00016154512817036543,-0.00024183976914010126,0.00015236627034962742,0.0002821117862104737,-0.00013240728841755923,0.0002414386180534614,-0.0014957245846068624,0.0,0.0,0.0,0.0,0.0,0.0,0.0,7.280517042707046e-05,-0.0002873822085326383,-0.00012228303179451228,-4.999287007434461e-05,1.0938658114745259e-05,-0.0001289584851003056,-4.930849453854691e-06,0.00016154512817036543,0.00024183976914010126,-0.00015236627034962742,-0.0002821117862104737,0.00013240728841755923,-0.0002414386180534614,0.0014957245846068624,0.6568843722343445,46.50039291381836,5.564480304718018,-19.511445999145508,-0.7849021553993225,-2.3522982597351074,0.15231649577617645,0
79,0.3881950378417969,-0.6806880831718445,-46.52419662475586,-5.588284015655518,19.559053421020508,0.7849021553993225,2.3596224784851074,-0.20724813640117645,0.0,0.0,0.0,0.0,0.0,0.0,0.0,-0.6388506193104473,-0.2125500590518009,-0.3976544008628039,0.32729128479495534,0.19397902293258887,0.09546597105245018,-0.18744825734943268,0.8780217413358521,0.7557464398703292,-0.28243013588296295,-1.6690527094623497,0.14140801751020415,2.4035733460387676,1.0273491345958576,0.878092876070424,0.7554597494309409,-0.2825552651693207,-1.6690993614607135,0.1414185955172306,2.4034451173676383,1.0273381002308042,0.0005131049270105543,-5.439501006056506e-05,0.0002365820284926696,-0.0006105716015289644,-0.00024181144793919974,-6.456731842538405e-05,0.0008071478159731404,0.0,0.0,0.0,0.0,0.0,0.0,0.0,7.113473457187602e-05,-0.0002866904393883374,-0.00012512928635777243,-4.665199836373368e-05,1.0578007026446068e-05,-0.00012822867112927128,-1.1034365053452788e-05,-0.0005131049270105543,5.439501006056506e-05,-0.0002365820284926696,0.0006105716015289644,0.00024181144793919974,6.456731842538405e-05,-0.0008071478159731404,0.6806880831718445,46.52419662475586,5.588284015655518,-19.559053421020508,-0.7849021553993225,-2.3596224784851074,0.20724813640117645,0
80,0.3931429386138916,-0.6806880831718445,-46.52419662475586,-5.588284015655518,19.559053421020508,0.7849021553993225,2.3596224784851074,-0.20724813640117645,0.0,0.0,0.0,0.0,0.0,0.0,0.0,-0.6388506193104473,-0.2125500590518009,-0.3976544008628039,0.32729128479495534,0.19397902293258887,0.09546597105245018,-0.18744825734943268,0.8780217413358521,0.7557464398703292,-0.28243013588296295,-1.6690527094623497,0.14140801751020415,2.4035733460387676,1.0273491345958576,0.878092876070424,0.7554597494309409,-0.2825552651693207,-1.6690993614607135,0.1414185955172306,2.4034451173676383,1.0273381002308042,0.0005131049270105543,-5.439501006056506e-05,0.0002365820284926696,-0.0006105716015289644,-0.00024181144793919974,-6.456731842538405e-05,0.0008071478159731404,0.0,0.0,0.0,0.0,0.0,0.0,0.0,7.113473457187602e-05,-0.0002866904393883374,-0.00012512928635777243,-4.665199836373368e-05,1.0578007026446068e-05,-0.00012822867112927128,-1.1034365053452788e-05,-0.0005131049270105543,5.439501006056506e-05,-0.0002365820284926696,0.0006105716015289644,0.00024181144793919974,6.456731842538405e-05,-0.0008071478159731404,0.6806880831718445,46.52419662475586,5.588284015655518,-19.559053421020508,-0.7849021553993225,-2.3596224784851074,0.20724813640117645,0
