rezayati/contactInterpretation/dataset/franka_main/labeled_data/link4/d5_6.csv
index,time,tau_J0,tau_J1,tau_J2,tau_J3,tau_J4,tau_J5,tau_J6,tau_J_d0,tau_J_d1,tau_J_d2,tau_J_d3,tau_J_d4,tau_J_d5,tau_J_d6,tau_ext0,tau_ext1,tau_ext2,tau_ext3,tau_ext4,tau_ext5,tau_ext6,q0,q1,q2,q3,q4,q5,q6,q_d0,q_d1,q_d2,q_d3,q_d4,q_d5,q_d6,dq0,dq1,dq2,dq3,dq4,dq5,dq6,dq_d0,dq_d1,dq_d2,dq_d3,dq_d4,dq_d5,dq_d6,e0,e1,e2,e3,e4,e5,e6,de0,de1,de2,de3,de4,de5,de6,etau_J0,etau_J1,etau_J2,etau_J3,etau_J4,etau_J5,etau_J6,label
1,0.0,0.03342324495315552,-18.253320693969727,1.0172455310821533,18.099092483520508,0.7546897530555725,2.2488436698913574,-0.18710653483867645,0.0,0.0,0.0,0.0,0.0,0.0,0.0,0.034528238900349485,0.3598154090786932,0.1835499135285152,0.4678365850196923,0.3383569874400114,0.06198705656872847,-0.19305293162304613,-0.6089800209288011,-0.05747905629409314,-0.6665509134941531,-2.5946415490529278,-0.05568107012151482,2.5079574496481154,0.8763169520587621,-0.6090851748156966,-0.05753196718556838,-0.666603097082616,-2.5945565370258534,-0.05562143941554,2.507976027223799,0.8763108487046415,0.0003512546004310604,-0.0007047303671061949,8.326057162577413e-05,2.3220754215189274e-06,0.000311110563098759,1.0105825207860172e-05,0.0003196272282528288,0.0,0.0,0.0,0.0,0.0,0.0,0.0,-0.00010515388689547045,-5.291089147524408e-05,-5.2183588462928476e-05,8.501202707433819e-05,5.963070597481829e-05,1.8577575683575986e-05,-6.103354120656768e-06,-0.0003512546004310604,0.0007047303671061949,-8.326057162577413e-05,-2.3220754215189274e-06,-0.000311110563098759,-1.0105825207860172e-05,-0.0003196272282528288,-0.03342324495315552,18.253320693969727,-1.0172455310821533,-18.099092483520508,-0.7546897530555725,-2.2488436698913574,0.18710653483867645,0
2,0.004996776580810547,0.03342324495315552,-18.253320693969727,1.0172455310821533,18.099092483520508,0.7546897530555725,2.2488436698913574,-0.18710653483867645,0.0,0.0,0.0,0.0,0.0,0.0,0.0,0.034528238900349485,0.3598154090786932,0.1835499135285152,0.4678365850196923,0.3383569874400114,0.06198705656872847,-0.19305293162304613,-0.6089800209288011,-0.05747905629409314,-0.6665509134941531,-2.5946415490529278,-0.05568107012151482,2.5079574496481154,0.8763169520587621,-0.6090851748156966,-0.05753196718556838,-0.666603097082616,-2.5945565370258534,-0.05562143941554,2.507976027223799,0.8763108487046415,0.0003512546004310604,-0.0007047303671061949,8.326057162577413e-05,2.3220754215189274e-06,0.000311110563098759,1.0105825207860172e-05,0.0003196272282528288,0.0,0.0,0.0,0.0,0.0,0.0,0.0,-0.00010515388689547045,-5.291089147524408e-05,-5.2183588462928476e-05,8.501202707433819e-05,5.963070597481829e-05,1.8577575683575986e-05,-6.103354120656768e-06,-0.0003512546004310604,0.0007047303671061949,-8.326057162577413e-05,-2.3220754215189274e-06,-0.000311110563098759,-1.0105825207860172e-05,-0.0003196272282528288,-0.03342324495315552,18.253320693969727,-1.0172455310821533,-18.099092483520508,-0.7546897530555725,-2.2488436698913574,0.18710653483867645,0
3,0.009996891021728516,0.03342324495315552,-18.253320693969727,1.0172455310821533,18.099092483520508,0.7546897530555725,2.2488436698913574,-0.18710653483867645,0.0,0.0,0.0,0.0,0.0,0.0,0.0,0.034528238900349485,0.3598154090786932,0.1835499135285152,0.4678365850196923,0.3383569874400114,0.06198705656872847,-0.19305293162304613,-0.6089800209288011,-0.05747905629409314,-0.6665509134941531,-2.5946415490529278,-0.05568107012151482,2.5079574496481154,0.8763169520587621,-0.6090851748156966,-0.05753196718556838,-0.666603097082616,-2.5945565370258534,-0.05562143941554,2.507976027223799,0.8763108487046415,0.0003512546004310604,-0.0007047303671061949,8.326057162577413e-05,2.3220754215189274e-06,0.000311110563098759,1.0105825207860172e-05,0.0003196272282528288,0.0,0.0,0.0,0.0,0.0,0.0,0.0,-0.00010515388689547045,-5.291089147524408e-05,-5.2183588462928476e-05,8.501202707433819e-05,5.963070597481829e-05,1.8577575683575986e-05,-6.103354120656768e-06,-0.0003512546004310604,0.0007047303671061949,-8.326057162577413e-05,-2.3220754215189274e-06,-0.000311110563098759,-1.0105825207860172e-05,-0.0003196272282528288,-0.03342324495315552,18.253320693969727,-1.0172455310821533,-18.099092483520508,-0.7546897530555725,-2.2488436698913574,0.18710653483867645,0
4,0.015007257461547852,0.03342324495315552,-18.328699111938477,1.0410492420196533,18.071321487426758,0.7491965889930725,2.2488436698913574,-0.22098104655742645,0.0,0.0,0.0,0.0,0.0,0.0,0.0,0.03709472136861357,0.36381583429648034,0.1881884629288134,0.46652492330772355,0.33780309290011845,0.06198878018644399,-0.1928967399660678,-0.6089800209288011,-0.057473775361510354,-0.6665525840017796,-2.5946389394747276,-0.055680105087932655,2.5079574496481154,0.8763207160549021,-0.6090851748156966,-0.05753196718556838,-0.666603097082616,-2.5945565370258534,-0.05562143941554,2.507976027223799,0.8763108487046415,0.0004295270888649342,0.0007076360327723897,-0.0003716032616457393,0.000344115113261957,0.00045676620359872506,1.2662300204624489e-05,0.0002056010264187565,0.0,0.0,0.0,0.0,0.0,0.0,0.0,-0.00010515388689547045,-5.819182405802925e-05,-5.051308083636741e-05,8.24024488741415e-05,5.8665672392654855e-05,1.8577575683575986e-05,-9.867350260650554e-06,-0.0004295270888649342,-0.0007076360327723897,0.0003716032616457393,-0.000344115113261957,-0.00045676620359872506,-1.2662300204624489e-05,-0.0002056010264187565,-0.03342324495315552,18.328699111938477,-1.0410492420196533,-18.071321487426758,-0.7491965889930725,-2.2488436698913574,0.22098104655742645,0
5,0.020098447799682617,0.03342324495315552,-18.328699111938477,1.0410492420196533,18.071321487426758,0.7491965889930725,2.2488436698913574,-0.22098104655742645,0.0,0.0,0.0,0.0,0.0,0.0,0.0,0.03709472136861357,0.36381583429648034,0.1881884629288134,0.46652492330772355,0.33780309290011845,0.06198878018644399,-0.1928967399660678,-0.6089800209288011,-0.057473775361510354,-0.6665525840017796,-2.5946389394747276,-0.055680105087932655,2.5079574496481154,0.8763207160549021,-0.6090851748156966,-0.05753196718556838,-0.666603097082616,-2.5945565370258534,-0.05562143941554,2.507976027223799,0.8763108487046415,0.0004295270888649342,0.0007076360327723897,-0.0003716032616457393,0.000344115113261957,0.00045676620359872506,1.2662300204624489e-05,0.0002056010264187565,0.0,0.0,0.0,0.0,0.0,0.0,0.0,-0.00010515388689547045,-5.819182405802925e-05,-5.051308083636741e-05,8.24024488741415e-05,5.8665672392654855e-05,1.8577575683575986e-05,-9.867350260650554e-06,-0.0004295270888649342,-0.0007076360327723897,0.0003716032616457393,-0.000344115113261957,-0.00045676620359872506,-1.2662300204624489e-05,-0.0002056010264187565,-0.03342324495315552,18.328699111938477,-1.0410492420196533,-18.071321487426758,-0.7491965889930725,-2.2488436698913574,0.22098104655742645,0
6,0.0250246524810791,0.03342324495315552,-18.304895401000977,1.0172455310821533,18.146699905395508,0.7610984444618225,2.2424349784851074,-0.15964071452617645,0.0,0.0,0.0,0.0,0.0,0.0,0.0,0.026271791555774804,0.3580510536163333,0.17779963358436385,0.4730656069930205,0.3379800693683281,0.06349472915437358,-0.19609685585092945,-0.6089800209288011,-0.05747404568103892,-0.6665488075708086,-2.594646115941211,-0.055681664039157905,2.5079581617249382,0.8763128406628202,-0.6090851748156966,-0.05753196718556838,-0.666603097082616,-2.5945565370258534,-0.05562143941554,2.507976027223799,0.8763108487046415,-0.0005948972900282973,-0.00041520127843171304,-0.0009303358038576374,-0.0007881476345724965,7.281269939931821e-05,0.00023620294905699968,-0.001230092387498557,0.0,0.0,0.0,0.0,0.0,0.0,0.0,-0.00010515388689547045,-5.792150452946232e-05,-5.4289511807414925e-05,8.957891535743556e-05,6.0224623617904927e-05,1.7865498860736295e-05,-1.9919581787375407e-06,0.0005948972900282973,0.00041520127843171304,0.0009303358038576374,0.0007881476345724965,-7.281269939931821e-05,-0.00023620294905699968,0.001230092387498557,-0.03342324495315552,18.304895401000977,-1.0172455310821533,-18.146699905395508,-0.7610984444618225,-2.2424349784851074,0.15964071452617645,0
7,0.029961109161376953,0.03342324495315552,-18.304895401000977,1.0172455310821533,18.146699905395508,0.7610984444618225,2.2424349784851074,-0.15964071452617645,0.0,0.0,0.0,0.0,0.0,0.0,0.0,0.026271791555774804,0.3580510536163333,0.17779963358436385,0.4730656069930205,0.3379800693683281,0.06349472915437358,-0.19609685585092945,-0.6089800209288011,-0.05747404568103892,-0.6665488075708086,-2.594646115941211,-0.055681664039157905,2.5079581617249382,0.8763128406628202,-0.6090851748156966,-0.05753196718556838,-0.666603097082616,-2.5945565370258534,-0.05562143941554,2.507976027223799,0.8763108487046415,-0.0005948972900282973,-0.00041520127843171304,-0.0009303358038576374,-0.0007881476345724965,7.281269939931821e-05,0.00023620294905699968,-0.001230092387498557,0.0,0.0,0.0,0.0,0.0,0.0,0.0,-0.00010515388689547045,-5.792150452946232e-05,-5.4289511807414925e-05,8.957891535743556e-05,6.0224623617904927e-05,1.7865498860736295e-05,-1.9919581787375407e-06,0.0005948972900282973,0.00041520127843171304,0.0009303358038576374,0.0007881476345724965,-7.281269939931821e-05,-0.00023620294905699968,0.001230092387498557,-0.03342324495315552,18.304895401000977,-1.0172455310821533,-18.146699905395508,-0.7610984444618225,-2.2424349784851074,0.15964071452617645,0
8,0.035013675689697266,0.03342324495315552,-18.304895401000977,0.9696381092071533,18.122896194458008,0.7546897530555725,2.2552523612976074,-0.23471395671367645,0.0,0.0,0.0,0.0,0.0,0.0,0.0,0.03313571418767732,0.36112632365871494,0.18411788617955105,0.4674074031887022,0.3369567896535332,0.06242092375585205,-0.1945941735584836,-0.6089800209288011,-0.05747330615446467,-0.6665475727179916,-2.5946452705834266,-0.05568071105773686,2.5079567375712926,0.8763222288458745,-0.6090851748156966,-0.05753196718556838,-0.666603097082616,-2.5945565370258534,-0.05562143941554,2.507976027223799,0.8763108487046415,-0.0002623915257614742,-0.00013315195776469614,-0.00021152722167824446,-0.0007150726633571895,0.00022037051369110715,-0.0002601612934788858,0.0011197708751861499,0.0,0.0,0.0,0.0,0.0,0.0,0.0,-0.00010515388689547045,-5.86610311037114e-05,-5.5524364624415234e-05,8.873355757321733e-05,5.927164219685782e-05,1.9289652506415678e-05,-1.138014123303055e-05,0.0002623915257614742,0.00013315195776469614,0.00021152722167824446,0.0007150726633571895,-0.00022037051369110715,0.0002601612934788858,-0.0011197708751861499,-0.03342324495315552,18.304895401000977,-0.9696381092071533,-18.122896194458008,-0.7546897530555725,-2.2552523612976074,0.23471395671367645,0
9,0.04000043869018555,0.03342324495315552,-18.304895401000977,0.9696381092071533,18.122896194458008,0.7546897530555725,2.2552523612976074,-0.23471395671367645,0.0,0.0,0.0,0.0,0.0,0.0,0.0,0.03313571418767732,0.36112632365871494,0.18411788617955105,0.4674074031887022,0.3369567896535332,0.06242092375585205,-0.1945941735584836,-0.6089800209288011,-0.05747330615446467,-0.6665475727179916,-2.5946452705834266,-0.05568071105773686,2.5079567375712926,0.8763222288458745,-0.6090851748156966,-0.05753196718556838,-0.666603097082616,-2.5945565370258534,-0.05562143941554,2.507976027223799,0.8763108487046415,-0.0002623915257614742,-0.00013315195776469614,-0.00021152722167824446,-0.0007150726633571895,0.00022037051369110715,-0.0002601612934788858,0.0011197708751861499,0.0,0.0,0.0,0.0,0.0,0.0,0.0,-0.00010515388689547045,-5.86610311037114e-05,-5.5524364624415234e-05,8.873355757321733e-05,5.927164219685782e-05,1.9289652506415678e-05,-1.138014123303055e-05,0.0002623915257614742,0.00013315195776469614,0.00021152722167824446,0.0007150726633571895,-0.00022037051369110715,0.0002601612934788858,-0.0011197708751861499,-0.03342324495315552,18.304895401000977,-0.9696381092071533,-18.122896194458008,-0.7546897530555725,-2.2552523612976074,0.23471395671367645,0
10,0.044996023178100586,0.03342324495315552,-18.328699111938477,0.9934418201446533,18.099092483520508,0.7665916085243225,2.2424349784851074,-0.20724813640117645,0.0,0.0,0.0,0.0,0.0,0.0,0.0,0.032957501147728635,0.35833100898751125,0.18018209940956703,0.467241577097435,0.3367162863268306,0.06345266472947853,-0.1961261636058918,-0.6089797780950631,-0.05747163571443476,-0.6665490091623153,-2.594641624196025,-0.055681327966802294,2.5079581617249382,0.876319190175923,-0.6090851748156966,-0.05753196718556838,-0.666603097082616,-2.5945565370258534,-0.05562143941554,2.507976027223799,0.8763108487046415,-0.00028404521872501924,0.0003525537637751966,-0.0005170031188786547,-0.0002473496943264598,-0.00015559511340947413,0.00015424271923010404,0.00025834287492365094,0.0,0.0,0.0,0.0,0.0,0.0,0.0,-0.00010539672063347716,-6.033147113362197e-05,-5.408792030070497e-05,8.50871701714162e-05,5.9888551262293754e-05,1.7865498860736295e-05,-8.341471281481105e-06,0.00028404521872501924,-0.0003525537637751966,0.0005170031188786547,0.0002473496943264598,0.00015559511340947413,-0.00015424271923010404,-0.00025834287492365094,-0.03342324495315552,18.328699111938477,-0.9934418201446533,-18.099092483520508,-0.7665916085243225,-2.2424349784851074,0.20724813640117645,0
11,0.04999494552612305,0.03342324495315552,-18.328699111938477,0.9934418201446533,18.099092483520508,0.7665916085243225,2.2424349784851074,-0.20724813640117645,0.0,0.0,0.0,0.0,0.0,0.0,0.0,0.032957501147728635,0.35833100898751125,0.18018209940956703,0.467241577097435,0.3367162863268306,0.06345266472947853,-0.1961261636058918,-0.6089797780950631,-0.05747163571443476,-0.6665490091623153,-2.594641624196025,-0.055681327966802294,2.5079581617249382,0.876319190175923,-0.6090851748156966,-0.05753196718556838,-0.666603097082616,-2.5945565370258534,-0.05562143941554,2.507976027223799,0.8763108487046415,-0.00028404521872501924,0.0003525537637751966,-0.0005170031188786547,-0.0002473496943264598,-0.00015559511340947413,0.00015424271923010404,0.00025834287492365094,0.0,0.0,0.0,0.0,0.0,0.0,0.0,-0.00010539672063347716,-6.033147113362197e-05,-5.408792030070497e-05,8.50871701714162e-05,5.9888551262293754e-05,1.7865498860736295e-05,-8.341471281481105e-06,0.00028404521872501924,-0.0003525537637751966,0.0005170031188786547,0.0002473496943264598,0.00015559511340947413,-0.00015424271923010404,-0.00025834287492365094,-0.03342324495315552,18.328699111938477,-0.9934418201446533,-18.099092483520508,-0.7665916085243225,-2.2424349784851074,0.20724813640117645,0
12,0.05499887466430664,0.03342324495315552,-18.277124404907227,0.9696381092071533,18.122896194458008,0.7730002999305725,2.2360262870788574,-0.20724813640117645,0.0,0.0,0.0,0.0,0.0,0.0,0.0,0.029796965899845877,0.35588128966288374,0.17686329718558227,0.46791334799698947,0.33708314492029706,0.06379358088367429,-0.19616770477756035,-0.6089800169301671,-0.057475254992121146,-0.6665475727285592,-2.594642256936589,-0.05567955612314467,2.507958873801761,0.8763191901759968,-0.6090851748156966,-0.05753196718556838,-0.666603097082616,-2.5945565370258534,-0.05562143941554,2.507976027223799,0.8763108487046415,-0.0003333816489652249,-0.0007284672012955724,0.0005588972270838384,-0.0005000886926335679,-0.0002881745082478117,0.0003952067833783755,0.000841373816312511,0.0,0.0,0.0,0.0,0.0,0.0,0.0,-0.00010515788552944993,-5.6712193447237824e-05,-5.5524354056757375e-05,8.571991073536012e-05,5.811670760467319e-05,1.7153422037896604e-05,-8.341471355310937e-06,0.0003333816489652249,0.0007284672012955724,-0.0005588972270838384,0.0005000886926335679,0.0002881745082478117,-0.0003952067833783755,-0.000841373816312511,-0.03342324495315552,18.277124404907227,-0.9696381092071533,-18.122896194458008,-0.7730002999305725,-2.2360262870788574,0.20724813640117645,0
13,0.06000065803527832,0.03342324495315552,-18.277124404907227,0.9696381092071533,18.122896194458008,0.7730002999305725,2.2360262870788574,-0.20724813640117645,0.0,0.0,0.0,0.0,0.0,0.0,0.0,0.029796965899845877,0.35588128966288374,0.17686329718558227,0.46791334799698947,0.33708314492029706,0.06379358088367429,-0.19616770477756035,-0.6089800169301671,-0.057475254992121146,-0.6665475727285592,-2.594642256936589,-0.05567955612314467,2.507958873801761,0.8763191901759968,-0.6090851748156966,-0.05753196718556838,-0.666603097082616,-2.5945565370258534,-0.05562143941554,2.507976027223799,0.8763108487046415,-0.0003333816489652249,-0.0007284672012955724,0.0005588972270838384,-0.0005000886926335679,-0.0002881745082478117,0.0003952067833783755,0.000841373816312511,0.0,0.0,0.0,0.0,0.0,0.0,0.0,-0.00010515788552944993,-5.6712193447237824e-05,-5.5524354056757375e-05,8.571991073536012e-05,5.811670760467319e-05,1.7153422037896604e-05,-8.341471355310937e-06,0.0003333816489652249,0.0007284672012955724,-0.0005588972270838384,0.0005000886926335679,0.0002881745082478117,-0.0003952067833783755,-0.000841373816312511,-0.03342324495315552,18.277124404907227,-0.9696381092071533,-18.122896194458008,-0.7730002999305725,-2.2360262870788574,0.20724813640117645,0
14,0.06499814987182617,0.005652248859405518,-18.304895401000977,1.0688202381134033,18.099092483520508,0.7546897530555725,2.2488436698913574,-0.16604940593242645,0.0,0.0,0.0,0.0,0.0,0.0,0.0,0.031281553250922356,0.35478688649202306,0.1785967947023189,0.4678143324606942,0.33732466688721824,0.06345063802565414,-0.19507166479428223,-0.6089779911423681,-0.057473411378243126,-0.6665544538794943,-2.5946408011465625,-0.055677858893856194,2.5079574496481154,0.8763146106012111,-0.6090851748156966,-0.05753196718556838,-0.666603097082616,-2.5945565370258534,-0.05562143941554,2.507976027223799,0.8763108487046415,0.0008967175210980017,-0.00025430018997917085,-0.001688970888457392,0.0001744569724296006,0.0003452477028204574,-2.3646964969626466e-05,-0.001231926059060262,0.0,0.0,0.0,0.0,0.0,0.0,0.0,-0.00010718367332851475,-5.855580732525706e-05,-4.8643203121701006e-05,8.426412070905442e-05,5.6419478316194205e-05,1.8577575683575986e-05,-3.761896569587364e-06,-0.0008967175210980017,0.00025430018997917085,0.001688970888457392,-0.0001744569724296006,-0.0003452477028204574,2.3646964969626466e-05,0.001231926059060262,-0.005652248859405518,18.304895401000977,-1.0688202381134033,-18.099092483520508,-0.7546897530555725,-2.2488436698913574,0.16604940593242645,0
15,0.06999635696411133,0.005652248859405518,-18.304895401000977,1.0688202381134033,18.099092483520508,0.7546897530555725,2.2488436698913574,-0.16604940593242645,0.0,0.0,0.0,0.0,0.0,0.0,0.0,0.031281553250922356,0.35478688649202306,0.1785967947023189,0.4678143324606942,0.33732466688721824,0.06345063802565414,-0.19507166479428223,-0.6089779911423681,-0.057473411378243126,-0.6665544538794943,-2.5946408011465625,-0.055677858893856194,2.5079574496481154,0.8763146106012111,-0.6090851748156966,-0.05753196718556838,-0.666603097082616,-2.5945565370258534,-0.05562143941554,2.507976027223799,0.8763108487046415,0.0008967175210980017,-0.00025430018997917085,-0.001688970888457392,0.0001744569724296006,0.0003452477028204574,-2.3646964969626466e-05,-0.001231926059060262,0.0,0.0,0.0,0.0,0.0,0.0,0.0,-0.00010718367332851475,-5.855580732525706e-05,-4.8643203121701006e-05,8.426412070905442e-05,5.6419478316194205e-05,1.8577575683575986e-05,-3.761896569587364e-06,-0.0008967175210980017,0.00025430018997917085,0.001688970888457392,-0.0001744569724296006,-0.0003452477028204574,2.3646964969626466e-05,0.001231926059060262,-0.005652248859405518,18.304895401000977,-1.0688202381134033,-18.099092483520508,-0.7546897530555725,-2.2488436698913574,0.16604940593242645,0
16,0.0749971866607666,0.05722695589065552,-18.304895401000977,1.0172455310821533,18.122896194458008,0.7610984444618225,2.2488436698913574,-0.16604940593242645,0.0,0.0,0.0,0.0,0.0,0.0,0.0,0.025718300135433154,0.35560981959063315,0.1765583464489264,0.46514206744248376,0.3374825958319821,0.06285585403922106,-0.19443280931945403,-0.6089816913641994,-0.057473306150884015,-0.6665509136011449,-2.5946422232041932,-0.055681412840465426,2.5079574496481154,0.8763146125392671,-0.6090851748156966,-0.05753196718556838,-0.666603097082616,-2.5945565370258534,-0.05562143941554,2.507976027223799,0.8763108487046415,-0.0009554203075345324,6.480741764218884e-05,0.00016534853080648829,-0.0010237367228237725,-1.3024525514348926e-05,-0.0001886649797577923,-0.0008215307772431889,0.0,0.0,0.0,0.0,0.0,0.0,0.0,-0.00010348345149713278,-5.866103468436801e-05,-5.218348147106866e-05,8.568617833981662e-05,5.9973424925426067e-05,1.8577575683575986e-05,-3.763834625636342e-06,0.0009554203075345324,-6.480741764218884e-05,-0.00016534853080648829,0.0010237367228237725,1.3024525514348926e-05,0.0001886649797577923,0.0008215307772431889,-0.05722695589065552,18.304895401000977,-1.0172455310821533,-18.122896194458008,-0.7610984444618225,-2.2488436698913574,0.16604940593242645,0
17,0.08000755310058594,0.05722695589065552,-18.304895401000977,1.0172455310821533,18.122896194458008,0.7610984444618225,2.2488436698913574,-0.16604940593242645,0.0,0.0,0.0,0.0,0.0,0.0,0.0,0.025718300135433154,0.35560981959063315,0.1765583464489264,0.46514206744248376,0.3374825958319821,0.06285585403922106,-0.19443280931945403,-0.6089816913641994,-0.057473306150884015,-0.6665509136011449,-2.5946422232041932,-0.055681412840465426,2.5079574496481154,0.8763146125392671,-0.6090851748156966,-0.05753196718556838,-0.666603097082616,-2.5945565370258534,-0.05562143941554,2.507976027223799,0.8763108487046415,-0.0009554203075345324,6.480741764218884e-05,0.00016534853080648829,-0.0010237367228237725,-1.3024525514348926e-05,-0.0001886649797577923,-0.0008215307772431889,0.0,0.0,0.0,0.0,0.0,0.0,0.0,-0.00010348345149713278,-5.866103468436801e-05,-5.218348147106866e-05,8.568617833981662e-05,5.9973424925426067e-05,1.8577575683575986e-05,-3.763834625636342e-06,0.0009554203075345324,-6.480741764218884e-05,-0.00016534853080648829,0.0010237367228237725,1.3024525514348926e-05,0.0001886649797577923,0.0008215307772431889,-0.05722695589065552,18.304895401000977,-1.0172455310821533,-18.122896194458008,-0.7610984444618225,-2.2488436698913574,0.16604940593242645,0
18,0.08500361442565918,0.05722695589065552,-18.277124404907227,1.0172455310821533,18.099092483520508,0.7610984444618225,2.2424349784851074,-0.14590780436992645,0.0,0.0,0.0,0.0,0.0,0.0,0.0,0.029529843796233565,0.3547076675847001,0.18574622575397676,0.4696505403655397,0.3374393882012924,0.06398608041224825,-0.19274629726456063,-0.6089816913646564,-0.057475254992121146,-0.6665509136015908,-2.594640631904659,-0.055681663607765414,2.5079581631784884,0.8763123745835488,-0.6090851748156966,-0.05753196718556838,-0.666603097082616,-2.5945565370258534,-0.05562143941554,2.507976027223799,0.8763108487046415,-0.00046536702231073443,-0.00022262300954413482,2.4810828043741252e-05,9.008491404279726e-05,0.00020363323764225377,0.000169263659235075,-0.0018689152709572782,0.0,0.0,0.0,0.0,0.0,0.0,0.0,-0.00010348345104016499,-5.6712193447237824e-05,-5.2183481025203093e-05,8.409487880545186e-05,6.022419222541375e-05,1.7864045310567178e-05,-1.5258789073380186e-06,0.00046536702231073443,0.00022262300954413482,-2.4810828043741252e-05,-9.008491404279726e-05,-0.00020363323764225377,-0.000169263659235075,0.0018689152709572782,-0.05722695589065552,18.277124404907227,-1.0172455310821533,-18.099092483520508,-0.7610984444618225,-2.2424349784851074,0.14590780436992645,0
19,0.09000325202941895,0.05722695589065552,-18.277124404907227,1.0172455310821533,18.099092483520508,0.7610984444618225,2.2424349784851074,-0.14590780436992645,0.0,0.0,0.0,0.0,0.0,0.0,0.0,0.029529843796233565,0.3547076675847001,0.18574622575397676,0.4696505403655397,0.3374393882012924,0.06398608041224825,-0.19274629726456063,-0.6089816913646564,-0.057475254992121146,-0.6665509136015908,-2.594640631904659,-0.055681663607765414,2.5079581631784884,0.8763123745835488,-0.6090851748156966,-0.05753196718556838,-0.666603097082616,-2.5945565370258534,-0.05562143941554,2.507976027223799,0.8763108487046415,-0.00046536702231073443,-0.00022262300954413482,2.4810828043741252e-05,9.008491404279726e-05,0.00020363323764225377,0.000169263659235075,-0.0018689152709572782,0.0,0.0,0.0,0.0,0.0,0.0,0.0,-0.00010348345104016499,-5.6712193447237824e-05,-5.2183481025203093e-05,8.409487880545186e-05,6.022419222541375e-05,1.7864045310567178e-05,-1.5258789073380186e-06,0.00046536702231073443,0.00022262300954413482,-2.4810828043741252e-05,-9.008491404279726e-05,-0.00020363323764225377,-0.000169263659235075,0.0018689152709572782,-0.05722695589065552,18.277124404907227,-1.0172455310821533,-18.099092483520508,-0.7610984444618225,-2.2424349784851074,0.14590780436992645,0
20,0.0950007438659668,0.05722695589065552,-18.328699111938477,1.0172455310821533,18.071321487426758,0.7665916085243225,2.2488436698913574,-0.19351522624492645,0.0,0.0,0.0,0.0,0.0,0.0,0.0,0.029412067731097377,0.36199199823996564,0.18718881140089585,0.4674084172457655,0.3378294325433789,0.06289700190437857,-0.19142474140679824,-0.6089816913646564,-0.05747237234619299,-0.6665509136015908,-2.594639464831061,-0.05568203619049718,2.5079574496481234,0.8763175465595207,-0.6090851748156966,-0.05753196718556838,-0.666603097082616,-2.5945565370258534,-0.05562143941554,2.507976027223799,0.8763108487046415,-0.0006096986927125065,0.0011708593401486022,-0.00043332661457765287,0.0006778128359730851,-0.00020764037556989112,-2.8170749793374916e-05,0.00014527277348330012,0.0,0.0,0.0,0.0,0.0,0.0,0.0,-0.00010348345104016499,-5.959483937539173e-05,-5.2183481025203093e-05,8.292780520768872e-05,6.059677495717786e-05,1.857757567558238e-05,-6.697854879167409e-06,0.0006096986927125065,-0.0011708593401486022,0.00043332661457765287,-0.0006778128359730851,0.00020764037556989112,2.8170749793374916e-05,-0.00014527277348330012,-0.05722695589065552,18.328699111938477,-1.0172455310821533,-18.071321487426758,-0.7665916085243225,-2.2488436698913574,0.19351522624492645,0
21,0.10000371932983398,0.05722695589065552,-18.328699111938477,1.0172455310821533,18.071321487426758,0.7665916085243225,2.2488436698913574,-0.19351522624492645,0.0,0.0,0.0,0.0,0.0,0.0,0.0,0.029412067731097377,0.36199199823996564,0.18718881140089585,0.4674084172457655,0.3378294325433789,0.06289700190437857,-0.19142474140679824,-0.6089816913646564,-0.05747237234619299,-0.6665509136015908,-2.594639464831061,-0.05568203619049718,2.5079574496481234,0.8763175465595207,-0.6090851748156966,-0.05753196718556838,-0.666603097082616,-2.5945565370258534,-0.05562143941554,2.507976027223799,0.8763108487046415,-0.0006096986927125065,0.0011708593401486022,-0.00043332661457765287,0.0006778128359730851,-0.00020764037556989112,-2.8170749793374916e-05,0.00014527277348330012,0.0,0.0,0.0,0.0,0.0,0.0,0.0,-0.00010348345104016499,-5.959483937539173e-05,-5.2183481025203093e-05,8.292780520768872e-05,6.059677495717786e-05,1.857757567558238e-05,-6.697854879167409e-06,0.0006096986927125065,-0.0011708593401486022,0.00043332661457765287,-0.0006778128359730851,0.00020764037556989112,2.8170749793374916e-05,-0.00014527277348330012,-0.05722695589065552,18.328699111938477,-1.0172455310821533,-18.071321487426758,-0.7665916085243225,-2.2488436698913574,0.19351522624492645,0
22,0.10499906539916992,0.03342324495315552,-18.304895401000977,0.9934418201446533,18.122896194458008,0.7610984444618225,2.2488436698913574,-0.17978231608867645,0.0,0.0,0.0,0.0,0.0,0.0,0.0,0.03276355834234459,0.3623405785384063,0.19100075522662713,0.4715952543204333,0.33796872301540626,0.0633647672097141,-0.1915250529161127,-0.6089800209288011,-0.05747330615444831,-0.6665491651645955,-2.5946424777296824,-0.05568162466341439,2.5079574496481154,0.8763161382560141,-0.6090851748156966,-0.05753196718556838,-0.666603097082616,-2.5945565370258534,-0.05562143941554,2.507976027223799,0.8763108487046415,-0.00021168177512315194,0.00011929938684401031,0.0005871351875021887,-0.0005712250251477853,-5.313765771415093e-07,-0.0002007195128816261,-0.0006778584686891393,0.0,0.0,0.0,0.0,0.0,0.0,0.0,-0.00010515388689547045,-5.8661031120073315e-05,-5.3931918020500014e-05,8.594070382894614e-05,6.0185247874391945e-05,1.8577575683575986e-05,-5.2895513725781385e-06,0.00021168177512315194,-0.00011929938684401031,-0.0005871351875021887,0.0005712250251477853,5.313765771415093e-07,0.0002007195128816261,0.0006778584686891393,-0.03342324495315552,18.304895401000977,-0.9934418201446533,-18.122896194458008,-0.7610984444618225,-2.2488436698913574,0.17978231608867645,0
23,0.10999560356140137,0.03342324495315552,-18.304895401000977,0.9934418201446533,18.122896194458008,0.7610984444618225,2.2488436698913574,-0.17978231608867645,0.0,0.0,0.0,0.0,0.0,0.0,0.0,0.03276355834234459,0.3623405785384063,0.19100075522662713,0.4715952543204333,0.33796872301540626,0.0633647672097141,-0.1915250529161127,-0.6089800209288011,-0.05747330615444831,-0.6665491651645955,-2.5946424777296824,-0.05568162466341439,2.5079574496481154,0.8763161382560141,-0.6090851748156966,-0.05753196718556838,-0.666603097082616,-2.5945565370258534,-0.05562143941554,2.507976027223799,0.8763108487046415,-0.00021168177512315194,0.00011929938684401031,0.0005871351875021887,-0.0005712250251477853,-5.313765771415093e-07,-0.0002007195128816261,-0.0006778584686891393,0.0,0.0,0.0,0.0,0.0,0.0,0.0,-0.00010515388689547045,-5.8661031120073315e-05,-5.3931918020500014e-05,8.594070382894614e-05,6.0185247874391945e-05,1.8577575683575986e-05,-5.2895513725781385e-06,0.00021168177512315194,-0.00011929938684401031,-0.0005871351875021887,0.0005712250251477853,5.313765771415093e-07,0.0002007195128816261,0.0006778584686891393,-0.03342324495315552,18.304895401000977,-0.9934418201446533,-18.122896194458008,-0.7610984444618225,-2.2488436698913574,0.17978231608867645,0
24,0.11499905586242676,-0.018151462078094482,-18.328699111938477,0.9696381092071533,18.099092483520508,0.7730002999305725,2.2552523612976074,-0.22098104655742645,0.0,0.0,0.0,0.0,0.0,0.0,0.0,0.028225422183179808,0.3590243060421235,0.18804473630495225,0.4705576027430475,0.3383403585136536,0.06288403736540295,-0.191362825549691,-0.6089764016511148,-0.05747376690526312,-0.6665468707191793,-2.5946438769301152,-0.05568270905362884,2.5079567375712926,0.8763207160549021,-0.6090851748156966,-0.05753196718556838,-0.666603097082616,-2.5945565370258534,-0.05562143941554,2.507976027223799,0.8763108487046415,0.0013548814759536706,-3.658458573406798e-05,0.0004706988299851878,-0.00031860779585611045,-0.00032167071137489153,-0.00034674804616502766,0.0017996941257245023,0.0,0.0,0.0,0.0,0.0,0.0,0.0,-0.00010877316458179909,-5.8200280305266416e-05,-5.622636343671772e-05,8.733990426179616e-05,6.12696380888414e-05,1.9289652506415678e-05,-9.867350260650554e-06,-0.0013548814759536706,3.658458573406798e-05,-0.0004706988299851878,0.00031860779585611045,0.00032167071137489153,0.00034674804616502766,-0.0017996941257245023,0.018151462078094482,18.328699111938477,-0.9696381092071533,-18.099092483520508,-0.7730002999305725,-2.2552523612976074,0.22098104655742645,0
25,0.1199960708618164,-0.018151462078094482,-18.328699111938477,0.9696381092071533,18.099092483520508,0.7730002999305725,2.2552523612976074,-0.22098104655742645,0.0,0.0,0.0,0.0,0.0,0.0,0.0,0.028225422183179808,0.3590243060421235,0.18804473630495225,0.4705576027430475,0.3383403585136536,0.06288403736540295,-0.191362825549691,-0.6089764016511148,-0.05747376690526312,-0.6665468707191793,-2.5946438769301152,-0.05568270905362884,2.5079567375712926,0.8763207160549021,-0.6090851748156966,-0.05753196718556838,-0.666603097082616,-2.5945565370258534,-0.05562143941554,2.507976027223799,0.8763108487046415,0.0013548814759536706,-3.658458573406798e-05,0.0004706988299851878,-0.00031860779585611045,-0.00032167071137489153,-0.00034674804616502766,0.0017996941257245023,0.0,0.0,0.0,0.0,0.0,0.0,0.0,-0.00010877316458179909,-5.8200280305266416e-05,-5.622636343671772e-05,8.733990426179616e-05,6.12696380888414e-05,1.9289652506415678e-05,-9.867350260650554e-06,-0.0013548814759536706,3.658458573406798e-05,-0.0004706988299851878,0.00031860779585611045,0.00032167071137489153,0.00034674804616502766,-0.0017996941257245023,0.018151462078094482,18.328699111938477,-0.9696381092071533,-18.099092483520508,-0.7730002999305725,-2.2552523612976074,0.22098104655742645,0
26,0.12499713897705078,-0.018151462078094482,-18.328699111938477,0.9696381092071533,18.099092483520508,0.7730002999305725,2.2552523612976074,-0.22098104655742645,0.0,0.0,0.0,0.0,0.0,0.0,0.0,0.028225422183179808,0.3590243060421235,0.18804473630495225,0.4705576027430475,0.3383403585136536,0.06288403736540295,-0.191362825549691,-0.6089764016511148,-0.05747376690526312,-0.6665468707191793,-2.5946438769301152,-0.05568270905362884,2.5079567375712926,0.8763207160549021,-0.6090851748156966,-0.05753196718556838,-0.666603097082616,-2.5945565370258534,-0.05562143941554,2.507976027223799,0.8763108487046415,0.0013548814759536706,-3.658458573406798e-05,0.0004706988299851878,-0.00031860779585611045,-0.00032167071137489153,-0.00034674804616502766,0.0017996941257245023,0.0,0.0,0.0,0.0,0.0,0.0,0.0,-0.00010877316458179909,-5.8200280305266416e-05,-5.622636343671772e-05,8.733990426179616e-05,6.12696380888414e-05,1.9289652506415678e-05,-9.867350260650554e-06,-0.0013548814759536706,3.658458573406798e-05,-0.0004706988299851878,0.00031860779585611045,0.00032167071137489153,0.00034674804616502766,-0.0017996941257245023,0.018151462078094482,18.328699111938477,-0.9696381092071533,-18.099092483520508,-0.7730002999305725,-2.2552523612976074,0.22098104655742645,0
27,0.12999486923217773,-0.018151462078094482,-18.328699111938477,0.9696381092071533,18.099092483520508,0.7730002999305725,2.2552523612976074,-0.22098104655742645,0.0,0.0,0.0,0.0,0.0,0.0,0.0,0.028225422183179808,0.3590243060421235,0.18804473630495225,0.4705576027430475,0.3383403585136536,0.06288403736540295,-0.191362825549691,-0.6089764016511148,-0.05747376690526312,-0.6665468707191793,-2.5946438769301152,-0.05568270905362884,2.5079567375712926,0.8763207160549021,-0.6090851748156966,-0.05753196718556838,-0.666603097082616,-2.5945565370258534,-0.05562143941554,2.507976027223799,0.8763108487046415,0.0013548814759536706,-3.658458573406798e-05,0.0004706988299851878,-0.00031860779585611045,-0.00032167071137489153,-0.00034674804616502766,0.0017996941257245023,0.0,0.0,0.0,0.0,0.0,0.0,0.0,-0.00010877316458179909,-5.8200280305266416e-05,-5.622636343671772e-05,8.733990426179616e-05,6.12696380888414e-05,1.9289652506415678e-05,-9.867350260650554e-06,-0.0013548814759536706,3.658458573406798e-05,-0.0004706988299851878,0.00031860779585611045,0.00032167071137489153,0.00034674804616502766,-0.0017996941257245023,0.018151462078094482,18.328699111938477,-0.9696381092071533,-18.099092483520508,-0.7730002999305725,-2.2552523612976074,0.22098104655742645,0
28,0.1350107192993164,0.005652248859405518,-18.352502822875977,1.0172455310821533,18.122896194458008,0.7730002999305725,2.2488436698913574,-0.20724813640117645,0.0,0.0,0.0,0.0,0.0,0.0,0.0,0.026908455433519926,0.359282792759464,0.18198168400569276,0.46993336476350117,0.3384785198290466,0.06232067308476562,-0.19072411905101397,-0.6089780710876542,-0.057469965326696515,-0.666550913597628,-2.594642990443061,-0.05568306521878059,2.5079574496481154,0.8763191901759968,-0.6090851748156966,-0.05753196718556838,-0.666603097082616,-2.5945565370258534,-0.05562143941554,2.507976027223799,0.8763108487046415,0.00023696691416703812,0.0008901643602809944,-0.0009405416619880119,-0.0007367074260961244,-0.0005914653648257165,-0.00014899512226753618,0.000216812346285879,0.0,0.0,0.0,0.0,0.0,0.0,0.0,-0.00010710372804234591,-6.200185887186849e-05,-5.218348498803316e-05,8.64534172073661e-05,6.16258032405878e-05,1.8577575683575986e-05,-8.341471355310937e-06,-0.00023696691416703812,-0.0008901643602809944,0.0009405416619880119,0.0007367074260961244,0.0005914653648257165,0.00014899512226753618,-0.000216812346285879,-0.005652248859405518,18.352502822875977,-1.0172455310821533,-18.122896194458008,-0.7730002999305725,-2.2488436698913574,0.20724813640117645,0
29,0.14000248908996582,0.005652248859405518,-18.352502822875977,1.0172455310821533,18.122896194458008,0.7730002999305725,2.2488436698913574,-0.20724813640117645,0.0,0.0,0.0,0.0,0.0,0.0,0.0,0.026908455433519926,0.359282792759464,0.18198168400569276,0.46993336476350117,0.3384785198290466,0.06232067308476562,-0.19072411905101397,-0.6089780710876542,-0.057469965326696515,-0.666550913597628,-2.594642990443061,-0.05568306521878059,2.5079574496481154,0.8763191901759968,-0.6090851748156966,-0.05753196718556838,-0.666603097082616,-2.5945565370258534,-0.05562143941554,2.507976027223799,0.8763108487046415,0.00023696691416703812,0.0008901643602809944,-0.0009405416619880119,-0.0007367074260961244,-0.0005914653648257165,-0.00014899512226753618,0.000216812346285879,0.0,0.0,0.0,0.0,0.0,0.0,0.0,-0.00010710372804234591,-6.200185887186849e-05,-5.218348498803316e-05,8.64534172073661e-05,6.16258032405878e-05,1.8577575683575986e-05,-8.341471355310937e-06,-0.00023696691416703812,-0.0008901643602809944,0.0009405416619880119,0.0007367074260961244,0.0005914653648257165,0.00014899512226753618,-0.000216812346285879,-0.005652248859405518,18.352502822875977,-1.0172455310821533,-18.122896194458008,-0.7730002999305725,-2.2488436698913574,0.20724813640117645,0
30,0.1450042724609375,-0.018151462078094482,-18.328699111938477,0.9934418201446533,18.099092483520508,0.7546897530555725,2.2360262870788574,-0.20724813640117645,0.0,0.0,0.0,0.0,0.0,0.0,0.0,0.02953803262711044,0.3572140458656676,0.18062604311293792,0.4739688472785801,0.3378144528500617,0.0629299724297816,-0.19239248708003936,-0.6089764006517934,-0.05747235769511337,-0.6665492431657355,-2.59464352902845,-0.05568095185593963,2.507958873801761,0.8763191901759968,-0.6090851748156966,-0.05753196718556838,-0.666603097082616,-2.5945565370258534,-0.05562143941554,2.507976027223799,0.8763108487046415,0.0007301089218769993,0.0003727861705695371,-0.00047689209813761633,0.0004364968218981374,0.0001927973136247924,0.00034776176398380914,0.0006579034052523925,0.0,0.0,0.0,0.0,0.0,0.0,0.0,-0.00010877416390320249,-5.960949045501207e-05,-5.385391688050856e-05,8.699200259654205e-05,5.9512440399631106e-05,1.7153422037896604e-05,-8.341471355310937e-06,-0.0007301089218769993,-0.0003727861705695371,0.00047689209813761633,-0.0004364968218981374,-0.0001927973136247924,-0.00034776176398380914,-0.0006579034052523925,0.018151462078094482,18.328699111938477,-0.9934418201446533,-18.099092483520508,-0.7546897530555725,-2.2360262870788574,0.20724813640117645,0
31,0.15000224113464355,-0.018151462078094482,-18.328699111938477,0.9934418201446533,18.099092483520508,0.7546897530555725,2.2360262870788574,-0.20724813640117645,0.0,0.0,0.0,0.0,0.0,0.0,0.0,0.02953803262711044,0.3572140458656676,0.18062604311293792,0.4739688472785801,0.3378144528500617,0.0629299724297816,-0.19239248708003936,-0.6089764006517934,-0.05747235769511337,-0.6665492431657355,-2.59464352902845,-0.05568095185593963,2.507958873801761,0.8763191901759968,-0.6090851748156966,-0.05753196718556838,-0.666603097082616,-2.5945565370258534,-0.05562143941554,2.507976027223799,0.8763108487046415,0.0007301089218769993,0.0003727861705695371,-0.00047689209813761633,0.0004364968218981374,0.0001927973136247924,0.00034776176398380914,0.0006579034052523925,0.0,0.0,0.0,0.0,0.0,0.0,0.0,-0.00010877416390320249,-5.960949045501207e-05,-5.385391688050856e-05,8.699200259654205e-05,5.9512440399631106e-05,1.7153422037896604e-05,-8.341471355310937e-06,-0.0007301089218769993,-0.0003727861705695371,0.00047689209813761633,-0.0004364968218981374,-0.0001927973136247924,-0.00034776176398380914,-0.0006579034052523925,0.018151462078094482,18.328699111938477,-0.9934418201446533,-18.099092483520508,-0.7546897530555725,-2.2360262870788574,0.20724813640117645,0
32,0.1550004482269287,0.03342324495315552,-18.328699111938477,0.9934418201446533,18.071321487426758,0.7665916085243225,2.2488436698913574,-0.22098104655742645,0.0,0.0,0.0,0.0,0.0,0.0,0.0,0.029226997502710756,0.3562802042081967,0.17800979565928932,0.47095650786317905,0.33770297943272,0.06185963224847276,-0.19284056337263195,-0.6089778354251537,-0.05747163571851034,-0.6665492402768044,-2.5946386111019866,-0.05568239219473185,2.5079574496481154,0.8763207116942523,-0.6090851748156966,-0.05753196718556838,-0.666603097082616,-2.5945565370258534,-0.05562143941554,2.507976027223799,0.8763108487046415,-0.00013971957465758116,0.0004323125941272834,5.811483865026338e-05,0.0005375439237237183,-0.0001303026912919812,-0.0003748035690848485,0.001088287695157768,0.0,0.0,0.0,0.0,0.0,0.0,0.0,-0.0001073393905428599,-6.033146705804182e-05,-5.3856805811602904e-05,8.207407613314288e-05,6.0952779191852935e-05,1.8577575683575986e-05,-9.862989610809336e-06,0.00013971957465758116,-0.0004323125941272834,-5.811483865026338e-05,-0.0005375439237237183,0.0001303026912919812,0.0003748035690848485,-0.001088287695157768,-0.03342324495315552,18.328699111938477,-0.9934418201446533,-18.071321487426758,-0.7665916085243225,-2.2488436698913574,0.22098104655742645,0
33,0.1600179672241211,0.03342324495315552,-18.328699111938477,0.9934418201446533,18.071321487426758,0.7665916085243225,2.2488436698913574,-0.22098104655742645,0.0,0.0,0.0,0.0,0.0,0.0,0.0,0.029226997502710756,0.3562802042081967,0.17800979565928932,0.47095650786317905,0.33770297943272,0.06185963224847276,-0.19284056337263195,-0.6089778354251537,-0.05747163571851034,-0.6665492402768044,-2.5946386111019866,-0.05568239219473185,2.5079574496481154,0.8763207116942523,-0.6090851748156966,-0.05753196718556838,-0.666603097082616,-2.5945565370258534,-0.05562143941554,2.507976027223799,0.8763108487046415,-0.00013971957465758116,0.0004323125941272834,5.811483865026338e-05,0.0005375439237237183,-0.0001303026912919812,-0.0003748035690848485,0.001088287695157768,0.0,0.0,0.0,0.0,0.0,0.0,0.0,-0.0001073393905428599,-6.033146705804182e-05,-5.3856805811602904e-05,8.207407613314288e-05,6.0952779191852935e-05,1.8577575683575986e-05,-9.862989610809336e-06,0.00013971957465758116,-0.0004323125941272834,-5.811483865026338e-05,-0.0005375439237237183,0.0001303026912919812,0.0003748035690848485,-0.001088287695157768,-0.03342324495315552,18.328699111938477,-0.9934418201446533,-18.071321487426758,-0.7665916085243225,-2.2488436698913574,0.22098104655742645,0
34,0.16500306129455566,0.03342324495315552,-18.304895401000977,0.9696381092071533,18.122896194458008,0.7610984444618225,2.2625765800476074,-0.22098104655742645,0.0,0.0,0.0,0.0,0.0,0.0,0.0,0.023675098033839406,0.35519076102772673,0.17314088924774348,0.4717260582115246,0.3379998709493866,0.06181939787303395,-0.1923565474167634,-0.6089800109356431,-0.057473314919287956,-0.6665468707182987,-2.5946444847379806,-0.055681427516071504,2.507955923769209,0.8763207160529092,-0.6090851748156966,-0.05753196718556838,-0.666603097082616,-2.5945565370258534,-0.05562143941554,2.507976027223799,0.8763108487046415,-0.0005610430995842795,-9.130492083000297e-05,0.0005647960918910173,-0.0007664577204214035,8.214495112884915e-05,-0.0006813132823546078,0.0012091855570468425,0.0,0.0,0.0,0.0,0.0,0.0,0.0,-0.00010516388005343824,-5.865226628042758e-05,-5.622636431734662e-05,8.794771212716768e-05,5.998810053150366e-05,2.0103454589914804e-05,-9.867348267689202e-06,0.0005610430995842795,9.130492083000297e-05,-0.0005647960918910173,0.0007664577204214035,-8.214495112884915e-05,0.0006813132823546078,-0.0012091855570468425,-0.03342324495315552,18.304895401000977,-0.9696381092071533,-18.122896194458008,-0.7610984444618225,-2.2625765800476074,0.22098104655742645,0
35,0.1699972152709961,0.03342324495315552,-18.304895401000977,0.9696381092071533,18.122896194458008,0.7610984444618225,2.2625765800476074,-0.22098104655742645,0.0,0.0,0.0,0.0,0.0,0.0,0.0,0.023675098033839406,0.35519076102772673,0.17314088924774348,0.4717260582115246,0.3379998709493866,0.06181939787303395,-0.1923565474167634,-0.6089800109356431,-0.057473314919287956,-0.6665468707182987,-2.5946444847379806,-0.055681427516071504,2.507955923769209,0.8763207160529092,-0.6090851748156966,-0.05753196718556838,-0.666603097082616,-2.5945565370258534,-0.05562143941554,2.507976027223799,0.8763108487046415,-0.0005610430995842795,-9.130492083000297e-05,0.0005647960918910173,-0.0007664577204214035,8.214495112884915e-05,-0.0006813132823546078,0.0012091855570468425,0.0,0.0,0.0,0.0,0.0,0.0,0.0,-0.00010516388005343824,-5.865226628042758e-05,-5.622636431734662e-05,8.794771212716768e-05,5.998810053150366e-05,2.0103454589914804e-05,-9.867348267689202e-06,0.0005610430995842795,9.130492083000297e-05,-0.0005647960918910173,0.0007664577204214035,-8.214495112884915e-05,0.0006813132823546078,-0.0012091855570468425,-0.03342324495315552,18.304895401000977,-0.9696381092071533,-18.122896194458008,-0.7610984444618225,-2.2625765800476074,0.22098104655742645,0
36,0.17499899864196777,0.005652248859405518,-18.277124404907227,0.9696381092071533,18.099092483520508,0.7665916085243225,2.2488436698913574,-0.21457235515117645,0.0,0.0,0.0,0.0,0.0,0.0,0.0,0.028264917727690606,0.36003792028701254,0.18105230588639593,0.46868385815368774,0.3377816186594724,0.06201514702136607,-0.19432522533464244,-0.608978071974562,-0.05747525532892941,-0.6665475727297334,-2.594640659603334,-0.05568235281758903,2.507957449809621,0.8763199647322235,-0.6090851748156966,-0.05753196718556838,-0.666603097082616,-2.5945565370258534,-0.05562143941554,2.507976027223799,0.8763108487046415,0.00038399185006797925,-0.00029362912655862713,0.0011125697526497972,-0.0003755476198128834,-0.00027248972319064897,4.828650189819904e-05,0.0009016002500391318,0.0,0.0,0.0,0.0,0.0,0.0,0.0,-0.00010710284113457647,-5.671185663897599e-05,-5.5524352882585504e-05,8.412257748036112e-05,6.091340204902873e-05,1.8577414178100327e-05,-9.116027582023456e-06,-0.00038399185006797925,0.00029362912655862713,-0.0011125697526497972,0.0003755476198128834,0.00027248972319064897,-4.828650189819904e-05,-0.0009016002500391318,-0.005652248859405518,18.277124404907227,-0.9696381092071533,-18.099092483520508,-0.7665916085243225,-2.2488436698913574,0.21457235515117645,0
37,0.17999792098999023,0.005652248859405518,-18.277124404907227,0.9696381092071533,18.099092483520508,0.7665916085243225,2.2488436698913574,-0.21457235515117645,0.0,0.0,0.0,0.0,0.0,0.0,0.0,0.028264917727690606,0.36003792028701254,0.18105230588639593,0.46868385815368774,0.3377816186594724,0.06201514702136607,-0.19432522533464244,-0.608978071974562,-0.05747525532892941,-0.6665475727297334,-2.594640659603334,-0.05568235281758903,2.507957449809621,0.8763199647322235,-0.6090851748156966,-0.05753196718556838,-0.666603097082616,-2.5945565370258534,-0.05562143941554,2.507976027223799,0.8763108487046415,0.00038399185006797925,-0.00029362912655862713,0.0011125697526497972,-0.0003755476198128834,-0.00027248972319064897,4.828650189819904e-05,0.0009016002500391318,0.0,0.0,0.0,0.0,0.0,0.0,0.0,-0.00010710284113457647,-5.671185663897599e-05,-5.5524352882585504e-05,8.412257748036112e-05,6.091340204902873e-05,1.8577414178100327e-05,-9.116027582023456e-06,-0.00038399185006797925,0.00029362912655862713,-0.0011125697526497972,0.0003755476198128834,0.00027248972319064897,-4.828650189819904e-05,-0.0009016002500391318,-0.005652248859405518,18.277124404907227,-0.9696381092071533,-18.099092483520508,-0.7665916085243225,-2.2488436698913574,0.21457235515117645,0
38,0.1849970817565918,0.08103066682815552,-18.304895401000977,1.0172455310821533,18.099092483520508,0.7665916085243225,2.2360262870788574,-0.19351522624492645,0.0,0.0,0.0,0.0,0.0,0.0,0.0,0.03225414598607942,0.35926764078688206,0.18959720227199373,0.4689879292829589,0.33738238559627814,0.06288154982339024,-0.1935067363346983,-0.6089832808559318,-0.057474046643295355,-0.6665509136015908,-2.5946415669741483,-0.05568132661641626,2.507958873801762,0.8763176642968691,-0.6090851748156966,-0.05753196718556838,-0.666603097082616,-2.5945565370258534,-0.05562143941554,2.507976027223799,0.8763108487046415,-0.00024242128487623744,0.00016012192643948017,0.00020577441097168153,-9.763247615509691e-05,-0.0001068009532100616,0.0003564740519873209,0.00022276550355599764,0.0,0.0,0.0,0.0,0.0,0.0,0.0,-0.00010189395976478721,-5.7920542273028064e-05,-5.2183481025203093e-05,8.502994829484578e-05,5.988720087626159e-05,1.7153422037008426e-05,-6.815592227593648e-06,0.00024242128487623744,-0.00016012192643948017,-0.00020577441097168153,9.763247615509691e-05,0.0001068009532100616,-0.0003564740519873209,-0.00022276550355599764,-0.08103066682815552,18.304895401000977,-1.0172455310821533,-18.099092483520508,-0.7665916085243225,-2.2360262870788574,0.19351522624492645,0
39,0.18999767303466797,0.08103066682815552,-18.304895401000977,1.0172455310821533,18.099092483520508,0.7665916085243225,2.2360262870788574,-0.19351522624492645,0.0,0.0,0.0,0.0,0.0,0.0,0.0,0.03225414598607942,0.35926764078688206,0.18959720227199373,0.4689879292829589,0.33738238559627814,0.06288154982339024,-0.1935067363346983,-0.6089832808559318,-0.057474046643295355,-0.6665509136015908,-2.5946415669741483,-0.05568132661641626,2.507958873801762,0.8763176642968691,-0.6090851748156966,-0.05753196718556838,-0.666603097082616,-2.5945565370258534,-0.05562143941554,2.507976027223799,0.8763108487046415,-0.00024242128487623744,0.00016012192643948017,0.00020577441097168153,-9.763247615509691e-05,-0.0001068009532100616,0.0003564740519873209,0.00022276550355599764,0.0,0.0,0.0,0.0,0.0,0.0,0.0,-0.00010189395976478721,-5.7920542273028064e-05,-5.2183481025203093e-05,8.502994829484578e-05,5.988720087626159e-05,1.7153422037008426e-05,-6.815592227593648e-06,0.00024242128487623744,-0.00016012192643948017,-0.00020577441097168153,9.763247615509691e-05,0.0001068009532100616,-0.0003564740519873209,-0.00022276550355599764,-0.08103066682815552,18.304895401000977,-1.0172455310821533,-18.099092483520508,-0.7665916085243225,-2.2360262870788574,0.19351522624492645,0
40,0.19500517845153809,0.05722695589065552,-18.277124404907227,0.9934418201446533,18.071321487426758,0.7546897530555725,2.2488436698913574,-0.23471395671367645,0.0,0.0,0.0,0.0,0.0,0.0,0.0,0.027317063487746783,0.36031634617541847,0.18773114321877124,0.4658829409863074,0.3378858442768501,0.062352376927415465,-0.1924651920133693,-0.6089816104196202,-0.05747549222831902,-0.6665492431657355,-2.594639374167105,-0.05567995166323,2.5079574496481154,0.8763222419338093,-0.6090851748156966,-0.05753196718556838,-0.666603097082616,-2.5945565370258534,-0.05562143941554,2.507976027223799,0.8763108487046415,-6.56984648118895e-05,-0.0007197676493107306,0.000746897711764651,0.0005347635216027776,0.0003065871607699794,-0.00020052144375133348,0.0015291158295469382,0.0,0.0,0.0,0.0,0.0,0.0,0.0,-0.00010356439607639434,-5.647495724936391e-05,-5.385391688050856e-05,8.283714125179031e-05,5.851224768999713e-05,1.8577575683575986e-05,-1.1393229167766528e-05,6.56984648118895e-05,0.0007197676493107306,-0.000746897711764651,-0.0005347635216027776,-0.0003065871607699794,0.00020052144375133348,-0.0015291158295469382,-0.05722695589065552,18.277124404907227,-0.9934418201446533,-18.071321487426758,-0.7546897530555725,-2.2488436698913574,0.23471395671367645,0
41,0.20000863075256348,0.05722695589065552,-18.277124404907227,0.9934418201446533,18.071321487426758,0.7546897530555725,2.2488436698913574,-0.23471395671367645,0.0,0.0,0.0,0.0,0.0,0.0,0.0,0.027317063487746783,0.36031634617541847,0.18773114321877124,0.4658829409863074,0.3378858442768501,0.062352376927415465,-0.1924651920133693,-0.6089816104196202,-0.05747549222831902,-0.6665492431657355,-2.594639374167105,-0.05567995166323,2.5079574496481154,0.8763222419338093,-0.6090851748156966,-0.05753196718556838,-0.666603097082616,-2.5945565370258534,-0.05562143941554,2.507976027223799,0.8763108487046415,-6.56984648118895e-05,-0.0007197676493107306,0.000746897711764651,0.0005347635216027776,0.0003065871607699794,-0.00020052144375133348,0.0015291158295469382,0.0,0.0,0.0,0.0,0.0,0.0,0.0,-0.00010356439607639434,-5.647495724936391e-05,-5.385391688050856e-05,8.283714125179031e-05,5.851224768999713e-05,1.8577575683575986e-05,-1.1393229167766528e-05,6.56984648118895e-05,0.0007197676493107306,-0.000746897711764651,-0.0005347635216027776,-0.0003065871607699794,0.00020052144375133348,-0.0015291158295469382,-0.05722695589065552,18.277124404907227,-0.9934418201446533,-18.071321487426758,-0.7546897530555725,-2.2488436698913574,0.23471395671367645,0
42,0.20502495765686035,0.005652248859405518,-18.328699111938477,0.9934418201446533,18.071321487426758,0.7665916085243225,2.2488436698913574,-0.19351522624492645,0.0,0.0,0.0,0.0,0.0,0.0,0.0,0.02663727651187833,0.35949596515784665,0.18685880584153847,0.4655430867266047,0.3376883706017723,0.06235585420199729,-0.19497223900591723,-0.6089773435852991,-0.05747163669010684,-0.6665490091623153,-2.5946410760792595,-0.05568127506489475,2.5079574496481154,0.8763173110843808,-0.6090851748156966,-0.05753196718556838,-0.666603097082616,-2.5945565370258534,-0.05562143941554,2.507976027223799,0.8763108487046415,0.0007575783741314052,0.0005148833978757074,3.556600629040051e-05,8.966632870350026e-05,-0.00014971156099614867,9.154393130757568e-05,-6.254749862046277e-05,0.0,0.0,0.0,0.0,0.0,0.0,0.0,-0.00010783123039748155,-6.033049546154412e-05,-5.408792030070497e-05,8.453905340610746e-05,5.983564935475166e-05,1.8577575683575986e-05,-6.462379739335944e-06,-0.0007575783741314052,-0.0005148833978757074,-3.556600629040051e-05,-8.966632870350026e-05,0.00014971156099614867,-9.154393130757568e-05,6.254749862046277e-05,-0.005652248859405518,18.328699111938477,-0.9934418201446533,-18.071321487426758,-0.7665916085243225,-2.2488436698913574,0.19351522624492645,0
43,0.20999765396118164,0.005652248859405518,-18.328699111938477,0.9934418201446533,18.071321487426758,0.7665916085243225,2.2488436698913574,-0.19351522624492645,0.0,0.0,0.0,0.0,0.0,0.0,0.0,0.02663727651187833,0.35949596515784665,0.18685880584153847,0.4655430867266047,0.3376883706017723,0.06235585420199729,-0.19497223900591723,-0.6089773435852991,-0.05747163669010684,-0.6665490091623153,-2.5946410760792595,-0.05568127506489475,2.5079574496481154,0.8763173110843808,-0.6090851748156966,-0.05753196718556838,-0.666603097082616,-2.5945565370258534,-0.05562143941554,2.507976027223799,0.8763108487046415,0.0007575783741314052,0.0005148833978757074,3.556600629040051e-05,8.966632870350026e-05,-0.00014971156099614867,9.154393130757568e-05,-6.254749862046277e-05,0.0,0.0,0.0,0.0,0.0,0.0,0.0,-0.00010783123039748155,-6.033049546154412e-05,-5.408792030070497e-05,8.453905340610746e-05,5.983564935475166e-05,1.8577575683575986e-05,-6.462379739335944e-06,-0.0007575783741314052,-0.0005148833978757074,-3.556600629040051e-05,-8.966632870350026e-05,0.00014971156099614867,-9.154393130757568e-05,6.254749862046277e-05,-0.005652248859405518,18.328699111938477,-0.9934418201446533,-18.071321487426758,-0.7665916085243225,-2.2488436698913574,0.19351522624492645,0
44,0.2149982452392578,0.005652248859405518,-18.304895401000977,0.9934418201446533,18.146699905395508,0.7610984444618225,2.2424349784851074,-0.18710653483867645,0.0,0.0,0.0,0.0,0.0,0.0,0.0,0.030010477431289748,0.35540563893966864,0.18763572869501424,0.46928137536591336,0.337618585719024,0.06385596828929241,-0.19368422215550837,-0.6089780720828576,-0.057473315244069234,-0.6665489311598543,-2.594643900888052,-0.05568176285279981,2.5079581617249382,0.8763158925801444,-0.6090851748156966,-0.05753196718556838,-0.666603097082616,-2.5945565370258534,-0.05562143941554,2.507976027223799,0.8763108487046415,0.0005012914862474563,-0.0005069045893255399,-0.0003658462173979439,-0.0012741943419146782,6.157133076129743e-05,0.0002523977796848286,0.0004092443814548105,0.0,0.0,0.0,0.0,0.0,0.0,0.0,-0.00010710273283898175,-5.865194149914932e-05,-5.4165922761750807e-05,8.73638621987638e-05,6.032343725981271e-05,1.7865498860736295e-05,-5.043875502930284e-06,-0.0005012914862474563,0.0005069045893255399,0.0003658462173979439,0.0012741943419146782,-6.157133076129743e-05,-0.0002523977796848286,-0.0004092443814548105,-0.005652248859405518,18.304895401000977,-0.9934418201446533,-18.146699905395508,-0.7610984444618225,-2.2424349784851074,0.18710653483867645,0
45,0.21999835968017578,0.005652248859405518,-18.304895401000977,0.9934418201446533,18.146699905395508,0.7610984444618225,2.2424349784851074,-0.18710653483867645,0.0,0.0,0.0,0.0,0.0,0.0,0.0,0.030010477431289748,0.35540563893966864,0.18763572869501424,0.46928137536591336,0.337618585719024,0.06385596828929241,-0.19368422215550837,-0.6089780720828576,-0.057473315244069234,-0.6665489311598543,-2.594643900888052,-0.05568176285279981,2.5079581617249382,0.8763158925801444,-0.6090851748156966,-0.05753196718556838,-0.666603097082616,-2.5945565370258534,-0.05562143941554,2.507976027223799,0.8763108487046415,0.0005012914862474563,-0.0005069045893255399,-0.0003658462173979439,-0.0012741943419146782,6.157133076129743e-05,0.0002523977796848286,0.0004092443814548105,0.0,0.0,0.0,0.0,0.0,0.0,0.0,-0.00010710273283898175,-5.865194149914932e-05,-5.4165922761750807e-05,8.73638621987638e-05,6.032343725981271e-05,1.7865498860736295e-05,-5.043875502930284e-06,-0.0005012914862474563,0.0005069045893255399,0.0003658462173979439,0.0012741943419146782,-6.157133076129743e-05,-0.0002523977796848286,-0.0004092443814548105,-0.005652248859405518,18.304895401000977,-0.9934418201446533,-18.146699905395508,-0.7610984444618225,-2.2424349784851074,0.18710653483867645,0
46,0.22499799728393555,0.005652248859405518,-18.328699111938477,0.9418671131134033,18.071321487426758,0.7546897530555725,2.2488436698913574,-0.20724813640117645,0.0,0.0,0.0,0.0,0.0,0.0,0.0,0.0318203088144277,0.35653119044870923,0.1829180051932369,0.4671970621870253,0.33750539551961195,0.06326065401842176,-0.19320041213289268,-0.6089780720499582,-0.05747163575057247,-0.6665456238862878,-2.594641185963351,-0.055677716609442846,2.5079574496481154,0.8763191901700151,-0.6090851748156966,-0.05753196718556838,-0.666603097082616,-2.5945565370258534,-0.05562143941554,2.507976027223799,0.8763108487046415,0.00038351773166994197,4.89825643972058e-05,0.0005404369951657338,0.0009266649051023905,0.00024001400352845597,-0.0001157836030411728,0.0002147028962645352,0.0,0.0,0.0,0.0,0.0,0.0,0.0,-0.00010710276573833166,-6.033143499591109e-05,-5.747319632820602e-05,8.464893749771107e-05,5.627719390284558e-05,1.8577575683575986e-05,-8.341465373651324e-06,-0.00038351773166994197,-4.89825643972058e-05,-0.0005404369951657338,-0.0009266649051023905,-0.00024001400352845597,0.0001157836030411728,-0.0002147028962645352,-0.005652248859405518,18.328699111938477,-0.9418671131134033,-18.071321487426758,-0.7546897530555725,-2.2488436698913574,0.20724813640117645,0
47,0.23002147674560547,0.005652248859405518,-18.328699111938477,0.9418671131134033,18.071321487426758,0.7546897530555725,2.2488436698913574,-0.20724813640117645,0.0,0.0,0.0,0.0,0.0,0.0,0.0,0.0318203088144277,0.35653119044870923,0.1829180051932369,0.4671970621870253,0.33750539551961195,0.06326065401842176,-0.19320041213289268,-0.6089780720499582,-0.05747163575057247,-0.6665456238862878,-2.594641185963351,-0.055677716609442846,2.5079574496481154,0.8763191901700151,-0.6090851748156966,-0.05753196718556838,-0.666603097082616,-2.5945565370258534,-0.05562143941554,2.507976027223799,0.8763108487046415,0.00038351773166994197,4.89825643972058e-05,0.0005404369951657338,0.0009266649051023905,0.00024001400352845597,-0.0001157836030411728,0.0002147028962645352,0.0,0.0,0.0,0.0,0.0,0.0,0.0,-0.00010710276573833166,-6.033143499591109e-05,-5.747319632820602e-05,8.464893749771107e-05,5.627719390284558e-05,1.8577575683575986e-05,-8.341465373651324e-06,-0.00038351773166994197,-4.89825643972058e-05,-0.0005404369951657338,-0.0009266649051023905,-0.00024001400352845597,0.0001157836030411728,-0.0002147028962645352,-0.005652248859405518,18.328699111938477,-0.9418671131134033,-18.071321487426758,-0.7546897530555725,-2.2488436698913574,0.20724813640117645,0
48,0.23501133918762207,0.03342324495315552,-18.277124404907227,0.9696381092071533,18.099092483520508,0.7610984444618225,2.2488436698913574,-0.16604940593242645,0.0,0.0,0.0,0.0,0.0,0.0,0.0,0.034217097499927726,0.35283083005405885,0.1784523287444965,0.46840689725495954,0.33707253831846734,0.06364146634100952,-0.19394780285814991,-0.608980020928801,-0.05747525596645411,-0.6665475727298802,-2.594640809894053,-0.05568071728643192,2.5079574496481154,0.876314612539278,-0.6090851748156966,-0.05753196718556838,-0.666603097082616,-2.5945565370258534,-0.05562143941554,2.507976027223799,0.8763108487046415,-9.4305792839543e-05,-0.0010863734205231847,0.000492523199219911,0.00010231253568497218,-1.4708781867435945e-05,-0.00015709675585319832,-0.00036193576643096397,0.0,0.0,0.0,0.0,0.0,0.0,0.0,-0.00010515388689558147,-5.671121911427629e-05,-5.552435273581402e-05,8.427286819978619e-05,5.927787089191755e-05,1.8577575683575986e-05,-3.7638346365165276e-06,9.4305792839543e-05,0.0010863734205231847,-0.000492523199219911,-0.00010231253568497218,1.4708781867435945e-05,0.00015709675585319832,0.00036193576643096397,-0.03342324495315552,18.277124404907227,-0.9696381092071533,-18.099092483520508,-0.7610984444618225,-2.2488436698913574,0.16604940593242645,0
49,0.24000954627990723,0.03342324495315552,-18.277124404907227,0.9696381092071533,18.099092483520508,0.7610984444618225,2.2488436698913574,-0.16604940593242645,0.0,0.0,0.0,0.0,0.0,0.0,0.0,0.034217097499927726,0.35283083005405885,0.1784523287444965,0.46840689725495954,0.33707253831846734,0.06364146634100952,-0.19394780285814991,-0.608980020928801,-0.05747525596645411,-0.6665475727298802,-2.594640809894053,-0.05568071728643192,2.5079574496481154,0.876314612539278,-0.6090851748156966,-0.05753196718556838,-0.666603097082616,-2.5945565370258534,-0.05562143941554,2.507976027223799,0.8763108487046415,-9.4305792839543e-05,-0.0010863734205231847,0.000492523199219911,0.00010231253568497218,-1.4708781867435945e-05,-0.00015709675585319832,-0.00036193576643096397,0.0,0.0,0.0,0.0,0.0,0.0,0.0,-0.00010515388689558147,-5.671121911427629e-05,-5.552435273581402e-05,8.427286819978619e-05,5.927787089191755e-05,1.8577575683575986e-05,-3.7638346365165276e-06,9.4305792839543e-05,0.0010863734205231847,-0.000492523199219911,-0.00010231253568497218,1.4708781867435945e-05,0.00015709675585319832,0.00036193576643096397,-0.03342324495315552,18.277124404907227,-0.9696381092071533,-18.099092483520508,-0.7610984444618225,-2.2488436698913574,0.16604940593242645,0
50,0.2449958324432373,0.03342324495315552,-18.277124404907227,0.9696381092071533,18.099092483520508,0.7610984444618225,2.2488436698913574,-0.16604940593242645,0.0,0.0,0.0,0.0,0.0,0.0,0.0,0.034217097499927726,0.35283083005405885,0.1784523287444965,0.46840689725495954,0.33707253831846734,0.06364146634100952,-0.19394780285814991,-0.608980020928801,-0.05747525596645411,-0.6665475727298802,-2.594640809894053,-0.05568071728643192,2.5079574496481154,0.876314612539278,-0.6090851748156966,-0.05753196718556838,-0.666603097082616,-2.5945565370258534,-0.05562143941554,2.507976027223799,0.8763108487046415,-9.4305792839543e-05,-0.0010863734205231847,0.000492523199219911,0.00010231253568497218,-1.4708781867435945e-05,-0.00015709675585319832,-0.00036193576643096397,0.0,0.0,0.0,0.0,0.0,0.0,0.0,-0.00010515388689558147,-5.671121911427629e-05,-5.552435273581402e-05,8.427286819978619e-05,5.927787089191755e-05,1.8577575683575986e-05,-3.7638346365165276e-06,9.4305792839543e-05,0.0010863734205231847,-0.000492523199219911,-0.00010231253568497218,1.4708781867435945e-05,0.00015709675585319832,0.00036193576643096397,-0.03342324495315552,18.277124404907227,-0.9696381092071533,-18.099092483520508,-0.7610984444618225,-2.2488436698913574,0.16604940593242645,0
51,0.25000834465026855,0.03342324495315552,-18.277124404907227,0.9696381092071533,18.099092483520508,0.7610984444618225,2.2488436698913574,-0.16604940593242645,0.0,0.0,0.0,0.0,0.0,0.0,0.0,0.034217097499927726,0.35283083005405885,0.1784523287444965,0.46840689725495954,0.33707253831846734,0.06364146634100952,-0.19394780285814991,-0.608980020928801,-0.05747525596645411,-0.6665475727298802,-2.594640809894053,-0.05568071728643192,2.5079574496481154,0.876314612539278,-0.6090851748156966,-0.05753196718556838,-0.666603097082616,-2.5945565370258534,-0.05562143941554,2.507976027223799,0.8763108487046415,-9.4305792839543e-05,-0.0010863734205231847,0.000492523199219911,0.00010231253568497218,-1.4708781867435945e-05,-0.00015709675585319832,-0.00036193576643096397,0.0,0.0,0.0,0.0,0.0,0.0,0.0,-0.00010515388689558147,-5.671121911427629e-05,-5.552435273581402e-05,8.427286819978619e-05,5.927787089191755e-05,1.8577575683575986e-05,-3.7638346365165276e-06,9.4305792839543e-05,0.0010863734205231847,-0.000492523199219911,-0.00010231253568497218,1.4708781867435945e-05,0.00015709675585319832,0.00036193576643096397,-0.03342324495315552,18.277124404907227,-0.9696381092071533,-18.099092483520508,-0.7610984444618225,-2.2488436698913574,0.16604940593242645,0
52,0.25499439239501953,0.05722695589065552,-18.277124404907227,0.9696381092071533,18.099092483520508,0.7610984444618225,2.2424349784851074,-0.18710653483867645,0.0,0.0,0.0,0.0,0.0,0.0,0.0,0.03276058527716804,0.35623110557963805,0.17693383871005292,0.46230739118553404,0.3368776264802732,0.06273460120716536,-0.19098428263414016,-0.6089816913646564,-0.05747528129911492,-0.6665475698409491,-2.594643636426783,-0.05568174294887938,2.5079581617249382,0.8763169522202676,-0.6090851748156966,-0.05753196718556838,-0.666603097082616,-2.5945565370258534,-0.05562143941554,2.507976027223799,0.8763108487046415,-0.0005372984173450274,-0.0008352297791098877,0.0007021592764533633,-0.0004195764185599455,1.7121528766516836e-05,8.537901452873027e-05,-0.0005489609098873664,0.0,0.0,0.0,0.0,0.0,0.0,0.0,-0.00010348345104016499,-5.668588645346001e-05,-5.552724166690837e-05,8.709940092943569e-05,6.030353333937727e-05,1.7865498860736295e-05,-6.1035156261324275e-06,0.0005372984173450274,0.0008352297791098877,-0.0007021592764533633,0.0004195764185599455,-1.7121528766516836e-05,-8.537901452873027e-05,0.0005489609098873664,-0.05722695589065552,18.277124404907227,-0.9696381092071533,-18.099092483520508,-0.7610984444618225,-2.2424349784851074,0.18710653483867645,0
53,0.2599961757659912,0.05722695589065552,-18.277124404907227,0.9696381092071533,18.099092483520508,0.7610984444618225,2.2424349784851074,-0.18710653483867645,0.0,0.0,0.0,0.0,0.0,0.0,0.0,0.03276058527716804,0.35623110557963805,0.17693383871005292,0.46230739118553404,0.3368776264802732,0.06273460120716536,-0.19098428263414016,-0.6089816913646564,-0.05747528129911492,-0.6665475698409491,-2.594643636426783,-0.05568174294887938,2.5079581617249382,0.8763169522202676,-0.6090851748156966,-0.05753196718556838,-0.666603097082616,-2.5945565370258534,-0.05562143941554,2.507976027223799,0.8763108487046415,-0.0005372984173450274,-0.0008352297791098877,0.0007021592764533633,-0.0004195764185599455,1.7121528766516836e-05,8.537901452873027e-05,-0.0005489609098873664,0.0,0.0,0.0,0.0,0.0,0.0,0.0,-0.00010348345104016499,-5.668588645346001e-05,-5.552724166690837e-05,8.709940092943569e-05,6.030353333937727e-05,1.7865498860736295e-05,-6.1035156261324275e-06,0.0005372984173450274,0.0008352297791098877,-0.0007021592764533633,0.0004195764185599455,-1.7121528766516836e-05,-8.537901452873027e-05,0.0005489609098873664,-0.05722695589065552,18.277124404907227,-0.9696381092071533,-18.099092483520508,-0.7610984444618225,-2.2424349784851074,0.18710653483867645,0
54,0.2649996280670166,0.05722695589065552,-18.277124404907227,0.9696381092071533,18.099092483520508,0.7610984444618225,2.2424349784851074,-0.18710653483867645,0.0,0.0,0.0,0.0,0.0,0.0,0.0,0.03276058527716804,0.35623110557963805,0.17693383871005292,0.46230739118553404,0.3368776264802732,0.06273460120716536,-0.19098428263414016,-0.6089816913646564,-0.05747528129911492,-0.6665475698409491,-2.594643636426783,-0.05568174294887938,2.5079581617249382,0.8763169522202676,-0.6090851748156966,-0.05753196718556838,-0.666603097082616,-2.5945565370258534,-0.05562143941554,2.507976027223799,0.8763108487046415,-0.0005372984173450274,-0.0008352297791098877,0.0007021592764533633,-0.0004195764185599455,1.7121528766516836e-05,8.537901452873027e-05,-0.0005489609098873664,0.0,0.0,0.0,0.0,0.0,0.0,0.0,-0.00010348345104016499,-5.668588645346001e-05,-5.552724166690837e-05,8.709940092943569e-05,6.030353333937727e-05,1.7865498860736295e-05,-6.1035156261324275e-06,0.0005372984173450274,0.0008352297791098877,-0.0007021592764533633,0.0004195764185599455,-1.7121528766516836e-05,-8.537901452873027e-05,0.0005489609098873664,-0.05722695589065552,18.277124404907227,-0.9696381092071533,-18.099092483520508,-0.7610984444618225,-2.2424349784851074,0.18710653483867645,0
55,0.26999711990356445,0.05722695589065552,-18.277124404907227,0.9696381092071533,18.099092483520508,0.7610984444618225,2.2424349784851074,-0.18710653483867645,0.0,0.0,0.0,0.0,0.0,0.0,0.0,0.03276058527716804,0.35623110557963805,0.17693383871005292,0.46230739118553404,0.3368776264802732,0.06273460120716536,-0.19098428263414016,-0.6089816913646564,-0.05747528129911492,-0.6665475698409491,-2.594643636426783,-0.05568174294887938,2.5079581617249382,0.8763169522202676,-0.6090851748156966,-0.05753196718556838,-0.666603097082616,-2.5945565370258534,-0.05562143941554,2.507976027223799,0.8763108487046415,-0.0005372984173450274,-0.0008352297791098877,0.0007021592764533633,-0.0004195764185599455,1.7121528766516836e-05,8.537901452873027e-05,-0.0005489609098873664,0.0,0.0,0.0,0.0,0.0,0.0,0.0,-0.00010348345104016499,-5.668588645346001e-05,-5.552724166690837e-05,8.709940092943569e-05,6.030353333937727e-05,1.7865498860736295e-05,-6.1035156261324275e-06,0.0005372984173450274,0.0008352297791098877,-0.0007021592764533633,0.0004195764185599455,-1.7121528766516836e-05,-8.537901452873027e-05,0.0005489609098873664,-0.05722695589065552,18.277124404907227,-0.9696381092071533,-18.099092483520508,-0.7610984444618225,-2.2424349784851074,0.18710653483867645,0
56,0.2749960422515869,0.05722695589065552,-18.277124404907227,0.9696381092071533,18.099092483520508,0.7610984444618225,2.2424349784851074,-0.18710653483867645,0.0,0.0,0.0,0.0,0.0,0.0,0.0,0.03276058527716804,0.35623110557963805,0.17693383871005292,0.46230739118553404,0.3368776264802732,0.06273460120716536,-0.19098428263414016,-0.6089816913646564,-0.05747528129911492,-0.6665475698409491,-2.594643636426783,-0.05568174294887938,2.5079581617249382,0.8763169522202676,-0.6090851748156966,-0.05753196718556838,-0.666603097082616,-2.5945565370258534,-0.05562143941554,2.507976027223799,0.8763108487046415,-0.0005372984173450274,-0.0008352297791098877,0.0007021592764533633,-0.0004195764185599455,1.7121528766516836e-05,8.537901452873027e-05,-0.0005489609098873664,0.0,0.0,0.0,0.0,0.0,0.0,0.0,-0.00010348345104016499,-5.668588645346001e-05,-5.552724166690837e-05,8.709940092943569e-05,6.030353333937727e-05,1.7865498860736295e-05,-6.1035156261324275e-06,0.0005372984173450274,0.0008352297791098877,-0.0007021592764533633,0.0004195764185599455,-1.7121528766516836e-05,-8.537901452873027e-05,0.0005489609098873664,-0.05722695589065552,18.277124404907227,-0.9696381092071533,-18.099092483520508,-0.7610984444618225,-2.2424349784851074,0.18710653483867645,0
57,0.2800130844116211,0.03342324495315552,-18.328699111938477,1.0172455310821533,18.122896194458008,0.7610984444618225,2.2424349784851074,-0.22098104655742645,0.0,0.0,0.0,0.0,0.0,0.0,0.0,0.029414148644856513,0.35150667379507716,0.17832788229724938,0.47064804884037914,0.33765706392024003,0.0634230697242108,-0.19239906664065706,-0.6089800179308029,-0.057471662997589296,-0.6665509136011505,-2.594644693675139,-0.05567738814146688,2.5079581617249382,0.8763207160309654,-0.6090851748156966,-0.05753196718556838,-0.666603097082616,-2.5945565370258534,-0.05562143941554,2.507976027223799,0.8763108487046415,-0.0004494561089539221,0.0004337958839665035,0.00028299794906350183,-0.0003812239513504019,0.00019391862183843758,0.00013358152895061093,0.0012936922050010835,0.0,0.0,0.0,0.0,0.0,0.0,0.0,-0.00010515688489365349,-6.0304187979087764e-05,-5.2183481465517545e-05,8.815664928540912e-05,5.5948725926881215e-05,1.7865498860736295e-05,-9.867326323909076e-06,0.0004494561089539221,-0.0004337958839665035,-0.00028299794906350183,0.0003812239513504019,-0.00019391862183843758,-0.00013358152895061093,-0.0012936922050010835,-0.03342324495315552,18.328699111938477,-1.0172455310821533,-18.122896194458008,-0.7610984444618225,-2.2424349784851074,0.22098104655742645,0
58,0.28499674797058105,0.03342324495315552,-18.328699111938477,1.0172455310821533,18.122896194458008,0.7610984444618225,2.2424349784851074,-0.22098104655742645,0.0,0.0,0.0,0.0,0.0,0.0,0.0,0.029414148644856513,0.35150667379507716,0.17832788229724938,0.47064804884037914,0.33765706392024003,0.0634230697242108,-0.19239906664065706,-0.6089800179308029,-0.057471662997589296,-0.6665509136011505,-2.594644693675139,-0.05567738814146688,2.5079581617249382,0.8763207160309654,-0.6090851748156966,-0.05753196718556838,-0.666603097082616,-2.5945565370258534,-0.05562143941554,2.507976027223799,0.8763108487046415,-0.0004494561089539221,0.0004337958839665035,0.00028299794906350183,-0.0003812239513504019,0.00019391862183843758,0.00013358152895061093,0.0012936922050010835,0.0,0.0,0.0,0.0,0.0,0.0,0.0,-0.00010515688489365349,-6.0304187979087764e-05,-5.2183481465517545e-05,8.815664928540912e-05,5.5948725926881215e-05,1.7865498860736295e-05,-9.867326323909076e-06,0.0004494561089539221,-0.0004337958839665035,-0.00028299794906350183,0.0003812239513504019,-0.00019391862183843758,-0.00013358152895061093,-0.0012936922050010835,-0.03342324495315552,18.328699111938477,-1.0172455310821533,-18.122896194458008,-0.7610984444618225,-2.2424349784851074,0.22098104655742645,0
59,0.2900078296661377,0.03342324495315552,-18.304895401000977,1.0172455310821533,18.099092483520508,0.7546897530555725,2.2488436698913574,-0.16604940593242645,0.0,0.0,0.0,0.0,0.0,0.0,0.0,0.027002647665299452,0.3577680876723552,0.18381267597300657,0.46440490662528766,0.33785177437466973,0.061682777871063375,-0.19294787941220026,-0.6089799396511109,-0.05747354294932227,-0.6665509136015908,-2.594643608279544,-0.055681057156348156,2.5079574496481154,0.876314612539278,-0.6090851748156966,-0.05753196718556838,-0.666603097082616,-2.5945565370258534,-0.05562143941554,2.507976027223799,0.8763108487046415,0.00017991237481814392,9.441820794213622e-05,-0.0005419636128116348,-0.0005150803091969974,0.00034329726139646784,7.744931132677169e-05,-0.0009698207968977721,0.0,0.0,0.0,0.0,0.0,0.0,0.0,-0.00010523516458571525,-5.8424236246114314e-05,-5.2183481025203093e-05,8.70712536906737e-05,5.9617740808155795e-05,1.8577575683575986e-05,-3.7638346365165276e-06,-0.00017991237481814392,-9.441820794213622e-05,0.0005419636128116348,0.0005150803091969974,-0.00034329726139646784,-7.744931132677169e-05,0.0009698207968977721,-0.03342324495315552,18.304895401000977,-1.0172455310821533,-18.099092483520508,-0.7546897530555725,-2.2488436698913574,0.16604940593242645,0
60,0.2949960231781006,0.03342324495315552,-18.304895401000977,1.0172455310821533,18.099092483520508,0.7546897530555725,2.2488436698913574,-0.16604940593242645,0.0,0.0,0.0,0.0,0.0,0.0,0.0,0.027002647665299452,0.3577680876723552,0.18381267597300657,0.46440490662528766,0.33785177437466973,0.061682777871063375,-0.19294787941220026,-0.6089799396511109,-0.05747354294932227,-0.6665509136015908,-2.594643608279544,-0.055681057156348156,2.5079574496481154,0.876314612539278,-0.6090851748156966,-0.05753196718556838,-0.666603097082616,-2.5945565370258534,-0.05562143941554,2.507976027223799,0.8763108487046415,0.00017991237481814392,9.441820794213622e-05,-0.0005419636128116348,-0.0005150803091969974,0.00034329726139646784,7.744931132677169e-05,-0.0009698207968977721,0.0,0.0,0.0,0.0,0.0,0.0,0.0,-0.00010523516458571525,-5.8424236246114314e-05,-5.2183481025203093e-05,8.70712536906737e-05,5.9617740808155795e-05,1.8577575683575986e-05,-3.7638346365165276e-06,-0.00017991237481814392,-9.441820794213622e-05,0.0005419636128116348,0.0005150803091969974,-0.00034329726139646784,-7.744931132677169e-05,0.0009698207968977721,-0.03342324495315552,18.304895401000977,-1.0172455310821533,-18.099092483520508,-0.7546897530555725,-2.2488436698913574,0.16604940593242645,0
61,0.29999351501464844,0.05722695589065552,-18.304895401000977,0.9934418201446533,18.099092483520508,0.7491965889930725,2.2488436698913574,-0.19351522624492645,0.0,0.0,0.0,0.0,0.0,0.0,0.0,0.030185237253375265,0.35264880985349284,0.18899733039620556,0.4717005816839447,0.33770795548027155,0.06358262458365253,-0.19341999119693584,-0.6089816913641976,-0.057473332458615016,-0.6665492431657355,-2.594642894168304,-0.05568045995625383,2.5079574496481154,0.876317625051234,-0.6090851748156966,-0.05753196718556838,-0.666603097082616,-2.5945565370258534,-0.05562143941554,2.507976027223799,0.8763108487046415,-0.0005711160142273161,-0.000358213023800178,0.00014703231903433268,-7.90865763954731e-05,0.0005424511624022961,-8.6725907841173e-05,0.00025875401099989954,0.0,0.0,0.0,0.0,0.0,0.0,0.0,-0.00010348345149902016,-5.863472695336741e-05,-5.385391688050856e-05,8.635714245075476e-05,5.9020540713827785e-05,1.8577575683575986e-05,-6.776346592518578e-06,0.0005711160142273161,0.000358213023800178,-0.00014703231903433268,7.90865763954731e-05,-0.0005424511624022961,8.6725907841173e-05,-0.00025875401099989954,-0.05722695589065552,18.304895401000977,-0.9934418201446533,-18.099092483520508,-0.7491965889930725,-2.2488436698913574,0.19351522624492645,0
62,0.30501341819763184,0.05722695589065552,-18.304895401000977,0.9934418201446533,18.099092483520508,0.7491965889930725,2.2488436698913574,-0.19351522624492645,0.0,0.0,0.0,0.0,0.0,0.0,0.0,0.030185237253375265,0.35264880985349284,0.18899733039620556,0.4717005816839447,0.33770795548027155,0.06358262458365253,-0.19341999119693584,-0.6089816913641976,-0.057473332458615016,-0.6665492431657355,-2.594642894168304,-0.05568045995625383,2.5079574496481154,0.876317625051234,-0.6090851748156966,-0.05753196718556838,-0.666603097082616,-2.5945565370258534,-0.05562143941554,2.507976027223799,0.8763108487046415,-0.0005711160142273161,-0.000358213023800178,0.00014703231903433268,-7.90865763954731e-05,0.0005424511624022961,-8.6725907841173e-05,0.00025875401099989954,0.0,0.0,0.0,0.0,0.0,0.0,0.0,-0.00010348345149902016,-5.863472695336741e-05,-5.385391688050856e-05,8.635714245075476e-05,5.9020540713827785e-05,1.8577575683575986e-05,-6.776346592518578e-06,0.0005711160142273161,0.000358213023800178,-0.00014703231903433268,7.90865763954731e-05,-0.0005424511624022961,8.6725907841173e-05,-0.00025875401099989954,-0.05722695589065552,18.304895401000977,-0.9934418201446533,-18.099092483520508,-0.7491965889930725,-2.2488436698913574,0.19351522624492645,0
63,0.31002330780029297,0.005652248859405518,-18.277124404907227,0.9696381092071533,18.071321487426758,0.7491965889930725,2.2424349784851074,-0.17337362468242645,0.0,0.0,0.0,0.0,0.0,0.0,0.0,0.02576544436139462,0.35622928852191044,0.18330070612569302,0.4715616781618483,0.3378179664759245,0.06343449431396232,-0.19406019526289883,-0.60897807208697,-0.057475281299257934,-0.6665475727298802,-2.594641898216148,-0.0556804594154526,2.5079581617249382,0.8763154263411399,-0.6090851748156966,-0.05753196718556838,-0.666603097082616,-2.5945565370258534,-0.05562143941554,2.507976027223799,0.8763108487046415,0.0005128442431642443,-0.0008279304884774515,0.0003373485662047588,0.0007560468636491977,0.000543874994252807,0.00019937970548977702,-0.0011649359470454112,0.0,0.0,0.0,0.0,0.0,0.0,0.0,-0.00010710272872660465,-5.668588631044941e-05,-5.552435273581402e-05,8.536119029445288e-05,5.90199999125976e-05,1.7865498860736295e-05,-4.5776364984151385e-06,-0.0005128442431642443,0.0008279304884774515,-0.0003373485662047588,-0.0007560468636491977,-0.000543874994252807,-0.00019937970548977702,0.0011649359470454112,-0.005652248859405518,18.277124404907227,-0.9696381092071533,-18.071321487426758,-0.7491965889930725,-2.2424349784851074,0.17337362468242645,0
64,0.31499648094177246,0.005652248859405518,-18.277124404907227,0.9696381092071533,18.071321487426758,0.7491965889930725,2.2424349784851074,-0.17337362468242645,0.0,0.0,0.0,0.0,0.0,0.0,0.0,0.02576544436139462,0.35622928852191044,0.18330070612569302,0.4715616781618483,0.3378179664759245,0.06343449431396232,-0.19406019526289883,-0.60897807208697,-0.057475281299257934,-0.6665475727298802,-2.594641898216148,-0.0556804594154526,2.5079581617249382,0.8763154263411399,-0.6090851748156966,-0.05753196718556838,-0.666603097082616,-2.5945565370258534,-0.05562143941554,2.507976027223799,0.8763108487046415,0.0005128442431642443,-0.0008279304884774515,0.0003373485662047588,0.0007560468636491977,0.000543874994252807,0.00019937970548977702,-0.0011649359470454112,0.0,0.0,0.0,0.0,0.0,0.0,0.0,-0.00010710272872660465,-5.668588631044941e-05,-5.552435273581402e-05,8.536119029445288e-05,5.90199999125976e-05,1.7865498860736295e-05,-4.5776364984151385e-06,-0.0005128442431642443,0.0008279304884774515,-0.0003373485662047588,-0.0007560468636491977,-0.000543874994252807,-0.00019937970548977702,0.0011649359470454112,-0.005652248859405518,18.277124404907227,-0.9696381092071533,-18.071321487426758,-0.7491965889930725,-2.2424349784851074,0.17337362468242645,0
65,0.31999850273132324,0.005652248859405518,-18.277124404907227,0.9696381092071533,18.146699905395508,0.7546897530555725,2.2488436698913574,-0.20083944499492645,0.0,0.0,0.0,0.0,0.0,0.0,0.0,0.029724494408675195,0.35899251466771176,0.18591759850235887,0.46913574851080225,0.33736477345685106,0.0635943360245482,-0.19447768863236542,-0.6089780690890226,-0.057475254992269645,-0.6665475727298802,-2.594644248420406,-0.05567984782115542,2.5079574496481154,0.8763174184610445,-0.6090851748156966,-0.05753196718556838,-0.666603097082616,-2.5945565370258534,-0.05562143941554,2.507976027223799,0.8763108487046415,0.00020528142969465353,-0.000429713334031079,0.0004839923372261483,-0.0015297475314785321,0.0003459295400968226,-5.557454846163932e-05,0.0006992176717963692,0.0,0.0,0.0,0.0,0.0,0.0,0.0,-0.00010710572667393947,-5.6712193298738556e-05,-5.552435273581402e-05,8.771139455276966e-05,5.84084056154191e-05,1.8577575683575986e-05,-6.5697564030076094e-06,-0.00020528142969465353,0.000429713334031079,-0.0004839923372261483,0.0015297475314785321,-0.0003459295400968226,5.557454846163932e-05,-0.0006992176717963692,-0.005652248859405518,18.277124404907227,-0.9696381092071533,-18.146699905395508,-0.7546897530555725,-2.2488436698913574,0.20083944499492645,0
66,0.3250105381011963,0.005652248859405518,-18.277124404907227,0.9696381092071533,18.146699905395508,0.7546897530555725,2.2488436698913574,-0.20083944499492645,0.0,0.0,0.0,0.0,0.0,0.0,0.0,0.029724494408675195,0.35899251466771176,0.18591759850235887,0.46913574851080225,0.33736477345685106,0.0635943360245482,-0.19447768863236542,-0.6089780690890226,-0.057475254992269645,-0.6665475727298802,-2.594644248420406,-0.05567984782115542,2.5079574496481154,0.8763174184610445,-0.6090851748156966,-0.05753196718556838,-0.666603097082616,-2.5945565370258534,-0.05562143941554,2.507976027223799,0.8763108487046415,0.00020528142969465353,-0.000429713334031079,0.0004839923372261483,-0.0015297475314785321,0.0003459295400968226,-5.557454846163932e-05,0.0006992176717963692,0.0,0.0,0.0,0.0,0.0,0.0,0.0,-0.00010710572667393947,-5.6712193298738556e-05,-5.552435273581402e-05,8.771139455276966e-05,5.84084056154191e-05,1.8577575683575986e-05,-6.5697564030076094e-06,-0.00020528142969465353,0.000429713334031079,-0.0004839923372261483,0.0015297475314785321,-0.0003459295400968226,5.557454846163932e-05,-0.0006992176717963692,-0.005652248859405518,18.277124404907227,-0.9696381092071533,-18.146699905395508,-0.7546897530555725,-2.2488436698913574,0.20083944499492645,0
67,0.3299987316131592,0.005652248859405518,-18.304895401000977,0.9934418201446533,18.122896194458008,0.7610984444618225,2.2488436698913574,-0.22830526530742645,0.0,0.0,0.0,0.0,0.0,0.0,0.0,0.022719247233697514,0.3508475879054064,0.17879630043196773,0.47560097739263496,0.33742285448126597,0.06486853428920569,-0.19409132511597313,-0.6089780720869531,-0.0574742532018681,-0.6665492431657355,-2.5946453058457037,-0.05568059445302281,2.5079574496481154,0.8763204571309231,-0.6090851748156966,-0.05753196718556838,-0.666603097082616,-2.5945565370258534,-0.05562143941554,2.507976027223799,0.8763108487046415,-2.6621753611174627e-06,-0.0005893836321576819,-0.0005339130818833351,-0.0004881720058421525,8.490656087466414e-05,5.522379004390034e-05,0.0013610479513125363,0.0,0.0,0.0,0.0,0.0,0.0,0.0,-0.00010710272874348004,-5.771398370028186e-05,-5.385391688050856e-05,8.87688198503156e-05,5.915503748280676e-05,1.8577575683575986e-05,-9.608426281615401e-06,2.6621753611174627e-06,0.0005893836321576819,0.0005339130818833351,0.0004881720058421525,-8.490656087466414e-05,-5.522379004390034e-05,-0.0013610479513125363,-0.005652248859405518,18.304895401000977,-0.9934418201446533,-18.122896194458008,-0.7610984444618225,-2.2488436698913574,0.22830526530742645,0
68,0.3350074291229248,0.005652248859405518,-18.304895401000977,0.9934418201446533,18.122896194458008,0.7610984444618225,2.2488436698913574,-0.22830526530742645,0.0,0.0,0.0,0.0,0.0,0.0,0.0,0.022719247233697514,0.3508475879054064,0.17879630043196773,0.47560097739263496,0.33742285448126597,0.06486853428920569,-0.19409132511597313,-0.6089780720869531,-0.0574742532018681,-0.6665492431657355,-2.5946453058457037,-0.05568059445302281,2.5079574496481154,0.8763204571309231,-0.6090851748156966,-0.05753196718556838,-0.666603097082616,-2.5945565370258534,-0.05562143941554,2.507976027223799,0.8763108487046415,-2.6621753611174627e-06,-0.0005893836321576819,-0.0005339130818833351,-0.0004881720058421525,8.490656087466414e-05,5.522379004390034e-05,0.0013610479513125363,0.0,0.0,0.0,0.0,0.0,0.0,0.0,-0.00010710272874348004,-5.771398370028186e-05,-5.385391688050856e-05,8.87688198503156e-05,5.915503748280676e-05,1.8577575683575986e-05,-9.608426281615401e-06,2.6621753611174627e-06,0.0005893836321576819,0.0005339130818833351,0.0004881720058421525,-8.490656087466414e-05,-5.522379004390034e-05,-0.0013610479513125363,-0.005652248859405518,18.304895401000977,-0.9934418201446533,-18.122896194458008,-0.7610984444618225,-2.2488436698913574,0.22830526530742645,0
69,0.3399982452392578,0.05722695589065552,-18.328699111938477,0.9934418201446533,18.099092483520508,0.7610984444618225,2.2360262870788574,-0.16604940593242645,0.0,0.0,0.0,0.0,0.0,0.0,0.0,0.025763615656160883,0.35734520561814687,0.17968915464048177,0.4703936251271253,0.3366471486800489,0.06372119832669168,-0.19454670101263893,-0.6089816913646564,-0.057471638678865976,-0.6665492431657355,-2.594641300748993,-0.05567847027299358,2.507958873801761,0.8763144947956526,-0.6090851748156966,-0.05753196718556838,-0.666603097082616,-2.5945565370258534,-0.05562143941554,2.507976027223799,0.8763108487046415,-0.0007836590390870075,0.0005961373987624848,-0.00038372199350060124,0.00017010308043872185,9.567699540879454e-05,0.00030886057878267244,-0.0007657980218017114,0.0,0.0,0.0,0.0,0.0,0.0,0.0,-0.00010348345104016499,-6.032850670240758e-05,-5.385391688050856e-05,8.476372313959146e-05,5.703085745357994e-05,1.7153422037896604e-05,-3.646091011111352e-06,0.0007836590390870075,-0.0005961373987624848,0.00038372199350060124,-0.00017010308043872185,-9.567699540879454e-05,-0.00030886057878267244,0.0007657980218017114,-0.05722695589065552,18.328699111938477,-0.9934418201446533,-18.099092483520508,-0.7610984444618225,-2.2360262870788574,0.16604940593242645,0
70,0.3449974060058594,0.05722695589065552,-18.328699111938477,0.9934418201446533,18.099092483520508,0.7610984444618225,2.2360262870788574,-0.16604940593242645,0.0,0.0,0.0,0.0,0.0,0.0,0.0,0.025763615656160883,0.35734520561814687,0.17968915464048177,0.4703936251271253,0.3366471486800489,0.06372119832669168,-0.19454670101263893,-0.6089816913646564,-0.057471638678865976,-0.6665492431657355,-2.594641300748993,-0.05567847027299358,2.507958873801761,0.8763144947956526,-0.6090851748156966,-0.05753196718556838,-0.666603097082616,-2.5945565370258534,-0.05562143941554,2.507976027223799,0.8763108487046415,-0.0007836590390870075,0.0005961373987624848,-0.00038372199350060124,0.00017010308043872185,9.567699540879454e-05,0.00030886057878267244,-0.0007657980218017114,0.0,0.0,0.0,0.0,0.0,0.0,0.0,-0.00010348345104016499,-6.032850670240758e-05,-5.385391688050856e-05,8.476372313959146e-05,5.703085745357994e-05,1.7153422037896604e-05,-3.646091011111352e-06,0.0007836590390870075,-0.0005961373987624848,0.00038372199350060124,-0.00017010308043872185,-9.567699540879454e-05,-0.00030886057878267244,0.0007657980218017114,-0.05722695589065552,18.328699111938477,-0.9934418201446533,-18.099092483520508,-0.7610984444618225,-2.2360262870788574,0.16604940593242645,0
71,0.3500075340270996,0.03342324495315552,-18.328699111938477,0.9696381092071533,18.099092483520508,0.7610984444618225,2.2424349784851074,-0.22098104655742645,0.0,0.0,0.0,0.0,0.0,0.0,0.0,0.026009267588707946,0.35489131145115677,0.17544655989324925,0.46898729610495304,0.33687527950228263,0.06305063310498679,-0.19265951808492912,-0.6089799399842217,-0.057471714743675524,-0.6665475727298802,-2.594641329112345,-0.05568141435434829,2.5079581617249382,0.8763206768083818,-0.6090851748156966,-0.05753196718556838,-0.666603097082616,-2.5945565370258534,-0.05562143941554,2.507976027223799,0.8763108487046415,0.00015661921604612832,0.0005772401840298171,0.0004175316062054781,-0.00034293736812531054,3.139854146046623e-05,0.0002450119711767924,0.001255041910521912,0.0,0.0,0.0,0.0,0.0,0.0,0.0,-0.00010523483147484303,-6.025244189285933e-05,-5.552435273581402e-05,8.479208649170289e-05,5.9974938808292355e-05,1.7865498860736295e-05,-9.828103740283645e-06,-0.00015661921604612832,-0.0005772401840298171,-0.0004175316062054781,0.00034293736812531054,-3.139854146046623e-05,-0.0002450119711767924,-0.001255041910521912,-0.03342324495315552,18.328699111938477,-0.9696381092071533,-18.099092483520508,-0.7610984444618225,-2.2424349784851074,0.22098104655742645,0
72,0.35500359535217285,0.03342324495315552,-18.328699111938477,0.9696381092071533,18.099092483520508,0.7610984444618225,2.2424349784851074,-0.22098104655742645,0.0,0.0,0.0,0.0,0.0,0.0,0.0,0.026009267588707946,0.35489131145115677,0.17544655989324925,0.46898729610495304,0.33687527950228263,0.06305063310498679,-0.19265951808492912,-0.6089799399842217,-0.057471714743675524,-0.6665475727298802,-2.594641329112345,-0.05568141435434829,2.5079581617249382,0.8763206768083818,-0.6090851748156966,-0.05753196718556838,-0.666603097082616,-2.5945565370258534,-0.05562143941554,2.507976027223799,0.8763108487046415,0.00015661921604612832,0.0005772401840298171,0.0004175316062054781,-0.00034293736812531054,3.139854146046623e-05,0.0002450119711767924,0.001255041910521912,0.0,0.0,0.0,0.0,0.0,0.0,0.0,-0.00010523483147484303,-6.025244189285933e-05,-5.552435273581402e-05,8.479208649170289e-05,5.9974938808292355e-05,1.7865498860736295e-05,-9.828103740283645e-06,-0.00015661921604612832,-0.0005772401840298171,-0.0004175316062054781,0.00034293736812531054,-3.139854146046623e-05,-0.0002450119711767924,-0.001255041910521912,-0.03342324495315552,18.328699111938477,-0.9696381092071533,-18.099092483520508,-0.7610984444618225,-2.2424349784851074,0.22098104655742645,0
73,0.35999536514282227,0.05722695589065552,-18.328699111938477,1.0172455310821533,18.099092483520508,0.7665916085243225,2.2488436698913574,-0.22098104655742645,0.0,0.0,0.0,0.0,0.0,0.0,0.0,0.02809414461730101,0.3567517717804872,0.1756687001384462,0.4686855285395799,0.3373401779480783,0.06361770885152226,-0.19374989859851605,-0.6089816913641994,-0.05747187247777538,-0.6665509136015908,-2.594643773903266,-0.055682037865804085,2.5079574496481154,0.8763207160546815,-0.6090851748156966,-0.05753196718556838,-0.666603097082616,-2.5945565370258534,-0.05562143941554,2.507976027223799,0.8763108487046415,-0.0007873716530694513,0.0010052728330893865,-0.00022840610179438616,-6.0391786978133144e-05,-0.00017666377270333987,-1.8210512461394656e-05,0.0011343935831316936,0.0,0.0,0.0,0.0,0.0,0.0,0.0,-0.00010348345149713278,-6.009470779300141e-05,-5.2183481025203093e-05,8.723687741252206e-05,6.0598450264084947e-05,1.8577575683575986e-05,-9.867350040049239e-06,0.0007873716530694513,-0.0010052728330893865,0.00022840610179438616,6.0391786978133144e-05,0.00017666377270333987,1.8210512461394656e-05,-0.0011343935831316936,-0.05722695589065552,18.328699111938477,-1.0172455310821533,-18.099092483520508,-0.7665916085243225,-2.2488436698913574,0.22098104655742645,0
74,0.365123987197876,0.05722695589065552,-18.328699111938477,1.0172455310821533,18.099092483520508,0.7665916085243225,2.2488436698913574,-0.22098104655742645,0.0,0.0,0.0,0.0,0.0,0.0,0.0,0.02809414461730101,0.3567517717804872,0.1756687001384462,0.4686855285395799,0.3373401779480783,0.06361770885152226,-0.19374989859851605,-0.6089816913641994,-0.05747187247777538,-0.6665509136015908,-2.594643773903266,-0.055682037865804085,2.5079574496481154,0.8763207160546815,-0.6090851748156966,-0.05753196718556838,-0.666603097082616,-2.5945565370258534,-0.05562143941554,2.507976027223799,0.8763108487046415,-0.0007873716530694513,0.0010052728330893865,-0.00022840610179438616,-6.0391786978133144e-05,-0.00017666377270333987,-1.8210512461394656e-05,0.0011343935831316936,0.0,0.0,0.0,0.0,0.0,0.0,0.0,-0.00010348345149713278,-6.009470779300141e-05,-5.2183481025203093e-05,8.723687741252206e-05,6.0598450264084947e-05,1.8577575683575986e-05,-9.867350040049239e-06,0.0007873716530694513,-0.0010052728330893865,0.00022840610179438616,6.0391786978133144e-05,0.00017666377270333987,1.8210512461394656e-05,-0.0011343935831316936,-0.05722695589065552,18.328699111938477,-1.0172455310821533,-18.099092483520508,-0.7665916085243225,-2.2488436698913574,0.22098104655742645,0
75,0.3710932731628418,0.05722695589065552,-18.277124404907227,0.9934418201446533,18.099092483520508,0.7610984444618225,2.2552523612976074,-0.17337362468242645,0.0,0.0,0.0,0.0,0.0,0.0,0.0,0.030852153660144998,0.3554137075868413,0.18073599679353597,0.4717121236054597,0.3375879487018824,0.06440561131604317,-0.19291309169716303,-0.6089816913646564,-0.05747528162522359,-0.6665471370279561,-2.5946437732387433,-0.05568178238271023,2.5079568553088625,0.8763154263413614,-0.6090851748156966,-0.05753196718556838,-0.666603097082616,-2.5945565370258534,-0.05562143941554,2.507976027223799,0.8763108487046415,-0.0005557071649511313,-0.00041888911587479547,0.0007599359397486644,0.00045147283189581386,9.055963135568062e-06,-0.00023516167605999592,-0.0008601541227961244,0.0,0.0,0.0,0.0,0.0,0.0,0.0,-0.00010348345104016499,-5.668556034479216e-05,-5.5960054659909275e-05,8.723621288986294e-05,6.0342967170230744e-05,1.9171914936499945e-05,-4.577636719904632e-06,0.0005557071649511313,0.00041888911587479547,-0.0007599359397486644,-0.00045147283189581386,-9.055963135568062e-06,0.00023516167605999592,0.0008601541227961244,-0.05722695589065552,18.277124404907227,-0.9934418201446533,-18.099092483520508,-0.7610984444618225,-2.2552523612976074,0.17337362468242645,0
76,0.3750119209289551,0.05722695589065552,-18.277124404907227,0.9934418201446533,18.099092483520508,0.7610984444618225,2.2552523612976074,-0.17337362468242645,0.0,0.0,0.0,0.0,0.0,0.0,0.0,0.030852153660144998,0.3554137075868413,0.18073599679353597,0.4717121236054597,0.3375879487018824,0.06440561131604317,-0.19291309169716303,-0.6089816913646564,-0.05747528162522359,-0.6665471370279561,-2.5946437732387433,-0.05568178238271023,2.5079568553088625,0.8763154263413614,-0.6090851748156966,-0.05753196718556838,-0.666603097082616,-2.5945565370258534,-0.05562143941554,2.507976027223799,0.8763108487046415,-0.0005557071649511313,-0.00041888911587479547,0.0007599359397486644,0.00045147283189581386,9.055963135568062e-06,-0.00023516167605999592,-0.0008601541227961244,0.0,0.0,0.0,0.0,0.0,0.0,0.0,-0.00010348345104016499,-5.668556034479216e-05,-5.5960054659909275e-05,8.723621288986294e-05,6.0342967170230744e-05,1.9171914936499945e-05,-4.577636719904632e-06,0.0005557071649511313,0.00041888911587479547,-0.0007599359397486644,-0.00045147283189581386,-9.055963135568062e-06,0.00023516167605999592,0.0008601541227961244,-0.05722695589065552,18.277124404907227,-0.9934418201446533,-18.099092483520508,-0.7610984444618225,-2.2552523612976074,0.17337362468242645,0
77,0.37999606132507324,0.005652248859405518,-18.277124404907227,1.0172455310821533,18.047517776489258,0.7665916085243225,2.2488436698913574,-0.15964071452617645,0.0,0.0,0.0,0.0,0.0,0.0,0.0,0.03328013442094007,0.3599089921895866,0.1857364381774618,0.4696474598905181,0.33754135626520443,0.06428466177767342,-0.1929766328708124,-0.6089780451054435,-0.057475254992271484,-0.6665509135897016,-2.5946370440741515,-0.05568239257401333,2.50795744964878,0.876313900462455,-0.6090851748156966,-0.05753196718556838,-0.666603097082616,-2.5945565370258534,-0.05562143941554,2.507976027223799,0.8763108487046415,0.0010119456585158523,-0.0004901197701498957,8.790990570609962e-05,0.0014210121072249107,-0.0003209339480902421,-0.00024472556513398263,-0.0014222524393303244,0.0,0.0,0.0,0.0,0.0,0.0,0.0,-0.00010712971025306217,-5.671219329689975e-05,-5.218349291435942e-05,8.050704829809519e-05,6.095315847332722e-05,1.857757501877444e-05,-3.051757813565814e-06,-0.0010119456585158523,0.0004901197701498957,-8.790990570609962e-05,-0.0014210121072249107,0.0003209339480902421,0.00024472556513398263,0.0014222524393303244,-0.005652248859405518,18.277124404907227,-1.0172455310821533,-18.047517776489258,-0.7665916085243225,-2.2488436698913574,0.15964071452617645,0
78,0.38501596450805664,0.005652248859405518,-18.277124404907227,1.0172455310821533,18.047517776489258,0.7665916085243225,2.2488436698913574,-0.15964071452617645,0.0,0.0,0.0,0.0,0.0,0.0,0.0,0.03328013442094007,0.3599089921895866,0.1857364381774618,0.4696474598905181,0.33754135626520443,0.06428466177767342,-0.1929766328708124,-0.6089780451054435,-0.057475254992271484,-0.6665509135897016,-2.5946370440741515,-0.05568239257401333,2.50795744964878,0.876313900462455,-0.6090851748156966,-0.05753196718556838,-0.666603097082616,-2.5945565370258534,-0.05562143941554,2.507976027223799,0.8763108487046415,0.0010119456585158523,-0.0004901197701498957,8.790990570609962e-05,0.0014210121072249107,-0.0003209339480902421,-0.00024472556513398263,-0.0014222524393303244,0.0,0.0,0.0,0.0,0.0,0.0,0.0,-0.00010712971025306217,-5.671219329689975e-05,-5.218349291435942e-05,8.050704829809519e-05,6.095315847332722e-05,1.857757501877444e-05,-3.051757813565814e-06,-0.0010119456585158523,0.0004901197701498957,-8.790990570609962e-05,-0.0014210121072249107,0.0003209339480902421,0.00024472556513398263,0.0014222524393303244,-0.005652248859405518,18.277124404907227,-1.0172455310821533,-18.047517776489258,-0.7665916085243225,-2.2488436698913574,0.15964071452617645,0
79,0.3899998664855957,0.005652248859405518,-18.277124404907227,1.0172455310821533,18.047517776489258,0.7665916085243225,2.2488436698913574,-0.15964071452617645,0.0,0.0,0.0,0.0,0.0,0.0,0.0,0.03328013442094007,0.3599089921895866,0.1857364381774618,0.4696474598905181,0.33754135626520443,0.06428466177767342,-0.1929766328708124,-0.6089780451054435,-0.057475254992271484,-0.6665509135897016,-2.5946370440741515,-0.05568239257401333,2.50795744964878,0.876313900462455,-0.6090851748156966,-0.05753196718556838,-0.666603097082616,-2.5945565370258534,-0.05562143941554,2.507976027223799,0.8763108487046415,0.0010119456585158523,-0.0004901197701498957,8.790990570609962e-05,0.0014210121072249107,-0.0003209339480902421,-0.00024472556513398263,-0.0014222524393303244,0.0,0.0,0.0,0.0,0.0,0.0,0.0,-0.00010712971025306217,-5.671219329689975e-05,-5.218349291435942e-05,8.050704829809519e-05,6.095315847332722e-05,1.857757501877444e-05,-3.051757813565814e-06,-0.0010119456585158523,0.0004901197701498957,-8.790990570609962e-05,-0.0014210121072249107,0.0003209339480902421,0.00024472556513398263,0.0014222524393303244,-0.005652248859405518,18.277124404907227,-1.0172455310821533,-18.047517776489258,-0.7665916085243225,-2.2488436698913574,0.15964071452617645,0
