rezayati/contactInterpretation/dataset/franka_main/labeled_data/link4/d5_7.csv
index,time,tau_J0,tau_J1,tau_J2,tau_J3,tau_J4,tau_J5,tau_J6,tau_J_d0,tau_J_d1,tau_J_d2,tau_J_d3,tau_J_d4,tau_J_d5,tau_J_d6,tau_ext0,tau_ext1,tau_ext2,tau_ext3,tau_ext4,tau_ext5,tau_ext6,q0,q1,q2,q3,q4,q5,q6,q_d0,q_d1,q_d2,q_d3,q_d4,q_d5,q_d6,dq0,dq1,dq2,dq3,dq4,dq5,dq6,dq_d0,dq_d1,dq_d2,dq_d3,dq_d4,dq_d5,dq_d6,e0,e1,e2,e3,e4,e5,e6,de0,de1,de2,de3,de4,de5,de6,etau_J0,etau_J1,etau_J2,etau_J3,etau_J4,etau_J5,etau_J6,label
1,0.0,-0.14510458707809448,-12.000879287719727,1.3147919178009033,21.792634963989258,0.3793235421180725,2.5335726737976074,-0.22098104655742645,0.0,0.0,0.0,0.0,0.0,0.0,0.0,-0.1656654039160374,0.40534243159587613,0.11835444921030118,0.45788491585632407,-0.16186009422168773,0.12337153578029725,-0.20905329123444286,0.17283254588045407,-0.4874367286489721,-0.11145288308147797,-1.946474364914792,0.13361073372761406,2.595549647702111,0.9452491365925921,0.1728802376190821,-0.48752024683155326,-0.11147110072896137,-1.9463801863486305,0.1336059019074957,2.595550359778934,0.9452445589611904,-0.0007243612238551756,0.0009129989340113977,-0.0002556175262591773,-0.0006402969949266581,-0.00017963449588591124,-0.0004113050154870646,0.0005773355144728179,0.0,0.0,0.0,0.0,0.0,0.0,0.0,4.769173862803622e-05,-8.351818258117705e-05,-1.8217647483401156e-05,9.417856616145137e-05,-4.831820118372798e-06,7.120768228396912e-07,-4.577631401714299e-06,0.0007243612238551756,-0.0009129989340113977,0.0002556175262591773,0.0006402969949266581,0.00017963449588591124,0.0004113050154870646,-0.0005773355144728179,0.14510458707809448,12.000879287719727,-1.3147919178009033,-21.792634963989258,-0.3793235421180725,-2.5335726737976074,0.22098104655742645,0
2,0.004997968673706055,-0.14510458707809448,-12.048486709594727,1.3425629138946533,21.792634963989258,0.3738303780555725,2.5271639823913574,-0.15964071452617645,0.0,0.0,0.0,0.0,0.0,0.0,0.0,-0.17285836048055597,0.38661879848224734,0.1119457946243102,0.4654336182308435,-0.16090670693614081,0.12437639218737753,-0.20954231437034943,0.17283540635812633,-0.4874333877772616,-0.11145483192330911,-1.9464743617889222,0.13361134407917655,2.595550359778934,0.9452423210061258,0.1728802376190821,-0.48752024683155326,-0.11147110072896137,-1.9463801863486305,0.1336059019074957,2.595550359778934,0.9452445589611904,-0.0012741159502134,0.0008806124658954183,-0.0009602966444898489,-0.0005166323772764208,-2.9403789735545486e-05,8.336865720043e-05,-0.0008139529372099001,0.0,0.0,0.0,0.0,0.0,0.0,0.0,4.483126095577994e-05,-8.685905429167695e-05,-1.6268805652253082e-05,9.417544029166613e-05,-5.442171680858365e-06,0.0,2.2379550645990065e-06,0.0012741159502134,-0.0008806124658954183,0.0009602966444898489,0.0005166323772764208,2.9403789735545486e-05,-8.336865720043e-05,0.0008139529372099001,0.14510458707809448,12.048486709594727,-1.3425629138946533,-21.792634963989258,-0.3738303780555725,-2.5271639823913574,0.15964071452617645,0
3,0.009996414184570312,-0.14510458707809448,-12.048486709594727,1.3425629138946533,21.792634963989258,0.3738303780555725,2.5271639823913574,-0.15964071452617645,0.0,0.0,0.0,0.0,0.0,0.0,0.0,-0.17285836048055597,0.38661879848224734,0.1119457946243102,0.4654336182308435,-0.16090670693614081,0.12437639218737753,-0.20954231437034943,0.17283540635812633,-0.4874333877772616,-0.11145483192330911,-1.9464743617889222,0.13361134407917655,2.595550359778934,0.9452423210061258,0.1728802376190821,-0.48752024683155326,-0.11147110072896137,-1.9463801863486305,0.1336059019074957,2.595550359778934,0.9452445589611904,-0.0012741159502134,0.0008806124658954183,-0.0009602966444898489,-0.0005166323772764208,-2.9403789735545486e-05,8.336865720043e-05,-0.0008139529372099001,0.0,0.0,0.0,0.0,0.0,0.0,0.0,4.483126095577994e-05,-8.685905429167695e-05,-1.6268805652253082e-05,9.417544029166613e-05,-5.442171680858365e-06,0.0,2.2379550645990065e-06,0.0012741159502134,-0.0008806124658954183,0.0009602966444898489,0.0005166323772764208,2.9403789735545486e-05,-8.336865720043e-05,0.0008139529372099001,0.14510458707809448,12.048486709594727,-1.3425629138946533,-21.792634963989258,-0.3738303780555725,-2.5271639823913574,0.15964071452617645,0
4,0.014995098114013672,-0.14510458707809448,-12.048486709594727,1.3425629138946533,21.792634963989258,0.3738303780555725,2.5271639823913574,-0.15964071452617645,0.0,0.0,0.0,0.0,0.0,0.0,0.0,-0.17285836048055597,0.38661879848224734,0.1119457946243102,0.4654336182308435,-0.16090670693614081,0.12437639218737753,-0.20954231437034943,0.17283540635812633,-0.4874333877772616,-0.11145483192330911,-1.9464743617889222,0.13361134407917655,2.595550359778934,0.9452423210061258,0.1728802376190821,-0.48752024683155326,-0.11147110072896137,-1.9463801863486305,0.1336059019074957,2.595550359778934,0.9452445589611904,-0.0012741159502134,0.0008806124658954183,-0.0009602966444898489,-0.0005166323772764208,-2.9403789735545486e-05,8.336865720043e-05,-0.0008139529372099001,0.0,0.0,0.0,0.0,0.0,0.0,0.0,4.483126095577994e-05,-8.685905429167695e-05,-1.6268805652253082e-05,9.417544029166613e-05,-5.442171680858365e-06,0.0,2.2379550645990065e-06,0.0012741159502134,-0.0008806124658954183,0.0009602966444898489,0.0005166323772764208,2.9403789735545486e-05,-8.336865720043e-05,0.0008139529372099001,0.14510458707809448,12.048486709594727,-1.3425629138946533,-21.792634963989258,-0.3738303780555725,-2.5271639823913574,0.15964071452617645,0
5,0.01999497413635254,-0.14510458707809448,-12.048486709594727,1.3425629138946533,21.792634963989258,0.3738303780555725,2.5271639823913574,-0.15964071452617645,0.0,0.0,0.0,0.0,0.0,0.0,0.0,-0.17285836048055597,0.38661879848224734,0.1119457946243102,0.4654336182308435,-0.16090670693614081,0.12437639218737753,-0.20954231437034943,0.17283540635812633,-0.4874333877772616,-0.11145483192330911,-1.9464743617889222,0.13361134407917655,2.595550359778934,0.9452423210061258,0.1728802376190821,-0.48752024683155326,-0.11147110072896137,-1.9463801863486305,0.1336059019074957,2.595550359778934,0.9452445589611904,-0.0012741159502134,0.0008806124658954183,-0.0009602966444898489,-0.0005166323772764208,-2.9403789735545486e-05,8.336865720043e-05,-0.0008139529372099001,0.0,0.0,0.0,0.0,0.0,0.0,0.0,4.483126095577994e-05,-8.685905429167695e-05,-1.6268805652253082e-05,9.417544029166613e-05,-5.442171680858365e-06,0.0,2.2379550645990065e-06,0.0012741159502134,-0.0008806124658954183,0.0009602966444898489,0.0005166323772764208,2.9403789735545486e-05,-8.336865720043e-05,0.0008139529372099001,0.14510458707809448,12.048486709594727,-1.3425629138946533,-21.792634963989258,-0.3738303780555725,-2.5271639823913574,0.15964071452617645,0
6,0.024996280670166016,-0.12130087614059448,-12.048486709594727,1.2909882068634033,21.741060256958008,0.3793235421180725,2.5335726737976074,-0.22098104655742645,0.0,0.0,0.0,0.0,0.0,0.0,0.0,-0.16499394211792112,0.39575255521414154,0.12532853698344043,0.45727770178245736,-0.1614717098051863,0.1235667513752658,-0.20750169375934882,0.17283136925613155,-0.4874333877772616,-0.1114512126456227,-1.9464728034516605,0.13361073372761406,2.595549647702111,0.9452491365985738,0.1728802376190821,-0.48752024683155326,-0.11147110072896137,-1.9463801863486305,0.1336059019074957,2.595550359778934,0.9452445589611904,-0.00022713629876764166,0.0014173971857575002,0.0005264545788134804,0.0005159934202194956,-0.0002547538683249485,-0.0001897304807262905,0.0009204416861079731,0.0,0.0,0.0,0.0,0.0,0.0,0.0,4.886836295056596e-05,-8.685905429167695e-05,-1.9888083338664986e-05,9.261710302999049e-05,-4.831820118372798e-06,7.120768228396912e-07,-4.5776373833739115e-06,0.00022713629876764166,-0.0014173971857575002,-0.0005264545788134804,-0.0005159934202194956,0.0002547538683249485,0.0001897304807262905,-0.0009204416861079731,0.12130087614059448,12.048486709594727,-1.2909882068634033,-21.741060256958008,-0.3793235421180725,-2.5335726737976074,0.22098104655742645,0
7,0.029994487762451172,-0.12130087614059448,-12.048486709594727,1.2909882068634033,21.741060256958008,0.3793235421180725,2.5335726737976074,-0.22098104655742645,0.0,0.0,0.0,0.0,0.0,0.0,0.0,-0.16499394211792112,0.39575255521414154,0.12532853698344043,0.45727770178245736,-0.1614717098051863,0.1235667513752658,-0.20750169375934882,0.17283136925613155,-0.4874333877772616,-0.1114512126456227,-1.9464728034516605,0.13361073372761406,2.595549647702111,0.9452491365985738,0.1728802376190821,-0.48752024683155326,-0.11147110072896137,-1.9463801863486305,0.1336059019074957,2.595550359778934,0.9452445589611904,-0.00022713629876764166,0.0014173971857575002,0.0005264545788134804,0.0005159934202194956,-0.0002547538683249485,-0.0001897304807262905,0.0009204416861079731,0.0,0.0,0.0,0.0,0.0,0.0,0.0,4.886836295056596e-05,-8.685905429167695e-05,-1.9888083338664986e-05,9.261710302999049e-05,-4.831820118372798e-06,7.120768228396912e-07,-4.5776373833739115e-06,0.00022713629876764166,-0.0014173971857575002,-0.0005264545788134804,-0.0005159934202194956,0.0002547538683249485,0.0001897304807262905,-0.0009204416861079731,0.12130087614059448,12.048486709594727,-1.2909882068634033,-21.741060256958008,-0.3793235421180725,-2.5335726737976074,0.22098104655742645,0
8,0.034993886947631836,-0.09352988004684448,-11.873926162719727,1.3425629138946533,21.792634963989258,0.3738303780555725,2.5207552909851074,-0.16604940593242645,0.0,0.0,0.0,0.0,0.0,0.0,0.0,-0.16023933235682783,0.4016603355686207,0.12183893694651643,0.4521036375189782,-0.1608174696837275,0.12278489602839131,-0.20683802563086098,0.17283091265970063,-0.48744563764020016,-0.11145483192330911,-1.9464762016559884,0.13361134407917655,2.59555107137124,0.9452430330829488,0.1728802376190821,-0.48752024683155326,-0.11147110072896137,-1.9463801863486305,0.1336059019074957,2.595550359778934,0.9452445589611904,-0.0010958723370507028,-0.0012462181025892525,-0.00033789818956423036,-0.0011137893434388154,0.00014276985982782946,3.363003957902696e-05,-0.0013963333753022257,0.0,0.0,0.0,0.0,0.0,0.0,0.0,4.9324959381480404e-05,-7.460919135310329e-05,-1.6268805652253082e-05,9.601530735792174e-05,-5.442171680858365e-06,-7.115923059686224e-07,1.525878241648293e-06,0.0010958723370507028,0.0012462181025892525,0.00033789818956423036,0.0011137893434388154,-0.00014276985982782946,-3.363003957902696e-05,0.0013963333753022257,0.09352988004684448,11.873926162719727,-1.3425629138946533,-21.792634963989258,-0.3738303780555725,-2.5207552909851074,0.16604940593242645,0
9,0.04000282287597656,-0.09352988004684448,-11.873926162719727,1.3425629138946533,21.792634963989258,0.3738303780555725,2.5207552909851074,-0.16604940593242645,0.0,0.0,0.0,0.0,0.0,0.0,0.0,-0.16023933235682783,0.4016603355686207,0.12183893694651643,0.4521036375189782,-0.1608174696837275,0.12278489602839131,-0.20683802563086098,0.17283091265970063,-0.48744563764020016,-0.11145483192330911,-1.9464762016559884,0.13361134407917655,2.59555107137124,0.9452430330829488,0.1728802376190821,-0.48752024683155326,-0.11147110072896137,-1.9463801863486305,0.1336059019074957,2.595550359778934,0.9452445589611904,-0.0010958723370507028,-0.0012462181025892525,-0.00033789818956423036,-0.0011137893434388154,0.00014276985982782946,3.363003957902696e-05,-0.0013963333753022257,0.0,0.0,0.0,0.0,0.0,0.0,0.0,4.9324959381480404e-05,-7.460919135310329e-05,-1.6268805652253082e-05,9.601530735792174e-05,-5.442171680858365e-06,-7.115923059686224e-07,1.525878241648293e-06,0.0010958723370507028,0.0012462181025892525,0.00033789818956423036,0.0011137893434388154,-0.00014276985982782946,-3.363003957902696e-05,0.0013963333753022257,0.09352988004684448,11.873926162719727,-1.3425629138946533,-21.792634963989258,-0.3738303780555725,-2.5207552909851074,0.16604940593242645,0
10,0.047167062759399414,-0.19667929410934448,-11.873926162719727,1.3147919178009033,21.741060256958008,0.3738303780555725,2.5079379081726074,-0.17978231608867645,0.0,0.0,0.0,0.0,0.0,0.0,0.0,-0.16156055634629907,0.3868365656538376,0.10946387134777896,0.46241631793314275,-0.1597968171566521,0.12454389084140358,-0.20805798569903008,0.17283900361362492,-0.48744563764020016,-0.11145288308147797,-1.946472735435895,0.13361134407917655,2.5955524960094003,0.945244558961855,0.1728802376190821,-0.48752024683155326,-0.11147110072896137,-1.9463801863486305,0.1336059019074957,2.595550359778934,0.9452445589611904,0.0009821895143441602,-0.00039367159232282724,-0.0003210761813406697,6.821538591084643e-05,3.4617246935119284e-06,0.0005236444906805596,-0.0007759255953316326,0.0,0.0,0.0,0.0,0.0,0.0,0.0,4.123400545719136e-05,-7.460919135310329e-05,-1.8217647483401156e-05,9.254908726452626e-05,-5.442171680858365e-06,-2.1362304662986276e-06,-6.645795025406187e-13,-0.0009821895143441602,0.00039367159232282724,0.0003210761813406697,-6.821538591084643e-05,-3.4617246935119284e-06,-0.0005236444906805596,0.0007759255953316326,0.19667929410934448,11.873926162719727,-1.3147919178009033,-21.741060256958008,-0.3738303780555725,-2.5079379081726074,0.17978231608867645,0
11,0.05004620552062988,-0.19667929410934448,-11.873926162719727,1.3147919178009033,21.741060256958008,0.3738303780555725,2.5079379081726074,-0.17978231608867645,0.0,0.0,0.0,0.0,0.0,0.0,0.0,-0.16156055634629907,0.3868365656538376,0.10946387134777896,0.46241631793314275,-0.1597968171566521,0.12454389084140358,-0.20805798569903008,0.17283900361362492,-0.48744563764020016,-0.11145288308147797,-1.946472735435895,0.13361134407917655,2.5955524960094003,0.945244558961855,0.1728802376190821,-0.48752024683155326,-0.11147110072896137,-1.9463801863486305,0.1336059019074957,2.595550359778934,0.9452445589611904,0.0009821895143441602,-0.00039367159232282724,-0.0003210761813406697,6.821538591084643e-05,3.4617246935119284e-06,0.0005236444906805596,-0.0007759255953316326,0.0,0.0,0.0,0.0,0.0,0.0,0.0,4.123400545719136e-05,-7.460919135310329e-05,-1.8217647483401156e-05,9.254908726452626e-05,-5.442171680858365e-06,-2.1362304662986276e-06,-6.645795025406187e-13,-0.0009821895143441602,0.00039367159232282724,0.0003210761813406697,-6.821538591084643e-05,-3.4617246935119284e-06,-0.0005236444906805596,0.0007759255953316326,0.19667929410934448,11.873926162719727,-1.3147919178009033,-21.741060256958008,-0.3738303780555725,-2.5079379081726074,0.17978231608867645,0
12,0.05500340461730957,-0.19667929410934448,-11.901697158813477,1.2909882068634033,21.768831253051758,0.3793235421180725,2.5207552909851074,-0.24112264811992645,0.0,0.0,0.0,0.0,0.0,0.0,0.0,-0.16053239132086614,0.38989099288288565,0.11233196651388118,0.46886263352818697,-0.1597160607267248,0.1252173897282621,-0.20956708959439288,0.1728359229392056,-0.487443688798369,-0.1114512126456227,-1.9464740635402455,0.13361073372761406,2.595551071855757,0.945251374554303,0.1728802376190821,-0.48752024683155326,-0.11147110072896137,-1.9463801863486305,0.1336059019074957,2.595550359778934,0.9452445589611904,5.439147666580804e-05,0.0007224068139138063,-4.106395448194097e-05,-0.0003319923161211562,-0.00016961323254864518,6.992272227229139e-05,0.0016684322246144226,0.0,0.0,0.0,0.0,0.0,0.0,0.0,4.431467987650595e-05,-7.655803318423748e-05,-1.9888083338664986e-05,9.387719161502162e-05,-4.831820118372798e-06,-7.120768228396912e-07,-6.8155931125524205e-06,-5.439147666580804e-05,-0.0007224068139138063,4.106395448194097e-05,0.0003319923161211562,0.00016961323254864518,-6.992272227229139e-05,-0.0016684322246144226,0.19667929410934448,11.901697158813477,-1.2909882068634033,-21.768831253051758,-0.3793235421180725,-2.5207552909851074,0.24112264811992645,0
13,0.060330867767333984,-0.19667929410934448,-11.901697158813477,1.2909882068634033,21.768831253051758,0.3793235421180725,2.5207552909851074,-0.24112264811992645,0.0,0.0,0.0,0.0,0.0,0.0,0.0,-0.16053239132086614,0.38989099288288565,0.11233196651388118,0.46886263352818697,-0.1597160607267248,0.1252173897282621,-0.20956708959439288,0.1728359229392056,-0.487443688798369,-0.1114512126456227,-1.9464740635402455,0.13361073372761406,2.595551071855757,0.945251374554303,0.1728802376190821,-0.48752024683155326,-0.11147110072896137,-1.9463801863486305,0.1336059019074957,2.595550359778934,0.9452445589611904,5.439147666580804e-05,0.0007224068139138063,-4.106395448194097e-05,-0.0003319923161211562,-0.00016961323254864518,6.992272227229139e-05,0.0016684322246144226,0.0,0.0,0.0,0.0,0.0,0.0,0.0,4.431467987650595e-05,-7.655803318423748e-05,-1.9888083338664986e-05,9.387719161502162e-05,-4.831820118372798e-06,-7.120768228396912e-07,-6.8155931125524205e-06,-5.439147666580804e-05,-0.0007224068139138063,4.106395448194097e-05,0.0003319923161211562,0.00016961323254864518,-6.992272227229139e-05,-0.0016684322246144226,0.19667929410934448,11.901697158813477,-1.2909882068634033,-21.768831253051758,-0.3793235421180725,-2.5207552909851074,0.24112264811992645,0
14,0.06499409675598145,-0.14510458707809448,-11.949304580688477,1.2909882068634033,21.741060256958008,0.3674216866493225,2.5207552909851074,-0.20724813640117645,0.0,0.0,0.0,0.0,0.0,0.0,0.0,-0.1596416702865743,0.3948730448159231,0.12052359394578088,0.4716577145235138,-0.1600580425988188,0.12528188152915448,-0.20976198469162116,0.17283548941403323,-0.4874403479266585,-0.11145121260962042,-1.9464728119626755,0.13361205615599947,2.595551071855757,0.9452476107196676,0.1728802376190821,-0.48752024683155326,-0.11147110072896137,-1.9463801863486305,0.1336059019074957,2.595550359778934,0.9452445589611904,-0.0002888507181636507,0.001022825938817195,0.00010204451466658784,0.00035820574082278235,0.00019343989349682492,0.00012330856810219238,0.0005041575372837715,0.0,0.0,0.0,0.0,0.0,0.0,0.0,4.474820504887789e-05,-7.989890489473739e-05,-1.9888119340949473e-05,9.262561404499436e-05,-6.154248503781323e-06,-7.120768228396912e-07,-3.051758477146116e-06,0.0002888507181636507,-0.001022825938817195,-0.00010204451466658784,-0.00035820574082278235,-0.00019343989349682492,-0.00012330856810219238,-0.0005041575372837715,0.14510458707809448,11.949304580688477,-1.2909882068634033,-21.741060256958008,-0.3674216866493225,-2.5207552909851074,0.20724813640117645,0
15,0.06999421119689941,-0.14510458707809448,-11.949304580688477,1.2909882068634033,21.741060256958008,0.3674216866493225,2.5207552909851074,-0.20724813640117645,0.0,0.0,0.0,0.0,0.0,0.0,0.0,-0.1596416702865743,0.3948730448159231,0.12052359394578088,0.4716577145235138,-0.1600580425988188,0.12528188152915448,-0.20976198469162116,0.17283548941403323,-0.4874403479266585,-0.11145121260962042,-1.9464728119626755,0.13361205615599947,2.595551071855757,0.9452476107196676,0.1728802376190821,-0.48752024683155326,-0.11147110072896137,-1.9463801863486305,0.1336059019074957,2.595550359778934,0.9452445589611904,-0.0002888507181636507,0.001022825938817195,0.00010204451466658784,0.00035820574082278235,0.00019343989349682492,0.00012330856810219238,0.0005041575372837715,0.0,0.0,0.0,0.0,0.0,0.0,0.0,4.474820504887789e-05,-7.989890489473739e-05,-1.9888119340949473e-05,9.262561404499436e-05,-6.154248503781323e-06,-7.120768228396912e-07,-3.051758477146116e-06,0.0002888507181636507,-0.001022825938817195,-0.00010204451466658784,-0.00035820574082278235,-0.00019343989349682492,-0.00012330856810219238,-0.0005041575372837715,0.14510458707809448,11.949304580688477,-1.2909882068634033,-21.741060256958008,-0.3674216866493225,-2.5207552909851074,0.20724813640117645,0
16,0.0749967098236084,-0.17287558317184448,-11.925500869750977,1.3147919178009033,21.768831253051758,0.3674216866493225,2.5335726737976074,-0.23471395671367645,0.0,0.0,0.0,0.0,0.0,0.0,0.0,-0.16751888549899752,0.3899380381850708,0.10936333503220713,0.4747015471131591,-0.1601743112322501,0.1262616023363537,-0.20924357763147655,0.1728364671841801,-0.4874420183625138,-0.11145288308147248,-1.9464739955142374,0.13361205615599947,2.595549647702111,0.94525066247748,0.1728802376190821,-0.48752024683155326,-0.11147110072896137,-1.9463801863486305,0.1336059019074957,2.595550359778934,0.9452445589611904,7.542106765237179e-05,-0.0004456146525910011,-0.0005251637133720392,-0.0002096477401649405,0.00016411252742305857,4.040972280914922e-05,0.004181952688609075,0.0,0.0,0.0,0.0,0.0,0.0,0.0,4.377043490200183e-05,-7.822846903948744e-05,-1.8217647488882882e-05,9.380916560686181e-05,-6.154248503781323e-06,7.120768228396912e-07,-6.103516289601707e-06,-7.542106765237179e-05,0.0004456146525910011,0.0005251637133720392,0.0002096477401649405,-0.00016411252742305857,-4.040972280914922e-05,-0.004181952688609075,0.17287558317184448,11.925500869750977,-1.3147919178009033,-21.768831253051758,-0.3674216866493225,-2.5335726737976074,0.23471395671367645,0
17,0.0800008773803711,-0.17287558317184448,-11.925500869750977,1.3147919178009033,21.768831253051758,0.3674216866493225,2.5335726737976074,-0.23471395671367645,0.0,0.0,0.0,0.0,0.0,0.0,0.0,-0.16751888549899752,0.3899380381850708,0.10936333503220713,0.4747015471131591,-0.1601743112322501,0.1262616023363537,-0.20924357763147655,0.1728364671841801,-0.4874420183625138,-0.11145288308147248,-1.9464739955142374,0.13361205615599947,2.595549647702111,0.94525066247748,0.1728802376190821,-0.48752024683155326,-0.11147110072896137,-1.9463801863486305,0.1336059019074957,2.595550359778934,0.9452445589611904,7.542106765237179e-05,-0.0004456146525910011,-0.0005251637133720392,-0.0002096477401649405,0.00016411252742305857,4.040972280914922e-05,0.004181952688609075,0.0,0.0,0.0,0.0,0.0,0.0,0.0,4.377043490200183e-05,-7.822846903948744e-05,-1.8217647488882882e-05,9.380916560686181e-05,-6.154248503781323e-06,7.120768228396912e-07,-6.103516289601707e-06,-7.542106765237179e-05,0.0004456146525910011,0.0005251637133720392,0.0002096477401649405,-0.00016411252742305857,-4.040972280914922e-05,-0.004181952688609075,0.17287558317184448,11.925500869750977,-1.3147919178009033,-21.768831253051758,-0.3674216866493225,-2.5335726737976074,0.23471395671367645,0
18,0.08499312400817871,-0.14510458707809448,-11.949304580688477,1.2909882068634033,21.768831253051758,0.3674216866493225,2.5335726737976074,-0.22098104655742645,0.0,0.0,0.0,0.0,0.0,0.0,0.0,-0.1581904632963129,0.41093212207289004,0.1204304607560384,0.4620268817019613,-0.16129948400683528,0.1248032903330011,-0.20852858271790625,0.17283241760834367,-0.4874403479266585,-0.1114512126456227,-1.946474760702984,0.13361205615599947,2.595549647702111,0.9452491365985738,0.1728802376190821,-0.48752024683155326,-0.11147110072896137,-1.9463801863486305,0.1336059019074957,2.595550359778934,0.9452445589611904,-0.00015161875159634949,-4.023776328623574e-05,0.001062693307563624,-0.0006661666301399896,0.00015156028994517694,-0.0004537315532759095,0.00046869956438320396,0.0,0.0,0.0,0.0,0.0,0.0,0.0,4.782001073844189e-05,-7.989890489473739e-05,-1.9888083338664986e-05,9.457435435344941e-05,-6.154248503781323e-06,7.120768228396912e-07,-4.5776373833739115e-06,0.00015161875159634949,4.023776328623574e-05,-0.001062693307563624,0.0006661666301399896,-0.00015156028994517694,0.0004537315532759095,-0.00046869956438320396,0.14510458707809448,11.949304580688477,-1.2909882068634033,-21.768831253051758,-0.3674216866493225,-2.5335726737976074,0.22098104655742645,0
19,0.08999490737915039,-0.14510458707809448,-11.949304580688477,1.2909882068634033,21.768831253051758,0.3674216866493225,2.5335726737976074,-0.22098104655742645,0.0,0.0,0.0,0.0,0.0,0.0,0.0,-0.1581904632963129,0.41093212207289004,0.1204304607560384,0.4620268817019613,-0.16129948400683528,0.1248032903330011,-0.20852858271790625,0.17283241760834367,-0.4874403479266585,-0.1114512126456227,-1.946474760702984,0.13361205615599947,2.595549647702111,0.9452491365985738,0.1728802376190821,-0.48752024683155326,-0.11147110072896137,-1.9463801863486305,0.1336059019074957,2.595550359778934,0.9452445589611904,-0.00015161875159634949,-4.023776328623574e-05,0.001062693307563624,-0.0006661666301399896,0.00015156028994517694,-0.0004537315532759095,0.00046869956438320396,0.0,0.0,0.0,0.0,0.0,0.0,0.0,4.782001073844189e-05,-7.989890489473739e-05,-1.9888083338664986e-05,9.457435435344941e-05,-6.154248503781323e-06,7.120768228396912e-07,-4.5776373833739115e-06,0.00015161875159634949,4.023776328623574e-05,-0.001062693307563624,0.0006661666301399896,-0.00015156028994517694,0.0004537315532759095,-0.00046869956438320396,0.14510458707809448,11.949304580688477,-1.2909882068634033,-21.768831253051758,-0.3674216866493225,-2.5335726737976074,0.22098104655742645,0
20,0.09499621391296387,-0.12130087614059448,-11.901697158813477,1.3425629138946533,21.717256546020508,0.3793235421180725,2.5207552909851074,-0.24112264811992645,0.0,0.0,0.0,0.0,0.0,0.0,0.0,-0.16095794791640225,0.40657953063565283,0.1115880028780806,0.46047293493161273,-0.1608702033215407,0.12504937463349775,-0.20967208756684874,0.17283354474940732,-0.487443688798369,-0.11145483192330911,-1.9464688456481418,0.13361073372761406,2.595551071855757,0.945251374554303,0.1728802376190821,-0.48752024683155326,-0.11147110072896137,-1.9463801863486305,0.1336059019074957,2.595550359778934,0.9452445589611904,-0.000616708098383016,-0.0009956148537008942,-0.0008910142492238704,0.0005059005439445205,-0.00012164553894002689,0.00024126216613465387,0.0019371388288846366,0.0,0.0,0.0,0.0,0.0,0.0,0.0,4.669286967479147e-05,-7.655803318423748e-05,-1.6268805652253082e-05,8.865929951129559e-05,-4.831820118372798e-06,-7.120768228396912e-07,-6.8155931125524205e-06,0.000616708098383016,0.0009956148537008942,0.0008910142492238704,-0.0005059005439445205,0.00012164553894002689,-0.00024126216613465387,-0.0019371388288846366,0.12130087614059448,11.901697158813477,-1.3425629138946533,-21.717256546020508,-0.3793235421180725,-2.5207552909851074,0.24112264811992645,0
21,0.10000324249267578,-0.12130087614059448,-11.901697158813477,1.3425629138946533,21.717256546020508,0.3793235421180725,2.5207552909851074,-0.24112264811992645,0.0,0.0,0.0,0.0,0.0,0.0,0.0,-0.16095794791640225,0.40657953063565283,0.1115880028780806,0.46047293493161273,-0.1608702033215407,0.12504937463349775,-0.20967208756684874,0.17283354474940732,-0.487443688798369,-0.11145483192330911,-1.9464688456481418,0.13361073372761406,2.595551071855757,0.945251374554303,0.1728802376190821,-0.48752024683155326,-0.11147110072896137,-1.9463801863486305,0.1336059019074957,2.595550359778934,0.9452445589611904,-0.000616708098383016,-0.0009956148537008942,-0.0008910142492238704,0.0005059005439445205,-0.00012164553894002689,0.00024126216613465387,0.0019371388288846366,0.0,0.0,0.0,0.0,0.0,0.0,0.0,4.669286967479147e-05,-7.655803318423748e-05,-1.6268805652253082e-05,8.865929951129559e-05,-4.831820118372798e-06,-7.120768228396912e-07,-6.8155931125524205e-06,0.000616708098383016,0.0009956148537008942,0.0008910142492238704,-0.0005059005439445205,0.00012164553894002689,-0.00024126216613465387,-0.0019371388288846366,0.12130087614059448,11.901697158813477,-1.3425629138946533,-21.717256546020508,-0.3793235421180725,-2.5207552909851074,0.24112264811992645,0
22,0.10500597953796387,-0.19667929410934448,-11.949304580688477,1.2671844959259033,21.693452835083008,0.3793235421180725,2.5271639823913574,-0.21457235515117645,0.0,0.0,0.0,0.0,0.0,0.0,0.0,-0.1637765993926054,0.3929291151438904,0.1089721711018851,0.4636443336034324,-0.1604920383239065,0.12580748300361852,-0.2106395105086691,0.17283907032971818,-0.4874403479266585,-0.11144954220976744,-1.946469462543679,0.13361073324006909,2.595550359778934,0.9452484245217508,0.1728802376190821,-0.48752024683155326,-0.11147110072896137,-1.9463801863486305,0.1336059019074957,2.595550359778934,0.9452445589611904,0.00044186345274188583,0.00019121163557960164,0.0007223897802132714,0.0015364003007186102,-0.0002552822122052307,-8.350556497220519e-05,-0.00013470076800920736,0.0,0.0,0.0,0.0,0.0,0.0,0.0,4.1167289363930326e-05,-7.989890489473739e-05,-2.1558519193928816e-05,8.927619504839335e-05,-4.831332573396185e-06,0.0,-3.865560560423198e-06,-0.00044186345274188583,-0.00019121163557960164,-0.0007223897802132714,-0.0015364003007186102,0.0002552822122052307,8.350556497220519e-05,0.00013470076800920736,0.19667929410934448,11.949304580688477,-1.2671844959259033,-21.693452835083008,-0.3793235421180725,-2.5271639823913574,0.21457235515117645,0
23,0.11000275611877441,-0.19667929410934448,-11.949304580688477,1.2671844959259033,21.693452835083008,0.3793235421180725,2.5271639823913574,-0.21457235515117645,0.0,0.0,0.0,0.0,0.0,0.0,0.0,-0.1637765993926054,0.3929291151438904,0.1089721711018851,0.4636443336034324,-0.1604920383239065,0.12580748300361852,-0.2106395105086691,0.17283907032971818,-0.4874403479266585,-0.11144954220976744,-1.946469462543679,0.13361073324006909,2.595550359778934,0.9452484245217508,0.1728802376190821,-0.48752024683155326,-0.11147110072896137,-1.9463801863486305,0.1336059019074957,2.595550359778934,0.9452445589611904,0.00044186345274188583,0.00019121163557960164,0.0007223897802132714,0.0015364003007186102,-0.0002552822122052307,-8.350556497220519e-05,-0.00013470076800920736,0.0,0.0,0.0,0.0,0.0,0.0,0.0,4.1167289363930326e-05,-7.989890489473739e-05,-2.1558519193928816e-05,8.927619504839335e-05,-4.831332573396185e-06,0.0,-3.865560560423198e-06,-0.00044186345274188583,-0.00019121163557960164,-0.0007223897802132714,-0.0015364003007186102,0.0002552822122052307,8.350556497220519e-05,0.00013470076800920736,0.19667929410934448,11.949304580688477,-1.2671844959259033,-21.693452835083008,-0.3793235421180725,-2.5271639823913574,0.21457235515117645,0
24,0.11501789093017578,-0.19667929410934448,-11.949304580688477,1.2671844959259033,21.693452835083008,0.3793235421180725,2.5271639823913574,-0.21457235515117645,0.0,0.0,0.0,0.0,0.0,0.0,0.0,-0.1637765993926054,0.3929291151438904,0.1089721711018851,0.4636443336034324,-0.1604920383239065,0.12580748300361852,-0.2106395105086691,0.17283907032971818,-0.4874403479266585,-0.11144954220976744,-1.946469462543679,0.13361073324006909,2.595550359778934,0.9452484245217508,0.1728802376190821,-0.48752024683155326,-0.11147110072896137,-1.9463801863486305,0.1336059019074957,2.595550359778934,0.9452445589611904,0.00044186345274188583,0.00019121163557960164,0.0007223897802132714,0.0015364003007186102,-0.0002552822122052307,-8.350556497220519e-05,-0.00013470076800920736,0.0,0.0,0.0,0.0,0.0,0.0,0.0,4.1167289363930326e-05,-7.989890489473739e-05,-2.1558519193928816e-05,8.927619504839335e-05,-4.831332573396185e-06,0.0,-3.865560560423198e-06,-0.00044186345274188583,-0.00019121163557960164,-0.0007223897802132714,-0.0015364003007186102,0.0002552822122052307,8.350556497220519e-05,0.00013470076800920736,0.19667929410934448,11.949304580688477,-1.2671844959259033,-21.693452835083008,-0.3793235421180725,-2.5271639823913574,0.21457235515117645,0
25,0.11994552612304688,-0.19667929410934448,-11.949304580688477,1.2671844959259033,21.693452835083008,0.3793235421180725,2.5271639823913574,-0.21457235515117645,0.0,0.0,0.0,0.0,0.0,0.0,0.0,-0.1637765993926054,0.3929291151438904,0.1089721711018851,0.4636443336034324,-0.1604920383239065,0.12580748300361852,-0.2106395105086691,0.17283907032971818,-0.4874403479266585,-0.11144954220976744,-1.946469462543679,0.13361073324006909,2.595550359778934,0.9452484245217508,0.1728802376190821,-0.48752024683155326,-0.11147110072896137,-1.9463801863486305,0.1336059019074957,2.595550359778934,0.9452445589611904,0.00044186345274188583,0.00019121163557960164,0.0007223897802132714,0.0015364003007186102,-0.0002552822122052307,-8.350556497220519e-05,-0.00013470076800920736,0.0,0.0,0.0,0.0,0.0,0.0,0.0,4.1167289363930326e-05,-7.989890489473739e-05,-2.1558519193928816e-05,8.927619504839335e-05,-4.831332573396185e-06,0.0,-3.865560560423198e-06,-0.00044186345274188583,-0.00019121163557960164,-0.0007223897802132714,-0.0015364003007186102,0.0002552822122052307,8.350556497220519e-05,0.00013470076800920736,0.19667929410934448,11.949304580688477,-1.2671844959259033,-21.693452835083008,-0.3793235421180725,-2.5271639823913574,0.21457235515117645,0
26,0.12499713897705078,-0.19667929410934448,-11.949304580688477,1.2671844959259033,21.693452835083008,0.3793235421180725,2.5271639823913574,-0.21457235515117645,0.0,0.0,0.0,0.0,0.0,0.0,0.0,-0.1637765993926054,0.3929291151438904,0.1089721711018851,0.4636443336034324,-0.1604920383239065,0.12580748300361852,-0.2106395105086691,0.17283907032971818,-0.4874403479266585,-0.11144954220976744,-1.946469462543679,0.13361073324006909,2.595550359778934,0.9452484245217508,0.1728802376190821,-0.48752024683155326,-0.11147110072896137,-1.9463801863486305,0.1336059019074957,2.595550359778934,0.9452445589611904,0.00044186345274188583,0.00019121163557960164,0.0007223897802132714,0.0015364003007186102,-0.0002552822122052307,-8.350556497220519e-05,-0.00013470076800920736,0.0,0.0,0.0,0.0,0.0,0.0,0.0,4.1167289363930326e-05,-7.989890489473739e-05,-2.1558519193928816e-05,8.927619504839335e-05,-4.831332573396185e-06,0.0,-3.865560560423198e-06,-0.00044186345274188583,-0.00019121163557960164,-0.0007223897802132714,-0.0015364003007186102,0.0002552822122052307,8.350556497220519e-05,0.00013470076800920736,0.19667929410934448,11.949304580688477,-1.2671844959259033,-21.693452835083008,-0.3793235421180725,-2.5271639823913574,0.21457235515117645,0
27,0.12999844551086426,-0.14510458707809448,-11.949304580688477,1.3425629138946533,21.768831253051758,0.3738303780555725,2.5143465995788574,-0.17337362468242645,0.0,0.0,0.0,0.0,0.0,0.0,0.0,-0.1596237073203172,0.3847648018479193,0.11969169766854157,0.45963607219085645,-0.16205234327895124,0.12447044040506237,-0.2122309276829143,0.17283446552648754,-0.4874403479266585,-0.11145483192330911,-1.9464747352986198,0.13361134407917655,2.5955517839325797,0.9452438464005154,0.1728802376190821,-0.48752024683155326,-0.11147110072896137,-1.9463801863486305,0.1336059019074957,2.595550359778934,0.9452445589611904,-0.0002717595234934859,-0.0005806001899382404,-0.0005520009709634263,0.00016924947408182445,9.669528841748684e-05,0.0006063980609380414,-0.0009918847678070108,0.0,0.0,0.0,0.0,0.0,0.0,0.0,4.577209259457038e-05,-7.989890489473739e-05,-1.6268805652253082e-05,9.454894998928154e-05,-5.442171680858365e-06,-1.4241536456793824e-06,7.125606750202351e-07,0.0002717595234934859,0.0005806001899382404,0.0005520009709634263,-0.00016924947408182445,-9.669528841748684e-05,-0.0006063980609380414,0.0009918847678070108,0.14510458707809448,11.949304580688477,-1.3425629138946533,-21.768831253051758,-0.3738303780555725,-2.5143465995788574,0.17337362468242645,0
28,0.1349947452545166,-0.14510458707809448,-11.949304580688477,1.3425629138946533,21.768831253051758,0.3738303780555725,2.5143465995788574,-0.17337362468242645,0.0,0.0,0.0,0.0,0.0,0.0,0.0,-0.1596237073203172,0.3847648018479193,0.11969169766854157,0.45963607219085645,-0.16205234327895124,0.12447044040506237,-0.2122309276829143,0.17283446552648754,-0.4874403479266585,-0.11145483192330911,-1.9464747352986198,0.13361134407917655,2.5955517839325797,0.9452438464005154,0.1728802376190821,-0.48752024683155326,-0.11147110072896137,-1.9463801863486305,0.1336059019074957,2.595550359778934,0.9452445589611904,-0.0002717595234934859,-0.0005806001899382404,-0.0005520009709634263,0.00016924947408182445,9.669528841748684e-05,0.0006063980609380414,-0.0009918847678070108,0.0,0.0,0.0,0.0,0.0,0.0,0.0,4.577209259457038e-05,-7.989890489473739e-05,-1.6268805652253082e-05,9.454894998928154e-05,-5.442171680858365e-06,-1.4241536456793824e-06,7.125606750202351e-07,0.0002717595234934859,0.0005806001899382404,0.0005520009709634263,-0.00016924947408182445,-9.669528841748684e-05,-0.0006063980609380414,0.0009918847678070108,0.14510458707809448,11.949304580688477,-1.3425629138946533,-21.768831253051758,-0.3738303780555725,-2.5143465995788574,0.17337362468242645,0
29,0.1399989128112793,-0.12130087614059448,-11.973108291625977,1.3147919178009033,21.768831253051758,0.3793235421180725,2.5271639823913574,-0.20083944499492645,0.0,0.0,0.0,0.0,0.0,0.0,0.0,-0.15673721018849893,0.38583236883833905,0.12072350514954898,0.4579594665625311,-0.16171668626138286,0.12367538833071416,-0.21038303805572928,0.17283372822861828,-0.4874386774908032,-0.11145288308147797,-1.9464747597585124,0.13361073372761406,2.595550359778934,0.9452468986428418,0.1728802376190821,-0.48752024683155326,-0.11147110072896137,-1.9463801863486305,0.1336059019074957,2.595550359778934,0.9452445589611904,-0.00038792849449317834,0.0002074980966263492,0.0006958748941074697,0.0002110971100656582,-0.00019671998265887082,-4.69879002385105e-06,-0.00010390868322852703,0.0,0.0,0.0,0.0,0.0,0.0,0.0,4.650939046382807e-05,-8.156934075004285e-05,-1.8217647483401156e-05,9.457340988183738e-05,-4.831820118372798e-06,0.0,-2.339681651419845e-06,0.00038792849449317834,-0.0002074980966263492,-0.0006958748941074697,-0.0002110971100656582,0.00019671998265887082,4.69879002385105e-06,0.00010390868322852703,0.12130087614059448,11.973108291625977,-1.3147919178009033,-21.768831253051758,-0.3793235421180725,-2.5271639823913574,0.20083944499492645,0
30,0.14499282836914062,-0.12130087614059448,-11.973108291625977,1.3147919178009033,21.768831253051758,0.3793235421180725,2.5271639823913574,-0.20083944499492645,0.0,0.0,0.0,0.0,0.0,0.0,0.0,-0.15673721018849893,0.38583236883833905,0.12072350514954898,0.4579594665625311,-0.16171668626138286,0.12367538833071416,-0.21038303805572928,0.17283372822861828,-0.4874386774908032,-0.11145288308147797,-1.9464747597585124,0.13361073372761406,2.595550359778934,0.9452468986428418,0.1728802376190821,-0.48752024683155326,-0.11147110072896137,-1.9463801863486305,0.1336059019074957,2.595550359778934,0.9452445589611904,-0.00038792849449317834,0.0002074980966263492,0.0006958748941074697,0.0002110971100656582,-0.00019671998265887082,-4.69879002385105e-06,-0.00010390868322852703,0.0,0.0,0.0,0.0,0.0,0.0,0.0,4.650939046382807e-05,-8.156934075004285e-05,-1.8217647483401156e-05,9.457340988183738e-05,-4.831820118372798e-06,0.0,-2.339681651419845e-06,0.00038792849449317834,-0.0002074980966263492,-0.0006958748941074697,-0.0002110971100656582,0.00019671998265887082,4.69879002385105e-06,0.00010390868322852703,0.12130087614059448,11.973108291625977,-1.3147919178009033,-21.768831253051758,-0.3793235421180725,-2.5271639823913574,0.20083944499492645,0
31,0.1499919891357422,-0.12130087614059448,-11.973108291625977,1.3147919178009033,21.768831253051758,0.3793235421180725,2.5271639823913574,-0.20083944499492645,0.0,0.0,0.0,0.0,0.0,0.0,0.0,-0.15673721018849893,0.38583236883833905,0.12072350514954898,0.4579594665625311,-0.16171668626138286,0.12367538833071416,-0.21038303805572928,0.17283372822861828,-0.4874386774908032,-0.11145288308147797,-1.9464747597585124,0.13361073372761406,2.595550359778934,0.9452468986428418,0.1728802376190821,-0.48752024683155326,-0.11147110072896137,-1.9463801863486305,0.1336059019074957,2.595550359778934,0.9452445589611904,-0.00038792849449317834,0.0002074980966263492,0.0006958748941074697,0.0002110971100656582,-0.00019671998265887082,-4.69879002385105e-06,-0.00010390868322852703,0.0,0.0,0.0,0.0,0.0,0.0,0.0,4.650939046382807e-05,-8.156934075004285e-05,-1.8217647483401156e-05,9.457340988183738e-05,-4.831820118372798e-06,0.0,-2.339681651419845e-06,0.00038792849449317834,-0.0002074980966263492,-0.0006958748941074697,-0.0002110971100656582,0.00019671998265887082,4.69879002385105e-06,0.00010390868322852703,0.12130087614059448,11.973108291625977,-1.3147919178009033,-21.768831253051758,-0.3793235421180725,-2.5271639823913574,0.20083944499492645,0
32,0.1549832820892334,-0.12130087614059448,-11.973108291625977,1.3147919178009033,21.768831253051758,0.3793235421180725,2.5271639823913574,-0.20083944499492645,0.0,0.0,0.0,0.0,0.0,0.0,0.0,-0.15673721018849893,0.38583236883833905,0.12072350514954898,0.4579594665625311,-0.16171668626138286,0.12367538833071416,-0.21038303805572928,0.17283372822861828,-0.4874386774908032,-0.11145288308147797,-1.9464747597585124,0.13361073372761406,2.595550359778934,0.9452468986428418,0.1728802376190821,-0.48752024683155326,-0.11147110072896137,-1.9463801863486305,0.1336059019074957,2.595550359778934,0.9452445589611904,-0.00038792849449317834,0.0002074980966263492,0.0006958748941074697,0.0002110971100656582,-0.00019671998265887082,-4.69879002385105e-06,-0.00010390868322852703,0.0,0.0,0.0,0.0,0.0,0.0,0.0,4.650939046382807e-05,-8.156934075004285e-05,-1.8217647483401156e-05,9.457340988183738e-05,-4.831820118372798e-06,0.0,-2.339681651419845e-06,0.00038792849449317834,-0.0002074980966263492,-0.0006958748941074697,-0.0002110971100656582,0.00019671998265887082,4.69879002385105e-06,0.00010390868322852703,0.12130087614059448,11.973108291625977,-1.3147919178009033,-21.768831253051758,-0.3793235421180725,-2.5271639823913574,0.20083944499492645,0
33,0.1602184772491455,-0.22445029020309448,-11.901697158813477,1.3425629138946533,21.717256546020508,0.3674216866493225,2.5271639823913574,-0.19351522624492645,0.0,0.0,0.0,0.0,0.0,0.0,0.0,-0.15933890962824993,0.39162808464342286,0.11252431512773975,0.45542469249686374,-0.1612989022473545,0.12351597749630308,-0.21051559828963662,0.1728389313280046,-0.487443688798369,-0.11145483192330911,-1.9464711386963274,0.13361205615599947,2.5955493001408048,0.9452460848407613,0.1728802376190821,-0.48752024683155326,-0.11147110072896137,-1.9463801863486305,0.1336059019074957,2.595550359778934,0.9452445589611904,0.001615497614139641,-0.0006974515639781102,-0.0007705069381744603,0.0005927465994724347,0.00013929418873193385,-2.0802488369481095e-06,-0.00017820394384049877,0.0,0.0,0.0,0.0,0.0,0.0,0.0,4.130629107751416e-05,-7.655803318423748e-05,-1.6268805652253082e-05,9.095234769684879e-05,-6.154248503781323e-06,1.0596381292415913e-06,-1.5258795709183204e-06,-0.001615497614139641,0.0006974515639781102,0.0007705069381744603,-0.0005927465994724347,-0.00013929418873193385,2.0802488369481095e-06,0.00017820394384049877,0.22445029020309448,11.901697158813477,-1.3425629138946533,-21.717256546020508,-0.3674216866493225,-2.5271639823913574,0.19351522624492645,0
34,0.16500139236450195,-0.22445029020309448,-11.901697158813477,1.3425629138946533,21.717256546020508,0.3674216866493225,2.5271639823913574,-0.19351522624492645,0.0,0.0,0.0,0.0,0.0,0.0,0.0,-0.15933890962824993,0.39162808464342286,0.11252431512773975,0.45542469249686374,-0.1612989022473545,0.12351597749630308,-0.21051559828963662,0.1728389313280046,-0.487443688798369,-0.11145483192330911,-1.9464711386963274,0.13361205615599947,2.5955493001408048,0.9452460848407613,0.1728802376190821,-0.48752024683155326,-0.11147110072896137,-1.9463801863486305,0.1336059019074957,2.595550359778934,0.9452445589611904,0.001615497614139641,-0.0006974515639781102,-0.0007705069381744603,0.0005927465994724347,0.00013929418873193385,-2.0802488369481095e-06,-0.00017820394384049877,0.0,0.0,0.0,0.0,0.0,0.0,0.0,4.130629107751416e-05,-7.655803318423748e-05,-1.6268805652253082e-05,9.095234769684879e-05,-6.154248503781323e-06,1.0596381292415913e-06,-1.5258795709183204e-06,-0.001615497614139641,0.0006974515639781102,0.0007705069381744603,-0.0005927465994724347,-0.00013929418873193385,2.0802488369481095e-06,0.00017820394384049877,0.22445029020309448,11.901697158813477,-1.3425629138946533,-21.717256546020508,-0.3674216866493225,-2.5271639823913574,0.19351522624492645,0
35,0.17140793800354004,-0.14510458707809448,-11.925500869750977,1.2671844959259033,21.741060256958008,0.3674216866493225,2.5271639823913574,-0.16604940593242645,0.0,0.0,0.0,0.0,0.0,0.0,0.0,-0.16273661171964207,0.3893278222947308,0.11072513758501253,0.460473671818541,-0.16155217581025905,0.12502955026869178,-0.2106358327834914,0.17283309681608136,-0.4874420183625138,-0.11144954220976744,-1.946472803358348,0.13361193768256974,2.595550359772952,0.9452430330829488,0.1728802376190821,-0.48752024683155326,-0.11147110072896137,-1.9463801863486305,0.1336059019074957,2.595550359778934,0.9452445589611904,-0.0007792593978595999,0.0008168056251134528,0.000532445750869757,0.00010361048929180177,-2.692370568838971e-05,4.8923770219299126e-05,-0.0017094472825907128,0.0,0.0,0.0,0.0,0.0,0.0,0.0,4.71408030007503e-05,-7.822846903948744e-05,-2.1558519193928816e-05,9.261700971752163e-05,-6.0357750740480665e-06,5.9818816566803434e-12,1.525878241648293e-06,0.0007792593978595999,-0.0008168056251134528,-0.000532445750869757,-0.00010361048929180177,2.692370568838971e-05,-4.8923770219299126e-05,0.0017094472825907128,0.14510458707809448,11.925500869750977,-1.2671844959259033,-21.741060256958008,-0.3674216866493225,-2.5271639823913574,0.16604940593242645,0
36,0.17542695999145508,-0.14510458707809448,-11.925500869750977,1.2671844959259033,21.741060256958008,0.3674216866493225,2.5271639823913574,-0.16604940593242645,0.0,0.0,0.0,0.0,0.0,0.0,0.0,-0.16273661171964207,0.3893278222947308,0.11072513758501253,0.460473671818541,-0.16155217581025905,0.12502955026869178,-0.2106358327834914,0.17283309681608136,-0.4874420183625138,-0.11144954220976744,-1.946472803358348,0.13361193768256974,2.595550359772952,0.9452430330829488,0.1728802376190821,-0.48752024683155326,-0.11147110072896137,-1.9463801863486305,0.1336059019074957,2.595550359778934,0.9452445589611904,-0.0007792593978595999,0.0008168056251134528,0.000532445750869757,0.00010361048929180177,-2.692370568838971e-05,4.8923770219299126e-05,-0.0017094472825907128,0.0,0.0,0.0,0.0,0.0,0.0,0.0,4.71408030007503e-05,-7.822846903948744e-05,-2.1558519193928816e-05,9.261700971752163e-05,-6.0357750740480665e-06,5.9818816566803434e-12,1.525878241648293e-06,0.0007792593978595999,-0.0008168056251134528,-0.000532445750869757,-0.00010361048929180177,2.692370568838971e-05,-4.8923770219299126e-05,0.0017094472825907128,0.14510458707809448,11.925500869750977,-1.2671844959259033,-21.741060256958008,-0.3674216866493225,-2.5271639823913574,0.16604940593242645,0
37,0.1800069808959961,-0.19667929410934448,-11.901697158813477,1.3147919178009033,21.741060256958008,0.3674216866493225,2.5335726737976074,-0.20724813640117645,0.0,0.0,0.0,0.0,0.0,0.0,0.0,-0.1634645518457583,0.38505180844339343,0.11514885065671078,0.46641735237274395,-0.16283851913717567,0.12613113607703844,-0.21118380290116168,0.17283593197147507,-0.487443688798369,-0.11145288308147797,-1.9464707371689742,0.13361205615577657,2.595549647702111,0.9452476107196676,0.1728802376190821,-0.48752024683155326,-0.11147110072896137,-1.9463801863486305,0.1336059019074957,2.595550359778934,0.9452445589611904,2.0387070205414917e-05,-0.00033873897276955934,-0.0006447511121769135,0.0001293578219639246,0.00016451267967940064,-0.00023003047681512877,0.0007130998468221186,0.0,0.0,0.0,0.0,0.0,0.0,0.0,4.4305647607045806e-05,-7.655803318423748e-05,-1.8217647483401156e-05,9.055082034370443e-05,-6.1542482808762955e-06,7.120768228396912e-07,-3.051758477146116e-06,-2.0387070205414917e-05,0.00033873897276955934,0.0006447511121769135,-0.0001293578219639246,-0.00016451267967940064,0.00023003047681512877,-0.0007130998468221186,0.19667929410934448,11.901697158813477,-1.3147919178009033,-21.741060256958008,-0.3674216866493225,-2.5335726737976074,0.20724813640117645,0
38,0.18500041961669922,-0.19667929410934448,-11.901697158813477,1.3147919178009033,21.741060256958008,0.3674216866493225,2.5335726737976074,-0.20724813640117645,0.0,0.0,0.0,0.0,0.0,0.0,0.0,-0.1634645518457583,0.38505180844339343,0.11514885065671078,0.46641735237274395,-0.16283851913717567,0.12613113607703844,-0.21118380290116168,0.17283593197147507,-0.487443688798369,-0.11145288308147797,-1.9464707371689742,0.13361205615577657,2.595549647702111,0.9452476107196676,0.1728802376190821,-0.48752024683155326,-0.11147110072896137,-1.9463801863486305,0.1336059019074957,2.595550359778934,0.9452445589611904,2.0387070205414917e-05,-0.00033873897276955934,-0.0006447511121769135,0.0001293578219639246,0.00016451267967940064,-0.00023003047681512877,0.0007130998468221186,0.0,0.0,0.0,0.0,0.0,0.0,0.0,4.4305647607045806e-05,-7.655803318423748e-05,-1.8217647483401156e-05,9.055082034370443e-05,-6.1542482808762955e-06,7.120768228396912e-07,-3.051758477146116e-06,-2.0387070205414917e-05,0.00033873897276955934,0.0006447511121769135,-0.0001293578219639246,-0.00016451267967940064,0.00023003047681512877,-0.0007130998468221186,0.19667929410934448,11.901697158813477,-1.3147919178009033,-21.741060256958008,-0.3674216866493225,-2.5335726737976074,0.20724813640117645,0
39,0.18999910354614258,-0.19667929410934448,-11.949304580688477,1.2909882068634033,21.741060256958008,0.3619285225868225,2.5271639823913574,-0.21457235515117645,0.0,0.0,0.0,0.0,0.0,0.0,0.0,-0.16425450518983778,0.38898512165140864,0.12037968292234007,0.4658555093708246,-0.16313061664175046,0.1262005990686988,-0.21008488749585208,0.17283884623510432,-0.4874403479266585,-0.1114512126456227,-1.9464707455555683,0.13361266650756198,2.595550359778934,0.9452484245217508,0.1728802376190821,-0.48752024683155326,-0.11147110072896137,-1.9463801863486305,0.1336059019074957,2.595550359778934,0.9452445589611904,0.0010143656919947366,0.0003421806171117299,0.0005502254999428728,0.0002474288808420389,0.000334985306102089,-5.709408995046419e-05,0.0008680998848566454,0.0,0.0,0.0,0.0,0.0,0.0,0.0,4.139138397779574e-05,-7.989890489473739e-05,-1.9888083338664986e-05,9.055920693779029e-05,-6.764600066294646e-06,0.0,-3.865560560423198e-06,-0.0010143656919947366,-0.0003421806171117299,-0.0005502254999428728,-0.0002474288808420389,-0.000334985306102089,5.709408995046419e-05,-0.0008680998848566454,0.19667929410934448,11.949304580688477,-1.2909882068634033,-21.741060256958008,-0.3619285225868225,-2.5271639823913574,0.21457235515117645,0
40,0.19500160217285156,-0.19667929410934448,-11.949304580688477,1.2909882068634033,21.741060256958008,0.3619285225868225,2.5271639823913574,-0.21457235515117645,0.0,0.0,0.0,0.0,0.0,0.0,0.0,-0.16425450518983778,0.38898512165140864,0.12037968292234007,0.4658555093708246,-0.16313061664175046,0.1262005990686988,-0.21008488749585208,0.17283884623510432,-0.4874403479266585,-0.1114512126456227,-1.9464707455555683,0.13361266650756198,2.595550359778934,0.9452484245217508,0.1728802376190821,-0.48752024683155326,-0.11147110072896137,-1.9463801863486305,0.1336059019074957,2.595550359778934,0.9452445589611904,0.0010143656919947366,0.0003421806171117299,0.0005502254999428728,0.0002474288808420389,0.000334985306102089,-5.709408995046419e-05,0.0008680998848566454,0.0,0.0,0.0,0.0,0.0,0.0,0.0,4.139138397779574e-05,-7.989890489473739e-05,-1.9888083338664986e-05,9.055920693779029e-05,-6.764600066294646e-06,0.0,-3.865560560423198e-06,-0.0010143656919947366,-0.0003421806171117299,-0.0005502254999428728,-0.0002474288808420389,-0.000334985306102089,5.709408995046419e-05,-0.0008680998848566454,0.19667929410934448,11.949304580688477,-1.2909882068634033,-21.741060256958008,-0.3619285225868225,-2.5271639823913574,0.21457235515117645,0
41,0.19999909400939941,-0.12130087614059448,-11.973108291625977,1.3147919178009033,21.768831253051758,0.3619285225868225,2.5271639823913574,-0.22830526530742645,0.0,0.0,0.0,0.0,0.0,0.0,0.0,-0.15880456242368657,0.41664341492707074,0.12405600206607557,0.45101993055285244,-0.1632091991584736,0.12412895462145007,-0.2089668114694552,0.17283311003766047,-0.4874386774908032,-0.11145288308147797,-1.946474037703982,0.13361266650756198,2.595550359778934,0.9452499504006571,0.1728802376190821,-0.48752024683155326,-0.11147110072896137,-1.9463801863486305,0.1336059019074957,2.595550359778934,0.9452445589611904,-0.0002612489617371798,-0.004423270819618415,0.00034150540383816,-0.00014842892351480747,0.0002512574051207072,6.205922748762441e-05,0.0015114075231620787,0.0,0.0,0.0,0.0,0.0,0.0,0.0,4.7127581421640974e-05,-8.156934075004285e-05,-1.8217647483401156e-05,9.385135535144862e-05,-6.764600066294646e-06,0.0,-5.3914394666509935e-06,0.0002612489617371798,0.004423270819618415,-0.00034150540383816,0.00014842892351480747,-0.0002512574051207072,-6.205922748762441e-05,-0.0015114075231620787,0.12130087614059448,11.973108291625977,-1.3147919178009033,-21.768831253051758,-0.3619285225868225,-2.5271639823913574,0.22830526530742645,0
42,0.20528340339660645,-0.12130087614059448,-11.973108291625977,1.3147919178009033,21.768831253051758,0.3619285225868225,2.5271639823913574,-0.22830526530742645,0.0,0.0,0.0,0.0,0.0,0.0,0.0,-0.15880456242368657,0.41664341492707074,0.12405600206607557,0.45101993055285244,-0.1632091991584736,0.12412895462145007,-0.2089668114694552,0.17283311003766047,-0.4874386774908032,-0.11145288308147797,-1.946474037703982,0.13361266650756198,2.595550359778934,0.9452499504006571,0.1728802376190821,-0.48752024683155326,-0.11147110072896137,-1.9463801863486305,0.1336059019074957,2.595550359778934,0.9452445589611904,-0.0002612489617371798,-0.004423270819618415,0.00034150540383816,-0.00014842892351480747,0.0002512574051207072,6.205922748762441e-05,0.0015114075231620787,0.0,0.0,0.0,0.0,0.0,0.0,0.0,4.7127581421640974e-05,-8.156934075004285e-05,-1.8217647483401156e-05,9.385135535144862e-05,-6.764600066294646e-06,0.0,-5.3914394666509935e-06,0.0002612489617371798,0.004423270819618415,-0.00034150540383816,0.00014842892351480747,-0.0002512574051207072,-6.205922748762441e-05,-0.0015114075231620787,0.12130087614059448,11.973108291625977,-1.3147919178009033,-21.768831253051758,-0.3619285225868225,-2.5271639823913574,0.22830526530742645,0
43,0.20999646186828613,-0.19667929410934448,-11.925500869750977,1.2909882068634033,21.741060256958008,0.3738303780555725,2.5143465995788574,-0.21457235515117645,0.0,0.0,0.0,0.0,0.0,0.0,0.0,-0.1559915355307119,0.45918296866522335,0.11627054825154218,0.4300262784646127,-0.1634571046549174,0.12077701648714835,-0.20848287212256075,0.172839108669699,-0.4874420183625138,-0.1114512126456227,-1.9464721231977455,0.13361134407917655,2.5955517839325797,0.9452484245217508,0.1728802376190821,-0.48752024683155326,-0.11147110072896137,-1.9463801863486305,0.1336059019074957,2.595550359778934,0.9452445589611904,0.001313147965894741,-0.0003637203460574083,0.0008200710183424158,0.000586741898605898,-0.00010243245118102411,0.00041297733665389755,0.0006126735979357804,0.0,0.0,0.0,0.0,0.0,0.0,0.0,4.11289493831013e-05,-7.822846903948744e-05,-1.9888083338664986e-05,9.19368491150152e-05,-5.442171680858365e-06,-1.4241536456793824e-06,-3.865560560423198e-06,-0.001313147965894741,0.0003637203460574083,-0.0008200710183424158,-0.000586741898605898,0.00010243245118102411,-0.00041297733665389755,-0.0006126735979357804,0.19667929410934448,11.925500869750977,-1.2909882068634033,-21.741060256958008,-0.3738303780555725,-2.5143465995788574,0.21457235515117645,0
44,0.2149958610534668,-0.19667929410934448,-11.925500869750977,1.2909882068634033,21.741060256958008,0.3738303780555725,2.5143465995788574,-0.21457235515117645,0.0,0.0,0.0,0.0,0.0,0.0,0.0,-0.1559915355307119,0.45918296866522335,0.11627054825154218,0.4300262784646127,-0.1634571046549174,0.12077701648714835,-0.20848287212256075,0.172839108669699,-0.4874420183625138,-0.1114512126456227,-1.9464721231977455,0.13361134407917655,2.5955517839325797,0.9452484245217508,0.1728802376190821,-0.48752024683155326,-0.11147110072896137,-1.9463801863486305,0.1336059019074957,2.595550359778934,0.9452445589611904,0.001313147965894741,-0.0003637203460574083,0.0008200710183424158,0.000586741898605898,-0.00010243245118102411,0.00041297733665389755,0.0006126735979357804,0.0,0.0,0.0,0.0,0.0,0.0,0.0,4.11289493831013e-05,-7.822846903948744e-05,-1.9888083338664986e-05,9.19368491150152e-05,-5.442171680858365e-06,-1.4241536456793824e-06,-3.865560560423198e-06,-0.001313147965894741,0.0003637203460574083,-0.0008200710183424158,-0.000586741898605898,0.00010243245118102411,-0.00041297733665389755,-0.0006126735979357804,0.19667929410934448,11.925500869750977,-1.2909882068634033,-21.741060256958008,-0.3738303780555725,-2.5143465995788574,0.21457235515117645,0
45,0.21999335289001465,-0.14510458707809448,-11.949304580688477,1.2909882068634033,21.741060256958008,0.3793235421180725,2.5143465995788574,-0.20724813640117645,0.0,0.0,0.0,0.0,0.0,0.0,0.0,-0.16054757978049192,0.376053330576284,0.10992077887858495,0.4684685332123912,-0.16243701844352004,0.12679890585737652,-0.2080362808216851,0.17283539903027617,-0.4874403479266585,-0.1114512126456227,-1.9464727864179239,0.13361073372761406,2.5955517839325797,0.9452476107196676,0.1728802376190821,-0.48752024683155326,-0.11147110072896137,-1.9463801863486305,0.1336059019074957,2.595550359778934,0.9452445589611904,-0.00032458501070149596,0.0003227870873633338,0.0002260266966856914,-6.213490178112975e-05,-0.00032487242079417086,0.0003593637508138162,0.0003960643752371476,0.0,0.0,0.0,0.0,0.0,0.0,0.0,4.483858880593994e-05,-7.989890489473739e-05,-1.9888083338664986e-05,9.260006929334708e-05,-4.831820118372798e-06,-1.4241536456793824e-06,-3.051758477146116e-06,0.00032458501070149596,-0.0003227870873633338,-0.0002260266966856914,6.213490178112975e-05,0.00032487242079417086,-0.0003593637508138162,-0.0003960643752371476,0.14510458707809448,11.949304580688477,-1.2909882068634033,-21.741060256958008,-0.3793235421180725,-2.5143465995788574,0.20724813640117645,0
46,0.22499871253967285,-0.14510458707809448,-11.949304580688477,1.2909882068634033,21.741060256958008,0.3793235421180725,2.5143465995788574,-0.20724813640117645,0.0,0.0,0.0,0.0,0.0,0.0,0.0,-0.16054757978049192,0.376053330576284,0.10992077887858495,0.4684685332123912,-0.16243701844352004,0.12679890585737652,-0.2080362808216851,0.17283539903027617,-0.4874403479266585,-0.1114512126456227,-1.9464727864179239,0.13361073372761406,2.5955517839325797,0.9452476107196676,0.1728802376190821,-0.48752024683155326,-0.11147110072896137,-1.9463801863486305,0.1336059019074957,2.595550359778934,0.9452445589611904,-0.00032458501070149596,0.0003227870873633338,0.0002260266966856914,-6.213490178112975e-05,-0.00032487242079417086,0.0003593637508138162,0.0003960643752371476,0.0,0.0,0.0,0.0,0.0,0.0,0.0,4.483858880593994e-05,-7.989890489473739e-05,-1.9888083338664986e-05,9.260006929334708e-05,-4.831820118372798e-06,-1.4241536456793824e-06,-3.051758477146116e-06,0.00032458501070149596,-0.0003227870873633338,-0.0002260266966856914,6.213490178112975e-05,0.00032487242079417086,-0.0003593637508138162,-0.0003960643752371476,0.14510458707809448,11.949304580688477,-1.2909882068634033,-21.741060256958008,-0.3793235421180725,-2.5143465995788574,0.20724813640117645,0
47,0.2299971580505371,-0.19667929410934448,-11.949304580688477,1.2909882068634033,21.741060256958008,0.3619285225868225,2.5271639823913574,-0.19351522624492645,0.0,0.0,0.0,0.0,0.0,0.0,0.0,-0.15561910891847305,0.37047472237885887,0.11732083514192322,0.4693985232203004,-0.16253297071238965,0.12652607741881516,-0.20834684134964615,0.17283901981954847,-0.4874403479266585,-0.1114512126456227,-1.9464728119664674,0.13361266650756198,2.595550359778934,0.9452460848407613,0.1728802376190821,-0.48752024683155326,-0.11147110072896137,-1.9463801863486305,0.1336059019074957,2.595550359778934,0.9452445589611904,0.0007101402541305643,0.0001744153240984606,0.0005008668666760505,3.592845640432317e-05,0.00031369147780324505,-0.00037460110347709095,-0.0005775957443455256,0.0,0.0,0.0,0.0,0.0,0.0,0.0,4.1217799533643795e-05,-7.989890489473739e-05,-1.9888083338664986e-05,9.262561783685008e-05,-6.764600066294646e-06,0.0,-1.5258795709183204e-06,-0.0007101402541305643,-0.0001744153240984606,-0.0005008668666760505,-3.592845640432317e-05,-0.00031369147780324505,0.00037460110347709095,0.0005775957443455256,0.19667929410934448,11.949304580688477,-1.2909882068634033,-21.741060256958008,-0.3619285225868225,-2.5271639823913574,0.19351522624492645,0
48,0.23499417304992676,-0.19667929410934448,-11.949304580688477,1.2909882068634033,21.741060256958008,0.3619285225868225,2.5271639823913574,-0.19351522624492645,0.0,0.0,0.0,0.0,0.0,0.0,0.0,-0.15561910891847305,0.37047472237885887,0.11732083514192322,0.4693985232203004,-0.16253297071238965,0.12652607741881516,-0.20834684134964615,0.17283901981954847,-0.4874403479266585,-0.1114512126456227,-1.9464728119664674,0.13361266650756198,2.595550359778934,0.9452460848407613,0.1728802376190821,-0.48752024683155326,-0.11147110072896137,-1.9463801863486305,0.1336059019074957,2.595550359778934,0.9452445589611904,0.0007101402541305643,0.0001744153240984606,0.0005008668666760505,3.592845640432317e-05,0.00031369147780324505,-0.00037460110347709095,-0.0005775957443455256,0.0,0.0,0.0,0.0,0.0,0.0,0.0,4.1217799533643795e-05,-7.989890489473739e-05,-1.9888083338664986e-05,9.262561783685008e-05,-6.764600066294646e-06,0.0,-1.5258795709183204e-06,-0.0007101402541305643,-0.0001744153240984606,-0.0005008668666760505,-3.592845640432317e-05,-0.00031369147780324505,0.00037460110347709095,0.0005775957443455256,0.19667929410934448,11.949304580688477,-1.2909882068634033,-21.741060256958008,-0.3619285225868225,-2.5271639823913574,0.19351522624492645,0
49,0.2400074005126953,-0.14510458707809448,-11.925500869750977,1.3147919178009033,21.768831253051758,0.3674216866493225,2.5143465995788574,-0.17978231608867645,0.0,0.0,0.0,0.0,0.0,0.0,0.0,-0.15876869351732575,0.3588660248712727,0.11358956556767547,0.47359665618733526,-0.16213035877264248,0.12623721125347662,-0.209592004133271,0.17283469914533114,-0.4874420183625138,-0.11145288308147797,-1.9464726859058428,0.13361205615599947,2.595551744686723,0.945244558961855,0.1728802376190821,-0.48752024683155326,-0.11147110072896137,-1.9463801863486305,0.1336059019074957,2.595550359778934,0.9452445589611904,-0.00036372567757095075,-0.0011014720376416234,-0.0003854177433676555,-0.0006338910938556491,0.00022299682724028516,0.00038594136890299067,-0.0012944022359272528,0.0,0.0,0.0,0.0,0.0,0.0,0.0,4.553847375096676e-05,-7.822846903948744e-05,-1.8217647483401156e-05,9.249955721224445e-05,-6.154248503781323e-06,-1.3849077888927752e-06,-6.645795025406187e-13,0.00036372567757095075,0.0011014720376416234,0.0003854177433676555,0.0006338910938556491,-0.00022299682724028516,-0.00038594136890299067,0.0012944022359272528,0.14510458707809448,11.925500869750977,-1.3147919178009033,-21.768831253051758,-0.3674216866493225,-2.5143465995788574,0.17978231608867645,0
50,0.2449963092803955,-0.14510458707809448,-11.925500869750977,1.3147919178009033,21.768831253051758,0.3674216866493225,2.5143465995788574,-0.17978231608867645,0.0,0.0,0.0,0.0,0.0,0.0,0.0,-0.15876869351732575,0.3588660248712727,0.11358956556767547,0.47359665618733526,-0.16213035877264248,0.12623721125347662,-0.209592004133271,0.17283469914533114,-0.4874420183625138,-0.11145288308147797,-1.9464726859058428,0.13361205615599947,2.595551744686723,0.945244558961855,0.1728802376190821,-0.48752024683155326,-0.11147110072896137,-1.9463801863486305,0.1336059019074957,2.595550359778934,0.9452445589611904,-0.00036372567757095075,-0.0011014720376416234,-0.0003854177433676555,-0.0006338910938556491,0.00022299682724028516,0.00038594136890299067,-0.0012944022359272528,0.0,0.0,0.0,0.0,0.0,0.0,0.0,4.553847375096676e-05,-7.822846903948744e-05,-1.8217647483401156e-05,9.249955721224445e-05,-6.154248503781323e-06,-1.3849077888927752e-06,-6.645795025406187e-13,0.00036372567757095075,0.0011014720376416234,0.0003854177433676555,0.0006338910938556491,-0.00022299682724028516,-0.00038594136890299067,0.0012944022359272528,0.14510458707809448,11.925500869750977,-1.3147919178009033,-21.768831253051758,-0.3674216866493225,-2.5143465995788574,0.17978231608867645,0
51,0.2500019073486328,-0.17287558317184448,-11.973108291625977,1.3147919178009033,21.717256546020508,0.3674216866493225,2.5335726737976074,-0.17978231608867645,0.0,0.0,0.0,0.0,0.0,0.0,0.0,-0.15459334137825287,0.37136871828859486,0.11710670292537906,0.4644676441461086,-0.16202495288619337,0.12397437431983489,-0.2102775674034807,0.17283506741380888,-0.4874386774908032,-0.11145288308147797,-1.9464711415268519,0.13361209564714274,2.5955496477020374,0.945244558961855,0.1728802376190821,-0.48752024683155326,-0.11147110072896137,-1.9463801863486305,0.1336059019074957,2.595550359778934,0.9452445589611904,0.0006560249325802733,-2.6544439756422597e-05,8.1877526197903e-05,0.0006710857946693916,4.486305206367598e-05,-0.00046196070150269976,-0.0007890316764785776,0.0,0.0,0.0,0.0,0.0,0.0,0.0,4.517020527322613e-05,-8.156934075004285e-05,-1.8217647483401156e-05,9.095517822133026e-05,-6.193739647053498e-06,7.120768965585e-07,-6.645795025406187e-13,-0.0006560249325802733,2.6544439756422597e-05,-8.1877526197903e-05,-0.0006710857946693916,-4.486305206367598e-05,0.00046196070150269976,0.0007890316764785776,0.17287558317184448,11.973108291625977,-1.3147919178009033,-21.717256546020508,-0.3674216866493225,-2.5335726737976074,0.17978231608867645,0
52,0.25499987602233887,-0.17287558317184448,-11.973108291625977,1.3147919178009033,21.717256546020508,0.3674216866493225,2.5335726737976074,-0.17978231608867645,0.0,0.0,0.0,0.0,0.0,0.0,0.0,-0.15459334137825287,0.37136871828859486,0.11710670292537906,0.4644676441461086,-0.16202495288619337,0.12397437431983489,-0.2102775674034807,0.17283506741380888,-0.4874386774908032,-0.11145288308147797,-1.9464711415268519,0.13361209564714274,2.5955496477020374,0.945244558961855,0.1728802376190821,-0.48752024683155326,-0.11147110072896137,-1.9463801863486305,0.1336059019074957,2.595550359778934,0.9452445589611904,0.0006560249325802733,-2.6544439756422597e-05,8.1877526197903e-05,0.0006710857946693916,4.486305206367598e-05,-0.00046196070150269976,-0.0007890316764785776,0.0,0.0,0.0,0.0,0.0,0.0,0.0,4.517020527322613e-05,-8.156934075004285e-05,-1.8217647483401156e-05,9.095517822133026e-05,-6.193739647053498e-06,7.120768965585e-07,-6.645795025406187e-13,-0.0006560249325802733,2.6544439756422597e-05,-8.1877526197903e-05,-0.0006710857946693916,-4.486305206367598e-05,0.00046196070150269976,0.0007890316764785776,0.17287558317184448,11.973108291625977,-1.3147919178009033,-21.717256546020508,-0.3674216866493225,-2.5335726737976074,0.17978231608867645,0
53,0.26001954078674316,-0.17287558317184448,-11.973108291625977,1.3147919178009033,21.717256546020508,0.3674216866493225,2.5335726737976074,-0.17978231608867645,0.0,0.0,0.0,0.0,0.0,0.0,0.0,-0.15459334137825287,0.37136871828859486,0.11710670292537906,0.4644676441461086,-0.16202495288619337,0.12397437431983489,-0.2102775674034807,0.17283506741380888,-0.4874386774908032,-0.11145288308147797,-1.9464711415268519,0.13361209564714274,2.5955496477020374,0.945244558961855,0.1728802376190821,-0.48752024683155326,-0.11147110072896137,-1.9463801863486305,0.1336059019074957,2.595550359778934,0.9452445589611904,0.0006560249325802733,-2.6544439756422597e-05,8.1877526197903e-05,0.0006710857946693916,4.486305206367598e-05,-0.00046196070150269976,-0.0007890316764785776,0.0,0.0,0.0,0.0,0.0,0.0,0.0,4.517020527322613e-05,-8.156934075004285e-05,-1.8217647483401156e-05,9.095517822133026e-05,-6.193739647053498e-06,7.120768965585e-07,-6.645795025406187e-13,-0.0006560249325802733,2.6544439756422597e-05,-8.1877526197903e-05,-0.0006710857946693916,-4.486305206367598e-05,0.00046196070150269976,0.0007890316764785776,0.17287558317184448,11.973108291625977,-1.3147919178009033,-21.717256546020508,-0.3674216866493225,-2.5335726737976074,0.17978231608867645,0
54,0.2650604248046875,-0.17287558317184448,-11.973108291625977,1.3147919178009033,21.717256546020508,0.3674216866493225,2.5335726737976074,-0.17978231608867645,0.0,0.0,0.0,0.0,0.0,0.0,0.0,-0.15459334137825287,0.37136871828859486,0.11710670292537906,0.4644676441461086,-0.16202495288619337,0.12397437431983489,-0.2102775674034807,0.17283506741380888,-0.4874386774908032,-0.11145288308147797,-1.9464711415268519,0.13361209564714274,2.5955496477020374,0.945244558961855,0.1728802376190821,-0.48752024683155326,-0.11147110072896137,-1.9463801863486305,0.1336059019074957,2.595550359778934,0.9452445589611904,0.0006560249325802733,-2.6544439756422597e-05,8.1877526197903e-05,0.0006710857946693916,4.486305206367598e-05,-0.00046196070150269976,-0.0007890316764785776,0.0,0.0,0.0,0.0,0.0,0.0,0.0,4.517020527322613e-05,-8.156934075004285e-05,-1.8217647483401156e-05,9.095517822133026e-05,-6.193739647053498e-06,7.120768965585e-07,-6.645795025406187e-13,-0.0006560249325802733,2.6544439756422597e-05,-8.1877526197903e-05,-0.0006710857946693916,-4.486305206367598e-05,0.00046196070150269976,0.0007890316764785776,0.17287558317184448,11.973108291625977,-1.3147919178009033,-21.717256546020508,-0.3674216866493225,-2.5335726737976074,0.17978231608867645,0
55,0.26999568939208984,-0.14510458707809448,-11.949304580688477,1.3663666248321533,21.717256546020508,0.3738303780555725,2.5207552909851074,-0.21457235515117645,0.0,0.0,0.0,0.0,0.0,0.0,0.0,-0.15753266294880933,0.37339013862415166,0.11193083331134263,0.46302371682632376,-0.16209969342371444,0.12404225206075947,-0.21071805227482612,0.17283466662238495,-0.4874403479266585,-0.11145650235916438,-1.9464711074127017,0.13361134407939948,2.595551071855757,0.9452484647487539,0.1728802376190821,-0.48752024683155326,-0.11147110072896137,-1.9463801863486305,0.1336059019074957,2.595550359778934,0.9452445589611904,-0.0003020023986192045,-0.00021035569936778836,-0.001262929507013826,0.001045839767536917,-0.00015299404484310494,0.00015043448436503052,0.0002434101283056879,0.0,0.0,0.0,0.0,0.0,0.0,0.0,4.5570996697164023e-05,-7.989890489473739e-05,-1.4598369796989252e-05,9.092106407115885e-05,-5.442171903791149e-06,-7.120768228396912e-07,-3.905787563485141e-06,0.0003020023986192045,0.00021035569936778836,0.001262929507013826,-0.001045839767536917,0.00015299404484310494,-0.00015043448436503052,-0.0002434101283056879,0.14510458707809448,11.949304580688477,-1.3663666248321533,-21.717256546020508,-0.3738303780555725,-2.5207552909851074,0.21457235515117645,0
56,0.275005578994751,-0.14510458707809448,-11.949304580688477,1.3663666248321533,21.717256546020508,0.3738303780555725,2.5207552909851074,-0.21457235515117645,0.0,0.0,0.0,0.0,0.0,0.0,0.0,-0.15753266294880933,0.37339013862415166,0.11193083331134263,0.46302371682632376,-0.16209969342371444,0.12404225206075947,-0.21071805227482612,0.17283466662238495,-0.4874403479266585,-0.11145650235916438,-1.9464711074127017,0.13361134407939948,2.595551071855757,0.9452484647487539,0.1728802376190821,-0.48752024683155326,-0.11147110072896137,-1.9463801863486305,0.1336059019074957,2.595550359778934,0.9452445589611904,-0.0003020023986192045,-0.00021035569936778836,-0.001262929507013826,0.001045839767536917,-0.00015299404484310494,0.00015043448436503052,0.0002434101283056879,0.0,0.0,0.0,0.0,0.0,0.0,0.0,4.5570996697164023e-05,-7.989890489473739e-05,-1.4598369796989252e-05,9.092106407115885e-05,-5.442171903791149e-06,-7.120768228396912e-07,-3.905787563485141e-06,0.0003020023986192045,0.00021035569936778836,0.001262929507013826,-0.001045839767536917,0.00015299404484310494,-0.00015043448436503052,-0.0002434101283056879,0.14510458707809448,11.949304580688477,-1.3663666248321533,-21.717256546020508,-0.3738303780555725,-2.5207552909851074,0.21457235515117645,0
57,0.27998948097229004,-0.17287558317184448,-11.901697158813477,1.3147919178009033,21.792634963989258,0.3674216866493225,2.5271639823913574,-0.17978231608867645,0.0,0.0,0.0,0.0,0.0,0.0,0.0,-0.15979360394916092,0.3821918012082396,0.1097551630608498,0.46041386087057445,-0.16189644534783804,0.12431485535625542,-0.21129922007315502,0.1728367294921952,-0.487443688798369,-0.11145285683581134,-1.946476201655844,0.1336120561559995,2.595550359778934,0.945244558962082,0.1728802376190821,-0.48752024683155326,-0.11147110072896137,-1.9463801863486305,0.1336059019074957,2.595550359778934,0.9452445589611904,1.9889384470258505e-05,-0.0006717680031802106,-0.0004865866331679504,-0.0013466773534195047,0.00017670394620219408,0.00012123263469786865,-0.0007916670652142049,0.0,0.0,0.0,0.0,0.0,0.0,0.0,4.35081268869153e-05,-7.655803318423748e-05,-1.824389315002728e-05,9.60153072133707e-05,-6.154248503809079e-06,0.0,-8.916201110764632e-13,-1.9889384470258505e-05,0.0006717680031802106,0.0004865866331679504,0.0013466773534195047,-0.00017670394620219408,-0.00012123263469786865,0.0007916670652142049,0.17287558317184448,11.901697158813477,-1.3147919178009033,-21.792634963989258,-0.3674216866493225,-2.5271639823913574,0.17978231608867645,0
58,0.28502893447875977,-0.17287558317184448,-11.901697158813477,1.3147919178009033,21.792634963989258,0.3674216866493225,2.5271639823913574,-0.17978231608867645,0.0,0.0,0.0,0.0,0.0,0.0,0.0,-0.15979360394916092,0.3821918012082396,0.1097551630608498,0.46041386087057445,-0.16189644534783804,0.12431485535625542,-0.21129922007315502,0.1728367294921952,-0.487443688798369,-0.11145285683581134,-1.946476201655844,0.1336120561559995,2.595550359778934,0.945244558962082,0.1728802376190821,-0.48752024683155326,-0.11147110072896137,-1.9463801863486305,0.1336059019074957,2.595550359778934,0.9452445589611904,1.9889384470258505e-05,-0.0006717680031802106,-0.0004865866331679504,-0.0013466773534195047,0.00017670394620219408,0.00012123263469786865,-0.0007916670652142049,0.0,0.0,0.0,0.0,0.0,0.0,0.0,4.35081268869153e-05,-7.655803318423748e-05,-1.824389315002728e-05,9.60153072133707e-05,-6.154248503809079e-06,0.0,-8.916201110764632e-13,-1.9889384470258505e-05,0.0006717680031802106,0.0004865866331679504,0.0013466773534195047,-0.00017670394620219408,-0.00012123263469786865,0.0007916670652142049,0.17287558317184448,11.901697158813477,-1.3147919178009033,-21.792634963989258,-0.3674216866493225,-2.5271639823913574,0.17978231608867645,0
59,0.2899949550628662,-0.17287558317184448,-11.901697158813477,1.2671844959259033,21.741060256958008,0.3619285225868225,2.5271639823913574,-0.20083944499492645,0.0,0.0,0.0,0.0,0.0,0.0,0.0,-0.162257565572002,0.3847567642273051,0.11444273906330552,0.46426370145519974,-0.16197363376963364,0.12521258243399602,-0.2113488641870813,0.1728374110161164,-0.487443688798369,-0.11144954220961928,-1.9464728119653156,0.133612666507562,2.595550359778934,0.9452468986428446,0.1728802376190821,-0.48752024683155326,-0.11147110072896137,-1.9463801863486305,0.1336059019074957,2.595550359778934,0.9452445589611904,-0.0006595758922317346,-0.0001265485982370869,0.0009470624705378253,0.00028873557139208803,0.0004111421181663934,2.71879131730803e-05,0.00042773433547846595,0.0,0.0,0.0,0.0,0.0,0.0,0.0,4.2826602965700955e-05,-7.655803318423748e-05,-2.1558519342088078e-05,9.262561668510472e-05,-6.7646000663224015e-06,0.0,-2.3396816541954024e-06,0.0006595758922317346,0.0001265485982370869,-0.0009470624705378253,-0.00028873557139208803,-0.0004111421181663934,-2.71879131730803e-05,-0.00042773433547846595,0.17287558317184448,11.901697158813477,-1.2671844959259033,-21.741060256958008,-0.3619285225868225,-2.5271639823913574,0.20083944499492645,0
60,0.2950010299682617,-0.17287558317184448,-11.901697158813477,1.2671844959259033,21.741060256958008,0.3619285225868225,2.5271639823913574,-0.20083944499492645,0.0,0.0,0.0,0.0,0.0,0.0,0.0,-0.162257565572002,0.3847567642273051,0.11444273906330552,0.46426370145519974,-0.16197363376963364,0.12521258243399602,-0.2113488641870813,0.1728374110161164,-0.487443688798369,-0.11144954220961928,-1.9464728119653156,0.133612666507562,2.595550359778934,0.9452468986428446,0.1728802376190821,-0.48752024683155326,-0.11147110072896137,-1.9463801863486305,0.1336059019074957,2.595550359778934,0.9452445589611904,-0.0006595758922317346,-0.0001265485982370869,0.0009470624705378253,0.00028873557139208803,0.0004111421181663934,2.71879131730803e-05,0.00042773433547846595,0.0,0.0,0.0,0.0,0.0,0.0,0.0,4.2826602965700955e-05,-7.655803318423748e-05,-2.1558519342088078e-05,9.262561668510472e-05,-6.7646000663224015e-06,0.0,-2.3396816541954024e-06,0.0006595758922317346,0.0001265485982370869,-0.0009470624705378253,-0.00028873557139208803,-0.0004111421181663934,-2.71879131730803e-05,-0.00042773433547846595,0.17287558317184448,11.901697158813477,-1.2671844959259033,-21.741060256958008,-0.3619285225868225,-2.5271639823913574,0.20083944499492645,0
61,0.29999375343322754,-0.14510458707809448,-11.925500869750977,1.3425629138946533,21.741060256958008,0.3738303780555725,2.5143465995788574,-0.22098104655742645,0.0,0.0,0.0,0.0,0.0,0.0,0.0,-0.16590531427618752,0.38854734226841803,0.11611755771001303,0.4656447096038468,-0.16221430877069049,0.1253268422084639,-0.21059930108249172,0.17283477097024,-0.4874420183625138,-0.11145483192330911,-1.9464728109168252,0.13361134407917657,2.595551783771074,0.9452491365985738,0.1728802376190821,-0.48752024683155326,-0.11147110072896137,-1.9463801863486305,0.1336059019074957,2.595550359778934,0.9452445589611904,-0.0010553076660982333,0.00030616074433587027,-0.000998321570802425,0.0001770324019269778,-0.00014816629319397296,0.00033550860559621937,0.0012672462659148519,0.0,0.0,0.0,0.0,0.0,0.0,0.0,4.546664884211293e-05,-7.822846903948744e-05,-1.6268805652253082e-05,9.262456819469911e-05,-5.442171680886121e-06,-1.4239921402037226e-06,-4.5776373833739115e-06,0.0010553076660982333,-0.00030616074433587027,0.000998321570802425,-0.0001770324019269778,0.00014816629319397296,-0.00033550860559621937,-0.0012672462659148519,0.14510458707809448,11.925500869750977,-1.3425629138946533,-21.741060256958008,-0.3738303780555725,-2.5143465995788574,0.22098104655742645,0
62,0.30499744415283203,-0.14510458707809448,-11.925500869750977,1.3425629138946533,21.741060256958008,0.3738303780555725,2.5143465995788574,-0.22098104655742645,0.0,0.0,0.0,0.0,0.0,0.0,0.0,-0.16590531427618752,0.38854734226841803,0.11611755771001303,0.4656447096038468,-0.16221430877069049,0.1253268422084639,-0.21059930108249172,0.17283477097024,-0.4874420183625138,-0.11145483192330911,-1.9464728109168252,0.13361134407917657,2.595551783771074,0.9452491365985738,0.1728802376190821,-0.48752024683155326,-0.11147110072896137,-1.9463801863486305,0.1336059019074957,2.595550359778934,0.9452445589611904,-0.0010553076660982333,0.00030616074433587027,-0.000998321570802425,0.0001770324019269778,-0.00014816629319397296,0.00033550860559621937,0.0012672462659148519,0.0,0.0,0.0,0.0,0.0,0.0,0.0,4.546664884211293e-05,-7.822846903948744e-05,-1.6268805652253082e-05,9.262456819469911e-05,-5.442171680886121e-06,-1.4239921402037226e-06,-4.5776373833739115e-06,0.0010553076660982333,-0.00030616074433587027,0.000998321570802425,-0.0001770324019269778,0.00014816629319397296,-0.00033550860559621937,-0.0012672462659148519,0.14510458707809448,11.925500869750977,-1.3425629138946533,-21.741060256958008,-0.3738303780555725,-2.5143465995788574,0.22098104655742645,0
63,0.3100106716156006,-0.14510458707809448,-11.949304580688477,1.3425629138946533,21.768831253051758,0.3674216866493225,2.5207552909851074,-0.19351522624492645,0.0,0.0,0.0,0.0,0.0,0.0,0.0,-0.16049560591744944,0.38970189859772075,0.1258488778593283,0.4635169017116798,-0.16299166695154166,0.12419494461381131,-0.20924156336365007,0.17283302228999886,-0.4874403479266585,-0.11145483192330911,-1.946474735263641,0.1336120561559995,2.5955510718557564,0.9452460848407613,0.1728802376190821,-0.48752024683155326,-0.11147110072896137,-1.9463801863486305,0.1336059019074957,2.595550359778934,0.9452445589611904,0.0002783174248832119,8.549156333211121e-05,-0.00011973343118598343,-0.0007696940756970753,0.00038483024611201435,9.136753380898436e-05,-0.00023474842227169123,0.0,0.0,0.0,0.0,0.0,0.0,0.0,4.721532908324999e-05,-7.989890489473739e-05,-1.6268805652253082e-05,9.454891501037288e-05,-6.154248503809079e-06,-7.12076822395602e-07,-1.5258795709183204e-06,-0.0002783174248832119,-8.549156333211121e-05,0.00011973343118598343,0.0007696940756970753,-0.00038483024611201435,-9.136753380898436e-05,0.00023474842227169123,0.14510458707809448,11.949304580688477,-1.3425629138946533,-21.768831253051758,-0.3674216866493225,-2.5207552909851074,0.19351522624492645,0
64,0.3154299259185791,-0.14510458707809448,-11.949304580688477,1.3425629138946533,21.768831253051758,0.3674216866493225,2.5207552909851074,-0.19351522624492645,0.0,0.0,0.0,0.0,0.0,0.0,0.0,-0.16049560591744944,0.38970189859772075,0.1258488778593283,0.4635169017116798,-0.16299166695154166,0.12419494461381131,-0.20924156336365007,0.17283302228999886,-0.4874403479266585,-0.11145483192330911,-1.946474735263641,0.1336120561559995,2.5955510718557564,0.9452460848407613,0.1728802376190821,-0.48752024683155326,-0.11147110072896137,-1.9463801863486305,0.1336059019074957,2.595550359778934,0.9452445589611904,0.0002783174248832119,8.549156333211121e-05,-0.00011973343118598343,-0.0007696940756970753,0.00038483024611201435,9.136753380898436e-05,-0.00023474842227169123,0.0,0.0,0.0,0.0,0.0,0.0,0.0,4.721532908324999e-05,-7.989890489473739e-05,-1.6268805652253082e-05,9.454891501037288e-05,-6.154248503809079e-06,-7.12076822395602e-07,-1.5258795709183204e-06,-0.0002783174248832119,-8.549156333211121e-05,0.00011973343118598343,0.0007696940756970753,-0.00038483024611201435,-9.136753380898436e-05,0.00023474842227169123,0.14510458707809448,11.949304580688477,-1.3425629138946533,-21.768831253051758,-0.3674216866493225,-2.5207552909851074,0.19351522624492645,0
65,0.31999683380126953,-0.17287558317184448,-11.973108291625977,1.3147919178009033,21.768831253051758,0.3738303780555725,2.5207552909851074,-0.18710653483867645,0.0,0.0,0.0,0.0,0.0,0.0,0.0,-0.16031776006552287,0.39855940239600507,0.11914349154385713,0.458710029387237,-0.161627928959451,0.12347195286868198,-0.20849653494410775,0.17283708724691546,-0.4874386774908032,-0.11145288308147797,-1.946474681397894,0.13361134407917657,2.595551071855757,0.9452453727639384,0.1728802376190821,-0.48752024683155326,-0.11147110072896137,-1.9463801863486305,0.1336059019074957,2.595550359778934,0.9452445589611904,0.0005684417062625594,0.0010920602528809453,0.00041202814700141147,-0.00041271051334957053,8.028158991318694e-05,0.00027167582769750144,-1.1251358445167358e-05,0.0,0.0,0.0,0.0,0.0,0.0,0.0,4.315037216665041e-05,-8.156934075004285e-05,-1.8217647483401156e-05,9.449504926339891e-05,-5.442171680886121e-06,-7.120768228396912e-07,-8.138027479676069e-07,-0.0005684417062625594,-0.0010920602528809453,-0.00041202814700141147,0.00041271051334957053,-8.028158991318694e-05,-0.00027167582769750144,1.1251358445167358e-05,0.17287558317184448,11.973108291625977,-1.3147919178009033,-21.768831253051758,-0.3738303780555725,-2.5207552909851074,0.18710653483867645,0
66,0.3249471187591553,-0.17287558317184448,-11.973108291625977,1.3147919178009033,21.768831253051758,0.3738303780555725,2.5207552909851074,-0.18710653483867645,0.0,0.0,0.0,0.0,0.0,0.0,0.0,-0.16031776006552287,0.39855940239600507,0.11914349154385713,0.458710029387237,-0.161627928959451,0.12347195286868198,-0.20849653494410775,0.17283708724691546,-0.4874386774908032,-0.11145288308147797,-1.946474681397894,0.13361134407917657,2.595551071855757,0.9452453727639384,0.1728802376190821,-0.48752024683155326,-0.11147110072896137,-1.9463801863486305,0.1336059019074957,2.595550359778934,0.9452445589611904,0.0005684417062625594,0.0010920602528809453,0.00041202814700141147,-0.00041271051334957053,8.028158991318694e-05,0.00027167582769750144,-1.1251358445167358e-05,0.0,0.0,0.0,0.0,0.0,0.0,0.0,4.315037216665041e-05,-8.156934075004285e-05,-1.8217647483401156e-05,9.449504926339891e-05,-5.442171680886121e-06,-7.120768228396912e-07,-8.138027479676069e-07,-0.0005684417062625594,-0.0010920602528809453,-0.00041202814700141147,0.00041271051334957053,-8.028158991318694e-05,-0.00027167582769750144,1.1251358445167358e-05,0.17287558317184448,11.973108291625977,-1.3147919178009033,-21.768831253051758,-0.3738303780555725,-2.5207552909851074,0.18710653483867645,0
67,0.33001160621643066,-0.17287558317184448,-11.901697158813477,1.3147919178009033,21.741060256958008,0.3738303780555725,2.5207552909851074,-0.19351522624492645,0.0,0.0,0.0,0.0,0.0,0.0,0.0,-0.1601072375741114,0.39958973923524865,0.11881342806502403,0.45864636797175495,-0.16100760939792272,0.12343186021147681,-0.20710310159950004,0.1728364668542176,-0.487443688798369,-0.11145288308147797,-1.9464728091308439,0.13361134407917657,2.595551071855757,0.9452460848407613,0.1728802376190821,-0.48752024683155326,-0.11147110072896137,-1.9463801863486305,0.1336059019074957,2.595550359778934,0.9452445589611904,0.0005101057893234247,-0.0005664458238752635,-4.683017137144848e-05,0.0002492259748781527,-0.00014072753917124164,-2.3591394533746122e-05,-0.00035171395499581455,0.0,0.0,0.0,0.0,0.0,0.0,0.0,4.37707648645036e-05,-7.655803318423748e-05,-1.8217647483401156e-05,9.262278221333631e-05,-5.442171680886121e-06,-7.120768228396912e-07,-1.5258795709183204e-06,-0.0005101057893234247,0.0005664458238752635,4.683017137144848e-05,-0.0002492259748781527,0.00014072753917124164,2.3591394533746122e-05,0.00035171395499581455,0.17287558317184448,11.901697158813477,-1.3147919178009033,-21.741060256958008,-0.3738303780555725,-2.5207552909851074,0.19351522624492645,0
68,0.33499932289123535,-0.17287558317184448,-11.901697158813477,1.3147919178009033,21.741060256958008,0.3738303780555725,2.5207552909851074,-0.19351522624492645,0.0,0.0,0.0,0.0,0.0,0.0,0.0,-0.1601072375741114,0.39958973923524865,0.11881342806502403,0.45864636797175495,-0.16100760939792272,0.12343186021147681,-0.20710310159950004,0.1728364668542176,-0.487443688798369,-0.11145288308147797,-1.9464728091308439,0.13361134407917657,2.595551071855757,0.9452460848407613,0.1728802376190821,-0.48752024683155326,-0.11147110072896137,-1.9463801863486305,0.1336059019074957,2.595550359778934,0.9452445589611904,0.0005101057893234247,-0.0005664458238752635,-4.683017137144848e-05,0.0002492259748781527,-0.00014072753917124164,-2.3591394533746122e-05,-0.00035171395499581455,0.0,0.0,0.0,0.0,0.0,0.0,0.0,4.37707648645036e-05,-7.655803318423748e-05,-1.8217647483401156e-05,9.262278221333631e-05,-5.442171680886121e-06,-7.120768228396912e-07,-1.5258795709183204e-06,-0.0005101057893234247,0.0005664458238752635,4.683017137144848e-05,-0.0002492259748781527,0.00014072753917124164,2.3591394533746122e-05,0.00035171395499581455,0.17287558317184448,11.901697158813477,-1.3147919178009033,-21.741060256958008,-0.3738303780555725,-2.5207552909851074,0.19351522624492645,0
69,0.34002017974853516,-0.17287558317184448,-11.949304580688477,1.3147919178009033,21.792634963989258,0.3674216866493225,2.5271639823913574,-0.15964071452617645,0.0,0.0,0.0,0.0,0.0,0.0,0.0,-0.15851506638818394,0.3918289930727934,0.12469557188149782,0.4634142839309952,-0.16094730118078454,0.12371694892108633,-0.206010814626062,0.17283741062226446,-0.4874403479266585,-0.11145288308147797,-1.946476431139314,0.1336120561559995,2.595550359778934,0.9452423210061258,0.1728802376190821,-0.48752024683155326,-0.11147110072896137,-1.9463801863486305,0.1336059019074957,2.595550359778934,0.9452445589611904,0.00019934710655125767,0.0004953118517701704,-4.426543004445131e-05,-0.001128810006103733,0.00015664492251045274,-0.00033432027288763364,-0.0018006607962140835,0.0,0.0,0.0,0.0,0.0,0.0,0.0,4.282699681765201e-05,-7.989890489473739e-05,-1.8217647483401156e-05,9.624479068337521e-05,-6.154248503809079e-06,0.0,2.2379550645990065e-06,-0.00019934710655125767,-0.0004953118517701704,4.426543004445131e-05,0.001128810006103733,-0.00015664492251045274,0.00033432027288763364,0.0018006607962140835,0.17287558317184448,11.949304580688477,-1.3147919178009033,-21.792634963989258,-0.3674216866493225,-2.5271639823913574,0.15964071452617645,0
70,0.34499144554138184,-0.17287558317184448,-11.949304580688477,1.3147919178009033,21.792634963989258,0.3674216866493225,2.5271639823913574,-0.15964071452617645,0.0,0.0,0.0,0.0,0.0,0.0,0.0,-0.15851506638818394,0.3918289930727934,0.12469557188149782,0.4634142839309952,-0.16094730118078454,0.12371694892108633,-0.206010814626062,0.17283741062226446,-0.4874403479266585,-0.11145288308147797,-1.946476431139314,0.1336120561559995,2.595550359778934,0.9452423210061258,0.1728802376190821,-0.48752024683155326,-0.11147110072896137,-1.9463801863486305,0.1336059019074957,2.595550359778934,0.9452445589611904,0.00019934710655125767,0.0004953118517701704,-4.426543004445131e-05,-0.001128810006103733,0.00015664492251045274,-0.00033432027288763364,-0.0018006607962140835,0.0,0.0,0.0,0.0,0.0,0.0,0.0,4.282699681765201e-05,-7.989890489473739e-05,-1.8217647483401156e-05,9.624479068337521e-05,-6.154248503809079e-06,0.0,2.2379550645990065e-06,-0.00019934710655125767,-0.0004953118517701704,4.426543004445131e-05,0.001128810006103733,-0.00015664492251045274,0.00033432027288763364,0.0018006607962140835,0.17287558317184448,11.949304580688477,-1.3147919178009033,-21.792634963989258,-0.3674216866493225,-2.5271639823913574,0.15964071452617645,0
71,0.3499913215637207,-0.19667929410934448,-11.949304580688477,1.3425629138946533,21.741060256958008,0.3619285225868225,2.5207552909851074,-0.17337362468242645,0.0,0.0,0.0,0.0,0.0,0.0,0.0,-0.1621952897761379,0.38647870853029054,0.1223170045583417,0.4668816189741448,-0.1605636146697135,0.124450827087503,-0.2060891549560881,0.17283902900048567,-0.4874403479266585,-0.11145483192330911,-1.946472803463342,0.133612666507562,2.595551071855757,0.9452438468850322,0.1728802376190821,-0.48752024683155326,-0.11147110072896137,-1.9463801863486305,0.1336059019074957,2.595550359778934,0.9452445589611904,0.0008911553423606009,0.00024030794449698213,-0.0008765412465831273,0.0006110203732977362,0.000494793774617616,8.453603826601329e-05,-0.0011309158347935179,0.0,0.0,0.0,0.0,0.0,0.0,0.0,4.120861859643887e-05,-7.989890489473739e-05,-1.6268805652253082e-05,9.261711471153511e-05,-6.7646000663224015e-06,-7.120768228396912e-07,7.120761582601887e-07,-0.0008911553423606009,-0.00024030794449698213,0.0008765412465831273,-0.0006110203732977362,-0.000494793774617616,-8.453603826601329e-05,0.0011309158347935179,0.19667929410934448,11.949304580688477,-1.3425629138946533,-21.741060256958008,-0.3619285225868225,-2.5207552909851074,0.17337362468242645,0
72,0.355008602142334,-0.19667929410934448,-11.949304580688477,1.3425629138946533,21.741060256958008,0.3619285225868225,2.5207552909851074,-0.17337362468242645,0.0,0.0,0.0,0.0,0.0,0.0,0.0,-0.1621952897761379,0.38647870853029054,0.1223170045583417,0.4668816189741448,-0.1605636146697135,0.124450827087503,-0.2060891549560881,0.17283902900048567,-0.4874403479266585,-0.11145483192330911,-1.946472803463342,0.133612666507562,2.595551071855757,0.9452438468850322,0.1728802376190821,-0.48752024683155326,-0.11147110072896137,-1.9463801863486305,0.1336059019074957,2.595550359778934,0.9452445589611904,0.0008911553423606009,0.00024030794449698213,-0.0008765412465831273,0.0006110203732977362,0.000494793774617616,8.453603826601329e-05,-0.0011309158347935179,0.0,0.0,0.0,0.0,0.0,0.0,0.0,4.120861859643887e-05,-7.989890489473739e-05,-1.6268805652253082e-05,9.261711471153511e-05,-6.7646000663224015e-06,-7.120768228396912e-07,7.120761582601887e-07,-0.0008911553423606009,-0.00024030794449698213,0.0008765412465831273,-0.0006110203732977362,-0.000494793774617616,-8.453603826601329e-05,0.0011309158347935179,0.19667929410934448,11.949304580688477,-1.3425629138946533,-21.741060256958008,-0.3619285225868225,-2.5207552909851074,0.17337362468242645,0
73,0.35999584197998047,-0.19667929410934448,-11.949304580688477,1.3425629138946533,21.741060256958008,0.3619285225868225,2.5207552909851074,-0.17337362468242645,0.0,0.0,0.0,0.0,0.0,0.0,0.0,-0.1621952897761379,0.38647870853029054,0.1223170045583417,0.4668816189741448,-0.1605636146697135,0.124450827087503,-0.2060891549560881,0.17283902900048567,-0.4874403479266585,-0.11145483192330911,-1.946472803463342,0.133612666507562,2.595551071855757,0.9452438468850322,0.1728802376190821,-0.48752024683155326,-0.11147110072896137,-1.9463801863486305,0.1336059019074957,2.595550359778934,0.9452445589611904,0.0008911553423606009,0.00024030794449698213,-0.0008765412465831273,0.0006110203732977362,0.000494793774617616,8.453603826601329e-05,-0.0011309158347935179,0.0,0.0,0.0,0.0,0.0,0.0,0.0,4.120861859643887e-05,-7.989890489473739e-05,-1.6268805652253082e-05,9.261711471153511e-05,-6.7646000663224015e-06,-7.120768228396912e-07,7.120761582601887e-07,-0.0008911553423606009,-0.00024030794449698213,0.0008765412465831273,-0.0006110203732977362,-0.000494793774617616,-8.453603826601329e-05,0.0011309158347935179,0.19667929410934448,11.949304580688477,-1.3425629138946533,-21.741060256958008,-0.3619285225868225,-2.5207552909851074,0.17337362468242645,0
74,0.36501002311706543,-0.19667929410934448,-11.949304580688477,1.3425629138946533,21.741060256958008,0.3619285225868225,2.5207552909851074,-0.17337362468242645,0.0,0.0,0.0,0.0,0.0,0.0,0.0,-0.1621952897761379,0.38647870853029054,0.1223170045583417,0.4668816189741448,-0.1605636146697135,0.124450827087503,-0.2060891549560881,0.17283902900048567,-0.4874403479266585,-0.11145483192330911,-1.946472803463342,0.133612666507562,2.595551071855757,0.9452438468850322,0.1728802376190821,-0.48752024683155326,-0.11147110072896137,-1.9463801863486305,0.1336059019074957,2.595550359778934,0.9452445589611904,0.0008911553423606009,0.00024030794449698213,-0.0008765412465831273,0.0006110203732977362,0.000494793774617616,8.453603826601329e-05,-0.0011309158347935179,0.0,0.0,0.0,0.0,0.0,0.0,0.0,4.120861859643887e-05,-7.989890489473739e-05,-1.6268805652253082e-05,9.261711471153511e-05,-6.7646000663224015e-06,-7.120768228396912e-07,7.120761582601887e-07,-0.0008911553423606009,-0.00024030794449698213,0.0008765412465831273,-0.0006110203732977362,-0.000494793774617616,-8.453603826601329e-05,0.0011309158347935179,0.19667929410934448,11.949304580688477,-1.3425629138946533,-21.741060256958008,-0.3619285225868225,-2.5207552909851074,0.17337362468242645,0
75,0.3699941635131836,-0.17287558317184448,-11.973108291625977,1.3147919178009033,21.741060256958008,0.3738303780555725,2.5335726737976074,-0.17978231608867645,0.0,0.0,0.0,0.0,0.0,0.0,0.0,-0.16200554587141086,0.38833687610428885,0.12498540909621254,0.4639905137058217,-0.16043747349250898,0.1242187709161978,-0.20708650482617802,0.1728364137203379,-0.4874386774908032,-0.11145288308147797,-1.9464725814334947,0.13361134407917657,2.595549647702111,0.945244558961855,0.1728802376190821,-0.48752024683155326,-0.11147110072896137,-1.9463801863486305,0.1336059019074957,2.595550359778934,0.9452445589611904,0.0005572464779875234,0.00035181704377096763,0.0002957220032537153,0.0004776260201177982,-0.00010104793360087125,-0.00013615857499283762,-0.0010071197255696709,0.0,0.0,0.0,0.0,0.0,0.0,0.0,4.382389874421633e-05,-8.156934075004285e-05,-1.8217647483401156e-05,9.239508486413861e-05,-5.442171680886121e-06,7.120768228396912e-07,-6.645795025406187e-13,-0.0005572464779875234,-0.00035181704377096763,-0.0002957220032537153,-0.0004776260201177982,0.00010104793360087125,0.00013615857499283762,0.0010071197255696709,0.17287558317184448,11.973108291625977,-1.3147919178009033,-21.741060256958008,-0.3738303780555725,-2.5335726737976074,0.17978231608867645,0
76,0.3750038146972656,-0.17287558317184448,-11.973108291625977,1.3147919178009033,21.741060256958008,0.3738303780555725,2.5335726737976074,-0.17978231608867645,0.0,0.0,0.0,0.0,0.0,0.0,0.0,-0.16200554587141086,0.38833687610428885,0.12498540909621254,0.4639905137058217,-0.16043747349250898,0.1242187709161978,-0.20708650482617802,0.1728364137203379,-0.4874386774908032,-0.11145288308147797,-1.9464725814334947,0.13361134407917657,2.595549647702111,0.945244558961855,0.1728802376190821,-0.48752024683155326,-0.11147110072896137,-1.9463801863486305,0.1336059019074957,2.595550359778934,0.9452445589611904,0.0005572464779875234,0.00035181704377096763,0.0002957220032537153,0.0004776260201177982,-0.00010104793360087125,-0.00013615857499283762,-0.0010071197255696709,0.0,0.0,0.0,0.0,0.0,0.0,0.0,4.382389874421633e-05,-8.156934075004285e-05,-1.8217647483401156e-05,9.239508486413861e-05,-5.442171680886121e-06,7.120768228396912e-07,-6.645795025406187e-13,-0.0005572464779875234,-0.00035181704377096763,-0.0002957220032537153,-0.0004776260201177982,0.00010104793360087125,0.00013615857499283762,0.0010071197255696709,0.17287558317184448,11.973108291625977,-1.3147919178009033,-21.741060256958008,-0.3738303780555725,-2.5335726737976074,0.17978231608867645,0
77,0.3801906108856201,-0.12130087614059448,-11.949304580688477,1.2671844959259033,21.768831253051758,0.3738303780555725,2.5335726737976074,-0.15964071452617645,0.0,0.0,0.0,0.0,0.0,0.0,0.0,-0.16465371988224992,0.38778254602451406,0.11773999413322969,0.4591264663541444,-0.16016582498202517,0.12466791041828497,-0.20807778626688825,0.17283354778515625,-0.4874403479266585,-0.11144954220976744,-1.9464745312188798,0.13361134407917657,2.595549647702111,0.9452391420917378,0.1728802376190821,-0.48752024683155326,-0.11147110072896137,-1.9463801863486305,0.1336059019074957,2.595550359778934,0.9452445589611904,-0.0008552273559203481,-0.00043961067888417907,0.0009064784594122717,-0.0007497514321779594,3.91102702734523e-05,-0.0003244279554528508,-0.0016229350033464323,0.0,0.0,0.0,0.0,0.0,0.0,0.0,4.668983392586146e-05,-7.989890489473739e-05,-2.1558519193928816e-05,9.43448702492855e-05,-5.442171680886121e-06,7.120768228396912e-07,5.416869452656847e-06,0.0008552273559203481,0.00043961067888417907,-0.0009064784594122717,0.0007497514321779594,-3.91102702734523e-05,0.0003244279554528508,0.0016229350033464323,0.12130087614059448,11.949304580688477,-1.2671844959259033,-21.768831253051758,-0.3738303780555725,-2.5335726737976074,0.15964071452617645,0
78,0.385009765625,-0.12130087614059448,-11.949304580688477,1.2671844959259033,21.768831253051758,0.3738303780555725,2.5335726737976074,-0.15964071452617645,0.0,0.0,0.0,0.0,0.0,0.0,0.0,-0.16465371988224992,0.38778254602451406,0.11773999413322969,0.4591264663541444,-0.16016582498202517,0.12466791041828497,-0.20807778626688825,0.17283354778515625,-0.4874403479266585,-0.11144954220976744,-1.9464745312188798,0.13361134407917657,2.595549647702111,0.9452391420917378,0.1728802376190821,-0.48752024683155326,-0.11147110072896137,-1.9463801863486305,0.1336059019074957,2.595550359778934,0.9452445589611904,-0.0008552273559203481,-0.00043961067888417907,0.0009064784594122717,-0.0007497514321779594,3.91102702734523e-05,-0.0003244279554528508,-0.0016229350033464323,0.0,0.0,0.0,0.0,0.0,0.0,0.0,4.668983392586146e-05,-7.989890489473739e-05,-2.1558519193928816e-05,9.43448702492855e-05,-5.442171680886121e-06,7.120768228396912e-07,5.416869452656847e-06,0.0008552273559203481,0.00043961067888417907,-0.0009064784594122717,0.0007497514321779594,-3.91102702734523e-05,0.0003244279554528508,0.0016229350033464323,0.12130087614059448,11.949304580688477,-1.2671844959259033,-21.768831253051758,-0.3738303780555725,-2.5335726737976074,0.15964071452617645,0
79,0.38999509811401367,-0.19667929410934448,-11.901697158813477,1.3147919178009033,21.768831253051758,0.3738303780555725,2.5207552909851074,-0.20724813640117645,0.0,0.0,0.0,0.0,0.0,0.0,0.0,-0.15670627086107325,0.39243421718117666,0.12194993296232241,0.4549145710538266,-0.1605156763063486,0.12407493934502628,-0.20932301409191315,0.1728369027760932,-0.487443688798369,-0.11145288308147797,-1.9464747607721538,0.13361134407917657,2.595551071855757,0.9452476107017225,0.1728802376190821,-0.48752024683155326,-0.11147110072896137,-1.9463801863486305,0.1336059019074957,2.595550359778934,0.9452445589611904,0.001020177248751065,-0.0007666687808468883,-0.00028979825506570057,-0.0005137817359258379,3.8457791940798876e-05,-1.8926872971753555e-07,-0.00033304489597698385,0.0,0.0,0.0,0.0,0.0,0.0,0.0,4.3334842988906885e-05,-7.655803318423748e-05,-1.8217647483401156e-05,9.457442352323042e-05,-5.442171680886121e-06,-7.120768228396912e-07,-3.0517405320562574e-06,-0.001020177248751065,0.0007666687808468883,0.00028979825506570057,0.0005137817359258379,-3.8457791940798876e-05,1.8926872971753555e-07,0.00033304489597698385,0.19667929410934448,11.901697158813477,-1.3147919178009033,-21.768831253051758,-0.3738303780555725,-2.5207552909851074,0.20724813640117645,0
80,0.39499759674072266,-0.19667929410934448,-11.901697158813477,1.3147919178009033,21.768831253051758,0.3738303780555725,2.5207552909851074,-0.20724813640117645,0.0,0.0,0.0,0.0,0.0,0.0,0.0,-0.15670627086107325,0.39243421718117666,0.12194993296232241,0.4549145710538266,-0.1605156763063486,0.12407493934502628,-0.20932301409191315,0.1728369027760932,-0.487443688798369,-0.11145288308147797,-1.9464747607721538,0.13361134407917657,2.595551071855757,0.9452476107017225,0.1728802376190821,-0.48752024683155326,-0.11147110072896137,-1.9463801863486305,0.1336059019074957,2.595550359778934,0.9452445589611904,0.001020177248751065,-0.0007666687808468883,-0.00028979825506570057,-0.0005137817359258379,3.8457791940798876e-05,-1.8926872971753555e-07,-0.00033304489597698385,0.0,0.0,0.0,0.0,0.0,0.0,0.0,4.3334842988906885e-05,-7.655803318423748e-05,-1.8217647483401156e-05,9.457442352323042e-05,-5.442171680886121e-06,-7.120768228396912e-07,-3.0517405320562574e-06,-0.001020177248751065,0.0007666687808468883,0.00028979825506570057,0.0005137817359258379,-3.8457791940798876e-05,1.8926872971753555e-07,0.00033304489597698385,0.19667929410934448,11.901697158813477,-1.3147919178009033,-21.768831253051758,-0.3738303780555725,-2.5207552909851074,0.20724813640117645,0
