rezayati/contactInterpretation/dataset/franka_main/labeled_data/link4/d6_4.csv
index,time,tau_J0,tau_J1,tau_J2,tau_J3,tau_J4,tau_J5,tau_J6,tau_J_d0,tau_J_d1,tau_J_d2,tau_J_d3,tau_J_d4,tau_J_d5,tau_J_d6,tau_ext0,tau_ext1,tau_ext2,tau_ext3,tau_ext4,tau_ext5,tau_ext6,q0,q1,q2,q3,q4,q5,q6,q_d0,q_d1,q_d2,q_d3,q_d4,q_d5,q_d6,dq0,dq1,dq2,dq3,dq4,dq5,dq6,dq_d0,dq_d1,dq_d2,dq_d3,dq_d4,dq_d5,dq_d6,e0,e1,e2,e3,e4,e5,e6,de0,de1,de2,de3,de4,de5,de6,etau_J0,etau_J1,etau_J2,etau_J3,etau_J4,etau_J5,etau_J6,label
1,0.0,-0.3514034152030945,-19.816431045532227,-0.4704863727092743,20.106538772583008,0.5642600655555725,2.4493441581726074,-0.17337362468242645,0.0,0.0,0.0,0.0,0.0,0.0,0.0,-0.387180792849618,-0.10471738980138823,-0.24059647559755093,0.33430297386934404,-0.01594411532287419,0.09231626422752134,-0.20355770263954212,1.2135121658015668,-0.22004910736127467,-0.007480294172701083,-2.60407780361995,-0.10895616891995161,2.468123560640547,0.8264657969392009,1.2134413937687574,-0.2202432315892585,-0.0075118285948192216,-2.6038483821997875,-0.10888392708698907,2.4681821257803174,0.826474908251239,-0.001551854410879966,-0.0009147842688604067,0.0005266702764265391,-0.00032332294923825616,5.777469221751118e-05,0.0005011421278413715,-0.0014507535351480502,0.0,0.0,0.0,0.0,0.0,0.0,0.0,-7.077203280947408e-05,-0.00019412422798381623,-3.153442211813878e-05,0.00022942142016235678,7.224183296253295e-05,5.856513977020583e-05,9.111312038179165e-06,0.001551854410879966,0.0009147842688604067,-0.0005266702764265391,0.00032332294923825616,-5.777469221751118e-05,-0.0005011421278413715,0.0014507535351480502,0.3514034152030945,19.816431045532227,0.4704863727092743,-20.106538772583008,-0.5642600655555725,-2.4493441581726074,0.17337362468242645,0
2,0.0042302608489990234,-0.3514034152030945,-19.816431045532227,-0.4704863727092743,20.106538772583008,0.5642600655555725,2.4493441581726074,-0.17337362468242645,0.0,0.0,0.0,0.0,0.0,0.0,0.0,-0.387180792849618,-0.10471738980138823,-0.24059647559755093,0.33430297386934404,-0.01594411532287419,0.09231626422752134,-0.20355770263954212,1.2135121658015668,-0.22004910736127467,-0.007480294172701083,-2.60407780361995,-0.10895616891995161,2.468123560640547,0.8264657969392009,1.2134413937687574,-0.2202432315892585,-0.0075118285948192216,-2.6038483821997875,-0.10888392708698907,2.4681821257803174,0.826474908251239,-0.001551854410879966,-0.0009147842688604067,0.0005266702764265391,-0.00032332294923825616,5.777469221751118e-05,0.0005011421278413715,-0.0014507535351480502,0.0,0.0,0.0,0.0,0.0,0.0,0.0,-7.077203280947408e-05,-0.00019412422798381623,-3.153442211813878e-05,0.00022942142016235678,7.224183296253295e-05,5.856513977020583e-05,9.111312038179165e-06,0.001551854410879966,0.0009147842688604067,-0.0005266702764265391,0.00032332294923825616,-5.777469221751118e-05,-0.0005011421278413715,0.0014507535351480502,0.3514034152030945,19.816431045532227,0.4704863727092743,-20.106538772583008,-0.5642600655555725,-2.4493441581726074,0.17337362468242645,0
3,0.009271383285522461,-0.3514034152030945,-19.816431045532227,-0.4228789508342743,20.106538772583008,0.5697532296180725,2.4566683769226074,-0.15964071452617645,0.0,0.0,0.0,0.0,0.0,0.0,0.0,-0.3846860206121648,-0.10073129800446472,-0.2371120395465393,0.3355045225040163,-0.016851616447709973,0.09226832878250334,-0.20407611420946273,1.2135121658015668,-0.22004910736125813,-0.007483635044411609,-2.6040779681882387,-0.10895677489043107,2.4681227599204156,0.8264642754209452,1.2134413937687574,-0.2202432315892585,-0.0075118285948192216,-2.6038483821997875,-0.10888392708698907,2.4681821257803174,0.826474908251239,-0.0005657886683200402,-0.0006555832355653053,-0.00033395633673549154,7.371854438522927e-05,1.9365755101748976e-06,0.00024537031603581255,-0.001226995488358412,0.0,0.0,0.0,0.0,0.0,0.0,0.0,-7.077203280947408e-05,-0.00019412422800035856,-2.8193550407612858e-05,0.00022958598845113087,7.284780344199437e-05,5.9365859901738816e-05,1.0632830293788587e-05,0.0005657886683200402,0.0006555832355653053,0.00033395633673549154,-7.371854438522927e-05,-1.9365755101748976e-06,-0.00024537031603581255,0.001226995488358412,0.3514034152030945,19.816431045532227,0.4228789508342743,-20.106538772583008,-0.5697532296180725,-2.4566683769226074,0.15964071452617645,0
4,0.014229059219360352,-0.3514034152030945,-19.816431045532227,-0.4228789508342743,20.106538772583008,0.5697532296180725,2.4566683769226074,-0.15964071452617645,0.0,0.0,0.0,0.0,0.0,0.0,0.0,-0.3846860206121648,-0.10073129800446472,-0.2371120395465393,0.3355045225040163,-0.016851616447709973,0.09226832878250334,-0.20407611420946273,1.2135121658015668,-0.22004910736125813,-0.007483635044411609,-2.6040779681882387,-0.10895677489043107,2.4681227599204156,0.8264642754209452,1.2134413937687574,-0.2202432315892585,-0.0075118285948192216,-2.6038483821997875,-0.10888392708698907,2.4681821257803174,0.826474908251239,-0.0005657886683200402,-0.0006555832355653053,-0.00033395633673549154,7.371854438522927e-05,1.9365755101748976e-06,0.00024537031603581255,-0.001226995488358412,0.0,0.0,0.0,0.0,0.0,0.0,0.0,-7.077203280947408e-05,-0.00019412422800035856,-2.8193550407612858e-05,0.00022958598845113087,7.284780344199437e-05,5.9365859901738816e-05,1.0632830293788587e-05,0.0005657886683200402,0.0006555832355653053,0.00033395633673549154,-7.371854438522927e-05,-1.9365755101748976e-06,-0.00024537031603581255,0.001226995488358412,0.3514034152030945,19.816431045532227,0.4228789508342743,-20.106538772583008,-0.5697532296180725,-2.4566683769226074,0.15964071452617645,0
5,0.01959395408630371,-0.4029781222343445,-19.816431045532227,-0.4466826617717743,20.082735061645508,0.5697532296180725,2.4630770683288574,-0.17978231608867645,0.0,0.0,0.0,0.0,0.0,0.0,0.0,-0.3845699566362651,-0.09717648570798113,-0.23943961031648842,0.3326231305252347,-0.01630497149133538,0.0919994838833529,-0.20277963317132203,1.2135157850792533,-0.22004910736125813,-0.007481964608556346,-2.604073110008918,-0.10895677472816018,2.4681220347617145,0.8264665090160483,1.2134413937687574,-0.2202432315892585,-0.0075118285948192216,-2.6038483821997875,-0.10888392708698907,2.4681821257803174,0.826474908251239,0.000578729569430467,-0.0005458838846378551,0.0006295513415640926,0.00045555986246194227,0.00012751619488505326,0.00012168301892549978,-0.0012533956920662691,0.0,0.0,0.0,0.0,0.0,0.0,0.0,-7.439131049591374e-05,-0.00019412422800035856,-2.986398626287582e-05,0.00022472780913052048,7.28476411711032e-05,6.009101860282584e-05,8.399235190692522e-06,-0.000578729569430467,0.0005458838846378551,-0.0006295513415640926,-0.00045555986246194227,-0.00012751619488505326,-0.00012168301892549978,0.0012533956920662691,0.4029781222343445,19.816431045532227,0.4466826617717743,-20.082735061645508,-0.5697532296180725,-2.4630770683288574,0.17978231608867645,0
6,0.024414777755737305,-0.4029781222343445,-19.816431045532227,-0.4466826617717743,20.082735061645508,0.5697532296180725,2.4630770683288574,-0.17978231608867645,0.0,0.0,0.0,0.0,0.0,0.0,0.0,-0.3845699566362651,-0.09717648570798113,-0.23943961031648842,0.3326231305252347,-0.01630497149133538,0.0919994838833529,-0.20277963317132203,1.2135157850792533,-0.22004910736125813,-0.007481964608556346,-2.604073110008918,-0.10895677472816018,2.4681220347617145,0.8264665090160483,1.2134413937687574,-0.2202432315892585,-0.0075118285948192216,-2.6038483821997875,-0.10888392708698907,2.4681821257803174,0.826474908251239,0.000578729569430467,-0.0005458838846378551,0.0006295513415640926,0.00045555986246194227,0.00012751619488505326,0.00012168301892549978,-0.0012533956920662691,0.0,0.0,0.0,0.0,0.0,0.0,0.0,-7.439131049591374e-05,-0.00019412422800035856,-2.986398626287582e-05,0.00022472780913052048,7.28476411711032e-05,6.009101860282584e-05,8.399235190692522e-06,-0.000578729569430467,0.0005458838846378551,-0.0006295513415640926,-0.00045555986246194227,-0.00012751619488505326,-0.00012168301892549978,0.0012533956920662691,0.4029781222343445,19.816431045532227,0.4466826617717743,-20.082735061645508,-0.5697532296180725,-2.4630770683288574,0.17978231608867645,0
7,0.02923417091369629,-0.3514034152030945,-19.844202041625977,-0.3990752398967743,20.106538772583008,0.5816550850868225,2.4630770683288574,-0.17978231608867645,0.0,0.0,0.0,0.0,0.0,0.0,0.0,-0.38277418538965374,-0.09845928818378359,-0.23683466579995788,0.3333143580402891,-0.01539895855620695,0.09245843702373926,-0.2027803432238044,1.2135121658015668,-0.220047158519427,-0.007485542208667968,-2.60407707711692,-0.1089580973188073,2.468122034761641,0.8264665090160237,1.2134413937687574,-0.2202432315892585,-0.0075118285948192216,-2.6038483821997875,-0.10888392708698907,2.4681821257803174,0.826474908251239,-0.0005358447434863259,-0.00014415687728229617,-0.000874225154669214,-0.00019384051937407643,-0.00048164195469025463,5.1497915792563573e-05,-0.000999867533557971,0.0,0.0,0.0,0.0,0.0,0.0,0.0,-7.077203280947408e-05,-0.00019607306983149275,-2.62863861512537e-05,0.00022869491713262136,7.417023181822968e-05,6.009101867654465e-05,8.399235215339473e-06,0.0005358447434863259,0.00014415687728229617,0.000874225154669214,0.00019384051937407643,0.00048164195469025463,-5.1497915792563573e-05,0.000999867533557971,0.3514034152030945,19.844202041625977,0.3990752398967743,-20.106538772583008,-0.5816550850868225,-2.4630770683288574,0.17978231608867645,0
8,0.03422999382019043,-0.3514034152030945,-19.844202041625977,-0.3990752398967743,20.106538772583008,0.5816550850868225,2.4630770683288574,-0.17978231608867645,0.0,0.0,0.0,0.0,0.0,0.0,0.0,-0.38277418538965374,-0.09845928818378359,-0.23683466579995788,0.3333143580402891,-0.01539895855620695,0.09245843702373926,-0.2027803432238044,1.2135121658015668,-0.220047158519427,-0.007485542208667968,-2.60407707711692,-0.1089580973188073,2.468122034761641,0.8264665090160237,1.2134413937687574,-0.2202432315892585,-0.0075118285948192216,-2.6038483821997875,-0.10888392708698907,2.4681821257803174,0.826474908251239,-0.0005358447434863259,-0.00014415687728229617,-0.000874225154669214,-0.00019384051937407643,-0.00048164195469025463,5.1497915792563573e-05,-0.000999867533557971,0.0,0.0,0.0,0.0,0.0,0.0,0.0,-7.077203280947408e-05,-0.00019607306983149275,-2.62863861512537e-05,0.00022869491713262136,7.417023181822968e-05,6.009101867654465e-05,8.399235215339473e-06,0.0005358447434863259,0.00014415687728229617,0.000874225154669214,0.00019384051937407643,0.00048164195469025463,-5.1497915792563573e-05,0.000999867533557971,0.3514034152030945,19.844202041625977,0.3990752398967743,-20.106538772583008,-0.5816550850868225,-2.4630770683288574,0.17978231608867645,0
9,0.03923487663269043,-0.4267818331718445,-19.816431045532227,-0.4466826617717743,20.082735061645508,0.5761619210243225,2.4758944511413574,-0.24844686686992645,0.0,0.0,0.0,0.0,0.0,0.0,0.0,-0.37484205806724225,-0.10037882437751787,-0.2283328906845061,0.3330861656282407,-0.015059394566771665,0.09259935852073362,-0.2026826152453902,1.2135174555151087,-0.22004910736125813,-0.007481964609892684,-2.6040741458037933,-0.10895748696724572,2.4681237895223833,0.826474138410555,1.2134413937687574,-0.2202432315892585,-0.0075118285948192216,-2.6038483821997875,-0.10888392708698907,2.4681821257803174,0.826474908251239,0.001720281408691491,-0.0007757897655877629,0.0009890409052098603,0.0008004116051433097,-9.243789023280855e-05,-0.00036794630279230524,0.002041909490038772,0.0,0.0,0.0,0.0,0.0,0.0,0.0,-7.606174635133023e-05,-0.00019412422800035856,-2.9863984926537662e-05,0.00022576360400572426,7.355988025664617e-05,5.833625793405517e-05,7.698406840894734e-07,-0.001720281408691491,0.0007757897655877629,-0.0009890409052098603,-0.0008004116051433097,9.243789023280855e-05,0.00036794630279230524,-0.002041909490038772,0.4267818331718445,19.816431045532227,0.4466826617717743,-20.082735061645508,-0.5761619210243225,-2.4758944511413574,0.24844686686992645,0
10,0.04481029510498047,-0.4267818331718445,-19.816431045532227,-0.4466826617717743,20.082735061645508,0.5761619210243225,2.4758944511413574,-0.24844686686992645,0.0,0.0,0.0,0.0,0.0,0.0,0.0,-0.37484205806724225,-0.10037882437751787,-0.2283328906845061,0.3330861656282407,-0.015059394566771665,0.09259935852073362,-0.2026826152453902,1.2135174555151087,-0.22004910736125813,-0.007481964609892684,-2.6040741458037933,-0.10895748696724572,2.4681237895223833,0.826474138410555,1.2134413937687574,-0.2202432315892585,-0.0075118285948192216,-2.6038483821997875,-0.10888392708698907,2.4681821257803174,0.826474908251239,0.001720281408691491,-0.0007757897655877629,0.0009890409052098603,0.0008004116051433097,-9.243789023280855e-05,-0.00036794630279230524,0.002041909490038772,0.0,0.0,0.0,0.0,0.0,0.0,0.0,-7.606174635133023e-05,-0.00019412422800035856,-2.9863984926537662e-05,0.00022576360400572426,7.355988025664617e-05,5.833625793405517e-05,7.698406840894734e-07,-0.001720281408691491,0.0007757897655877629,-0.0009890409052098603,-0.0008004116051433097,9.243789023280855e-05,0.00036794630279230524,-0.002041909490038772,0.4267818331718445,19.816431045532227,0.4466826617717743,-20.082735061645508,-0.5761619210243225,-2.4758944511413574,0.24844686686992645,0
11,0.049196481704711914,-0.3752071261405945,-19.844202041625977,-0.4982573688030243,20.154146194458008,0.5697532296180725,2.4694857597351074,-0.22098104655742645,0.0,0.0,0.0,0.0,0.0,0.0,0.0,-0.3805186916543578,-0.10612227375378154,-0.23446567468947924,0.3359144807361612,-0.013958527899970083,0.09365295624122223,-0.20408707385960892,1.2135138362374223,-0.220047158519427,-0.0074783453308699495,-2.604079107435891,-0.10895676174714895,2.4681213227027627,0.8264710866527425,1.2134413937687574,-0.2202432315892585,-0.0075118285948192216,-2.6038483821997875,-0.10888392708698907,2.4681821257803174,0.826474908251239,-0.00037315727948033486,-0.0004720029110104368,0.0013366739242246625,-0.0008454413143765565,-0.00028962129802738147,-0.00013191531240793836,0.000903583721863795,0.0,0.0,0.0,0.0,0.0,0.0,0.0,-7.244246866489057e-05,-0.00019607306983149275,-3.348326394927211e-05,0.00023072523610334628,7.283466015987894e-05,6.080307755462755e-05,3.8215984965450644e-06,0.00037315727948033486,0.0004720029110104368,-0.0013366739242246625,0.0008454413143765565,0.00028962129802738147,0.00013191531240793836,-0.000903583721863795,0.3752071261405945,19.844202041625977,0.4982573688030243,-20.154146194458008,-0.5697532296180725,-2.4694857597351074,0.22098104655742645,0
12,0.054229736328125,-0.3752071261405945,-19.844202041625977,-0.4982573688030243,20.154146194458008,0.5697532296180725,2.4694857597351074,-0.22098104655742645,0.0,0.0,0.0,0.0,0.0,0.0,0.0,-0.3805186916543578,-0.10612227375378154,-0.23446567468947924,0.3359144807361612,-0.013958527899970083,0.09365295624122223,-0.20408707385960892,1.2135138362374223,-0.220047158519427,-0.0074783453308699495,-2.604079107435891,-0.10895676174714895,2.4681213227027627,0.8264710866527425,1.2134413937687574,-0.2202432315892585,-0.0075118285948192216,-2.6038483821997875,-0.10888392708698907,2.4681821257803174,0.826474908251239,-0.00037315727948033486,-0.0004720029110104368,0.0013366739242246625,-0.0008454413143765565,-0.00028962129802738147,-0.00013191531240793836,0.000903583721863795,0.0,0.0,0.0,0.0,0.0,0.0,0.0,-7.244246866489057e-05,-0.00019607306983149275,-3.348326394927211e-05,0.00023072523610334628,7.283466015987894e-05,6.080307755462755e-05,3.8215984965450644e-06,0.00037315727948033486,0.0004720029110104368,-0.0013366739242246625,0.0008454413143765565,0.00028962129802738147,0.00013191531240793836,-0.000903583721863795,0.3752071261405945,19.844202041625977,0.4982573688030243,-20.154146194458008,-0.5697532296180725,-2.4694857597351074,0.22098104655742645,0
13,0.05923199653625488,-0.4029781222343445,-19.844202041625977,-0.4228789508342743,20.031160354614258,0.5697532296180725,2.4694857597351074,-0.17337362468242645,0.0,0.0,0.0,0.0,0.0,0.0,0.0,-0.37976747976915065,-0.09531620144781683,-0.2341506145932503,0.3264673520337253,-0.015275038395499227,0.09261238227783601,-0.20487760670912608,1.2135157850792533,-0.22004715862793855,-0.007483635044411609,-2.6040705359775522,-0.10895677489034862,2.468121322684818,0.8264657969392009,1.2134413937687574,-0.2202432315892585,-0.0075118285948192216,-2.6038483821997875,-0.10888392708698907,2.4681821257803174,0.826474908251239,-3.40929428062389e-05,0.00035755047240096014,-0.0006959830477697934,0.001557826541916527,-0.00014959743711038674,-0.0003145748641057345,-0.0009633045465351988,0.0,0.0,0.0,0.0,0.0,0.0,0.0,-7.439131049591374e-05,-0.0001960729613199319,-2.8193550407612858e-05,0.0002221537777646887,7.284780335954644e-05,6.080309549938434e-05,9.111312038179165e-06,3.40929428062389e-05,-0.00035755047240096014,0.0006959830477697934,-0.001557826541916527,0.00014959743711038674,0.0003145748641057345,0.0009633045465351988,0.4029781222343445,19.844202041625977,0.4228789508342743,-20.031160354614258,-0.5697532296180725,-2.4694857597351074,0.17337362468242645,0
14,0.06423282623291016,-0.4029781222343445,-19.844202041625977,-0.4228789508342743,20.031160354614258,0.5697532296180725,2.4694857597351074,-0.17337362468242645,0.0,0.0,0.0,0.0,0.0,0.0,0.0,-0.37976747976915065,-0.09531620144781683,-0.2341506145932503,0.3264673520337253,-0.015275038395499227,0.09261238227783601,-0.20487760670912608,1.2135157850792533,-0.22004715862793855,-0.007483635044411609,-2.6040705359775522,-0.10895677489034862,2.468121322684818,0.8264657969392009,1.2134413937687574,-0.2202432315892585,-0.0075118285948192216,-2.6038483821997875,-0.10888392708698907,2.4681821257803174,0.826474908251239,-3.40929428062389e-05,0.00035755047240096014,-0.0006959830477697934,0.001557826541916527,-0.00014959743711038674,-0.0003145748641057345,-0.0009633045465351988,0.0,0.0,0.0,0.0,0.0,0.0,0.0,-7.439131049591374e-05,-0.0001960729613199319,-2.8193550407612858e-05,0.0002221537777646887,7.284780335954644e-05,6.080309549938434e-05,9.111312038179165e-06,3.40929428062389e-05,-0.00035755047240096014,0.0006959830477697934,-0.001557826541916527,0.00014959743711038674,0.0003145748641057345,0.0009633045465351988,0.4029781222343445,19.844202041625977,0.4228789508342743,-20.031160354614258,-0.5697532296180725,-2.4694857597351074,0.17337362468242645,0
15,0.06923055648803711,-0.4029781222343445,-19.844202041625977,-0.4228789508342743,20.031160354614258,0.5697532296180725,2.4694857597351074,-0.17337362468242645,0.0,0.0,0.0,0.0,0.0,0.0,0.0,-0.37976747976915065,-0.09531620144781683,-0.2341506145932503,0.3264673520337253,-0.015275038395499227,0.09261238227783601,-0.20487760670912608,1.2135157850792533,-0.22004715862793855,-0.007483635044411609,-2.6040705359775522,-0.10895677489034862,2.468121322684818,0.8264657969392009,1.2134413937687574,-0.2202432315892585,-0.0075118285948192216,-2.6038483821997875,-0.10888392708698907,2.4681821257803174,0.826474908251239,-3.40929428062389e-05,0.00035755047240096014,-0.0006959830477697934,0.001557826541916527,-0.00014959743711038674,-0.0003145748641057345,-0.0009633045465351988,0.0,0.0,0.0,0.0,0.0,0.0,0.0,-7.439131049591374e-05,-0.0001960729613199319,-2.8193550407612858e-05,0.0002221537777646887,7.284780335954644e-05,6.080309549938434e-05,9.111312038179165e-06,3.40929428062389e-05,-0.00035755047240096014,0.0006959830477697934,-0.001557826541916527,0.00014959743711038674,0.0003145748641057345,0.0009633045465351988,0.4029781222343445,19.844202041625977,0.4228789508342743,-20.031160354614258,-0.5697532296180725,-2.4694857597351074,0.17337362468242645,0
16,0.0742490291595459,-0.4029781222343445,-19.844202041625977,-0.4228789508342743,20.031160354614258,0.5697532296180725,2.4694857597351074,-0.17337362468242645,0.0,0.0,0.0,0.0,0.0,0.0,0.0,-0.37976747976915065,-0.09531620144781683,-0.2341506145932503,0.3264673520337253,-0.015275038395499227,0.09261238227783601,-0.20487760670912608,1.2135157850792533,-0.22004715862793855,-0.007483635044411609,-2.6040705359775522,-0.10895677489034862,2.468121322684818,0.8264657969392009,1.2134413937687574,-0.2202432315892585,-0.0075118285948192216,-2.6038483821997875,-0.10888392708698907,2.4681821257803174,0.826474908251239,-3.40929428062389e-05,0.00035755047240096014,-0.0006959830477697934,0.001557826541916527,-0.00014959743711038674,-0.0003145748641057345,-0.0009633045465351988,0.0,0.0,0.0,0.0,0.0,0.0,0.0,-7.439131049591374e-05,-0.0001960729613199319,-2.8193550407612858e-05,0.0002221537777646887,7.284780335954644e-05,6.080309549938434e-05,9.111312038179165e-06,3.40929428062389e-05,-0.00035755047240096014,0.0006959830477697934,-0.001557826541916527,0.00014959743711038674,0.0003145748641057345,0.0009633045465351988,0.4029781222343445,19.844202041625977,0.4228789508342743,-20.031160354614258,-0.5697532296180725,-2.4694857597351074,0.17337362468242645,0
17,0.0792548656463623,-0.4029781222343445,-19.792627334594727,-0.3713042438030243,20.082735061645508,0.5761619210243225,2.4630770683288574,-0.16604940593242645,0.0,0.0,0.0,0.0,0.0,0.0,0.0,-0.38141647000168705,-0.09524449359962864,-0.23250428714892374,0.32854729396724336,-0.01590551133351296,0.09307652997303079,-0.2052179034078176,1.2135157850792533,-0.2200508041654239,-0.007487254322098013,-2.604073853100161,-0.10895429315169651,2.468122034761641,0.8264649831371175,1.2134413937687574,-0.2202432315892585,-0.0075118285948192216,-2.6038483821997875,-0.10888392708698907,2.4681821257803174,0.826474908251239,-0.00025601021016099135,-0.0003936188106114023,-0.0014163894638634764,0.0003766042906385328,-6.326700216900738e-05,0.00011789463746139626,-0.0014608947344363717,0.0,0.0,0.0,0.0,0.0,0.0,0.0,-7.439131049591374e-05,-0.00019242742383457356,-2.457427272120876e-05,0.00022547090037328132,7.036606470743612e-05,6.009101867654465e-05,9.925114121567269e-06,0.00025601021016099135,0.0003936188106114023,0.0014163894638634764,-0.0003766042906385328,6.326700216900738e-05,-0.00011789463746139626,0.0014608947344363717,0.4029781222343445,19.792627334594727,0.3713042438030243,-20.082735061645508,-0.5761619210243225,-2.4630770683288574,0.16604940593242645,0
18,0.08419108390808105,-0.4029781222343445,-19.792627334594727,-0.3713042438030243,20.082735061645508,0.5761619210243225,2.4630770683288574,-0.16604940593242645,0.0,0.0,0.0,0.0,0.0,0.0,0.0,-0.38141647000168705,-0.09524449359962864,-0.23250428714892374,0.32854729396724336,-0.01590551133351296,0.09307652997303079,-0.2052179034078176,1.2135157850792533,-0.2200508041654239,-0.007487254322098013,-2.604073853100161,-0.10895429315169651,2.468122034761641,0.8264649831371175,1.2134413937687574,-0.2202432315892585,-0.0075118285948192216,-2.6038483821997875,-0.10888392708698907,2.4681821257803174,0.826474908251239,-0.00025601021016099135,-0.0003936188106114023,-0.0014163894638634764,0.0003766042906385328,-6.326700216900738e-05,0.00011789463746139626,-0.0014608947344363717,0.0,0.0,0.0,0.0,0.0,0.0,0.0,-7.439131049591374e-05,-0.00019242742383457356,-2.457427272120876e-05,0.00022547090037328132,7.036606470743612e-05,6.009101867654465e-05,9.925114121567269e-06,0.00025601021016099135,0.0003936188106114023,0.0014163894638634764,-0.0003766042906385328,6.326700216900738e-05,-0.00011789463746139626,0.0014608947344363717,0.4029781222343445,19.792627334594727,0.3713042438030243,-20.082735061645508,-0.5761619210243225,-2.4630770683288574,0.16604940593242645,0
19,0.08919191360473633,-0.4029781222343445,-19.792627334594727,-0.4466826617717743,20.106538772583008,0.5697532296180725,2.4694857597351074,-0.24112264811992645,0.0,0.0,0.0,0.0,0.0,0.0,0.0,-0.38675862423710283,-0.09237467754290711,-0.23315107495136606,0.3319412132237193,-0.015066980346448875,0.09339819457894953,-0.20525099587900605,1.2135157850792533,-0.22005077779726223,-0.007481964608556346,-2.60407704863153,-0.10895677487239364,2.468121322684818,0.8264722649703423,1.2134413937687574,-0.2202432315892585,-0.0075118285948192216,-2.6038483821997875,-0.10888392708698907,2.4681821257803174,0.826474908251239,0.0005932194685587242,-0.00043281275632492427,0.0001026525392303719,3.379332603633871e-05,-8.992385825828055e-05,-0.0002742353125669166,0.0011035211653934735,0.0,0.0,0.0,0.0,0.0,0.0,0.0,-7.439131049591374e-05,-0.00019245379199625545,-2.986398626287582e-05,0.00022866643174257462,7.284778540456172e-05,6.080309549938434e-05,2.643280896719169e-06,-0.0005932194685587242,0.00043281275632492427,-0.0001026525392303719,-3.379332603633871e-05,8.992385825828055e-05,0.0002742353125669166,-0.0011035211653934735,0.4029781222343445,19.792627334594727,0.4466826617717743,-20.106538772583008,-0.5697532296180725,-2.4694857597351074,0.24112264811992645,0
20,0.09423446655273438,-0.4029781222343445,-19.792627334594727,-0.4466826617717743,20.106538772583008,0.5697532296180725,2.4694857597351074,-0.24112264811992645,0.0,0.0,0.0,0.0,0.0,0.0,0.0,-0.38675862423710283,-0.09237467754290711,-0.23315107495136606,0.3319412132237193,-0.015066980346448875,0.09339819457894953,-0.20525099587900605,1.2135157850792533,-0.22005077779726223,-0.007481964608556346,-2.60407704863153,-0.10895677487239364,2.468121322684818,0.8264722649703423,1.2134413937687574,-0.2202432315892585,-0.0075118285948192216,-2.6038483821997875,-0.10888392708698907,2.4681821257803174,0.826474908251239,0.0005932194685587242,-0.00043281275632492427,0.0001026525392303719,3.379332603633871e-05,-8.992385825828055e-05,-0.0002742353125669166,0.0011035211653934735,0.0,0.0,0.0,0.0,0.0,0.0,0.0,-7.439131049591374e-05,-0.00019245379199625545,-2.986398626287582e-05,0.00022866643174257462,7.284778540456172e-05,6.080309549938434e-05,2.643280896719169e-06,-0.0005932194685587242,0.00043281275632492427,-0.0001026525392303719,-3.379332603633871e-05,8.992385825828055e-05,0.0002742353125669166,-0.0011035211653934735,0.4029781222343445,19.792627334594727,0.4466826617717743,-20.106538772583008,-0.5697532296180725,-2.4694857597351074,0.24112264811992645,0
21,0.09920263290405273,-0.3752071261405945,-19.844202041625977,-0.4466826617717743,20.106538772583008,0.5697532296180725,2.4566683769226074,-0.18710653483867645,0.0,0.0,0.0,0.0,0.0,0.0,0.0,-0.3915330763461872,-0.09630318197271089,-0.24079368990505737,0.3364511560125092,-0.014691420362874585,0.09384804531895873,-0.20628883337706375,1.2135138362374223,-0.22004739583421637,-0.007481967531129199,-2.6040780688269782,-0.1089567748904225,2.4681227468384637,0.826467322800162,1.2134413937687574,-0.2202432315892585,-0.0075118285948192216,-2.6038483821997875,-0.10888392708698907,2.4681821257803174,0.826474908251239,-0.000630255278310279,-9.520146681218165e-05,-0.0003444627927707755,-0.00013451270075570928,0.00012723676292019802,0.0002455650731557728,-0.0004415064634451119,0.0,0.0,0.0,0.0,0.0,0.0,0.0,-7.244246866489057e-05,-0.00019583575504211748,-2.9861063690022824e-05,0.000229686627190695,7.284780343343178e-05,5.937894185370496e-05,7.5854510770412276e-06,0.000630255278310279,9.520146681218165e-05,0.0003444627927707755,0.00013451270075570928,-0.00012723676292019802,-0.0002455650731557728,0.0004415064634451119,0.3752071261405945,19.844202041625977,0.4466826617717743,-20.106538772583008,-0.5697532296180725,-2.4566683769226074,0.18710653483867645,0
22,0.10422801971435547,-0.3752071261405945,-19.844202041625977,-0.4466826617717743,20.106538772583008,0.5697532296180725,2.4566683769226074,-0.18710653483867645,0.0,0.0,0.0,0.0,0.0,0.0,0.0,-0.3915330763461872,-0.09630318197271089,-0.24079368990505737,0.3364511560125092,-0.014691420362874585,0.09384804531895873,-0.20628883337706375,1.2135138362374223,-0.22004739583421637,-0.007481967531129199,-2.6040780688269782,-0.1089567748904225,2.4681227468384637,0.826467322800162,1.2134413937687574,-0.2202432315892585,-0.0075118285948192216,-2.6038483821997875,-0.10888392708698907,2.4681821257803174,0.826474908251239,-0.000630255278310279,-9.520146681218165e-05,-0.0003444627927707755,-0.00013451270075570928,0.00012723676292019802,0.0002455650731557728,-0.0004415064634451119,0.0,0.0,0.0,0.0,0.0,0.0,0.0,-7.244246866489057e-05,-0.00019583575504211748,-2.9861063690022824e-05,0.000229686627190695,7.284780343343178e-05,5.937894185370496e-05,7.5854510770412276e-06,0.000630255278310279,9.520146681218165e-05,0.0003444627927707755,0.00013451270075570928,-0.00012723676292019802,-0.0002455650731557728,0.0004415064634451119,0.3752071261405945,19.844202041625977,0.4466826617717743,-20.106538772583008,-0.5697532296180725,-2.4566683769226074,0.18710653483867645,0
23,0.10924315452575684,-0.3514034152030945,-19.844202041625977,-0.4466826617717743,20.106538772583008,0.5697532296180725,2.4694857597351074,-0.20083944499492645,0.0,0.0,0.0,0.0,0.0,0.0,0.0,-0.3860302669261961,-0.09250196694529496,-0.23911481898260367,0.33038686107696114,-0.014998859574183697,0.09208767545895852,-0.20553537473745262,1.2135121658015668,-0.22004715851987355,-0.007481964608561845,-2.6040777107524278,-0.10895677489042281,2.468121322684818,0.8264688486970133,1.2134413937687574,-0.2202432315892585,-0.0075118285948192216,-2.6038483821997875,-0.10888392708698907,2.4681821257803174,0.826474908251239,-0.0008802877817231754,-0.0005785549833696389,0.00030492173276381,-0.00018101749976886201,-0.0001284339810745998,-2.166620012742039e-05,-0.00012715373270220015,0.0,0.0,0.0,0.0,0.0,0.0,0.0,-7.077203280947408e-05,-0.0001960730693849333,-2.9863986257376747e-05,0.00022932855264024,7.284780343373709e-05,6.080309549938434e-05,6.0595542257235735e-06,0.0008802877817231754,0.0005785549833696389,-0.00030492173276381,0.00018101749976886201,0.0001284339810745998,2.166620012742039e-05,0.00012715373270220015,0.3514034152030945,19.844202041625977,0.4466826617717743,-20.106538772583008,-0.5697532296180725,-2.4694857597351074,0.20083944499492645,0
24,0.11423325538635254,-0.3514034152030945,-19.844202041625977,-0.4466826617717743,20.106538772583008,0.5697532296180725,2.4694857597351074,-0.20083944499492645,0.0,0.0,0.0,0.0,0.0,0.0,0.0,-0.3860302669261961,-0.09250196694529496,-0.23911481898260367,0.33038686107696114,-0.014998859574183697,0.09208767545895852,-0.20553537473745262,1.2135121658015668,-0.22004715851987355,-0.007481964608561845,-2.6040777107524278,-0.10895677489042281,2.468121322684818,0.8264688486970133,1.2134413937687574,-0.2202432315892585,-0.0075118285948192216,-2.6038483821997875,-0.10888392708698907,2.4681821257803174,0.826474908251239,-0.0008802877817231754,-0.0005785549833696389,0.00030492173276381,-0.00018101749976886201,-0.0001284339810745998,-2.166620012742039e-05,-0.00012715373270220015,0.0,0.0,0.0,0.0,0.0,0.0,0.0,-7.077203280947408e-05,-0.0001960730693849333,-2.9863986257376747e-05,0.00022932855264024,7.284780343373709e-05,6.080309549938434e-05,6.0595542257235735e-06,0.0008802877817231754,0.0005785549833696389,-0.00030492173276381,0.00018101749976886201,0.0001284339810745998,2.166620012742039e-05,0.00012715373270220015,0.3514034152030945,19.844202041625977,0.4466826617717743,-20.106538772583008,-0.5697532296180725,-2.4694857597351074,0.20083944499492645,0
25,0.11928486824035645,-0.3514034152030945,-19.891809463500977,-0.3990752398967743,20.106538772583008,0.5761619210243225,2.4493441581726074,-0.17337362468242645,0.0,0.0,0.0,0.0,0.0,0.0,0.0,-0.38471861913324484,-0.10103770943988807,-0.23803228777781793,0.3331900460939217,-0.015488847327371985,0.0931368473004963,-0.207121266461856,1.2135121658015668,-0.22004381764771647,-0.0074853054802668725,-2.604075848802751,-0.10895747382397186,2.468123560640547,0.8264657969392009,1.2134413937687574,-0.2202432315892585,-0.0075118285948192216,-2.6038483821997875,-0.10888392708698907,2.4681821257803174,0.826474908251239,-0.0006240069828968473,0.00040319974456602664,-0.0006939018249387126,0.00023247002805661075,-0.00028253210566448785,0.0006367487825024526,-0.0011477398991879698,0.0,0.0,0.0,0.0,0.0,0.0,0.0,-7.077203280947408e-05,-0.0001994139415420204,-2.6523114552349028e-05,0.00022746660296357746,7.354673698278802e-05,5.856513977020583e-05,9.111312038179165e-06,0.0006240069828968473,-0.00040319974456602664,0.0006939018249387126,-0.00023247002805661075,0.00028253210566448785,-0.0006367487825024526,0.0011477398991879698,0.3514034152030945,19.891809463500977,0.3990752398967743,-20.106538772583008,-0.5761619210243225,-2.4493441581726074,0.17337362468242645,0
26,0.12423086166381836,-0.3514034152030945,-19.891809463500977,-0.3990752398967743,20.106538772583008,0.5761619210243225,2.4493441581726074,-0.17337362468242645,0.0,0.0,0.0,0.0,0.0,0.0,0.0,-0.38471861913324484,-0.10103770943988807,-0.23803228777781793,0.3331900460939217,-0.015488847327371985,0.0931368473004963,-0.207121266461856,1.2135121658015668,-0.22004381764771647,-0.0074853054802668725,-2.604075848802751,-0.10895747382397186,2.468123560640547,0.8264657969392009,1.2134413937687574,-0.2202432315892585,-0.0075118285948192216,-2.6038483821997875,-0.10888392708698907,2.4681821257803174,0.826474908251239,-0.0006240069828968473,0.00040319974456602664,-0.0006939018249387126,0.00023247002805661075,-0.00028253210566448785,0.0006367487825024526,-0.0011477398991879698,0.0,0.0,0.0,0.0,0.0,0.0,0.0,-7.077203280947408e-05,-0.0001994139415420204,-2.6523114552349028e-05,0.00022746660296357746,7.354673698278802e-05,5.856513977020583e-05,9.111312038179165e-06,0.0006240069828968473,-0.00040319974456602664,0.0006939018249387126,-0.00023247002805661075,0.00028253210566448785,-0.0006367487825024526,0.0011477398991879698,0.3514034152030945,19.891809463500977,0.3990752398967743,-20.106538772583008,-0.5761619210243225,-2.4493441581726074,0.17337362468242645,0
27,0.1292285919189453,-0.3752071261405945,-19.868005752563477,-0.4228789508342743,20.106538772583008,0.5761619210243225,2.4630770683288574,-0.24844686686992645,0.0,0.0,0.0,0.0,0.0,0.0,0.0,-0.3456994577342138,-0.10322009860691092,-0.19746143012135736,0.32627646072404287,-0.017294430216033066,0.0927819973778288,-0.2065780398721275,1.2135138362374223,-0.22004548808357172,-0.007483635044411609,-2.604075568154756,-0.10895748696717153,2.468122034761641,0.8264742561481249,1.2134413937687574,-0.2202432315892585,-0.0075118285948192216,-2.6038483821997875,-0.10888392708698907,2.4681821257803174,0.826474908251239,0.0006882845086721443,-9.171914737350063e-05,-0.0005430137461498784,-0.00038823779479293924,-0.00015220752565198227,3.62538810093831e-05,-0.007363349732864413,0.0,0.0,0.0,0.0,0.0,0.0,0.0,-7.244246866489057e-05,-0.00019774350568677046,-2.8193550407612858e-05,0.0002271859549685118,7.355988018245552e-05,6.009101867654465e-05,6.52103114173741e-07,-0.0006882845086721443,9.171914737350063e-05,0.0005430137461498784,0.00038823779479293924,0.00015220752565198227,-3.62538810093831e-05,0.007363349732864413,0.3752071261405945,19.868005752563477,0.4228789508342743,-20.106538772583008,-0.5761619210243225,-2.4630770683288574,0.24844686686992645,0
28,0.13418149948120117,-0.3752071261405945,-19.868005752563477,-0.4228789508342743,20.106538772583008,0.5761619210243225,2.4630770683288574,-0.24844686686992645,0.0,0.0,0.0,0.0,0.0,0.0,0.0,-0.3456994577342138,-0.10322009860691092,-0.19746143012135736,0.32627646072404287,-0.017294430216033066,0.0927819973778288,-0.2065780398721275,1.2135138362374223,-0.22004548808357172,-0.007483635044411609,-2.604075568154756,-0.10895748696717153,2.468122034761641,0.8264742561481249,1.2134413937687574,-0.2202432315892585,-0.0075118285948192216,-2.6038483821997875,-0.10888392708698907,2.4681821257803174,0.826474908251239,0.0006882845086721443,-9.171914737350063e-05,-0.0005430137461498784,-0.00038823779479293924,-0.00015220752565198227,3.62538810093831e-05,-0.007363349732864413,0.0,0.0,0.0,0.0,0.0,0.0,0.0,-7.244246866489057e-05,-0.00019774350568677046,-2.8193550407612858e-05,0.0002271859549685118,7.355988018245552e-05,6.009101867654465e-05,6.52103114173741e-07,-0.0006882845086721443,9.171914737350063e-05,0.0005430137461498784,0.00038823779479293924,0.00015220752565198227,-3.62538810093831e-05,0.007363349732864413,0.3752071261405945,19.868005752563477,0.4228789508342743,-20.106538772583008,-0.5761619210243225,-2.4630770683288574,0.24844686686992645,0
29,0.13922810554504395,-0.3514034152030945,-19.792627334594727,-0.4466826617717743,20.130342483520508,0.5761619210243225,2.4630770683288574,-0.20724813640117645,0.0,0.0,0.0,0.0,0.0,0.0,0.0,-0.3799886247257619,-0.10237479200027007,-0.23687336763003525,0.3288337256118972,-0.014238977472981723,0.09239874171320711,-0.2058505877930079,1.2135121658015668,-0.22005077779711338,-0.0074820435180233775,-2.6040793902686894,-0.10895748696724572,2.468122034761641,0.8264695607745008,1.2134413937687574,-0.2202432315892585,-0.0075118285948192216,-2.6038483821997875,-0.10888392708698907,2.4681821257803174,0.826474908251239,0.00012454086363475876,-0.0007044720884975737,0.00028198672329955504,-0.0005037040176645542,-0.00019115274913827365,5.224505312634028e-05,0.007098749922150655,0.0,0.0,0.0,0.0,0.0,0.0,0.0,-7.077203280947408e-05,-0.0001924537921451086,-2.9785076795844044e-05,0.0002310080689018612,7.355988025664617e-05,6.009101867654465e-05,5.3474767381933574e-06,-0.00012454086363475876,0.0007044720884975737,-0.00028198672329955504,0.0005037040176645542,0.00019115274913827365,-5.224505312634028e-05,-0.007098749922150655,0.3514034152030945,19.792627334594727,0.4466826617717743,-20.130342483520508,-0.5761619210243225,-2.4630770683288574,0.20724813640117645,0
30,0.14425349235534668,-0.3514034152030945,-19.792627334594727,-0.4466826617717743,20.130342483520508,0.5761619210243225,2.4630770683288574,-0.20724813640117645,0.0,0.0,0.0,0.0,0.0,0.0,0.0,-0.3799886247257619,-0.10237479200027007,-0.23687336763003525,0.3288337256118972,-0.014238977472981723,0.09239874171320711,-0.2058505877930079,1.2135121658015668,-0.22005077779711338,-0.0074820435180233775,-2.6040793902686894,-0.10895748696724572,2.468122034761641,0.8264695607745008,1.2134413937687574,-0.2202432315892585,-0.0075118285948192216,-2.6038483821997875,-0.10888392708698907,2.4681821257803174,0.826474908251239,0.00012454086363475876,-0.0007044720884975737,0.00028198672329955504,-0.0005037040176645542,-0.00019115274913827365,5.224505312634028e-05,0.007098749922150655,0.0,0.0,0.0,0.0,0.0,0.0,0.0,-7.077203280947408e-05,-0.0001924537921451086,-2.9785076795844044e-05,0.0002310080689018612,7.355988025664617e-05,6.009101867654465e-05,5.3474767381933574e-06,-0.00012454086363475876,0.0007044720884975737,-0.00028198672329955504,0.0005037040176645542,0.00019115274913827365,-5.224505312634028e-05,-0.007098749922150655,0.3514034152030945,19.792627334594727,0.4466826617717743,-20.130342483520508,-0.5761619210243225,-2.4630770683288574,0.20724813640117645,0
31,0.14930319786071777,-0.3752071261405945,-19.816431045532227,-0.4228789508342743,20.082735061645508,0.5697532296180725,2.4566683769226074,-0.20724813640117645,0.0,0.0,0.0,0.0,0.0,0.0,0.0,-0.3795174121324553,-0.09745462691058858,-0.24086709860954075,0.3289578226681599,-0.01401227275281841,0.09194886946445216,-0.20616821313059466,1.2135138362374223,-0.22004910736125813,-0.0074836350448570545,-2.604076406621789,-0.10895677489042281,2.4681227468384637,0.8264695607738363,1.2134413937687574,-0.2202432315892585,-0.0075118285948192216,-2.6038483821997875,-0.10888392708698907,2.4681821257803174,0.826474908251239,0.00011572729007272743,0.0004454190530404868,1.9996498656113197e-05,0.0001962966999805875,4.6419769164311206e-05,0.000355647543168895,0.0007538508410561914,0.0,0.0,0.0,0.0,0.0,0.0,0.0,-7.244246866489057e-05,-0.00019412422800035856,-2.8193549962167094e-05,0.00022802442200164919,7.284780343373709e-05,5.937894185370496e-05,5.34747740277286e-06,-0.00011572729007272743,-0.0004454190530404868,-1.9996498656113197e-05,-0.0001962966999805875,-4.6419769164311206e-05,-0.000355647543168895,-0.0007538508410561914,0.3752071261405945,19.816431045532227,0.4228789508342743,-20.082735061645508,-0.5697532296180725,-2.4566683769226074,0.20724813640117645,0
32,0.15427279472351074,-0.3752071261405945,-19.816431045532227,-0.4228789508342743,20.082735061645508,0.5697532296180725,2.4566683769226074,-0.20724813640117645,0.0,0.0,0.0,0.0,0.0,0.0,0.0,-0.3795174121324553,-0.09745462691058858,-0.24086709860954075,0.3289578226681599,-0.01401227275281841,0.09194886946445216,-0.20616821313059466,1.2135138362374223,-0.22004910736125813,-0.0074836350448570545,-2.604076406621789,-0.10895677489042281,2.4681227468384637,0.8264695607738363,1.2134413937687574,-0.2202432315892585,-0.0075118285948192216,-2.6038483821997875,-0.10888392708698907,2.4681821257803174,0.826474908251239,0.00011572729007272743,0.0004454190530404868,1.9996498656113197e-05,0.0001962966999805875,4.6419769164311206e-05,0.000355647543168895,0.0007538508410561914,0.0,0.0,0.0,0.0,0.0,0.0,0.0,-7.244246866489057e-05,-0.00019412422800035856,-2.8193549962167094e-05,0.00022802442200164919,7.284780343373709e-05,5.937894185370496e-05,5.34747740277286e-06,-0.00011572729007272743,-0.0004454190530404868,-1.9996498656113197e-05,-0.0001962966999805875,-4.6419769164311206e-05,-0.000355647543168895,-0.0007538508410561914,0.3752071261405945,19.816431045532227,0.4228789508342743,-20.082735061645508,-0.5697532296180725,-2.4566683769226074,0.20724813640117645,0
33,0.15923166275024414,-0.4029781222343445,-19.844202041625977,-0.4704863727092743,20.082735061645508,0.5642600655555725,2.4566683769226074,-0.20083944499492645,0.0,0.0,0.0,0.0,0.0,0.0,0.0,-0.3803656262446775,-0.10042359180211877,-0.24173465025796526,0.33656722744734446,-0.013960105486652382,0.09318570321341448,-0.20543717468574946,1.2135157850792533,-0.220047158519427,-0.007480294172701083,-2.604073898899708,-0.10895616453886031,2.4681227468384637,0.8264688486970133,1.2134413937687574,-0.2202432315892585,-0.0075118285948192216,-2.6038483821997875,-0.10888392708698907,2.4681821257803174,0.826474908251239,0.0005583341176563733,0.0002255297644297171,0.0008305285088358672,0.000885904955957931,0.000246171854499071,0.0003370363128113332,0.00027888406817040955,0.0,0.0,0.0,0.0,0.0,0.0,0.0,-7.439131049591374e-05,-0.00019607306983149275,-3.153442211813878e-05,0.00022551669992054713,7.223745187123765e-05,5.937894185370496e-05,6.0595542257235735e-06,-0.0005583341176563733,-0.0002255297644297171,-0.0008305285088358672,-0.000885904955957931,-0.000246171854499071,-0.0003370363128113332,-0.00027888406817040955,0.4029781222343445,19.844202041625977,0.4704863727092743,-20.082735061645508,-0.5642600655555725,-2.4566683769226074,0.20083944499492645,0
34,0.16423559188842773,-0.4029781222343445,-19.844202041625977,-0.4704863727092743,20.082735061645508,0.5642600655555725,2.4566683769226074,-0.20083944499492645,0.0,0.0,0.0,0.0,0.0,0.0,0.0,-0.3803656262446775,-0.10042359180211877,-0.24173465025796526,0.33656722744734446,-0.013960105486652382,0.09318570321341448,-0.20543717468574946,1.2135157850792533,-0.220047158519427,-0.007480294172701083,-2.604073898899708,-0.10895616453886031,2.4681227468384637,0.8264688486970133,1.2134413937687574,-0.2202432315892585,-0.0075118285948192216,-2.6038483821997875,-0.10888392708698907,2.4681821257803174,0.826474908251239,0.0005583341176563733,0.0002255297644297171,0.0008305285088358672,0.000885904955957931,0.000246171854499071,0.0003370363128113332,0.00027888406817040955,0.0,0.0,0.0,0.0,0.0,0.0,0.0,-7.439131049591374e-05,-0.00019607306983149275,-3.153442211813878e-05,0.00022551669992054713,7.223745187123765e-05,5.937894185370496e-05,6.0595542257235735e-06,-0.0005583341176563733,-0.0002255297644297171,-0.0008305285088358672,-0.000885904955957931,-0.000246171854499071,-0.0003370363128113332,-0.00027888406817040955,0.4029781222343445,19.844202041625977,0.4704863727092743,-20.082735061645508,-0.5642600655555725,-2.4566683769226074,0.20083944499492645,0
35,0.1691756248474121,-0.4267818331718445,-19.844202041625977,-0.4704863727092743,20.130342483520508,0.5642600655555725,2.4566683769226074,-0.18710653483867645,0.0,0.0,0.0,0.0,0.0,0.0,0.0,-0.38315267967072575,-0.09222598483091113,-0.24434169211896434,0.3311723635609182,-0.01469313534154988,0.0925618281494009,-0.2044011536136111,1.2135174555151087,-0.220047158519427,-0.007480294172701083,-2.604078996841096,-0.10895616453886031,2.468122746892299,0.8264673228181071,1.2134413937687574,-0.2202432315892585,-0.0075118285948192216,-2.6038483821997875,-0.10888392708698907,2.4681821257803174,0.826474908251239,0.0008334250308371467,0.0003587137225786357,0.00028186348788562137,-0.0006802071184294503,0.00029378861496057147,0.0003561262344467219,-0.0009618908410431987,0.0,0.0,0.0,0.0,0.0,0.0,0.0,-7.606174635133023e-05,-0.00019607306983149275,-3.153442211813878e-05,0.0002306146413082466,7.223745187123765e-05,5.9378888018546405e-05,7.585433131951369e-06,-0.0008334250308371467,-0.0003587137225786357,-0.00028186348788562137,0.0006802071184294503,-0.00029378861496057147,-0.0003561262344467219,0.0009618908410431987,0.4267818331718445,19.844202041625977,0.4704863727092743,-20.130342483520508,-0.5642600655555725,-2.4566683769226074,0.18710653483867645,0
36,0.17423343658447266,-0.4267818331718445,-19.844202041625977,-0.4704863727092743,20.130342483520508,0.5642600655555725,2.4566683769226074,-0.18710653483867645,0.0,0.0,0.0,0.0,0.0,0.0,0.0,-0.38315267967072575,-0.09222598483091113,-0.24434169211896434,0.3311723635609182,-0.01469313534154988,0.0925618281494009,-0.2044011536136111,1.2135174555151087,-0.220047158519427,-0.007480294172701083,-2.604078996841096,-0.10895616453886031,2.468122746892299,0.8264673228181071,1.2134413937687574,-0.2202432315892585,-0.0075118285948192216,-2.6038483821997875,-0.10888392708698907,2.4681821257803174,0.826474908251239,0.0008334250308371467,0.0003587137225786357,0.00028186348788562137,-0.0006802071184294503,0.00029378861496057147,0.0003561262344467219,-0.0009618908410431987,0.0,0.0,0.0,0.0,0.0,0.0,0.0,-7.606174635133023e-05,-0.00019607306983149275,-3.153442211813878e-05,0.0002306146413082466,7.223745187123765e-05,5.9378888018546405e-05,7.585433131951369e-06,-0.0008334250308371467,-0.0003587137225786357,-0.00028186348788562137,0.0006802071184294503,-0.00029378861496057147,-0.0003561262344467219,0.0009618908410431987,0.4267818331718445,19.844202041625977,0.4704863727092743,-20.130342483520508,-0.5642600655555725,-2.4566683769226074,0.18710653483867645,0
37,0.17926621437072754,-0.4267818331718445,-19.844202041625977,-0.4704863727092743,20.130342483520508,0.5642600655555725,2.4566683769226074,-0.18710653483867645,0.0,0.0,0.0,0.0,0.0,0.0,0.0,-0.38315267967072575,-0.09222598483091113,-0.24434169211896434,0.3311723635609182,-0.01469313534154988,0.0925618281494009,-0.2044011536136111,1.2135174555151087,-0.220047158519427,-0.007480294172701083,-2.604078996841096,-0.10895616453886031,2.468122746892299,0.8264673228181071,1.2134413937687574,-0.2202432315892585,-0.0075118285948192216,-2.6038483821997875,-0.10888392708698907,2.4681821257803174,0.826474908251239,0.0008334250308371467,0.0003587137225786357,0.00028186348788562137,-0.0006802071184294503,0.00029378861496057147,0.0003561262344467219,-0.0009618908410431987,0.0,0.0,0.0,0.0,0.0,0.0,0.0,-7.606174635133023e-05,-0.00019607306983149275,-3.153442211813878e-05,0.0002306146413082466,7.223745187123765e-05,5.9378888018546405e-05,7.585433131951369e-06,-0.0008334250308371467,-0.0003587137225786357,-0.00028186348788562137,0.0006802071184294503,-0.00029378861496057147,-0.0003561262344467219,0.0009618908410431987,0.4267818331718445,19.844202041625977,0.4704863727092743,-20.130342483520508,-0.5642600655555725,-2.4566683769226074,0.18710653483867645,0
38,0.18423104286193848,-0.4267818331718445,-19.844202041625977,-0.4704863727092743,20.130342483520508,0.5642600655555725,2.4566683769226074,-0.18710653483867645,0.0,0.0,0.0,0.0,0.0,0.0,0.0,-0.38315267967072575,-0.09222598483091113,-0.24434169211896434,0.3311723635609182,-0.01469313534154988,0.0925618281494009,-0.2044011536136111,1.2135174555151087,-0.220047158519427,-0.007480294172701083,-2.604078996841096,-0.10895616453886031,2.468122746892299,0.8264673228181071,1.2134413937687574,-0.2202432315892585,-0.0075118285948192216,-2.6038483821997875,-0.10888392708698907,2.4681821257803174,0.826474908251239,0.0008334250308371467,0.0003587137225786357,0.00028186348788562137,-0.0006802071184294503,0.00029378861496057147,0.0003561262344467219,-0.0009618908410431987,0.0,0.0,0.0,0.0,0.0,0.0,0.0,-7.606174635133023e-05,-0.00019607306983149275,-3.153442211813878e-05,0.0002306146413082466,7.223745187123765e-05,5.9378888018546405e-05,7.585433131951369e-06,-0.0008334250308371467,-0.0003587137225786357,-0.00028186348788562137,0.0006802071184294503,-0.00029378861496057147,-0.0003561262344467219,0.0009618908410431987,0.4267818331718445,19.844202041625977,0.4704863727092743,-20.130342483520508,-0.5642600655555725,-2.4566683769226074,0.18710653483867645,0
39,0.1892533302307129,-0.4029781222343445,-19.868005752563477,-0.4228789508342743,20.106538772583008,0.5642600655555725,2.4630770683288574,-0.22830526530742645,0.0,0.0,0.0,0.0,0.0,0.0,0.0,-0.38195381896106406,-0.0913130823599869,-0.24403318682982214,0.3291518590852019,-0.014961295382530474,0.09252022732533202,-0.20458871078317173,1.2135157850792533,-0.22004548808357172,-0.007483635044411609,-2.6040751070454,-0.10895616453886031,2.468122036215192,0.8264719004548258,1.2134413937687574,-0.2202432315892585,-0.0075118285948192216,-2.6038483821997875,-0.10888392708698907,2.4681821257803174,0.826474908251239,-0.00011219688889627123,0.0008297693690044128,-0.0009412086764414719,-0.0002904988422382155,0.0002998325271534877,0.0001500165220041566,0.0011239470625195537,0.0,0.0,0.0,0.0,0.0,0.0,0.0,-7.439131049591374e-05,-0.00019774350568677046,-2.8193550407612858e-05,0.0002267248456124804,7.223745187123765e-05,6.0089565125487354e-05,3.0077964132679824e-06,0.00011219688889627123,-0.0008297693690044128,0.0009412086764414719,0.0002904988422382155,-0.0002998325271534877,-0.0001500165220041566,-0.0011239470625195537,0.4029781222343445,19.868005752563477,0.4228789508342743,-20.106538772583008,-0.5642600655555725,-2.4630770683288574,0.22830526530742645,0
40,0.1942431926727295,-0.4029781222343445,-19.868005752563477,-0.4228789508342743,20.106538772583008,0.5642600655555725,2.4630770683288574,-0.22830526530742645,0.0,0.0,0.0,0.0,0.0,0.0,0.0,-0.38195381896106406,-0.0913130823599869,-0.24403318682982214,0.3291518590852019,-0.014961295382530474,0.09252022732533202,-0.20458871078317173,1.2135157850792533,-0.22004548808357172,-0.007483635044411609,-2.6040751070454,-0.10895616453886031,2.468122036215192,0.8264719004548258,1.2134413937687574,-0.2202432315892585,-0.0075118285948192216,-2.6038483821997875,-0.10888392708698907,2.4681821257803174,0.826474908251239,-0.00011219688889627123,0.0008297693690044128,-0.0009412086764414719,-0.0002904988422382155,0.0002998325271534877,0.0001500165220041566,0.0011239470625195537,0.0,0.0,0.0,0.0,0.0,0.0,0.0,-7.439131049591374e-05,-0.00019774350568677046,-2.8193550407612858e-05,0.0002267248456124804,7.223745187123765e-05,6.0089565125487354e-05,3.0077964132679824e-06,0.00011219688889627123,-0.0008297693690044128,0.0009412086764414719,0.0002904988422382155,-0.0002998325271534877,-0.0001500165220041566,-0.0011239470625195537,0.4029781222343445,19.868005752563477,0.4228789508342743,-20.106538772583008,-0.5642600655555725,-2.4630770683288574,0.22830526530742645,0
41,0.19919943809509277,-0.3752071261405945,-19.844202041625977,-0.4228789508342743,20.082735061645508,0.5697532296180725,2.4566683769226074,-0.23471395671367645,0.0,0.0,0.0,0.0,0.0,0.0,0.0,-0.38440391879182095,-0.10053800714992668,-0.24558282975757942,0.334120098097402,-0.014352456161324408,0.09337735589888946,-0.20285870990121174,1.2135138362374223,-0.220047158519427,-0.007483635044411609,-2.6040764034792154,-0.10895677489042281,2.4681227468384717,0.8264726125316487,1.2134413937687574,-0.2202432315892585,-0.0075118285948192216,-2.6038483821997875,-0.10888392708698907,2.4681821257803174,0.826474908251239,-0.00030579495361868854,-0.0005700481766854944,-0.00042762512680924203,0.00029045086142799825,-0.0008734437618652948,0.00014187295361709913,0.001252196436536321,0.0,0.0,0.0,0.0,0.0,0.0,0.0,-7.244246866489057e-05,-0.00019607306983149275,-2.8193550407612858e-05,0.0002280212794278924,7.284780343373709e-05,5.937894184571135e-05,2.295719590317269e-06,0.00030579495361868854,0.0005700481766854944,0.00042762512680924203,-0.00029045086142799825,0.0008734437618652948,-0.00014187295361709913,-0.001252196436536321,0.3752071261405945,19.844202041625977,0.4228789508342743,-20.082735061645508,-0.5697532296180725,-2.4566683769226074,0.23471395671367645,0
42,0.20418620109558105,-0.3752071261405945,-19.844202041625977,-0.4228789508342743,20.082735061645508,0.5697532296180725,2.4566683769226074,-0.23471395671367645,0.0,0.0,0.0,0.0,0.0,0.0,0.0,-0.38440391879182095,-0.10053800714992668,-0.24558282975757942,0.334120098097402,-0.014352456161324408,0.09337735589888946,-0.20285870990121174,1.2135138362374223,-0.220047158519427,-0.007483635044411609,-2.6040764034792154,-0.10895677489042281,2.4681227468384717,0.8264726125316487,1.2134413937687574,-0.2202432315892585,-0.0075118285948192216,-2.6038483821997875,-0.10888392708698907,2.4681821257803174,0.826474908251239,-0.00030579495361868854,-0.0005700481766854944,-0.00042762512680924203,0.00029045086142799825,-0.0008734437618652948,0.00014187295361709913,0.001252196436536321,0.0,0.0,0.0,0.0,0.0,0.0,0.0,-7.244246866489057e-05,-0.00019607306983149275,-2.8193550407612858e-05,0.0002280212794278924,7.284780343373709e-05,5.937894184571135e-05,2.295719590317269e-06,0.00030579495361868854,0.0005700481766854944,0.00042762512680924203,-0.00029045086142799825,0.0008734437618652948,-0.00014187295361709913,-0.001252196436536321,0.3752071261405945,19.844202041625977,0.4228789508342743,-20.082735061645508,-0.5697532296180725,-2.4566683769226074,0.23471395671367645,0
43,0.20922470092773438,-0.3514034152030945,-19.891809463500977,-0.4228789508342743,20.154146194458008,0.5642600655555725,2.4694857597351074,-0.20724813640117645,0.0,0.0,0.0,0.0,0.0,0.0,0.0,-0.3867004219224412,-0.10472208619108007,-0.24403654160692503,0.3321661767282676,-0.015084405662507027,0.09264146352945629,-0.20300976324568953,1.2135121658015668,-0.22004381764771647,-0.007483635044411609,-2.6040791075993743,-0.10895616453886031,2.468121322684818,0.8264695607738363,1.2134413937687574,-0.2202432315892585,-0.0075118285948192216,-2.6038483821997875,-0.10888392708698907,2.4681821257803174,0.826474908251239,-0.0005805078648862124,0.0006364841366522136,-0.00029762154792338416,-0.0012187070772081388,-0.009179855200613533,-0.00019273213186295898,-9.159385251118472e-05,0.0,0.0,0.0,0.0,0.0,0.0,0.0,-7.077203280947408e-05,-0.0001994139415420204,-2.8193550407612858e-05,0.00023072539958679528,7.223745187123765e-05,6.080309549938434e-05,5.34747740277286e-06,0.0005805078648862124,-0.0006364841366522136,0.00029762154792338416,0.0012187070772081388,0.009179855200613533,0.00019273213186295898,9.159385251118472e-05,0.3514034152030945,19.891809463500977,0.4228789508342743,-20.154146194458008,-0.5642600655555725,-2.4694857597351074,0.20724813640117645,0
44,0.21423959732055664,-0.3514034152030945,-19.891809463500977,-0.4228789508342743,20.154146194458008,0.5642600655555725,2.4694857597351074,-0.20724813640117645,0.0,0.0,0.0,0.0,0.0,0.0,0.0,-0.3867004219224412,-0.10472208619108007,-0.24403654160692503,0.3321661767282676,-0.015084405662507027,0.09264146352945629,-0.20300976324568953,1.2135121658015668,-0.22004381764771647,-0.007483635044411609,-2.6040791075993743,-0.10895616453886031,2.468121322684818,0.8264695607738363,1.2134413937687574,-0.2202432315892585,-0.0075118285948192216,-2.6038483821997875,-0.10888392708698907,2.4681821257803174,0.826474908251239,-0.0005805078648862124,0.0006364841366522136,-0.00029762154792338416,-0.0012187070772081388,-0.009179855200613533,-0.00019273213186295898,-9.159385251118472e-05,0.0,0.0,0.0,0.0,0.0,0.0,0.0,-7.077203280947408e-05,-0.0001994139415420204,-2.8193550407612858e-05,0.00023072539958679528,7.223745187123765e-05,6.080309549938434e-05,5.34747740277286e-06,0.0005805078648862124,-0.0006364841366522136,0.00029762154792338416,0.0012187070772081388,0.009179855200613533,0.00019273213186295898,9.159385251118472e-05,0.3514034152030945,19.891809463500977,0.4228789508342743,-20.154146194458008,-0.5642600655555725,-2.4694857597351074,0.20724813640117645,0
45,0.21923565864562988,-0.3514034152030945,-19.816431045532227,-0.4466826617717743,20.082735061645508,0.5642600655555725,2.4630770683288574,-0.22098104655742645,0.0,0.0,0.0,0.0,0.0,0.0,0.0,-0.3836434629287423,-0.09963662375011895,-0.23919530735899655,0.32952917062887555,-0.015125093163112101,0.09166390285712231,-0.20269769139848837,1.2135121658015668,-0.22004910736125813,-0.007481967531129199,-2.60407638008948,-0.10895580967046596,2.468122034761641,0.8264710866527425,1.2134413937687574,-0.2202432315892585,-0.0075118285948192216,-2.6038483821997875,-0.10888392708698907,2.4681821257803174,0.826474908251239,-8.54560893675383e-05,-0.00014253969210281471,0.000759999785031037,0.0007458598473102132,-0.00026569022798589585,0.00013932769928859257,0.0006975783494008756,0.0,0.0,0.0,0.0,0.0,0.0,0.0,-7.077203280947408e-05,-0.00019412422800035856,-2.9861063690022824e-05,0.00022799788969241064,7.188258347688714e-05,6.009101867654465e-05,3.8215984965450644e-06,8.54560893675383e-05,0.00014253969210281471,-0.000759999785031037,-0.0007458598473102132,0.00026569022798589585,-0.00013932769928859257,-0.0006975783494008756,0.3514034152030945,19.816431045532227,0.4466826617717743,-20.082735061645508,-0.5642600655555725,-2.4630770683288574,0.22098104655742645,0
46,0.2242431640625,-0.3514034152030945,-19.816431045532227,-0.4466826617717743,20.082735061645508,0.5642600655555725,2.4630770683288574,-0.22098104655742645,0.0,0.0,0.0,0.0,0.0,0.0,0.0,-0.3836434629287423,-0.09963662375011895,-0.23919530735899655,0.32952917062887555,-0.015125093163112101,0.09166390285712231,-0.20269769139848837,1.2135121658015668,-0.22004910736125813,-0.007481967531129199,-2.60407638008948,-0.10895580967046596,2.468122034761641,0.8264710866527425,1.2134413937687574,-0.2202432315892585,-0.0075118285948192216,-2.6038483821997875,-0.10888392708698907,2.4681821257803174,0.826474908251239,-8.54560893675383e-05,-0.00014253969210281471,0.000759999785031037,0.0007458598473102132,-0.00026569022798589585,0.00013932769928859257,0.0006975783494008756,0.0,0.0,0.0,0.0,0.0,0.0,0.0,-7.077203280947408e-05,-0.00019412422800035856,-2.9861063690022824e-05,0.00022799788969241064,7.188258347688714e-05,6.009101867654465e-05,3.8215984965450644e-06,8.54560893675383e-05,0.00014253969210281471,-0.000759999785031037,-0.0007458598473102132,0.00026569022798589585,-0.00013932769928859257,-0.0006975783494008756,0.3514034152030945,19.816431045532227,0.4466826617717743,-20.082735061645508,-0.5642600655555725,-2.4630770683288574,0.22098104655742645,0
47,0.2292325496673584,-0.3236324191093445,-19.816431045532227,-0.3990752398967743,20.154146194458008,0.5642600655555725,2.4630770683288574,-0.22830526530742645,0.0,0.0,0.0,0.0,0.0,0.0,0.0,-0.37821768874596545,-0.10683827228394133,-0.23449462403825877,0.3317012987479052,-0.016947617883207037,0.09258840882747689,-0.20207775174351067,1.2135102169597358,-0.22004910736125813,-0.007485305480316366,-2.6040791929546274,-0.10895616453285059,2.468122034761641,0.8264719004548258,1.2134413937687574,-0.2202432315892585,-0.0075118285948192216,-2.6038483821997875,-0.10888392708698907,2.4681821257803174,0.826474908251239,-0.0009692054393856303,-0.0007897588257661067,-0.0006851338601383183,-0.0013350071564935655,0.0022336994542984496,3.631423924690118e-05,0.0016046506549108222,0.0,0.0,0.0,0.0,0.0,0.0,0.0,-6.882319097845091e-05,-0.00019412422800035856,-2.6523114502855633e-05,0.000230810754839883,7.223744586151715e-05,6.009101867654465e-05,3.0077964132679824e-06,0.0009692054393856303,0.0007897588257661067,0.0006851338601383183,0.0013350071564935655,-0.0022336994542984496,-3.631423924690118e-05,-0.0016046506549108222,0.3236324191093445,19.816431045532227,0.3990752398967743,-20.154146194458008,-0.5642600655555725,-2.4630770683288574,0.22830526530742645,0
48,0.23426604270935059,-0.3236324191093445,-19.816431045532227,-0.3990752398967743,20.154146194458008,0.5642600655555725,2.4630770683288574,-0.22830526530742645,0.0,0.0,0.0,0.0,0.0,0.0,0.0,-0.37821768874596545,-0.10683827228394133,-0.23449462403825877,0.3317012987479052,-0.016947617883207037,0.09258840882747689,-0.20207775174351067,1.2135102169597358,-0.22004910736125813,-0.007485305480316366,-2.6040791929546274,-0.10895616453285059,2.468122034761641,0.8264719004548258,1.2134413937687574,-0.2202432315892585,-0.0075118285948192216,-2.6038483821997875,-0.10888392708698907,2.4681821257803174,0.826474908251239,-0.0009692054393856303,-0.0007897588257661067,-0.0006851338601383183,-0.0013350071564935655,0.0022336994542984496,3.631423924690118e-05,0.0016046506549108222,0.0,0.0,0.0,0.0,0.0,0.0,0.0,-6.882319097845091e-05,-0.00019412422800035856,-2.6523114502855633e-05,0.000230810754839883,7.223744586151715e-05,6.009101867654465e-05,3.0077964132679824e-06,0.0009692054393856303,0.0007897588257661067,0.0006851338601383183,0.0013350071564935655,-0.0022336994542984496,-3.631423924690118e-05,-0.0016046506549108222,0.3236324191093445,19.816431045532227,0.3990752398967743,-20.154146194458008,-0.5642600655555725,-2.4630770683288574,0.22830526530742645,0
49,0.2392263412475586,-0.4267818331718445,-19.844202041625977,-0.4466826617717743,20.082735061645508,0.5642600655555725,2.4566683769226074,-0.24112264811992645,0.0,0.0,0.0,0.0,0.0,0.0,0.0,-0.37642191697445293,-0.09682491659964194,-0.23364050775152453,0.32648943882956805,-0.016097878154312233,0.0916993135807717,-0.20089571337237205,1.2135174555151087,-0.220047158519427,-0.007481964608556346,-2.604073400955864,-0.10895616453886031,2.4681227468384637,0.8264733246084717,1.2134413937687574,-0.2202432315892585,-0.0075118285948192216,-2.6038483821997875,-0.10888392708698907,2.4681821257803174,0.826474908251239,0.0013825461209800542,0.0005101538976107515,0.0006228761898384518,0.00021549125604989117,0.00017763990528435532,0.0004908524005815226,0.008672893446667326,0.0,0.0,0.0,0.0,0.0,0.0,0.0,-7.606174635133023e-05,-0.00019607306983149275,-2.986398626287582e-05,0.00022501875607661148,7.223745187123765e-05,5.937894185370496e-05,1.5836427673665554e-06,-0.0013825461209800542,-0.0005101538976107515,-0.0006228761898384518,-0.00021549125604989117,-0.00017763990528435532,-0.0004908524005815226,-0.008672893446667326,0.4267818331718445,19.844202041625977,0.4466826617717743,-20.082735061645508,-0.5642600655555725,-2.4566683769226074,0.24112264811992645,0
50,0.2442302703857422,-0.4267818331718445,-19.844202041625977,-0.4466826617717743,20.082735061645508,0.5642600655555725,2.4566683769226074,-0.24112264811992645,0.0,0.0,0.0,0.0,0.0,0.0,0.0,-0.37642191697445293,-0.09682491659964194,-0.23364050775152453,0.32648943882956805,-0.016097878154312233,0.0916993135807717,-0.20089571337237205,1.2135174555151087,-0.220047158519427,-0.007481964608556346,-2.604073400955864,-0.10895616453886031,2.4681227468384637,0.8264733246084717,1.2134413937687574,-0.2202432315892585,-0.0075118285948192216,-2.6038483821997875,-0.10888392708698907,2.4681821257803174,0.826474908251239,0.0013825461209800542,0.0005101538976107515,0.0006228761898384518,0.00021549125604989117,0.00017763990528435532,0.0004908524005815226,0.008672893446667326,0.0,0.0,0.0,0.0,0.0,0.0,0.0,-7.606174635133023e-05,-0.00019607306983149275,-2.986398626287582e-05,0.00022501875607661148,7.223745187123765e-05,5.937894185370496e-05,1.5836427673665554e-06,-0.0013825461209800542,-0.0005101538976107515,-0.0006228761898384518,-0.00021549125604989117,-0.00017763990528435532,-0.0004908524005815226,-0.008672893446667326,0.4267818331718445,19.844202041625977,0.4466826617717743,-20.082735061645508,-0.5642600655555725,-2.4566683769226074,0.24112264811992645,0
51,0.24922800064086914,-0.3752071261405945,-19.868005752563477,-0.3990752398967743,20.106538772583008,0.5642600655555725,2.4630770683288574,-0.20724813640117645,0.0,0.0,0.0,0.0,0.0,0.0,0.0,-0.37760353825819437,-0.10127833361469188,-0.23478868061058808,0.33456626409865414,-0.015514260879554551,0.09340709421907027,-0.20156068782000014,1.2135138362374223,-0.22004762391667615,-0.0074853054802668725,-2.6040779561880667,-0.10895616453886031,2.468122034761641,0.8264695608276714,1.2134413937687574,-0.2202432315892585,-0.0075118285948192216,-2.6038483821997875,-0.10888392708698907,2.4681821257803174,0.826474908251239,-0.00047607955292216397,0.0010361809024278341,-0.0010816039561890784,0.00038753257673204006,0.0002324457473382981,-5.836299880604506e-05,0.0006234538765801784,0.0,0.0,0.0,0.0,0.0,0.0,0.0,-7.244246866489057e-05,-0.00019560767258233747,-2.6523114552349028e-05,0.00022957398827916364,7.223745187123765e-05,6.009101867654465e-05,5.347423567614307e-06,0.00047607955292216397,-0.0010361809024278341,0.0010816039561890784,-0.00038753257673204006,-0.0002324457473382981,5.836299880604506e-05,-0.0006234538765801784,0.3752071261405945,19.868005752563477,0.3990752398967743,-20.106538772583008,-0.5642600655555725,-2.4630770683288574,0.20724813640117645,0
52,0.2542448043823242,-0.3752071261405945,-19.868005752563477,-0.3990752398967743,20.106538772583008,0.5642600655555725,2.4630770683288574,-0.20724813640117645,0.0,0.0,0.0,0.0,0.0,0.0,0.0,-0.37760353825819437,-0.10127833361469188,-0.23478868061058808,0.33456626409865414,-0.015514260879554551,0.09340709421907027,-0.20156068782000014,1.2135138362374223,-0.22004762391667615,-0.0074853054802668725,-2.6040779561880667,-0.10895616453886031,2.468122034761641,0.8264695608276714,1.2134413937687574,-0.2202432315892585,-0.0075118285948192216,-2.6038483821997875,-0.10888392708698907,2.4681821257803174,0.826474908251239,-0.00047607955292216397,0.0010361809024278341,-0.0010816039561890784,0.00038753257673204006,0.0002324457473382981,-5.836299880604506e-05,0.0006234538765801784,0.0,0.0,0.0,0.0,0.0,0.0,0.0,-7.244246866489057e-05,-0.00019560767258233747,-2.6523114552349028e-05,0.00022957398827916364,7.223745187123765e-05,6.009101867654465e-05,5.347423567614307e-06,0.00047607955292216397,-0.0010361809024278341,0.0010816039561890784,-0.00038753257673204006,-0.0002324457473382981,5.836299880604506e-05,-0.0006234538765801784,0.3752071261405945,19.868005752563477,0.3990752398967743,-20.106538772583008,-0.5642600655555725,-2.4630770683288574,0.20724813640117645,0
53,0.2592344284057617,-0.4029781222343445,-19.844202041625977,-0.4466826617717743,20.082735061645508,0.5816550850868225,2.4694857597351074,-0.22098104655742645,0.0,0.0,0.0,0.0,0.0,0.0,0.0,-0.37904394786423556,-0.09486583651723636,-0.2363512137137565,0.3295453754943611,-0.015537283400684934,0.09227990881424371,-0.20264051344793774,1.2135157850792533,-0.22004787049996566,-0.007481964608556346,-2.604076285917854,-0.10895805350789535,2.468121322684818,0.8264710866527434,1.2134413937687574,-0.2202432315892585,-0.0075118285948192216,-2.6038483821997875,-0.10888392708698907,2.4681821257803174,0.826474908251239,-0.00010588121049815341,0.00019185187953118553,4.831649920729107e-05,0.000449442911707938,-0.0006134489028705693,-0.00042278199533961016,0.000690225531356583,0.0,0.0,0.0,0.0,0.0,0.0,0.0,-7.439131049591374e-05,-0.00019536108929282814,-2.986398626287582e-05,0.0002279037180663579,7.412642090627586e-05,6.080309549938434e-05,3.821598495656886e-06,0.00010588121049815341,-0.00019185187953118553,-4.831649920729107e-05,-0.000449442911707938,0.0006134489028705693,0.00042278199533961016,-0.000690225531356583,0.4029781222343445,19.844202041625977,0.4466826617717743,-20.082735061645508,-0.5816550850868225,-2.4694857597351074,0.22098104655742645,0
54,0.26424598693847656,-0.4029781222343445,-19.844202041625977,-0.4466826617717743,20.082735061645508,0.5816550850868225,2.4694857597351074,-0.22098104655742645,0.0,0.0,0.0,0.0,0.0,0.0,0.0,-0.37904394786423556,-0.09486583651723636,-0.2363512137137565,0.3295453754943611,-0.015537283400684934,0.09227990881424371,-0.20264051344793774,1.2135157850792533,-0.22004787049996566,-0.007481964608556346,-2.604076285917854,-0.10895805350789535,2.468121322684818,0.8264710866527434,1.2134413937687574,-0.2202432315892585,-0.0075118285948192216,-2.6038483821997875,-0.10888392708698907,2.4681821257803174,0.826474908251239,-0.00010588121049815341,0.00019185187953118553,4.831649920729107e-05,0.000449442911707938,-0.0006134489028705693,-0.00042278199533961016,0.000690225531356583,0.0,0.0,0.0,0.0,0.0,0.0,0.0,-7.439131049591374e-05,-0.00019536108929282814,-2.986398626287582e-05,0.0002279037180663579,7.412642090627586e-05,6.080309549938434e-05,3.821598495656886e-06,0.00010588121049815341,-0.00019185187953118553,-4.831649920729107e-05,-0.000449442911707938,0.0006134489028705693,0.00042278199533961016,-0.000690225531356583,0.4029781222343445,19.844202041625977,0.4466826617717743,-20.082735061645508,-0.5816550850868225,-2.4694857597351074,0.22098104655742645,0
55,0.2692558765411377,-0.4029781222343445,-19.891809463500977,-0.4228789508342743,20.106538772583008,0.5642600655555725,2.4630770683288574,-0.23471395671367645,0.0,0.0,0.0,0.0,0.0,0.0,0.0,-0.379141807294589,-0.10316653902236457,-0.23607209346290617,0.3368536277938631,-0.015844258896412174,0.09284305473183539,-0.2038207040181485,1.2135157850792533,-0.2200438176517356,-0.007483635044411609,-2.604077994680366,-0.10895616453861301,2.468122034761641,0.8264726125316487,1.2134413937687574,-0.2202432315892585,-0.0075118285948192216,-2.6038483821997875,-0.10888392708698907,2.4681821257803174,0.826474908251239,0.00018986166440246896,0.0006328956196432463,-0.00036521789607095435,0.00025424275012578886,0.00015990263048088347,0.00011701748424832614,0.0017794865012300035,0.0,0.0,0.0,0.0,0.0,0.0,0.0,-7.439131049591374e-05,-0.00019941393752287428,-2.8193550407612858e-05,0.00022961248057828954,7.223745162393547e-05,6.009101867654465e-05,2.295719590317269e-06,-0.00018986166440246896,-0.0006328956196432463,0.00036521789607095435,-0.00025424275012578886,-0.00015990263048088347,-0.00011701748424832614,-0.0017794865012300035,0.4029781222343445,19.891809463500977,0.4228789508342743,-20.106538772583008,-0.5642600655555725,-2.4630770683288574,0.23471395671367645,0
56,0.27425527572631836,-0.4029781222343445,-19.891809463500977,-0.4228789508342743,20.106538772583008,0.5642600655555725,2.4630770683288574,-0.23471395671367645,0.0,0.0,0.0,0.0,0.0,0.0,0.0,-0.379141807294589,-0.10316653902236457,-0.23607209346290617,0.3368536277938631,-0.015844258896412174,0.09284305473183539,-0.2038207040181485,1.2135157850792533,-0.2200438176517356,-0.007483635044411609,-2.604077994680366,-0.10895616453861301,2.468122034761641,0.8264726125316487,1.2134413937687574,-0.2202432315892585,-0.0075118285948192216,-2.6038483821997875,-0.10888392708698907,2.4681821257803174,0.826474908251239,0.00018986166440246896,0.0006328956196432463,-0.00036521789607095435,0.00025424275012578886,0.00015990263048088347,0.00011701748424832614,0.0017794865012300035,0.0,0.0,0.0,0.0,0.0,0.0,0.0,-7.439131049591374e-05,-0.00019941393752287428,-2.8193550407612858e-05,0.00022961248057828954,7.223745162393547e-05,6.009101867654465e-05,2.295719590317269e-06,-0.00018986166440246896,-0.0006328956196432463,0.00036521789607095435,-0.00025424275012578886,-0.00015990263048088347,-0.00011701748424832614,-0.0017794865012300035,0.4029781222343445,19.891809463500977,0.4228789508342743,-20.106538772583008,-0.5642600655555725,-2.4630770683288574,0.23471395671367645,0
57,0.2792327404022217,-0.4029781222343445,-19.868005752563477,-0.4466826617717743,20.082735061645508,0.5523582100868225,2.4694857597351074,-0.19351522624492645,0.0,0.0,0.0,0.0,0.0,0.0,0.0,-0.38363821421358724,-0.09757578943789591,-0.23660247089979533,0.3330708447694526,-0.015570887886629596,0.0921196837477844,-0.204348099005332,1.2135157850792533,-0.22004548808357174,-0.007481964608556346,-2.6040738527355587,-0.10895484211047489,2.468121322684818,0.82646803489493,1.2134413937687574,-0.2202432315892585,-0.0075118285948192216,-2.6038483821997875,-0.10888392708698907,2.4681821257803174,0.826474908251239,0.00020365966534230677,0.0003146672339665742,0.00034645730816908145,0.0008422167014631898,-0.006577880370114296,-0.0002618912094050013,-7.656221098875239e-05,0.0,0.0,0.0,0.0,0.0,0.0,0.0,-7.439131049591374e-05,-0.0001977435056867427,-2.986398626287582e-05,0.00022547053577115506,7.091502348581524e-05,6.080309549938434e-05,6.8733563090006555e-06,-0.00020365966534230677,-0.0003146672339665742,-0.00034645730816908145,-0.0008422167014631898,0.006577880370114296,0.0002618912094050013,7.656221098875239e-05,0.4029781222343445,19.868005752563477,0.4466826617717743,-20.082735061645508,-0.5523582100868225,-2.4694857597351074,0.19351522624492645,0
58,0.28422975540161133,-0.4029781222343445,-19.868005752563477,-0.4466826617717743,20.082735061645508,0.5523582100868225,2.4694857597351074,-0.19351522624492645,0.0,0.0,0.0,0.0,0.0,0.0,0.0,-0.38363821421358724,-0.09757578943789591,-0.23660247089979533,0.3330708447694526,-0.015570887886629596,0.0921196837477844,-0.204348099005332,1.2135157850792533,-0.22004548808357174,-0.007481964608556346,-2.6040738527355587,-0.10895484211047489,2.468121322684818,0.82646803489493,1.2134413937687574,-0.2202432315892585,-0.0075118285948192216,-2.6038483821997875,-0.10888392708698907,2.4681821257803174,0.826474908251239,0.00020365966534230677,0.0003146672339665742,0.00034645730816908145,0.0008422167014631898,-0.006577880370114296,-0.0002618912094050013,-7.656221098875239e-05,0.0,0.0,0.0,0.0,0.0,0.0,0.0,-7.439131049591374e-05,-0.0001977435056867427,-2.986398626287582e-05,0.00022547053577115506,7.091502348581524e-05,6.080309549938434e-05,6.8733563090006555e-06,-0.00020365966534230677,-0.0003146672339665742,-0.00034645730816908145,-0.0008422167014631898,0.006577880370114296,0.0002618912094050013,7.656221098875239e-05,0.4029781222343445,19.868005752563477,0.4466826617717743,-20.082735061645508,-0.5523582100868225,-2.4694857597351074,0.19351522624492645,0
59,0.2892265319824219,-0.3752071261405945,-19.816431045532227,-0.4228789508342743,20.106538772583008,0.5816550850868225,2.4630770683288574,-0.18710653483867645,0.0,0.0,0.0,0.0,0.0,0.0,0.0,-0.38803313503954995,-0.10795199040453791,-0.2393647173591423,0.3378765611691729,-0.01575189681901876,0.09220215001846996,-0.20417351137469736,1.2135138362374223,-0.22004910736125813,-0.007483635044411609,-2.6040770055203044,-0.10895809731880822,2.4681220405758415,0.8264673229796127,1.2134413937687574,-0.2202432315892585,-0.0075118285948192216,-2.6038483821997875,-0.10888392708698907,2.4681821257803174,0.826474908251239,-0.0003712265853062314,-0.001514001353477229,-0.00030787115169798754,0.00010959697602462053,-0.0007443629817504092,-0.00014081711479077043,-0.0006534977027892316,0.0,0.0,0.0,0.0,0.0,0.0,0.0,-7.244246866489057e-05,-0.00019412422800035856,-2.8193550407612858e-05,0.00022862332051687417,7.417023181914562e-05,6.008520447586818e-05,7.585271626364687e-06,0.0003712265853062314,0.001514001353477229,0.00030787115169798754,-0.00010959697602462053,0.0007443629817504092,0.00014081711479077043,0.0006534977027892316,0.3752071261405945,19.816431045532227,0.4228789508342743,-20.106538772583008,-0.5816550850868225,-2.4630770683288574,0.18710653483867645,0
60,0.294238805770874,-0.3752071261405945,-19.816431045532227,-0.4228789508342743,20.106538772583008,0.5816550850868225,2.4630770683288574,-0.18710653483867645,0.0,0.0,0.0,0.0,0.0,0.0,0.0,-0.38803313503954995,-0.10795199040453791,-0.2393647173591423,0.3378765611691729,-0.01575189681901876,0.09220215001846996,-0.20417351137469736,1.2135138362374223,-0.22004910736125813,-0.007483635044411609,-2.6040770055203044,-0.10895809731880822,2.4681220405758415,0.8264673229796127,1.2134413937687574,-0.2202432315892585,-0.0075118285948192216,-2.6038483821997875,-0.10888392708698907,2.4681821257803174,0.826474908251239,-0.0003712265853062314,-0.001514001353477229,-0.00030787115169798754,0.00010959697602462053,-0.0007443629817504092,-0.00014081711479077043,-0.0006534977027892316,0.0,0.0,0.0,0.0,0.0,0.0,0.0,-7.244246866489057e-05,-0.00019412422800035856,-2.8193550407612858e-05,0.00022862332051687417,7.417023181914562e-05,6.008520447586818e-05,7.585271626364687e-06,0.0003712265853062314,0.001514001353477229,0.00030787115169798754,-0.00010959697602462053,0.0007443629817504092,0.00014081711479077043,0.0006534977027892316,0.3752071261405945,19.816431045532227,0.4228789508342743,-20.106538772583008,-0.5816550850868225,-2.4630770683288574,0.18710653483867645,0
61,0.2992582321166992,-0.3752071261405945,-19.816431045532227,-0.4228789508342743,20.106538772583008,0.5816550850868225,2.4630770683288574,-0.18710653483867645,0.0,0.0,0.0,0.0,0.0,0.0,0.0,-0.38803313503954995,-0.10795199040453791,-0.2393647173591423,0.3378765611691729,-0.01575189681901876,0.09220215001846996,-0.20417351137469736,1.2135138362374223,-0.22004910736125813,-0.007483635044411609,-2.6040770055203044,-0.10895809731880822,2.4681220405758415,0.8264673229796127,1.2134413937687574,-0.2202432315892585,-0.0075118285948192216,-2.6038483821997875,-0.10888392708698907,2.4681821257803174,0.826474908251239,-0.0003712265853062314,-0.001514001353477229,-0.00030787115169798754,0.00010959697602462053,-0.0007443629817504092,-0.00014081711479077043,-0.0006534977027892316,0.0,0.0,0.0,0.0,0.0,0.0,0.0,-7.244246866489057e-05,-0.00019412422800035856,-2.8193550407612858e-05,0.00022862332051687417,7.417023181914562e-05,6.008520447586818e-05,7.585271626364687e-06,0.0003712265853062314,0.001514001353477229,0.00030787115169798754,-0.00010959697602462053,0.0007443629817504092,0.00014081711479077043,0.0006534977027892316,0.3752071261405945,19.816431045532227,0.4228789508342743,-20.106538772583008,-0.5816550850868225,-2.4630770683288574,0.18710653483867645,0
62,0.3042263984680176,-0.3752071261405945,-19.816431045532227,-0.4228789508342743,20.106538772583008,0.5816550850868225,2.4630770683288574,-0.18710653483867645,0.0,0.0,0.0,0.0,0.0,0.0,0.0,-0.38803313503954995,-0.10795199040453791,-0.2393647173591423,0.3378765611691729,-0.01575189681901876,0.09220215001846996,-0.20417351137469736,1.2135138362374223,-0.22004910736125813,-0.007483635044411609,-2.6040770055203044,-0.10895809731880822,2.4681220405758415,0.8264673229796127,1.2134413937687574,-0.2202432315892585,-0.0075118285948192216,-2.6038483821997875,-0.10888392708698907,2.4681821257803174,0.826474908251239,-0.0003712265853062314,-0.001514001353477229,-0.00030787115169798754,0.00010959697602462053,-0.0007443629817504092,-0.00014081711479077043,-0.0006534977027892316,0.0,0.0,0.0,0.0,0.0,0.0,0.0,-7.244246866489057e-05,-0.00019412422800035856,-2.8193550407612858e-05,0.00022862332051687417,7.417023181914562e-05,6.008520447586818e-05,7.585271626364687e-06,0.0003712265853062314,0.001514001353477229,0.00030787115169798754,-0.00010959697602462053,0.0007443629817504092,0.00014081711479077043,0.0006534977027892316,0.3752071261405945,19.816431045532227,0.4228789508342743,-20.106538772583008,-0.5816550850868225,-2.4630770683288574,0.18710653483867645,0
63,0.3092360496520996,-0.3752071261405945,-19.792627334594727,-0.4228789508342743,20.106538772583008,0.5761619210243225,2.4694857597351074,-0.23471395671367645,0.0,0.0,0.0,0.0,0.0,0.0,0.0,-0.38512080169856494,-0.09666081361681066,-0.23550470269473237,0.33211160311367993,-0.015704594410138332,0.09097285694536217,-0.20420543880024222,1.2135138362374223,-0.22005077779711338,-0.007483635044411609,-2.60407552316583,-0.10895748696724572,2.4681213226848504,0.8264726125316496,1.2134413937687574,-0.2202432315892585,-0.0075118285948192216,-2.6038483821997875,-0.10888392708698907,2.4681821257803174,0.826474908251239,0.0001228483383280891,-0.0005310740772864936,-9.640372995082346e-05,0.00015083087891540564,-0.0002533451770823048,-6.275605808986699e-05,0.0016424606250064768,0.0,0.0,0.0,0.0,0.0,0.0,0.0,-7.244246866489057e-05,-0.0001924537921451086,-2.8193550407612858e-05,0.00022714096604259382,7.355988025664617e-05,6.080309546696583e-05,2.2957195894290905e-06,-0.0001228483383280891,0.0005310740772864936,9.640372995082346e-05,-0.00015083087891540564,0.0002533451770823048,6.275605808986699e-05,-0.0016424606250064768,0.3752071261405945,19.792627334594727,0.4228789508342743,-20.106538772583008,-0.5761619210243225,-2.4694857597351074,0.23471395671367645,0
64,0.31422877311706543,-0.3752071261405945,-19.792627334594727,-0.4228789508342743,20.106538772583008,0.5761619210243225,2.4694857597351074,-0.23471395671367645,0.0,0.0,0.0,0.0,0.0,0.0,0.0,-0.38512080169856494,-0.09666081361681066,-0.23550470269473237,0.33211160311367993,-0.015704594410138332,0.09097285694536217,-0.20420543880024222,1.2135138362374223,-0.22005077779711338,-0.007483635044411609,-2.60407552316583,-0.10895748696724572,2.4681213226848504,0.8264726125316496,1.2134413937687574,-0.2202432315892585,-0.0075118285948192216,-2.6038483821997875,-0.10888392708698907,2.4681821257803174,0.826474908251239,0.0001228483383280891,-0.0005310740772864936,-9.640372995082346e-05,0.00015083087891540564,-0.0002533451770823048,-6.275605808986699e-05,0.0016424606250064768,0.0,0.0,0.0,0.0,0.0,0.0,0.0,-7.244246866489057e-05,-0.0001924537921451086,-2.8193550407612858e-05,0.00022714096604259382,7.355988025664617e-05,6.080309546696583e-05,2.2957195894290905e-06,-0.0001228483383280891,0.0005310740772864936,9.640372995082346e-05,-0.00015083087891540564,0.0002533451770823048,6.275605808986699e-05,-0.0016424606250064768,0.3752071261405945,19.792627334594727,0.4228789508342743,-20.106538772583008,-0.5761619210243225,-2.4694857597351074,0.23471395671367645,0
65,0.31922340393066406,-0.3236324191093445,-19.816431045532227,-0.4228789508342743,20.130342483520508,0.5761619210243225,2.4566683769226074,-0.19351522624492645,0.0,0.0,0.0,0.0,0.0,0.0,0.0,-0.3776918317623772,-0.09796434884365765,-0.23137953292325544,0.3341360966340168,-0.015221463360676642,0.0921134739869349,-0.20416167747830405,1.2135102169597358,-0.22004910736125813,-0.007483635044411609,-2.6040765067250735,-0.10896068078279493,2.4681227468384637,0.82646803489493,1.2134413937687574,-0.2202432315892585,-0.0075118285948192216,-2.6038483821997875,-0.10888392708698907,2.4681821257803174,0.826474908251239,-0.0006254083304642139,-0.00010340162887258856,0.00034168877392232747,-0.0006360907261204157,-0.005170014172367229,0.0002520848252256235,-6.714914859630168e-05,0.0,0.0,0.0,0.0,0.0,0.0,0.0,-6.882319097845091e-05,-0.00019412422800035856,-2.8193550407612858e-05,0.0002281245252859776,7.675369580585623e-05,5.937894185370496e-05,6.8733563090006555e-06,0.0006254083304642139,0.00010340162887258856,-0.00034168877392232747,0.0006360907261204157,0.005170014172367229,-0.0002520848252256235,6.714914859630168e-05,0.3236324191093445,19.816431045532227,0.4228789508342743,-20.130342483520508,-0.5761619210243225,-2.4566683769226074,0.19351522624492645,0
66,0.32422828674316406,-0.3236324191093445,-19.816431045532227,-0.4228789508342743,20.130342483520508,0.5761619210243225,2.4566683769226074,-0.19351522624492645,0.0,0.0,0.0,0.0,0.0,0.0,0.0,-0.3776918317623772,-0.09796434884365765,-0.23137953292325544,0.3341360966340168,-0.015221463360676642,0.0921134739869349,-0.20416167747830405,1.2135102169597358,-0.22004910736125813,-0.007483635044411609,-2.6040765067250735,-0.10896068078279493,2.4681227468384637,0.82646803489493,1.2134413937687574,-0.2202432315892585,-0.0075118285948192216,-2.6038483821997875,-0.10888392708698907,2.4681821257803174,0.826474908251239,-0.0006254083304642139,-0.00010340162887258856,0.00034168877392232747,-0.0006360907261204157,-0.005170014172367229,0.0002520848252256235,-6.714914859630168e-05,0.0,0.0,0.0,0.0,0.0,0.0,0.0,-6.882319097845091e-05,-0.00019412422800035856,-2.8193550407612858e-05,0.0002281245252859776,7.675369580585623e-05,5.937894185370496e-05,6.8733563090006555e-06,0.0006254083304642139,0.00010340162887258856,-0.00034168877392232747,0.0006360907261204157,0.005170014172367229,-0.0002520848252256235,6.714914859630168e-05,0.3236324191093445,19.816431045532227,0.4228789508342743,-20.130342483520508,-0.5761619210243225,-2.4566683769226074,0.19351522624492645,0
67,0.3292243480682373,-0.3514034152030945,-19.816431045532227,-0.4228789508342743,20.082735061645508,0.5761619210243225,2.4630770683288574,-0.17337362468242645,0.0,0.0,0.0,0.0,0.0,0.0,0.0,-0.3773950368438488,-0.09803153232797936,-0.23506775589075332,0.33754038777715134,-0.01347192485286244,0.0923891472381345,-0.20305185680147908,1.2135121658015668,-0.22004910736125813,-0.007483635044411609,-2.6040761321117034,-0.10895748702133327,2.468122034761641,0.8264657969392009,1.2134413937687574,-0.2202432315892585,-0.0075118285948192216,-2.6038483821997875,-0.10888392708698907,2.4681821257803174,0.826474908251239,-0.00032284467439063695,-0.0002779784335534851,0.00024278901794467107,0.0003985653244730301,-0.0005109725591118392,-2.1446961283570364e-05,-0.0010611010605608665,0.0,0.0,0.0,0.0,0.0,0.0,0.0,-7.077203280947408e-05,-0.00019412422800035856,-2.8193550407612858e-05,0.00022774991191587546,7.355993434420005e-05,6.009101867654465e-05,9.111312038179165e-06,0.00032284467439063695,0.0002779784335534851,-0.00024278901794467107,-0.0003985653244730301,0.0005109725591118392,2.1446961283570364e-05,0.0010611010605608665,0.3514034152030945,19.816431045532227,0.4228789508342743,-20.082735061645508,-0.5761619210243225,-2.4630770683288574,0.17337362468242645,0
68,0.33428311347961426,-0.3514034152030945,-19.816431045532227,-0.4228789508342743,20.082735061645508,0.5761619210243225,2.4630770683288574,-0.17337362468242645,0.0,0.0,0.0,0.0,0.0,0.0,0.0,-0.3773950368438488,-0.09803153232797936,-0.23506775589075332,0.33754038777715134,-0.01347192485286244,0.0923891472381345,-0.20305185680147908,1.2135121658015668,-0.22004910736125813,-0.007483635044411609,-2.6040761321117034,-0.10895748702133327,2.468122034761641,0.8264657969392009,1.2134413937687574,-0.2202432315892585,-0.0075118285948192216,-2.6038483821997875,-0.10888392708698907,2.4681821257803174,0.826474908251239,-0.00032284467439063695,-0.0002779784335534851,0.00024278901794467107,0.0003985653244730301,-0.0005109725591118392,-2.1446961283570364e-05,-0.0010611010605608665,0.0,0.0,0.0,0.0,0.0,0.0,0.0,-7.077203280947408e-05,-0.00019412422800035856,-2.8193550407612858e-05,0.00022774991191587546,7.355993434420005e-05,6.009101867654465e-05,9.111312038179165e-06,0.00032284467439063695,0.0002779784335534851,-0.00024278901794467107,-0.0003985653244730301,0.0005109725591118392,2.1446961283570364e-05,0.0010611010605608665,0.3514034152030945,19.816431045532227,0.4228789508342743,-20.082735061645508,-0.5761619210243225,-2.4630770683288574,0.17337362468242645,0
69,0.339280366897583,-0.4029781222343445,-19.891809463500977,-0.4228789508342743,20.154146194458008,0.5697532296180725,2.4566683769226074,-0.22098104655742645,0.0,0.0,0.0,0.0,0.0,0.0,0.0,-0.3758930568193128,-0.10138272563952816,-0.23388883874433136,0.33922699954274177,-0.013724162086298295,0.09353677468147505,-0.20317444678669813,1.2135157850792533,-0.2200438205775287,-0.007483635044411609,-2.60407886438224,-0.10895677489042292,2.4681227468384637,0.8264710866527425,1.2134413937687574,-0.2202432315892585,-0.0075118285948192216,-2.6038483821997875,-0.10888392708698907,2.4681821257803174,0.826474908251239,0.0007547411307432286,0.0009175007627734021,-0.0005862251589588222,-0.0011279591734585984,-0.00016965597581648415,0.00032493955321125957,0.00041318677730858887,0.0,0.0,0.0,0.0,0.0,0.0,0.0,-7.439131049591374e-05,-0.00019941101172979425,-2.8193550407612858e-05,0.00023048218245236285,7.284780343384811e-05,5.937894185370496e-05,3.8215984965450644e-06,-0.0007547411307432286,-0.0009175007627734021,0.0005862251589588222,0.0011279591734585984,0.00016965597581648415,-0.00032493955321125957,-0.00041318677730858887,0.4029781222343445,19.891809463500977,0.4228789508342743,-20.154146194458008,-0.5697532296180725,-2.4566683769226074,0.22098104655742645,0
70,0.34422922134399414,-0.4029781222343445,-19.891809463500977,-0.4228789508342743,20.154146194458008,0.5697532296180725,2.4566683769226074,-0.22098104655742645,0.0,0.0,0.0,0.0,0.0,0.0,0.0,-0.3758930568193128,-0.10138272563952816,-0.23388883874433136,0.33922699954274177,-0.013724162086298295,0.09353677468147505,-0.20317444678669813,1.2135157850792533,-0.2200438205775287,-0.007483635044411609,-2.60407886438224,-0.10895677489042292,2.4681227468384637,0.8264710866527425,1.2134413937687574,-0.2202432315892585,-0.0075118285948192216,-2.6038483821997875,-0.10888392708698907,2.4681821257803174,0.826474908251239,0.0007547411307432286,0.0009175007627734021,-0.0005862251589588222,-0.0011279591734585984,-0.00016965597581648415,0.00032493955321125957,0.00041318677730858887,0.0,0.0,0.0,0.0,0.0,0.0,0.0,-7.439131049591374e-05,-0.00019941101172979425,-2.8193550407612858e-05,0.00023048218245236285,7.284780343384811e-05,5.937894185370496e-05,3.8215984965450644e-06,-0.0007547411307432286,-0.0009175007627734021,0.0005862251589588222,0.0011279591734585984,0.00016965597581648415,-0.00032493955321125957,-0.00041318677730858887,0.4029781222343445,19.891809463500977,0.4228789508342743,-20.154146194458008,-0.5697532296180725,-2.4566683769226074,0.22098104655742645,0
71,0.3491840362548828,-0.4029781222343445,-19.844202041625977,-0.4704863727092743,20.054964065551758,0.5642600655555725,2.4566683769226074,-0.22098104655742645,0.0,0.0,0.0,0.0,0.0,0.0,0.0,-0.37446075592945927,-0.09629095434101836,-0.23446954716187038,0.33433132839425433,-0.014249104559620102,0.09322474026605329,-0.20423649986669987,1.2135157850792533,-0.22004723762437334,-0.007480294172701083,-2.6040722294750327,-0.10895722914404339,2.4681227468384637,0.8264710866527425,1.2134413937687574,-0.2202432315892585,-0.0075118285948192216,-2.6038483821997875,-0.10888392708698907,2.4681821257803174,0.826474908251239,0.00041062079966936875,-0.000536991930005488,0.0005232732179187324,0.001261826004136099,0.00031866929643776994,0.00047386392499959774,0.0004978256979558091,0.0,0.0,0.0,0.0,0.0,0.0,0.0,-7.439131049591374e-05,-0.00019599396488514942,-3.153442211813878e-05,0.00022384727524515924,7.330205705431692e-05,5.937894185370496e-05,3.8215984965450644e-06,-0.00041062079966936875,0.000536991930005488,-0.0005232732179187324,-0.001261826004136099,-0.00031866929643776994,-0.00047386392499959774,-0.0004978256979558091,0.4029781222343445,19.844202041625977,0.4704863727092743,-20.054964065551758,-0.5642600655555725,-2.4566683769226074,0.22098104655742645,0
72,0.35419368743896484,-0.4029781222343445,-19.844202041625977,-0.4704863727092743,20.054964065551758,0.5642600655555725,2.4566683769226074,-0.22098104655742645,0.0,0.0,0.0,0.0,0.0,0.0,0.0,-0.37446075592945927,-0.09629095434101836,-0.23446954716187038,0.33433132839425433,-0.014249104559620102,0.09322474026605329,-0.20423649986669987,1.2135157850792533,-0.22004723762437334,-0.007480294172701083,-2.6040722294750327,-0.10895722914404339,2.4681227468384637,0.8264710866527425,1.2134413937687574,-0.2202432315892585,-0.0075118285948192216,-2.6038483821997875,-0.10888392708698907,2.4681821257803174,0.826474908251239,0.00041062079966936875,-0.000536991930005488,0.0005232732179187324,0.001261826004136099,0.00031866929643776994,0.00047386392499959774,0.0004978256979558091,0.0,0.0,0.0,0.0,0.0,0.0,0.0,-7.439131049591374e-05,-0.00019599396488514942,-3.153442211813878e-05,0.00022384727524515924,7.330205705431692e-05,5.937894185370496e-05,3.8215984965450644e-06,-0.00041062079966936875,0.000536991930005488,-0.0005232732179187324,-0.001261826004136099,-0.00031866929643776994,-0.00047386392499959774,-0.0004978256979558091,0.4029781222343445,19.844202041625977,0.4704863727092743,-20.054964065551758,-0.5642600655555725,-2.4566683769226074,0.22098104655742645,0
73,0.35922765731811523,-0.3752071261405945,-19.844202041625977,-0.4466826617717743,20.154146194458008,0.5761619210243225,2.4630770683288574,-0.19351522624492645,0.0,0.0,0.0,0.0,0.0,0.0,0.0,-0.3767186547490656,-0.0925965991200625,-0.23583152600462337,0.32645007988385766,-0.014455824330711997,0.09205863813753373,-0.20509108760291658,1.2135138362374223,-0.22004715851987355,-0.007481964608556346,-2.6040814091382725,-0.10895748697325545,2.468122034761641,0.8264681526325,1.2134413937687574,-0.2202432315892585,-0.0075118285948192216,-2.6038483821997875,-0.10888392708698907,2.4681821257803174,0.826474908251239,-0.0005638329713011212,0.00011752310003660405,-1.8552408994134944e-05,-0.0019970616528900017,-0.00012662714469223314,-8.133326926423153e-05,-0.000357305732061287,0.0,0.0,0.0,0.0,0.0,0.0,0.0,-7.244246866489057e-05,-0.0001960730693849333,-2.986398626287582e-05,0.00023302693848492595,7.355988626638055e-05,6.009101867654465e-05,6.755618739084923e-06,0.0005638329713011212,-0.00011752310003660405,1.8552408994134944e-05,0.0019970616528900017,0.00012662714469223314,8.133326926423153e-05,0.000357305732061287,0.3752071261405945,19.844202041625977,0.4466826617717743,-20.154146194458008,-0.5761619210243225,-2.4630770683288574,0.19351522624492645,0
74,0.3642556667327881,-0.3752071261405945,-19.844202041625977,-0.4466826617717743,20.154146194458008,0.5761619210243225,2.4630770683288574,-0.19351522624492645,0.0,0.0,0.0,0.0,0.0,0.0,0.0,-0.3767186547490656,-0.0925965991200625,-0.23583152600462337,0.32645007988385766,-0.014455824330711997,0.09205863813753373,-0.20509108760291658,1.2135138362374223,-0.22004715851987355,-0.007481964608556346,-2.6040814091382725,-0.10895748697325545,2.468122034761641,0.8264681526325,1.2134413937687574,-0.2202432315892585,-0.0075118285948192216,-2.6038483821997875,-0.10888392708698907,2.4681821257803174,0.826474908251239,-0.0005638329713011212,0.00011752310003660405,-1.8552408994134944e-05,-0.0019970616528900017,-0.00012662714469223314,-8.133326926423153e-05,-0.000357305732061287,0.0,0.0,0.0,0.0,0.0,0.0,0.0,-7.244246866489057e-05,-0.0001960730693849333,-2.986398626287582e-05,0.00023302693848492595,7.355988626638055e-05,6.009101867654465e-05,6.755618739084923e-06,0.0005638329713011212,-0.00011752310003660405,1.8552408994134944e-05,0.0019970616528900017,0.00012662714469223314,8.133326926423153e-05,0.000357305732061287,0.3752071261405945,19.844202041625977,0.4466826617717743,-20.154146194458008,-0.5761619210243225,-2.4630770683288574,0.19351522624492645,0
75,0.36922597885131836,-0.4029781222343445,-19.792627334594727,-0.4466826617717743,20.106538772583008,0.5761619210243225,2.4630770683288574,-0.18710653483867645,0.0,0.0,0.0,0.0,0.0,0.0,0.0,-0.38189267912595376,-0.1037647711066056,-0.23599881098290532,0.33532976103697526,-0.014706032766774726,0.09280200589436617,-0.20405307192677666,1.2135157850792533,-0.2200507778332839,-0.007481964608556346,-2.604075604947541,-0.10895748696724573,2.468122034761641,0.8264673228181809,1.2134413937687574,-0.2202432315892585,-0.0075118285948192216,-2.6038483821997875,-0.10888392708698907,2.4681821257803174,0.826474908251239,0.00024662547610714,-0.001439599004662204,0.00016126709878399733,0.00025002447353461647,-0.0003161287374437912,8.098830598627648e-05,-0.00014261506416357445,0.0,0.0,0.0,0.0,0.0,0.0,0.0,-7.439131049591374e-05,-0.00019245375597459757,-2.986398626287582e-05,0.00022722274775333062,7.355988025666005e-05,6.009101867654465e-05,7.585433058121538e-06,-0.00024662547610714,0.001439599004662204,-0.00016126709878399733,-0.00025002447353461647,0.0003161287374437912,-8.098830598627648e-05,0.00014261506416357445,0.4029781222343445,19.792627334594727,0.4466826617717743,-20.106538772583008,-0.5761619210243225,-2.4630770683288574,0.18710653483867645,0
76,0.3742358684539795,-0.4029781222343445,-19.792627334594727,-0.4466826617717743,20.106538772583008,0.5761619210243225,2.4630770683288574,-0.18710653483867645,0.0,0.0,0.0,0.0,0.0,0.0,0.0,-0.38189267912595376,-0.1037647711066056,-0.23599881098290532,0.33532976103697526,-0.014706032766774726,0.09280200589436617,-0.20405307192677666,1.2135157850792533,-0.2200507778332839,-0.007481964608556346,-2.604075604947541,-0.10895748696724573,2.468122034761641,0.8264673228181809,1.2134413937687574,-0.2202432315892585,-0.0075118285948192216,-2.6038483821997875,-0.10888392708698907,2.4681821257803174,0.826474908251239,0.00024662547610714,-0.001439599004662204,0.00016126709878399733,0.00025002447353461647,-0.0003161287374437912,8.098830598627648e-05,-0.00014261506416357445,0.0,0.0,0.0,0.0,0.0,0.0,0.0,-7.439131049591374e-05,-0.00019245375597459757,-2.986398626287582e-05,0.00022722274775333062,7.355988025666005e-05,6.009101867654465e-05,7.585433058121538e-06,-0.00024662547610714,0.001439599004662204,-0.00016126709878399733,-0.00025002447353461647,0.0003161287374437912,-8.098830598627648e-05,0.00014261506416357445,0.4029781222343445,19.792627334594727,0.4466826617717743,-20.106538772583008,-0.5761619210243225,-2.4630770683288574,0.18710653483867645,0
77,0.37923598289489746,-0.4029781222343445,-19.792627334594727,-0.4466826617717743,20.106538772583008,0.5761619210243225,2.4630770683288574,-0.18710653483867645,0.0,0.0,0.0,0.0,0.0,0.0,0.0,-0.38189267912595376,-0.1037647711066056,-0.23599881098290532,0.33532976103697526,-0.014706032766774726,0.09280200589436617,-0.20405307192677666,1.2135157850792533,-0.2200507778332839,-0.007481964608556346,-2.604075604947541,-0.10895748696724573,2.468122034761641,0.8264673228181809,1.2134413937687574,-0.2202432315892585,-0.0075118285948192216,-2.6038483821997875,-0.10888392708698907,2.4681821257803174,0.826474908251239,0.00024662547610714,-0.001439599004662204,0.00016126709878399733,0.00025002447353461647,-0.0003161287374437912,8.098830598627648e-05,-0.00014261506416357445,0.0,0.0,0.0,0.0,0.0,0.0,0.0,-7.439131049591374e-05,-0.00019245375597459757,-2.986398626287582e-05,0.00022722274775333062,7.355988025666005e-05,6.009101867654465e-05,7.585433058121538e-06,-0.00024662547610714,0.001439599004662204,-0.00016126709878399733,-0.00025002447353461647,0.0003161287374437912,-8.098830598627648e-05,0.00014261506416357445,0.4029781222343445,19.792627334594727,0.4466826617717743,-20.106538772583008,-0.5761619210243225,-2.4630770683288574,0.18710653483867645,0
78,0.38417983055114746,-0.3752071261405945,-19.844202041625977,-0.4704863727092743,20.106538772583008,0.5642600655555725,2.4694857597351074,-0.22098104655742645,0.0,0.0,0.0,0.0,0.0,0.0,0.0,-0.38420801788750114,-0.10177501817464933,-0.2364797698450787,0.3332805182050379,-0.015741522461090524,0.09204499897738087,-0.20291833543926305,1.2135138362374223,-0.2200471585194272,-0.007480294172701083,-2.604077793091974,-0.10895604624939553,2.468121322684818,0.8264710866527425,1.2134413937687574,-0.2202432315892585,-0.0075118285948192216,-2.6038483821997875,-0.10888392708698907,2.4681821257803174,0.826474908251239,-0.0002465412437861257,-4.485991663673284e-05,0.0005879083077165271,-4.891601024582349e-05,0.0008737354933142664,-5.025335364789139e-05,0.0011903956502867868,0.0,0.0,0.0,0.0,0.0,0.0,0.0,-7.244246866489057e-05,-0.00019607306983129846,-3.153442211813878e-05,0.00022941089218653232,7.211916240645877e-05,6.080309549938434e-05,3.8215984965450644e-06,0.0002465412437861257,4.485991663673284e-05,-0.0005879083077165271,4.891601024582349e-05,-0.0008737354933142664,5.025335364789139e-05,-0.0011903956502867868,0.3752071261405945,19.844202041625977,0.4704863727092743,-20.106538772583008,-0.5642600655555725,-2.4694857597351074,0.22098104655742645,0
79,0.38922572135925293,-0.3752071261405945,-19.844202041625977,-0.4704863727092743,20.106538772583008,0.5642600655555725,2.4694857597351074,-0.22098104655742645,0.0,0.0,0.0,0.0,0.0,0.0,0.0,-0.38420801788750114,-0.10177501817464933,-0.2364797698450787,0.3332805182050379,-0.015741522461090524,0.09204499897738087,-0.20291833543926305,1.2135138362374223,-0.2200471585194272,-0.007480294172701083,-2.604077793091974,-0.10895604624939553,2.468121322684818,0.8264710866527425,1.2134413937687574,-0.2202432315892585,-0.0075118285948192216,-2.6038483821997875,-0.10888392708698907,2.4681821257803174,0.826474908251239,-0.0002465412437861257,-4.485991663673284e-05,0.0005879083077165271,-4.891601024582349e-05,0.0008737354933142664,-5.025335364789139e-05,0.0011903956502867868,0.0,0.0,0.0,0.0,0.0,0.0,0.0,-7.244246866489057e-05,-0.00019607306983129846,-3.153442211813878e-05,0.00022941089218653232,7.211916240645877e-05,6.080309549938434e-05,3.8215984965450644e-06,0.0002465412437861257,4.485991663673284e-05,-0.0005879083077165271,4.891601024582349e-05,-0.0008737354933142664,5.025335364789139e-05,-0.0011903956502867868,0.3752071261405945,19.844202041625977,0.4704863727092743,-20.106538772583008,-0.5642600655555725,-2.4694857597351074,0.22098104655742645,0
