rezayati/contactInterpretation/dataset/franka_main/labeled_data/link4/d6_5.csv
index,time,tau_J0,tau_J1,tau_J2,tau_J3,tau_J4,tau_J5,tau_J6,tau_J_d0,tau_J_d1,tau_J_d2,tau_J_d3,tau_J_d4,tau_J_d5,tau_J_d6,tau_ext0,tau_ext1,tau_ext2,tau_ext3,tau_ext4,tau_ext5,tau_ext6,q0,q1,q2,q3,q4,q5,q6,q_d0,q_d1,q_d2,q_d3,q_d4,q_d5,q_d6,dq0,dq1,dq2,dq3,dq4,dq5,dq6,dq_d0,dq_d1,dq_d2,dq_d3,dq_d4,dq_d5,dq_d6,e0,e1,e2,e3,e4,e5,e6,de0,de1,de2,de3,de4,de5,de6,etau_J0,etau_J1,etau_J2,etau_J3,etau_J4,etau_J5,etau_J6,label
1,0.0,-0.5021602511405945,-46.52419662475586,-5.512905597686768,19.535249710083008,0.7730002999305725,2.3724398612976074,-0.21457235515117645,0.0,0.0,0.0,0.0,0.0,0.0,0.0,-0.637174802054971,-0.16973852764092026,-0.3934689052020385,0.31608529531603613,0.19408568449767552,0.1055322758844422,-0.18432863537200883,0.8780155907644437,0.7556057687225498,-0.282501601511972,-1.66905747632813,0.14140932670155884,2.4035707429440896,1.0273503104409687,0.878092876070424,0.7554597494309409,-0.2825552651693207,-1.6690993614607135,0.1414185955172306,2.4034451173676383,1.0273381002308042,-0.001776130840144676,-0.0009183735683894851,-7.137993073814339e-05,-6.79113632728307e-05,0.00016948394907037242,-2.5124545737046372e-05,0.0010989329807291075,0.0,0.0,0.0,0.0,0.0,0.0,0.0,7.728530598027916e-05,-0.00014601929160895644,-5.366365734871259e-05,-4.188513258340798e-05,9.268815671759079e-06,-0.00012562557645123817,-1.2210210164509405e-05,0.001776130840144676,0.0009183735683894851,7.137993073814339e-05,6.79113632728307e-05,-0.00016948394907037242,2.5124545737046372e-05,-0.0010989329807291075,0.5021602511405945,46.52419662475586,5.512905597686768,-19.535249710083008,-0.7730002999305725,-2.3724398612976074,0.21457235515117645,0
2,0.005074977874755859,-0.5021602511405945,-46.52419662475586,-5.512905597686768,19.535249710083008,0.7730002999305725,2.3724398612976074,-0.21457235515117645,0.0,0.0,0.0,0.0,0.0,0.0,0.0,-0.637174802054971,-0.16973852764092026,-0.3934689052020385,0.31608529531603613,0.19408568449767552,0.1055322758844422,-0.18432863537200883,0.8780155907644437,0.7556057687225498,-0.282501601511972,-1.66905747632813,0.14140932670155884,2.4035707429440896,1.0273503104409687,0.878092876070424,0.7554597494309409,-0.2825552651693207,-1.6690993614607135,0.1414185955172306,2.4034451173676383,1.0273381002308042,-0.001776130840144676,-0.0009183735683894851,-7.137993073814339e-05,-6.79113632728307e-05,0.00016948394907037242,-2.5124545737046372e-05,0.0010989329807291075,0.0,0.0,0.0,0.0,0.0,0.0,0.0,7.728530598027916e-05,-0.00014601929160895644,-5.366365734871259e-05,-4.188513258340798e-05,9.268815671759079e-06,-0.00012562557645123817,-1.2210210164509405e-05,0.001776130840144676,0.0009183735683894851,7.137993073814339e-05,6.79113632728307e-05,-0.00016948394907037242,2.5124545737046372e-05,-0.0010989329807291075,0.5021602511405945,46.52419662475586,5.512905597686768,-19.535249710083008,-0.7730002999305725,-2.3724398612976074,0.21457235515117645,0
3,0.0099945068359375,-0.5021602511405945,-46.52419662475586,-5.512905597686768,19.535249710083008,0.7730002999305725,2.3724398612976074,-0.21457235515117645,0.0,0.0,0.0,0.0,0.0,0.0,0.0,-0.637174802054971,-0.16973852764092026,-0.3934689052020385,0.31608529531603613,0.19408568449767552,0.1055322758844422,-0.18432863537200883,0.8780155907644437,0.7556057687225498,-0.282501601511972,-1.66905747632813,0.14140932670155884,2.4035707429440896,1.0273503104409687,0.878092876070424,0.7554597494309409,-0.2825552651693207,-1.6690993614607135,0.1414185955172306,2.4034451173676383,1.0273381002308042,-0.001776130840144676,-0.0009183735683894851,-7.137993073814339e-05,-6.79113632728307e-05,0.00016948394907037242,-2.5124545737046372e-05,0.0010989329807291075,0.0,0.0,0.0,0.0,0.0,0.0,0.0,7.728530598027916e-05,-0.00014601929160895644,-5.366365734871259e-05,-4.188513258340798e-05,9.268815671759079e-06,-0.00012562557645123817,-1.2210210164509405e-05,0.001776130840144676,0.0009183735683894851,7.137993073814339e-05,6.79113632728307e-05,-0.00016948394907037242,2.5124545737046372e-05,-0.0010989329807291075,0.5021602511405945,46.52419662475586,5.512905597686768,-19.535249710083008,-0.7730002999305725,-2.3724398612976074,0.21457235515117645,0
4,0.014991521835327148,-0.5537349581718445,-46.52419662475586,-5.536709308624268,19.487642288208008,0.7784934639930725,2.3724398612976074,-0.18710653483867645,0.0,0.0,0.0,0.0,0.0,0.0,0.0,-0.6511282573639872,-0.16378782946536782,-0.4058744540506933,0.3024383470041991,0.19470868071087277,0.10367289861765178,-0.18462354683289006,0.878019210041615,0.7556057687224004,-0.2824999310761167,-1.6690541354564197,0.14140549656568757,2.403573923309959,1.0273469100511732,0.878092876070424,0.7554597494309409,-0.2825552651693207,-1.6690993614607135,0.1414185955172306,2.4034451173676383,1.0273381002308042,-0.00025825402330169095,0.00015346502304538486,8.441889523066848e-05,0.0006586930738252193,-4.963279744606952e-05,-4.4314159620274703e-05,0.00045393861280433714,0.0,0.0,0.0,0.0,0.0,0.0,0.0,7.366602880898299e-05,-0.00014601929145952042,-5.533409320401805e-05,-4.522600429379686e-05,1.3098951543027981e-05,-0.00012880594232056453,-8.80982036899347e-06,0.00025825402330169095,-0.00015346502304538486,-8.441889523066848e-05,-0.0006586930738252193,4.963279744606952e-05,4.4314159620274703e-05,-0.00045393861280433714,0.5537349581718445,46.52419662475586,5.536709308624268,-19.487642288208008,-0.7784934639930725,-2.3724398612976074,0.18710653483867645,0
5,0.019990205764770508,-0.5537349581718445,-46.52419662475586,-5.536709308624268,19.487642288208008,0.7784934639930725,2.3724398612976074,-0.18710653483867645,0.0,0.0,0.0,0.0,0.0,0.0,0.0,-0.6511282573639872,-0.16378782946536782,-0.4058744540506933,0.3024383470041991,0.19470868071087277,0.10367289861765178,-0.18462354683289006,0.878019210041615,0.7556057687224004,-0.2824999310761167,-1.6690541354564197,0.14140549656568757,2.403573923309959,1.0273469100511732,0.878092876070424,0.7554597494309409,-0.2825552651693207,-1.6690993614607135,0.1414185955172306,2.4034451173676383,1.0273381002308042,-0.00025825402330169095,0.00015346502304538486,8.441889523066848e-05,0.0006586930738252193,-4.963279744606952e-05,-4.4314159620274703e-05,0.00045393861280433714,0.0,0.0,0.0,0.0,0.0,0.0,0.0,7.366602880898299e-05,-0.00014601929145952042,-5.533409320401805e-05,-4.522600429379686e-05,1.3098951543027981e-05,-0.00012880594232056453,-8.80982036899347e-06,0.00025825402330169095,-0.00015346502304538486,-8.441889523066848e-05,-0.0006586930738252193,4.963279744606952e-05,4.4314159620274703e-05,-0.00045393861280433714,0.5537349581718445,46.52419662475586,5.536709308624268,-19.487642288208008,-0.7784934639930725,-2.3724398612976074,0.18710653483867645,0
6,0.025671720504760742,-0.6053096652030945,-46.47658920288086,-5.512905597686768,19.511445999145508,0.7849021553993225,2.3788485527038574,-0.14590780436992645,0.0,0.0,0.0,0.0,0.0,0.0,0.0,-0.6410030517693551,-0.1663983857602712,-0.40031195460385355,0.3034865705214793,0.19470399228530474,0.10395361474919754,-0.18466750653762024,0.8780228293193014,0.7556024281777385,-0.282501601511972,-1.6690558058922749,0.14140765685908882,2.4035732201338966,1.0273423190034856,0.878092876070424,0.7554597494309409,-0.2825552651693207,-1.6690993614607135,0.1414185955172306,2.4034451173676383,1.0273381002308042,-0.00014872420754946864,0.00015894305850392971,-0.0001437504423396757,-0.0003040464433693661,-0.00010817758227396577,-0.0002843148081948198,-0.001739816240755898,0.0,0.0,0.0,0.0,0.0,0.0,0.0,7.004675112254333e-05,-0.00014267874679763093,-5.366365734871259e-05,-4.355556843860242e-05,1.093865814177919e-05,-0.00012810276625829786,-4.218772681419125e-06,0.00014872420754946864,-0.00015894305850392971,0.0001437504423396757,0.0003040464433693661,0.00010817758227396577,0.0002843148081948198,0.001739816240755898,0.6053096652030945,46.47658920288086,5.512905597686768,-19.511445999145508,-0.7849021553993225,-2.3788485527038574,0.14590780436992645,0
7,0.029990196228027344,-0.6053096652030945,-46.47658920288086,-5.512905597686768,19.511445999145508,0.7849021553993225,2.3788485527038574,-0.14590780436992645,0.0,0.0,0.0,0.0,0.0,0.0,0.0,-0.6410030517693551,-0.1663983857602712,-0.40031195460385355,0.3034865705214793,0.19470399228530474,0.10395361474919754,-0.18466750653762024,0.8780228293193014,0.7556024281777385,-0.282501601511972,-1.6690558058922749,0.14140765685908882,2.4035732201338966,1.0273423190034856,0.878092876070424,0.7554597494309409,-0.2825552651693207,-1.6690993614607135,0.1414185955172306,2.4034451173676383,1.0273381002308042,-0.00014872420754946864,0.00015894305850392971,-0.0001437504423396757,-0.0003040464433693661,-0.00010817758227396577,-0.0002843148081948198,-0.001739816240755898,0.0,0.0,0.0,0.0,0.0,0.0,0.0,7.004675112254333e-05,-0.00014267874679763093,-5.366365734871259e-05,-4.355556843860242e-05,1.093865814177919e-05,-0.00012810276625829786,-4.218772681419125e-06,0.00014872420754946864,-0.00015894305850392971,0.0001437504423396757,0.0003040464433693661,0.00010817758227396577,0.0002843148081948198,0.001739816240755898,0.6053096652030945,46.47658920288086,5.512905597686768,-19.511445999145508,-0.7849021553993225,-2.3788485527038574,0.14590780436992645,0
8,0.034967899322509766,-0.6291133761405945,-46.47658920288086,-5.512905597686768,19.511445999145508,0.7849021553993225,2.3724398612976074,-0.22098104655742645,0.0,0.0,0.0,0.0,0.0,0.0,0.0,-0.6264305182737853,-0.18307964759152287,-0.3862283351258665,0.31491756116555436,0.19489449714726143,0.10624416745864072,-0.1838536230219892,0.8780244997551566,0.7556024278506915,-0.28250370754275406,-1.6690558058922749,0.14140705522309782,2.403572288083936,1.027350660474764,0.878092876070424,0.7554597494309409,-0.2825552651693207,-1.6690993614607135,0.1414185955172306,2.4034451173676383,1.0273381002308042,-3.103621428008644e-05,-0.00014656329090734685,-0.00022053372364434515,-2.7732326091473958e-05,-0.00016357337254516022,5.8306809770242214e-05,0.001428475318486228,0.0,0.0,0.0,0.0,0.0,0.0,0.0,6.837631526734889e-05,-0.00014267841975068585,-5.155762656666729e-05,-4.355556843860242e-05,1.1540294132778017e-05,-0.00012717071629753107,-1.2560243959791606e-05,3.103621428008644e-05,0.00014656329090734685,0.00022053372364434515,2.7732326091473958e-05,0.00016357337254516022,-5.8306809770242214e-05,-0.001428475318486228,0.6291133761405945,46.47658920288086,5.512905597686768,-19.511445999145508,-0.7849021553993225,-2.3724398612976074,0.22098104655742645,0
9,0.0399937629699707,-0.6291133761405945,-46.47658920288086,-5.512905597686768,19.511445999145508,0.7849021553993225,2.3724398612976074,-0.22098104655742645,0.0,0.0,0.0,0.0,0.0,0.0,0.0,-0.6264305182737853,-0.18307964759152287,-0.3862283351258665,0.31491756116555436,0.19489449714726143,0.10624416745864072,-0.1838536230219892,0.8780244997551566,0.7556024278506915,-0.28250370754275406,-1.6690558058922749,0.14140705522309782,2.403572288083936,1.027350660474764,0.878092876070424,0.7554597494309409,-0.2825552651693207,-1.6690993614607135,0.1414185955172306,2.4034451173676383,1.0273381002308042,-3.103621428008644e-05,-0.00014656329090734685,-0.00022053372364434515,-2.7732326091473958e-05,-0.00016357337254516022,5.8306809770242214e-05,0.001428475318486228,0.0,0.0,0.0,0.0,0.0,0.0,0.0,6.837631526734889e-05,-0.00014267841975068585,-5.155762656666729e-05,-4.355556843860242e-05,1.1540294132778017e-05,-0.00012717071629753107,-1.2560243959791606e-05,3.103621428008644e-05,0.00014656329090734685,0.00022053372364434515,2.7732326091473958e-05,0.00016357337254516022,-5.8306809770242214e-05,-0.001428475318486228,0.6291133761405945,46.47658920288086,5.512905597686768,-19.511445999145508,-0.7849021553993225,-2.3724398612976074,0.22098104655742645,0
10,0.044997215270996094,-0.6806880831718445,-46.47658920288086,-5.588284015655518,19.559053421020508,0.7849021553993225,2.3724398612976074,-0.21457235515117645,0.0,0.0,0.0,0.0,0.0,0.0,0.0,-0.6448112957726004,-0.1843168282930121,-0.3949013785843293,0.31825209561972057,0.19536473235074137,0.10753177035022723,-0.18424817018496142,0.8780281190328431,0.7556024278506898,-0.2824963118340961,-1.6690591467639855,0.14140666524874043,2.403575149109715,1.0273499483979411,0.878092876070424,0.7554597494309409,-0.2825552651693207,-1.6690993614607135,0.1414185955172306,2.4034451173676383,1.0273381002308042,0.000547457004874453,2.4917536175373755e-05,0.00017567860218775384,-0.000637067890919933,-0.00028434902645995975,0.0002698683964187677,0.0010520887181988106,0.0,0.0,0.0,0.0,0.0,0.0,0.0,6.475703758090923e-05,-0.0001426784197489095,-5.895333522459856e-05,-4.0214696727991495e-05,1.1930268490167872e-05,-0.00013003174207648627,-1.1848167136951915e-05,-0.000547457004874453,-2.4917536175373755e-05,-0.00017567860218775384,0.000637067890919933,0.00028434902645995975,-0.0002698683964187677,-0.0010520887181988106,0.6806880831718445,46.47658920288086,5.588284015655518,-19.559053421020508,-0.7849021553993225,-2.3724398612976074,0.21457235515117645,0
11,0.049989938735961914,-0.6806880831718445,-46.47658920288086,-5.588284015655518,19.559053421020508,0.7849021553993225,2.3724398612976074,-0.21457235515117645,0.0,0.0,0.0,0.0,0.0,0.0,0.0,-0.6448112957726004,-0.1843168282930121,-0.3949013785843293,0.31825209561972057,0.19536473235074137,0.10753177035022723,-0.18424817018496142,0.8780281190328431,0.7556024278506898,-0.2824963118340961,-1.6690591467639855,0.14140666524874043,2.403575149109715,1.0273499483979411,0.878092876070424,0.7554597494309409,-0.2825552651693207,-1.6690993614607135,0.1414185955172306,2.4034451173676383,1.0273381002308042,0.000547457004874453,2.4917536175373755e-05,0.00017567860218775384,-0.000637067890919933,-0.00028434902645995975,0.0002698683964187677,0.0010520887181988106,0.0,0.0,0.0,0.0,0.0,0.0,0.0,6.475703758090923e-05,-0.0001426784197489095,-5.895333522459856e-05,-4.0214696727991495e-05,1.1930268490167872e-05,-0.00013003174207648627,-1.1848167136951915e-05,-0.000547457004874453,-2.4917536175373755e-05,-0.00017567860218775384,0.000637067890919933,0.00028434902645995975,-0.0002698683964187677,-0.0010520887181988106,0.6806880831718445,46.47658920288086,5.588284015655518,-19.559053421020508,-0.7849021553993225,-2.3724398612976074,0.21457235515117645,0
12,0.05498552322387695,-0.7560665011405945,-46.54800033569336,-5.612087726593018,19.535249710083008,0.7849021553993225,2.3788485527038574,-0.20724813640117645,0.0,0.0,0.0,0.0,0.0,0.0,0.0,-0.6441427246379602,-0.18573508412900452,-0.39366263015011627,0.3231063846130583,0.19525396857598495,0.10805152698723895,-0.18514346424963504,0.8780341240142349,0.7556074391582556,-0.28249471936371523,-1.66905747632813,0.1414077637840283,2.403571458205979,1.0273491345958576,0.878092876070424,0.7554597494309409,-0.2825552651693207,-1.6690993614607135,0.1414185955172306,2.4034451173676383,1.0273381002308042,0.0012918823750718148,0.0006133577392740462,0.0007495911945601586,-0.0001830960918167239,-0.00014188935962726186,-0.00020763821236513473,0.0008066117470597291,0.0,0.0,0.0,0.0,0.0,0.0,0.0,5.8752056189104174e-05,-0.00014768972731471486,-6.054580560549416e-05,-4.188513258340798e-05,1.0831733202293359e-05,-0.00012634083834051069,-1.1034365053452788e-05,-0.0012918823750718148,-0.0006133577392740462,-0.0007495911945601586,0.0001830960918167239,0.00014188935962726186,0.00020763821236513473,-0.0008066117470597291,0.7560665011405945,46.54800033569336,5.612087726593018,-19.535249710083008,-0.7849021553993225,-2.3788485527038574,0.20724813640117645,0
13,0.05998826026916504,-0.7560665011405945,-46.54800033569336,-5.612087726593018,19.535249710083008,0.7849021553993225,2.3788485527038574,-0.20724813640117645,0.0,0.0,0.0,0.0,0.0,0.0,0.0,-0.6441427246379602,-0.18573508412900452,-0.39366263015011627,0.3231063846130583,0.19525396857598495,0.10805152698723895,-0.18514346424963504,0.8780341240142349,0.7556074391582556,-0.28249471936371523,-1.66905747632813,0.1414077637840283,2.403571458205979,1.0273491345958576,0.878092876070424,0.7554597494309409,-0.2825552651693207,-1.6690993614607135,0.1414185955172306,2.4034451173676383,1.0273381002308042,0.0012918823750718148,0.0006133577392740462,0.0007495911945601586,-0.0001830960918167239,-0.00014188935962726186,-0.00020763821236513473,0.0008066117470597291,0.0,0.0,0.0,0.0,0.0,0.0,0.0,5.8752056189104174e-05,-0.00014768972731471486,-6.054580560549416e-05,-4.188513258340798e-05,1.0831733202293359e-05,-0.00012634083834051069,-1.1034365053452788e-05,-0.0012918823750718148,-0.0006133577392740462,-0.0007495911945601586,0.0001830960918167239,0.00014188935962726186,0.00020763821236513473,-0.0008066117470597291,0.7560665011405945,46.54800033569336,5.612087726593018,-19.535249710083008,-0.7849021553993225,-2.3788485527038574,0.20724813640117645,0
14,0.0649864673614502,-0.7084590792655945,-46.50039291381836,-5.564480304718018,19.487642288208008,0.7665916085243225,2.3788485527038574,-0.17978231608867645,0.0,0.0,0.0,0.0,0.0,0.0,0.0,-0.6417796956592157,-0.16870221208918584,-0.38168719194445444,0.31447884774716645,0.19485996538099895,0.10628782204492114,-0.18686464998333888,0.8780300680240669,0.7556040982865451,-0.2824979822347259,-1.6690562782801923,0.14141012870088565,2.4035733667172345,1.0273460828380452,0.878092876070424,0.7554597494309409,-0.2825552651693207,-1.6690993614607135,0.1414185955172306,2.4034451173676383,1.0273381002308042,-8.66030933932079e-05,-0.0008178469863328497,-0.0003696896108323581,0.0011046329041718456,0.0007952485458555962,-0.00024074829533532916,0.0001428193090881632,0.0,0.0,0.0,0.0,0.0,0.0,0.0,6.280804635705461e-05,-0.00014434885560421495,-5.72829345948378e-05,-4.30831805211529e-05,8.466816344948613e-06,-0.00012824934959621004,-7.982607240997197e-06,8.66030933932079e-05,0.0008178469863328497,0.0003696896108323581,-0.0011046329041718456,-0.0007952485458555962,0.00024074829533532916,-0.0001428193090881632,0.7084590792655945,46.50039291381836,5.564480304718018,-19.487642288208008,-0.7665916085243225,-2.3788485527038574,0.17978231608867645,0
15,0.06998825073242188,-0.7084590792655945,-46.50039291381836,-5.564480304718018,19.487642288208008,0.7665916085243225,2.3788485527038574,-0.17978231608867645,0.0,0.0,0.0,0.0,0.0,0.0,0.0,-0.6417796956592157,-0.16870221208918584,-0.38168719194445444,0.31447884774716645,0.19485996538099895,0.10628782204492114,-0.18686464998333888,0.8780300680240669,0.7556040982865451,-0.2824979822347259,-1.6690562782801923,0.14141012870088565,2.4035733667172345,1.0273460828380452,0.878092876070424,0.7554597494309409,-0.2825552651693207,-1.6690993614607135,0.1414185955172306,2.4034451173676383,1.0273381002308042,-8.66030933932079e-05,-0.0008178469863328497,-0.0003696896108323581,0.0011046329041718456,0.0007952485458555962,-0.00024074829533532916,0.0001428193090881632,0.0,0.0,0.0,0.0,0.0,0.0,0.0,6.280804635705461e-05,-0.00014434885560421495,-5.72829345948378e-05,-4.30831805211529e-05,8.466816344948613e-06,-0.00012824934959621004,-7.982607240997197e-06,8.66030933932079e-05,0.0008178469863328497,0.0003696896108323581,-0.0011046329041718456,-0.0007952485458555962,0.00024074829533532916,-0.0001428193090881632,0.7084590792655945,46.50039291381836,5.564480304718018,-19.487642288208008,-0.7665916085243225,-2.3788485527038574,0.17978231608867645,0
16,0.07551074028015137,-0.6806880831718445,-46.50039291381836,-5.612087726593018,19.487642288208008,0.7784934639930725,2.3788485527038574,-0.17337362468242645,0.0,0.0,0.0,0.0,0.0,0.0,0.0,-0.6649951125761425,-0.17997987587915223,-0.3954695703106789,0.3149359260290117,0.19536077582287245,0.10626543504586418,-0.1872664819148794,0.8780309800921319,0.7556041777594047,-0.2824946500293684,-1.6690548242333,0.14140833158422203,2.40357124475999,1.0273454914422315,0.878092876070424,0.7554597494309409,-0.2825552651693207,-1.6690993614607135,0.1414185955172306,2.4034451173676383,1.0273381002308042,-0.0007210358594239876,-0.0008822455504155139,0.00028615008768573746,0.0003650250356816549,7.44995639937322e-05,-0.00011005286347045628,-0.0004968995137985564,0.0,0.0,0.0,0.0,0.0,0.0,0.0,6.189597829209248e-05,-0.00014442832846384146,-6.06151399523136e-05,-4.453722741337707e-05,1.0263933008569648e-05,-0.00012612739235162707,-7.391211427343336e-06,0.0007210358594239876,0.0008822455504155139,-0.00028615008768573746,-0.0003650250356816549,-7.44995639937322e-05,0.00011005286347045628,0.0004968995137985564,0.6806880831718445,46.50039291381836,5.612087726593018,-19.487642288208008,-0.7784934639930725,-2.3788485527038574,0.17337362468242645,0
17,0.07999944686889648,-0.6806880831718445,-46.50039291381836,-5.612087726593018,19.487642288208008,0.7784934639930725,2.3788485527038574,-0.17337362468242645,0.0,0.0,0.0,0.0,0.0,0.0,0.0,-0.6649951125761425,-0.17997987587915223,-0.3954695703106789,0.3149359260290117,0.19536077582287245,0.10626543504586418,-0.1872664819148794,0.8780309800921319,0.7556041777594047,-0.2824946500293684,-1.6690548242333,0.14140833158422203,2.40357124475999,1.0273454914422315,0.878092876070424,0.7554597494309409,-0.2825552651693207,-1.6690993614607135,0.1414185955172306,2.4034451173676383,1.0273381002308042,-0.0007210358594239876,-0.0008822455504155139,0.00028615008768573746,0.0003650250356816549,7.44995639937322e-05,-0.00011005286347045628,-0.0004968995137985564,0.0,0.0,0.0,0.0,0.0,0.0,0.0,6.189597829209248e-05,-0.00014442832846384146,-6.06151399523136e-05,-4.453722741337707e-05,1.0263933008569648e-05,-0.00012612739235162707,-7.391211427343336e-06,0.0007210358594239876,0.0008822455504155139,-0.00028615008768573746,-0.0003650250356816549,-7.44995639937322e-05,0.00011005286347045628,0.0004968995137985564,0.6806880831718445,46.50039291381836,5.612087726593018,-19.487642288208008,-0.7784934639930725,-2.3788485527038574,0.17337362468242645,0
18,0.08499336242675781,-0.6806880831718445,-46.50039291381836,-5.564480304718018,19.487642288208008,0.7784934639930725,2.3788485527038574,-0.18710653483867645,0.0,0.0,0.0,0.0,0.0,0.0,0.0,-0.6514509445224069,-0.18169690326378596,-0.3884252588170202,0.3157918341260295,0.19439336149704883,0.10647577154489743,-0.1873290487531999,0.8780281543702648,0.7556040982869936,-0.2824979822343345,-1.669054135460308,0.141407766813679,2.403574741936068,1.0273468966408097,0.878092876070424,0.7554597494309409,-0.2825552651693207,-1.6690993614607135,0.1414185955172306,2.4034451173676383,1.0273381002308042,-0.00023258735249279483,-0.00019905687477892085,-0.0005720267589603121,0.00112558571550786,0.00011750536040528725,-0.00028465676643233914,0.00018660116244624835,0.0,0.0,0.0,0.0,0.0,0.0,0.0,6.472170015914269e-05,-0.00014434885605274506,-5.7282934986246925e-05,-4.5226000405573785e-05,1.0828703551596375e-05,-0.00012962456842968706,-8.796410005507127e-06,0.00023258735249279483,0.00019905687477892085,0.0005720267589603121,-0.00112558571550786,-0.00011750536040528725,0.00028465676643233914,-0.00018660116244624835,0.6806880831718445,46.50039291381836,5.564480304718018,-19.487642288208008,-0.7784934639930725,-2.3788485527038574,0.18710653483867645,0
19,0.09000468254089355,-0.6806880831718445,-46.50039291381836,-5.564480304718018,19.487642288208008,0.7784934639930725,2.3788485527038574,-0.18710653483867645,0.0,0.0,0.0,0.0,0.0,0.0,0.0,-0.6514509445224069,-0.18169690326378596,-0.3884252588170202,0.3157918341260295,0.19439336149704883,0.10647577154489743,-0.1873290487531999,0.8780281543702648,0.7556040982869936,-0.2824979822343345,-1.669054135460308,0.141407766813679,2.403574741936068,1.0273468966408097,0.878092876070424,0.7554597494309409,-0.2825552651693207,-1.6690993614607135,0.1414185955172306,2.4034451173676383,1.0273381002308042,-0.00023258735249279483,-0.00019905687477892085,-0.0005720267589603121,0.00112558571550786,0.00011750536040528725,-0.00028465676643233914,0.00018660116244624835,0.0,0.0,0.0,0.0,0.0,0.0,0.0,6.472170015914269e-05,-0.00014434885605274506,-5.7282934986246925e-05,-4.5226000405573785e-05,1.0828703551596375e-05,-0.00012962456842968706,-8.796410005507127e-06,0.00023258735249279483,0.00019905687477892085,0.0005720267589603121,-0.00112558571550786,-0.00011750536040528725,0.00028465676643233914,-0.00018660116244624835,0.6806880831718445,46.50039291381836,5.564480304718018,-19.487642288208008,-0.7784934639930725,-2.3788485527038574,0.18710653483867645,0
20,0.09499335289001465,-0.6291133761405945,-46.50039291381836,-5.564480304718018,19.511445999145508,0.7784934639930725,2.3724398612976074,-0.17978231608867645,0.0,0.0,0.0,0.0,0.0,0.0,0.0,-0.6495969043399172,-0.17338111030005893,-0.38883081076613185,0.31261771249627013,0.19371516291349908,0.10568992601290314,-0.1873310256881148,0.8780248176467949,0.7556040982865451,-0.2824979831972626,-1.6690558058922749,0.14140514543003024,2.4035744031158046,1.0273460828380452,0.878092876070424,0.7554597494309409,-0.2825552651693207,-1.6690993614607135,0.1414185955172306,2.4034451173676383,1.0273381002308042,-0.0004252932728485752,0.00017935165617392461,0.0001787031665408305,0.000321127036393966,0.00023850380473641262,-0.00010516204045696804,-0.0006015439652978158,0.0,0.0,0.0,0.0,0.0,0.0,0.0,6.805842362911374e-05,-0.00014434885560421495,-5.72819720581208e-05,-4.355556843860242e-05,1.3450087200356231e-05,-0.00012928574816628569,-7.982607240997197e-06,0.0004252932728485752,-0.00017935165617392461,-0.0001787031665408305,-0.000321127036393966,-0.00023850380473641262,0.00010516204045696804,0.0006015439652978158,0.6291133761405945,46.50039291381836,5.564480304718018,-19.511445999145508,-0.7784934639930725,-2.3724398612976074,0.17978231608867645,0
21,0.09998583793640137,-0.6291133761405945,-46.50039291381836,-5.564480304718018,19.511445999145508,0.7784934639930725,2.3724398612976074,-0.17978231608867645,0.0,0.0,0.0,0.0,0.0,0.0,0.0,-0.6495969043399172,-0.17338111030005893,-0.38883081076613185,0.31261771249627013,0.19371516291349908,0.10568992601290314,-0.1873310256881148,0.8780248176467949,0.7556040982865451,-0.2824979831972626,-1.6690558058922749,0.14140514543003024,2.4035744031158046,1.0273460828380452,0.878092876070424,0.7554597494309409,-0.2825552651693207,-1.6690993614607135,0.1414185955172306,2.4034451173676383,1.0273381002308042,-0.0004252932728485752,0.00017935165617392461,0.0001787031665408305,0.000321127036393966,0.00023850380473641262,-0.00010516204045696804,-0.0006015439652978158,0.0,0.0,0.0,0.0,0.0,0.0,0.0,6.805842362911374e-05,-0.00014434885560421495,-5.72819720581208e-05,-4.355556843860242e-05,1.3450087200356231e-05,-0.00012928574816628569,-7.982607240997197e-06,0.0004252932728485752,-0.00017935165617392461,-0.0001787031665408305,-0.000321127036393966,-0.00023850380473641262,0.00010516204045696804,0.0006015439652978158,0.6291133761405945,46.50039291381836,5.564480304718018,-19.511445999145508,-0.7784934639930725,-2.3724398612976074,0.17978231608867645,0
22,0.10493350028991699,-0.6053096652030945,-46.47658920288086,-5.564480304718018,19.559053421020508,0.7610984444618225,2.3788485527038574,-0.15231649577617645,0.0,0.0,0.0,0.0,0.0,0.0,0.0,-0.6578411001117196,-0.18388403174095005,-0.3991738219452542,0.3216474981221276,0.19437194844073222,0.10659911630986002,-0.18802346373058845,0.8780228293574347,0.7556024278506898,-0.282497982234291,-1.6690591467639855,0.14141025116666764,2.4035732230437055,1.0273430310802327,0.878092876070424,0.7554597494309409,-0.2825552651693207,-1.6690993614607135,0.1414185955172306,2.4034451173676383,1.0273381002308042,-0.0002543030234039448,-0.0002483216848651894,-4.607870627188897e-05,-0.00019921842680178603,0.0005158506784085402,-0.00021062980520328007,-0.0013637363049416747,0.0,0.0,0.0,0.0,0.0,0.0,0.0,7.004671298926901e-05,-0.0001426784197489095,-5.7282935029712156e-05,-4.0214696727991495e-05,8.344350562961012e-06,-0.0001281056760671362,-4.930849428541606e-06,0.0002543030234039448,0.0002483216848651894,4.607870627188897e-05,0.00019921842680178603,-0.0005158506784085402,0.00021062980520328007,0.0013637363049416747,0.6053096652030945,46.47658920288086,5.564480304718018,-19.559053421020508,-0.7610984444618225,-2.3788485527038574,0.15231649577617645,0
23,0.1099996566772461,-0.6053096652030945,-46.47658920288086,-5.564480304718018,19.559053421020508,0.7610984444618225,2.3788485527038574,-0.15231649577617645,0.0,0.0,0.0,0.0,0.0,0.0,0.0,-0.6578411001117196,-0.18388403174095005,-0.3991738219452542,0.3216474981221276,0.19437194844073222,0.10659911630986002,-0.18802346373058845,0.8780228293574347,0.7556024278506898,-0.282497982234291,-1.6690591467639855,0.14141025116666764,2.4035732230437055,1.0273430310802327,0.878092876070424,0.7554597494309409,-0.2825552651693207,-1.6690993614607135,0.1414185955172306,2.4034451173676383,1.0273381002308042,-0.0002543030234039448,-0.0002483216848651894,-4.607870627188897e-05,-0.00019921842680178603,0.0005158506784085402,-0.00021062980520328007,-0.0013637363049416747,0.0,0.0,0.0,0.0,0.0,0.0,0.0,7.004671298926901e-05,-0.0001426784197489095,-5.7282935029712156e-05,-4.0214696727991495e-05,8.344350562961012e-06,-0.0001281056760671362,-4.930849428541606e-06,0.0002543030234039448,0.0002483216848651894,4.607870627188897e-05,0.00019921842680178603,-0.0005158506784085402,0.00021062980520328007,0.0013637363049416747,0.6053096652030945,46.47658920288086,5.564480304718018,-19.559053421020508,-0.7610984444618225,-2.3788485527038574,0.15231649577617645,0
24,0.1150970458984375,-0.5537349581718445,-46.50039291381836,-5.588284015655518,19.511445999145508,0.7730002999305725,2.3660311698913574,-0.20724813640117645,0.0,0.0,0.0,0.0,0.0,0.0,0.0,-0.6418988419725165,-0.18912858045795705,-0.39627275814671353,0.327455967066424,0.193905319754794,0.10660776827753386,-0.18659657525102608,0.8780192100416152,0.7556040982865451,-0.2824963117984303,-1.6690558058922749,0.14140518669656865,2.403574790934678,1.0273491345958576,0.878092876070424,0.7554597494309409,-0.2825552651693207,-1.6690993614607135,0.1414185955172306,2.4034451173676383,1.0273381002308042,-0.0005719114997416118,-0.0006604952912364112,0.0010799883677088645,0.0005082751640219077,0.00043852366017320995,0.0003783023289808155,0.0013237080044770392,0.0,0.0,0.0,0.0,0.0,0.0,0.0,7.366602880876094e-05,-0.00014434885560421495,-5.89533708904022e-05,-4.355556843860242e-05,1.3408820661947596e-05,-0.0001296735670397453,-1.1034365053452788e-05,0.0005719114997416118,0.0006604952912364112,-0.0010799883677088645,-0.0005082751640219077,-0.00043852366017320995,-0.0003783023289808155,-0.0013237080044770392,0.5537349581718445,46.50039291381836,5.588284015655518,-19.511445999145508,-0.7730002999305725,-2.3660311698913574,0.20724813640117645,0
25,0.11998844146728516,-0.5537349581718445,-46.50039291381836,-5.588284015655518,19.511445999145508,0.7730002999305725,2.3660311698913574,-0.20724813640117645,0.0,0.0,0.0,0.0,0.0,0.0,0.0,-0.6418988419725165,-0.18912858045795705,-0.39627275814671353,0.327455967066424,0.193905319754794,0.10660776827753386,-0.18659657525102608,0.8780192100416152,0.7556040982865451,-0.2824963117984303,-1.6690558058922749,0.14140518669656865,2.403574790934678,1.0273491345958576,0.878092876070424,0.7554597494309409,-0.2825552651693207,-1.6690993614607135,0.1414185955172306,2.4034451173676383,1.0273381002308042,-0.0005719114997416118,-0.0006604952912364112,0.0010799883677088645,0.0005082751640219077,0.00043852366017320995,0.0003783023289808155,0.0013237080044770392,0.0,0.0,0.0,0.0,0.0,0.0,0.0,7.366602880876094e-05,-0.00014434885560421495,-5.89533708904022e-05,-4.355556843860242e-05,1.3408820661947596e-05,-0.0001296735670397453,-1.1034365053452788e-05,0.0005719114997416118,0.0006604952912364112,-0.0010799883677088645,-0.0005082751640219077,-0.00043852366017320995,-0.0003783023289808155,-0.0013237080044770392,0.5537349581718445,46.50039291381836,5.588284015655518,-19.511445999145508,-0.7730002999305725,-2.3660311698913574,0.20724813640117645,0
26,0.1297750473022461,-0.5815059542655945,-46.50039291381836,-5.564480304718018,19.535249710083008,0.7784934639930725,2.3724398612976074,-0.15231649577617645,0.0,0.0,0.0,0.0,0.0,0.0,0.0,-0.6479495877943721,-0.1812478207051731,-0.40558155985585265,0.322843885841374,0.19450961681798992,0.10613510268338548,-0.18542510206871,0.8780211588834461,0.7556040982865451,-0.28249798223428557,-1.66905747632813,0.1414045388455023,2.4035751122790563,1.0273430310802327,0.878092876070424,0.7554597494309409,-0.2825552651693207,-1.6690993614607135,0.1414185955172306,2.4034451173676383,1.0273381002308042,3.678969826389235e-05,-0.00047969417323906764,0.00027812712746877054,-1.2181618243109247e-05,-5.886748005485707e-05,-4.759185150829288e-06,-0.001665588119386476,0.0,0.0,0.0,0.0,0.0,0.0,0.0,7.171718697784879e-05,-0.00014434885560421495,-5.728293503515225e-05,-4.188513258340798e-05,1.4056671728296388e-05,-0.00012999491141796327,-4.930849428541606e-06,-3.678969826389235e-05,0.00047969417323906764,-0.00027812712746877054,1.2181618243109247e-05,5.886748005485707e-05,4.759185150829288e-06,0.001665588119386476,0.5815059542655945,46.50039291381836,5.564480304718018,-19.535249710083008,-0.7784934639930725,-2.3724398612976074,0.15231649577617645,0
27,0.12998390197753906,-0.5815059542655945,-46.50039291381836,-5.564480304718018,19.535249710083008,0.7784934639930725,2.3724398612976074,-0.15231649577617645,0.0,0.0,0.0,0.0,0.0,0.0,0.0,-0.6479495877943721,-0.1812478207051731,-0.40558155985585265,0.322843885841374,0.19450961681798992,0.10613510268338548,-0.18542510206871,0.8780211588834461,0.7556040982865451,-0.28249798223428557,-1.66905747632813,0.1414045388455023,2.4035751122790563,1.0273430310802327,0.878092876070424,0.7554597494309409,-0.2825552651693207,-1.6690993614607135,0.1414185955172306,2.4034451173676383,1.0273381002308042,3.678969826389235e-05,-0.00047969417323906764,0.00027812712746877054,-1.2181618243109247e-05,-5.886748005485707e-05,-4.759185150829288e-06,-0.001665588119386476,0.0,0.0,0.0,0.0,0.0,0.0,0.0,7.171718697784879e-05,-0.00014434885560421495,-5.728293503515225e-05,-4.188513258340798e-05,1.4056671728296388e-05,-0.00012999491141796327,-4.930849428541606e-06,-3.678969826389235e-05,0.00047969417323906764,-0.00027812712746877054,1.2181618243109247e-05,5.886748005485707e-05,4.759185150829288e-06,0.001665588119386476,0.5815059542655945,46.50039291381836,5.564480304718018,-19.535249710083008,-0.7784934639930725,-2.3724398612976074,0.15231649577617645,0
28,0.13494515419006348,-0.5815059542655945,-46.50039291381836,-5.564480304718018,19.535249710083008,0.7784934639930725,2.3724398612976074,-0.15231649577617645,0.0,0.0,0.0,0.0,0.0,0.0,0.0,-0.6479495877943721,-0.1812478207051731,-0.40558155985585265,0.322843885841374,0.19450961681798992,0.10613510268338548,-0.18542510206871,0.8780211588834461,0.7556040982865451,-0.28249798223428557,-1.66905747632813,0.1414045388455023,2.4035751122790563,1.0273430310802327,0.878092876070424,0.7554597494309409,-0.2825552651693207,-1.6690993614607135,0.1414185955172306,2.4034451173676383,1.0273381002308042,3.678969826389235e-05,-0.00047969417323906764,0.00027812712746877054,-1.2181618243109247e-05,-5.886748005485707e-05,-4.759185150829288e-06,-0.001665588119386476,0.0,0.0,0.0,0.0,0.0,0.0,0.0,7.171718697784879e-05,-0.00014434885560421495,-5.728293503515225e-05,-4.188513258340798e-05,1.4056671728296388e-05,-0.00012999491141796327,-4.930849428541606e-06,-3.678969826389235e-05,0.00047969417323906764,-0.00027812712746877054,1.2181618243109247e-05,5.886748005485707e-05,4.759185150829288e-06,0.001665588119386476,0.5815059542655945,46.50039291381836,5.564480304718018,-19.535249710083008,-0.7784934639930725,-2.3724398612976074,0.15231649577617645,0
29,0.13996291160583496,-0.5815059542655945,-46.50039291381836,-5.564480304718018,19.535249710083008,0.7784934639930725,2.3724398612976074,-0.15231649577617645,0.0,0.0,0.0,0.0,0.0,0.0,0.0,-0.6479495877943721,-0.1812478207051731,-0.40558155985585265,0.322843885841374,0.19450961681798992,0.10613510268338548,-0.18542510206871,0.8780211588834461,0.7556040982865451,-0.28249798223428557,-1.66905747632813,0.1414045388455023,2.4035751122790563,1.0273430310802327,0.878092876070424,0.7554597494309409,-0.2825552651693207,-1.6690993614607135,0.1414185955172306,2.4034451173676383,1.0273381002308042,3.678969826389235e-05,-0.00047969417323906764,0.00027812712746877054,-1.2181618243109247e-05,-5.886748005485707e-05,-4.759185150829288e-06,-0.001665588119386476,0.0,0.0,0.0,0.0,0.0,0.0,0.0,7.171718697784879e-05,-0.00014434885560421495,-5.728293503515225e-05,-4.188513258340798e-05,1.4056671728296388e-05,-0.00012999491141796327,-4.930849428541606e-06,-3.678969826389235e-05,0.00047969417323906764,-0.00027812712746877054,1.2181618243109247e-05,5.886748005485707e-05,4.759185150829288e-06,0.001665588119386476,0.5815059542655945,46.50039291381836,5.564480304718018,-19.535249710083008,-0.7784934639930725,-2.3724398612976074,0.15231649577617645,0
30,0.1449880599975586,-0.5815059542655945,-46.50039291381836,-5.588284015655518,19.535249710083008,0.7784934639930725,2.3596224784851074,-0.22098104655742645,0.0,0.0,0.0,0.0,0.0,0.0,0.0,-0.6346940836235415,-0.17971823217450433,-0.39806107522479806,0.3213260576961562,0.19459786859923514,0.10633683168971647,-0.1865722952180343,0.8780211588834461,0.7556041777594047,-0.2824963117984303,-1.66905747632813,0.14140729431626614,2.4035736193785326,1.027350660474764,0.878092876070424,0.7554597494309409,-0.2825552651693207,-1.6690993614607135,0.1414185955172306,2.4034451173676383,1.0273381002308042,-0.0005095589372563628,-0.0002805429079455654,0.0009446050381297283,-6.180137406632724e-05,8.127296350755391e-05,0.0005176494739729966,0.0018513680885230358,0.0,0.0,0.0,0.0,0.0,0.0,0.0,7.171718697784879e-05,-0.00014442832846384146,-5.89533708904022e-05,-4.188513258340798e-05,1.1301200964458635e-05,-0.0001285020108943158,-1.2560243959791606e-05,0.0005095589372563628,0.0002805429079455654,-0.0009446050381297283,6.180137406632724e-05,-8.127296350755391e-05,-0.0005176494739729966,-0.0018513680885230358,0.5815059542655945,46.50039291381836,5.588284015655518,-19.535249710083008,-0.7784934639930725,-2.3596224784851074,0.22098104655742645,0
31,0.15000176429748535,-0.5815059542655945,-46.50039291381836,-5.588284015655518,19.535249710083008,0.7784934639930725,2.3596224784851074,-0.22098104655742645,0.0,0.0,0.0,0.0,0.0,0.0,0.0,-0.6346940836235415,-0.17971823217450433,-0.39806107522479806,0.3213260576961562,0.19459786859923514,0.10633683168971647,-0.1865722952180343,0.8780211588834461,0.7556041777594047,-0.2824963117984303,-1.66905747632813,0.14140729431626614,2.4035736193785326,1.027350660474764,0.878092876070424,0.7554597494309409,-0.2825552651693207,-1.6690993614607135,0.1414185955172306,2.4034451173676383,1.0273381002308042,-0.0005095589372563628,-0.0002805429079455654,0.0009446050381297283,-6.180137406632724e-05,8.127296350755391e-05,0.0005176494739729966,0.0018513680885230358,0.0,0.0,0.0,0.0,0.0,0.0,0.0,7.171718697784879e-05,-0.00014442832846384146,-5.89533708904022e-05,-4.188513258340798e-05,1.1301200964458635e-05,-0.0001285020108943158,-1.2560243959791606e-05,0.0005095589372563628,0.0002805429079455654,-0.0009446050381297283,6.180137406632724e-05,-8.127296350755391e-05,-0.0005176494739729966,-0.0018513680885230358,0.5815059542655945,46.50039291381836,5.588284015655518,-19.535249710083008,-0.7784934639930725,-2.3596224784851074,0.22098104655742645,0
32,0.15494465827941895,-0.6291133761405945,-46.52419662475586,-5.512905597686768,19.535249710083008,0.7849021553993225,2.3660311698913574,-0.18710653483867645,0.0,0.0,0.0,0.0,0.0,0.0,0.0,-0.635453934393953,-0.17804391868115754,-0.3994904669056655,0.3185450281270577,0.1948123132561417,0.10571147410561933,-0.18690564418947642,0.8780244997551566,0.7556057688318653,-0.2825016795131121,-1.66905747632813,0.14140478491286468,2.4035726716485977,1.0273468966401285,0.878092876070424,0.7554597494309409,-0.2825552651693207,-1.6690993614607135,0.1414185955172306,2.4034451173676383,1.0273381002308042,-0.00022365014315282297,0.0005040817376164464,-0.0012059502170628398,5.083746045169182e-05,-0.00017292309969590386,0.00018258581438419807,0.0003620779810825271,0.0,0.0,0.0,0.0,0.0,0.0,0.0,6.837631526734889e-05,-0.00014601940092440202,-5.358565620861011e-05,-4.188513258340798e-05,1.3810604365921408e-05,-0.00012755428095934107,-8.796409324274279e-06,0.00022365014315282297,-0.0005040817376164464,0.0012059502170628398,-5.083746045169182e-05,0.00017292309969590386,-0.00018258581438419807,-0.0003620779810825271,0.6291133761405945,46.52419662475586,5.512905597686768,-19.535249710083008,-0.7849021553993225,-2.3660311698913574,0.18710653483867645,0
33,0.1599903106689453,-0.6291133761405945,-46.52419662475586,-5.512905597686768,19.535249710083008,0.7849021553993225,2.3660311698913574,-0.18710653483867645,0.0,0.0,0.0,0.0,0.0,0.0,0.0,-0.635453934393953,-0.17804391868115754,-0.3994904669056655,0.3185450281270577,0.1948123132561417,0.10571147410561933,-0.18690564418947642,0.8780244997551566,0.7556057688318653,-0.2825016795131121,-1.66905747632813,0.14140478491286468,2.4035726716485977,1.0273468966401285,0.878092876070424,0.7554597494309409,-0.2825552651693207,-1.6690993614607135,0.1414185955172306,2.4034451173676383,1.0273381002308042,-0.00022365014315282297,0.0005040817376164464,-0.0012059502170628398,5.083746045169182e-05,-0.00017292309969590386,0.00018258581438419807,0.0003620779810825271,0.0,0.0,0.0,0.0,0.0,0.0,0.0,6.837631526734889e-05,-0.00014601940092440202,-5.358565620861011e-05,-4.188513258340798e-05,1.3810604365921408e-05,-0.00012755428095934107,-8.796409324274279e-06,0.00022365014315282297,-0.0005040817376164464,0.0012059502170628398,-5.083746045169182e-05,0.00017292309969590386,-0.00018258581438419807,-0.0003620779810825271,0.6291133761405945,46.52419662475586,5.512905597686768,-19.535249710083008,-0.7849021553993225,-2.3660311698913574,0.18710653483867645,0
34,0.16503453254699707,-0.7084590792655945,-46.50039291381836,-5.536709308624268,19.487642288208008,0.7730002999305725,2.3596224784851074,-0.17337362468242645,0.0,0.0,0.0,0.0,0.0,0.0,0.0,-0.6387830368092413,-0.17980091755285849,-0.3949120803552571,0.3182930502277077,0.19505714337086238,0.10453184221850124,-0.1858285768108914,0.8780300767049919,0.7556040986135945,-0.282499931076557,-1.6690541354564197,0.14140825882772662,2.4035757095121544,1.0273453707612223,0.878092876070424,0.7554597494309409,-0.2825552651693207,-1.6690993614607135,0.1414185955172306,2.4034451173676383,1.0273381002308042,0.00045596299168775993,-0.00021386450325030948,-0.0006796083815653717,0.0004370347985680404,0.0004592682424759985,0.00042116575337263737,0.00903974405443615,0.0,0.0,0.0,0.0,0.0,0.0,0.0,6.279936543207576e-05,-0.00014434918265360253,-5.53340927637036e-05,-4.522600429379686e-05,1.0336689503981367e-05,-0.00013059214451605072,-7.270530418157506e-06,-0.00045596299168775993,0.00021386450325030948,0.0006796083815653717,-0.0004370347985680404,-0.0004592682424759985,-0.00042116575337263737,-0.00903974405443615,0.7084590792655945,46.50039291381836,5.536709308624268,-19.487642288208008,-0.7730002999305725,-2.3596224784851074,0.17337362468242645,0
35,0.17075371742248535,-0.7084590792655945,-46.50039291381836,-5.536709308624268,19.487642288208008,0.7730002999305725,2.3596224784851074,-0.17337362468242645,0.0,0.0,0.0,0.0,0.0,0.0,0.0,-0.6387830368092413,-0.17980091755285849,-0.3949120803552571,0.3182930502277077,0.19505714337086238,0.10453184221850124,-0.1858285768108914,0.8780300767049919,0.7556040986135945,-0.282499931076557,-1.6690541354564197,0.14140825882772662,2.4035757095121544,1.0273453707612223,0.878092876070424,0.7554597494309409,-0.2825552651693207,-1.6690993614607135,0.1414185955172306,2.4034451173676383,1.0273381002308042,0.00045596299168775993,-0.00021386450325030948,-0.0006796083815653717,0.0004370347985680404,0.0004592682424759985,0.00042116575337263737,0.00903974405443615,0.0,0.0,0.0,0.0,0.0,0.0,0.0,6.279936543207576e-05,-0.00014434918265360253,-5.53340927637036e-05,-4.522600429379686e-05,1.0336689503981367e-05,-0.00013059214451605072,-7.270530418157506e-06,-0.00045596299168775993,0.00021386450325030948,0.0006796083815653717,-0.0004370347985680404,-0.0004592682424759985,-0.00042116575337263737,-0.00903974405443615,0.7084590792655945,46.50039291381836,5.536709308624268,-19.487642288208008,-0.7730002999305725,-2.3596224784851074,0.17337362468242645,0
36,0.1750485897064209,-0.7322627902030945,-46.52419662475586,-5.588284015655518,19.559053421020508,0.7730002999305725,2.3852572441101074,-0.17978231608867645,0.0,0.0,0.0,0.0,0.0,0.0,0.0,-0.6485177692102161,-0.182454117383899,-0.392442669804288,0.3198132544967923,0.19492580611265295,0.10449492406364702,-0.1849840561161176,0.8780317471409967,0.7556057687224058,-0.2824963117984303,-1.6690591467639855,0.14140626712585672,2.4035704961702797,1.0273460873077123,0.878092876070424,0.7554597494309409,-0.2825552651693207,-1.6690993614607135,0.1414185955172306,2.4034451173676383,1.0273381002308042,0.0006479735095373753,0.0004174009871482845,-0.00012968447925465343,-0.0009606397051347722,3.116953611590242e-05,-0.0004999496307763567,0.0005953000917531143,0.0,0.0,0.0,0.0,0.0,0.0,0.0,6.112892942722326e-05,-0.0001460192914649605,-5.89533708904022e-05,-4.0214696727991495e-05,1.232839137388364e-05,-0.0001253788026414071,-7.987076908078095e-06,-0.0006479735095373753,-0.0004174009871482845,0.00012968447925465343,0.0009606397051347722,-3.116953611590242e-05,0.0004999496307763567,-0.0005953000917531143,0.7322627902030945,46.52419662475586,5.588284015655518,-19.559053421020508,-0.7730002999305725,-2.3852572441101074,0.17978231608867645,0
37,0.18030619621276855,-0.7322627902030945,-46.52419662475586,-5.588284015655518,19.559053421020508,0.7730002999305725,2.3852572441101074,-0.17978231608867645,0.0,0.0,0.0,0.0,0.0,0.0,0.0,-0.6485177692102161,-0.182454117383899,-0.392442669804288,0.3198132544967923,0.19492580611265295,0.10449492406364702,-0.1849840561161176,0.8780317471409967,0.7556057687224058,-0.2824963117984303,-1.6690591467639855,0.14140626712585672,2.4035704961702797,1.0273460873077123,0.878092876070424,0.7554597494309409,-0.2825552651693207,-1.6690993614607135,0.1414185955172306,2.4034451173676383,1.0273381002308042,0.0006479735095373753,0.0004174009871482845,-0.00012968447925465343,-0.0009606397051347722,3.116953611590242e-05,-0.0004999496307763567,0.0005953000917531143,0.0,0.0,0.0,0.0,0.0,0.0,0.0,6.112892942722326e-05,-0.0001460192914649605,-5.89533708904022e-05,-4.0214696727991495e-05,1.232839137388364e-05,-0.0001253788026414071,-7.987076908078095e-06,-0.0006479735095373753,-0.0004174009871482845,0.00012968447925465343,0.0009606397051347722,-3.116953611590242e-05,0.0004999496307763567,-0.0005953000917531143,0.7322627902030945,46.52419662475586,5.588284015655518,-19.559053421020508,-0.7730002999305725,-2.3852572441101074,0.17978231608867645,0
38,0.18495440483093262,-0.6806880831718445,-46.47658920288086,-5.612087726593018,19.586824417114258,0.7665916085243225,2.3724398612976074,-0.17337362468242645,0.0,0.0,0.0,0.0,0.0,0.0,0.0,-0.6491601446914159,-0.18675509550511477,-0.38872465222809216,0.3242289581375287,0.19405235584532177,0.10542228737110018,-0.1847118114766509,0.878030265175572,0.7556024278506898,-0.28249464136257507,-1.6690610956058165,0.14140908803289726,2.4035707966717434,1.0273453707612308,0.878092876070424,0.7554597494309409,-0.2825552651693207,-1.6690993614607135,0.1414185955172306,2.4034451173676383,1.0273381002308042,-0.0005686230197847024,-0.001026878927375725,0.00035956235925731184,-0.0015264890919301217,0.000699516053055677,2.6806264805160307e-05,-0.0001428372306676785,0.0,0.0,0.0,0.0,0.0,0.0,0.0,6.261089485193327e-05,-0.0001426784197489095,-6.0623806745652153e-05,-3.826585489696832e-05,9.507484333343141e-06,-0.00012567930410511963,-7.270530426595201e-06,0.0005686230197847024,0.001026878927375725,-0.00035956235925731184,0.0015264890919301217,-0.000699516053055677,-2.6806264805160307e-05,0.0001428372306676785,0.6806880831718445,46.47658920288086,5.612087726593018,-19.586824417114258,-0.7665916085243225,-2.3724398612976074,0.17337362468242645,0
39,0.1899857521057129,-0.6806880831718445,-46.47658920288086,-5.612087726593018,19.586824417114258,0.7665916085243225,2.3724398612976074,-0.17337362468242645,0.0,0.0,0.0,0.0,0.0,0.0,0.0,-0.6491601446914159,-0.18675509550511477,-0.38872465222809216,0.3242289581375287,0.19405235584532177,0.10542228737110018,-0.1847118114766509,0.878030265175572,0.7556024278506898,-0.28249464136257507,-1.6690610956058165,0.14140908803289726,2.4035707966717434,1.0273453707612308,0.878092876070424,0.7554597494309409,-0.2825552651693207,-1.6690993614607135,0.1414185955172306,2.4034451173676383,1.0273381002308042,-0.0005686230197847024,-0.001026878927375725,0.00035956235925731184,-0.0015264890919301217,0.000699516053055677,2.6806264805160307e-05,-0.0001428372306676785,0.0,0.0,0.0,0.0,0.0,0.0,0.0,6.261089485193327e-05,-0.0001426784197489095,-6.0623806745652153e-05,-3.826585489696832e-05,9.507484333343141e-06,-0.00012567930410511963,-7.270530426595201e-06,0.0005686230197847024,0.001026878927375725,-0.00035956235925731184,0.0015264890919301217,-0.000699516053055677,-2.6806264805160307e-05,0.0001428372306676785,0.6806880831718445,46.47658920288086,5.612087726593018,-19.586824417114258,-0.7665916085243225,-2.3724398612976074,0.17337362468242645,0
40,0.19498682022094727,-0.7084590792655945,-46.50039291381836,-5.588284015655518,19.511445999145508,0.7784934639930725,2.3724398612976074,-0.20083944499492645,0.0,0.0,0.0,0.0,0.0,0.0,0.0,-0.6560318927911503,-0.18164306654966278,-0.3918741214080786,0.3229892463967134,0.1941282121140871,0.10551812629938088,-0.18530807797272633,0.8780323206231906,0.7556040982865451,-0.2824963117984303,-1.6690558058922749,0.14140741588398312,2.4035707797124184,1.0273484225190348,0.878092876070424,0.7554597494309409,-0.2825552651693207,-1.6690993614607135,0.1414185955172306,2.4034451173676383,1.0273381002308042,8.579367078759929e-05,-0.0006100656926861117,0.0003652507797765284,0.0004199944224216915,1.0542324988142827e-05,0.00013932520840396792,0.0006435945191453901,0.0,0.0,0.0,0.0,0.0,0.0,0.0,6.0555447233379134e-05,-0.00014434885560421495,-5.89533708904022e-05,-4.355556843860242e-05,1.1179633247482279e-05,-0.00012566234478006422,-1.0322288230613097e-05,-8.579367078759929e-05,0.0006100656926861117,-0.0003652507797765284,-0.0004199944224216915,-1.0542324988142827e-05,-0.00013932520840396792,-0.0006435945191453901,0.7084590792655945,46.50039291381836,5.588284015655518,-19.511445999145508,-0.7784934639930725,-2.3724398612976074,0.20083944499492645,0
41,0.19998741149902344,-0.7084590792655945,-46.50039291381836,-5.588284015655518,19.511445999145508,0.7784934639930725,2.3724398612976074,-0.20083944499492645,0.0,0.0,0.0,0.0,0.0,0.0,0.0,-0.6560318927911503,-0.18164306654966278,-0.3918741214080786,0.3229892463967134,0.1941282121140871,0.10551812629938088,-0.18530807797272633,0.8780323206231906,0.7556040982865451,-0.2824963117984303,-1.6690558058922749,0.14140741588398312,2.4035707797124184,1.0273484225190348,0.878092876070424,0.7554597494309409,-0.2825552651693207,-1.6690993614607135,0.1414185955172306,2.4034451173676383,1.0273381002308042,8.579367078759929e-05,-0.0006100656926861117,0.0003652507797765284,0.0004199944224216915,1.0542324988142827e-05,0.00013932520840396792,0.0006435945191453901,0.0,0.0,0.0,0.0,0.0,0.0,0.0,6.0555447233379134e-05,-0.00014434885560421495,-5.89533708904022e-05,-4.355556843860242e-05,1.1179633247482279e-05,-0.00012566234478006422,-1.0322288230613097e-05,-8.579367078759929e-05,0.0006100656926861117,-0.0003652507797765284,-0.0004199944224216915,-1.0542324988142827e-05,-0.00013932520840396792,-0.0006435945191453901,0.7084590792655945,46.50039291381836,5.588284015655518,-19.511445999145508,-0.7784934639930725,-2.3724398612976074,0.20083944499492645,0
42,0.2049868106842041,-0.6806880831718445,-46.47658920288086,-5.588284015655518,19.511445999145508,0.7730002999305725,2.3724398612976074,-0.21457235515117645,0.0,0.0,0.0,0.0,0.0,0.0,0.0,-0.6484846461912025,-0.17986053445172015,-0.38601935266160076,0.3232661262390515,0.1939894598361508,0.10613261590159262,-0.18656967913071135,0.8780281455280352,0.7556024278506898,-0.2824963117984303,-1.6690558058922749,0.14140945786408657,2.4035739568672825,1.0273499483979411,0.878092876070424,0.7554597494309409,-0.2825552651693207,-1.6690993614607135,0.1414185955172306,2.4034451173676383,1.0273381002308042,0.0007476966625468638,-0.0006232216299458854,0.00033423515867417124,0.00033550994720008985,0.000387200804106244,1.2457602520548185e-05,0.001397803406332856,0.0,0.0,0.0,0.0,0.0,0.0,0.0,6.473054238875786e-05,-0.0001426784197489095,-5.89533708904022e-05,-4.355556843860242e-05,9.137653144031255e-06,-0.0001288394996441511,-1.1848167136951915e-05,-0.0007476966625468638,0.0006232216299458854,-0.00033423515867417124,-0.00033550994720008985,-0.000387200804106244,-1.2457602520548185e-05,-0.001397803406332856,0.6806880831718445,46.47658920288086,5.588284015655518,-19.511445999145508,-0.7730002999305725,-2.3724398612976074,0.21457235515117645,0
43,0.2101454734802246,-0.6806880831718445,-46.47658920288086,-5.588284015655518,19.511445999145508,0.7730002999305725,2.3724398612976074,-0.21457235515117645,0.0,0.0,0.0,0.0,0.0,0.0,0.0,-0.6484846461912025,-0.17986053445172015,-0.38601935266160076,0.3232661262390515,0.1939894598361508,0.10613261590159262,-0.18656967913071135,0.8780281455280352,0.7556024278506898,-0.2824963117984303,-1.6690558058922749,0.14140945786408657,2.4035739568672825,1.0273499483979411,0.878092876070424,0.7554597494309409,-0.2825552651693207,-1.6690993614607135,0.1414185955172306,2.4034451173676383,1.0273381002308042,0.0007476966625468638,-0.0006232216299458854,0.00033423515867417124,0.00033550994720008985,0.000387200804106244,1.2457602520548185e-05,0.001397803406332856,0.0,0.0,0.0,0.0,0.0,0.0,0.0,6.473054238875786e-05,-0.0001426784197489095,-5.89533708904022e-05,-4.355556843860242e-05,9.137653144031255e-06,-0.0001288394996441511,-1.1848167136951915e-05,-0.0007476966625468638,0.0006232216299458854,-0.00033423515867417124,-0.00033550994720008985,-0.000387200804106244,-1.2457602520548185e-05,-0.001397803406332856,0.6806880831718445,46.47658920288086,5.588284015655518,-19.511445999145508,-0.7730002999305725,-2.3724398612976074,0.21457235515117645,0
44,0.2151317596435547,-0.6053096652030945,-46.50039291381836,-5.564480304718018,19.511445999145508,0.7730002999305725,2.3724398612976074,-0.15231649577617645,0.0,0.0,0.0,0.0,0.0,0.0,0.0,-0.6551476559378818,-0.17926866034627817,-0.39599373610051547,0.32109438131789025,0.19422730887614187,0.10603098763432814,-0.1864138172002053,0.8780235484997739,0.7556040983228838,-0.28249798223428557,-1.6690558058922749,0.1414094121978795,2.403570797172204,1.0273430310802327,0.878092876070424,0.7554597494309409,-0.2825552651693207,-1.6690993614607135,0.1414185955172306,2.4034451173676383,1.0273381002308042,-0.0004741261309365211,-3.9775120900766704e-05,0.00019700080942092633,9.404617538259126e-06,0.00014794163015883469,-0.00017371580424635803,-0.0013510318838980827,0.0,0.0,0.0,0.0,0.0,0.0,0.0,6.932757065003514e-05,-0.00014434889194292477,-5.728293503515225e-05,-4.355556843860242e-05,9.183319351097063e-06,-0.0001256798045656815,-4.930849428541606e-06,0.0004741261309365211,3.9775120900766704e-05,-0.00019700080942092633,-9.404617538259126e-06,-0.00014794163015883469,0.00017371580424635803,0.0013510318838980827,0.6053096652030945,46.50039291381836,5.564480304718018,-19.511445999145508,-0.7730002999305725,-2.3724398612976074,0.15231649577617645,0
45,0.2199878692626953,-0.6053096652030945,-46.50039291381836,-5.564480304718018,19.511445999145508,0.7730002999305725,2.3724398612976074,-0.15231649577617645,0.0,0.0,0.0,0.0,0.0,0.0,0.0,-0.6551476559378818,-0.17926866034627817,-0.39599373610051547,0.32109438131789025,0.19422730887614187,0.10603098763432814,-0.1864138172002053,0.8780235484997739,0.7556040983228838,-0.28249798223428557,-1.6690558058922749,0.1414094121978795,2.403570797172204,1.0273430310802327,0.878092876070424,0.7554597494309409,-0.2825552651693207,-1.6690993614607135,0.1414185955172306,2.4034451173676383,1.0273381002308042,-0.0004741261309365211,-3.9775120900766704e-05,0.00019700080942092633,9.404617538259126e-06,0.00014794163015883469,-0.00017371580424635803,-0.0013510318838980827,0.0,0.0,0.0,0.0,0.0,0.0,0.0,6.932757065003514e-05,-0.00014434889194292477,-5.728293503515225e-05,-4.355556843860242e-05,9.183319351097063e-06,-0.0001256798045656815,-4.930849428541606e-06,0.0004741261309365211,3.9775120900766704e-05,-0.00019700080942092633,-9.404617538259126e-06,-0.00014794163015883469,0.00017371580424635803,0.0013510318838980827,0.6053096652030945,46.50039291381836,5.564480304718018,-19.511445999145508,-0.7730002999305725,-2.3724398612976074,0.15231649577617645,0
46,0.22505736351013184,-0.6053096652030945,-46.50039291381836,-5.564480304718018,19.511445999145508,0.7903953194618225,2.3724398612976074,-0.20724813640117645,0.0,0.0,0.0,0.0,0.0,0.0,0.0,-0.6478002231129619,-0.19345151276442132,-0.3950293125087009,0.3283854594170272,0.19407154169815155,0.10673333858324432,-0.18592795727928704,0.8780229089017756,0.7556040982865505,-0.28249801112359674,-1.6690558058922749,0.14140634280076056,2.4035751355259425,1.0273491345958576,0.878092876070424,0.7554597494309409,-0.2825552651693207,-1.6690993614607135,0.1414185955172306,2.4034451173676383,1.0273381002308042,-0.00015038287799818093,-0.0006918596016644981,0.0007674578883238677,0.00027355361298386874,-0.0004542316253591558,-0.00014732673854048943,0.0009500407820760979,0.0,0.0,0.0,0.0,0.0,0.0,0.0,6.996716864837715e-05,-0.00014434885560965505,-5.7254045723986735e-05,-4.355556843860242e-05,1.2252716470040337e-05,-0.00013001815830415708,-1.1034365053452788e-05,0.00015038287799818093,0.0006918596016644981,-0.0007674578883238677,-0.00027355361298386874,0.0004542316253591558,0.00014732673854048943,-0.0009500407820760979,0.6053096652030945,46.50039291381836,5.564480304718018,-19.511445999145508,-0.7903953194618225,-2.3724398612976074,0.20724813640117645,0
47,0.22998523712158203,-0.6053096652030945,-46.50039291381836,-5.564480304718018,19.511445999145508,0.7903953194618225,2.3724398612976074,-0.20724813640117645,0.0,0.0,0.0,0.0,0.0,0.0,0.0,-0.6478002231129619,-0.19345151276442132,-0.3950293125087009,0.3283854594170272,0.19407154169815155,0.10673333858324432,-0.18592795727928704,0.8780229089017756,0.7556040982865505,-0.28249801112359674,-1.6690558058922749,0.14140634280076056,2.4035751355259425,1.0273491345958576,0.878092876070424,0.7554597494309409,-0.2825552651693207,-1.6690993614607135,0.1414185955172306,2.4034451173676383,1.0273381002308042,-0.00015038287799818093,-0.0006918596016644981,0.0007674578883238677,0.00027355361298386874,-0.0004542316253591558,-0.00014732673854048943,0.0009500407820760979,0.0,0.0,0.0,0.0,0.0,0.0,0.0,6.996716864837715e-05,-0.00014434885560965505,-5.7254045723986735e-05,-4.355556843860242e-05,1.2252716470040337e-05,-0.00013001815830415708,-1.1034365053452788e-05,0.00015038287799818093,0.0006918596016644981,-0.0007674578883238677,-0.00027355361298386874,0.0004542316253591558,0.00014732673854048943,-0.0009500407820760979,0.6053096652030945,46.50039291381836,5.564480304718018,-19.511445999145508,-0.7903953194618225,-2.3724398612976074,0.20724813640117645,0
48,0.23498225212097168,-0.6291133761405945,-46.50039291381836,-5.588284015655518,19.535249710083008,0.7784934639930725,2.3852572441101074,-0.21457235515117645,0.0,0.0,0.0,0.0,0.0,0.0,0.0,-0.6508056062043509,-0.19083168843320258,-0.40003090825538207,0.32662554100291785,0.19441433942355257,0.10639139075618138,-0.18588438683615427,0.8780244997556108,0.7556041278299538,-0.2824963117984323,-1.66905747632813,0.1414051289630037,2.403573727999404,1.0273499483979411,0.878092876070424,0.7554597494309409,-0.2825552651693207,-1.6690993614607135,0.1414185955172306,2.4034451173676383,1.0273381002308042,0.0002975339261047213,-0.0004975473370819271,0.0006089901902546106,0.00012248512137126024,-5.5296734292874355e-05,-0.0003950861759550821,0.0011113352538572622,0.0,0.0,0.0,0.0,0.0,0.0,0.0,6.837631481315665e-05,-0.00014437839901293437,-5.89533708884038e-05,-4.188513258340798e-05,1.3466554226904126e-05,-0.0001286106317657243,-1.1848167136951915e-05,-0.0002975339261047213,0.0004975473370819271,-0.0006089901902546106,-0.00012248512137126024,5.5296734292874355e-05,0.0003950861759550821,-0.0011113352538572622,0.6291133761405945,46.50039291381836,5.588284015655518,-19.535249710083008,-0.7784934639930725,-2.3852572441101074,0.21457235515117645,0
49,0.23998689651489258,-0.6291133761405945,-46.50039291381836,-5.588284015655518,19.535249710083008,0.7784934639930725,2.3852572441101074,-0.21457235515117645,0.0,0.0,0.0,0.0,0.0,0.0,0.0,-0.6508056062043509,-0.19083168843320258,-0.40003090825538207,0.32662554100291785,0.19441433942355257,0.10639139075618138,-0.18588438683615427,0.8780244997556108,0.7556041278299538,-0.2824963117984323,-1.66905747632813,0.1414051289630037,2.403573727999404,1.0273499483979411,0.878092876070424,0.7554597494309409,-0.2825552651693207,-1.6690993614607135,0.1414185955172306,2.4034451173676383,1.0273381002308042,0.0002975339261047213,-0.0004975473370819271,0.0006089901902546106,0.00012248512137126024,-5.5296734292874355e-05,-0.0003950861759550821,0.0011113352538572622,0.0,0.0,0.0,0.0,0.0,0.0,0.0,6.837631481315665e-05,-0.00014437839901293437,-5.89533708884038e-05,-4.188513258340798e-05,1.3466554226904126e-05,-0.0001286106317657243,-1.1848167136951915e-05,-0.0002975339261047213,0.0004975473370819271,-0.0006089901902546106,-0.00012248512137126024,5.5296734292874355e-05,0.0003950861759550821,-0.0011113352538572622,0.6291133761405945,46.50039291381836,5.588284015655518,-19.535249710083008,-0.7784934639930725,-2.3852572441101074,0.21457235515117645,0
50,0.24494457244873047,-0.5815059542655945,-46.54800033569336,-5.512905597686768,19.586824417114258,0.7730002999305725,2.3660311698913574,-0.17978231608867645,0.0,0.0,0.0,0.0,0.0,0.0,0.0,-0.6271963054338353,-0.1805780578822659,-0.3834118101053854,0.32208428834976843,0.19408607338736608,0.1056015819187239,-0.18654559019293485,0.8780211588834461,0.7556074391584223,-0.282501601511972,-1.6690610956058165,0.14140573929565609,2.4035747488962613,1.0273460828380452,0.878092876070424,0.7554597494309409,-0.2825552651693207,-1.6690993614607135,0.1414185955172306,2.4034451173676383,1.0273381002308042,-0.0006867829758168916,0.0007640852302175054,-0.0004958620418254516,-0.0013326685700826152,0.00022635343643151047,0.00027837467752728093,-2.2031294396460907e-05,0.0,0.0,0.0,0.0,0.0,0.0,0.0,7.171718697784879e-05,-0.00014768972748147036,-5.366365734871259e-05,-3.826585489696832e-05,1.285622157451427e-05,-0.00012963152862299765,-7.982607240997197e-06,0.0006867829758168916,-0.0007640852302175054,0.0004958620418254516,0.0013326685700826152,-0.00022635343643151047,-0.00027837467752728093,2.2031294396460907e-05,0.5815059542655945,46.54800033569336,5.512905597686768,-19.586824417114258,-0.7730002999305725,-2.3660311698913574,0.17978231608867645,0
51,0.24994564056396484,-0.5815059542655945,-46.54800033569336,-5.512905597686768,19.586824417114258,0.7730002999305725,2.3660311698913574,-0.17978231608867645,0.0,0.0,0.0,0.0,0.0,0.0,0.0,-0.6271963054338353,-0.1805780578822659,-0.3834118101053854,0.32208428834976843,0.19408607338736608,0.1056015819187239,-0.18654559019293485,0.8780211588834461,0.7556074391584223,-0.282501601511972,-1.6690610956058165,0.14140573929565609,2.4035747488962613,1.0273460828380452,0.878092876070424,0.7554597494309409,-0.2825552651693207,-1.6690993614607135,0.1414185955172306,2.4034451173676383,1.0273381002308042,-0.0006867829758168916,0.0007640852302175054,-0.0004958620418254516,-0.0013326685700826152,0.00022635343643151047,0.00027837467752728093,-2.2031294396460907e-05,0.0,0.0,0.0,0.0,0.0,0.0,0.0,7.171718697784879e-05,-0.00014768972748147036,-5.366365734871259e-05,-3.826585489696832e-05,1.285622157451427e-05,-0.00012963152862299765,-7.982607240997197e-06,0.0006867829758168916,-0.0007640852302175054,0.0004958620418254516,0.0013326685700826152,-0.00022635343643151047,-0.00027837467752728093,2.2031294396460907e-05,0.5815059542655945,46.54800033569336,5.512905597686768,-19.586824417114258,-0.7730002999305725,-2.3660311698913574,0.17978231608867645,0
52,0.25493836402893066,-0.5815059542655945,-46.54800033569336,-5.512905597686768,19.586824417114258,0.7730002999305725,2.3660311698913574,-0.17978231608867645,0.0,0.0,0.0,0.0,0.0,0.0,0.0,-0.6271963054338353,-0.1805780578822659,-0.3834118101053854,0.32208428834976843,0.19408607338736608,0.1056015819187239,-0.18654559019293485,0.8780211588834461,0.7556074391584223,-0.282501601511972,-1.6690610956058165,0.14140573929565609,2.4035747488962613,1.0273460828380452,0.878092876070424,0.7554597494309409,-0.2825552651693207,-1.6690993614607135,0.1414185955172306,2.4034451173676383,1.0273381002308042,-0.0006867829758168916,0.0007640852302175054,-0.0004958620418254516,-0.0013326685700826152,0.00022635343643151047,0.00027837467752728093,-2.2031294396460907e-05,0.0,0.0,0.0,0.0,0.0,0.0,0.0,7.171718697784879e-05,-0.00014768972748147036,-5.366365734871259e-05,-3.826585489696832e-05,1.285622157451427e-05,-0.00012963152862299765,-7.982607240997197e-06,0.0006867829758168916,-0.0007640852302175054,0.0004958620418254516,0.0013326685700826152,-0.00022635343643151047,-0.00027837467752728093,2.2031294396460907e-05,0.5815059542655945,46.54800033569336,5.512905597686768,-19.586824417114258,-0.7730002999305725,-2.3660311698913574,0.17978231608867645,0
53,0.25998377799987793,-0.5815059542655945,-46.54800033569336,-5.512905597686768,19.586824417114258,0.7730002999305725,2.3660311698913574,-0.17978231608867645,0.0,0.0,0.0,0.0,0.0,0.0,0.0,-0.6271963054338353,-0.1805780578822659,-0.3834118101053854,0.32208428834976843,0.19408607338736608,0.1056015819187239,-0.18654559019293485,0.8780211588834461,0.7556074391584223,-0.282501601511972,-1.6690610956058165,0.14140573929565609,2.4035747488962613,1.0273460828380452,0.878092876070424,0.7554597494309409,-0.2825552651693207,-1.6690993614607135,0.1414185955172306,2.4034451173676383,1.0273381002308042,-0.0006867829758168916,0.0007640852302175054,-0.0004958620418254516,-0.0013326685700826152,0.00022635343643151047,0.00027837467752728093,-2.2031294396460907e-05,0.0,0.0,0.0,0.0,0.0,0.0,0.0,7.171718697784879e-05,-0.00014768972748147036,-5.366365734871259e-05,-3.826585489696832e-05,1.285622157451427e-05,-0.00012963152862299765,-7.982607240997197e-06,0.0006867829758168916,-0.0007640852302175054,0.0004958620418254516,0.0013326685700826152,-0.00022635343643151047,-0.00027837467752728093,2.2031294396460907e-05,0.5815059542655945,46.54800033569336,5.512905597686768,-19.586824417114258,-0.7730002999305725,-2.3660311698913574,0.17978231608867645,0
54,0.2649848461151123,-0.6291133761405945,-46.59957504272461,-5.536709308624268,19.535249710083008,0.7730002999305725,2.3724398612976074,-0.17337362468242645,0.0,0.0,0.0,0.0,0.0,0.0,0.0,-0.6462363779661121,-0.19116883077379213,-0.3983851127480487,0.3254192815446195,0.19453345792332397,0.10646583824502084,-0.18646965959706802,0.8780245291895491,0.755611058435942,-0.2824999310761167,-1.66905747632813,0.14140508315399022,2.403570913618181,1.0273453707612223,0.878092876070424,0.7554597494309409,-0.2825552651693207,-1.6690993614607135,0.1414185955172306,2.4034451173676383,1.0273381002308042,-0.00013816350655476638,0.0014097745120058179,-0.00039140887937065506,0.00024882304681860613,0.00022221910419941533,8.249872996980638e-05,-0.0008976612651419534,0.0,0.0,0.0,0.0,0.0,0.0,0.0,6.834688087486995e-05,-0.00015130900500115452,-5.533409320401805e-05,-4.188513258340798e-05,1.3512363240375524e-05,-0.0001257962505425425,-7.270530418157506e-06,0.00013816350655476638,-0.0014097745120058179,0.00039140887937065506,-0.00024882304681860613,-0.00022221910419941533,-8.249872996980638e-05,0.0008976612651419534,0.6291133761405945,46.59957504272461,5.536709308624268,-19.535249710083008,-0.7730002999305725,-2.3724398612976074,0.17337362468242645,0
55,0.26998472213745117,-0.6291133761405945,-46.59957504272461,-5.536709308624268,19.535249710083008,0.7730002999305725,2.3724398612976074,-0.17337362468242645,0.0,0.0,0.0,0.0,0.0,0.0,0.0,-0.6462363779661121,-0.19116883077379213,-0.3983851127480487,0.3254192815446195,0.19453345792332397,0.10646583824502084,-0.18646965959706802,0.8780245291895491,0.755611058435942,-0.2824999310761167,-1.66905747632813,0.14140508315399022,2.403570913618181,1.0273453707612223,0.878092876070424,0.7554597494309409,-0.2825552651693207,-1.6690993614607135,0.1414185955172306,2.4034451173676383,1.0273381002308042,-0.00013816350655476638,0.0014097745120058179,-0.00039140887937065506,0.00024882304681860613,0.00022221910419941533,8.249872996980638e-05,-0.0008976612651419534,0.0,0.0,0.0,0.0,0.0,0.0,0.0,6.834688087486995e-05,-0.00015130900500115452,-5.533409320401805e-05,-4.188513258340798e-05,1.3512363240375524e-05,-0.0001257962505425425,-7.270530418157506e-06,0.00013816350655476638,-0.0014097745120058179,0.00039140887937065506,-0.00024882304681860613,-0.00022221910419941533,-8.249872996980638e-05,0.0008976612651419534,0.6291133761405945,46.59957504272461,5.536709308624268,-19.535249710083008,-0.7730002999305725,-2.3724398612976074,0.17337362468242645,0
56,0.2749927043914795,-0.6291133761405945,-46.57577133178711,-5.612087726593018,19.511445999145508,0.7730002999305725,2.3724398612976074,-0.22830526530742645,0.0,0.0,0.0,0.0,0.0,0.0,0.0,-0.6533945491352712,-0.1848598295395286,-0.4013154073358406,0.3208180651354734,0.19448066239766365,0.10563892162032976,-0.1872964606637836,0.8780245085856405,0.7556093880000867,-0.28249464136257507,-1.6690558058922749,0.14140827118873034,2.403572269816765,1.0273514742768473,0.878092876070424,0.7554597494309409,-0.2825552651693207,-1.6690993614607135,0.1414185955172306,2.4034451173676383,1.0273381002308042,-0.0007266108104970163,0.0014055119857259873,0.0007017092470941258,0.00021957021882296548,0.00011856138420342277,3.642355379653527e-05,0.001423131892131463,0.0,0.0,0.0,0.0,0.0,0.0,0.0,6.836748478344923e-05,-0.00014963856914584905,-6.0623806745652153e-05,-4.355556843860242e-05,1.0324328500260771e-05,-0.00012715244912664403,-1.3374046043068688e-05,0.0007266108104970163,-0.0014055119857259873,-0.0007017092470941258,-0.00021957021882296548,-0.00011856138420342277,-3.642355379653527e-05,-0.001423131892131463,0.6291133761405945,46.57577133178711,5.612087726593018,-19.511445999145508,-0.7730002999305725,-2.3724398612976074,0.22830526530742645,0
57,0.2799491882324219,-0.6291133761405945,-46.57577133178711,-5.612087726593018,19.511445999145508,0.7730002999305725,2.3724398612976074,-0.22830526530742645,0.0,0.0,0.0,0.0,0.0,0.0,0.0,-0.6533945491352712,-0.1848598295395286,-0.4013154073358406,0.3208180651354734,0.19448066239766365,0.10563892162032976,-0.1872964606637836,0.8780245085856405,0.7556093880000867,-0.28249464136257507,-1.6690558058922749,0.14140827118873034,2.403572269816765,1.0273514742768473,0.878092876070424,0.7554597494309409,-0.2825552651693207,-1.6690993614607135,0.1414185955172306,2.4034451173676383,1.0273381002308042,-0.0007266108104970163,0.0014055119857259873,0.0007017092470941258,0.00021957021882296548,0.00011856138420342277,3.642355379653527e-05,0.001423131892131463,0.0,0.0,0.0,0.0,0.0,0.0,0.0,6.836748478344923e-05,-0.00014963856914584905,-6.0623806745652153e-05,-4.355556843860242e-05,1.0324328500260771e-05,-0.00012715244912664403,-1.3374046043068688e-05,0.0007266108104970163,-0.0014055119857259873,-0.0007017092470941258,-0.00021957021882296548,-0.00011856138420342277,-3.642355379653527e-05,-0.001423131892131463,0.6291133761405945,46.57577133178711,5.612087726593018,-19.511445999145508,-0.7730002999305725,-2.3724398612976074,0.22830526530742645,0
58,0.284989595413208,-0.6568843722343445,-46.47658920288086,-5.588284015655518,19.511445999145508,0.7849021553993225,2.3788485527038574,-0.16604940593242645,0.0,0.0,0.0,0.0,0.0,0.0,0.0,-0.6435425328247648,-0.1685226437053891,-0.39183322775094886,0.31538329802044385,0.19396690030553834,0.10468317005157857,-0.18834284165603926,0.8780274022713541,0.7556024278506898,-0.2824963117984303,-1.6690558058922749,0.14140388386771618,2.4035747374156786,1.027344556959139,0.878092876070424,0.7554597494309409,-0.2825552651693207,-1.6690993614607135,0.1414185955172306,2.4034451173676383,1.0273381002308042,-0.0006131369855867229,-5.2819959023207016e-05,0.0003406965579613561,0.0008357997290066083,-0.0002732772336645515,-0.00030563844636770425,-0.0010669708104769481,0.0,0.0,0.0,0.0,0.0,0.0,0.0,6.54737990698484e-05,-0.0001426784197489095,-5.89533708904022e-05,-4.355556843860242e-05,1.471164951441506e-05,-0.00012962004804029092,-6.456728334880424e-06,0.0006131369855867229,5.2819959023207016e-05,-0.0003406965579613561,-0.0008357997290066083,0.0002732772336645515,0.00030563844636770425,0.0010669708104769481,0.6568843722343445,46.47658920288086,5.588284015655518,-19.511445999145508,-0.7849021553993225,-2.3788485527038574,0.16604940593242645,0
59,0.2899494171142578,-0.6568843722343445,-46.47658920288086,-5.588284015655518,19.511445999145508,0.7849021553993225,2.3788485527038574,-0.16604940593242645,0.0,0.0,0.0,0.0,0.0,0.0,0.0,-0.6435425328247648,-0.1685226437053891,-0.39183322775094886,0.31538329802044385,0.19396690030553834,0.10468317005157857,-0.18834284165603926,0.8780274022713541,0.7556024278506898,-0.2824963117984303,-1.6690558058922749,0.14140388386771618,2.4035747374156786,1.027344556959139,0.878092876070424,0.7554597494309409,-0.2825552651693207,-1.6690993614607135,0.1414185955172306,2.4034451173676383,1.0273381002308042,-0.0006131369855867229,-5.2819959023207016e-05,0.0003406965579613561,0.0008357997290066083,-0.0002732772336645515,-0.00030563844636770425,-0.0010669708104769481,0.0,0.0,0.0,0.0,0.0,0.0,0.0,6.54737990698484e-05,-0.0001426784197489095,-5.89533708904022e-05,-4.355556843860242e-05,1.471164951441506e-05,-0.00012962004804029092,-6.456728334880424e-06,0.0006131369855867229,5.2819959023207016e-05,-0.0003406965579613561,-0.0008357997290066083,0.0002732772336645515,0.00030563844636770425,0.0010669708104769481,0.6568843722343445,46.47658920288086,5.588284015655518,-19.511445999145508,-0.7849021553993225,-2.3788485527038574,0.16604940593242645,0
60,0.2949845790863037,-0.6806880831718445,-46.50039291381836,-5.588284015655518,19.511445999145508,0.7665916085243225,2.3724398612976074,-0.20083944499492645,0.0,0.0,0.0,0.0,0.0,0.0,0.0,-0.6338081816832107,-0.24262157937773912,-0.39203914057283906,0.37474731179669696,0.19475950123061356,0.113398574433416,-0.18808884739945883,0.8780281455291798,0.7556048135422824,-0.2824963117984303,-1.6690558058922749,0.14140590501677608,2.4035721577036604,1.0273484225190348,0.878092876070424,0.7554597494309409,-0.2825552651693207,-1.6690993614607135,0.1414185955172306,2.4034451173676383,1.0273381002308042,0.00032054030848227273,0.0006184087615287063,0.00018192361890857276,-0.0003725540925031904,0.00039930450962387404,0.00012040172888056594,0.0007525706742827962,0.0,0.0,0.0,0.0,0.0,0.0,0.0,6.473054124411792e-05,-0.00014506411134151964,-5.89533708904022e-05,-4.355556843860242e-05,1.2690500454520803e-05,-0.00012704033602206621,-1.0322288230613097e-05,-0.00032054030848227273,-0.0006184087615287063,-0.00018192361890857276,0.0003725540925031904,-0.00039930450962387404,-0.00012040172888056594,-0.0007525706742827962,0.6806880831718445,46.50039291381836,5.588284015655518,-19.511445999145508,-0.7665916085243225,-2.3724398612976074,0.20083944499492645,0
61,0.29998183250427246,-0.6806880831718445,-46.50039291381836,-5.588284015655518,19.511445999145508,0.7665916085243225,2.3724398612976074,-0.20083944499492645,0.0,0.0,0.0,0.0,0.0,0.0,0.0,-0.6338081816832107,-0.24262157937773912,-0.39203914057283906,0.37474731179669696,0.19475950123061356,0.113398574433416,-0.18808884739945883,0.8780281455291798,0.7556048135422824,-0.2824963117984303,-1.6690558058922749,0.14140590501677608,2.4035721577036604,1.0273484225190348,0.878092876070424,0.7554597494309409,-0.2825552651693207,-1.6690993614607135,0.1414185955172306,2.4034451173676383,1.0273381002308042,0.00032054030848227273,0.0006184087615287063,0.00018192361890857276,-0.0003725540925031904,0.00039930450962387404,0.00012040172888056594,0.0007525706742827962,0.0,0.0,0.0,0.0,0.0,0.0,0.0,6.473054124411792e-05,-0.00014506411134151964,-5.89533708904022e-05,-4.355556843860242e-05,1.2690500454520803e-05,-0.00012704033602206621,-1.0322288230613097e-05,-0.00032054030848227273,-0.0006184087615287063,-0.00018192361890857276,0.0003725540925031904,-0.00039930450962387404,-0.00012040172888056594,-0.0007525706742827962,0.6806880831718445,46.50039291381836,5.588284015655518,-19.511445999145508,-0.7665916085243225,-2.3724398612976074,0.20083944499492645,0
62,0.30498456954956055,-0.6806880831718445,-46.50039291381836,-5.588284015655518,19.535249710083008,0.7849021553993225,2.3724398612976074,-0.16604940593242645,0.0,0.0,0.0,0.0,0.0,0.0,0.0,-0.6663090818095647,-0.1862545154080551,-0.4027108544100472,0.32960708934359906,0.19369048221573446,0.10722737521317041,-0.18793213104328224,0.8780303442730643,0.7556040982905826,-0.2824963117984303,-1.66905747632813,0.14140774180132365,2.403571093417122,1.027344556959139,0.878092876070424,0.7554597494309409,-0.2825552651693207,-1.6690993614607135,0.1414185955172306,2.4034451173676383,1.0273381002308042,-0.0007627070740711165,0.00023424392084491082,0.00019063983054557135,-0.0003950480843461907,-0.00017155880347441378,-0.00010068415553409564,-0.0006126139333314757,0.0,0.0,0.0,0.0,0.0,0.0,0.0,6.25317973597106e-05,-0.00014434885964176303,-5.89533708904022e-05,-4.188513258340798e-05,1.0853715906949946e-05,-0.00012597604948361152,-6.456728334880424e-06,0.0007627070740711165,-0.00023424392084491082,-0.00019063983054557135,0.0003950480843461907,0.00017155880347441378,0.00010068415553409564,0.0006126139333314757,0.6806880831718445,46.50039291381836,5.588284015655518,-19.535249710083008,-0.7849021553993225,-2.3724398612976074,0.16604940593242645,0
63,0.30998754501342773,-0.6806880831718445,-46.50039291381836,-5.588284015655518,19.535249710083008,0.7849021553993225,2.3724398612976074,-0.16604940593242645,0.0,0.0,0.0,0.0,0.0,0.0,0.0,-0.6663090818095647,-0.1862545154080551,-0.4027108544100472,0.32960708934359906,0.19369048221573446,0.10722737521317041,-0.18793213104328224,0.8780303442730643,0.7556040982905826,-0.2824963117984303,-1.66905747632813,0.14140774180132365,2.403571093417122,1.027344556959139,0.878092876070424,0.7554597494309409,-0.2825552651693207,-1.6690993614607135,0.1414185955172306,2.4034451173676383,1.0273381002308042,-0.0007627070740711165,0.00023424392084491082,0.00019063983054557135,-0.0003950480843461907,-0.00017155880347441378,-0.00010068415553409564,-0.0006126139333314757,0.0,0.0,0.0,0.0,0.0,0.0,0.0,6.25317973597106e-05,-0.00014434885964176303,-5.89533708904022e-05,-4.188513258340798e-05,1.0853715906949946e-05,-0.00012597604948361152,-6.456728334880424e-06,0.0007627070740711165,-0.00023424392084491082,-0.00019063983054557135,0.0003950480843461907,0.00017155880347441378,0.00010068415553409564,0.0006126139333314757,0.6806880831718445,46.50039291381836,5.588284015655518,-19.535249710083008,-0.7849021553993225,-2.3724398612976074,0.16604940593242645,0
64,0.3149850368499756,-0.6806880831718445,-46.52419662475586,-5.564480304718018,19.535249710083008,0.7784934639930725,2.3724398612976074,-0.15231649577617645,0.0,0.0,0.0,0.0,0.0,0.0,0.0,-0.6460416148533836,-0.16054279387561274,-0.38080527237577527,0.3144215271221475,0.19325174670926848,0.10470318442190482,-0.18554300181479594,0.878028228970142,0.7556079144896123,-0.28249798223428557,-1.66905747632813,0.14140832121357433,2.403571131041915,1.0273441172093152,0.878092876070424,0.7554597494309409,-0.2825552651693207,-1.6690993614607135,0.1414185955172306,2.4034451173676383,1.0273381002308042,0.0003676017545123575,0.0009457683248079774,-0.0002173561961590658,-0.00030488236845681906,8.672241148741249e-06,-0.00013118906976363837,-0.0005414468479158807,0.0,0.0,0.0,0.0,0.0,0.0,0.0,6.464710028197818e-05,-0.00014816505867143448,-5.728293503515225e-05,-4.188513258340798e-05,1.0274303656271355e-05,-0.00012601367427667043,-6.016978510992033e-06,-0.0003676017545123575,-0.0009457683248079774,0.0002173561961590658,0.00030488236845681906,-8.672241148741249e-06,0.00013118906976363837,0.0005414468479158807,0.6806880831718445,46.52419662475586,5.564480304718018,-19.535249710083008,-0.7784934639930725,-2.3724398612976074,0.15231649577617645,0
65,0.31993770599365234,-0.6806880831718445,-46.52419662475586,-5.564480304718018,19.535249710083008,0.7784934639930725,2.3724398612976074,-0.15231649577617645,0.0,0.0,0.0,0.0,0.0,0.0,0.0,-0.6460416148533836,-0.16054279387561274,-0.38080527237577527,0.3144215271221475,0.19325174670926848,0.10470318442190482,-0.18554300181479594,0.878028228970142,0.7556079144896123,-0.28249798223428557,-1.66905747632813,0.14140832121357433,2.403571131041915,1.0273441172093152,0.878092876070424,0.7554597494309409,-0.2825552651693207,-1.6690993614607135,0.1414185955172306,2.4034451173676383,1.0273381002308042,0.0003676017545123575,0.0009457683248079774,-0.0002173561961590658,-0.00030488236845681906,8.672241148741249e-06,-0.00013118906976363837,-0.0005414468479158807,0.0,0.0,0.0,0.0,0.0,0.0,0.0,6.464710028197818e-05,-0.00014816505867143448,-5.728293503515225e-05,-4.188513258340798e-05,1.0274303656271355e-05,-0.00012601367427667043,-6.016978510992033e-06,-0.0003676017545123575,-0.0009457683248079774,0.0002173561961590658,0.00030488236845681906,-8.672241148741249e-06,0.00013118906976363837,0.0005414468479158807,0.6806880831718445,46.52419662475586,5.564480304718018,-19.535249710083008,-0.7784934639930725,-2.3724398612976074,0.15231649577617645,0
66,0.32498812675476074,-0.6806880831718445,-46.52419662475586,-5.564480304718018,19.535249710083008,0.7784934639930725,2.3724398612976074,-0.15231649577617645,0.0,0.0,0.0,0.0,0.0,0.0,0.0,-0.6460416148533836,-0.16054279387561274,-0.38080527237577527,0.3144215271221475,0.19325174670926848,0.10470318442190482,-0.18554300181479594,0.878028228970142,0.7556079144896123,-0.28249798223428557,-1.66905747632813,0.14140832121357433,2.403571131041915,1.0273441172093152,0.878092876070424,0.7554597494309409,-0.2825552651693207,-1.6690993614607135,0.1414185955172306,2.4034451173676383,1.0273381002308042,0.0003676017545123575,0.0009457683248079774,-0.0002173561961590658,-0.00030488236845681906,8.672241148741249e-06,-0.00013118906976363837,-0.0005414468479158807,0.0,0.0,0.0,0.0,0.0,0.0,0.0,6.464710028197818e-05,-0.00014816505867143448,-5.728293503515225e-05,-4.188513258340798e-05,1.0274303656271355e-05,-0.00012601367427667043,-6.016978510992033e-06,-0.0003676017545123575,-0.0009457683248079774,0.0002173561961590658,0.00030488236845681906,-8.672241148741249e-06,0.00013118906976363837,0.0005414468479158807,0.6806880831718445,46.52419662475586,5.564480304718018,-19.535249710083008,-0.7784934639930725,-2.3724398612976074,0.15231649577617645,0
67,0.3299891948699951,-0.6806880831718445,-46.50039291381836,-5.588284015655518,19.511445999145508,0.7730002999305725,2.3724398612976074,-0.18710653483867645,0.0,0.0,0.0,0.0,0.0,0.0,0.0,-0.6613374413254065,-0.1796933517004527,-0.39514886256162185,0.3223187587418167,0.1936091228260102,0.10577814312664577,-0.18381046799824785,0.8780281190698024,0.7556040982986579,-0.2824963117984303,-1.6690558087266978,0.1414051866965846,2.403574275071309,1.0273468966462598,0.878092876070424,0.7554597494309409,-0.2825552651693207,-1.6690993614607135,0.1414185955172306,2.4034451173676383,1.0273381002308042,0.0008395149271433833,-0.0008994712695607906,0.0002728614810948886,0.00020534769838464936,0.00010244053362919,0.00016428365989809492,-0.0002522638331809791,0.0,0.0,0.0,0.0,0.0,0.0,0.0,6.475700062158474e-05,-0.00014434886771708122,-5.89533708904022e-05,-4.3552734015683825e-05,1.340882064598814e-05,-0.00012915770367083468,-8.796415455591955e-06,-0.0008395149271433833,0.0008994712695607906,-0.0002728614810948886,-0.00020534769838464936,-0.00010244053362919,-0.00016428365989809492,0.0002522638331809791,0.6806880831718445,46.50039291381836,5.588284015655518,-19.511445999145508,-0.7730002999305725,-2.3724398612976074,0.18710653483867645,0
68,0.33498716354370117,-0.6806880831718445,-46.50039291381836,-5.588284015655518,19.511445999145508,0.7730002999305725,2.3724398612976074,-0.18710653483867645,0.0,0.0,0.0,0.0,0.0,0.0,0.0,-0.6613374413254065,-0.1796933517004527,-0.39514886256162185,0.3223187587418167,0.1936091228260102,0.10577814312664577,-0.18381046799824785,0.8780281190698024,0.7556040982986579,-0.2824963117984303,-1.6690558087266978,0.1414051866965846,2.403574275071309,1.0273468966462598,0.878092876070424,0.7554597494309409,-0.2825552651693207,-1.6690993614607135,0.1414185955172306,2.4034451173676383,1.0273381002308042,0.0008395149271433833,-0.0008994712695607906,0.0002728614810948886,0.00020534769838464936,0.00010244053362919,0.00016428365989809492,-0.0002522638331809791,0.0,0.0,0.0,0.0,0.0,0.0,0.0,6.475700062158474e-05,-0.00014434886771708122,-5.89533708904022e-05,-4.3552734015683825e-05,1.340882064598814e-05,-0.00012915770367083468,-8.796415455591955e-06,-0.0008395149271433833,0.0008994712695607906,-0.0002728614810948886,-0.00020534769838464936,-0.00010244053362919,-0.00016428365989809492,0.0002522638331809791,0.6806880831718445,46.50039291381836,5.588284015655518,-19.511445999145508,-0.7730002999305725,-2.3724398612976074,0.18710653483867645,0
69,0.343813419342041,-0.6291133761405945,-46.50039291381836,-5.564480304718018,19.511445999145508,0.7903953194618225,2.3724398612976074,-0.16604940593242645,0.0,0.0,0.0,0.0,0.0,0.0,0.0,-0.663815838112476,-0.1724927910146891,-0.3992276156150392,0.31591003850405996,0.19337283018883297,0.10506522924148529,-0.18417896723314559,0.8780245037160812,0.7556040983228839,-0.28249798223428557,-1.6690558058922909,0.14140382449573055,2.4035744421935004,1.027344556959139,0.878092876070424,0.7554597494309409,-0.2825552651693207,-1.6690993614607135,0.1414185955172306,2.4034451173676383,1.0273381002308042,-0.00034364411592410413,-0.000528351131082972,-0.00014559517514573902,0.000617232407504478,-0.00035287956303970195,-0.00014756099450860698,-0.0007680681479158226,0.0,0.0,0.0,0.0,0.0,0.0,0.0,6.837235434276057e-05,-0.0001443488919430358,-5.728293503515225e-05,-4.355556842261521e-05,1.4771021500048498e-05,-0.00012932482586203164,-6.456728334880424e-06,0.00034364411592410413,0.000528351131082972,0.00014559517514573902,-0.000617232407504478,0.00035287956303970195,0.00014756099450860698,0.0007680681479158226,0.6291133761405945,46.50039291381836,5.564480304718018,-19.511445999145508,-0.7903953194618225,-2.3724398612976074,0.16604940593242645,0
70,0.345003604888916,-0.6291133761405945,-46.50039291381836,-5.564480304718018,19.511445999145508,0.7903953194618225,2.3724398612976074,-0.16604940593242645,0.0,0.0,0.0,0.0,0.0,0.0,0.0,-0.663815838112476,-0.1724927910146891,-0.3992276156150392,0.31591003850405996,0.19337283018883297,0.10506522924148529,-0.18417896723314559,0.8780245037160812,0.7556040983228839,-0.28249798223428557,-1.6690558058922909,0.14140382449573055,2.4035744421935004,1.027344556959139,0.878092876070424,0.7554597494309409,-0.2825552651693207,-1.6690993614607135,0.1414185955172306,2.4034451173676383,1.0273381002308042,-0.00034364411592410413,-0.000528351131082972,-0.00014559517514573902,0.000617232407504478,-0.00035287956303970195,-0.00014756099450860698,-0.0007680681479158226,0.0,0.0,0.0,0.0,0.0,0.0,0.0,6.837235434276057e-05,-0.0001443488919430358,-5.728293503515225e-05,-4.355556842261521e-05,1.4771021500048498e-05,-0.00012932482586203164,-6.456728334880424e-06,0.00034364411592410413,0.000528351131082972,0.00014559517514573902,-0.000617232407504478,0.00035287956303970195,0.00014756099450860698,0.0007680681479158226,0.6291133761405945,46.50039291381836,5.564480304718018,-19.511445999145508,-0.7903953194618225,-2.3724398612976074,0.16604940593242645,0
71,0.34999823570251465,-0.6291133761405945,-46.54800033569336,-5.536709308624268,19.511445999145508,0.7784934639930725,2.3660311698913574,-0.18710653483867645,0.0,0.0,0.0,0.0,0.0,0.0,0.0,-0.6596274176879774,-0.171782756234325,-0.40052945049062266,0.3126303509092159,0.1938380563769956,0.10378908092701244,-0.18399027609992705,0.8780245793370549,0.7556074391582557,-0.2824999310761167,-1.6690558058922749,0.1414042414518382,2.403575852513737,1.0273468966401285,0.878092876070424,0.7554597494309409,-0.2825552651693207,-1.6690993614607135,0.1414185955172306,2.4034451173676383,1.0273381002308042,-8.174241990956428e-05,0.0006614141603621244,-0.0005831065912398714,0.0002860556205411843,-5.552004339975544e-06,9.433258557227259e-05,-0.00036502228757081184,0.0,0.0,0.0,0.0,0.0,0.0,0.0,6.82967333690554e-05,-0.00014768972731482588,-5.533409320401805e-05,-4.355556843860242e-05,1.4354065392407911e-05,-0.00013073514609862613,-8.796409324274279e-06,8.174241990956428e-05,-0.0006614141603621244,0.0005831065912398714,-0.0002860556205411843,5.552004339975544e-06,-9.433258557227259e-05,0.00036502228757081184,0.6291133761405945,46.54800033569336,5.536709308624268,-19.511445999145508,-0.7784934639930725,-2.3660311698913574,0.18710653483867645,0
72,0.35498809814453125,-0.6291133761405945,-46.54800033569336,-5.536709308624268,19.511445999145508,0.7784934639930725,2.3660311698913574,-0.18710653483867645,0.0,0.0,0.0,0.0,0.0,0.0,0.0,-0.6596274176879774,-0.171782756234325,-0.40052945049062266,0.3126303509092159,0.1938380563769956,0.10378908092701244,-0.18399027609992705,0.8780245793370549,0.7556074391582557,-0.2824999310761167,-1.6690558058922749,0.1414042414518382,2.403575852513737,1.0273468966401285,0.878092876070424,0.7554597494309409,-0.2825552651693207,-1.6690993614607135,0.1414185955172306,2.4034451173676383,1.0273381002308042,-8.174241990956428e-05,0.0006614141603621244,-0.0005831065912398714,0.0002860556205411843,-5.552004339975544e-06,9.433258557227259e-05,-0.00036502228757081184,0.0,0.0,0.0,0.0,0.0,0.0,0.0,6.82967333690554e-05,-0.00014768972731482588,-5.533409320401805e-05,-4.355556843860242e-05,1.4354065392407911e-05,-0.00013073514609862613,-8.796409324274279e-06,8.174241990956428e-05,-0.0006614141603621244,0.0005831065912398714,-0.0002860556205411843,5.552004339975544e-06,-9.433258557227259e-05,0.00036502228757081184,0.6291133761405945,46.54800033569336,5.536709308624268,-19.511445999145508,-0.7784934639930725,-2.3660311698913574,0.18710653483867645,0
73,0.35999608039855957,-0.6053096652030945,-46.50039291381836,-5.564480304718018,19.535249710083008,0.7730002999305725,2.3724398612976074,-0.20724813640117645,0.0,0.0,0.0,0.0,0.0,0.0,0.0,-0.6441057307992278,-0.16935220862522993,-0.39256278253241306,0.31013861278364685,0.19372879667490006,0.1030559002773076,-0.18562083486995093,0.8780228587541431,0.7556040982865451,-0.2824979909010789,-1.66905747632813,0.1414046799053739,2.4035739176282522,1.0273491345958576,0.878092876070424,0.7554597494309409,-0.2825552651693207,-1.6690993614607135,0.1414185955172306,2.4034451173676383,1.0273381002308042,0.00011156023931068518,1.6491642718524583e-05,0.0002649004600116425,-0.0007250775124652039,0.0003606040513349393,-0.00010050719777341268,0.0008024626001719428,0.0,0.0,0.0,0.0,0.0,0.0,0.0,7.001731628086816e-05,-0.00014434885560421495,-5.72742682418137e-05,-4.188513258340798e-05,1.3915611856707422e-05,-0.00012880026061390382,-1.1034365053452788e-05,-0.00011156023931068518,-1.6491642718524583e-05,-0.0002649004600116425,0.0007250775124652039,-0.0003606040513349393,0.00010050719777341268,-0.0008024626001719428,0.6053096652030945,46.50039291381836,5.564480304718018,-19.535249710083008,-0.7730002999305725,-2.3724398612976074,0.20724813640117645,0
74,0.3650035858154297,-0.6053096652030945,-46.50039291381836,-5.564480304718018,19.535249710083008,0.7730002999305725,2.3724398612976074,-0.20724813640117645,0.0,0.0,0.0,0.0,0.0,0.0,0.0,-0.6441057307992278,-0.16935220862522993,-0.39256278253241306,0.31013861278364685,0.19372879667490006,0.1030559002773076,-0.18562083486995093,0.8780228587541431,0.7556040982865451,-0.2824979909010789,-1.66905747632813,0.1414046799053739,2.4035739176282522,1.0273491345958576,0.878092876070424,0.7554597494309409,-0.2825552651693207,-1.6690993614607135,0.1414185955172306,2.4034451173676383,1.0273381002308042,0.00011156023931068518,1.6491642718524583e-05,0.0002649004600116425,-0.0007250775124652039,0.0003606040513349393,-0.00010050719777341268,0.0008024626001719428,0.0,0.0,0.0,0.0,0.0,0.0,0.0,7.001731628086816e-05,-0.00014434885560421495,-5.72742682418137e-05,-4.188513258340798e-05,1.3915611856707422e-05,-0.00012880026061390382,-1.1034365053452788e-05,-0.00011156023931068518,-1.6491642718524583e-05,-0.0002649004600116425,0.0007250775124652039,-0.0003606040513349393,0.00010050719777341268,-0.0008024626001719428,0.6053096652030945,46.50039291381836,5.564480304718018,-19.535249710083008,-0.7730002999305725,-2.3724398612976074,0.20724813640117645,0
75,0.370805025100708,-0.6568843722343445,-46.52419662475586,-5.588284015655518,19.559053421020508,0.7784934639930725,2.3660311698913574,-0.19351522624492645,0.0,0.0,0.0,0.0,0.0,0.0,0.0,-0.6432837039638861,-0.18059694773161059,-0.3960402745436073,0.3167888126499915,0.19403816398208773,0.10400747014210271,-0.1865698138736391,0.8780264485971541,0.7556057687224004,-0.2824963117984792,-1.6690591467639855,0.1414040839177532,2.403573035207388,1.0273476087169515,0.878092876070424,0.7554597494309409,-0.2825552651693207,-1.6690993614607135,0.1414185955172306,2.4034451173676383,1.0273381002308042,0.0010972000386733323,0.0005668283169509275,0.0006747780129941313,-0.0007007553695650222,-0.00010987552496861953,0.00012146685462174804,0.00020634338359612155,0.0,0.0,0.0,0.0,0.0,0.0,0.0,6.642747326990328e-05,-0.00014601929145952042,-5.895337084149688e-05,-4.0214696727991495e-05,1.4511599477406989e-05,-0.00012791783974952509,-9.508486147336015e-06,-0.0010972000386733323,-0.0005668283169509275,-0.0006747780129941313,0.0007007553695650222,0.00010987552496861953,-0.00012146685462174804,-0.00020634338359612155,0.6568843722343445,46.52419662475586,5.588284015655518,-19.559053421020508,-0.7784934639930725,-2.3660311698913574,0.19351522624492645,0
76,0.3749854564666748,-0.6568843722343445,-46.52419662475586,-5.588284015655518,19.559053421020508,0.7784934639930725,2.3660311698913574,-0.19351522624492645,0.0,0.0,0.0,0.0,0.0,0.0,0.0,-0.6432837039638861,-0.18059694773161059,-0.3960402745436073,0.3167888126499915,0.19403816398208773,0.10400747014210271,-0.1865698138736391,0.8780264485971541,0.7556057687224004,-0.2824963117984792,-1.6690591467639855,0.1414040839177532,2.403573035207388,1.0273476087169515,0.878092876070424,0.7554597494309409,-0.2825552651693207,-1.6690993614607135,0.1414185955172306,2.4034451173676383,1.0273381002308042,0.0010972000386733323,0.0005668283169509275,0.0006747780129941313,-0.0007007553695650222,-0.00010987552496861953,0.00012146685462174804,0.00020634338359612155,0.0,0.0,0.0,0.0,0.0,0.0,0.0,6.642747326990328e-05,-0.00014601929145952042,-5.895337084149688e-05,-4.0214696727991495e-05,1.4511599477406989e-05,-0.00012791783974952509,-9.508486147336015e-06,-0.0010972000386733323,-0.0005668283169509275,-0.0006747780129941313,0.0007007553695650222,0.00010987552496861953,-0.00012146685462174804,-0.00020634338359612155,0.6568843722343445,46.52419662475586,5.588284015655518,-19.559053421020508,-0.7784934639930725,-2.3660311698913574,0.19351522624492645,0
77,0.38001012802124023,-0.6568843722343445,-46.52419662475586,-5.588284015655518,19.559053421020508,0.7784934639930725,2.3660311698913574,-0.19351522624492645,0.0,0.0,0.0,0.0,0.0,0.0,0.0,-0.6432837039638861,-0.18059694773161059,-0.3960402745436073,0.3167888126499915,0.19403816398208773,0.10400747014210271,-0.1865698138736391,0.8780264485971541,0.7556057687224004,-0.2824963117984792,-1.6690591467639855,0.1414040839177532,2.403573035207388,1.0273476087169515,0.878092876070424,0.7554597494309409,-0.2825552651693207,-1.6690993614607135,0.1414185955172306,2.4034451173676383,1.0273381002308042,0.0010972000386733323,0.0005668283169509275,0.0006747780129941313,-0.0007007553695650222,-0.00010987552496861953,0.00012146685462174804,0.00020634338359612155,0.0,0.0,0.0,0.0,0.0,0.0,0.0,6.642747326990328e-05,-0.00014601929145952042,-5.895337084149688e-05,-4.0214696727991495e-05,1.4511599477406989e-05,-0.00012791783974952509,-9.508486147336015e-06,-0.0010972000386733323,-0.0005668283169509275,-0.0006747780129941313,0.0007007553695650222,0.00010987552496861953,-0.00012146685462174804,-0.00020634338359612155,0.6568843722343445,46.52419662475586,5.588284015655518,-19.559053421020508,-0.7784934639930725,-2.3660311698913574,0.19351522624492645,0
78,0.3849973678588867,-0.6568843722343445,-46.52419662475586,-5.588284015655518,19.559053421020508,0.7784934639930725,2.3660311698913574,-0.19351522624492645,0.0,0.0,0.0,0.0,0.0,0.0,0.0,-0.6432837039638861,-0.18059694773161059,-0.3960402745436073,0.3167888126499915,0.19403816398208773,0.10400747014210271,-0.1865698138736391,0.8780264485971541,0.7556057687224004,-0.2824963117984792,-1.6690591467639855,0.1414040839177532,2.403573035207388,1.0273476087169515,0.878092876070424,0.7554597494309409,-0.2825552651693207,-1.6690993614607135,0.1414185955172306,2.4034451173676383,1.0273381002308042,0.0010972000386733323,0.0005668283169509275,0.0006747780129941313,-0.0007007553695650222,-0.00010987552496861953,0.00012146685462174804,0.00020634338359612155,0.0,0.0,0.0,0.0,0.0,0.0,0.0,6.642747326990328e-05,-0.00014601929145952042,-5.895337084149688e-05,-4.0214696727991495e-05,1.4511599477406989e-05,-0.00012791783974952509,-9.508486147336015e-06,-0.0010972000386733323,-0.0005668283169509275,-0.0006747780129941313,0.0007007553695650222,0.00010987552496861953,-0.00012146685462174804,-0.00020634338359612155,0.6568843722343445,46.52419662475586,5.588284015655518,-19.559053421020508,-0.7784934639930725,-2.3660311698913574,0.19351522624492645,0
79,0.3899846076965332,-0.6291133761405945,-46.52419662475586,-5.564480304718018,19.535249710083008,0.7903953194618225,2.3660311698913574,-0.20083944499492645,0.0,0.0,0.0,0.0,0.0,0.0,0.0,-0.6401923387424068,-0.18295438199492597,-0.39715164562397137,0.31888792628322116,0.19373380069735066,0.10403435133188653,-0.18757394684821255,0.8780244997551566,0.7556057687224004,-0.28249798223428557,-1.66905747632813,0.14140429491682324,2.403571821806943,1.0273484225190348,0.878092876070424,0.7554597494309409,-0.2825552651693207,-1.6690993614607135,0.1414185955172306,2.4034451173676383,1.0273381002308042,0.0003090620864145359,0.0006119372402637935,-0.00011035250890974947,-0.00046099855312674764,-0.0004813705260254684,0.0001838943916739154,0.0009436056225307153,0.0,0.0,0.0,0.0,0.0,0.0,0.0,6.837631526734889e-05,-0.00014601929145952042,-5.728293503515225e-05,-4.188513258340798e-05,1.4300600407357589e-05,-0.0001267044393045147,-1.0322288230613097e-05,-0.0003090620864145359,-0.0006119372402637935,0.00011035250890974947,0.00046099855312674764,0.0004813705260254684,-0.0001838943916739154,-0.0009436056225307153,0.6291133761405945,46.52419662475586,5.564480304718018,-19.535249710083008,-0.7903953194618225,-2.3660311698913574,0.20083944499492645,0
80,0.39549684524536133,-0.6291133761405945,-46.52419662475586,-5.564480304718018,19.535249710083008,0.7903953194618225,2.3660311698913574,-0.20083944499492645,0.0,0.0,0.0,0.0,0.0,0.0,0.0,-0.6401923387424068,-0.18295438199492597,-0.39715164562397137,0.31888792628322116,0.19373380069735066,0.10403435133188653,-0.18757394684821255,0.8780244997551566,0.7556057687224004,-0.28249798223428557,-1.66905747632813,0.14140429491682324,2.403571821806943,1.0273484225190348,0.878092876070424,0.7554597494309409,-0.2825552651693207,-1.6690993614607135,0.1414185955172306,2.4034451173676383,1.0273381002308042,0.0003090620864145359,0.0006119372402637935,-0.00011035250890974947,-0.00046099855312674764,-0.0004813705260254684,0.0001838943916739154,0.0009436056225307153,0.0,0.0,0.0,0.0,0.0,0.0,0.0,6.837631526734889e-05,-0.00014601929145952042,-5.728293503515225e-05,-4.188513258340798e-05,1.4300600407357589e-05,-0.0001267044393045147,-1.0322288230613097e-05,-0.0003090620864145359,-0.0006119372402637935,0.00011035250890974947,0.00046099855312674764,0.0004813705260254684,-0.0001838943916739154,-0.0009436056225307153,0.6291133761405945,46.52419662475586,5.564480304718018,-19.535249710083008,-0.7903953194618225,-2.3660311698913574,0.20083944499492645,0
