rezayati/contactInterpretation/dataset/franka_main/labeled_data/link4/d6_7.csv
index,time,tau_J0,tau_J1,tau_J2,tau_J3,tau_J4,tau_J5,tau_J6,tau_J_d0,tau_J_d1,tau_J_d2,tau_J_d3,tau_J_d4,tau_J_d5,tau_J_d6,tau_ext0,tau_ext1,tau_ext2,tau_ext3,tau_ext4,tau_ext5,tau_ext6,q0,q1,q2,q3,q4,q5,q6,q_d0,q_d1,q_d2,q_d3,q_d4,q_d5,q_d6,dq0,dq1,dq2,dq3,dq4,dq5,dq6,dq_d0,dq_d1,dq_d2,dq_d3,dq_d4,dq_d5,dq_d6,e0,e1,e2,e3,e4,e5,e6,de0,de1,de2,de3,de4,de5,de6,etau_J0,etau_J1,etau_J2,etau_J3,etau_J4,etau_J5,etau_J6,label
1,0.0,-0.12130087614059448,-12.048486709594727,1.2909882068634033,21.693452835083008,0.3674216866493225,2.5271639823913574,-0.21457235515117645,0.0,0.0,0.0,0.0,0.0,0.0,0.0,-0.17051069722501694,0.3313311616604273,0.11992818229098784,0.4086650870068629,-0.16402617807339023,0.12256980082098337,-0.20982244633608335,0.17255910326899662,-0.4876634915084169,-0.11146151928345166,-1.9464599343517368,0.13361205615599947,2.595550359778934,0.9452484245217508,0.1728802376190821,-0.48752024683155326,-0.11147110072896137,-1.9463801863486305,0.1336059019074957,2.595550359778934,0.9452445589611904,-0.0015511327038287318,0.0009384909085293531,0.0002717589339766611,0.0002950585910562508,0.0001219950230372096,-0.00015552584708680323,0.0008740527113480831,0.0,0.0,0.0,0.0,0.0,0.0,0.0,0.0003211343500854891,0.00014324467686366305,-9.581445509707076e-06,7.97480031062836e-05,-6.154248503781323e-06,0.0,-3.865560560423198e-06,0.0015511327038287318,-0.0009384909085293531,-0.0002717589339766611,-0.0002950585910562508,-0.0001219950230372096,0.00015552584708680323,-0.0008740527113480831,0.12130087614059448,12.048486709594727,-1.2909882068634033,-21.693452835083008,-0.3674216866493225,-2.5271639823913574,0.21457235515117645,0
2,0.004997968673706055,-0.12130087614059448,-12.048486709594727,1.2909882068634033,21.693452835083008,0.3674216866493225,2.5271639823913574,-0.21457235515117645,0.0,0.0,0.0,0.0,0.0,0.0,0.0,-0.17051069722501694,0.3313311616604273,0.11992818229098784,0.4086650870068629,-0.16402617807339023,0.12256980082098337,-0.20982244633608335,0.17255910326899662,-0.4876634915084169,-0.11146151928345166,-1.9464599343517368,0.13361205615599947,2.595550359778934,0.9452484245217508,0.1728802376190821,-0.48752024683155326,-0.11147110072896137,-1.9463801863486305,0.1336059019074957,2.595550359778934,0.9452445589611904,-0.0015511327038287318,0.0009384909085293531,0.0002717589339766611,0.0002950585910562508,0.0001219950230372096,-0.00015552584708680323,0.0008740527113480831,0.0,0.0,0.0,0.0,0.0,0.0,0.0,0.0003211343500854891,0.00014324467686366305,-9.581445509707076e-06,7.97480031062836e-05,-6.154248503781323e-06,0.0,-3.865560560423198e-06,0.0015511327038287318,-0.0009384909085293531,-0.0002717589339766611,-0.0002950585910562508,-0.0001219950230372096,0.00015552584708680323,-0.0008740527113480831,0.12130087614059448,12.048486709594727,-1.2909882068634033,-21.693452835083008,-0.3674216866493225,-2.5271639823913574,0.21457235515117645,0
3,0.00999760627746582,-0.12130087614059448,-12.048486709594727,1.2909882068634033,21.693452835083008,0.3674216866493225,2.5271639823913574,-0.21457235515117645,0.0,0.0,0.0,0.0,0.0,0.0,0.0,-0.17051069722501694,0.3313311616604273,0.11992818229098784,0.4086650870068629,-0.16402617807339023,0.12256980082098337,-0.20982244633608335,0.17255910326899662,-0.4876634915084169,-0.11146151928345166,-1.9464599343517368,0.13361205615599947,2.595550359778934,0.9452484245217508,0.1728802376190821,-0.48752024683155326,-0.11147110072896137,-1.9463801863486305,0.1336059019074957,2.595550359778934,0.9452445589611904,-0.0015511327038287318,0.0009384909085293531,0.0002717589339766611,0.0002950585910562508,0.0001219950230372096,-0.00015552584708680323,0.0008740527113480831,0.0,0.0,0.0,0.0,0.0,0.0,0.0,0.0003211343500854891,0.00014324467686366305,-9.581445509707076e-06,7.97480031062836e-05,-6.154248503781323e-06,0.0,-3.865560560423198e-06,0.0015511327038287318,-0.0009384909085293531,-0.0002717589339766611,-0.0002950585910562508,-0.0001219950230372096,0.00015552584708680323,-0.0008740527113480831,0.12130087614059448,12.048486709594727,-1.2909882068634033,-21.693452835083008,-0.3674216866493225,-2.5271639823913574,0.21457235515117645,0
4,0.017181873321533203,-0.14510458707809448,-12.024682998657227,1.3663666248321533,21.693452835083008,0.3674216866493225,2.5207552909851074,-0.21457235515117645,0.0,0.0,0.0,0.0,0.0,0.0,0.0,-0.16280725863109818,0.33462052012702687,0.1312652457249979,0.4059798631129583,-0.16432031700432867,0.12233738007864865,-0.20926589833379172,0.17256078439615413,-0.4876651619442722,-0.11146609871098284,-1.9464599343517368,0.13361205615599947,2.595551071855757,0.9452484245217508,0.1728802376190821,-0.48752024683155326,-0.11147110072896137,-1.9463801863486305,0.1336059019074957,2.595550359778934,0.9452445589611904,0.000142028920948654,0.0007969298848386526,-0.0007290240855624068,0.00028360407456955335,8.258065232601666e-05,5.0634857735616335e-05,0.0007401126497211879,0.0,0.0,0.0,0.0,0.0,0.0,0.0,0.00031945322292797895,0.000144915112718913,-5.002017978525397e-06,7.97480031062836e-05,-6.154248503781323e-06,-7.120768228396912e-07,-3.865560560423198e-06,-0.000142028920948654,-0.0007969298848386526,0.0007290240855624068,-0.00028360407456955335,-8.258065232601666e-05,-5.0634857735616335e-05,-0.0007401126497211879,0.14510458707809448,12.024682998657227,-1.3663666248321533,-21.693452835083008,-0.3674216866493225,-2.5207552909851074,0.21457235515117645,0
5,0.020017147064208984,-0.14510458707809448,-12.024682998657227,1.3663666248321533,21.693452835083008,0.3674216866493225,2.5207552909851074,-0.21457235515117645,0.0,0.0,0.0,0.0,0.0,0.0,0.0,-0.16280725863109818,0.33462052012702687,0.1312652457249979,0.4059798631129583,-0.16432031700432867,0.12233738007864865,-0.20926589833379172,0.17256078439615413,-0.4876651619442722,-0.11146609871098284,-1.9464599343517368,0.13361205615599947,2.595551071855757,0.9452484245217508,0.1728802376190821,-0.48752024683155326,-0.11147110072896137,-1.9463801863486305,0.1336059019074957,2.595550359778934,0.9452445589611904,0.000142028920948654,0.0007969298848386526,-0.0007290240855624068,0.00028360407456955335,8.258065232601666e-05,5.0634857735616335e-05,0.0007401126497211879,0.0,0.0,0.0,0.0,0.0,0.0,0.0,0.00031945322292797895,0.000144915112718913,-5.002017978525397e-06,7.97480031062836e-05,-6.154248503781323e-06,-7.120768228396912e-07,-3.865560560423198e-06,-0.000142028920948654,-0.0007969298848386526,0.0007290240855624068,-0.00028360407456955335,-8.258065232601666e-05,-5.0634857735616335e-05,-0.0007401126497211879,0.14510458707809448,12.024682998657227,-1.3663666248321533,-21.693452835083008,-0.3674216866493225,-2.5207552909851074,0.21457235515117645,0
6,0.02501511573791504,-0.14510458707809448,-12.024682998657227,1.3663666248321533,21.693452835083008,0.3674216866493225,2.5207552909851074,-0.21457235515117645,0.0,0.0,0.0,0.0,0.0,0.0,0.0,-0.16280725863109818,0.33462052012702687,0.1312652457249979,0.4059798631129583,-0.16432031700432867,0.12233738007864865,-0.20926589833379172,0.17256078439615413,-0.4876651619442722,-0.11146609871098284,-1.9464599343517368,0.13361205615599947,2.595551071855757,0.9452484245217508,0.1728802376190821,-0.48752024683155326,-0.11147110072896137,-1.9463801863486305,0.1336059019074957,2.595550359778934,0.9452445589611904,0.000142028920948654,0.0007969298848386526,-0.0007290240855624068,0.00028360407456955335,8.258065232601666e-05,5.0634857735616335e-05,0.0007401126497211879,0.0,0.0,0.0,0.0,0.0,0.0,0.0,0.00031945322292797895,0.000144915112718913,-5.002017978525397e-06,7.97480031062836e-05,-6.154248503781323e-06,-7.120768228396912e-07,-3.865560560423198e-06,-0.000142028920948654,-0.0007969298848386526,0.0007290240855624068,-0.00028360407456955335,-8.258065232601666e-05,-5.0634857735616335e-05,-0.0007401126497211879,0.14510458707809448,12.024682998657227,-1.3663666248321533,-21.693452835083008,-0.3674216866493225,-2.5207552909851074,0.21457235515117645,0
7,0.030027151107788086,-0.14510458707809448,-11.925500869750977,1.3147919178009033,21.669649124145508,0.3674216866493225,2.5207552909851074,-0.17978231608867645,0.0,0.0,0.0,0.0,0.0,0.0,0.0,-0.16345996730253795,0.3546794328877803,0.12009247670674425,0.3940780138133489,-0.16426399989621307,0.12058742489852248,-0.20793605802432122,0.17256314445364018,-0.4876721220936691,-0.11146257005427526,-1.9464582639158816,0.13361205615599947,2.595551071855757,0.945244558961855,0.1728802376190821,-0.48752024683155326,-0.11147110072896137,-1.9463801863486305,0.1336059019074957,2.595550359778934,0.9452445589611904,-0.00044507437828264306,-0.0003789786914058452,0.00018836758583357614,0.0002252161365711142,0.0009240558057638269,-9.263484979019372e-05,-0.0006938911846270791,0.0,0.0,0.0,0.0,0.0,0.0,0.0,0.00031709316544192845,0.00015187526211585256,-8.530674686105244e-06,7.807756725108916e-05,-6.154248503781323e-06,-7.120768228396912e-07,-6.645795025406187e-13,0.00044507437828264306,0.0003789786914058452,-0.00018836758583357614,-0.0002252161365711142,-0.0009240558057638269,9.263484979019372e-05,0.0006938911846270791,0.14510458707809448,11.925500869750977,-1.3147919178009033,-21.669649124145508,-0.3674216866493225,-2.5207552909851074,0.17978231608867645,0
8,0.03500795364379883,-0.14510458707809448,-11.925500869750977,1.3147919178009033,21.669649124145508,0.3674216866493225,2.5207552909851074,-0.17978231608867645,0.0,0.0,0.0,0.0,0.0,0.0,0.0,-0.16345996730253795,0.3546794328877803,0.12009247670674425,0.3940780138133489,-0.16426399989621307,0.12058742489852248,-0.20793605802432122,0.17256314445364018,-0.4876721220936691,-0.11146257005427526,-1.9464582639158816,0.13361205615599947,2.595551071855757,0.945244558961855,0.1728802376190821,-0.48752024683155326,-0.11147110072896137,-1.9463801863486305,0.1336059019074957,2.595550359778934,0.9452445589611904,-0.00044507437828264306,-0.0003789786914058452,0.00018836758583357614,0.0002252161365711142,0.0009240558057638269,-9.263484979019372e-05,-0.0006938911846270791,0.0,0.0,0.0,0.0,0.0,0.0,0.0,0.00031709316544192845,0.00015187526211585256,-8.530674686105244e-06,7.807756725108916e-05,-6.154248503781323e-06,-7.120768228396912e-07,-6.645795025406187e-13,0.00044507437828264306,0.0003789786914058452,-0.00018836758583357614,-0.0002252161365711142,-0.0009240558057638269,9.263484979019372e-05,0.0006938911846270791,0.14510458707809448,11.925500869750977,-1.3147919178009033,-21.669649124145508,-0.3674216866493225,-2.5207552909851074,0.17978231608867645,0
9,0.03999924659729004,-0.12130087614059448,-11.873926162719727,1.3425629138946533,21.641878128051758,0.3793235421180725,2.5207552909851074,-0.20724813640117645,0.0,0.0,0.0,0.0,0.0,0.0,0.0,-0.15835990677584819,0.36297899072550166,0.12199294895481888,0.395140059271868,-0.1631542767894968,0.1205002845769214,-0.20747995035350228,0.1725590845238117,-0.4876757413713555,-0.11146442859640718,-1.9464563150740504,0.13361073372761406,2.595550718643047,0.9452476107196676,0.1728802376190821,-0.48752024683155326,-0.11147110072896137,-1.9463801863486305,0.1336059019074957,2.595550359778934,0.9452445589611904,-0.0009088762026185285,-3.680054886883879e-05,-0.0006134328708763933,0.0013293709356467047,-0.0004147543019075735,-7.433390543926504e-05,0.0006104343093907104,0.0,0.0,0.0,0.0,0.0,0.0,0.0,0.00032115309527042113,0.0001554945398022367,-6.672132554189081e-06,7.612872541984395e-05,-4.831820118372798e-06,-3.588641130924941e-07,-3.051758477146116e-06,0.0009088762026185285,3.680054886883879e-05,0.0006134328708763933,-0.0013293709356467047,0.0004147543019075735,7.433390543926504e-05,-0.0006104343093907104,0.12130087614059448,11.873926162719727,-1.3425629138946533,-21.641878128051758,-0.3793235421180725,-2.5207552909851074,0.20724813640117645,0
10,0.04499506950378418,-0.12130087614059448,-11.873926162719727,1.3425629138946533,21.641878128051758,0.3793235421180725,2.5207552909851074,-0.20724813640117645,0.0,0.0,0.0,0.0,0.0,0.0,0.0,-0.15835990677584819,0.36297899072550166,0.12199294895481888,0.395140059271868,-0.1631542767894968,0.1205002845769214,-0.20747995035350228,0.1725590845238117,-0.4876757413713555,-0.11146442859640718,-1.9464563150740504,0.13361073372761406,2.595550718643047,0.9452476107196676,0.1728802376190821,-0.48752024683155326,-0.11147110072896137,-1.9463801863486305,0.1336059019074957,2.595550359778934,0.9452445589611904,-0.0009088762026185285,-3.680054886883879e-05,-0.0006134328708763933,0.0013293709356467047,-0.0004147543019075735,-7.433390543926504e-05,0.0006104343093907104,0.0,0.0,0.0,0.0,0.0,0.0,0.0,0.00032115309527042113,0.0001554945398022367,-6.672132554189081e-06,7.612872541984395e-05,-4.831820118372798e-06,-3.588641130924941e-07,-3.051758477146116e-06,0.0009088762026185285,3.680054886883879e-05,0.0006134328708763933,-0.0013293709356467047,0.0004147543019075735,7.433390543926504e-05,-0.0006104343093907104,0.12130087614059448,11.873926162719727,-1.3425629138946533,-21.641878128051758,-0.3793235421180725,-2.5207552909851074,0.20724813640117645,0
11,0.04999589920043945,-0.12130087614059448,-11.925500869750977,1.3425629138946533,21.717256546020508,0.3738303780555725,2.5143465995788574,-0.20724813640117645,0.0,0.0,0.0,0.0,0.0,0.0,0.0,-0.16444518492472848,0.3324751408857384,0.11761277064364975,0.4157433979991202,-0.16237773123326812,0.12341530604750899,-0.2076426924015399,0.17256215608236064,-0.4876721220936691,-0.11146445457811176,-1.946461604787592,0.13361134407917655,2.5955517795659473,0.9452476107196676,0.1728802376190821,-0.48752024683155326,-0.11147110072896137,-1.9463801863486305,0.1336059019074957,2.595550359778934,0.9452445589611904,-0.0017795979344449992,-0.0004834744523984251,-0.0007008087728261031,-0.0007536582806813794,0.00010012590869767576,0.00019796317339637042,0.0005799641061281325,0.0,0.0,0.0,0.0,0.0,0.0,0.0,0.00031808153672147066,0.00015187526211585256,-6.646150849609622e-06,8.141843896147805e-05,-5.442171680858365e-06,-1.4197870132903745e-06,-3.051758477146116e-06,0.0017795979344449992,0.0004834744523984251,0.0007008087728261031,0.0007536582806813794,-0.00010012590869767576,-0.00019796317339637042,-0.0005799641061281325,0.12130087614059448,11.925500869750977,-1.3425629138946533,-21.717256546020508,-0.3738303780555725,-2.5143465995788574,0.20724813640117645,0
12,0.05499434471130371,-0.12130087614059448,-11.925500869750977,1.3425629138946533,21.717256546020508,0.3738303780555725,2.5143465995788574,-0.20724813640117645,0.0,0.0,0.0,0.0,0.0,0.0,0.0,-0.16444518492472848,0.3324751408857384,0.11761277064364975,0.4157433979991202,-0.16237773123326812,0.12341530604750899,-0.2076426924015399,0.17256215608236064,-0.4876721220936691,-0.11146445457811176,-1.946461604787592,0.13361134407917655,2.5955517795659473,0.9452476107196676,0.1728802376190821,-0.48752024683155326,-0.11147110072896137,-1.9463801863486305,0.1336059019074957,2.595550359778934,0.9452445589611904,-0.0017795979344449992,-0.0004834744523984251,-0.0007008087728261031,-0.0007536582806813794,0.00010012590869767576,0.00019796317339637042,0.0005799641061281325,0.0,0.0,0.0,0.0,0.0,0.0,0.0,0.00031808153672147066,0.00015187526211585256,-6.646150849609622e-06,8.141843896147805e-05,-5.442171680858365e-06,-1.4197870132903745e-06,-3.051758477146116e-06,0.0017795979344449992,0.0004834744523984251,0.0007008087728261031,0.0007536582806813794,-0.00010012590869767576,-0.00019796317339637042,-0.0005799641061281325,0.12130087614059448,11.925500869750977,-1.3425629138946533,-21.717256546020508,-0.3738303780555725,-2.5143465995788574,0.20724813640117645,0
13,0.05999612808227539,-0.17287558317184448,-12.000879287719727,1.3147919178009033,21.717256546020508,0.3738303780555725,2.5207552909851074,-0.22098104655742645,0.0,0.0,0.0,0.0,0.0,0.0,0.0,-0.16471078419021634,0.3492278192762021,0.11824899592901682,0.4126730523278077,-0.16256308946619516,0.12232058464227229,-0.20797011749315492,0.1725657162127512,-0.4876668323801274,-0.11146248920875172,-1.946461604787592,0.1336113440250049,2.5955510718557484,0.9452491365985738,0.1728802376190821,-0.48752024683155326,-0.11147110072896137,-1.9463801863486305,0.1336059019074957,2.595550359778934,0.9452445589611904,0.00030794960749485934,0.0006483817834061477,-0.0002785744149710123,-0.00031222862764418836,-7.866424421138506e-05,6.964753361546774e-05,0.002821783571357863,0.0,0.0,0.0,0.0,0.0,0.0,0.0,0.00031452140633089765,0.00014658554857416295,-8.61152020964484e-06,8.141843896147805e-05,-5.442117509218969e-06,-7.120768144019962e-07,-4.5776373833739115e-06,-0.00030794960749485934,-0.0006483817834061477,0.0002785744149710123,0.00031222862764418836,7.866424421138506e-05,-6.964753361546774e-05,-0.002821783571357863,0.17287558317184448,12.000879287719727,-1.3147919178009033,-21.717256546020508,-0.3738303780555725,-2.5207552909851074,0.22098104655742645,0
14,0.06499552726745605,-0.17287558317184448,-12.000879287719727,1.3147919178009033,21.717256546020508,0.3738303780555725,2.5207552909851074,-0.22098104655742645,0.0,0.0,0.0,0.0,0.0,0.0,0.0,-0.16471078419021634,0.3492278192762021,0.11824899592901682,0.4126730523278077,-0.16256308946619516,0.12232058464227229,-0.20797011749315492,0.1725657162127512,-0.4876668323801274,-0.11146248920875172,-1.946461604787592,0.1336113440250049,2.5955510718557484,0.9452491365985738,0.1728802376190821,-0.48752024683155326,-0.11147110072896137,-1.9463801863486305,0.1336059019074957,2.595550359778934,0.9452445589611904,0.00030794960749485934,0.0006483817834061477,-0.0002785744149710123,-0.00031222862764418836,-7.866424421138506e-05,6.964753361546774e-05,0.002821783571357863,0.0,0.0,0.0,0.0,0.0,0.0,0.0,0.00031452140633089765,0.00014658554857416295,-8.61152020964484e-06,8.141843896147805e-05,-5.442117509218969e-06,-7.120768144019962e-07,-4.5776373833739115e-06,-0.00030794960749485934,-0.0006483817834061477,0.0002785744149710123,0.00031222862764418836,7.866424421138506e-05,-6.964753361546774e-05,-0.002821783571357863,0.17287558317184448,12.000879287719727,-1.3147919178009033,-21.717256546020508,-0.3738303780555725,-2.5207552909851074,0.22098104655742645,0
15,0.06999540328979492,-0.09352988004684448,-12.000879287719727,1.2909882068634033,21.741060256958008,0.3738303780555725,2.5079379081726074,-0.18710653483867645,0.0,0.0,0.0,0.0,0.0,0.0,0.0,-0.15576346141135777,0.35928176709464765,0.12873431176890612,0.40714594751496336,-0.16315638694217216,0.12187244713242648,-0.21013054684125118,0.1725578368660227,-0.4876668323801274,-0.11146081776248286,-1.9464632752234474,0.13361134407917624,2.595552496009403,0.9452421890043828,0.1728802376190821,-0.48752024683155326,-0.11147110072896137,-1.9463801863486305,0.1336059019074957,2.595550359778934,0.9452445589611904,-0.0007832898503299819,0.0003410874400248643,0.0008213779552873516,-0.0010952059007851612,-6.223283104083639e-05,0.0006095798902940937,-0.000762714142143008,0.0,0.0,0.0,0.0,0.0,0.0,0.0,0.00032240075305942084,0.00014658554857416295,-1.0282966478508682e-05,8.308887481689453e-05,-5.442171680553054e-06,-2.136230468963163e-06,2.369956807579676e-06,0.0007832898503299819,-0.0003410874400248643,-0.0008213779552873516,0.0010952059007851612,6.223283104083639e-05,-0.0006095798902940937,0.000762714142143008,0.09352988004684448,12.000879287719727,-1.2909882068634033,-21.741060256958008,-0.3738303780555725,-2.5079379081726074,0.18710653483867645,0
16,0.07500481605529785,-0.09352988004684448,-12.000879287719727,1.2909882068634033,21.741060256958008,0.3738303780555725,2.5079379081726074,-0.18710653483867645,0.0,0.0,0.0,0.0,0.0,0.0,0.0,-0.15576346141135777,0.35928176709464765,0.12873431176890612,0.40714594751496336,-0.16315638694217216,0.12187244713242648,-0.21013054684125118,0.1725578368660227,-0.4876668323801274,-0.11146081776248286,-1.9464632752234474,0.13361134407917624,2.595552496009403,0.9452421890043828,0.1728802376190821,-0.48752024683155326,-0.11147110072896137,-1.9463801863486305,0.1336059019074957,2.595550359778934,0.9452445589611904,-0.0007832898503299819,0.0003410874400248643,0.0008213779552873516,-0.0010952059007851612,-6.223283104083639e-05,0.0006095798902940937,-0.000762714142143008,0.0,0.0,0.0,0.0,0.0,0.0,0.0,0.00032240075305942084,0.00014658554857416295,-1.0282966478508682e-05,8.308887481689453e-05,-5.442171680553054e-06,-2.136230468963163e-06,2.369956807579676e-06,0.0007832898503299819,-0.0003410874400248643,-0.0008213779552873516,0.0010952059007851612,6.223283104083639e-05,-0.0006095798902940937,0.000762714142143008,0.09352988004684448,12.000879287719727,-1.2909882068634033,-21.741060256958008,-0.3738303780555725,-2.5079379081726074,0.18710653483867645,0
17,0.08011555671691895,-0.17287558317184448,-11.973108291625977,1.3147919178009033,21.741060256958008,0.3738303780555725,2.5271639823913574,-0.17978231608867645,0.0,0.0,0.0,0.0,0.0,0.0,0.0,-0.15724628782866124,0.3555959743556877,0.11817928556965923,0.40748050827162907,-0.16246932531611674,0.12218863030329814,-0.21082099874516863,0.17256344191083892,-0.48766878122195856,-0.11146484705828157,-1.9464632751184687,0.1336113045880333,2.595550359778934,0.9452445589438826,0.1728802376190821,-0.48752024683155326,-0.11147110072896137,-1.9463801863486305,0.1336059019074957,2.595550359778934,0.9452445589611904,0.0005988697903854558,-0.00047408540125159034,0.0001011082502004653,-0.0008282800780470166,-0.00020947075507625693,-0.00021121400709809857,-0.001287057383346807,0.0,0.0,0.0,0.0,0.0,0.0,0.0,0.0003167957082431949,0.00014853439040529715,-6.253670679801093e-06,8.308876983820213e-05,-5.402680537613946e-06,0.0,1.7307821842393878e-11,-0.0005988697903854558,0.00047408540125159034,-0.0001011082502004653,0.0008282800780470166,0.00020947075507625693,0.00021121400709809857,0.001287057383346807,0.17287558317184448,11.973108291625977,-1.3147919178009033,-21.741060256958008,-0.3738303780555725,-2.5271639823913574,0.17978231608867645,0
18,0.08500838279724121,-0.17287558317184448,-11.973108291625977,1.3147919178009033,21.741060256958008,0.3738303780555725,2.5271639823913574,-0.17978231608867645,0.0,0.0,0.0,0.0,0.0,0.0,0.0,-0.15724628782866124,0.3555959743556877,0.11817928556965923,0.40748050827162907,-0.16246932531611674,0.12218863030329814,-0.21082099874516863,0.17256344191083892,-0.48766878122195856,-0.11146484705828157,-1.9464632751184687,0.1336113045880333,2.595550359778934,0.9452445589438826,0.1728802376190821,-0.48752024683155326,-0.11147110072896137,-1.9463801863486305,0.1336059019074957,2.595550359778934,0.9452445589611904,0.0005988697903854558,-0.00047408540125159034,0.0001011082502004653,-0.0008282800780470166,-0.00020947075507625693,-0.00021121400709809857,-0.001287057383346807,0.0,0.0,0.0,0.0,0.0,0.0,0.0,0.0003167957082431949,0.00014853439040529715,-6.253670679801093e-06,8.308876983820213e-05,-5.402680537613946e-06,0.0,1.7307821842393878e-11,-0.0005988697903854558,0.00047408540125159034,-0.0001011082502004653,0.0008282800780470166,0.00020947075507625693,0.00021121400709809857,0.001287057383346807,0.17287558317184448,11.973108291625977,-1.3147919178009033,-21.741060256958008,-0.3738303780555725,-2.5271639823913574,0.17978231608867645,0
19,0.09000205993652344,-0.17287558317184448,-11.973108291625977,1.2909882068634033,21.693452835083008,0.3738303780555725,2.5143465995788574,-0.20724813640117645,0.0,0.0,0.0,0.0,0.0,0.0,0.0,-0.15654545390929786,0.3621557643052584,0.11681173292439491,0.4011337273883676,-0.16272651096136695,0.12121983047500647,-0.21173774853735977,0.17256285381370254,-0.48766878122195856,-0.11146081030590742,-1.9464599343517361,0.13361134261631868,2.5955517839325797,0.9452476107196675,0.1728802376190821,-0.48752024683155326,-0.11147110072896137,-1.9463801863486305,0.1336059019074957,2.595550359778934,0.9452445589611904,2.137292685128347e-05,-5.98837584758882e-05,0.0004480954748682579,-0.00024876850019726866,-0.00020804571972670826,0.00018716714056937043,0.000390811001158119,0.0,0.0,0.0,0.0,0.0,0.0,0.0,0.000317383805379573,0.00014853439040529715,-1.0290423053949116e-05,7.974800310561747e-05,-5.4407088229957434e-06,-1.4241536456793824e-06,-3.0517584770350936e-06,-2.137292685128347e-05,5.98837584758882e-05,-0.0004480954748682579,0.00024876850019726866,0.00020804571972670826,-0.00018716714056937043,-0.000390811001158119,0.17287558317184448,11.973108291625977,-1.2909882068634033,-21.693452835083008,-0.3738303780555725,-2.5143465995788574,0.20724813640117645,0
20,0.09495759010314941,-0.17287558317184448,-11.973108291625977,1.2909882068634033,21.693452835083008,0.3738303780555725,2.5143465995788574,-0.20724813640117645,0.0,0.0,0.0,0.0,0.0,0.0,0.0,-0.15654545390929786,0.3621557643052584,0.11681173292439491,0.4011337273883676,-0.16272651096136695,0.12121983047500647,-0.21173774853735977,0.17256285381370254,-0.48766878122195856,-0.11146081030590742,-1.9464599343517361,0.13361134261631868,2.5955517839325797,0.9452476107196675,0.1728802376190821,-0.48752024683155326,-0.11147110072896137,-1.9463801863486305,0.1336059019074957,2.595550359778934,0.9452445589611904,2.137292685128347e-05,-5.98837584758882e-05,0.0004480954748682579,-0.00024876850019726866,-0.00020804571972670826,0.00018716714056937043,0.000390811001158119,0.0,0.0,0.0,0.0,0.0,0.0,0.0,0.000317383805379573,0.00014853439040529715,-1.0290423053949116e-05,7.974800310561747e-05,-5.4407088229957434e-06,-1.4241536456793824e-06,-3.0517584770350936e-06,-2.137292685128347e-05,5.98837584758882e-05,-0.0004480954748682579,0.00024876850019726866,0.00020804571972670826,-0.00018716714056937043,-0.000390811001158119,0.17287558317184448,11.973108291625977,-1.2909882068634033,-21.693452835083008,-0.3738303780555725,-2.5143465995788574,0.20724813640117645,0
21,0.10010576248168945,-0.17287558317184448,-11.973108291625977,1.2909882068634033,21.693452835083008,0.3738303780555725,2.5207552909851074,-0.23471395671367645,0.0,0.0,0.0,0.0,0.0,0.0,0.0,-0.1558622458313815,0.342253178015691,0.12268351574241608,0.41014648741221543,-0.16355810117945122,0.12241326213271575,-0.2110267083888575,0.1725635702198755,-0.48766878122195856,-0.11146159856395141,-1.9464599343517368,0.1336113440791683,2.595551071855757,0.94525066247748,0.1728802376190821,-0.48752024683155326,-0.11147110072896137,-1.9463801863486305,0.1336059019074957,2.595550359778934,0.9452445589611904,0.0005647583614029479,-0.0005449675370467489,0.00030673151534031456,-0.00022277567236894132,-0.00019183217577220985,0.00012247329965385753,0.0016601954868342742,0.0,0.0,0.0,0.0,0.0,0.0,0.0,0.0003166673992066049,0.00014853439040529715,-9.502165009958596e-06,7.97480031062836e-05,-5.442171672614959e-06,-7.120768228396912e-07,-6.103516289601707e-06,-0.0005647583614029479,0.0005449675370467489,-0.00030673151534031456,0.00022277567236894132,0.00019183217577220985,-0.00012247329965385753,-0.0016601954868342742,0.17287558317184448,11.973108291625977,-1.2909882068634033,-21.693452835083008,-0.3738303780555725,-2.5207552909851074,0.23471395671367645,0
22,0.10499739646911621,-0.17287558317184448,-11.973108291625977,1.2909882068634033,21.693452835083008,0.3738303780555725,2.5207552909851074,-0.23471395671367645,0.0,0.0,0.0,0.0,0.0,0.0,0.0,-0.1558622458313815,0.342253178015691,0.12268351574241608,0.41014648741221543,-0.16355810117945122,0.12241326213271575,-0.2110267083888575,0.1725635702198755,-0.48766878122195856,-0.11146159856395141,-1.9464599343517368,0.1336113440791683,2.595551071855757,0.94525066247748,0.1728802376190821,-0.48752024683155326,-0.11147110072896137,-1.9463801863486305,0.1336059019074957,2.595550359778934,0.9452445589611904,0.0005647583614029479,-0.0005449675370467489,0.00030673151534031456,-0.00022277567236894132,-0.00019183217577220985,0.00012247329965385753,0.0016601954868342742,0.0,0.0,0.0,0.0,0.0,0.0,0.0,0.0003166673992066049,0.00014853439040529715,-9.502165009958596e-06,7.97480031062836e-05,-5.442171672614959e-06,-7.120768228396912e-07,-6.103516289601707e-06,-0.0005647583614029479,0.0005449675370467489,-0.00030673151534031456,0.00022277567236894132,0.00019183217577220985,-0.00012247329965385753,-0.0016601954868342742,0.17287558317184448,11.973108291625977,-1.2909882068634033,-21.693452835083008,-0.3738303780555725,-2.5207552909851074,0.23471395671367645,0
23,0.10999584197998047,-0.17287558317184448,-11.973108291625977,1.3425629138946533,21.693452835083008,0.3857322335243225,2.5335726737976074,-0.24844686686992645,0.0,0.0,0.0,0.0,0.0,0.0,0.0,-0.15626359721479408,0.340740857621695,0.1229485077879726,0.4087542516066236,-0.16352372835276807,0.12247998475871494,-0.2107965487766251,0.17256505834241684,-0.48766878122195856,-0.11146466503846963,-1.9464599343517368,0.13361002165079114,2.595549647702111,0.9452521883563862,0.1728802376190821,-0.48752024683155326,-0.11147110072896137,-1.9463801863486305,0.1336059019074957,2.595550359778934,0.9452445589611904,0.000533255806450972,-0.000306892773154765,-0.0007563193910330202,0.0001529950050699136,-0.0003662464783808548,-0.0004487536913273684,0.0017846177655619626,0.0,0.0,0.0,0.0,0.0,0.0,0.0,0.0003151792766652728,0.00014853439040529715,-6.4356904917323154e-06,7.97480031062836e-05,-4.11974329544984e-06,7.120768228396912e-07,-7.629395195829503e-06,-0.000533255806450972,0.000306892773154765,0.0007563193910330202,-0.0001529950050699136,0.0003662464783808548,0.0004487536913273684,-0.0017846177655619626,0.17287558317184448,11.973108291625977,-1.3425629138946533,-21.693452835083008,-0.3857322335243225,-2.5335726737976074,0.24844686686992645,0
24,0.11499428749084473,-0.17287558317184448,-11.973108291625977,1.3425629138946533,21.693452835083008,0.3857322335243225,2.5335726737976074,-0.24844686686992645,0.0,0.0,0.0,0.0,0.0,0.0,0.0,-0.15626359721479408,0.340740857621695,0.1229485077879726,0.4087542516066236,-0.16352372835276807,0.12247998475871494,-0.2107965487766251,0.17256505834241684,-0.48766878122195856,-0.11146466503846963,-1.9464599343517368,0.13361002165079114,2.595549647702111,0.9452521883563862,0.1728802376190821,-0.48752024683155326,-0.11147110072896137,-1.9463801863486305,0.1336059019074957,2.595550359778934,0.9452445589611904,0.000533255806450972,-0.000306892773154765,-0.0007563193910330202,0.0001529950050699136,-0.0003662464783808548,-0.0004487536913273684,0.0017846177655619626,0.0,0.0,0.0,0.0,0.0,0.0,0.0,0.0003151792766652728,0.00014853439040529715,-6.4356904917323154e-06,7.97480031062836e-05,-4.11974329544984e-06,7.120768228396912e-07,-7.629395195829503e-06,-0.000533255806450972,0.000306892773154765,0.0007563193910330202,-0.0001529950050699136,0.0003662464783808548,0.0004487536913273684,-0.0017846177655619626,0.17287558317184448,11.973108291625977,-1.3425629138946533,-21.693452835083008,-0.3857322335243225,-2.5335726737976074,0.24844686686992645,0
25,0.11999225616455078,-0.14510458707809448,-11.973108291625977,1.3425629138946533,21.693452835083008,0.3793235421180725,2.5271639823913574,-0.24112264811992645,0.0,0.0,0.0,0.0,0.0,0.0,0.0,-0.15795768993562545,0.3512226513001584,0.12403966613594525,0.3996646452964739,-0.1625635488083007,0.12173965426617304,-0.21228270390017673,0.17256149297033418,-0.48766878122195856,-0.11146466507143546,-1.9464599258484678,0.13361073372761406,2.595550359778934,0.9452513743927974,0.1728802376190821,-0.48752024683155326,-0.11147110072896137,-1.9463801863486305,0.1336059019074957,2.595550359778934,0.9452445589611904,-0.0002395436512556268,-0.0002944419814756007,-0.0004973400483627736,-0.00014233527505263084,-0.00033455257899293807,-2.468356873661017e-05,0.0017866038248390156,0.0,0.0,0.0,0.0,0.0,0.0,0.0,0.0003187446487479262,0.00014853439040529715,-6.435657525907801e-06,7.973949983730577e-05,-4.831820118372798e-06,0.0,-6.815431606965738e-06,0.0002395436512556268,0.0002944419814756007,0.0004973400483627736,0.00014233527505263084,0.00033455257899293807,2.468356873661017e-05,-0.0017866038248390156,0.14510458707809448,11.973108291625977,-1.3425629138946533,-21.693452835083008,-0.3793235421180725,-2.5271639823913574,0.24112264811992645,0
26,0.12499809265136719,-0.14510458707809448,-11.973108291625977,1.3425629138946533,21.693452835083008,0.3793235421180725,2.5271639823913574,-0.24112264811992645,0.0,0.0,0.0,0.0,0.0,0.0,0.0,-0.15795768993562545,0.3512226513001584,0.12403966613594525,0.3996646452964739,-0.1625635488083007,0.12173965426617304,-0.21228270390017673,0.17256149297033418,-0.48766878122195856,-0.11146466507143546,-1.9464599258484678,0.13361073372761406,2.595550359778934,0.9452513743927974,0.1728802376190821,-0.48752024683155326,-0.11147110072896137,-1.9463801863486305,0.1336059019074957,2.595550359778934,0.9452445589611904,-0.0002395436512556268,-0.0002944419814756007,-0.0004973400483627736,-0.00014233527505263084,-0.00033455257899293807,-2.468356873661017e-05,0.0017866038248390156,0.0,0.0,0.0,0.0,0.0,0.0,0.0,0.0003187446487479262,0.00014853439040529715,-6.435657525907801e-06,7.973949983730577e-05,-4.831820118372798e-06,0.0,-6.815431606965738e-06,0.0002395436512556268,0.0002944419814756007,0.0004973400483627736,0.00014233527505263084,0.00033455257899293807,2.468356873661017e-05,-0.0017866038248390156,0.14510458707809448,11.973108291625977,-1.3425629138946533,-21.693452835083008,-0.3793235421180725,-2.5271639823913574,0.24112264811992645,0
27,0.12999463081359863,-0.14510458707809448,-11.973108291625977,1.3425629138946533,21.693452835083008,0.3793235421180725,2.5271639823913574,-0.24112264811992645,0.0,0.0,0.0,0.0,0.0,0.0,0.0,-0.15795768993562545,0.3512226513001584,0.12403966613594525,0.3996646452964739,-0.1625635488083007,0.12173965426617304,-0.21228270390017673,0.17256149297033418,-0.48766878122195856,-0.11146466507143546,-1.9464599258484678,0.13361073372761406,2.595550359778934,0.9452513743927974,0.1728802376190821,-0.48752024683155326,-0.11147110072896137,-1.9463801863486305,0.1336059019074957,2.595550359778934,0.9452445589611904,-0.0002395436512556268,-0.0002944419814756007,-0.0004973400483627736,-0.00014233527505263084,-0.00033455257899293807,-2.468356873661017e-05,0.0017866038248390156,0.0,0.0,0.0,0.0,0.0,0.0,0.0,0.0003187446487479262,0.00014853439040529715,-6.435657525907801e-06,7.973949983730577e-05,-4.831820118372798e-06,0.0,-6.815431606965738e-06,0.0002395436512556268,0.0002944419814756007,0.0004973400483627736,0.00014233527505263084,0.00033455257899293807,2.468356873661017e-05,-0.0017866038248390156,0.14510458707809448,11.973108291625977,-1.3425629138946533,-21.693452835083008,-0.3793235421180725,-2.5271639823913574,0.24112264811992645,0
28,0.1349949836730957,-0.14510458707809448,-11.973108291625977,1.3425629138946533,21.693452835083008,0.3793235421180725,2.5271639823913574,-0.24112264811992645,0.0,0.0,0.0,0.0,0.0,0.0,0.0,-0.15795768993562545,0.3512226513001584,0.12403966613594525,0.3996646452964739,-0.1625635488083007,0.12173965426617304,-0.21228270390017673,0.17256149297033418,-0.48766878122195856,-0.11146466507143546,-1.9464599258484678,0.13361073372761406,2.595550359778934,0.9452513743927974,0.1728802376190821,-0.48752024683155326,-0.11147110072896137,-1.9463801863486305,0.1336059019074957,2.595550359778934,0.9452445589611904,-0.0002395436512556268,-0.0002944419814756007,-0.0004973400483627736,-0.00014233527505263084,-0.00033455257899293807,-2.468356873661017e-05,0.0017866038248390156,0.0,0.0,0.0,0.0,0.0,0.0,0.0,0.0003187446487479262,0.00014853439040529715,-6.435657525907801e-06,7.973949983730577e-05,-4.831820118372798e-06,0.0,-6.815431606965738e-06,0.0002395436512556268,0.0002944419814756007,0.0004973400483627736,0.00014233527505263084,0.00033455257899293807,2.468356873661017e-05,-0.0017866038248390156,0.14510458707809448,11.973108291625977,-1.3425629138946533,-21.693452835083008,-0.3793235421180725,-2.5271639823913574,0.24112264811992645,0
29,0.1404125690460205,-0.09352988004684448,-11.973108291625977,1.3147919178009033,21.693452835083008,0.3793235421180725,2.5207552909851074,-0.21457235515117645,0.0,0.0,0.0,0.0,0.0,0.0,0.0,-0.1574449999289515,0.3548560708229396,0.12142198917924893,0.3968369892391041,-0.16230314997173126,0.12185123079557852,-0.21242104887827595,0.17255787461958186,-0.48766878122195856,-0.11146247943062357,-1.9464599343516888,0.13361073372761406,2.595551071855757,0.94524842452175,0.1728802376190821,-0.48752024683155326,-0.11147110072896137,-1.9463801863486305,0.1336059019074957,2.595550359778934,0.9452445589611904,-0.0011560889948536868,0.00039287423906371797,-2.9711519455372833e-06,-0.0003140784423994874,-0.00023931620663503127,-0.00012000794844125262,0.0001625668319874493,0.0,0.0,0.0,0.0,0.0,0.0,0.0,0.00032236299950025304,0.00014853439040529715,-8.621298337799232e-06,7.974800305832197e-05,-4.831820118372798e-06,-7.120768228396912e-07,-3.8655605595350195e-06,0.0011560889948536868,-0.00039287423906371797,2.9711519455372833e-06,0.0003140784423994874,0.00023931620663503127,0.00012000794844125262,-0.0001625668319874493,0.09352988004684448,11.973108291625977,-1.3147919178009033,-21.693452835083008,-0.3793235421180725,-2.5207552909851074,0.21457235515117645,0
30,0.1450057029724121,-0.09352988004684448,-11.973108291625977,1.3147919178009033,21.693452835083008,0.3793235421180725,2.5207552909851074,-0.21457235515117645,0.0,0.0,0.0,0.0,0.0,0.0,0.0,-0.1574449999289515,0.3548560708229396,0.12142198917924893,0.3968369892391041,-0.16230314997173126,0.12185123079557852,-0.21242104887827595,0.17255787461958186,-0.48766878122195856,-0.11146247943062357,-1.9464599343516888,0.13361073372761406,2.595551071855757,0.94524842452175,0.1728802376190821,-0.48752024683155326,-0.11147110072896137,-1.9463801863486305,0.1336059019074957,2.595550359778934,0.9452445589611904,-0.0011560889948536868,0.00039287423906371797,-2.9711519455372833e-06,-0.0003140784423994874,-0.00023931620663503127,-0.00012000794844125262,0.0001625668319874493,0.0,0.0,0.0,0.0,0.0,0.0,0.0,0.00032236299950025304,0.00014853439040529715,-8.621298337799232e-06,7.974800305832197e-05,-4.831820118372798e-06,-7.120768228396912e-07,-3.8655605595350195e-06,0.0011560889948536868,-0.00039287423906371797,2.9711519455372833e-06,0.0003140784423994874,0.00023931620663503127,0.00012000794844125262,-0.0001625668319874493,0.09352988004684448,11.973108291625977,-1.3147919178009033,-21.693452835083008,-0.3793235421180725,-2.5207552909851074,0.21457235515117645,0
31,0.15000104904174805,-0.17287558317184448,-11.901697158813477,1.3147919178009033,21.693452835083008,0.3738303780555725,2.5079379081726074,-0.20724813640117645,0.0,0.0,0.0,0.0,0.0,0.0,0.0,-0.1548860439002414,0.3518453590069102,0.1168259923756748,0.39934931138560587,-0.16208910595153425,0.12211283008155642,-0.21219267234448858,0.1725648209426221,-0.48767379252952436,-0.11146256127325037,-1.946459934316744,0.1336081452965736,2.595552496009403,0.9452476107196676,0.1728802376190821,-0.48752024683155326,-0.11147110072896137,-1.9463801863486305,0.1336059019074957,2.595550359778934,0.9452445589611904,0.0007057952563129138,-0.0007190523088049538,-0.00013076714602309314,-6.227366662620603e-06,-0.00010964754518134972,0.00041399977672867624,0.0004975594529627043,0.0,0.0,0.0,0.0,0.0,0.0,0.0,0.0003154166764600119,0.0001535456979711025,-8.539455710998567e-06,7.974796811338614e-05,-2.2433890779216537e-06,-2.136230468963163e-06,-3.051758477146116e-06,-0.0007057952563129138,0.0007190523088049538,0.00013076714602309314,6.227366662620603e-06,0.00010964754518134972,-0.00041399977672867624,-0.0004975594529627043,0.17287558317184448,11.901697158813477,-1.3147919178009033,-21.693452835083008,-0.3738303780555725,-2.5079379081726074,0.20724813640117645,0
32,0.15500354766845703,-0.17287558317184448,-11.901697158813477,1.3147919178009033,21.693452835083008,0.3738303780555725,2.5079379081726074,-0.20724813640117645,0.0,0.0,0.0,0.0,0.0,0.0,0.0,-0.1548860439002414,0.3518453590069102,0.1168259923756748,0.39934931138560587,-0.16208910595153425,0.12211283008155642,-0.21219267234448858,0.1725648209426221,-0.48767379252952436,-0.11146256127325037,-1.946459934316744,0.1336081452965736,2.595552496009403,0.9452476107196676,0.1728802376190821,-0.48752024683155326,-0.11147110072896137,-1.9463801863486305,0.1336059019074957,2.595550359778934,0.9452445589611904,0.0007057952563129138,-0.0007190523088049538,-0.00013076714602309314,-6.227366662620603e-06,-0.00010964754518134972,0.00041399977672867624,0.0004975594529627043,0.0,0.0,0.0,0.0,0.0,0.0,0.0,0.0003154166764600119,0.0001535456979711025,-8.539455710998567e-06,7.974796811338614e-05,-2.2433890779216537e-06,-2.136230468963163e-06,-3.051758477146116e-06,-0.0007057952563129138,0.0007190523088049538,0.00013076714602309314,6.227366662620603e-06,0.00010964754518134972,-0.00041399977672867624,-0.0004975594529627043,0.17287558317184448,11.901697158813477,-1.3147919178009033,-21.693452835083008,-0.3738303780555725,-2.5079379081726074,0.20724813640117645,0
33,0.15999889373779297,-0.17287558317184448,-11.873926162719727,1.3425629138946533,21.693452835083008,0.3857322335243225,2.5271639823913574,-0.23471395671367645,0.0,0.0,0.0,0.0,0.0,0.0,0.0,-0.15607299765052116,0.3556508422575916,0.11750757565079581,0.4000863944552737,-0.16206669803475157,0.12174222983026703,-0.2109619157872333,0.1725628876996385,-0.4876757413713555,-0.11146663809468194,-1.9464599343517366,0.13361002163273394,2.595550359778934,0.94525066247748,0.1728802376190821,-0.48752024683155326,-0.11147110072896137,-1.9463801863486305,0.1336059019074957,2.595550359778934,0.9452445589611904,-0.0004392870502078119,-0.0010441704813795641,-0.000683450617362439,-0.00022769454045014825,-0.0005677310268398217,-0.00030948149630832307,0.0018844690742769602,0.0,0.0,0.0,0.0,0.0,0.0,0.0,0.00031734991944359914,0.0001554945398022367,-4.462634279431277e-06,7.974800310606156e-05,-4.119725238255212e-06,0.0,-6.103516289601707e-06,0.0004392870502078119,0.0010441704813795641,0.000683450617362439,0.00022769454045014825,0.0005677310268398217,0.00030948149630832307,-0.0018844690742769602,0.17287558317184448,11.873926162719727,-1.3425629138946533,-21.693452835083008,-0.3857322335243225,-2.5271639823913574,0.23471395671367645,0
34,0.1649484634399414,-0.17287558317184448,-11.873926162719727,1.3425629138946533,21.693452835083008,0.3857322335243225,2.5271639823913574,-0.23471395671367645,0.0,0.0,0.0,0.0,0.0,0.0,0.0,-0.15607299765052116,0.3556508422575916,0.11750757565079581,0.4000863944552737,-0.16206669803475157,0.12174222983026703,-0.2109619157872333,0.1725628876996385,-0.4876757413713555,-0.11146663809468194,-1.9464599343517366,0.13361002163273394,2.595550359778934,0.94525066247748,0.1728802376190821,-0.48752024683155326,-0.11147110072896137,-1.9463801863486305,0.1336059019074957,2.595550359778934,0.9452445589611904,-0.0004392870502078119,-0.0010441704813795641,-0.000683450617362439,-0.00022769454045014825,-0.0005677310268398217,-0.00030948149630832307,0.0018844690742769602,0.0,0.0,0.0,0.0,0.0,0.0,0.0,0.00031734991944359914,0.0001554945398022367,-4.462634279431277e-06,7.974800310606156e-05,-4.119725238255212e-06,0.0,-6.103516289601707e-06,0.0004392870502078119,0.0010441704813795641,0.000683450617362439,0.00022769454045014825,0.0005677310268398217,0.00030948149630832307,-0.0018844690742769602,0.17287558317184448,11.873926162719727,-1.3425629138946533,-21.693452835083008,-0.3857322335243225,-2.5271639823913574,0.23471395671367645,0
35,0.1699972152709961,-0.14510458707809448,-11.901697158813477,1.2909882068634033,21.669649124145508,0.3738303780555725,2.5399813652038574,-0.22830526530742645,0.0,0.0,0.0,0.0,0.0,0.0,0.0,-0.15987664752756886,0.3547377445798573,0.12063063863768715,0.40639955187047544,-0.16182285198469853,0.1230599564259862,-0.20952337461981146,0.17256164823594117,-0.48767379252952436,-0.11146081813576621,-1.9464582639158816,0.13361134407917646,2.5955489356252883,0.9452499504006571,0.1728802376190821,-0.48752024683155326,-0.11147110072896137,-1.9463801863486305,0.1336059019074957,2.595550359778934,0.9452445589611904,-0.0008331928573106626,-0.0005313001487813644,0.0005663994403102356,0.0006107763857241826,0.00011257904699352072,-0.0005379199323249892,0.0008970030832962267,0.0,0.0,0.0,0.0,0.0,0.0,0.0,0.00031858938314094365,0.0001535456979711025,-1.0282593195160006e-05,7.807756725108916e-05,-5.442171680775099e-06,1.4241536456793824e-06,-5.3914394666509935e-06,0.0008331928573106626,0.0005313001487813644,-0.0005663994403102356,-0.0006107763857241826,-0.00011257904699352072,0.0005379199323249892,-0.0008970030832962267,0.14510458707809448,11.901697158813477,-1.2909882068634033,-21.669649124145508,-0.3738303780555725,-2.5399813652038574,0.22830526530742645,0
36,0.17499661445617676,-0.14510458707809448,-11.901697158813477,1.2909882068634033,21.669649124145508,0.3738303780555725,2.5399813652038574,-0.22830526530742645,0.0,0.0,0.0,0.0,0.0,0.0,0.0,-0.15987664752756886,0.3547377445798573,0.12063063863768715,0.40639955187047544,-0.16182285198469853,0.1230599564259862,-0.20952337461981146,0.17256164823594117,-0.48767379252952436,-0.11146081813576621,-1.9464582639158816,0.13361134407917646,2.5955489356252883,0.9452499504006571,0.1728802376190821,-0.48752024683155326,-0.11147110072896137,-1.9463801863486305,0.1336059019074957,2.595550359778934,0.9452445589611904,-0.0008331928573106626,-0.0005313001487813644,0.0005663994403102356,0.0006107763857241826,0.00011257904699352072,-0.0005379199323249892,0.0008970030832962267,0.0,0.0,0.0,0.0,0.0,0.0,0.0,0.00031858938314094365,0.0001535456979711025,-1.0282593195160006e-05,7.807756725108916e-05,-5.442171680775099e-06,1.4241536456793824e-06,-5.3914394666509935e-06,0.0008331928573106626,0.0005313001487813644,-0.0005663994403102356,-0.0006107763857241826,-0.00011257904699352072,0.0005379199323249892,-0.0008970030832962267,0.14510458707809448,11.901697158813477,-1.2909882068634033,-21.669649124145508,-0.3738303780555725,-2.5399813652038574,0.22830526530742645,0
37,0.17999601364135742,-0.17287558317184448,-11.949304580688477,1.3425629138946533,21.693452835083008,0.3793235421180725,2.5271639823913574,-0.17978231608867645,0.0,0.0,0.0,0.0,0.0,0.0,0.0,-0.15951262252683443,0.3534165457899432,0.12296690699237546,0.4087680416368408,-0.16101649825380374,0.12402882518720708,-0.21052368487523615,0.17256344284798272,-0.48767045165781386,-0.11146450719213441,-1.9464599343517368,0.13361073372761406,2.595550359778934,0.945244558961855,0.1728802376190821,-0.48752024683155326,-0.11147110072896137,-1.9463801863486305,0.1336059019074957,2.595550359778934,0.9452445589611904,0.0009440501781235364,-0.0007440462153157532,-0.0008006228224406372,-0.00020862339909493859,-0.00016100339924720583,9.880365533112148e-05,-0.0014935691430924525,0.0,0.0,0.0,0.0,0.0,0.0,0.0,0.0003167947710993879,0.0001502048262606026,-6.593536826957069e-06,7.97480031062836e-05,-4.831820118372798e-06,0.0,-6.645795025406187e-13,-0.0009440501781235364,0.0007440462153157532,0.0008006228224406372,0.00020862339909493859,0.00016100339924720583,-9.880365533112148e-05,0.0014935691430924525,0.17287558317184448,11.949304580688477,-1.3425629138946533,-21.693452835083008,-0.3793235421180725,-2.5271639823913574,0.17978231608867645,0
38,0.18500018119812012,-0.17287558317184448,-11.949304580688477,1.3425629138946533,21.693452835083008,0.3793235421180725,2.5271639823913574,-0.17978231608867645,0.0,0.0,0.0,0.0,0.0,0.0,0.0,-0.15951262252683443,0.3534165457899432,0.12296690699237546,0.4087680416368408,-0.16101649825380374,0.12402882518720708,-0.21052368487523615,0.17256344284798272,-0.48767045165781386,-0.11146450719213441,-1.9464599343517368,0.13361073372761406,2.595550359778934,0.945244558961855,0.1728802376190821,-0.48752024683155326,-0.11147110072896137,-1.9463801863486305,0.1336059019074957,2.595550359778934,0.9452445589611904,0.0009440501781235364,-0.0007440462153157532,-0.0008006228224406372,-0.00020862339909493859,-0.00016100339924720583,9.880365533112148e-05,-0.0014935691430924525,0.0,0.0,0.0,0.0,0.0,0.0,0.0,0.0003167947710993879,0.0001502048262606026,-6.593536826957069e-06,7.97480031062836e-05,-4.831820118372798e-06,0.0,-6.645795025406187e-13,-0.0009440501781235364,0.0007440462153157532,0.0008006228224406372,0.00020862339909493859,0.00016100339924720583,-9.880365533112148e-05,0.0014935691430924525,0.17287558317184448,11.949304580688477,-1.3425629138946533,-21.693452835083008,-0.3793235421180725,-2.5271639823913574,0.17978231608867645,0
39,0.18999719619750977,-0.14510458707809448,-12.000879287719727,1.2909882068634033,21.741060256958008,0.3674216866493225,2.5143465995788574,-0.15964071452617645,0.0,0.0,0.0,0.0,0.0,0.0,0.0,-0.15561168896356556,0.36164621255118473,0.12499416272500975,0.40713290274170666,-0.16109211749190322,0.12437586503763645,-0.21196306975195406,0.17256361605203333,-0.4876668323801274,-0.11146105748485279,-1.9464632752234474,0.13361205615599947,2.5955517839325797,0.9452423210061258,0.1728802376190821,-0.48752024683155326,-0.11147110072896137,-1.9463801863486305,0.1336059019074957,2.595550359778934,0.9452445589611904,0.00012338487257742124,0.000618069649512465,0.0008948518588087506,-0.0005713881115235941,0.00014371302156282435,0.0002227118519766506,-0.0020621294210037616,0.0,0.0,0.0,0.0,0.0,0.0,0.0,0.00031662156704878597,0.00014658554857416295,-1.0043244108581817e-05,8.308887481689453e-05,-6.154248503781323e-06,-1.4241536456793824e-06,2.2379550645990065e-06,-0.00012338487257742124,-0.000618069649512465,-0.0008948518588087506,0.0005713881115235941,-0.00014371302156282435,-0.0002227118519766506,0.0020621294210037616,0.14510458707809448,12.000879287719727,-1.2909882068634033,-21.741060256958008,-0.3674216866493225,-2.5143465995788574,0.15964071452617645,0
40,0.19499588012695312,-0.14510458707809448,-12.000879287719727,1.2909882068634033,21.741060256958008,0.3674216866493225,2.5143465995788574,-0.15964071452617645,0.0,0.0,0.0,0.0,0.0,0.0,0.0,-0.15561168896356556,0.36164621255118473,0.12499416272500975,0.40713290274170666,-0.16109211749190322,0.12437586503763645,-0.21196306975195406,0.17256361605203333,-0.4876668323801274,-0.11146105748485279,-1.9464632752234474,0.13361205615599947,2.5955517839325797,0.9452423210061258,0.1728802376190821,-0.48752024683155326,-0.11147110072896137,-1.9463801863486305,0.1336059019074957,2.595550359778934,0.9452445589611904,0.00012338487257742124,0.000618069649512465,0.0008948518588087506,-0.0005713881115235941,0.00014371302156282435,0.0002227118519766506,-0.0020621294210037616,0.0,0.0,0.0,0.0,0.0,0.0,0.0,0.00031662156704878597,0.00014658554857416295,-1.0043244108581817e-05,8.308887481689453e-05,-6.154248503781323e-06,-1.4241536456793824e-06,2.2379550645990065e-06,-0.00012338487257742124,-0.000618069649512465,-0.0008948518588087506,0.0005713881115235941,-0.00014371302156282435,-0.0002227118519766506,0.0020621294210037616,0.14510458707809448,12.000879287719727,-1.2909882068634033,-21.741060256958008,-0.3674216866493225,-2.5143465995788574,0.15964071452617645,0
41,0.1999969482421875,-0.14510458707809448,-12.024682998657227,1.3147919178009033,21.669649124145508,0.3674216866493225,2.5207552909851074,-0.18710653483867645,0.0,0.0,0.0,0.0,0.0,0.0,0.0,-0.15670655196115804,0.36250583293714883,0.11879671551447128,0.40530198705971787,-0.1615973740645162,0.12320898347065236,-0.21225873357547165,0.1725638548671766,-0.4876651616202516,-0.1114625583516544,-1.9464582639158816,0.13361205615599947,2.595551071855757,0.9452453727639384,0.1728802376190821,-0.48752024683155326,-0.11147110072896137,-1.9463801863486305,0.1336059019074957,2.595550359778934,0.9452445589611904,-0.000520179863801084,0.0009934580172917754,-0.00024114989967050876,0.0006150067410817134,0.00015037351286516424,-0.0001167498552921194,-0.0008030914056784236,0.0,0.0,0.0,0.0,0.0,0.0,0.0,0.000316382751905514,0.00014491478869832486,-8.542377306963722e-06,7.807756725108916e-05,-6.154248503781323e-06,-7.120768228396912e-07,-8.138027479676069e-07,0.000520179863801084,-0.0009934580172917754,0.00024114989967050876,-0.0006150067410817134,-0.00015037351286516424,0.0001167498552921194,0.0008030914056784236,0.14510458707809448,12.024682998657227,-1.3147919178009033,-21.669649124145508,-0.3674216866493225,-2.5207552909851074,0.18710653483867645,0
42,0.20510530471801758,-0.14510458707809448,-12.024682998657227,1.3147919178009033,21.669649124145508,0.3674216866493225,2.5207552909851074,-0.18710653483867645,0.0,0.0,0.0,0.0,0.0,0.0,0.0,-0.15670655196115804,0.36250583293714883,0.11879671551447128,0.40530198705971787,-0.1615973740645162,0.12320898347065236,-0.21225873357547165,0.1725638548671766,-0.4876651616202516,-0.1114625583516544,-1.9464582639158816,0.13361205615599947,2.595551071855757,0.9452453727639384,0.1728802376190821,-0.48752024683155326,-0.11147110072896137,-1.9463801863486305,0.1336059019074957,2.595550359778934,0.9452445589611904,-0.000520179863801084,0.0009934580172917754,-0.00024114989967050876,0.0006150067410817134,0.00015037351286516424,-0.0001167498552921194,-0.0008030914056784236,0.0,0.0,0.0,0.0,0.0,0.0,0.0,0.000316382751905514,0.00014491478869832486,-8.542377306963722e-06,7.807756725108916e-05,-6.154248503781323e-06,-7.120768228396912e-07,-8.138027479676069e-07,0.000520179863801084,-0.0009934580172917754,0.00024114989967050876,-0.0006150067410817134,-0.00015037351286516424,0.0001167498552921194,0.0008030914056784236,0.14510458707809448,12.024682998657227,-1.3147919178009033,-21.669649124145508,-0.3674216866493225,-2.5207552909851074,0.18710653483867645,0
43,0.21000099182128906,-0.17287558317184448,-11.973108291625977,1.3663666248321533,21.693452835083008,0.3738303780555725,2.5271639823913574,-0.23471395671367645,0.0,0.0,0.0,0.0,0.0,0.0,0.0,-0.15506917841508341,0.3663986222100844,0.11913464164012315,0.4004631628064014,-0.16220399666987292,0.1217971988493728,-0.21233692970912976,0.1725654799658026,-0.48766878122195795,-0.11146609874320813,-1.9464599343517368,0.13361134407917655,2.595550359778934,0.94525066247748,0.1728802376190821,-0.48752024683155326,-0.11147110072896137,-1.9463801863486305,0.1336059019074957,2.595550359778934,0.9452445589611904,-0.00047685685255515283,0.00047507465919169556,-0.0015283994518863588,-0.0005031335214865096,-6.0162415994226294e-05,-0.00015731820397324497,0.001957171122820916,0.0,0.0,0.0,0.0,0.0,0.0,0.0,0.00031475765327951266,0.00014853439040468652,-5.001985753233518e-06,7.97480031062836e-05,-5.442171680858365e-06,0.0,-6.103516289601707e-06,0.00047685685255515283,-0.00047507465919169556,0.0015283994518863588,0.0005031335214865096,6.0162415994226294e-05,0.00015731820397324497,-0.001957171122820916,0.17287558317184448,11.973108291625977,-1.3663666248321533,-21.693452835083008,-0.3738303780555725,-2.5271639823913574,0.23471395671367645,0
44,0.2149977684020996,-0.17287558317184448,-11.973108291625977,1.3663666248321533,21.693452835083008,0.3738303780555725,2.5271639823913574,-0.23471395671367645,0.0,0.0,0.0,0.0,0.0,0.0,0.0,-0.15506917841508341,0.3663986222100844,0.11913464164012315,0.4004631628064014,-0.16220399666987292,0.1217971988493728,-0.21233692970912976,0.1725654799658026,-0.48766878122195795,-0.11146609874320813,-1.9464599343517368,0.13361134407917655,2.595550359778934,0.94525066247748,0.1728802376190821,-0.48752024683155326,-0.11147110072896137,-1.9463801863486305,0.1336059019074957,2.595550359778934,0.9452445589611904,-0.00047685685255515283,0.00047507465919169556,-0.0015283994518863588,-0.0005031335214865096,-6.0162415994226294e-05,-0.00015731820397324497,0.001957171122820916,0.0,0.0,0.0,0.0,0.0,0.0,0.0,0.00031475765327951266,0.00014853439040468652,-5.001985753233518e-06,7.97480031062836e-05,-5.442171680858365e-06,0.0,-6.103516289601707e-06,0.00047685685255515283,-0.00047507465919169556,0.0015283994518863588,0.0005031335214865096,6.0162415994226294e-05,0.00015731820397324497,-0.001957171122820916,0.17287558317184448,11.973108291625977,-1.3663666248321533,-21.693452835083008,-0.3738303780555725,-2.5271639823913574,0.23471395671367645,0
45,0.21999859809875488,-0.17287558317184448,-12.024682998657227,1.3147919178009033,21.669649124145508,0.3793235421180725,2.5271639823913574,-0.20724813640117645,0.0,0.0,0.0,0.0,0.0,0.0,0.0,-0.16008567176198799,0.345748815610742,0.11932360220298258,0.4091669596564601,-0.16178142265359166,0.12390923313475312,-0.21166671040134216,0.17256367518136445,-0.4876651619442722,-0.11146248043970633,-1.9464582639158816,0.13361073372761406,2.595550359778934,0.9452476107196676,0.1728802376190821,-0.48752024683155326,-0.11147110072896137,-1.9463801863486305,0.1336059019074957,2.595550359778934,0.9452445589611904,-0.00018427100285218844,0.0010879370826571454,-0.00024118421405227097,0.0007154201842179292,-0.0003694330266617551,-0.00022174428478695027,0.0002228938171679438,0.0,0.0,0.0,0.0,0.0,0.0,0.0,0.00031656243771766013,0.000144915112718913,-8.620289255037439e-06,7.807756725108916e-05,-4.831820118372798e-06,0.0,-3.051758477146116e-06,0.00018427100285218844,-0.0010879370826571454,0.00024118421405227097,-0.0007154201842179292,0.0003694330266617551,0.00022174428478695027,-0.0002228938171679438,0.17287558317184448,12.024682998657227,-1.3147919178009033,-21.669649124145508,-0.3793235421180725,-2.5271639823913574,0.20724813640117645,0
46,0.22499322891235352,-0.17287558317184448,-12.024682998657227,1.3147919178009033,21.669649124145508,0.3793235421180725,2.5271639823913574,-0.20724813640117645,0.0,0.0,0.0,0.0,0.0,0.0,0.0,-0.16008567176198799,0.345748815610742,0.11932360220298258,0.4091669596564601,-0.16178142265359166,0.12390923313475312,-0.21166671040134216,0.17256367518136445,-0.4876651619442722,-0.11146248043970633,-1.9464582639158816,0.13361073372761406,2.595550359778934,0.9452476107196676,0.1728802376190821,-0.48752024683155326,-0.11147110072896137,-1.9463801863486305,0.1336059019074957,2.595550359778934,0.9452445589611904,-0.00018427100285218844,0.0010879370826571454,-0.00024118421405227097,0.0007154201842179292,-0.0003694330266617551,-0.00022174428478695027,0.0002228938171679438,0.0,0.0,0.0,0.0,0.0,0.0,0.0,0.00031656243771766013,0.000144915112718913,-8.620289255037439e-06,7.807756725108916e-05,-4.831820118372798e-06,0.0,-3.051758477146116e-06,0.00018427100285218844,-0.0010879370826571454,0.00024118421405227097,-0.0007154201842179292,0.0003694330266617551,0.00022174428478695027,-0.0002228938171679438,0.17287558317184448,12.024682998657227,-1.3147919178009033,-21.669649124145508,-0.3793235421180725,-2.5271639823913574,0.20724813640117645,0
47,0.22999358177185059,-0.14510458707809448,-11.949304580688477,1.3147919178009033,21.693452835083008,0.3793235421180725,2.5335726737976074,-0.19351522624492645,0.0,0.0,0.0,0.0,0.0,0.0,0.0,-0.16113671570436183,0.34718727252057646,0.11904522604618363,0.4061353427293609,-0.1621679500785324,0.12379687035699184,-0.21164653025897728,0.17256311832173835,-0.48767045165781386,-0.11146319881174982,-1.9464599343517368,0.13361073372761406,2.595549647702111,0.9452460848407613,0.1728802376190821,-0.48752024683155326,-0.11147110072896137,-1.9463801863486305,0.1336059019074957,2.595550359778934,0.9452445589611904,-0.0003261161664321086,-0.00032741499003728446,-0.0001261282790971405,0.00016715131649199406,-0.00027046438074769324,-0.0002950124442961091,-0.0007191868325719744,0.0,0.0,0.0,0.0,0.0,0.0,0.0,0.0003171192973437653,0.0001502048262606026,-7.901917211547427e-06,7.97480031062836e-05,-4.831820118372798e-06,7.120768228396912e-07,-1.5258795709183204e-06,0.0003261161664321086,0.00032741499003728446,0.0001261282790971405,-0.00016715131649199406,0.00027046438074769324,0.0002950124442961091,0.0007191868325719744,0.14510458707809448,11.949304580688477,-1.3147919178009033,-21.693452835083008,-0.3793235421180725,-2.5335726737976074,0.19351522624492645,0
48,0.23642349243164062,-0.14510458707809448,-11.949304580688477,1.3147919178009033,21.693452835083008,0.3793235421180725,2.5335726737976074,-0.19351522624492645,0.0,0.0,0.0,0.0,0.0,0.0,0.0,-0.16113671570436183,0.34718727252057646,0.11904522604618363,0.4061353427293609,-0.1621679500785324,0.12379687035699184,-0.21164653025897728,0.17256311832173835,-0.48767045165781386,-0.11146319881174982,-1.9464599343517368,0.13361073372761406,2.595549647702111,0.9452460848407613,0.1728802376190821,-0.48752024683155326,-0.11147110072896137,-1.9463801863486305,0.1336059019074957,2.595550359778934,0.9452445589611904,-0.0003261161664321086,-0.00032741499003728446,-0.0001261282790971405,0.00016715131649199406,-0.00027046438074769324,-0.0002950124442961091,-0.0007191868325719744,0.0,0.0,0.0,0.0,0.0,0.0,0.0,0.0003171192973437653,0.0001502048262606026,-7.901917211547427e-06,7.97480031062836e-05,-4.831820118372798e-06,7.120768228396912e-07,-1.5258795709183204e-06,0.0003261161664321086,0.00032741499003728446,0.0001261282790971405,-0.00016715131649199406,0.00027046438074769324,0.0002950124442961091,0.0007191868325719744,0.14510458707809448,11.949304580688477,-1.3147919178009033,-21.693452835083008,-0.3793235421180725,-2.5335726737976074,0.19351522624492645,0
49,0.2400057315826416,-0.14510458707809448,-11.949304580688477,1.3147919178009033,21.693452835083008,0.3793235421180725,2.5335726737976074,-0.19351522624492645,0.0,0.0,0.0,0.0,0.0,0.0,0.0,-0.16113671570436183,0.34718727252057646,0.11904522604618363,0.4061353427293609,-0.1621679500785324,0.12379687035699184,-0.21164653025897728,0.17256311832173835,-0.48767045165781386,-0.11146319881174982,-1.9464599343517368,0.13361073372761406,2.595549647702111,0.9452460848407613,0.1728802376190821,-0.48752024683155326,-0.11147110072896137,-1.9463801863486305,0.1336059019074957,2.595550359778934,0.9452445589611904,-0.0003261161664321086,-0.00032741499003728446,-0.0001261282790971405,0.00016715131649199406,-0.00027046438074769324,-0.0002950124442961091,-0.0007191868325719744,0.0,0.0,0.0,0.0,0.0,0.0,0.0,0.0003171192973437653,0.0001502048262606026,-7.901917211547427e-06,7.97480031062836e-05,-4.831820118372798e-06,7.120768228396912e-07,-1.5258795709183204e-06,0.0003261161664321086,0.00032741499003728446,0.0001261282790971405,-0.00016715131649199406,0.00027046438074769324,0.0002950124442961091,0.0007191868325719744,0.14510458707809448,11.949304580688477,-1.3147919178009033,-21.693452835083008,-0.3793235421180725,-2.5335726737976074,0.19351522624492645,0
50,0.24499297142028809,-0.14510458707809448,-11.949304580688477,1.3147919178009033,21.693452835083008,0.3793235421180725,2.5335726737976074,-0.19351522624492645,0.0,0.0,0.0,0.0,0.0,0.0,0.0,-0.16113671570436183,0.34718727252057646,0.11904522604618363,0.4061353427293609,-0.1621679500785324,0.12379687035699184,-0.21164653025897728,0.17256311832173835,-0.48767045165781386,-0.11146319881174982,-1.9464599343517368,0.13361073372761406,2.595549647702111,0.9452460848407613,0.1728802376190821,-0.48752024683155326,-0.11147110072896137,-1.9463801863486305,0.1336059019074957,2.595550359778934,0.9452445589611904,-0.0003261161664321086,-0.00032741499003728446,-0.0001261282790971405,0.00016715131649199406,-0.00027046438074769324,-0.0002950124442961091,-0.0007191868325719744,0.0,0.0,0.0,0.0,0.0,0.0,0.0,0.0003171192973437653,0.0001502048262606026,-7.901917211547427e-06,7.97480031062836e-05,-4.831820118372798e-06,7.120768228396912e-07,-1.5258795709183204e-06,0.0003261161664321086,0.00032741499003728446,0.0001261282790971405,-0.00016715131649199406,0.00027046438074769324,0.0002950124442961091,0.0007191868325719744,0.14510458707809448,11.949304580688477,-1.3147919178009033,-21.693452835083008,-0.3793235421180725,-2.5335726737976074,0.19351522624492645,0
51,0.24999737739562988,-0.12130087614059448,-11.973108291625977,1.3425629138946533,21.693452835083008,0.3738303780555725,2.5143465995788574,-0.18710653483867645,0.0,0.0,0.0,0.0,0.0,0.0,0.0,-0.1560133934052833,0.35877742140269514,0.11893742807474424,0.39959512359582866,-0.16196753670159078,0.12326037128676301,-0.21225667682283664,0.17255899833419105,-0.48766878122195856,-0.11146443152295524,-1.9464599343517368,0.13361133091546215,2.5955517839325797,0.9452453727639384,0.1728802376190821,-0.48752024683155326,-0.11147110072896137,-1.9463801863486305,0.1336059019074957,2.595550359778934,0.9452445589611904,-0.00010338044147473747,0.0006594655514352296,-0.0005834048801573218,0.00011371162099536019,-1.4293845336336985e-06,0.00034053451578037536,-0.001047628553387565,0.0,0.0,0.0,0.0,0.0,0.0,0.0,0.00032123928489105613,0.00014853439040529715,-6.6692060061296354e-06,7.97480031062836e-05,-5.429007966462063e-06,-1.4241536456793824e-06,-8.138027479676069e-07,0.00010338044147473747,-0.0006594655514352296,0.0005834048801573218,-0.00011371162099536019,1.4293845336336985e-06,-0.00034053451578037536,0.001047628553387565,0.12130087614059448,11.973108291625977,-1.3425629138946533,-21.693452835083008,-0.3738303780555725,-2.5143465995788574,0.18710653483867645,0
52,0.25502681732177734,-0.12130087614059448,-11.973108291625977,1.3425629138946533,21.693452835083008,0.3738303780555725,2.5143465995788574,-0.18710653483867645,0.0,0.0,0.0,0.0,0.0,0.0,0.0,-0.1560133934052833,0.35877742140269514,0.11893742807474424,0.39959512359582866,-0.16196753670159078,0.12326037128676301,-0.21225667682283664,0.17255899833419105,-0.48766878122195856,-0.11146443152295524,-1.9464599343517368,0.13361133091546215,2.5955517839325797,0.9452453727639384,0.1728802376190821,-0.48752024683155326,-0.11147110072896137,-1.9463801863486305,0.1336059019074957,2.595550359778934,0.9452445589611904,-0.00010338044147473747,0.0006594655514352296,-0.0005834048801573218,0.00011371162099536019,-1.4293845336336985e-06,0.00034053451578037536,-0.001047628553387565,0.0,0.0,0.0,0.0,0.0,0.0,0.0,0.00032123928489105613,0.00014853439040529715,-6.6692060061296354e-06,7.97480031062836e-05,-5.429007966462063e-06,-1.4241536456793824e-06,-8.138027479676069e-07,0.00010338044147473747,-0.0006594655514352296,0.0005834048801573218,-0.00011371162099536019,1.4293845336336985e-06,-0.00034053451578037536,0.001047628553387565,0.12130087614059448,11.973108291625977,-1.3425629138946533,-21.693452835083008,-0.3738303780555725,-2.5143465995788574,0.18710653483867645,0
53,0.26000285148620605,-0.17287558317184448,-11.973108291625977,1.3425629138946533,21.669649124145508,0.3738303780555725,2.5207552909851074,-0.17978231608867645,0.0,0.0,0.0,0.0,0.0,0.0,0.0,-0.15726610366270474,0.35080626983207414,0.11019366086687735,0.4051487905337482,-0.16135509818818608,0.12384130636400031,-0.21319636488766866,0.1725627244168328,-0.48766878122195856,-0.11146442827113633,-1.9464582639158816,0.13361134407910225,2.595551071855757,0.945244558961855,0.1728802376190821,-0.48752024683155326,-0.11147110072896137,-1.9463801863486305,0.1336059019074957,2.595550359778934,0.9452445589611904,0.00024399481766223735,0.00039549427020428693,-0.00070166192564483,0.0007766212096142487,8.162748999833777e-05,3.4486604585371894e-05,-0.0006612848524106758,0.0,0.0,0.0,0.0,0.0,0.0,0.0,0.0003175132022493199,0.00014853439040529715,-6.6724578250410005e-06,7.807756725108916e-05,-5.442171606556689e-06,-7.120768228396912e-07,-6.645795025406187e-13,-0.00024399481766223735,-0.00039549427020428693,0.00070166192564483,-0.0007766212096142487,-8.162748999833777e-05,-3.4486604585371894e-05,0.0006612848524106758,0.17287558317184448,11.973108291625977,-1.3425629138946533,-21.669649124145508,-0.3738303780555725,-2.5207552909851074,0.17978231608867645,0
54,0.26500463485717773,-0.17287558317184448,-11.973108291625977,1.3425629138946533,21.669649124145508,0.3738303780555725,2.5207552909851074,-0.17978231608867645,0.0,0.0,0.0,0.0,0.0,0.0,0.0,-0.15726610366270474,0.35080626983207414,0.11019366086687735,0.4051487905337482,-0.16135509818818608,0.12384130636400031,-0.21319636488766866,0.1725627244168328,-0.48766878122195856,-0.11146442827113633,-1.9464582639158816,0.13361134407910225,2.595551071855757,0.945244558961855,0.1728802376190821,-0.48752024683155326,-0.11147110072896137,-1.9463801863486305,0.1336059019074957,2.595550359778934,0.9452445589611904,0.00024399481766223735,0.00039549427020428693,-0.00070166192564483,0.0007766212096142487,8.162748999833777e-05,3.4486604585371894e-05,-0.0006612848524106758,0.0,0.0,0.0,0.0,0.0,0.0,0.0,0.0003175132022493199,0.00014853439040529715,-6.6724578250410005e-06,7.807756725108916e-05,-5.442171606556689e-06,-7.120768228396912e-07,-6.645795025406187e-13,-0.00024399481766223735,-0.00039549427020428693,0.00070166192564483,-0.0007766212096142487,-8.162748999833777e-05,-3.4486604585371894e-05,0.0006612848524106758,0.17287558317184448,11.973108291625977,-1.3425629138946533,-21.669649124145508,-0.3738303780555725,-2.5207552909851074,0.17978231608867645,0
55,0.2700035572052002,-0.14510458707809448,-11.973108291625977,1.3425629138946533,21.669649124145508,0.3793235421180725,2.5143465995788574,-0.22098104655742645,0.0,0.0,0.0,0.0,0.0,0.0,0.0,-0.15490955702701453,0.35917733087251924,0.11352525879136775,0.4025359403444252,-0.16101447990047954,0.12255886041753698,-0.2129317657582849,0.17256350606099347,-0.48766878122195856,-0.11146469137708717,-1.946458263810903,0.13361073372761406,2.5955517839325797,0.9452491365985738,0.1728802376190821,-0.48752024683155326,-0.11147110072896137,-1.9463801863486305,0.1336059019074957,2.595550359778934,0.9452445589611904,-0.0002917192939790123,0.0008162585300045751,-0.0009964518060118818,0.0005636028040909704,-0.00027972285831390545,0.0002923531320962323,0.0007613660743112383,0.0,0.0,0.0,0.0,0.0,0.0,0.0,0.0003167315580886454,0.00014853439040529715,-6.409351874195335e-06,7.807746227239676e-05,-4.831820118372798e-06,-1.4241536456793824e-06,-4.5776373833739115e-06,0.0002917192939790123,-0.0008162585300045751,0.0009964518060118818,-0.0005636028040909704,0.00027972285831390545,-0.0002923531320962323,-0.0007613660743112383,0.14510458707809448,11.973108291625977,-1.3425629138946533,-21.669649124145508,-0.3793235421180725,-2.5143465995788574,0.22098104655742645,0
56,0.27500367164611816,-0.14510458707809448,-11.973108291625977,1.3425629138946533,21.669649124145508,0.3793235421180725,2.5143465995788574,-0.22098104655742645,0.0,0.0,0.0,0.0,0.0,0.0,0.0,-0.15490955702701453,0.35917733087251924,0.11352525879136775,0.4025359403444252,-0.16101447990047954,0.12255886041753698,-0.2129317657582849,0.17256350606099347,-0.48766878122195856,-0.11146469137708717,-1.946458263810903,0.13361073372761406,2.5955517839325797,0.9452491365985738,0.1728802376190821,-0.48752024683155326,-0.11147110072896137,-1.9463801863486305,0.1336059019074957,2.595550359778934,0.9452445589611904,-0.0002917192939790123,0.0008162585300045751,-0.0009964518060118818,0.0005636028040909704,-0.00027972285831390545,0.0002923531320962323,0.0007613660743112383,0.0,0.0,0.0,0.0,0.0,0.0,0.0,0.0003167315580886454,0.00014853439040529715,-6.409351874195335e-06,7.807746227239676e-05,-4.831820118372798e-06,-1.4241536456793824e-06,-4.5776373833739115e-06,0.0002917192939790123,-0.0008162585300045751,0.0009964518060118818,-0.0005636028040909704,0.00027972285831390545,-0.0002923531320962323,-0.0007613660743112383,0.14510458707809448,11.973108291625977,-1.3425629138946533,-21.669649124145508,-0.3793235421180725,-2.5143465995788574,0.22098104655742645,0
57,0.279998779296875,-0.14510458707809448,-11.973108291625977,1.3147919178009033,21.693452835083008,0.3738303780555725,2.5143465995788574,-0.21457235515117645,0.0,0.0,0.0,0.0,0.0,0.0,0.0,-0.15577857294385727,0.35538752063753637,0.11491266625314875,0.40528547199372733,-0.16063948447766144,0.12280812638089973,-0.21198417555490237,0.1725631202039038,-0.48766878122195856,-0.11146248823585456,-1.9464599343517361,0.13361169949946577,2.5955517839325797,0.9452484245217508,0.1728802376190821,-0.48752024683155326,-0.11147110072896137,-1.9463801863486305,0.1336059019074957,2.595550359778934,0.9452445589611904,-0.0004691160180715641,0.00048632294070841196,-0.00014752711844470763,-0.00011510792233797862,4.6613201559393446e-05,0.00043191953183333004,5.8448840989532666e-05,0.0,0.0,0.0,0.0,0.0,0.0,0.0,0.00031711741517831404,0.00014853439040529715,-8.612493106810448e-06,7.974800310561747e-05,-5.797591970085891e-06,-1.4241536456793824e-06,-3.865560560423198e-06,0.0004691160180715641,-0.00048632294070841196,0.00014752711844470763,0.00011510792233797862,-4.6613201559393446e-05,-0.00043191953183333004,-5.8448840989532666e-05,0.14510458707809448,11.973108291625977,-1.3147919178009033,-21.693452835083008,-0.3738303780555725,-2.5143465995788574,0.21457235515117645,0
58,0.28499841690063477,-0.14510458707809448,-11.973108291625977,1.3147919178009033,21.693452835083008,0.3738303780555725,2.5143465995788574,-0.21457235515117645,0.0,0.0,0.0,0.0,0.0,0.0,0.0,-0.15577857294385727,0.35538752063753637,0.11491266625314875,0.40528547199372733,-0.16063948447766144,0.12280812638089973,-0.21198417555490237,0.1725631202039038,-0.48766878122195856,-0.11146248823585456,-1.9464599343517361,0.13361169949946577,2.5955517839325797,0.9452484245217508,0.1728802376190821,-0.48752024683155326,-0.11147110072896137,-1.9463801863486305,0.1336059019074957,2.595550359778934,0.9452445589611904,-0.0004691160180715641,0.00048632294070841196,-0.00014752711844470763,-0.00011510792233797862,4.6613201559393446e-05,0.00043191953183333004,5.8448840989532666e-05,0.0,0.0,0.0,0.0,0.0,0.0,0.0,0.00031711741517831404,0.00014853439040529715,-8.612493106810448e-06,7.974800310561747e-05,-5.797591970085891e-06,-1.4241536456793824e-06,-3.865560560423198e-06,0.0004691160180715641,-0.00048632294070841196,0.00014752711844470763,0.00011510792233797862,-4.6613201559393446e-05,-0.00043191953183333004,-5.8448840989532666e-05,0.14510458707809448,11.973108291625977,-1.3147919178009033,-21.693452835083008,-0.3738303780555725,-2.5143465995788574,0.21457235515117645,0
59,0.29003024101257324,-0.12130087614059448,-11.925500869750977,1.3425629138946533,21.717256546020508,0.3738303780555725,2.5207552909851074,-0.17337362468242645,0.0,0.0,0.0,0.0,0.0,0.0,0.0,-0.15810597746522903,0.3572568620760093,0.11503125071315375,0.4046316961236494,-0.1604809938178769,0.12244487540957007,-0.21205874042598602,0.17256194936959574,-0.4876721220936691,-0.11146443704016377,-1.946460916022808,0.13361134408118291,2.595551071855757,0.9452438468850322,0.1728802376190821,-0.48752024683155326,-0.11147110072896137,-1.9463801863486305,0.1336059019074957,2.595550359778934,0.9452445589611904,-0.001077682591039031,-0.0008932881721279811,-0.0009653460215389196,-0.0007776368961672673,-8.936788816972456e-05,-0.00016084710597344726,-0.0016159351482144028,0.0,0.0,0.0,0.0,0.0,0.0,0.0,0.0003182882494863759,0.00015187526211585256,-6.663688797592382e-06,8.07296741773822e-05,-5.44217368722566e-06,-7.120768228396912e-07,7.120761582601887e-07,0.001077682591039031,0.0008932881721279811,0.0009653460215389196,0.0007776368961672673,8.936788816972456e-05,0.00016084710597344726,0.0016159351482144028,0.12130087614059448,11.925500869750977,-1.3425629138946533,-21.717256546020508,-0.3738303780555725,-2.5207552909851074,0.17337362468242645,0
60,0.2949948310852051,-0.12130087614059448,-11.925500869750977,1.3425629138946533,21.717256546020508,0.3738303780555725,2.5207552909851074,-0.17337362468242645,0.0,0.0,0.0,0.0,0.0,0.0,0.0,-0.15810597746522903,0.3572568620760093,0.11503125071315375,0.4046316961236494,-0.1604809938178769,0.12244487540957007,-0.21205874042598602,0.17256194936959574,-0.4876721220936691,-0.11146443704016377,-1.946460916022808,0.13361134408118291,2.595551071855757,0.9452438468850322,0.1728802376190821,-0.48752024683155326,-0.11147110072896137,-1.9463801863486305,0.1336059019074957,2.595550359778934,0.9452445589611904,-0.001077682591039031,-0.0008932881721279811,-0.0009653460215389196,-0.0007776368961672673,-8.936788816972456e-05,-0.00016084710597344726,-0.0016159351482144028,0.0,0.0,0.0,0.0,0.0,0.0,0.0,0.0003182882494863759,0.00015187526211585256,-6.663688797592382e-06,8.07296741773822e-05,-5.44217368722566e-06,-7.120768228396912e-07,7.120761582601887e-07,0.001077682591039031,0.0008932881721279811,0.0009653460215389196,0.0007776368961672673,8.936788816972456e-05,0.00016084710597344726,0.0016159351482144028,0.12130087614059448,11.925500869750977,-1.3425629138946533,-21.717256546020508,-0.3738303780555725,-2.5207552909851074,0.17337362468242645,0
61,0.29999566078186035,-0.19667929410934448,-11.973108291625977,1.3425629138946533,21.669649124145508,0.3738303780555725,2.5271639823913574,-0.16604940593242645,0.0,0.0,0.0,0.0,0.0,0.0,0.0,-0.15509697716986193,0.35230120358601,0.11761986260297912,0.4088573764527979,-0.16079185909405191,0.12217476657279441,-0.2120636637382374,0.17256452382953583,-0.48766878122195856,-0.11146445555248864,-1.9464582639119936,0.13361134407917657,2.595550359778934,0.9452430330829488,0.1728802376190821,-0.48752024683155326,-0.11147110072896137,-1.9463801863486305,0.1336059019074957,2.595550359778934,0.9452445589611904,0.0012635230957248253,-3.802694655485922e-05,-0.00045401804699285,0.0008460063623387087,-0.00013340689224746217,-0.00020068570602358888,-0.0011006601578447289,0.0,0.0,0.0,0.0,0.0,0.0,0.0,0.0003157137895462847,0.00014853439040529715,-6.64517647272489e-06,7.807756336308813e-05,-5.442171680886121e-06,0.0,1.525878241648293e-06,-0.0012635230957248253,3.802694655485922e-05,0.00045401804699285,-0.0008460063623387087,0.00013340689224746217,0.00020068570602358888,0.0011006601578447289,0.19667929410934448,11.973108291625977,-1.3425629138946533,-21.669649124145508,-0.3738303780555725,-2.5271639823913574,0.16604940593242645,0
62,0.3050272464752197,-0.19667929410934448,-11.973108291625977,1.3425629138946533,21.669649124145508,0.3738303780555725,2.5271639823913574,-0.16604940593242645,0.0,0.0,0.0,0.0,0.0,0.0,0.0,-0.15509697716986193,0.35230120358601,0.11761986260297912,0.4088573764527979,-0.16079185909405191,0.12217476657279441,-0.2120636637382374,0.17256452382953583,-0.48766878122195856,-0.11146445555248864,-1.9464582639119936,0.13361134407917657,2.595550359778934,0.9452430330829488,0.1728802376190821,-0.48752024683155326,-0.11147110072896137,-1.9463801863486305,0.1336059019074957,2.595550359778934,0.9452445589611904,0.0012635230957248253,-3.802694655485922e-05,-0.00045401804699285,0.0008460063623387087,-0.00013340689224746217,-0.00020068570602358888,-0.0011006601578447289,0.0,0.0,0.0,0.0,0.0,0.0,0.0,0.0003157137895462847,0.00014853439040529715,-6.64517647272489e-06,7.807756336308813e-05,-5.442171680886121e-06,0.0,1.525878241648293e-06,-0.0012635230957248253,3.802694655485922e-05,0.00045401804699285,-0.0008460063623387087,0.00013340689224746217,0.00020068570602358888,0.0011006601578447289,0.19667929410934448,11.973108291625977,-1.3425629138946533,-21.669649124145508,-0.3738303780555725,-2.5271639823913574,0.16604940593242645,0
63,0.3099989891052246,-0.17287558317184448,-11.973108291625977,1.3425629138946533,21.693452835083008,0.3738303780555725,2.5271639823913574,-0.23471395671367645,0.0,0.0,0.0,0.0,0.0,0.0,0.0,-0.15892924023247962,0.35404609951266625,0.11476807607129082,0.4074767606157939,-0.16057533080915212,0.12210069707810488,-0.2106811641438523,0.17256498251755564,-0.48766878122195856,-0.1114665592816683,-1.9464599343517368,0.13361134407917657,2.595550359778934,0.94525066247748,0.1728802376190821,-0.48752024683155326,-0.11147110072896137,-1.9463801863486305,0.1336059019074957,2.595550359778934,0.9452445589611904,0.00036625061211670946,-0.0003752167241672222,-0.0007791017598508119,0.00022045814441316617,-4.013827791860886e-05,-0.0001407704693709465,0.0015954522290757267,0.0,0.0,0.0,0.0,0.0,0.0,0.0,0.0003152551015264682,0.00014853439040529715,-4.5414472930604965e-06,7.97480031062836e-05,-5.442171680886121e-06,0.0,-6.103516289601707e-06,-0.00036625061211670946,0.0003752167241672222,0.0007791017598508119,-0.00022045814441316617,4.013827791860886e-05,0.0001407704693709465,-0.0015954522290757267,0.17287558317184448,11.973108291625977,-1.3425629138946533,-21.693452835083008,-0.3738303780555725,-2.5271639823913574,0.23471395671367645,0
64,0.3149993419647217,-0.17287558317184448,-11.973108291625977,1.3425629138946533,21.693452835083008,0.3738303780555725,2.5271639823913574,-0.23471395671367645,0.0,0.0,0.0,0.0,0.0,0.0,0.0,-0.15892924023247962,0.35404609951266625,0.11476807607129082,0.4074767606157939,-0.16057533080915212,0.12210069707810488,-0.2106811641438523,0.17256498251755564,-0.48766878122195856,-0.1114665592816683,-1.9464599343517368,0.13361134407917657,2.595550359778934,0.94525066247748,0.1728802376190821,-0.48752024683155326,-0.11147110072896137,-1.9463801863486305,0.1336059019074957,2.595550359778934,0.9452445589611904,0.00036625061211670946,-0.0003752167241672222,-0.0007791017598508119,0.00022045814441316617,-4.013827791860886e-05,-0.0001407704693709465,0.0015954522290757267,0.0,0.0,0.0,0.0,0.0,0.0,0.0,0.0003152551015264682,0.00014853439040529715,-4.5414472930604965e-06,7.97480031062836e-05,-5.442171680886121e-06,0.0,-6.103516289601707e-06,-0.00036625061211670946,0.0003752167241672222,0.0007791017598508119,-0.00022045814441316617,4.013827791860886e-05,0.0001407704693709465,-0.0015954522290757267,0.17287558317184448,11.973108291625977,-1.3425629138946533,-21.693452835083008,-0.3738303780555725,-2.5271639823913574,0.23471395671367645,0
65,0.3200035095214844,-0.14510458707809448,-12.000879287719727,1.3425629138946533,21.717256546020508,0.3793235421180725,2.5207552909851074,-0.20724813640117645,0.0,0.0,0.0,0.0,0.0,0.0,0.0,-0.1560031073265029,0.3512667054730697,0.12248041793327266,0.407620372351887,-0.16105486584843057,0.12239657300189231,-0.20929474268961815,0.17256101871179022,-0.4876668323801274,-0.11146442860792521,-1.946461604787592,0.1336107337276141,2.595551071855757,0.9452476107196676,0.1728802376190821,-0.48752024683155326,-0.11147110072896137,-1.9463801863486305,0.1336059019074957,2.595550359778934,0.9452445589611904,-0.0007090864912843538,0.0005412480543314249,-0.0004083894291860115,-0.000664816556333335,-0.00030106598257408995,0.00015320716252973738,0.0003270192008749043,0.0,0.0,0.0,0.0,0.0,0.0,0.0,0.0003192189072918905,0.00014658554857416295,-6.672121036152556e-06,8.141843896147805e-05,-4.831820118400554e-06,-7.120768228396912e-07,-3.051758477146116e-06,0.0007090864912843538,-0.0005412480543314249,0.0004083894291860115,0.000664816556333335,0.00030106598257408995,-0.00015320716252973738,-0.0003270192008749043,0.14510458707809448,12.000879287719727,-1.3425629138946533,-21.717256546020508,-0.3793235421180725,-2.5207552909851074,0.20724813640117645,0
66,0.3250088691711426,-0.14510458707809448,-12.000879287719727,1.3425629138946533,21.717256546020508,0.3793235421180725,2.5207552909851074,-0.20724813640117645,0.0,0.0,0.0,0.0,0.0,0.0,0.0,-0.1560031073265029,0.3512667054730697,0.12248041793327266,0.407620372351887,-0.16105486584843057,0.12239657300189231,-0.20929474268961815,0.17256101871179022,-0.4876668323801274,-0.11146442860792521,-1.946461604787592,0.1336107337276141,2.595551071855757,0.9452476107196676,0.1728802376190821,-0.48752024683155326,-0.11147110072896137,-1.9463801863486305,0.1336059019074957,2.595550359778934,0.9452445589611904,-0.0007090864912843538,0.0005412480543314249,-0.0004083894291860115,-0.000664816556333335,-0.00030106598257408995,0.00015320716252973738,0.0003270192008749043,0.0,0.0,0.0,0.0,0.0,0.0,0.0,0.0003192189072918905,0.00014658554857416295,-6.672121036152556e-06,8.141843896147805e-05,-4.831820118400554e-06,-7.120768228396912e-07,-3.051758477146116e-06,0.0007090864912843538,-0.0005412480543314249,0.0004083894291860115,0.000664816556333335,0.00030106598257408995,-0.00015320716252973738,-0.0003270192008749043,0.14510458707809448,12.000879287719727,-1.3425629138946533,-21.717256546020508,-0.3793235421180725,-2.5207552909851074,0.20724813640117645,0
67,0.3300039768218994,-0.14510458707809448,-12.000879287719727,1.3425629138946533,21.717256546020508,0.3793235421180725,2.5207552909851074,-0.20724813640117645,0.0,0.0,0.0,0.0,0.0,0.0,0.0,-0.1560031073265029,0.3512667054730697,0.12248041793327266,0.407620372351887,-0.16105486584843057,0.12239657300189231,-0.20929474268961815,0.17256101871179022,-0.4876668323801274,-0.11146442860792521,-1.946461604787592,0.1336107337276141,2.595551071855757,0.9452476107196676,0.1728802376190821,-0.48752024683155326,-0.11147110072896137,-1.9463801863486305,0.1336059019074957,2.595550359778934,0.9452445589611904,-0.0007090864912843538,0.0005412480543314249,-0.0004083894291860115,-0.000664816556333335,-0.00030106598257408995,0.00015320716252973738,0.0003270192008749043,0.0,0.0,0.0,0.0,0.0,0.0,0.0,0.0003192189072918905,0.00014658554857416295,-6.672121036152556e-06,8.141843896147805e-05,-4.831820118400554e-06,-7.120768228396912e-07,-3.051758477146116e-06,0.0007090864912843538,-0.0005412480543314249,0.0004083894291860115,0.000664816556333335,0.00030106598257408995,-0.00015320716252973738,-0.0003270192008749043,0.14510458707809448,12.000879287719727,-1.3425629138946533,-21.717256546020508,-0.3793235421180725,-2.5207552909851074,0.20724813640117645,0
68,0.335040807723999,-0.14510458707809448,-11.973108291625977,1.3425629138946533,21.693452835083008,0.3738303780555725,2.5207552909851074,-0.17337362468242645,0.0,0.0,0.0,0.0,0.0,0.0,0.0,-0.15620153131327433,0.35062546179457615,0.12147966753497953,0.40691147481748213,-0.16088292085782532,0.12286053393976665,-0.2086226545521409,0.17256102050053002,-0.48766878122195856,-0.11146726942585417,-1.9464599343517368,0.13361134407917657,2.595551071855757,0.9452438602940332,0.1728802376190821,-0.48752024683155326,-0.11147110072896137,-1.9463801863486305,0.1336059019074957,2.595550359778934,0.9452445589611904,-0.0002189852237449758,-0.00017601479141624935,-0.00038468794804781347,0.00020601841115264882,4.9844637507272286e-05,-7.597368040762957e-05,-0.0007874060322888257,0.0,0.0,0.0,0.0,0.0,0.0,0.0,0.00031921711855209534,0.00014853439040529715,-3.831303107201811e-06,7.97480031062836e-05,-5.442171680886121e-06,-7.120768228396912e-07,6.986671572395409e-07,0.0002189852237449758,0.00017601479141624935,0.00038468794804781347,-0.00020601841115264882,-4.9844637507272286e-05,7.597368040762957e-05,0.0007874060322888257,0.14510458707809448,11.973108291625977,-1.3425629138946533,-21.693452835083008,-0.3738303780555725,-2.5207552909851074,0.17337362468242645,0
69,0.34001970291137695,-0.14510458707809448,-11.973108291625977,1.3425629138946533,21.693452835083008,0.3738303780555725,2.5207552909851074,-0.17337362468242645,0.0,0.0,0.0,0.0,0.0,0.0,0.0,-0.15620153131327433,0.35062546179457615,0.12147966753497953,0.40691147481748213,-0.16088292085782532,0.12286053393976665,-0.2086226545521409,0.17256102050053002,-0.48766878122195856,-0.11146726942585417,-1.9464599343517368,0.13361134407917657,2.595551071855757,0.9452438602940332,0.1728802376190821,-0.48752024683155326,-0.11147110072896137,-1.9463801863486305,0.1336059019074957,2.595550359778934,0.9452445589611904,-0.0002189852237449758,-0.00017601479141624935,-0.00038468794804781347,0.00020601841115264882,4.9844637507272286e-05,-7.597368040762957e-05,-0.0007874060322888257,0.0,0.0,0.0,0.0,0.0,0.0,0.0,0.00031921711855209534,0.00014853439040529715,-3.831303107201811e-06,7.97480031062836e-05,-5.442171680886121e-06,-7.120768228396912e-07,6.986671572395409e-07,0.0002189852237449758,0.00017601479141624935,0.00038468794804781347,-0.00020601841115264882,-4.9844637507272286e-05,7.597368040762957e-05,0.0007874060322888257,0.14510458707809448,11.973108291625977,-1.3425629138946533,-21.693452835083008,-0.3738303780555725,-2.5207552909851074,0.17337362468242645,0
70,0.34514689445495605,-0.14510458707809448,-11.949304580688477,1.3147919178009033,21.717256546020508,0.3674216866493225,2.5271639823913574,-0.19351522624492645,0.0,0.0,0.0,0.0,0.0,0.0,0.0,-0.15831859582432808,0.35545902618141206,0.11989049968320889,0.40456437841799264,-0.1610470484223279,0.1227902050533048,-0.20844773606409467,0.1725609162739216,-0.48767045165781386,-0.11146487338125874,-1.946461604787592,0.1336120561559995,2.595550359778934,0.945246084840837,0.1728802376190821,-0.48752024683155326,-0.11147110072896137,-1.9463801863486305,0.1336059019074957,2.595550359778934,0.9452445589611904,-0.0005615360400797789,-7.060739291263278e-05,0.00010088190929390593,-0.0001986585532251175,0.00021400882562787015,-0.0002770032080367684,-0.0003129237868021357,0.0,0.0,0.0,0.0,0.0,0.0,0.0,0.0003193213451605226,0.0001502048262606026,-6.2273477026281165e-06,8.141843896147805e-05,-6.154248503809079e-06,0.0,-1.5258796466355307e-06,0.0005615360400797789,7.060739291263278e-05,-0.00010088190929390593,0.0001986585532251175,-0.00021400882562787015,0.0002770032080367684,0.0003129237868021357,0.14510458707809448,11.949304580688477,-1.3147919178009033,-21.717256546020508,-0.3674216866493225,-2.5271639823913574,0.19351522624492645,0
71,0.34999608993530273,-0.14510458707809448,-11.949304580688477,1.3147919178009033,21.717256546020508,0.3674216866493225,2.5271639823913574,-0.19351522624492645,0.0,0.0,0.0,0.0,0.0,0.0,0.0,-0.15831859582432808,0.35545902618141206,0.11989049968320889,0.40456437841799264,-0.1610470484223279,0.1227902050533048,-0.20844773606409467,0.1725609162739216,-0.48767045165781386,-0.11146487338125874,-1.946461604787592,0.1336120561559995,2.595550359778934,0.945246084840837,0.1728802376190821,-0.48752024683155326,-0.11147110072896137,-1.9463801863486305,0.1336059019074957,2.595550359778934,0.9452445589611904,-0.0005615360400797789,-7.060739291263278e-05,0.00010088190929390593,-0.0001986585532251175,0.00021400882562787015,-0.0002770032080367684,-0.0003129237868021357,0.0,0.0,0.0,0.0,0.0,0.0,0.0,0.0003193213451605226,0.0001502048262606026,-6.2273477026281165e-06,8.141843896147805e-05,-6.154248503809079e-06,0.0,-1.5258796466355307e-06,0.0005615360400797789,7.060739291263278e-05,-0.00010088190929390593,0.0001986585532251175,-0.00021400882562787015,0.0002770032080367684,0.0003129237868021357,0.14510458707809448,11.949304580688477,-1.3147919178009033,-21.717256546020508,-0.3674216866493225,-2.5271639823913574,0.19351522624492645,0
72,0.3550095558166504,-0.09352988004684448,-11.973108291625977,1.3147919178009033,21.717256546020508,0.3674216866493225,2.5207552909851074,-0.15964071452617645,0.0,0.0,0.0,0.0,0.0,0.0,0.0,-0.15578034815848496,0.34692585202888593,0.12226533504652633,0.40967006700352687,-0.16125371976190309,0.12350877527873118,-0.20938586865534742,0.17255779602333562,-0.48766878122195856,-0.11146255836376559,-1.946461604787592,0.1336120561559995,2.595551071855757,0.9452412613679965,0.1728802376190821,-0.48752024683155326,-0.11147110072896137,-1.9463801863486305,0.1336059019074957,2.595550359778934,0.9452445589611904,-0.0011140824225279527,-0.00016523654778788878,-0.00013969080957473384,-0.0005336957154482156,0.00011217162341039765,9.49464411765198e-05,-0.0017977170570645776,0.0,0.0,0.0,0.0,0.0,0.0,0.0,0.00032244159574648656,0.00014853439040529715,-8.542365195776669e-06,8.141843896147805e-05,-6.154248503809079e-06,-7.120768228396912e-07,3.29759319395162e-06,0.0011140824225279527,0.00016523654778788878,0.00013969080957473384,0.0005336957154482156,-0.00011217162341039765,-9.49464411765198e-05,0.0017977170570645776,0.09352988004684448,11.973108291625977,-1.3147919178009033,-21.717256546020508,-0.3674216866493225,-2.5207552909851074,0.15964071452617645,0
73,0.35999298095703125,-0.09352988004684448,-11.973108291625977,1.3147919178009033,21.717256546020508,0.3674216866493225,2.5207552909851074,-0.15964071452617645,0.0,0.0,0.0,0.0,0.0,0.0,0.0,-0.15578034815848496,0.34692585202888593,0.12226533504652633,0.40967006700352687,-0.16125371976190309,0.12350877527873118,-0.20938586865534742,0.17255779602333562,-0.48766878122195856,-0.11146255836376559,-1.946461604787592,0.1336120561559995,2.595551071855757,0.9452412613679965,0.1728802376190821,-0.48752024683155326,-0.11147110072896137,-1.9463801863486305,0.1336059019074957,2.595550359778934,0.9452445589611904,-0.0011140824225279527,-0.00016523654778788878,-0.00013969080957473384,-0.0005336957154482156,0.00011217162341039765,9.49464411765198e-05,-0.0017977170570645776,0.0,0.0,0.0,0.0,0.0,0.0,0.0,0.00032244159574648656,0.00014853439040529715,-8.542365195776669e-06,8.141843896147805e-05,-6.154248503809079e-06,-7.120768228396912e-07,3.29759319395162e-06,0.0011140824225279527,0.00016523654778788878,0.00013969080957473384,0.0005336957154482156,-0.00011217162341039765,-9.49464411765198e-05,0.0017977170570645776,0.09352988004684448,11.973108291625977,-1.3147919178009033,-21.717256546020508,-0.3674216866493225,-2.5207552909851074,0.15964071452617645,0
74,0.3650071620941162,-0.09352988004684448,-11.925500869750977,1.2909882068634033,21.717256546020508,0.3857322335243225,2.5335726737976074,-0.17337362468242645,0.0,0.0,0.0,0.0,0.0,0.0,0.0,-0.1526666006932662,0.3625732371433113,0.11882721919720082,0.40132799547524384,-0.1610857573822168,0.12208026987747002,-0.20918016927530195,0.17256020043883558,-0.4876721220936691,-0.11146301910567033,-1.946461604787592,0.13361002165079117,2.595549647702111,0.9452438468790505,0.1728802376190821,-0.48752024683155326,-0.11147110072896137,-1.9463801863486305,0.1336059019074957,2.595550359778934,0.9452445589611904,-0.0013203619116364227,-0.00046396360851588977,0.0003878991115135901,-0.0010819338882466245,-0.0003634301627608667,-0.0004119339723326041,-0.002384298937278412,0.0,0.0,0.0,0.0,0.0,0.0,0.0,0.00032003718024653516,0.00015187526211585256,-8.081623291036899e-06,8.141843896147805e-05,-4.119743295477596e-06,7.120768228396912e-07,7.120821399198007e-07,0.0013203619116364227,0.00046396360851588977,-0.0003878991115135901,0.0010819338882466245,0.0003634301627608667,0.0004119339723326041,0.002384298937278412,0.09352988004684448,11.925500869750977,-1.2909882068634033,-21.717256546020508,-0.3857322335243225,-2.5335726737976074,0.17337362468242645,0
75,0.3700881004333496,-0.09352988004684448,-11.925500869750977,1.2909882068634033,21.717256546020508,0.3857322335243225,2.5335726737976074,-0.17337362468242645,0.0,0.0,0.0,0.0,0.0,0.0,0.0,-0.1526666006932662,0.3625732371433113,0.11882721919720082,0.40132799547524384,-0.1610857573822168,0.12208026987747002,-0.20918016927530195,0.17256020043883558,-0.4876721220936691,-0.11146301910567033,-1.946461604787592,0.13361002165079117,2.595549647702111,0.9452438468790505,0.1728802376190821,-0.48752024683155326,-0.11147110072896137,-1.9463801863486305,0.1336059019074957,2.595550359778934,0.9452445589611904,-0.0013203619116364227,-0.00046396360851588977,0.0003878991115135901,-0.0010819338882466245,-0.0003634301627608667,-0.0004119339723326041,-0.002384298937278412,0.0,0.0,0.0,0.0,0.0,0.0,0.0,0.00032003718024653516,0.00015187526211585256,-8.081623291036899e-06,8.141843896147805e-05,-4.119743295477596e-06,7.120768228396912e-07,7.120821399198007e-07,0.0013203619116364227,0.00046396360851588977,-0.0003878991115135901,0.0010819338882466245,0.0003634301627608667,0.0004119339723326041,0.002384298937278412,0.09352988004684448,11.925500869750977,-1.2909882068634033,-21.717256546020508,-0.3857322335243225,-2.5335726737976074,0.17337362468242645,0
76,0.37502479553222656,-0.09352988004684448,-11.925500869750977,1.2909882068634033,21.717256546020508,0.3857322335243225,2.5335726737976074,-0.17337362468242645,0.0,0.0,0.0,0.0,0.0,0.0,0.0,-0.1526666006932662,0.3625732371433113,0.11882721919720082,0.40132799547524384,-0.1610857573822168,0.12208026987747002,-0.20918016927530195,0.17256020043883558,-0.4876721220936691,-0.11146301910567033,-1.946461604787592,0.13361002165079117,2.595549647702111,0.9452438468790505,0.1728802376190821,-0.48752024683155326,-0.11147110072896137,-1.9463801863486305,0.1336059019074957,2.595550359778934,0.9452445589611904,-0.0013203619116364227,-0.00046396360851588977,0.0003878991115135901,-0.0010819338882466245,-0.0003634301627608667,-0.0004119339723326041,-0.002384298937278412,0.0,0.0,0.0,0.0,0.0,0.0,0.0,0.00032003718024653516,0.00015187526211585256,-8.081623291036899e-06,8.141843896147805e-05,-4.119743295477596e-06,7.120768228396912e-07,7.120821399198007e-07,0.0013203619116364227,0.00046396360851588977,-0.0003878991115135901,0.0010819338882466245,0.0003634301627608667,0.0004119339723326041,0.002384298937278412,0.09352988004684448,11.925500869750977,-1.2909882068634033,-21.717256546020508,-0.3857322335243225,-2.5335726737976074,0.17337362468242645,0
77,0.3800008296966553,-0.09352988004684448,-11.925500869750977,1.2909882068634033,21.717256546020508,0.3857322335243225,2.5335726737976074,-0.17337362468242645,0.0,0.0,0.0,0.0,0.0,0.0,0.0,-0.1526666006932662,0.3625732371433113,0.11882721919720082,0.40132799547524384,-0.1610857573822168,0.12208026987747002,-0.20918016927530195,0.17256020043883558,-0.4876721220936691,-0.11146301910567033,-1.946461604787592,0.13361002165079117,2.595549647702111,0.9452438468790505,0.1728802376190821,-0.48752024683155326,-0.11147110072896137,-1.9463801863486305,0.1336059019074957,2.595550359778934,0.9452445589611904,-0.0013203619116364227,-0.00046396360851588977,0.0003878991115135901,-0.0010819338882466245,-0.0003634301627608667,-0.0004119339723326041,-0.002384298937278412,0.0,0.0,0.0,0.0,0.0,0.0,0.0,0.00032003718024653516,0.00015187526211585256,-8.081623291036899e-06,8.141843896147805e-05,-4.119743295477596e-06,7.120768228396912e-07,7.120821399198007e-07,0.0013203619116364227,0.00046396360851588977,-0.0003878991115135901,0.0010819338882466245,0.0003634301627608667,0.0004119339723326041,0.002384298937278412,0.09352988004684448,11.925500869750977,-1.2909882068634033,-21.717256546020508,-0.3857322335243225,-2.5335726737976074,0.17337362468242645,0
78,0.38499903678894043,-0.12130087614059448,-11.925500869750977,1.3147919178009033,21.693452835083008,0.3793235421180725,2.5207552909851074,-0.19351522624492645,0.0,0.0,0.0,0.0,0.0,0.0,0.0,-0.14504700112275626,0.3569192334170482,0.12874329424417266,0.40622168386102714,-0.16113790920115525,0.12317863983235328,-0.20992531292248315,0.17256002382727015,-0.4876721220936691,-0.11146247944176296,-1.9464599343517368,0.1336107337276141,2.595551071855757,0.9452460848407613,0.1728802376190821,-0.48752024683155326,-0.11147110072896137,-1.9463801863486305,0.1336059019074957,2.595550359778934,0.9452445589611904,-0.000578614579259681,-0.0006371604950054326,0.0005255439078989978,2.234376149708176e-05,-0.0003107372098375624,-4.581490616865809e-06,-0.0003866963451390547,0.0,0.0,0.0,0.0,0.0,0.0,0.0,0.00032021379181196297,0.00015187526211585256,-8.62128719840427e-06,7.97480031062836e-05,-4.831820118400554e-06,-7.120768228396912e-07,-1.5258795709183204e-06,0.000578614579259681,0.0006371604950054326,-0.0005255439078989978,-2.234376149708176e-05,0.0003107372098375624,4.581490616865809e-06,0.0003866963451390547,0.12130087614059448,11.925500869750977,-1.3147919178009033,-21.693452835083008,-0.3793235421180725,-2.5207552909851074,0.19351522624492645,0
79,0.39000535011291504,-0.12130087614059448,-11.925500869750977,1.3147919178009033,21.693452835083008,0.3793235421180725,2.5207552909851074,-0.19351522624492645,0.0,0.0,0.0,0.0,0.0,0.0,0.0,-0.14504700112275626,0.3569192334170482,0.12874329424417266,0.40622168386102714,-0.16113790920115525,0.12317863983235328,-0.20992531292248315,0.17256002382727015,-0.4876721220936691,-0.11146247944176296,-1.9464599343517368,0.1336107337276141,2.595551071855757,0.9452460848407613,0.1728802376190821,-0.48752024683155326,-0.11147110072896137,-1.9463801863486305,0.1336059019074957,2.595550359778934,0.9452445589611904,-0.000578614579259681,-0.0006371604950054326,0.0005255439078989978,2.234376149708176e-05,-0.0003107372098375624,-4.581490616865809e-06,-0.0003866963451390547,0.0,0.0,0.0,0.0,0.0,0.0,0.0,0.00032021379181196297,0.00015187526211585256,-8.62128719840427e-06,7.97480031062836e-05,-4.831820118400554e-06,-7.120768228396912e-07,-1.5258795709183204e-06,0.000578614579259681,0.0006371604950054326,-0.0005255439078989978,-2.234376149708176e-05,0.0003107372098375624,4.581490616865809e-06,0.0003866963451390547,0.12130087614059448,11.925500869750977,-1.3147919178009033,-21.693452835083008,-0.3793235421180725,-2.5207552909851074,0.19351522624492645,0
80,0.3950071334838867,-0.17287558317184448,-11.949304580688477,1.3147919178009033,21.693452835083008,0.3793235421180725,2.5143465995788574,-0.21457235515117645,0.0,0.0,0.0,0.0,0.0,0.0,0.0,-0.15202330247666396,0.3630966048581428,0.1177827068341642,0.4033133270492025,-0.1602960604247253,0.12276198690073269,-0.21146827466341192,0.1725649796058284,-0.48767045165781386,-0.11146461040359681,-1.9464599343517368,0.1336107337276141,2.5955517839325797,0.9452484245217508,0.1728802376190821,-0.48752024683155326,-0.11147110072896137,-1.9463801863486305,0.1336059019074957,2.595550359778934,0.9452445589611904,0.00047117746943977143,-5.691908478935021e-05,-0.00024586581346307815,-0.00017292680595334462,-0.00017050049138813997,0.00032505188567162206,8.353221265947141e-05,0.0,0.0,0.0,0.0,0.0,0.0,0.0,0.0003152580132537164,0.0001502048262606026,-6.490325364552629e-06,7.97480031062836e-05,-4.831820118400554e-06,-1.4241536456793824e-06,-3.865560560423198e-06,-0.00047117746943977143,5.691908478935021e-05,0.00024586581346307815,0.00017292680595334462,0.00017050049138813997,-0.00032505188567162206,-8.353221265947141e-05,0.17287558317184448,11.949304580688477,-1.3147919178009033,-21.693452835083008,-0.3793235421180725,-2.5143465995788574,0.21457235515117645,0
