rezayati/contactInterpretation/dataset/franka_main/labeled_data/link4/d6_8.csv
index,time,tau_J0,tau_J1,tau_J2,tau_J3,tau_J4,tau_J5,tau_J6,tau_J_d0,tau_J_d1,tau_J_d2,tau_J_d3,tau_J_d4,tau_J_d5,tau_J_d6,tau_ext0,tau_ext1,tau_ext2,tau_ext3,tau_ext4,tau_ext5,tau_ext6,q0,q1,q2,q3,q4,q5,q6,q_d0,q_d1,q_d2,q_d3,q_d4,q_d5,q_d6,dq0,dq1,dq2,dq3,dq4,dq5,dq6,dq_d0,dq_d1,dq_d2,dq_d3,dq_d4,dq_d5,dq_d6,e0,e1,e2,e3,e4,e5,e6,de0,de1,de2,de3,de4,de5,de6,etau_J0,etau_J1,etau_J2,etau_J3,etau_J4,etau_J5,etau_J6,label
1,0.0,-0.3752071261405945,-22.772058486938477,-0.1253325641155243,14.254793167114258,0.1357932686805725,2.1453890800476074,-0.34457725286483765,0.0,0.0,0.0,0.0,0.0,0.0,0.0,-0.40951989595393895,0.016945154091477028,-0.23173114480822044,0.36213862396356905,-0.11304445045766795,-0.04600757357640632,-0.3714422512120568,1.675606474241503,0.05251661829362835,0.02999884521274257,-2.7525209700643534,0.034250210255384446,2.7663727226787143,0.7691763390553568,1.6754973547542302,0.052104326824870026,0.029969505109285054,-2.752394845125968,0.0342448039870148,2.7663679543071322,0.7691630533470046,-0.0007436190454650673,0.00040478758424106854,-0.0005082634235964462,-0.0010955885896089918,-0.0005760112586858611,-0.00018386411114328433,-0.0007971288087538065,0.0,0.0,0.0,0.0,0.0,0.0,0.0,-0.00010911948727287957,-0.00041229146875832595,-2.9340103457516087e-05,0.00012612493838526362,-5.406268369645417e-06,-4.76837158203125e-06,-1.3285708352128722e-05,0.0007436190454650673,-0.00040478758424106854,0.0005082634235964462,0.0010955885896089918,0.0005760112586858611,0.00018386411114328433,0.0007971288087538065,0.3752071261405945,22.772058486938477,0.1253325641155243,-14.254793167114258,-0.1357932686805725,-2.1453890800476074,0.34457725286483765,0
2,0.0046274662017822266,-0.3752071261405945,-22.772058486938477,-0.1253325641155243,14.254793167114258,0.1357932686805725,2.1453890800476074,-0.34457725286483765,0.0,0.0,0.0,0.0,0.0,0.0,0.0,-0.40951989595393895,0.016945154091477028,-0.23173114480822044,0.36213862396356905,-0.11304445045766795,-0.04600757357640632,-0.3714422512120568,1.675606474241503,0.05251661829362835,0.02999884521274257,-2.7525209700643534,0.034250210255384446,2.7663727226787143,0.7691763390553568,1.6754973547542302,0.052104326824870026,0.029969505109285054,-2.752394845125968,0.0342448039870148,2.7663679543071322,0.7691630533470046,-0.0007436190454650673,0.00040478758424106854,-0.0005082634235964462,-0.0010955885896089918,-0.0005760112586858611,-0.00018386411114328433,-0.0007971288087538065,0.0,0.0,0.0,0.0,0.0,0.0,0.0,-0.00010911948727287957,-0.00041229146875832595,-2.9340103457516087e-05,0.00012612493838526362,-5.406268369645417e-06,-4.76837158203125e-06,-1.3285708352128722e-05,0.0007436190454650673,-0.00040478758424106854,0.0005082634235964462,0.0010955885896089918,0.0005760112586858611,0.00018386411114328433,0.0007971288087538065,0.3752071261405945,22.772058486938477,0.1253325641155243,-14.254793167114258,-0.1357932686805725,-2.1453890800476074,0.34457725286483765,0
3,0.009620428085327148,-0.3752071261405945,-22.772058486938477,-0.1253325641155243,14.254793167114258,0.1357932686805725,2.1453890800476074,-0.34457725286483765,0.0,0.0,0.0,0.0,0.0,0.0,0.0,-0.40951989595393895,0.016945154091477028,-0.23173114480822044,0.36213862396356905,-0.11304445045766795,-0.04600757357640632,-0.3714422512120568,1.675606474241503,0.05251661829362835,0.02999884521274257,-2.7525209700643534,0.034250210255384446,2.7663727226787143,0.7691763390553568,1.6754973547542302,0.052104326824870026,0.029969505109285054,-2.752394845125968,0.0342448039870148,2.7663679543071322,0.7691630533470046,-0.0007436190454650673,0.00040478758424106854,-0.0005082634235964462,-0.0010955885896089918,-0.0005760112586858611,-0.00018386411114328433,-0.0007971288087538065,0.0,0.0,0.0,0.0,0.0,0.0,0.0,-0.00010911948727287957,-0.00041229146875832595,-2.9340103457516087e-05,0.00012612493838526362,-5.406268369645417e-06,-4.76837158203125e-06,-1.3285708352128722e-05,0.0007436190454650673,-0.00040478758424106854,0.0005082634235964462,0.0010955885896089918,0.0005760112586858611,0.00018386411114328433,0.0007971288087538065,0.3752071261405945,22.772058486938477,0.1253325641155243,-14.254793167114258,-0.1357932686805725,-2.1453890800476074,0.34457725286483765,0
4,0.014621257781982422,-0.3752071261405945,-22.772058486938477,-0.1253325641155243,14.254793167114258,0.1357932686805725,2.1453890800476074,-0.34457725286483765,0.0,0.0,0.0,0.0,0.0,0.0,0.0,-0.40951989595393895,0.016945154091477028,-0.23173114480822044,0.36213862396356905,-0.11304445045766795,-0.04600757357640632,-0.3714422512120568,1.675606474241503,0.05251661829362835,0.02999884521274257,-2.7525209700643534,0.034250210255384446,2.7663727226787143,0.7691763390553568,1.6754973547542302,0.052104326824870026,0.029969505109285054,-2.752394845125968,0.0342448039870148,2.7663679543071322,0.7691630533470046,-0.0007436190454650673,0.00040478758424106854,-0.0005082634235964462,-0.0010955885896089918,-0.0005760112586858611,-0.00018386411114328433,-0.0007971288087538065,0.0,0.0,0.0,0.0,0.0,0.0,0.0,-0.00010911948727287957,-0.00041229146875832595,-2.9340103457516087e-05,0.00012612493838526362,-5.406268369645417e-06,-4.76837158203125e-06,-1.3285708352128722e-05,0.0007436190454650673,-0.00040478758424106854,0.0005082634235964462,0.0010955885896089918,0.0005760112586858611,0.00018386411114328433,0.0007971288087538065,0.3752071261405945,22.772058486938477,0.1253325641155243,-14.254793167114258,-0.1357932686805725,-2.1453890800476074,0.34457725286483765,0
5,0.019620656967163086,-0.4267818331718445,-22.795862197875977,-0.2007109820842743,14.254793167114258,0.12389141321182251,2.1389803886413574,-0.37845176458358765,0.0,0.0,0.0,0.0,0.0,0.0,0.0,-0.41475628247246477,0.009408517611127437,-0.23942127164158206,0.3705100230070907,-0.11225404247952836,-0.04427940646544931,-0.37148443662386194,1.6756100679860557,0.05251828862122441,0.0300065773441446,-2.7525209731125693,0.03425153268376986,2.766373434755537,0.7691800927152143,1.6754973547542302,0.052104326824870026,0.029969505109285054,-2.752394845125968,0.0342448039870148,2.7663679543071322,0.7691630533470046,0.0003369120084203128,0.0003509274170148724,0.0007747913050287524,-0.0006847367988610306,-0.00014902140946155865,9.808816336817084e-06,0.0010128870306551276,0.0,0.0,0.0,0.0,0.0,0.0,0.0,-0.00011271323182548976,-0.00041396179635438263,-3.707223485954758e-05,0.00012612798660116553,-6.728696755060881e-06,-5.480448404870941e-06,-1.7039368209625927e-05,-0.0003369120084203128,-0.0003509274170148724,-0.0007747913050287524,0.0006847367988610306,0.00014902140946155865,-9.808816336817084e-06,-0.0010128870306551276,0.4267818331718445,22.795862197875977,0.2007109820842743,-14.254793167114258,-0.12389141321182251,-2.1389803886413574,0.37845176458358765,0
6,0.024621963500976562,-0.4267818331718445,-22.795862197875977,-0.2007109820842743,14.254793167114258,0.12389141321182251,2.1389803886413574,-0.37845176458358765,0.0,0.0,0.0,0.0,0.0,0.0,0.0,-0.41475628247246477,0.009408517611127437,-0.23942127164158206,0.3705100230070907,-0.11225404247952836,-0.04427940646544931,-0.37148443662386194,1.6756100679860557,0.05251828862122441,0.0300065773441446,-2.7525209731125693,0.03425153268376986,2.766373434755537,0.7691800927152143,1.6754973547542302,0.052104326824870026,0.029969505109285054,-2.752394845125968,0.0342448039870148,2.7663679543071322,0.7691630533470046,0.0003369120084203128,0.0003509274170148724,0.0007747913050287524,-0.0006847367988610306,-0.00014902140946155865,9.808816336817084e-06,0.0010128870306551276,0.0,0.0,0.0,0.0,0.0,0.0,0.0,-0.00011271323182548976,-0.00041396179635438263,-3.707223485954758e-05,0.00012612798660116553,-6.728696755060881e-06,-5.480448404870941e-06,-1.7039368209625927e-05,-0.0003369120084203128,-0.0003509274170148724,-0.0007747913050287524,0.0006847367988610306,0.00014902140946155865,-9.808816336817084e-06,-0.0010128870306551276,0.4267818331718445,22.795862197875977,0.2007109820842743,-14.254793167114258,-0.12389141321182251,-2.1389803886413574,0.37845176458358765,0
7,0.029621362686157227,-0.3752071261405945,-22.819665908813477,-0.1253325641155243,14.230989456176758,0.11748272180557251,2.1389803886413574,-0.39950889348983765,0.0,0.0,0.0,0.0,0.0,0.0,0.0,-0.40800367184196856,0.021150480188780893,-0.23697059499614137,0.35721251714404406,-0.11236591659616332,-0.04771629670627092,-0.37079745442094203,1.6756064741480463,0.05251995905707906,0.030000528756784342,-2.752519336253742,0.03425224476059278,2.766373434755537,0.7691838807782139,1.6754973547542302,0.052104326824870026,0.029969505109285054,-2.752394845125968,0.0342448039870148,2.7663679543071322,0.7691630533470046,-0.0008167351982523802,0.00030803629075421663,-0.0006212142059453625,-0.0002461000199391438,0.00035798758475437463,0.0006175815609772305,0.0011595601889087316,0.0,0.0,0.0,0.0,0.0,0.0,0.0,-0.00010911939381608171,-0.00041563223220903583,-3.1023647499288376e-05,0.00012449112777401794,-7.4407735779769e-06,-5.480448404870941e-06,-2.0827431209236025e-05,0.0008167351982523802,-0.00030803629075421663,0.0006212142059453625,0.0002461000199391438,-0.00035798758475437463,-0.0006175815609772305,-0.0011595601889087316,0.3752071261405945,22.819665908813477,0.1253325641155243,-14.230989456176758,-0.11748272180557251,-2.1389803886413574,0.39950889348983765,0
8,0.034620046615600586,-0.3752071261405945,-22.819665908813477,-0.1253325641155243,14.230989456176758,0.11748272180557251,2.1389803886413574,-0.39950889348983765,0.0,0.0,0.0,0.0,0.0,0.0,0.0,-0.40800367184196856,0.021150480188780893,-0.23697059499614137,0.35721251714404406,-0.11236591659616332,-0.04771629670627092,-0.37079745442094203,1.6756064741480463,0.05251995905707906,0.030000528756784342,-2.752519336253742,0.03425224476059278,2.766373434755537,0.7691838807782139,1.6754973547542302,0.052104326824870026,0.029969505109285054,-2.752394845125968,0.0342448039870148,2.7663679543071322,0.7691630533470046,-0.0008167351982523802,0.00030803629075421663,-0.0006212142059453625,-0.0002461000199391438,0.00035798758475437463,0.0006175815609772305,0.0011595601889087316,0.0,0.0,0.0,0.0,0.0,0.0,0.0,-0.00010911939381608171,-0.00041563223220903583,-3.1023647499288376e-05,0.00012449112777401794,-7.4407735779769e-06,-5.480448404870941e-06,-2.0827431209236025e-05,0.0008167351982523802,-0.00030803629075421663,0.0006212142059453625,0.0002461000199391438,-0.00035798758475437463,-0.0006175815609772305,-0.0011595601889087316,0.3752071261405945,22.819665908813477,0.1253325641155243,-14.230989456176758,-0.11748272180557251,-2.1389803886413574,0.39950889348983765,0
9,0.039620161056518555,-0.4029781222343445,-22.819665908813477,-0.1491362750530243,14.254793167114258,0.1293845772743225,2.1453890800476074,-0.39950889348983765,0.0,0.0,0.0,0.0,0.0,0.0,0.0,-0.40984608626018776,0.006916782535161541,-0.23834562329731324,0.3645891266226731,-0.11176595194254776,-0.0449222860978402,-0.3707811077118313,1.6756084230949995,0.05251995916533827,0.030002634425292846,-2.752523195338077,0.03425092233220736,2.7663727226787143,0.7691824687430787,1.6754973547542302,0.052104326824870026,0.029969505109285054,-2.752394845125968,0.0342448039870148,2.7663679543071322,0.7691630533470046,-0.0001323421847370679,-0.0003556978041978162,0.00018445709604304368,-0.001215046729025187,-0.00018334099778317983,-0.0002635514170843307,0.001324471555998277,0.0,0.0,0.0,0.0,0.0,0.0,0.0,-0.0001110683407692381,-0.000415632340468243,-3.312931600779265e-05,0.00012835021210877429,-6.118345192561436e-06,-4.76837158203125e-06,-1.9415396074085045e-05,0.0001323421847370679,0.0003556978041978162,-0.00018445709604304368,0.001215046729025187,0.00018334099778317983,0.0002635514170843307,-0.001324471555998277,0.4029781222343445,22.819665908813477,0.1491362750530243,-14.254793167114258,-0.1293845772743225,-2.1453890800476074,0.39950889348983765,0
10,0.0446321964263916,-0.4029781222343445,-22.819665908813477,-0.1491362750530243,14.254793167114258,0.1293845772743225,2.1453890800476074,-0.39950889348983765,0.0,0.0,0.0,0.0,0.0,0.0,0.0,-0.40984608626018776,0.006916782535161541,-0.23834562329731324,0.3645891266226731,-0.11176595194254776,-0.0449222860978402,-0.3707811077118313,1.6756084230949995,0.05251995916533827,0.030002634425292846,-2.752523195338077,0.03425092233220736,2.7663727226787143,0.7691824687430787,1.6754973547542302,0.052104326824870026,0.029969505109285054,-2.752394845125968,0.0342448039870148,2.7663679543071322,0.7691630533470046,-0.0001323421847370679,-0.0003556978041978162,0.00018445709604304368,-0.001215046729025187,-0.00018334099778317983,-0.0002635514170843307,0.001324471555998277,0.0,0.0,0.0,0.0,0.0,0.0,0.0,-0.0001110683407692381,-0.000415632340468243,-3.312931600779265e-05,0.00012835021210877429,-6.118345192561436e-06,-4.76837158203125e-06,-1.9415396074085045e-05,0.0001323421847370679,0.0003556978041978162,-0.00018445709604304368,0.001215046729025187,0.00018334099778317983,0.0002635514170843307,-0.001324471555998277,0.4029781222343445,22.819665908813477,0.1491362750530243,-14.254793167114258,-0.1293845772743225,-2.1453890800476074,0.39950889348983765,0
11,0.049651384353637695,-0.4267818331718445,-22.795862197875977,-0.1491362750530243,14.230989456176758,0.1357932686805725,2.1453890800476074,-0.39218467473983765,0.0,0.0,0.0,0.0,0.0,0.0,0.0,-0.410114184319866,0.003799384703338382,-0.2343226029853261,0.3647813159413771,-0.11142813008433737,-0.04503346928334137,-0.36998303285333045,1.6756094047660715,0.052518288729483616,0.030000610438943795,-2.752519327448082,0.034250210255384446,2.7663727226787143,0.7691816147181343,1.6754973547542302,0.052104326824870026,0.029969505109285054,-2.752394845125968,0.0342448039870148,2.7663679543071322,0.7691630533470046,0.0003472825163717023,-0.0005255440994850828,0.0005043404371720832,-0.00019597359625980504,-0.0005190391149872653,-0.00021680707488108775,0.001436780157734273,0.0,0.0,0.0,0.0,0.0,0.0,0.0,-0.00011205001184122487,-0.0004139619046135898,-3.11053296587413e-05,0.00012448232211381693,-5.406268369645417e-06,-4.76837158203125e-06,-1.8561371129655058e-05,-0.0003472825163717023,0.0005255440994850828,-0.0005043404371720832,0.00019597359625980504,0.0005190391149872653,0.00021680707488108775,-0.001436780157734273,0.4267818331718445,22.795862197875977,0.1491362750530243,-14.230989456176758,-0.1357932686805725,-2.1453890800476074,0.39218467473983765,0
12,0.054634809494018555,-0.4267818331718445,-22.795862197875977,-0.1491362750530243,14.230989456176758,0.1357932686805725,2.1453890800476074,-0.39218467473983765,0.0,0.0,0.0,0.0,0.0,0.0,0.0,-0.410114184319866,0.003799384703338382,-0.2343226029853261,0.3647813159413771,-0.11142813008433737,-0.04503346928334137,-0.36998303285333045,1.6756094047660715,0.052518288729483616,0.030000610438943795,-2.752519327448082,0.034250210255384446,2.7663727226787143,0.7691816147181343,1.6754973547542302,0.052104326824870026,0.029969505109285054,-2.752394845125968,0.0342448039870148,2.7663679543071322,0.7691630533470046,0.0003472825163717023,-0.0005255440994850828,0.0005043404371720832,-0.00019597359625980504,-0.0005190391149872653,-0.00021680707488108775,0.001436780157734273,0.0,0.0,0.0,0.0,0.0,0.0,0.0,-0.00011205001184122487,-0.0004139619046135898,-3.11053296587413e-05,0.00012448232211381693,-5.406268369645417e-06,-4.76837158203125e-06,-1.8561371129655058e-05,-0.0003472825163717023,0.0005255440994850828,-0.0005043404371720832,0.00019597359625980504,0.0005190391149872653,0.00021680707488108775,-0.001436780157734273,0.4267818331718445,22.795862197875977,0.1491362750530243,-14.230989456176758,-0.1357932686805725,-2.1453890800476074,0.39218467473983765,0
13,0.05962944030761719,-0.4267818331718445,-22.795862197875977,-0.1729399859905243,14.207185745239258,0.12389141321182251,2.1389803886413574,-0.39218467473983765,0.0,0.0,0.0,0.0,0.0,0.0,0.0,-0.4094309544271405,0.005434579526973875,-0.23082378911669266,0.36242355843763463,-0.11133763694613819,-0.045944735353074195,-0.368166700762165,1.6756100935269675,0.052517578440800045,0.03000178864314509,-2.752517876475142,0.03425153268376986,2.766373434755537,0.7691816142333905,1.6754973547542302,0.052104326824870026,0.029969505109285054,-2.752394845125968,0.0342448039870148,2.7663679543071322,0.7691630533470046,0.001074502867158328,0.00017410610400753586,0.0003392162942536841,0.0003912717463937439,-0.00012999613803063402,9.113861804306651e-05,0.0008961433462202779,0.0,0.0,0.0,0.0,0.0,0.0,0.0,-0.00011273877273731969,-0.0004132516159300187,-3.2283533860037045e-05,0.00012303134917379666,-6.728696755060881e-06,-5.480448404870941e-06,-1.8560886385854403e-05,-0.001074502867158328,-0.00017410610400753586,-0.0003392162942536841,-0.0003912717463937439,0.00012999613803063402,-9.113861804306651e-05,-0.0008961433462202779,0.4267818331718445,22.795862197875977,0.1729399859905243,-14.207185745239258,-0.12389141321182251,-2.1389803886413574,0.39218467473983765,0
14,0.06462717056274414,-0.4267818331718445,-22.795862197875977,-0.1729399859905243,14.207185745239258,0.12389141321182251,2.1389803886413574,-0.39218467473983765,0.0,0.0,0.0,0.0,0.0,0.0,0.0,-0.4094309544271405,0.005434579526973875,-0.23082378911669266,0.36242355843763463,-0.11133763694613819,-0.045944735353074195,-0.368166700762165,1.6756100935269675,0.052517578440800045,0.03000178864314509,-2.752517876475142,0.03425153268376986,2.766373434755537,0.7691816142333905,1.6754973547542302,0.052104326824870026,0.029969505109285054,-2.752394845125968,0.0342448039870148,2.7663679543071322,0.7691630533470046,0.001074502867158328,0.00017410610400753586,0.0003392162942536841,0.0003912717463937439,-0.00012999613803063402,9.113861804306651e-05,0.0008961433462202779,0.0,0.0,0.0,0.0,0.0,0.0,0.0,-0.00011273877273731969,-0.0004132516159300187,-3.2283533860037045e-05,0.00012303134917379666,-6.728696755060881e-06,-5.480448404870941e-06,-1.8560886385854403e-05,-0.001074502867158328,-0.00017410610400753586,-0.0003392162942536841,-0.0003912717463937439,0.00012999613803063402,-9.113861804306651e-05,-0.0008961433462202779,0.4267818331718445,22.795862197875977,0.1729399859905243,-14.207185745239258,-0.12389141321182251,-2.1389803886413574,0.39218467473983765,0
15,0.0696251392364502,-0.4029781222343445,-22.772058486938477,-0.1729399859905243,14.230989456176758,0.12389141321182251,2.1325716972351074,-0.39218467473983765,0.0,0.0,0.0,0.0,0.0,0.0,0.0,-0.40986144437883637,0.002982729097111272,-0.23404666741127236,0.3666300323758202,-0.11089972627267233,-0.045360742311210275,-0.3688617278546972,1.6756083975851932,0.052516618289618754,0.03000171012604657,-2.752521524903411,0.03425153268376986,2.7663741468323604,0.7691820851836674,1.6754973547542302,0.052104326824870026,0.029969505109285054,-2.752394845125968,0.0342448039870148,2.7663679543071322,0.7691630533470046,-0.00023601145472868803,-0.00017660061901943335,0.0001509725082306381,-8.808832669972869e-05,-0.00036069991792243546,0.0002709657086525785,0.0007466569619066179,0.0,0.0,0.0,0.0,0.0,0.0,0.0,-0.00011104283096297074,-0.00041229146474872774,-3.2205016761516214e-05,0.0001266797774430728,-6.728696755060881e-06,-6.192525228154722e-06,-1.9031836662741775e-05,0.00023601145472868803,0.00017660061901943335,-0.0001509725082306381,8.808832669972869e-05,0.00036069991792243546,-0.0002709657086525785,-0.0007466569619066179,0.4029781222343445,22.772058486938477,0.1729399859905243,-14.230989456176758,-0.12389141321182251,-2.1325716972351074,0.39218467473983765,0
16,0.07462310791015625,-0.4029781222343445,-22.772058486938477,-0.1729399859905243,14.230989456176758,0.12389141321182251,2.1325716972351074,-0.39218467473983765,0.0,0.0,0.0,0.0,0.0,0.0,0.0,-0.40986144437883637,0.002982729097111272,-0.23404666741127236,0.3666300323758202,-0.11089972627267233,-0.045360742311210275,-0.3688617278546972,1.6756083975851932,0.052516618289618754,0.03000171012604657,-2.752521524903411,0.03425153268376986,2.7663741468323604,0.7691820851836674,1.6754973547542302,0.052104326824870026,0.029969505109285054,-2.752394845125968,0.0342448039870148,2.7663679543071322,0.7691630533470046,-0.00023601145472868803,-0.00017660061901943335,0.0001509725082306381,-8.808832669972869e-05,-0.00036069991792243546,0.0002709657086525785,0.0007466569619066179,0.0,0.0,0.0,0.0,0.0,0.0,0.0,-0.00011104283096297074,-0.00041229146474872774,-3.2205016761516214e-05,0.0001266797774430728,-6.728696755060881e-06,-6.192525228154722e-06,-1.9031836662741775e-05,0.00023601145472868803,0.00017660061901943335,-0.0001509725082306381,8.808832669972869e-05,0.00036069991792243546,-0.0002709657086525785,-0.0007466569619066179,0.4029781222343445,22.772058486938477,0.1729399859905243,-14.230989456176758,-0.12389141321182251,-2.1325716972351074,0.39218467473983765,0
17,0.07962489128112793,-0.4783565402030945,-22.772058486938477,-0.1491362750530243,14.230989456176758,0.11748272180557251,2.1389803886413574,-0.37845176458358765,0.0,0.0,0.0,0.0,0.0,0.0,0.0,-0.4105374707638752,0.012819058085229916,-0.23424837241599006,0.36125290982583813,-0.11151265662927036,-0.046678828786134434,-0.36862692283315396,1.6756137128083977,0.052516618185369124,0.030002900683760877,-2.75251938612306,0.03425224476059278,2.766373434755537,0.7691800884109752,1.6754973547542302,0.052104326824870026,0.029969505109285054,-2.752394845125968,0.0342448039870148,2.7663679543071322,0.7691630533470046,0.0012747781341040495,0.0001904082332882521,-0.0001095151538518499,-0.0005470569569107978,0.00011141625661774752,0.00010185238605290434,0.0007133632343531277,0.0,0.0,0.0,0.0,0.0,0.0,0.0,-0.00011635805416743139,-0.000412291360499098,-3.3395574475823114e-05,0.00012454099709202637,-7.4407735779769e-06,-5.480448404870941e-06,-1.7035063970549658e-05,-0.0012747781341040495,-0.0001904082332882521,0.0001095151538518499,0.0005470569569107978,-0.00011141625661774752,-0.00010185238605290434,-0.0007133632343531277,0.4783565402030945,22.772058486938477,0.1491362750530243,-14.230989456176758,-0.11748272180557251,-2.1389803886413574,0.37845176458358765,0
18,0.0846245288848877,-0.4783565402030945,-22.772058486938477,-0.1491362750530243,14.230989456176758,0.11748272180557251,2.1389803886413574,-0.37845176458358765,0.0,0.0,0.0,0.0,0.0,0.0,0.0,-0.4105374707638752,0.012819058085229916,-0.23424837241599006,0.36125290982583813,-0.11151265662927036,-0.046678828786134434,-0.36862692283315396,1.6756137128083977,0.052516618185369124,0.030002900683760877,-2.75251938612306,0.03425224476059278,2.766373434755537,0.7691800884109752,1.6754973547542302,0.052104326824870026,0.029969505109285054,-2.752394845125968,0.0342448039870148,2.7663679543071322,0.7691630533470046,0.0012747781341040495,0.0001904082332882521,-0.0001095151538518499,-0.0005470569569107978,0.00011141625661774752,0.00010185238605290434,0.0007133632343531277,0.0,0.0,0.0,0.0,0.0,0.0,0.0,-0.00011635805416743139,-0.000412291360499098,-3.3395574475823114e-05,0.00012454099709202637,-7.4407735779769e-06,-5.480448404870941e-06,-1.7035063970549658e-05,-0.0012747781341040495,-0.0001904082332882521,0.0001095151538518499,0.0005470569569107978,-0.00011141625661774752,-0.00010185238605290434,-0.0007133632343531277,0.4783565402030945,22.772058486938477,0.1491362750530243,-14.230989456176758,-0.11748272180557251,-2.1389803886413574,0.37845176458358765,0
19,0.08962464332580566,-0.4029781222343445,-22.819665908813477,-0.1729399859905243,14.230989456176758,0.1293845772743225,2.1453890800476074,-0.37845176458358765,0.0,0.0,0.0,0.0,0.0,0.0,0.0,-0.41587392594097655,0.005183876509206666,-0.23619912139724586,0.3692892006472965,-0.11177601523889905,-0.04503226011888359,-0.3673040335868251,1.6756084230950001,0.05251995916533827,0.03000465780086099,-2.752519299624747,0.03425092233220736,2.7663727226787143,0.7691801020824564,1.6754973547542302,0.052104326824870026,0.029969505109285054,-2.752394845125968,0.0342448039870148,2.7663679543071322,0.7691630533470046,-0.0004405419314649356,0.00043663514679674674,4.368036415532433e-05,0.000254414972797328,-0.0004034268165318385,-5.8611415736989165e-05,0.0004296036439372328,0.0,0.0,0.0,0.0,0.0,0.0,0.0,-0.00011106834076990424,-0.000415632340468243,-3.515269157593551e-05,0.00012445449877906967,-6.118345192561436e-06,-4.76837158203125e-06,-1.7048735451719033e-05,0.0004405419314649356,-0.00043663514679674674,-4.368036415532433e-05,-0.000254414972797328,0.0004034268165318385,5.8611415736989165e-05,-0.0004296036439372328,0.4029781222343445,22.819665908813477,0.1729399859905243,-14.230989456176758,-0.1293845772743225,-2.1453890800476074,0.37845176458358765,0
20,0.09462141990661621,-0.4029781222343445,-22.819665908813477,-0.1729399859905243,14.230989456176758,0.1293845772743225,2.1453890800476074,-0.37845176458358765,0.0,0.0,0.0,0.0,0.0,0.0,0.0,-0.41587392594097655,0.005183876509206666,-0.23619912139724586,0.3692892006472965,-0.11177601523889905,-0.04503226011888359,-0.3673040335868251,1.6756084230950001,0.05251995916533827,0.03000465780086099,-2.752519299624747,0.03425092233220736,2.7663727226787143,0.7691801020824564,1.6754973547542302,0.052104326824870026,0.029969505109285054,-2.752394845125968,0.0342448039870148,2.7663679543071322,0.7691630533470046,-0.0004405419314649356,0.00043663514679674674,4.368036415532433e-05,0.000254414972797328,-0.0004034268165318385,-5.8611415736989165e-05,0.0004296036439372328,0.0,0.0,0.0,0.0,0.0,0.0,0.0,-0.00011106834076990424,-0.000415632340468243,-3.515269157593551e-05,0.00012445449877906967,-6.118345192561436e-06,-4.76837158203125e-06,-1.7048735451719033e-05,0.0004405419314649356,-0.00043663514679674674,-4.368036415532433e-05,-0.000254414972797328,0.0004034268165318385,5.8611415736989165e-05,-0.0004296036439372328,0.4029781222343445,22.819665908813477,0.1729399859905243,-14.230989456176758,-0.1293845772743225,-2.1453890800476074,0.37845176458358765,0
21,0.09964394569396973,-0.4029781222343445,-22.819665908813477,-0.1491362750530243,14.207185745239258,0.12389141321182251,2.1261630058288574,-0.35098594427108765,0.0,0.0,0.0,0.0,0.0,0.0,0.0,-0.4157702441765631,0.007770230284202245,-0.236652626457434,0.3647837785625974,-0.11226748814248882,-0.045203902637874334,-0.36744279207831276,1.6756081935067388,0.05251995916533888,0.030000512956229405,-2.7525176293014573,0.03425153268376986,2.766374858909183,0.7691770380502968,1.6754973547542302,0.052104326824870026,0.029969505109285054,-2.752394845125968,0.0342448039870148,2.7663679543071322,0.7691630533470046,-0.0003231932407384125,6.967883245334913e-05,0.0001800739864298322,0.00030882058480987675,-1.4105713627823428e-05,0.0005854461075955098,-0.0012006976430678448,0.0,0.0,0.0,0.0,0.0,0.0,0.0,-0.00011083875250861297,-0.0004156323404688536,-3.100784694435102e-05,0.00012278417548916565,-6.728696755060881e-06,-6.904602050994413e-06,-1.3984703292169165e-05,0.0003231932407384125,-6.967883245334913e-05,-0.0001800739864298322,-0.00030882058480987675,1.4105713627823428e-05,-0.0005854461075955098,0.0012006976430678448,0.4029781222343445,22.819665908813477,0.1491362750530243,-14.207185745239258,-0.12389141321182251,-2.1261630058288574,0.35098594427108765,0
22,0.10462188720703125,-0.4029781222343445,-22.819665908813477,-0.1491362750530243,14.207185745239258,0.12389141321182251,2.1261630058288574,-0.35098594427108765,0.0,0.0,0.0,0.0,0.0,0.0,0.0,-0.4157702441765631,0.007770230284202245,-0.236652626457434,0.3647837785625974,-0.11226748814248882,-0.045203902637874334,-0.36744279207831276,1.6756081935067388,0.05251995916533888,0.030000512956229405,-2.7525176293014573,0.03425153268376986,2.766374858909183,0.7691770380502968,1.6754973547542302,0.052104326824870026,0.029969505109285054,-2.752394845125968,0.0342448039870148,2.7663679543071322,0.7691630533470046,-0.0003231932407384125,6.967883245334913e-05,0.0001800739864298322,0.00030882058480987675,-1.4105713627823428e-05,0.0005854461075955098,-0.0012006976430678448,0.0,0.0,0.0,0.0,0.0,0.0,0.0,-0.00011083875250861297,-0.0004156323404688536,-3.100784694435102e-05,0.00012278417548916565,-6.728696755060881e-06,-6.904602050994413e-06,-1.3984703292169165e-05,0.0003231932407384125,-6.967883245334913e-05,-0.0001800739864298322,-0.00030882058480987675,1.4105713627823428e-05,-0.0005854461075955098,0.0012006976430678448,0.4029781222343445,22.819665908813477,0.1491362750530243,-14.207185745239258,-0.12389141321182251,-2.1261630058288574,0.35098594427108765,0
23,0.11042141914367676,-0.3514034152030945,-22.795862197875977,-0.1253325641155243,14.230989456176758,0.12389141321182251,2.1389803886413574,-0.34457725286483765,0.0,0.0,0.0,0.0,0.0,0.0,0.0,-0.41378783820903553,0.007837954123507119,-0.23582620991804606,0.36344871438212745,-0.11223132374044956,-0.045200271594364023,-0.3680326249194298,1.6756048038160176,0.052518288729483616,0.03000025414122167,-2.7525200505283167,0.03425153268376986,2.766373434755537,0.7691795034342424,1.6754973547542302,0.052104326824870026,0.029969505109285054,-2.752394845125968,0.0342448039870148,2.7663679543071322,0.7691630533470046,-0.0012999232658059295,-7.901965078657793e-05,-0.0005579833452629268,4.6512949372888326e-05,-0.00041763074647926224,7.756723349141388e-05,-0.0009747525099186858,0.0,0.0,0.0,0.0,0.0,0.0,0.0,-0.00010744906178739022,-0.0004139619046135898,-3.07490319366166e-05,0.000125205402348616,-6.728696755060881e-06,-5.480448404870941e-06,-1.6450087237718236e-05,0.0012999232658059295,7.901965078657793e-05,0.0005579833452629268,-4.6512949372888326e-05,0.00041763074647926224,-7.756723349141388e-05,0.0009747525099186858,0.3514034152030945,22.795862197875977,0.1253325641155243,-14.230989456176758,-0.12389141321182251,-2.1389803886413574,0.34457725286483765,0
24,0.11462950706481934,-0.3514034152030945,-22.795862197875977,-0.1253325641155243,14.230989456176758,0.12389141321182251,2.1389803886413574,-0.34457725286483765,0.0,0.0,0.0,0.0,0.0,0.0,0.0,-0.41378783820903553,0.007837954123507119,-0.23582620991804606,0.36344871438212745,-0.11223132374044956,-0.045200271594364023,-0.3680326249194298,1.6756048038160176,0.052518288729483616,0.03000025414122167,-2.7525200505283167,0.03425153268376986,2.766373434755537,0.7691795034342424,1.6754973547542302,0.052104326824870026,0.029969505109285054,-2.752394845125968,0.0342448039870148,2.7663679543071322,0.7691630533470046,-0.0012999232658059295,-7.901965078657793e-05,-0.0005579833452629268,4.6512949372888326e-05,-0.00041763074647926224,7.756723349141388e-05,-0.0009747525099186858,0.0,0.0,0.0,0.0,0.0,0.0,0.0,-0.00010744906178739022,-0.0004139619046135898,-3.07490319366166e-05,0.000125205402348616,-6.728696755060881e-06,-5.480448404870941e-06,-1.6450087237718236e-05,0.0012999232658059295,7.901965078657793e-05,0.0005579833452629268,-4.6512949372888326e-05,0.00041763074647926224,-7.756723349141388e-05,0.0009747525099186858,0.3514034152030945,22.795862197875977,0.1253325641155243,-14.230989456176758,-0.12389141321182251,-2.1389803886413574,0.34457725286483765,0
25,0.11965703964233398,-0.3514034152030945,-22.795862197875977,-0.1253325641155243,14.230989456176758,0.12389141321182251,2.1389803886413574,-0.34457725286483765,0.0,0.0,0.0,0.0,0.0,0.0,0.0,-0.41378783820903553,0.007837954123507119,-0.23582620991804606,0.36344871438212745,-0.11223132374044956,-0.045200271594364023,-0.3680326249194298,1.6756048038160176,0.052518288729483616,0.03000025414122167,-2.7525200505283167,0.03425153268376986,2.766373434755537,0.7691795034342424,1.6754973547542302,0.052104326824870026,0.029969505109285054,-2.752394845125968,0.0342448039870148,2.7663679543071322,0.7691630533470046,-0.0012999232658059295,-7.901965078657793e-05,-0.0005579833452629268,4.6512949372888326e-05,-0.00041763074647926224,7.756723349141388e-05,-0.0009747525099186858,0.0,0.0,0.0,0.0,0.0,0.0,0.0,-0.00010744906178739022,-0.0004139619046135898,-3.07490319366166e-05,0.000125205402348616,-6.728696755060881e-06,-5.480448404870941e-06,-1.6450087237718236e-05,0.0012999232658059295,7.901965078657793e-05,0.0005579833452629268,-4.6512949372888326e-05,0.00041763074647926224,-7.756723349141388e-05,0.0009747525099186858,0.3514034152030945,22.795862197875977,0.1253325641155243,-14.230989456176758,-0.12389141321182251,-2.1389803886413574,0.34457725286483765,0
26,0.12462449073791504,-0.3514034152030945,-22.795862197875977,-0.1253325641155243,14.230989456176758,0.12389141321182251,2.1389803886413574,-0.34457725286483765,0.0,0.0,0.0,0.0,0.0,0.0,0.0,-0.41378783820903553,0.007837954123507119,-0.23582620991804606,0.36344871438212745,-0.11223132374044956,-0.045200271594364023,-0.3680326249194298,1.6756048038160176,0.052518288729483616,0.03000025414122167,-2.7525200505283167,0.03425153268376986,2.766373434755537,0.7691795034342424,1.6754973547542302,0.052104326824870026,0.029969505109285054,-2.752394845125968,0.0342448039870148,2.7663679543071322,0.7691630533470046,-0.0012999232658059295,-7.901965078657793e-05,-0.0005579833452629268,4.6512949372888326e-05,-0.00041763074647926224,7.756723349141388e-05,-0.0009747525099186858,0.0,0.0,0.0,0.0,0.0,0.0,0.0,-0.00010744906178739022,-0.0004139619046135898,-3.07490319366166e-05,0.000125205402348616,-6.728696755060881e-06,-5.480448404870941e-06,-1.6450087237718236e-05,0.0012999232658059295,7.901965078657793e-05,0.0005579833452629268,-4.6512949372888326e-05,0.00041763074647926224,-7.756723349141388e-05,0.0009747525099186858,0.3514034152030945,22.795862197875977,0.1253325641155243,-14.230989456176758,-0.12389141321182251,-2.1389803886413574,0.34457725286483765,0
27,0.1296219825744629,-0.3514034152030945,-22.795862197875977,-0.1253325641155243,14.230989456176758,0.12389141321182251,2.1389803886413574,-0.34457725286483765,0.0,0.0,0.0,0.0,0.0,0.0,0.0,-0.41378783820903553,0.007837954123507119,-0.23582620991804606,0.36344871438212745,-0.11223132374044956,-0.045200271594364023,-0.3680326249194298,1.6756048038160176,0.052518288729483616,0.03000025414122167,-2.7525200505283167,0.03425153268376986,2.766373434755537,0.7691795034342424,1.6754973547542302,0.052104326824870026,0.029969505109285054,-2.752394845125968,0.0342448039870148,2.7663679543071322,0.7691630533470046,-0.0012999232658059295,-7.901965078657793e-05,-0.0005579833452629268,4.6512949372888326e-05,-0.00041763074647926224,7.756723349141388e-05,-0.0009747525099186858,0.0,0.0,0.0,0.0,0.0,0.0,0.0,-0.00010744906178739022,-0.0004139619046135898,-3.07490319366166e-05,0.000125205402348616,-6.728696755060881e-06,-5.480448404870941e-06,-1.6450087237718236e-05,0.0012999232658059295,7.901965078657793e-05,0.0005579833452629268,-4.6512949372888326e-05,0.00041763074647926224,-7.756723349141388e-05,0.0009747525099186858,0.3514034152030945,22.795862197875977,0.1253325641155243,-14.230989456176758,-0.12389141321182251,-2.1389803886413574,0.34457725286483765,0
28,0.13461947441101074,-0.4505855441093445,-22.772058486938477,-0.1729399859905243,14.207185745239258,0.11748272180557251,2.1453890800476074,-0.34457725286483765,0.0,0.0,0.0,0.0,0.0,0.0,0.0,-0.41255201630936345,0.0027400377667889902,-0.23682117989012424,0.363517943629946,-0.11275058170532141,-0.04469056197311652,-0.36738946806368705,1.6756110750969482,0.05251661829362835,0.030004339049572736,-2.752517657003904,0.03425224476059278,2.7663727226787143,0.7691763245377912,1.6754973547542302,0.052104326824870026,0.029969505109285054,-2.752394845125968,0.0342448039870148,2.7663679543071322,0.7691630533470046,0.0010725570321719505,-0.0005327117566212451,0.0006698348669731231,0.0005546339470125607,0.00012947033034777175,4.0112895948585814e-05,-0.0011079422872109213,0.0,0.0,0.0,0.0,0.0,0.0,0.0,-0.00011372034271794895,-0.00041229146875832595,-3.4833940287682524e-05,0.00012281187793572457,-7.4407735779769e-06,-4.76837158203125e-06,-1.3271190786534603e-05,-0.0010725570321719505,0.0005327117566212451,-0.0006698348669731231,-0.0005546339470125607,-0.00012947033034777175,-4.0112895948585814e-05,0.0011079422872109213,0.4505855441093445,22.772058486938477,0.1729399859905243,-14.207185745239258,-0.11748272180557251,-2.1453890800476074,0.34457725286483765,0
29,0.13962054252624512,-0.4505855441093445,-22.772058486938477,-0.1729399859905243,14.207185745239258,0.11748272180557251,2.1453890800476074,-0.34457725286483765,0.0,0.0,0.0,0.0,0.0,0.0,0.0,-0.41255201630936345,0.0027400377667889902,-0.23682117989012424,0.363517943629946,-0.11275058170532141,-0.04469056197311652,-0.36738946806368705,1.6756110750969482,0.05251661829362835,0.030004339049572736,-2.752517657003904,0.03425224476059278,2.7663727226787143,0.7691763245377912,1.6754973547542302,0.052104326824870026,0.029969505109285054,-2.752394845125968,0.0342448039870148,2.7663679543071322,0.7691630533470046,0.0010725570321719505,-0.0005327117566212451,0.0006698348669731231,0.0005546339470125607,0.00012947033034777175,4.0112895948585814e-05,-0.0011079422872109213,0.0,0.0,0.0,0.0,0.0,0.0,0.0,-0.00011372034271794895,-0.00041229146875832595,-3.4833940287682524e-05,0.00012281187793572457,-7.4407735779769e-06,-4.76837158203125e-06,-1.3271190786534603e-05,-0.0010725570321719505,0.0005327117566212451,-0.0006698348669731231,-0.0005546339470125607,-0.00012947033034777175,-4.0112895948585814e-05,0.0011079422872109213,0.4505855441093445,22.772058486938477,0.1729399859905243,-14.207185745239258,-0.11748272180557251,-2.1453890800476074,0.34457725286483765,0
30,0.14463257789611816,-0.4505855441093445,-22.795862197875977,-0.2007109820842743,14.207185745239258,0.12389141321182251,2.1325716972351074,-0.34457725286483765,0.0,0.0,0.0,0.0,0.0,0.0,0.0,-0.4100654999113207,0.0054510655035648935,-0.23348261998813366,0.3585628724059085,-0.1132197873851709,-0.04469707450891889,-0.3683768097433385,1.675611072363615,0.052518288729483616,0.030003493514337523,-2.752517658130361,0.03425153268376986,2.7663741468323604,0.7691763245736813,1.6754973547542302,0.052104326824870026,0.029969505109285054,-2.752394845125968,0.0342448039870148,2.7663679543071322,0.7691630533470046,0.0009504890773485128,0.0005002611612352881,0.0011998745011314999,-2.434741449974711e-05,0.003786925525720368,0.0003756499722347952,-0.0011511209638013654,0.0,0.0,0.0,0.0,0.0,0.0,0.0,-0.00011371760938483355,-0.0004139619046135898,-3.398840505246942e-05,0.00012281300439287435,-6.728696755060881e-06,-6.192525228154722e-06,-1.327122667671432e-05,-0.0009504890773485128,-0.0005002611612352881,-0.0011998745011314999,2.434741449974711e-05,-0.003786925525720368,-0.0003756499722347952,0.0011511209638013654,0.4505855441093445,22.795862197875977,0.2007109820842743,-14.207185745239258,-0.12389141321182251,-2.1325716972351074,0.34457725286483765,0
31,0.149627685546875,-0.4505855441093445,-22.795862197875977,-0.2007109820842743,14.207185745239258,0.12389141321182251,2.1325716972351074,-0.34457725286483765,0.0,0.0,0.0,0.0,0.0,0.0,0.0,-0.4100654999113207,0.0054510655035648935,-0.23348261998813366,0.3585628724059085,-0.1132197873851709,-0.04469707450891889,-0.3683768097433385,1.675611072363615,0.052518288729483616,0.030003493514337523,-2.752517658130361,0.03425153268376986,2.7663741468323604,0.7691763245736813,1.6754973547542302,0.052104326824870026,0.029969505109285054,-2.752394845125968,0.0342448039870148,2.7663679543071322,0.7691630533470046,0.0009504890773485128,0.0005002611612352881,0.0011998745011314999,-2.434741449974711e-05,0.003786925525720368,0.0003756499722347952,-0.0011511209638013654,0.0,0.0,0.0,0.0,0.0,0.0,0.0,-0.00011371760938483355,-0.0004139619046135898,-3.398840505246942e-05,0.00012281300439287435,-6.728696755060881e-06,-6.192525228154722e-06,-1.327122667671432e-05,-0.0009504890773485128,-0.0005002611612352881,-0.0011998745011314999,2.434741449974711e-05,-0.003786925525720368,-0.0003756499722347952,0.0011511209638013654,0.4505855441093445,22.795862197875977,0.2007109820842743,-14.207185745239258,-0.12389141321182251,-2.1325716972351074,0.34457725286483765,0
32,0.1546320915222168,-0.4029781222343445,-22.795862197875977,-0.1253325641155243,14.254793167114258,0.11198955774307251,2.1453890800476074,-0.35098594427108765,0.0,0.0,0.0,0.0,0.0,0.0,0.0,-0.412430842659381,0.007824137330481346,-0.2335867953956742,0.36346012440314784,-0.1126131246857502,-0.043502644568261466,-0.3691829788346193,1.675608423091096,0.05251826242249534,0.029998950230073488,-2.7525210799863604,0.03425285511215528,2.7663727226787143,0.7691780963963043,1.6754973547542302,0.052104326824870026,0.029969505109285054,-2.752394845125968,0.0342448039870148,2.7663679543071322,0.7691630533470046,-0.0005891997613351339,0.0009126904416896664,-0.0009213304037164904,-0.00025868243462588583,0.0003999116222759847,-6.882760229874146e-05,-0.0006517188853087677,0.0,0.0,0.0,0.0,0.0,0.0,0.0,-0.00011106833686569395,-0.0004139355976253145,-2.944512078843428e-05,0.0001262348603923158,-8.051125140476345e-06,-4.76837158203125e-06,-1.5043049299667821e-05,0.0005891997613351339,-0.0009126904416896664,0.0009213304037164904,0.00025868243462588583,-0.0003999116222759847,6.882760229874146e-05,0.0006517188853087677,0.4029781222343445,22.795862197875977,0.1253325641155243,-14.254793167114258,-0.11198955774307251,-2.1453890800476074,0.35098594427108765,0
33,0.15964961051940918,-0.4029781222343445,-22.795862197875977,-0.1253325641155243,14.254793167114258,0.11198955774307251,2.1453890800476074,-0.35098594427108765,0.0,0.0,0.0,0.0,0.0,0.0,0.0,-0.412430842659381,0.007824137330481346,-0.2335867953956742,0.36346012440314784,-0.1126131246857502,-0.043502644568261466,-0.3691829788346193,1.675608423091096,0.05251826242249534,0.029998950230073488,-2.7525210799863604,0.03425285511215528,2.7663727226787143,0.7691780963963043,1.6754973547542302,0.052104326824870026,0.029969505109285054,-2.752394845125968,0.0342448039870148,2.7663679543071322,0.7691630533470046,-0.0005891997613351339,0.0009126904416896664,-0.0009213304037164904,-0.00025868243462588583,0.0003999116222759847,-6.882760229874146e-05,-0.0006517188853087677,0.0,0.0,0.0,0.0,0.0,0.0,0.0,-0.00011106833686569395,-0.0004139355976253145,-2.944512078843428e-05,0.0001262348603923158,-8.051125140476345e-06,-4.76837158203125e-06,-1.5043049299667821e-05,0.0005891997613351339,-0.0009126904416896664,0.0009213304037164904,0.00025868243462588583,-0.0003999116222759847,6.882760229874146e-05,0.0006517188853087677,0.4029781222343445,22.795862197875977,0.1253325641155243,-14.254793167114258,-0.11198955774307251,-2.1453890800476074,0.35098594427108765,0
34,0.16464853286743164,-0.3514034152030945,-22.795862197875977,-0.1253325641155243,14.254793167114258,0.11748272180557251,2.1517977714538574,-0.34457725286483765,0.0,0.0,0.0,0.0,0.0,0.0,0.0,-0.4120174462745289,0.010218949635177128,-0.2328576802868157,0.3661098394895852,-0.11291870095509858,-0.04288062582607035,-0.36761440779017907,1.6756048038173137,0.052518288729335116,0.02999836024082886,-2.752520970399896,0.03425224476059278,2.7663720106018914,0.7691795050552725,1.6754973547542302,0.052104326824870026,0.029969505109285054,-2.752394845125968,0.0342448039870148,2.7663679543071322,0.7691630533470046,-0.0012612016076673676,0.000521195972241394,-0.00042380261155600357,-0.0002739550358688118,0.00012200524403793126,-0.00035978659435694367,-0.0007498268273181892,0.0,0.0,0.0,0.0,0.0,0.0,0.0,-0.00010744906308346458,-0.0004139619044650905,-2.885513154380487e-05,0.00012612527392796835,-7.4407735779769e-06,-4.056294759191559e-06,-1.6451708267917198e-05,0.0012612016076673676,-0.000521195972241394,0.00042380261155600357,0.0002739550358688118,-0.00012200524403793126,0.00035978659435694367,0.0007498268273181892,0.3514034152030945,22.795862197875977,0.1253325641155243,-14.254793167114258,-0.11748272180557251,-2.1517977714538574,0.34457725286483765,0
35,0.1696324348449707,-0.3514034152030945,-22.795862197875977,-0.1253325641155243,14.254793167114258,0.11748272180557251,2.1517977714538574,-0.34457725286483765,0.0,0.0,0.0,0.0,0.0,0.0,0.0,-0.4120174462745289,0.010218949635177128,-0.2328576802868157,0.3661098394895852,-0.11291870095509858,-0.04288062582607035,-0.36761440779017907,1.6756048038173137,0.052518288729335116,0.02999836024082886,-2.752520970399896,0.03425224476059278,2.7663720106018914,0.7691795050552725,1.6754973547542302,0.052104326824870026,0.029969505109285054,-2.752394845125968,0.0342448039870148,2.7663679543071322,0.7691630533470046,-0.0012612016076673676,0.000521195972241394,-0.00042380261155600357,-0.0002739550358688118,0.00012200524403793126,-0.00035978659435694367,-0.0007498268273181892,0.0,0.0,0.0,0.0,0.0,0.0,0.0,-0.00010744906308346458,-0.0004139619044650905,-2.885513154380487e-05,0.00012612527392796835,-7.4407735779769e-06,-4.056294759191559e-06,-1.6451708267917198e-05,0.0012612016076673676,-0.000521195972241394,0.00042380261155600357,0.0002739550358688118,-0.00012200524403793126,0.00035978659435694367,0.0007498268273181892,0.3514034152030945,22.795862197875977,0.1253325641155243,-14.254793167114258,-0.11748272180557251,-2.1517977714538574,0.34457725286483765,0
36,0.17463898658752441,-0.3752071261405945,-22.795862197875977,-0.1253325641155243,14.254793167114258,0.11748272180557251,2.1389803886413574,-0.35098594427108765,0.0,0.0,0.0,0.0,0.0,0.0,0.0,-0.41344354173856196,0.008804086347733048,-0.23447906263677953,0.36742887348616216,-0.11267446307082281,-0.04265924252888415,-0.3668532354469524,1.675606474253169,0.052518288729483616,0.029998162491051042,-2.7525212997253115,0.034252244273426324,2.766373434755537,0.7691770496965754,1.6754973547542302,0.052104326824870026,0.029969505109285054,-2.752394845125968,0.0342448039870148,2.7663679543071322,0.7691630533470046,-0.0007811397836288908,-0.00040534332974707384,3.160727742480617e-05,-0.0008684138772922837,1.9551610289515162e-05,0.00016216741933762813,-0.0008072672131269849,0.0,0.0,0.0,0.0,0.0,0.0,0.0,-0.00010911949893888107,-0.0004139619046135898,-2.8657381765988255e-05,0.0001264545993433508,-7.440286411523889e-06,-5.480448404870941e-06,-1.3996349570777333e-05,0.0007811397836288908,0.00040534332974707384,-3.160727742480617e-05,0.0008684138772922837,-1.9551610289515162e-05,-0.00016216741933762813,0.0008072672131269849,0.3752071261405945,22.795862197875977,0.1253325641155243,-14.254793167114258,-0.11748272180557251,-2.1389803886413574,0.35098594427108765,0
37,0.17962121963500977,-0.3752071261405945,-22.795862197875977,-0.1253325641155243,14.254793167114258,0.11748272180557251,2.1389803886413574,-0.35098594427108765,0.0,0.0,0.0,0.0,0.0,0.0,0.0,-0.41344354173856196,0.008804086347733048,-0.23447906263677953,0.36742887348616216,-0.11267446307082281,-0.04265924252888415,-0.3668532354469524,1.675606474253169,0.052518288729483616,0.029998162491051042,-2.7525212997253115,0.034252244273426324,2.766373434755537,0.7691770496965754,1.6754973547542302,0.052104326824870026,0.029969505109285054,-2.752394845125968,0.0342448039870148,2.7663679543071322,0.7691630533470046,-0.0007811397836288908,-0.00040534332974707384,3.160727742480617e-05,-0.0008684138772922837,1.9551610289515162e-05,0.00016216741933762813,-0.0008072672131269849,0.0,0.0,0.0,0.0,0.0,0.0,0.0,-0.00010911949893888107,-0.0004139619046135898,-2.8657381765988255e-05,0.0001264545993433508,-7.440286411523889e-06,-5.480448404870941e-06,-1.3996349570777333e-05,0.0007811397836288908,0.00040534332974707384,-3.160727742480617e-05,0.0008684138772922837,-1.9551610289515162e-05,-0.00016216741933762813,0.0008072672131269849,0.3752071261405945,22.795862197875977,0.1253325641155243,-14.254793167114258,-0.11748272180557251,-2.1389803886413574,0.35098594427108765,0
38,0.18461942672729492,-0.4267818331718445,-22.819665908813477,-0.1253325641155243,14.230989456176758,0.12389141321182251,2.1453890800476074,-0.40591758489608765,0.0,0.0,0.0,0.0,0.0,0.0,0.0,-0.4114273428166428,0.018601034153735194,-0.2322757624949305,0.35868276620015305,-0.1127017636018027,-0.04507431179099101,-0.3679488877691985,1.6756100935308555,0.05251995916533888,0.030001053887058083,-2.7525192999652814,0.034251532683767114,2.7663727226787143,0.7691843174880671,1.6754973547542302,0.052104326824870026,0.029969505109285054,-2.752394845125968,0.0342448039870148,2.7663679543071322,0.7691630533470046,0.00045609660180436894,0.0009842304770032297,-0.00031148285020486877,-0.0003313129571905706,-0.00021416320797202146,0.0003259688779410443,0.0015583732922176173,0.0,0.0,0.0,0.0,0.0,0.0,0.0,-0.00011273877662532072,-0.0004156323404688536,-3.154877777302931e-05,0.00012445483931333712,-6.728696752313079e-06,-4.76837158203125e-06,-2.126414106251584e-05,-0.00045609660180436894,-0.0009842304770032297,0.00031148285020486877,0.0003313129571905706,0.00021416320797202146,-0.0003259688779410443,-0.0015583732922176173,0.4267818331718445,22.819665908813477,0.1253325641155243,-14.230989456176758,-0.12389141321182251,-2.1453890800476074,0.40591758489608765,0
39,0.18964195251464844,-0.4267818331718445,-22.819665908813477,-0.1253325641155243,14.230989456176758,0.12389141321182251,2.1453890800476074,-0.40591758489608765,0.0,0.0,0.0,0.0,0.0,0.0,0.0,-0.4114273428166428,0.018601034153735194,-0.2322757624949305,0.35868276620015305,-0.1127017636018027,-0.04507431179099101,-0.3679488877691985,1.6756100935308555,0.05251995916533888,0.030001053887058083,-2.7525192999652814,0.034251532683767114,2.7663727226787143,0.7691843174880671,1.6754973547542302,0.052104326824870026,0.029969505109285054,-2.752394845125968,0.0342448039870148,2.7663679543071322,0.7691630533470046,0.00045609660180436894,0.0009842304770032297,-0.00031148285020486877,-0.0003313129571905706,-0.00021416320797202146,0.0003259688779410443,0.0015583732922176173,0.0,0.0,0.0,0.0,0.0,0.0,0.0,-0.00011273877662532072,-0.0004156323404688536,-3.154877777302931e-05,0.00012445483931333712,-6.728696752313079e-06,-4.76837158203125e-06,-2.126414106251584e-05,-0.00045609660180436894,-0.0009842304770032297,0.00031148285020486877,0.0003313129571905706,0.00021416320797202146,-0.0003259688779410443,-0.0015583732922176173,0.4267818331718445,22.819665908813477,0.1253325641155243,-14.230989456176758,-0.12389141321182251,-2.1453890800476074,0.40591758489608765,0
40,0.1947154998779297,-0.4505855441093445,-22.795862197875977,-0.1491362750530243,14.155611038208008,0.1293845772743225,2.1453890800476074,-0.37204307317733765,0.0,0.0,0.0,0.0,0.0,0.0,0.0,-0.41262898190670816,0.01193200075280893,-0.23307028322486895,0.3652412474807461,-0.11227233485739041,-0.04300250683818431,-0.36980704148757376,1.6756117630219032,0.052518288729483616,0.030000147540372075,-2.7525172516184777,0.03425092233220736,2.7663727226787143,0.7691825944445495,1.6754973547542302,0.052104326824870026,0.029969505109285054,-2.752394845125968,0.0342448039870148,2.7663679543071322,0.7691630533470046,0.0008821463894803279,0.0004875733593893226,-0.00026807471371112897,0.0018494324888129409,-0.00016504348721947944,-0.000213365747209705,-6.34254972205686e-05,0.0,0.0,0.0,0.0,0.0,0.0,0.0,-0.00011440826767294965,-0.0004139619046135898,-3.064243108702111e-05,0.000122406492509608,-6.118345192561436e-06,-4.76837158203125e-06,-1.9541097544872876e-05,-0.0008821463894803279,-0.0004875733593893226,0.00026807471371112897,-0.0018494324888129409,0.00016504348721947944,0.000213365747209705,6.34254972205686e-05,0.4505855441093445,22.795862197875977,0.1491362750530243,-14.155611038208008,-0.1293845772743225,-2.1453890800476074,0.37204307317733765,0
41,0.19965815544128418,-0.4505855441093445,-22.795862197875977,-0.1491362750530243,14.155611038208008,0.1293845772743225,2.1453890800476074,-0.37204307317733765,0.0,0.0,0.0,0.0,0.0,0.0,0.0,-0.41262898190670816,0.01193200075280893,-0.23307028322486895,0.3652412474807461,-0.11227233485739041,-0.04300250683818431,-0.36980704148757376,1.6756117630219032,0.052518288729483616,0.030000147540372075,-2.7525172516184777,0.03425092233220736,2.7663727226787143,0.7691825944445495,1.6754973547542302,0.052104326824870026,0.029969505109285054,-2.752394845125968,0.0342448039870148,2.7663679543071322,0.7691630533470046,0.0008821463894803279,0.0004875733593893226,-0.00026807471371112897,0.0018494324888129409,-0.00016504348721947944,-0.000213365747209705,-6.34254972205686e-05,0.0,0.0,0.0,0.0,0.0,0.0,0.0,-0.00011440826767294965,-0.0004139619046135898,-3.064243108702111e-05,0.000122406492509608,-6.118345192561436e-06,-4.76837158203125e-06,-1.9541097544872876e-05,-0.0008821463894803279,-0.0004875733593893226,0.00026807471371112897,-0.0018494324888129409,0.00016504348721947944,0.000213365747209705,6.34254972205686e-05,0.4505855441093445,22.795862197875977,0.1491362750530243,-14.155611038208008,-0.1293845772743225,-2.1453890800476074,0.37204307317733765,0
42,0.20463943481445312,-0.4267818331718445,-22.795862197875977,-0.1729399859905243,14.207185745239258,0.1293845772743225,2.1389803886413574,-0.37204307317733765,0.0,0.0,0.0,0.0,0.0,0.0,0.0,-0.41150622582321567,0.006063651809079081,-0.23172619550396462,0.3669992969698075,-0.11210826265815202,-0.042216553539185964,-0.3703874278017648,1.6756100935308502,0.052518288729483616,0.030004657352534922,-2.7525177146754576,0.03425092233220736,2.766373434755537,0.769179380656476,1.6754973547542302,0.052104326824870026,0.029969505109285054,-2.752394845125968,0.0342448039870148,2.7663679543071322,0.7691630533470046,0.0004017839735765713,8.273373973401133e-05,0.00030426052763310837,0.00037211121695370826,-0.0001536917192362715,-2.209127645307715e-05,0.000347764488245018,0.0,0.0,0.0,0.0,0.0,0.0,0.0,-0.00011273877661999165,-0.0004139619046135898,-3.5152243249868265e-05,0.00012286954948947937,-6.118345192561436e-06,-5.480448404870941e-06,-1.6327309471320106e-05,-0.0004017839735765713,-8.273373973401133e-05,-0.00030426052763310837,-0.00037211121695370826,0.0001536917192362715,2.209127645307715e-05,-0.000347764488245018,0.4267818331718445,22.795862197875977,0.1729399859905243,-14.207185745239258,-0.1293845772743225,-2.1389803886413574,0.37204307317733765,0
43,0.2096424102783203,-0.4267818331718445,-22.795862197875977,-0.1729399859905243,14.207185745239258,0.1293845772743225,2.1389803886413574,-0.37204307317733765,0.0,0.0,0.0,0.0,0.0,0.0,0.0,-0.41150622582321567,0.006063651809079081,-0.23172619550396462,0.3669992969698075,-0.11210826265815202,-0.042216553539185964,-0.3703874278017648,1.6756100935308502,0.052518288729483616,0.030004657352534922,-2.7525177146754576,0.03425092233220736,2.766373434755537,0.769179380656476,1.6754973547542302,0.052104326824870026,0.029969505109285054,-2.752394845125968,0.0342448039870148,2.7663679543071322,0.7691630533470046,0.0004017839735765713,8.273373973401133e-05,0.00030426052763310837,0.00037211121695370826,-0.0001536917192362715,-2.209127645307715e-05,0.000347764488245018,0.0,0.0,0.0,0.0,0.0,0.0,0.0,-0.00011273877661999165,-0.0004139619046135898,-3.5152243249868265e-05,0.00012286954948947937,-6.118345192561436e-06,-5.480448404870941e-06,-1.6327309471320106e-05,-0.0004017839735765713,-8.273373973401133e-05,-0.00030426052763310837,-0.00037211121695370826,0.0001536917192362715,2.209127645307715e-05,-0.000347764488245018,0.4267818331718445,22.795862197875977,0.1729399859905243,-14.207185745239258,-0.1293845772743225,-2.1389803886413574,0.37204307317733765,0
44,0.21468639373779297,-0.4267818331718445,-22.748254776000977,-0.1491362750530243,14.207185745239258,0.1293845772743225,2.1325716972351074,-0.35831016302108765,0.0,0.0,0.0,0.0,0.0,0.0,0.0,-0.4098579622112397,0.009398707875745838,-0.23093682595229825,0.36481658492390706,-0.11167004929172195,-0.04327514067724742,-0.36996519605958106,1.6756100935308555,0.05251494774951388,0.030002900700398058,-2.7525179863261817,0.03425092233220736,2.7663741468323604,0.76917786784138,1.6754973547542302,0.052104326824870026,0.029969505109285054,-2.752394845125968,0.0342448039870148,2.7663679543071322,0.7691630533470046,0.0004999001684034228,-0.001009884130770065,-2.616700543489764e-05,0.000532881537023475,-0.00020432119918100525,0.00024976243751060684,-0.0010292396639952227,0.0,0.0,0.0,0.0,0.0,0.0,0.0,-0.00011273877662532072,-0.00041062092464385497,-3.339559111300433e-05,0.00012314120021361674,-6.118345192561436e-06,-6.192525228154722e-06,-1.4814494375348097e-05,-0.0004999001684034228,0.001009884130770065,2.616700543489764e-05,-0.000532881537023475,0.00020432119918100525,-0.00024976243751060684,0.0010292396639952227,0.4267818331718445,22.748254776000977,0.1491362750530243,-14.207185745239258,-0.1293845772743225,-2.1325716972351074,0.35831016302108765,0
45,0.21969246864318848,-0.4267818331718445,-22.748254776000977,-0.1491362750530243,14.207185745239258,0.1293845772743225,2.1325716972351074,-0.35831016302108765,0.0,0.0,0.0,0.0,0.0,0.0,0.0,-0.4098579622112397,0.009398707875745838,-0.23093682595229825,0.36481658492390706,-0.11167004929172195,-0.04327514067724742,-0.36996519605958106,1.6756100935308555,0.05251494774951388,0.030002900700398058,-2.7525179863261817,0.03425092233220736,2.7663741468323604,0.76917786784138,1.6754973547542302,0.052104326824870026,0.029969505109285054,-2.752394845125968,0.0342448039870148,2.7663679543071322,0.7691630533470046,0.0004999001684034228,-0.001009884130770065,-2.616700543489764e-05,0.000532881537023475,-0.00020432119918100525,0.00024976243751060684,-0.0010292396639952227,0.0,0.0,0.0,0.0,0.0,0.0,0.0,-0.00011273877662532072,-0.00041062092464385497,-3.339559111300433e-05,0.00012314120021361674,-6.118345192561436e-06,-6.192525228154722e-06,-1.4814494375348097e-05,-0.0004999001684034228,0.001009884130770065,2.616700543489764e-05,-0.000532881537023475,0.00020432119918100525,-0.00024976243751060684,0.0010292396639952227,0.4267818331718445,22.748254776000977,0.1491362750530243,-14.207185745239258,-0.1293845772743225,-2.1325716972351074,0.35831016302108765,0
46,0.2246544361114502,-0.4267818331718445,-22.795862197875977,-0.1491362750530243,14.230989456176758,0.1293845772743225,2.1325716972351074,-0.34457725286483765,0.0,0.0,0.0,0.0,0.0,0.0,0.0,-0.40776663045716877,0.007947790040735366,-0.22976657344256043,0.3671019229821531,-0.11102055361724568,-0.04390036123229331,-0.3708181987769486,1.6756100906964326,0.05251827996048691,0.030000506788561174,-2.7525193272114286,0.03425092233220736,2.7663741468323604,0.7691795053723995,1.6754973547542302,0.052104326824870026,0.029969505109285054,-2.752394845125968,0.0342448039870148,2.7663679543071322,0.7691630533470046,0.0011119962619488301,0.00023473113648023668,0.00042243852714039673,0.0003980384350897864,-0.00024137664229664392,7.444733555722922e-05,-0.000581468525035809,0.0,0.0,0.0,0.0,0.0,0.0,0.0,-0.00011273594220240213,-0.0004139531356168874,-3.1001679276120714e-05,0.00012448208546045336,-6.118345192561436e-06,-6.192525228154722e-06,-1.645202539490853e-05,-0.0011119962619488301,-0.00023473113648023668,-0.00042243852714039673,-0.0003980384350897864,0.00024137664229664392,-7.444733555722922e-05,0.000581468525035809,0.4267818331718445,22.795862197875977,0.1491362750530243,-14.230989456176758,-0.1293845772743225,-2.1325716972351074,0.34457725286483765,0
47,0.22962117195129395,-0.4267818331718445,-22.795862197875977,-0.1491362750530243,14.230989456176758,0.1293845772743225,2.1325716972351074,-0.34457725286483765,0.0,0.0,0.0,0.0,0.0,0.0,0.0,-0.40776663045716877,0.007947790040735366,-0.22976657344256043,0.3671019229821531,-0.11102055361724568,-0.04390036123229331,-0.3708181987769486,1.6756100906964326,0.05251827996048691,0.030000506788561174,-2.7525193272114286,0.03425092233220736,2.7663741468323604,0.7691795053723995,1.6754973547542302,0.052104326824870026,0.029969505109285054,-2.752394845125968,0.0342448039870148,2.7663679543071322,0.7691630533470046,0.0011119962619488301,0.00023473113648023668,0.00042243852714039673,0.0003980384350897864,-0.00024137664229664392,7.444733555722922e-05,-0.000581468525035809,0.0,0.0,0.0,0.0,0.0,0.0,0.0,-0.00011273594220240213,-0.0004139531356168874,-3.1001679276120714e-05,0.00012448208546045336,-6.118345192561436e-06,-6.192525228154722e-06,-1.645202539490853e-05,-0.0011119962619488301,-0.00023473113648023668,-0.00042243852714039673,-0.0003980384350897864,0.00024137664229664392,-7.444733555722922e-05,0.000581468525035809,0.4267818331718445,22.795862197875977,0.1491362750530243,-14.230989456176758,-0.1293845772743225,-2.1325716972351074,0.34457725286483765,0
48,0.23462295532226562,-0.4029781222343445,-22.795862197875977,-0.1253325641155243,14.230989456176758,0.11748272180557251,2.1389803886413574,-0.39218467473983765,0.0,0.0,0.0,0.0,0.0,0.0,0.0,-0.4083652239070478,0.01071616807892605,-0.2318473180649321,0.3653550498058614,-0.11058011317026618,-0.04566456546339053,-0.3674169610730963,1.6756084230949841,0.05251828872943412,0.02999886389313818,-2.752519299662099,0.03425188961625099,2.766373434755537,0.7691816144128493,1.6754973547542302,0.052104326824870026,0.029969505109285054,-2.752394845125968,0.0342448039870148,2.7663679543071322,0.7691630533470046,0.00021634314373442678,0.0002064980983906226,-0.00020547301933211958,-0.0002736769451901933,4.387464760507109e-05,-8.536170829879543e-05,0.0009253678386323551,0.0,0.0,0.0,0.0,0.0,0.0,0.0,-0.00011106834075391703,-0.00041396190456409465,-2.935878385312493e-05,0.00012445453613096902,-7.085629236187885e-06,-5.480448404870941e-06,-1.856106584463557e-05,-0.00021634314373442678,-0.0002064980983906226,0.00020547301933211958,0.0002736769451901933,-4.387464760507109e-05,8.536170829879543e-05,-0.0009253678386323551,0.4029781222343445,22.795862197875977,0.1253325641155243,-14.230989456176758,-0.11748272180557251,-2.1389803886413574,0.39218467473983765,0
49,0.2396228313446045,-0.4029781222343445,-22.795862197875977,-0.1253325641155243,14.230989456176758,0.11748272180557251,2.1389803886413574,-0.39218467473983765,0.0,0.0,0.0,0.0,0.0,0.0,0.0,-0.4083652239070478,0.01071616807892605,-0.2318473180649321,0.3653550498058614,-0.11058011317026618,-0.04566456546339053,-0.3674169610730963,1.6756084230949841,0.05251828872943412,0.02999886389313818,-2.752519299662099,0.03425188961625099,2.766373434755537,0.7691816144128493,1.6754973547542302,0.052104326824870026,0.029969505109285054,-2.752394845125968,0.0342448039870148,2.7663679543071322,0.7691630533470046,0.00021634314373442678,0.0002064980983906226,-0.00020547301933211958,-0.0002736769451901933,4.387464760507109e-05,-8.536170829879543e-05,0.0009253678386323551,0.0,0.0,0.0,0.0,0.0,0.0,0.0,-0.00011106834075391703,-0.00041396190456409465,-2.935878385312493e-05,0.00012445453613096902,-7.085629236187885e-06,-5.480448404870941e-06,-1.856106584463557e-05,-0.00021634314373442678,-0.0002064980983906226,0.00020547301933211958,0.0002736769451901933,-4.387464760507109e-05,8.536170829879543e-05,-0.0009253678386323551,0.4029781222343445,22.795862197875977,0.1253325641155243,-14.230989456176758,-0.11748272180557251,-2.1389803886413574,0.39218467473983765,0
50,0.24466824531555176,-0.4505855441093445,-22.819665908813477,-0.1491362750530243,14.230989456176758,0.11748272180557251,2.1453890800476074,-0.39950889348983765,0.0,0.0,0.0,0.0,0.0,0.0,0.0,-0.40768370896129635,0.0057160034603178835,-0.23056517987931874,0.3692912533950208,-0.11106878236627445,-0.04573837014730136,-0.36703039207559235,1.6756116874372904,0.05251995039634279,0.03000272237934257,-2.7525202887329003,0.03425224475858798,2.7663727226787143,0.7691824280354721,1.6754973547542302,0.052104326824870026,0.029969505109285054,-2.752394845125968,0.0342448039870148,2.7663679543071322,0.7691630533470046,0.001130891897365344,0.0002598736053634539,-0.00012919497659327235,-3.756338173240029e-05,0.00010245472777476864,-0.00033934465139336535,0.0007567351208799419,0.0,0.0,0.0,0.0,0.0,0.0,0.0,-0.00011433268306015876,-0.00041562357147276185,-3.3217270057516596e-05,0.00012544360693222956,-7.440771573177796e-06,-4.76837158203125e-06,-1.937468846746615e-05,-0.001130891897365344,-0.0002598736053634539,0.00012919497659327235,3.756338173240029e-05,-0.00010245472777476864,0.00033934465139336535,-0.0007567351208799419,0.4505855441093445,22.819665908813477,0.1491362750530243,-14.230989456176758,-0.11748272180557251,-2.1453890800476074,0.39950889348983765,0
51,0.24964594841003418,-0.4505855441093445,-22.819665908813477,-0.1491362750530243,14.230989456176758,0.11748272180557251,2.1453890800476074,-0.39950889348983765,0.0,0.0,0.0,0.0,0.0,0.0,0.0,-0.40768370896129635,0.0057160034603178835,-0.23056517987931874,0.3692912533950208,-0.11106878236627445,-0.04573837014730136,-0.36703039207559235,1.6756116874372904,0.05251995039634279,0.03000272237934257,-2.7525202887329003,0.03425224475858798,2.7663727226787143,0.7691824280354721,1.6754973547542302,0.052104326824870026,0.029969505109285054,-2.752394845125968,0.0342448039870148,2.7663679543071322,0.7691630533470046,0.001130891897365344,0.0002598736053634539,-0.00012919497659327235,-3.756338173240029e-05,0.00010245472777476864,-0.00033934465139336535,0.0007567351208799419,0.0,0.0,0.0,0.0,0.0,0.0,0.0,-0.00011433268306015876,-0.00041562357147276185,-3.3217270057516596e-05,0.00012544360693222956,-7.440771573177796e-06,-4.76837158203125e-06,-1.937468846746615e-05,-0.001130891897365344,-0.0002598736053634539,0.00012919497659327235,3.756338173240029e-05,-0.00010245472777476864,0.00033934465139336535,-0.0007567351208799419,0.4505855441093445,22.819665908813477,0.1491362750530243,-14.230989456176758,-0.11748272180557251,-2.1453890800476074,0.39950889348983765,0
52,0.2546882629394531,-0.4505855441093445,-22.819665908813477,-0.1491362750530243,14.230989456176758,0.11748272180557251,2.1453890800476074,-0.39950889348983765,0.0,0.0,0.0,0.0,0.0,0.0,0.0,-0.40768370896129635,0.0057160034603178835,-0.23056517987931874,0.3692912533950208,-0.11106878236627445,-0.04573837014730136,-0.36703039207559235,1.6756116874372904,0.05251995039634279,0.03000272237934257,-2.7525202887329003,0.03425224475858798,2.7663727226787143,0.7691824280354721,1.6754973547542302,0.052104326824870026,0.029969505109285054,-2.752394845125968,0.0342448039870148,2.7663679543071322,0.7691630533470046,0.001130891897365344,0.0002598736053634539,-0.00012919497659327235,-3.756338173240029e-05,0.00010245472777476864,-0.00033934465139336535,0.0007567351208799419,0.0,0.0,0.0,0.0,0.0,0.0,0.0,-0.00011433268306015876,-0.00041562357147276185,-3.3217270057516596e-05,0.00012544360693222956,-7.440771573177796e-06,-4.76837158203125e-06,-1.937468846746615e-05,-0.001130891897365344,-0.0002598736053634539,0.00012919497659327235,3.756338173240029e-05,-0.00010245472777476864,0.00033934465139336535,-0.0007567351208799419,0.4505855441093445,22.819665908813477,0.1491362750530243,-14.230989456176758,-0.11748272180557251,-2.1453890800476074,0.39950889348983765,0
53,0.2596919536590576,-0.4505855441093445,-22.819665908813477,-0.1491362750530243,14.230989456176758,0.11748272180557251,2.1453890800476074,-0.39950889348983765,0.0,0.0,0.0,0.0,0.0,0.0,0.0,-0.40768370896129635,0.0057160034603178835,-0.23056517987931874,0.3692912533950208,-0.11106878236627445,-0.04573837014730136,-0.36703039207559235,1.6756116874372904,0.05251995039634279,0.03000272237934257,-2.7525202887329003,0.03425224475858798,2.7663727226787143,0.7691824280354721,1.6754973547542302,0.052104326824870026,0.029969505109285054,-2.752394845125968,0.0342448039870148,2.7663679543071322,0.7691630533470046,0.001130891897365344,0.0002598736053634539,-0.00012919497659327235,-3.756338173240029e-05,0.00010245472777476864,-0.00033934465139336535,0.0007567351208799419,0.0,0.0,0.0,0.0,0.0,0.0,0.0,-0.00011433268306015876,-0.00041562357147276185,-3.3217270057516596e-05,0.00012544360693222956,-7.440771573177796e-06,-4.76837158203125e-06,-1.937468846746615e-05,-0.001130891897365344,-0.0002598736053634539,0.00012919497659327235,3.756338173240029e-05,-0.00010245472777476864,0.00033934465139336535,-0.0007567351208799419,0.4505855441093445,22.819665908813477,0.1491362750530243,-14.230989456176758,-0.11748272180557251,-2.1453890800476074,0.39950889348983765,0
54,0.26462888717651367,-0.4029781222343445,-22.772058486938477,-0.09756157547235489,14.207185745239258,0.1293845772743225,2.1325716972351074,-0.37204307317733765,0.0,0.0,0.0,0.0,0.0,0.0,0.0,-0.4071765738175854,0.00852010964080216,-0.22862161439299034,0.3630490447613713,-0.11178607169445498,-0.04702962042504684,-0.36797904218797134,1.675608423094568,0.05251661829357886,0.029996491151927387,-2.752518380437206,0.03425092233220735,2.7663741468323604,0.7691797294903683,1.6754973547542302,0.052104326824870026,0.029969505109285054,-2.752394845125968,0.0342448039870148,2.7663679543071322,0.7691630533470046,-0.0002561990870694424,-0.0007946693352110772,-0.0011605353089251807,0.00038238160742394995,-0.0003350043917082059,0.00015216156753518318,0.0005663956806688657,0.0,0.0,0.0,0.0,0.0,0.0,0.0,-0.00011106834033780544,-0.0004122914687088308,-2.6986042642333785e-05,0.00012353531123787675,-6.1183451925475585e-06,-6.192525228154722e-06,-1.6676143363647533e-05,0.0002561990870694424,0.0007946693352110772,0.0011605353089251807,-0.00038238160742394995,0.0003350043917082059,-0.00015216156753518318,-0.0005663956806688657,0.4029781222343445,22.772058486938477,0.09756157547235489,-14.207185745239258,-0.1293845772743225,-2.1325716972351074,0.37204307317733765,0
55,0.2696206569671631,-0.4029781222343445,-22.772058486938477,-0.09756157547235489,14.207185745239258,0.1293845772743225,2.1325716972351074,-0.37204307317733765,0.0,0.0,0.0,0.0,0.0,0.0,0.0,-0.4071765738175854,0.00852010964080216,-0.22862161439299034,0.3630490447613713,-0.11178607169445498,-0.04702962042504684,-0.36797904218797134,1.675608423094568,0.05251661829357886,0.029996491151927387,-2.752518380437206,0.03425092233220735,2.7663741468323604,0.7691797294903683,1.6754973547542302,0.052104326824870026,0.029969505109285054,-2.752394845125968,0.0342448039870148,2.7663679543071322,0.7691630533470046,-0.0002561990870694424,-0.0007946693352110772,-0.0011605353089251807,0.00038238160742394995,-0.0003350043917082059,0.00015216156753518318,0.0005663956806688657,0.0,0.0,0.0,0.0,0.0,0.0,0.0,-0.00011106834033780544,-0.0004122914687088308,-2.6986042642333785e-05,0.00012353531123787675,-6.1183451925475585e-06,-6.192525228154722e-06,-1.6676143363647533e-05,0.0002561990870694424,0.0007946693352110772,0.0011605353089251807,-0.00038238160742394995,0.0003350043917082059,-0.00015216156753518318,-0.0005663956806688657,0.4029781222343445,22.772058486938477,0.09756157547235489,-14.207185745239258,-0.1293845772743225,-2.1325716972351074,0.37204307317733765,0
56,0.27463603019714355,-0.4505855441093445,-22.772058486938477,-0.1729399859905243,14.254793167114258,0.11748272180557251,2.1261630058288574,-0.33084434270858765,0.0,0.0,0.0,0.0,0.0,0.0,0.0,-0.4131201346682519,0.004525311132744231,-0.23445695269938258,0.36534589127367867,-0.1115763747480104,-0.04700046579777326,-0.36683144959001696,1.6756117636517749,0.05251661829362835,0.03000430430837636,-2.7525231966610733,0.03425224476059278,2.766374858909183,0.7691751523401603,1.6754973547542302,0.052104326824870026,0.029969505109285054,-2.752394845125968,0.0342448039870148,2.7663679543071322,0.7691630533470046,0.00039524315964475644,-0.00043754832086093326,-0.0001133257867226874,-0.000503281564752547,0.0002444757933018455,0.00037673232535668757,-0.0020902129766207033,0.0,0.0,0.0,0.0,0.0,0.0,0.0,-0.00011440889754465999,-0.00041229146875832595,-3.4799199091307964e-05,0.0001283515351051534,-7.4407735779769e-06,-6.904602050994413e-06,-1.2098993155684745e-05,-0.00039524315964475644,0.00043754832086093326,0.0001133257867226874,0.000503281564752547,-0.0002444757933018455,-0.00037673232535668757,0.0020902129766207033,0.4505855441093445,22.772058486938477,0.1729399859905243,-14.254793167114258,-0.11748272180557251,-2.1261630058288574,0.33084434270858765,0
57,0.27962636947631836,-0.4505855441093445,-22.772058486938477,-0.1729399859905243,14.254793167114258,0.11748272180557251,2.1261630058288574,-0.33084434270858765,0.0,0.0,0.0,0.0,0.0,0.0,0.0,-0.4131201346682519,0.004525311132744231,-0.23445695269938258,0.36534589127367867,-0.1115763747480104,-0.04700046579777326,-0.36683144959001696,1.6756117636517749,0.05251661829362835,0.03000430430837636,-2.7525231966610733,0.03425224476059278,2.766374858909183,0.7691751523401603,1.6754973547542302,0.052104326824870026,0.029969505109285054,-2.752394845125968,0.0342448039870148,2.7663679543071322,0.7691630533470046,0.00039524315964475644,-0.00043754832086093326,-0.0001133257867226874,-0.000503281564752547,0.0002444757933018455,0.00037673232535668757,-0.0020902129766207033,0.0,0.0,0.0,0.0,0.0,0.0,0.0,-0.00011440889754465999,-0.00041229146875832595,-3.4799199091307964e-05,0.0001283515351051534,-7.4407735779769e-06,-6.904602050994413e-06,-1.2098993155684745e-05,-0.00039524315964475644,0.00043754832086093326,0.0001133257867226874,0.000503281564752547,-0.0002444757933018455,-0.00037673232535668757,0.0020902129766207033,0.4505855441093445,22.772058486938477,0.1729399859905243,-14.254793167114258,-0.11748272180557251,-2.1261630058288574,0.33084434270858765,0
58,0.2846407890319824,-0.4267818331718445,-22.819665908813477,-0.1491362750530243,14.207185745239258,0.12389141321182251,2.1325716972351074,-0.35831016302108765,0.0,0.0,0.0,0.0,0.0,0.0,0.0,-0.41400372327950896,0.00047968940020570294,-0.23450281369008938,0.36611101373882815,-0.11275781426007297,-0.0474072143927562,-0.3688786305345043,1.6756100935308538,0.05251995916533888,0.03000272253545605,-2.752519854591783,0.03425153219660341,2.7663741468323604,0.7691779812202711,1.6754973547542302,0.052104326824870026,0.029969505109285054,-2.752394845125968,0.0342448039870148,2.7663679543071322,0.7691630533470046,-0.00029430678054703194,0.00041121380474672955,-0.0013396287017178648,0.0005293524354631579,0.0005177587036936465,-3.958387073414972e-05,-0.00015594493591671304,0.0,0.0,0.0,0.0,0.0,0.0,0.0,-0.00011273877662354437,-0.0004156323404688536,-3.321742617099638e-05,0.00012500946581495143,-6.72820958860787e-06,-6.192525228154722e-06,-1.492787326651257e-05,0.00029430678054703194,-0.00041121380474672955,0.0013396287017178648,-0.0005293524354631579,-0.0005177587036936465,3.958387073414972e-05,0.00015594493591671304,0.4267818331718445,22.819665908813477,0.1491362750530243,-14.207185745239258,-0.12389141321182251,-2.1325716972351074,0.35831016302108765,0
59,0.28963541984558105,-0.4267818331718445,-22.819665908813477,-0.1491362750530243,14.207185745239258,0.12389141321182251,2.1325716972351074,-0.35831016302108765,0.0,0.0,0.0,0.0,0.0,0.0,0.0,-0.41400372327950896,0.00047968940020570294,-0.23450281369008938,0.36611101373882815,-0.11275781426007297,-0.0474072143927562,-0.3688786305345043,1.6756100935308538,0.05251995916533888,0.03000272253545605,-2.752519854591783,0.03425153219660341,2.7663741468323604,0.7691779812202711,1.6754973547542302,0.052104326824870026,0.029969505109285054,-2.752394845125968,0.0342448039870148,2.7663679543071322,0.7691630533470046,-0.00029430678054703194,0.00041121380474672955,-0.0013396287017178648,0.0005293524354631579,0.0005177587036936465,-3.958387073414972e-05,-0.00015594493591671304,0.0,0.0,0.0,0.0,0.0,0.0,0.0,-0.00011273877662354437,-0.0004156323404688536,-3.321742617099638e-05,0.00012500946581495143,-6.72820958860787e-06,-6.192525228154722e-06,-1.492787326651257e-05,0.00029430678054703194,-0.00041121380474672955,0.0013396287017178648,-0.0005293524354631579,-0.0005177587036936465,3.958387073414972e-05,0.00015594493591671304,0.4267818331718445,22.819665908813477,0.1491362750530243,-14.207185745239258,-0.12389141321182251,-2.1325716972351074,0.35831016302108765,0
60,0.29465246200561523,-0.3752071261405945,-22.748254776000977,-0.1253325641155243,14.230989456176758,0.12389141321182251,2.1453890800476074,-0.35098594427108765,0.0,0.0,0.0,0.0,0.0,0.0,0.0,-0.405805971760683,0.00471579334040452,-0.23079624883288552,0.3641986289409542,-0.11276371756124191,-0.048503534209029614,-0.36781273173569573,1.6756062446649078,0.05251494785777309,0.030000499832469666,-2.7525200423889,0.03425153268376976,2.7663727226787143,0.7691802198717351,1.6754973547542302,0.052104326824870026,0.029969505109285054,-2.752394845125968,0.0342448039870148,2.7663679543071322,0.7691630533470046,0.00022536916267717935,-0.001329564576989588,0.0002557020738718987,-0.0004612203507186129,-5.058228832436693e-05,-0.00032489773024993495,-0.00039711490801493565,0.0,0.0,0.0,0.0,0.0,0.0,0.0,-0.0001088899106775898,-0.0004106210329030621,-3.0994723184612355e-05,0.0001251972629319198,-6.728696754956798e-06,-4.76837158203125e-06,-1.716652473049418e-05,-0.00022536916267717935,0.001329564576989588,-0.0002557020738718987,0.0004612203507186129,5.058228832436693e-05,0.00032489773024993495,0.00039711490801493565,0.3752071261405945,22.748254776000977,0.1253325641155243,-14.230989456176758,-0.12389141321182251,-2.1453890800476074,0.35098594427108765,0
61,0.29968905448913574,-0.3752071261405945,-22.748254776000977,-0.1253325641155243,14.230989456176758,0.12389141321182251,2.1453890800476074,-0.35098594427108765,0.0,0.0,0.0,0.0,0.0,0.0,0.0,-0.405805971760683,0.00471579334040452,-0.23079624883288552,0.3641986289409542,-0.11276371756124191,-0.048503534209029614,-0.36781273173569573,1.6756062446649078,0.05251494785777309,0.030000499832469666,-2.7525200423889,0.03425153268376976,2.7663727226787143,0.7691802198717351,1.6754973547542302,0.052104326824870026,0.029969505109285054,-2.752394845125968,0.0342448039870148,2.7663679543071322,0.7691630533470046,0.00022536916267717935,-0.001329564576989588,0.0002557020738718987,-0.0004612203507186129,-5.058228832436693e-05,-0.00032489773024993495,-0.00039711490801493565,0.0,0.0,0.0,0.0,0.0,0.0,0.0,-0.0001088899106775898,-0.0004106210329030621,-3.0994723184612355e-05,0.0001251972629319198,-6.728696754956798e-06,-4.76837158203125e-06,-1.716652473049418e-05,-0.00022536916267717935,0.001329564576989588,-0.0002557020738718987,0.0004612203507186129,5.058228832436693e-05,0.00032489773024993495,0.00039711490801493565,0.3752071261405945,22.748254776000977,0.1253325641155243,-14.230989456176758,-0.12389141321182251,-2.1453890800476074,0.35098594427108765,0
62,0.3046383857727051,-0.3514034152030945,-22.795862197875977,-0.1253325641155243,14.254793167114258,0.12389141321182251,2.1389803886413574,-0.35831016302108765,0.0,0.0,0.0,0.0,0.0,0.0,0.0,-0.4106388830854275,0.00471581590930645,-0.23805411006731958,0.36801044761739504,-0.11066314640986448,-0.047647280543585004,-0.36661580084188167,1.6756048038160176,0.052518288729483616,0.029998395341185608,-2.752521711848682,0.03425153268376986,2.766373434755537,0.7691778504167219,1.6754973547542302,0.052104326824870026,0.029969505109285054,-2.752394845125968,0.0342448039870148,2.7663679543071322,0.7691630533470046,-0.0004263025556824664,1.228606812315284e-05,-7.41659097346114e-05,-0.0002890894852007127,-0.0001390606075321622,-0.00019143166599890543,-0.0005842711982953542,0.0,0.0,0.0,0.0,0.0,0.0,0.0,-0.00010744906178739022,-0.0004139619046135898,-2.889023190055448e-05,0.000126866722713892,-6.728696755060881e-06,-5.480448404870941e-06,-1.4797069717298328e-05,0.0004263025556824664,-1.228606812315284e-05,7.41659097346114e-05,0.0002890894852007127,0.0001390606075321622,0.00019143166599890543,0.0005842711982953542,0.3514034152030945,22.795862197875977,0.1253325641155243,-14.254793167114258,-0.12389141321182251,-2.1389803886413574,0.35831016302108765,0
63,0.3096315860748291,-0.3514034152030945,-22.795862197875977,-0.1253325641155243,14.254793167114258,0.12389141321182251,2.1389803886413574,-0.35831016302108765,0.0,0.0,0.0,0.0,0.0,0.0,0.0,-0.4106388830854275,0.00471581590930645,-0.23805411006731958,0.36801044761739504,-0.11066314640986448,-0.047647280543585004,-0.36661580084188167,1.6756048038160176,0.052518288729483616,0.029998395341185608,-2.752521711848682,0.03425153268376986,2.766373434755537,0.7691778504167219,1.6754973547542302,0.052104326824870026,0.029969505109285054,-2.752394845125968,0.0342448039870148,2.7663679543071322,0.7691630533470046,-0.0004263025556824664,1.228606812315284e-05,-7.41659097346114e-05,-0.0002890894852007127,-0.0001390606075321622,-0.00019143166599890543,-0.0005842711982953542,0.0,0.0,0.0,0.0,0.0,0.0,0.0,-0.00010744906178739022,-0.0004139619046135898,-2.889023190055448e-05,0.000126866722713892,-6.728696755060881e-06,-5.480448404870941e-06,-1.4797069717298328e-05,0.0004263025556824664,-1.228606812315284e-05,7.41659097346114e-05,0.0002890894852007127,0.0001390606075321622,0.00019143166599890543,0.0005842711982953542,0.3514034152030945,22.795862197875977,0.1253325641155243,-14.254793167114258,-0.12389141321182251,-2.1389803886413574,0.35831016302108765,0
64,0.31463623046875,-0.3752071261405945,-22.748254776000977,-0.1491362750530243,14.179414749145508,0.11748272180557251,2.1325716972351074,-0.40591758489608765,0.0,0.0,0.0,0.0,0.0,0.0,0.0,-0.40509862742014296,0.012422895399748324,-0.23470469732557056,0.36537930923291984,-0.11023309463826798,-0.04861111583282859,-0.3663289147392032,1.6756064739382333,0.05251494785777309,0.029999882984820963,-2.7525165323347807,0.03425224476059278,2.7663741468323604,0.7691831795196562,1.6754973547542302,0.052104326824870026,0.029969505109285054,-2.752394845125968,0.0342448039870148,2.7663679543071322,0.7691630533470046,-0.0003912815661680305,-0.0005677153847272528,0.00020072644640344004,0.001363049823094623,9.774504988029366e-05,0.00011567722631668296,0.002043206532725628,0.0,0.0,0.0,0.0,0.0,0.0,0.0,-0.00010911918400302589,-0.0004106210329030621,-3.0377875535909232e-05,0.00012168720881255979,-7.4407735779769e-06,-6.192525228154722e-06,-2.0126172651568908e-05,0.0003912815661680305,0.0005677153847272528,-0.00020072644640344004,-0.001363049823094623,-9.774504988029366e-05,-0.00011567722631668296,-0.002043206532725628,0.3752071261405945,22.748254776000977,0.1491362750530243,-14.179414749145508,-0.11748272180557251,-2.1325716972351074,0.40591758489608765,0
65,0.31961894035339355,-0.3752071261405945,-22.748254776000977,-0.1491362750530243,14.179414749145508,0.11748272180557251,2.1325716972351074,-0.40591758489608765,0.0,0.0,0.0,0.0,0.0,0.0,0.0,-0.40509862742014296,0.012422895399748324,-0.23470469732557056,0.36537930923291984,-0.11023309463826798,-0.04861111583282859,-0.3663289147392032,1.6756064739382333,0.05251494785777309,0.029999882984820963,-2.7525165323347807,0.03425224476059278,2.7663741468323604,0.7691831795196562,1.6754973547542302,0.052104326824870026,0.029969505109285054,-2.752394845125968,0.0342448039870148,2.7663679543071322,0.7691630533470046,-0.0003912815661680305,-0.0005677153847272528,0.00020072644640344004,0.001363049823094623,9.774504988029366e-05,0.00011567722631668296,0.002043206532725628,0.0,0.0,0.0,0.0,0.0,0.0,0.0,-0.00010911918400302589,-0.0004106210329030621,-3.0377875535909232e-05,0.00012168720881255979,-7.4407735779769e-06,-6.192525228154722e-06,-2.0126172651568908e-05,0.0003912815661680305,0.0005677153847272528,-0.00020072644640344004,-0.001363049823094623,-9.774504988029366e-05,-0.00011567722631668296,-0.002043206532725628,0.3752071261405945,22.748254776000977,0.1491362750530243,-14.179414749145508,-0.11748272180557251,-2.1325716972351074,0.40591758489608765,0
66,0.32462525367736816,-0.3752071261405945,-22.748254776000977,-0.1491362750530243,14.179414749145508,0.11748272180557251,2.1325716972351074,-0.40591758489608765,0.0,0.0,0.0,0.0,0.0,0.0,0.0,-0.40509862742014296,0.012422895399748324,-0.23470469732557056,0.36537930923291984,-0.11023309463826798,-0.04861111583282859,-0.3663289147392032,1.6756064739382333,0.05251494785777309,0.029999882984820963,-2.7525165323347807,0.03425224476059278,2.7663741468323604,0.7691831795196562,1.6754973547542302,0.052104326824870026,0.029969505109285054,-2.752394845125968,0.0342448039870148,2.7663679543071322,0.7691630533470046,-0.0003912815661680305,-0.0005677153847272528,0.00020072644640344004,0.001363049823094623,9.774504988029366e-05,0.00011567722631668296,0.002043206532725628,0.0,0.0,0.0,0.0,0.0,0.0,0.0,-0.00010911918400302589,-0.0004106210329030621,-3.0377875535909232e-05,0.00012168720881255979,-7.4407735779769e-06,-6.192525228154722e-06,-2.0126172651568908e-05,0.0003912815661680305,0.0005677153847272528,-0.00020072644640344004,-0.001363049823094623,-9.774504988029366e-05,-0.00011567722631668296,-0.002043206532725628,0.3752071261405945,22.748254776000977,0.1491362750530243,-14.179414749145508,-0.11748272180557251,-2.1325716972351074,0.40591758489608765,0
67,0.32964015007019043,-0.3752071261405945,-22.748254776000977,-0.1491362750530243,14.179414749145508,0.11748272180557251,2.1325716972351074,-0.40591758489608765,0.0,0.0,0.0,0.0,0.0,0.0,0.0,-0.40509862742014296,0.012422895399748324,-0.23470469732557056,0.36537930923291984,-0.11023309463826798,-0.04861111583282859,-0.3663289147392032,1.6756064739382333,0.05251494785777309,0.029999882984820963,-2.7525165323347807,0.03425224476059278,2.7663741468323604,0.7691831795196562,1.6754973547542302,0.052104326824870026,0.029969505109285054,-2.752394845125968,0.0342448039870148,2.7663679543071322,0.7691630533470046,-0.0003912815661680305,-0.0005677153847272528,0.00020072644640344004,0.001363049823094623,9.774504988029366e-05,0.00011567722631668296,0.002043206532725628,0.0,0.0,0.0,0.0,0.0,0.0,0.0,-0.00010911918400302589,-0.0004106210329030621,-3.0377875535909232e-05,0.00012168720881255979,-7.4407735779769e-06,-6.192525228154722e-06,-2.0126172651568908e-05,0.0003912815661680305,0.0005677153847272528,-0.00020072644640344004,-0.001363049823094623,-9.774504988029366e-05,-0.00011567722631668296,-0.002043206532725628,0.3752071261405945,22.748254776000977,0.1491362750530243,-14.179414749145508,-0.11748272180557251,-2.1325716972351074,0.40591758489608765,0
68,0.3346867561340332,-0.4505855441093445,-22.772058486938477,-0.1491362750530243,14.254793167114258,0.1357932686805725,2.1325716972351074,-0.39218467473983765,0.0,0.0,0.0,0.0,0.0,0.0,0.0,-0.399649720620764,0.005487308092622156,-0.22980476415641482,0.3705243734591506,-0.11060910685148441,-0.0481133624553023,-0.3650184322298128,1.675611763966709,0.05251660952463226,0.029999797942659508,-2.752521226471187,0.034250210255384446,2.7663741075865036,0.7691816534794668,1.6754973547542302,0.052104326824870026,0.029969505109285054,-2.752394845125968,0.0342448039870148,2.7663679543071322,0.7691630533470046,0.0009231536946460867,-0.000767932919742244,-3.8783321149475656e-05,-0.00075563188927926,-0.0005407874370257279,-4.74043137480981e-06,0.0009939832707270846,0.0,0.0,0.0,0.0,0.0,0.0,0.0,-0.00011440921247873881,-0.0004122826997622342,-3.0292833374453987e-05,0.00012638134521880673,-5.406268369645417e-06,-6.1532793713681144e-06,-1.8600132462132102e-05,-0.0009231536946460867,0.000767932919742244,3.8783321149475656e-05,0.00075563188927926,0.0005407874370257279,4.74043137480981e-06,-0.0009939832707270846,0.4505855441093445,22.772058486938477,0.1491362750530243,-14.254793167114258,-0.1357932686805725,-2.1325716972351074,0.39218467473983765,0
69,0.33966922760009766,-0.4505855441093445,-22.772058486938477,-0.1491362750530243,14.254793167114258,0.1357932686805725,2.1325716972351074,-0.39218467473983765,0.0,0.0,0.0,0.0,0.0,0.0,0.0,-0.399649720620764,0.005487308092622156,-0.22980476415641482,0.3705243734591506,-0.11060910685148441,-0.0481133624553023,-0.3650184322298128,1.675611763966709,0.05251660952463226,0.029999797942659508,-2.752521226471187,0.034250210255384446,2.7663741075865036,0.7691816534794668,1.6754973547542302,0.052104326824870026,0.029969505109285054,-2.752394845125968,0.0342448039870148,2.7663679543071322,0.7691630533470046,0.0009231536946460867,-0.000767932919742244,-3.8783321149475656e-05,-0.00075563188927926,-0.0005407874370257279,-4.74043137480981e-06,0.0009939832707270846,0.0,0.0,0.0,0.0,0.0,0.0,0.0,-0.00011440921247873881,-0.0004122826997622342,-3.0292833374453987e-05,0.00012638134521880673,-5.406268369645417e-06,-6.1532793713681144e-06,-1.8600132462132102e-05,-0.0009231536946460867,0.000767932919742244,3.8783321149475656e-05,0.00075563188927926,0.0005407874370257279,4.74043137480981e-06,-0.0009939832707270846,0.4505855441093445,22.772058486938477,0.1491362750530243,-14.254793167114258,-0.1357932686805725,-2.1325716972351074,0.39218467473983765,0
70,0.3446345329284668,-0.4267818331718445,-22.748254776000977,-0.2007109820842743,14.254793167114258,0.12389141321182251,2.1325716972351074,-0.35098594427108765,0.0,0.0,0.0,0.0,0.0,0.0,0.0,-0.411565048492509,0.013406789539497433,-0.2366759499267217,0.36853691280084855,-0.10986465415751599,-0.04844728639231894,-0.3663492683929493,1.6756100935308555,0.052514947857756594,0.030006256935292745,-2.752521062651747,0.03425153268376986,2.766374146832286,0.7691770372427652,1.6754973547542302,0.052104326824870026,0.029969505109285054,-2.752394845125968,0.0342448039870148,2.7663679543071322,0.7691630533470046,-0.0008213559408887555,-0.0005253200753088767,0.0004908008828425786,-0.0005570377942472763,-0.00010036122288026447,0.00047863940498836586,-0.0010834408838048498,0.0,0.0,0.0,0.0,0.0,0.0,0.0,-0.00011273877662532072,-0.00041062103288656837,-3.675182600769086e-05,0.00012621752577901546,-6.728696755060881e-06,-6.1925251539918236e-06,-1.3983895760572018e-05,0.0008213559408887555,0.0005253200753088767,-0.0004908008828425786,0.0005570377942472763,0.00010036122288026447,-0.00047863940498836586,0.0010834408838048498,0.4267818331718445,22.748254776000977,0.2007109820842743,-14.254793167114258,-0.12389141321182251,-2.1325716972351074,0.35098594427108765,0
71,0.3496224880218506,-0.4267818331718445,-22.748254776000977,-0.2007109820842743,14.254793167114258,0.12389141321182251,2.1325716972351074,-0.35098594427108765,0.0,0.0,0.0,0.0,0.0,0.0,0.0,-0.411565048492509,0.013406789539497433,-0.2366759499267217,0.36853691280084855,-0.10986465415751599,-0.04844728639231894,-0.3663492683929493,1.6756100935308555,0.052514947857756594,0.030006256935292745,-2.752521062651747,0.03425153268376986,2.766374146832286,0.7691770372427652,1.6754973547542302,0.052104326824870026,0.029969505109285054,-2.752394845125968,0.0342448039870148,2.7663679543071322,0.7691630533470046,-0.0008213559408887555,-0.0005253200753088767,0.0004908008828425786,-0.0005570377942472763,-0.00010036122288026447,0.00047863940498836586,-0.0010834408838048498,0.0,0.0,0.0,0.0,0.0,0.0,0.0,-0.00011273877662532072,-0.00041062103288656837,-3.675182600769086e-05,0.00012621752577901546,-6.728696755060881e-06,-6.1925251539918236e-06,-1.3983895760572018e-05,0.0008213559408887555,0.0005253200753088767,-0.0004908008828425786,0.0005570377942472763,0.00010036122288026447,-0.00047863940498836586,0.0010834408838048498,0.4267818331718445,22.748254776000977,0.2007109820842743,-14.254793167114258,-0.12389141321182251,-2.1325716972351074,0.35098594427108765,0
72,0.3546452522277832,-0.4029781222343445,-22.819665908813477,-0.1729399859905243,14.207185745239258,0.12389141321182251,2.1453890800476074,-0.36471885442733765,0.0,0.0,0.0,0.0,0.0,0.0,0.0,-0.4092214689352546,0.009097528176661108,-0.23110722380011792,0.36839963495211353,-0.11139418987124443,-0.046933379087720016,-0.36826148875211284,1.6756083465655798,0.05251995916533888,0.03000465455349251,-2.752517879527963,0.03425153268376986,2.766372722678714,0.7691785639291292,1.6754973547542302,0.052104326824870026,0.029969505109285054,-2.752394845125968,0.0342448039870148,2.7663679543071322,0.7691630533470046,-0.0002126011439846755,0.00048745312913331195,0.00028739780313443336,0.00010281682238134511,-0.00021502065853155227,-0.00016569336722814995,0.00023391719465136405,0.0,0.0,0.0,0.0,0.0,0.0,0.0,-0.00011099181134954783,-0.0004156323404688536,-3.514944420745722e-05,0.00012303440199490367,-6.728696755060881e-06,-4.768371581587161e-06,-1.551058212456713e-05,0.0002126011439846755,-0.00048745312913331195,-0.00028739780313443336,-0.00010281682238134511,0.00021502065853155227,0.00016569336722814995,-0.00023391719465136405,0.4029781222343445,22.819665908813477,0.1729399859905243,-14.207185745239258,-0.12389141321182251,-2.1453890800476074,0.36471885442733765,0
73,0.3596200942993164,-0.4029781222343445,-22.819665908813477,-0.1729399859905243,14.207185745239258,0.12389141321182251,2.1453890800476074,-0.36471885442733765,0.0,0.0,0.0,0.0,0.0,0.0,0.0,-0.4092214689352546,0.009097528176661108,-0.23110722380011792,0.36839963495211353,-0.11139418987124443,-0.046933379087720016,-0.36826148875211284,1.6756083465655798,0.05251995916533888,0.03000465455349251,-2.752517879527963,0.03425153268376986,2.766372722678714,0.7691785639291292,1.6754973547542302,0.052104326824870026,0.029969505109285054,-2.752394845125968,0.0342448039870148,2.7663679543071322,0.7691630533470046,-0.0002126011439846755,0.00048745312913331195,0.00028739780313443336,0.00010281682238134511,-0.00021502065853155227,-0.00016569336722814995,0.00023391719465136405,0.0,0.0,0.0,0.0,0.0,0.0,0.0,-0.00011099181134954783,-0.0004156323404688536,-3.514944420745722e-05,0.00012303440199490367,-6.728696755060881e-06,-4.768371581587161e-06,-1.551058212456713e-05,0.0002126011439846755,-0.00048745312913331195,-0.00028739780313443336,-0.00010281682238134511,0.00021502065853155227,0.00016569336722814995,-0.00023391719465136405,0.4029781222343445,22.819665908813477,0.1729399859905243,-14.207185745239258,-0.12389141321182251,-2.1453890800476074,0.36471885442733765,0
74,0.36464667320251465,-0.3514034152030945,-22.795862197875977,-0.1253325641155243,14.254793167114258,0.11748272180557251,2.1325716972351074,-0.37845176458358765,0.0,0.0,0.0,0.0,0.0,0.0,0.0,-0.4043206972462389,0.01825386185419332,-0.22866150777749492,0.36030203135380584,-0.11256275853100138,-0.048707055785248914,-0.3682777627336153,1.6756048009824587,0.052518288729483616,0.029998833540077607,-2.752521055567966,0.03425224476059278,2.76637414683236,0.7691801057970926,1.6754973547542302,0.052104326824870026,0.029969505109285054,-2.752394845125968,0.0342448039870148,2.7663679543071322,0.7691630533470046,-0.0005241742175312098,0.00032185907983039525,0.0001239184719955311,-0.00012764876762363196,3.642765595034157e-05,0.0019442182070382031,0.00043375051944154056,0.0,0.0,0.0,0.0,0.0,0.0,0.0,-0.00010744622822844718,-0.0004139619046135898,-2.9328430792553012e-05,0.00012621044199789822,-7.4407735779769e-06,-6.192525227710632e-06,-1.7052450087984283e-05,0.0005241742175312098,-0.00032185907983039525,-0.0001239184719955311,0.00012764876762363196,-3.642765595034157e-05,-0.0019442182070382031,-0.00043375051944154056,0.3514034152030945,22.795862197875977,0.1253325641155243,-14.254793167114258,-0.11748272180557251,-2.1325716972351074,0.37845176458358765,0
75,0.36963915824890137,-0.3514034152030945,-22.795862197875977,-0.1253325641155243,14.254793167114258,0.11748272180557251,2.1325716972351074,-0.37845176458358765,0.0,0.0,0.0,0.0,0.0,0.0,0.0,-0.4043206972462389,0.01825386185419332,-0.22866150777749492,0.36030203135380584,-0.11256275853100138,-0.048707055785248914,-0.3682777627336153,1.6756048009824587,0.052518288729483616,0.029998833540077607,-2.752521055567966,0.03425224476059278,2.76637414683236,0.7691801057970926,1.6754973547542302,0.052104326824870026,0.029969505109285054,-2.752394845125968,0.0342448039870148,2.7663679543071322,0.7691630533470046,-0.0005241742175312098,0.00032185907983039525,0.0001239184719955311,-0.00012764876762363196,3.642765595034157e-05,0.0019442182070382031,0.00043375051944154056,0.0,0.0,0.0,0.0,0.0,0.0,0.0,-0.00010744622822844718,-0.0004139619046135898,-2.9328430792553012e-05,0.00012621044199789822,-7.4407735779769e-06,-6.192525227710632e-06,-1.7052450087984283e-05,0.0005241742175312098,-0.00032185907983039525,-0.0001239184719955311,0.00012764876762363196,-3.642765595034157e-05,-0.0019442182070382031,-0.00043375051944154056,0.3514034152030945,22.795862197875977,0.1253325641155243,-14.254793167114258,-0.11748272180557251,-2.1325716972351074,0.37845176458358765,0
76,0.37468576431274414,-0.4267818331718445,-22.795862197875977,-0.2007109820842743,14.254793167114258,0.1357932686805725,2.1517977714538574,-0.40591758489608765,0.0,0.0,0.0,0.0,0.0,0.0,0.0,-0.41434638530145357,0.014356216829261954,-0.2394535630718817,0.3684895760297537,-0.1119882484623442,-0.0457290652471661,-0.3681688242354703,1.6756093962627865,0.052518288729483616,0.030004210734216868,-2.7525209700605964,0.034250210255384446,2.766372010601891,0.7691831416197779,1.6754973547542302,0.052104326824870026,0.029969505109285054,-2.752394845125968,0.0342448039870148,2.7663679543071322,0.7691630533470046,0.0003382891663592628,0.00033062844770589283,0.0013650886562244825,-0.00039254258026140366,-0.0006212682571212012,-0.0002067758780455194,0.0021891948544515267,0.0,0.0,0.0,0.0,0.0,0.0,0.0,-0.00011204150855625983,-0.0004139619046135898,-3.470562493181409e-05,0.0001261249346282689,-5.406268369645417e-06,-4.05629475874747e-06,-2.0088272773222116e-05,-0.0003382891663592628,-0.00033062844770589283,-0.0013650886562244825,0.00039254258026140366,0.0006212682571212012,0.0002067758780455194,-0.0021891948544515267,0.4267818331718445,22.795862197875977,0.2007109820842743,-14.254793167114258,-0.1357932686805725,-2.1517977714538574,0.40591758489608765,0
77,0.3796968460083008,-0.4267818331718445,-22.795862197875977,-0.2007109820842743,14.254793167114258,0.1357932686805725,2.1517977714538574,-0.40591758489608765,0.0,0.0,0.0,0.0,0.0,0.0,0.0,-0.41434638530145357,0.014356216829261954,-0.2394535630718817,0.3684895760297537,-0.1119882484623442,-0.0457290652471661,-0.3681688242354703,1.6756093962627865,0.052518288729483616,0.030004210734216868,-2.7525209700605964,0.034250210255384446,2.766372010601891,0.7691831416197779,1.6754973547542302,0.052104326824870026,0.029969505109285054,-2.752394845125968,0.0342448039870148,2.7663679543071322,0.7691630533470046,0.0003382891663592628,0.00033062844770589283,0.0013650886562244825,-0.00039254258026140366,-0.0006212682571212012,-0.0002067758780455194,0.0021891948544515267,0.0,0.0,0.0,0.0,0.0,0.0,0.0,-0.00011204150855625983,-0.0004139619046135898,-3.470562493181409e-05,0.0001261249346282689,-5.406268369645417e-06,-4.05629475874747e-06,-2.0088272773222116e-05,-0.0003382891663592628,-0.00033062844770589283,-0.0013650886562244825,0.00039254258026140366,0.0006212682571212012,0.0002067758780455194,-0.0021891948544515267,0.4267818331718445,22.795862197875977,0.2007109820842743,-14.254793167114258,-0.1357932686805725,-2.1517977714538574,0.40591758489608765,0
78,0.38470029830932617,-0.4505855441093445,-22.819665908813477,-0.1729399859905243,14.230989456176758,0.11748272180557251,2.1197543144226074,-0.35098594427108765,0.0,0.0,0.0,0.0,0.0,0.0,0.0,-0.4163333368203447,0.00849544669583965,-0.2408498701851263,0.3734395894490153,-0.11208945701730885,-0.043601097906455735,-0.3667678161816827,1.6756117639312857,0.05251995916533888,0.030001730253147646,-2.752519299624259,0.034252231607098636,2.7663755709860056,0.7691770380502959,1.6754973547542302,0.052104326824870026,0.029969505109285054,-2.752394845125968,0.0342448039870148,2.7663679543071322,0.7691630533470046,0.0004820176996455474,0.0006130227062139729,-0.00017998220040146837,4.189736392001931e-05,-9.658780928967037e-05,0.000777061875206577,-0.0005475758748899212,0.0,0.0,0.0,0.0,0.0,0.0,0.0,-0.0001144091770555189,-0.0004156323404688536,-3.222514386259229e-05,0.00012445449829101562,-7.427620083835795e-06,-7.616678873390015e-06,-1.3984703291280987e-05,-0.0004820176996455474,-0.0006130227062139729,0.00017998220040146837,-4.189736392001931e-05,9.658780928967037e-05,-0.000777061875206577,0.0005475758748899212,0.4505855441093445,22.819665908813477,0.1729399859905243,-14.230989456176758,-0.11748272180557251,-2.1197543144226074,0.35098594427108765,0
79,0.38962721824645996,-0.4505855441093445,-22.819665908813477,-0.1729399859905243,14.230989456176758,0.11748272180557251,2.1197543144226074,-0.35098594427108765,0.0,0.0,0.0,0.0,0.0,0.0,0.0,-0.4163333368203447,0.00849544669583965,-0.2408498701851263,0.3734395894490153,-0.11208945701730885,-0.043601097906455735,-0.3667678161816827,1.6756117639312857,0.05251995916533888,0.030001730253147646,-2.752519299624259,0.034252231607098636,2.7663755709860056,0.7691770380502959,1.6754973547542302,0.052104326824870026,0.029969505109285054,-2.752394845125968,0.0342448039870148,2.7663679543071322,0.7691630533470046,0.0004820176996455474,0.0006130227062139729,-0.00017998220040146837,4.189736392001931e-05,-9.658780928967037e-05,0.000777061875206577,-0.0005475758748899212,0.0,0.0,0.0,0.0,0.0,0.0,0.0,-0.0001144091770555189,-0.0004156323404688536,-3.222514386259229e-05,0.00012445449829101562,-7.427620083835795e-06,-7.616678873390015e-06,-1.3984703291280987e-05,-0.0004820176996455474,-0.0006130227062139729,0.00017998220040146837,-4.189736392001931e-05,9.658780928967037e-05,-0.000777061875206577,0.0005475758748899212,0.4505855441093445,22.819665908813477,0.1729399859905243,-14.230989456176758,-0.11748272180557251,-2.1197543144226074,0.35098594427108765,0
