rezayati/contactInterpretation/dataset/franka_main/labeled_data/link4/d7_3.csv
index,time,tau_J0,tau_J1,tau_J2,tau_J3,tau_J4,tau_J5,tau_J6,tau_J_d0,tau_J_d1,tau_J_d2,tau_J_d3,tau_J_d4,tau_J_d5,tau_J_d6,tau_ext0,tau_ext1,tau_ext2,tau_ext3,tau_ext4,tau_ext5,tau_ext6,q0,q1,q2,q3,q4,q5,q6,q_d0,q_d1,q_d2,q_d3,q_d4,q_d5,q_d6,dq0,dq1,dq2,dq3,dq4,dq5,dq6,dq_d0,dq_d1,dq_d2,dq_d3,dq_d4,dq_d5,dq_d6,e0,e1,e2,e3,e4,e5,e6,de0,de1,de2,de3,de4,de5,de6,etau_J0,etau_J1,etau_J2,etau_J3,etau_J4,etau_J5,etau_J6,label
1,0.0,-0.5021602511405945,-34.18990707397461,-3.7752349376678467,19.436067581176758,0.2484031319618225,1.783755898475647,-0.09738485515117645,0.0,0.0,0.0,0.0,0.0,0.0,0.0,-0.4868355285070266,-0.09356280416513653,-0.2462164047493164,0.43045899543780997,0.19762224286465588,-0.1218514626449657,-0.12516670432323426,1.0546460965730229,0.32421861848429534,-0.39250127868903306,-2.153497399380332,0.8647493087880124,2.465939690947532,0.5444888080297547,1.0544104758940245,0.3238615046091247,-0.39250456234122666,-2.153291787532338,0.8647539153680389,2.46587817577521,0.5445020185570556,0.000553387895175246,0.00047019066347208895,-0.0005162926219787991,0.00023847888653884223,1.729527131209516e-05,-5.555884756427342e-05,-0.0012344754967645163,0.0,0.0,0.0,0.0,0.0,0.0,0.0,-0.000235620678998405,-0.00035711387517062265,-3.283652193597497e-06,0.00020561184799428034,4.606580026544904e-06,-6.151517232222403e-05,1.3210527300855368e-05,-0.000553387895175246,-0.00047019066347208895,0.0005162926219787991,-0.00023847888653884223,-1.729527131209516e-05,5.555884756427342e-05,0.0012344754967645163,0.5021602511405945,34.18990707397461,3.7752349376678467,-19.436067581176758,-0.2484031319618225,-1.783755898475647,0.09738485515117645,0
2,0.004982471466064453,-0.5021602511405945,-34.18990707397461,-3.7752349376678467,19.436067581176758,0.2484031319618225,1.783755898475647,-0.09738485515117645,0.0,0.0,0.0,0.0,0.0,0.0,0.0,-0.4868355285070266,-0.09356280416513653,-0.2462164047493164,0.43045899543780997,0.19762224286465588,-0.1218514626449657,-0.12516670432323426,1.0546460965730229,0.32421861848429534,-0.39250127868903306,-2.153497399380332,0.8647493087880124,2.465939690947532,0.5444888080297547,1.0544104758940245,0.3238615046091247,-0.39250456234122666,-2.153291787532338,0.8647539153680389,2.46587817577521,0.5445020185570556,0.000553387895175246,0.00047019066347208895,-0.0005162926219787991,0.00023847888653884223,1.729527131209516e-05,-5.555884756427342e-05,-0.0012344754967645163,0.0,0.0,0.0,0.0,0.0,0.0,0.0,-0.000235620678998405,-0.00035711387517062265,-3.283652193597497e-06,0.00020561184799428034,4.606580026544904e-06,-6.151517232222403e-05,1.3210527300855368e-05,-0.000553387895175246,-0.00047019066347208895,0.0005162926219787991,-0.00023847888653884223,-1.729527131209516e-05,5.555884756427342e-05,0.0012344754967645163,0.5021602511405945,34.18990707397461,3.7752349376678467,-19.436067581176758,-0.2484031319618225,-1.783755898475647,0.09738485515117645,0
3,0.009926795959472656,-0.4783565402030945,-34.13833236694336,-3.8228423595428467,19.459871292114258,0.2484031319618225,1.783755898475647,-0.10470907390117645,0.0,0.0,0.0,0.0,0.0,0.0,0.0,-0.48141433018903895,-0.08419998441566535,-0.23902580962745706,0.4278605701217785,0.19724048018616888,-0.12262345363290048,-0.12575021458078572,1.0546422719882493,0.3242145220423946,-0.3924979378173225,-2.1534990698161875,0.8647493090033531,2.465939690947532,0.5444889550651515,1.0544104758940245,0.3238615046091247,-0.39250456234122666,-2.153291787532338,0.8647539153680389,2.46587817577521,0.5445020185570556,-0.00010554556551193225,-0.00011566266442132188,0.0005958895387372416,8.212536605960097e-05,3.0129452128342018e-05,-0.00012100104353427504,-0.0012920481978070768,0.0,0.0,0.0,0.0,0.0,0.0,0.0,-0.00023179609422485647,-0.00035301743326987545,-6.6245239041529125e-06,0.00020728228384969682,4.606364685799669e-06,-6.151517232222403e-05,1.3063491904108382e-05,0.00010554556551193225,0.00011566266442132188,-0.0005958895387372416,-8.212536605960097e-05,-3.0129452128342018e-05,0.00012100104353427504,0.0012920481978070768,0.4783565402030945,34.13833236694336,3.8228423595428467,-19.459871292114258,-0.2484031319618225,-1.783755898475647,0.10470907390117645,0
4,0.015090703964233398,-0.4783565402030945,-34.13833236694336,-3.8228423595428467,19.459871292114258,0.2484031319618225,1.783755898475647,-0.10470907390117645,0.0,0.0,0.0,0.0,0.0,0.0,0.0,-0.48141433018903895,-0.08419998441566535,-0.23902580962745706,0.4278605701217785,0.19724048018616888,-0.12262345363290048,-0.12575021458078572,1.0546422719882493,0.3242145220423946,-0.3924979378173225,-2.1534990698161875,0.8647493090033531,2.465939690947532,0.5444889550651515,1.0544104758940245,0.3238615046091247,-0.39250456234122666,-2.153291787532338,0.8647539153680389,2.46587817577521,0.5445020185570556,-0.00010554556551193225,-0.00011566266442132188,0.0005958895387372416,8.212536605960097e-05,3.0129452128342018e-05,-0.00012100104353427504,-0.0012920481978070768,0.0,0.0,0.0,0.0,0.0,0.0,0.0,-0.00023179609422485647,-0.00035301743326987545,-6.6245239041529125e-06,0.00020728228384969682,4.606364685799669e-06,-6.151517232222403e-05,1.3063491904108382e-05,0.00010554556551193225,0.00011566266442132188,-0.0005958895387372416,-8.212536605960097e-05,-3.0129452128342018e-05,0.00012100104353427504,0.0012920481978070768,0.4783565402030945,34.13833236694336,3.8228423595428467,-19.459871292114258,-0.2484031319618225,-1.783755898475647,0.10470907390117645,0
5,0.019982337951660156,-0.4783565402030945,-34.13833236694336,-3.8228423595428467,19.459871292114258,0.2484031319618225,1.783755898475647,-0.10470907390117645,0.0,0.0,0.0,0.0,0.0,0.0,0.0,-0.48141433018903895,-0.08419998441566535,-0.23902580962745706,0.4278605701217785,0.19724048018616888,-0.12262345363290048,-0.12575021458078572,1.0546422719882493,0.3242145220423946,-0.3924979378173225,-2.1534990698161875,0.8647493090033531,2.465939690947532,0.5444889550651515,1.0544104758940245,0.3238615046091247,-0.39250456234122666,-2.153291787532338,0.8647539153680389,2.46587817577521,0.5445020185570556,-0.00010554556551193225,-0.00011566266442132188,0.0005958895387372416,8.212536605960097e-05,3.0129452128342018e-05,-0.00012100104353427504,-0.0012920481978070768,0.0,0.0,0.0,0.0,0.0,0.0,0.0,-0.00023179609422485647,-0.00035301743326987545,-6.6245239041529125e-06,0.00020728228384969682,4.606364685799669e-06,-6.151517232222403e-05,1.3063491904108382e-05,0.00010554556551193225,0.00011566266442132188,-0.0005958895387372416,-8.212536605960097e-05,-3.0129452128342018e-05,0.00012100104353427504,0.0012920481978070768,0.4783565402030945,34.13833236694336,3.8228423595428467,-19.459871292114258,-0.2484031319618225,-1.783755898475647,0.10470907390117645,0
6,0.024990320205688477,-0.4783565402030945,-34.13833236694336,-3.8228423595428467,19.459871292114258,0.2484031319618225,1.783755898475647,-0.10470907390117645,0.0,0.0,0.0,0.0,0.0,0.0,0.0,-0.48141433018903895,-0.08419998441566535,-0.23902580962745706,0.4278605701217785,0.19724048018616888,-0.12262345363290048,-0.12575021458078572,1.0546422719882493,0.3242145220423946,-0.3924979378173225,-2.1534990698161875,0.8647493090033531,2.465939690947532,0.5444889550651515,1.0544104758940245,0.3238615046091247,-0.39250456234122666,-2.153291787532338,0.8647539153680389,2.46587817577521,0.5445020185570556,-0.00010554556551193225,-0.00011566266442132188,0.0005958895387372416,8.212536605960097e-05,3.0129452128342018e-05,-0.00012100104353427504,-0.0012920481978070768,0.0,0.0,0.0,0.0,0.0,0.0,0.0,-0.00023179609422485647,-0.00035301743326987545,-6.6245239041529125e-06,0.00020728228384969682,4.606364685799669e-06,-6.151517232222403e-05,1.3063491904108382e-05,0.00010554556551193225,0.00011566266442132188,-0.0005958895387372416,-8.212536605960097e-05,-3.0129452128342018e-05,0.00012100104353427504,0.0012920481978070768,0.4783565402030945,34.13833236694336,3.8228423595428467,-19.459871292114258,-0.2484031319618225,-1.783755898475647,0.10470907390117645,0
7,0.029997587203979492,-0.4505855441093445,-34.16213607788086,-3.8506133556365967,19.459871292114258,0.2484031319618225,1.777347207069397,-0.07724325358867645,0.0,0.0,0.0,0.0,0.0,0.0,0.0,-0.4783120128134767,-0.08980235310337333,-0.23518059097392985,0.4290161958833211,0.19734932026718177,-0.12439400640554892,-0.12568805999868127,1.0546403227341312,0.32421670397838376,-0.39249598897549137,-2.1534990698161875,0.8647493090033531,2.465940403024355,0.5444886921877489,1.0544104758940245,0.3238615046091247,-0.39250456234122666,-2.153291787532338,0.8647539153680389,2.46587817577521,0.5445020185570556,-0.001173399158903449,-5.593490569249577e-05,0.0009107643678055863,-1.868309765882477e-05,-6.179902109905846e-05,0.003185912536550841,-0.0014621859084883396,0.0,0.0,0.0,0.0,0.0,0.0,0.0,-0.00022984684010673995,-0.0003551993692590405,-8.573365735287108e-06,0.00020728228384969682,4.606364685799669e-06,-6.222724914506372e-05,1.3326369306732033e-05,0.001173399158903449,5.593490569249577e-05,-0.0009107643678055863,1.868309765882477e-05,6.179902109905846e-05,-0.003185912536550841,0.0014621859084883396,0.4505855441093445,34.16213607788086,3.8506133556365967,-19.459871292114258,-0.2484031319618225,-1.777347207069397,0.07724325358867645,0
8,0.03498363494873047,-0.4505855441093445,-34.16213607788086,-3.8506133556365967,19.459871292114258,0.2484031319618225,1.777347207069397,-0.07724325358867645,0.0,0.0,0.0,0.0,0.0,0.0,0.0,-0.4783120128134767,-0.08980235310337333,-0.23518059097392985,0.4290161958833211,0.19734932026718177,-0.12439400640554892,-0.12568805999868127,1.0546403227341312,0.32421670397838376,-0.39249598897549137,-2.1534990698161875,0.8647493090033531,2.465940403024355,0.5444886921877489,1.0544104758940245,0.3238615046091247,-0.39250456234122666,-2.153291787532338,0.8647539153680389,2.46587817577521,0.5445020185570556,-0.001173399158903449,-5.593490569249577e-05,0.0009107643678055863,-1.868309765882477e-05,-6.179902109905846e-05,0.003185912536550841,-0.0014621859084883396,0.0,0.0,0.0,0.0,0.0,0.0,0.0,-0.00022984684010673995,-0.0003551993692590405,-8.573365735287108e-06,0.00020728228384969682,4.606364685799669e-06,-6.222724914506372e-05,1.3326369306732033e-05,0.001173399158903449,5.593490569249577e-05,-0.0009107643678055863,1.868309765882477e-05,6.179902109905846e-05,-0.003185912536550841,0.0014621859084883396,0.4505855441093445,34.16213607788086,3.8506133556365967,-19.459871292114258,-0.2484031319618225,-1.777347207069397,0.07724325358867645,0
9,0.039980173110961914,-0.4505855441093445,-34.16213607788086,-3.8506133556365967,19.388460159301758,0.2484031319618225,1.790164589881897,-0.11111776530742645,0.0,0.0,0.0,0.0,0.0,0.0,0.0,-0.4780691867852431,-0.083839580390382,-0.2340801955701124,0.42600935849906785,0.19687801059417642,-0.1236734860349329,-0.12361623593872786,1.0546405615524344,0.32421444603631905,-0.39249598897549137,-2.1534940585086217,0.8647493090033531,2.4659389788707093,0.5444892747011558,1.0544104758940245,0.3238615046091247,-0.39250456234122666,-2.153291787532338,0.8647539153680389,2.46587817577521,0.5445020185570556,-0.0004721944586354416,0.0002484377857368067,0.0007850800079629107,0.0012227542370375716,3.821398462122068e-05,-0.0004386441375973733,-0.00022622535799017874,0.0,0.0,0.0,0.0,0.0,0.0,0.0,-0.00023008565840987316,-0.00035294142719433097,-8.573365735287108e-06,0.00020227097628389146,4.606364685799669e-06,-6.080309549938434e-05,1.2743855899777223e-05,0.0004721944586354416,-0.0002484377857368067,-0.0007850800079629107,-0.0012227542370375716,-3.821398462122068e-05,0.0004386441375973733,0.00022622535799017874,0.4505855441093445,34.16213607788086,3.8506133556365967,-19.388460159301758,-0.2484031319618225,-1.790164589881897,0.11111776530742645,0
10,0.0449824333190918,-0.4505855441093445,-34.16213607788086,-3.8506133556365967,19.388460159301758,0.2484031319618225,1.790164589881897,-0.11111776530742645,0.0,0.0,0.0,0.0,0.0,0.0,0.0,-0.4780691867852431,-0.083839580390382,-0.2340801955701124,0.42600935849906785,0.19687801059417642,-0.1236734860349329,-0.12361623593872786,1.0546405615524344,0.32421444603631905,-0.39249598897549137,-2.1534940585086217,0.8647493090033531,2.4659389788707093,0.5444892747011558,1.0544104758940245,0.3238615046091247,-0.39250456234122666,-2.153291787532338,0.8647539153680389,2.46587817577521,0.5445020185570556,-0.0004721944586354416,0.0002484377857368067,0.0007850800079629107,0.0012227542370375716,3.821398462122068e-05,-0.0004386441375973733,-0.00022622535799017874,0.0,0.0,0.0,0.0,0.0,0.0,0.0,-0.00023008565840987316,-0.00035294142719433097,-8.573365735287108e-06,0.00020227097628389146,4.606364685799669e-06,-6.080309549938434e-05,1.2743855899777223e-05,0.0004721944586354416,-0.0002484377857368067,-0.0007850800079629107,-0.0012227542370375716,-3.821398462122068e-05,0.0004386441375973733,0.00022622535799017874,0.4505855441093445,34.16213607788086,3.8506133556365967,-19.388460159301758,-0.2484031319618225,-1.790164589881897,0.11111776530742645,0
11,0.050374507904052734,-0.5299312472343445,-34.18990707397461,-3.8228423595428467,19.487642288208008,0.2484031319618225,1.777347207069397,-0.11844198405742645,0.0,0.0,0.0,0.0,0.0,0.0,0.0,-0.48977757824767404,-0.09205217530208794,-0.24727053028960552,0.4284023508791561,0.19745633895419862,-0.12174150179470257,-0.12311156830333887,1.0546461296006224,0.3242188851967018,-0.3924979378173225,-2.1535010186580186,0.8647493090033531,2.465940403024355,0.5444936317562635,1.0544104758940245,0.3238615046091247,-0.39250456234122666,-2.153291787532338,0.8647539153680389,2.46587817577521,0.5445020185570556,0.0008098308647662286,0.00037302404019085256,0.0003058968545015056,-0.0011246223742407118,0.0002907309224009232,8.829439130264596e-05,7.796110325312847e-05,0.0,0.0,0.0,0.0,0.0,0.0,0.0,-0.00023565370659794915,-0.0003573805875770608,-6.6245239041529125e-06,0.00020923112568072,4.606364685799669e-06,-6.222724914506372e-05,8.386800792070659e-06,-0.0008098308647662286,-0.00037302404019085256,-0.0003058968545015056,0.0011246223742407118,-0.0002907309224009232,-8.829439130264596e-05,-7.796110325312847e-05,0.5299312472343445,34.18990707397461,3.8228423595428467,-19.487642288208008,-0.2484031319618225,-1.777347207069397,0.11844198405742645,0
12,0.05500626564025879,-0.5299312472343445,-34.18990707397461,-3.8228423595428467,19.487642288208008,0.2484031319618225,1.777347207069397,-0.11844198405742645,0.0,0.0,0.0,0.0,0.0,0.0,0.0,-0.48977757824767404,-0.09205217530208794,-0.24727053028960552,0.4284023508791561,0.19745633895419862,-0.12174150179470257,-0.12311156830333887,1.0546461296006224,0.3242188851967018,-0.3924979378173225,-2.1535010186580186,0.8647493090033531,2.465940403024355,0.5444936317562635,1.0544104758940245,0.3238615046091247,-0.39250456234122666,-2.153291787532338,0.8647539153680389,2.46587817577521,0.5445020185570556,0.0008098308647662286,0.00037302404019085256,0.0003058968545015056,-0.0011246223742407118,0.0002907309224009232,8.829439130264596e-05,7.796110325312847e-05,0.0,0.0,0.0,0.0,0.0,0.0,0.0,-0.00023565370659794915,-0.0003573805875770608,-6.6245239041529125e-06,0.00020923112568072,4.606364685799669e-06,-6.222724914506372e-05,8.386800792070659e-06,-0.0008098308647662286,-0.00037302404019085256,-0.0003058968545015056,0.0011246223742407118,-0.0002907309224009232,-8.829439130264596e-05,-7.796110325312847e-05,0.5299312472343445,34.18990707397461,3.8228423595428467,-19.487642288208008,-0.2484031319618225,-1.777347207069397,0.11844198405742645,0
13,0.05999755859375,-0.5299312472343445,-34.18990707397461,-3.8228423595428467,19.487642288208008,0.2484031319618225,1.777347207069397,-0.11844198405742645,0.0,0.0,0.0,0.0,0.0,0.0,0.0,-0.48977757824767404,-0.09205217530208794,-0.24727053028960552,0.4284023508791561,0.19745633895419862,-0.12174150179470257,-0.12311156830333887,1.0546461296006224,0.3242188851967018,-0.3924979378173225,-2.1535010186580186,0.8647493090033531,2.465940403024355,0.5444936317562635,1.0544104758940245,0.3238615046091247,-0.39250456234122666,-2.153291787532338,0.8647539153680389,2.46587817577521,0.5445020185570556,0.0008098308647662286,0.00037302404019085256,0.0003058968545015056,-0.0011246223742407118,0.0002907309224009232,8.829439130264596e-05,7.796110325312847e-05,0.0,0.0,0.0,0.0,0.0,0.0,0.0,-0.00023565370659794915,-0.0003573805875770608,-6.6245239041529125e-06,0.00020923112568072,4.606364685799669e-06,-6.222724914506372e-05,8.386800792070659e-06,-0.0008098308647662286,-0.00037302404019085256,-0.0003058968545015056,0.0011246223742407118,-0.0002907309224009232,-8.829439130264596e-05,-7.796110325312847e-05,0.5299312472343445,34.18990707397461,3.8228423595428467,-19.487642288208008,-0.2484031319618225,-1.777347207069397,0.11844198405742645,0
14,0.06499147415161133,-0.4505855441093445,-34.18990707397461,-3.7990386486053467,19.436067581176758,0.2484031319618225,1.777347207069397,-0.13217489421367645,0.0,0.0,0.0,0.0,0.0,0.0,0.0,-0.4794109428847099,-0.087264256197266,-0.2334591096743097,0.4266855893984356,0.1975024838040562,-0.12305847005188028,-0.12306220235638994,1.0546405908782597,0.32421647555153815,-0.3924996082531778,-2.153497399380332,0.8647493084650012,2.465940403024355,0.5444926722324146,1.0544104758940245,0.3238615046091247,-0.39250456234122666,-2.153291787532338,0.8647539153680389,2.46587817577521,0.5445020185570556,-0.0010349116575454273,0.0008351467085504173,0.00035666767146872726,0.00045024642222060035,0.0003022265453935581,0.0002474129353736761,0.000588145263352999,0.0,0.0,0.0,0.0,0.0,0.0,0.0,-0.00023011498423519683,-0.0003549709424134351,-4.954088048847449e-06,0.00020561184799428034,4.6069030377182685e-06,-6.222724914506372e-05,9.346324641001935e-06,0.0010349116575454273,-0.0008351467085504173,-0.00035666767146872726,-0.00045024642222060035,-0.0003022265453935581,-0.0002474129353736761,-0.000588145263352999,0.4505855441093445,34.18990707397461,3.7990386486053467,-19.436067581176758,-0.2484031319618225,-1.777347207069397,0.13217489421367645,0
15,0.06998848915100098,-0.4505855441093445,-34.18990707397461,-3.7990386486053467,19.436067581176758,0.2484031319618225,1.777347207069397,-0.13217489421367645,0.0,0.0,0.0,0.0,0.0,0.0,0.0,-0.4794109428847099,-0.087264256197266,-0.2334591096743097,0.4266855893984356,0.1975024838040562,-0.12305847005188028,-0.12306220235638994,1.0546405908782597,0.32421647555153815,-0.3924996082531778,-2.153497399380332,0.8647493084650012,2.465940403024355,0.5444926722324146,1.0544104758940245,0.3238615046091247,-0.39250456234122666,-2.153291787532338,0.8647539153680389,2.46587817577521,0.5445020185570556,-0.0010349116575454273,0.0008351467085504173,0.00035666767146872726,0.00045024642222060035,0.0003022265453935581,0.0002474129353736761,0.000588145263352999,0.0,0.0,0.0,0.0,0.0,0.0,0.0,-0.00023011498423519683,-0.0003549709424134351,-4.954088048847449e-06,0.00020561184799428034,4.6069030377182685e-06,-6.222724914506372e-05,9.346324641001935e-06,0.0010349116575454273,-0.0008351467085504173,-0.00035666767146872726,-0.00045024642222060035,-0.0003022265453935581,-0.0002474129353736761,-0.000588145263352999,0.4505855441093445,34.18990707397461,3.7990386486053467,-19.436067581176758,-0.2484031319618225,-1.777347207069397,0.13217489421367645,0
16,0.0749824047088623,-0.4783565402030945,-34.13833236694336,-3.7990386486053467,19.459871292114258,0.2603049874305725,1.790164589881897,-0.12485067546367645,0.0,0.0,0.0,0.0,0.0,0.0,0.0,-0.49026916885545196,-0.0894847499109325,-0.24096403202025043,0.42817201379941844,0.19805287751447945,-0.12220759785270797,-0.12288235643316618,1.054642512939492,0.32421304638458387,-0.3924996082531778,-2.1534990698161875,0.8647448071760598,2.465940038508839,0.544490798630008,1.0544104758940245,0.3238615046091247,-0.39250456234122666,-2.153291787532338,0.8647539153680389,2.46587817577521,0.5445020185570556,-0.00050183857794671,-0.0003608047337785041,-0.00017270467227036604,-5.4691887979608953e-05,-0.0002753223002772923,-0.00014934431880964197,0.00042604737958695717,0.0,0.0,0.0,0.0,0.0,0.0,0.0,-0.0002320370454675924,-0.0003515417754591521,-4.954088048847449e-06,0.00020728228384969682,9.108191979079194e-06,-6.186273362907002e-05,1.1219927047556588e-05,0.00050183857794671,0.0003608047337785041,0.00017270467227036604,5.4691887979608953e-05,0.0002753223002772923,0.00014934431880964197,-0.00042604737958695717,0.4783565402030945,34.13833236694336,3.7990386486053467,-19.459871292114258,-0.2603049874305725,-1.790164589881897,0.12485067546367645,0
17,0.07997798919677734,-0.4783565402030945,-34.13833236694336,-3.7990386486053467,19.459871292114258,0.2603049874305725,1.790164589881897,-0.12485067546367645,0.0,0.0,0.0,0.0,0.0,0.0,0.0,-0.49026916885545196,-0.0894847499109325,-0.24096403202025043,0.42817201379941844,0.19805287751447945,-0.12220759785270797,-0.12288235643316618,1.054642512939492,0.32421304638458387,-0.3924996082531778,-2.1534990698161875,0.8647448071760598,2.465940038508839,0.544490798630008,1.0544104758940245,0.3238615046091247,-0.39250456234122666,-2.153291787532338,0.8647539153680389,2.46587817577521,0.5445020185570556,-0.00050183857794671,-0.0003608047337785041,-0.00017270467227036604,-5.4691887979608953e-05,-0.0002753223002772923,-0.00014934431880964197,0.00042604737958695717,0.0,0.0,0.0,0.0,0.0,0.0,0.0,-0.0002320370454675924,-0.0003515417754591521,-4.954088048847449e-06,0.00020728228384969682,9.108191979079194e-06,-6.186273362907002e-05,1.1219927047556588e-05,0.00050183857794671,0.0003608047337785041,0.00017270467227036604,5.4691887979608953e-05,0.0002753223002772923,0.00014934431880964197,-0.00042604737958695717,0.4783565402030945,34.13833236694336,3.7990386486053467,-19.459871292114258,-0.2603049874305725,-1.790164589881897,0.12485067546367645,0
18,0.08497953414916992,-0.4783565402030945,-34.16213607788086,-3.7990386486053467,19.436067581176758,0.2484031319618225,1.783755898475647,-0.13858358561992645,0.0,0.0,0.0,0.0,0.0,0.0,0.0,-0.4892569473851001,-0.09462699068240564,-0.24203684309194878,0.4321633793760523,0.19856040543891884,-0.12114317863090225,-0.12204402857530355,1.054645132563933,0.32421408518125294,-0.3924996082531778,-2.153497399380332,0.8647493089315701,2.4659400443277293,0.5444924616211716,1.0544104758940245,0.3238615046091247,-0.39250456234122666,-2.153291787532338,0.8647539153680389,2.46587817577521,0.5445020185570556,-9.61379018614818e-05,-0.00011775151694029881,0.006358444680419147,0.0002986085140834381,0.00017330340347265042,0.0001736649726691745,0.0005676523384698885,0.0,0.0,0.0,0.0,0.0,0.0,0.0,-0.0002346566699085173,-0.0003525805721282249,-4.954088048847449e-06,0.00020561184799428034,4.606436468823638e-06,-6.186855251932855e-05,9.556935884003082e-06,9.61379018614818e-05,0.00011775151694029881,-0.006358444680419147,-0.0002986085140834381,-0.00017330340347265042,-0.0001736649726691745,-0.0005676523384698885,0.4783565402030945,34.16213607788086,3.7990386486053467,-19.436067581176758,-0.2484031319618225,-1.783755898475647,0.13858358561992645,0
19,0.08998250961303711,-0.4783565402030945,-34.16213607788086,-3.7990386486053467,19.436067581176758,0.2484031319618225,1.783755898475647,-0.13858358561992645,0.0,0.0,0.0,0.0,0.0,0.0,0.0,-0.4892569473851001,-0.09462699068240564,-0.24203684309194878,0.4321633793760523,0.19856040543891884,-0.12114317863090225,-0.12204402857530355,1.054645132563933,0.32421408518125294,-0.3924996082531778,-2.153497399380332,0.8647493089315701,2.4659400443277293,0.5444924616211716,1.0544104758940245,0.3238615046091247,-0.39250456234122666,-2.153291787532338,0.8647539153680389,2.46587817577521,0.5445020185570556,-9.61379018614818e-05,-0.00011775151694029881,0.006358444680419147,0.0002986085140834381,0.00017330340347265042,0.0001736649726691745,0.0005676523384698885,0.0,0.0,0.0,0.0,0.0,0.0,0.0,-0.0002346566699085173,-0.0003525805721282249,-4.954088048847449e-06,0.00020561184799428034,4.606436468823638e-06,-6.186855251932855e-05,9.556935884003082e-06,9.61379018614818e-05,0.00011775151694029881,-0.006358444680419147,-0.0002986085140834381,-0.00017330340347265042,-0.0001736649726691745,-0.0005676523384698885,0.4783565402030945,34.16213607788086,3.7990386486053467,-19.436067581176758,-0.2484031319618225,-1.783755898475647,0.13858358561992645,0
20,0.09498476982116699,-0.4505855441093445,-34.16213607788086,-3.7752349376678467,19.459871292114258,0.2548118233680725,1.790164589881897,-0.11111776530742645,0.0,0.0,0.0,0.0,0.0,0.0,0.0,-0.48590401780285647,-0.09174268150734166,-0.24007373285703884,0.43095450773439414,0.19852369404739645,-0.12033182703254774,-0.12269521590468942,1.0546424685901687,0.3242167065465397,-0.39250127868903306,-2.1534990698161875,0.8647485969265297,2.465938978872704,0.5444892771065438,1.0544104758940245,0.3238615046091247,-0.39250456234122666,-2.153291787532338,0.8647539153680389,2.46587817577521,0.5445020185570556,-0.0009792452961186588,-9.599110188832591e-05,-0.0011589678869760327,6.42876659332258e-05,-3.200305142939484e-05,2.4710987866004502e-05,-0.0004621308683556307,0.0,0.0,0.0,0.0,0.0,0.0,0.0,-0.00023199269614426754,-0.00035520193741500616,-3.283652193597497e-06,0.00020728228384969682,5.3184415091944715e-06,-6.080309749423307e-05,1.274145051177733e-05,0.0009792452961186588,9.599110188832591e-05,0.0011589678869760327,-6.42876659332258e-05,3.200305142939484e-05,-2.4710987866004502e-05,0.0004621308683556307,0.4505855441093445,34.16213607788086,3.7752349376678467,-19.459871292114258,-0.2548118233680725,-1.790164589881897,0.11111776530742645,0
21,0.09999299049377441,-0.4505855441093445,-34.16213607788086,-3.7752349376678467,19.459871292114258,0.2548118233680725,1.790164589881897,-0.11111776530742645,0.0,0.0,0.0,0.0,0.0,0.0,0.0,-0.48590401780285647,-0.09174268150734166,-0.24007373285703884,0.43095450773439414,0.19852369404739645,-0.12033182703254774,-0.12269521590468942,1.0546424685901687,0.3242167065465397,-0.39250127868903306,-2.1534990698161875,0.8647485969265297,2.465938978872704,0.5444892771065438,1.0544104758940245,0.3238615046091247,-0.39250456234122666,-2.153291787532338,0.8647539153680389,2.46587817577521,0.5445020185570556,-0.0009792452961186588,-9.599110188832591e-05,-0.0011589678869760327,6.42876659332258e-05,-3.200305142939484e-05,2.4710987866004502e-05,-0.0004621308683556307,0.0,0.0,0.0,0.0,0.0,0.0,0.0,-0.00023199269614426754,-0.00035520193741500616,-3.283652193597497e-06,0.00020728228384969682,5.3184415091944715e-06,-6.080309749423307e-05,1.274145051177733e-05,0.0009792452961186588,9.599110188832591e-05,0.0011589678869760327,-6.42876659332258e-05,3.200305142939484e-05,-2.4710987866004502e-05,0.0004621308683556307,0.4505855441093445,34.16213607788086,3.7752349376678467,-19.459871292114258,-0.2548118233680725,-1.790164589881897,0.11111776530742645,0
22,0.10498523712158203,-0.4783565402030945,-34.11452865600586,-3.7990386486053467,19.459871292114258,0.2548118233680725,1.783755898475647,-0.08365194499492645,0.0,0.0,0.0,0.0,0.0,0.0,0.0,-0.48340787033314436,-0.09434059484830275,-0.2404174304743544,0.43798036447191624,0.19777360790480775,-0.11728936504591969,-0.12303484622647887,1.0546423775074718,0.32421356714048044,-0.3924996082531778,-2.1534990698161875,0.8647482437138204,2.4659396909475326,0.5444873205173232,1.0544104758940245,0.3238615046091247,-0.39250456234122666,-2.153291787532338,0.8647539153680389,2.46587817577521,0.5445020185570556,0.00013682489184526945,-0.0011092842970637088,6.889473453850014e-05,0.00010337516572174353,-0.00019471431070381952,-0.0020286692075427892,-0.0019335314100043625,0.0,0.0,0.0,0.0,0.0,0.0,0.0,-0.0002319016134473273,-0.0003520625313557235,-4.954088048847449e-06,0.00020728228384969682,5.671654218497579e-06,-6.151517232266812e-05,1.4698039732419232e-05,-0.00013682489184526945,0.0011092842970637088,-6.889473453850014e-05,-0.00010337516572174353,0.00019471431070381952,0.0020286692075427892,0.0019335314100043625,0.4783565402030945,34.11452865600586,3.7990386486053467,-19.459871292114258,-0.2548118233680725,-1.783755898475647,0.08365194499492645,0
23,0.10998415946960449,-0.4783565402030945,-34.11452865600586,-3.7990386486053467,19.459871292114258,0.2548118233680725,1.783755898475647,-0.08365194499492645,0.0,0.0,0.0,0.0,0.0,0.0,0.0,-0.48340787033314436,-0.09434059484830275,-0.2404174304743544,0.43798036447191624,0.19777360790480775,-0.11728936504591969,-0.12303484622647887,1.0546423775074718,0.32421356714048044,-0.3924996082531778,-2.1534990698161875,0.8647482437138204,2.4659396909475326,0.5444873205173232,1.0544104758940245,0.3238615046091247,-0.39250456234122666,-2.153291787532338,0.8647539153680389,2.46587817577521,0.5445020185570556,0.00013682489184526945,-0.0011092842970637088,6.889473453850014e-05,0.00010337516572174353,-0.00019471431070381952,-0.0020286692075427892,-0.0019335314100043625,0.0,0.0,0.0,0.0,0.0,0.0,0.0,-0.0002319016134473273,-0.0003520625313557235,-4.954088048847449e-06,0.00020728228384969682,5.671654218497579e-06,-6.151517232266812e-05,1.4698039732419232e-05,-0.00013682489184526945,0.0011092842970637088,-6.889473453850014e-05,-0.00010337516572174353,0.00019471431070381952,0.0020286692075427892,0.0019335314100043625,0.4783565402030945,34.11452865600586,3.7990386486053467,-19.459871292114258,-0.2548118233680725,-1.783755898475647,0.08365194499492645,0
24,0.11538267135620117,-0.4783565402030945,-34.11452865600586,-3.7990386486053467,19.459871292114258,0.2548118233680725,1.783755898475647,-0.08365194499492645,0.0,0.0,0.0,0.0,0.0,0.0,0.0,-0.48340787033314436,-0.09434059484830275,-0.2404174304743544,0.43798036447191624,0.19777360790480775,-0.11728936504591969,-0.12303484622647887,1.0546423775074718,0.32421356714048044,-0.3924996082531778,-2.1534990698161875,0.8647482437138204,2.4659396909475326,0.5444873205173232,1.0544104758940245,0.3238615046091247,-0.39250456234122666,-2.153291787532338,0.8647539153680389,2.46587817577521,0.5445020185570556,0.00013682489184526945,-0.0011092842970637088,6.889473453850014e-05,0.00010337516572174353,-0.00019471431070381952,-0.0020286692075427892,-0.0019335314100043625,0.0,0.0,0.0,0.0,0.0,0.0,0.0,-0.0002319016134473273,-0.0003520625313557235,-4.954088048847449e-06,0.00020728228384969682,5.671654218497579e-06,-6.151517232266812e-05,1.4698039732419232e-05,-0.00013682489184526945,0.0011092842970637088,-6.889473453850014e-05,-0.00010337516572174353,0.00019471431070381952,0.0020286692075427892,0.0019335314100043625,0.4783565402030945,34.11452865600586,3.7990386486053467,-19.459871292114258,-0.2548118233680725,-1.783755898475647,0.08365194499492645,0
25,0.1202397346496582,-0.4783565402030945,-34.11452865600586,-3.7990386486053467,19.459871292114258,0.2548118233680725,1.783755898475647,-0.08365194499492645,0.0,0.0,0.0,0.0,0.0,0.0,0.0,-0.48340787033314436,-0.09434059484830275,-0.2404174304743544,0.43798036447191624,0.19777360790480775,-0.11728936504591969,-0.12303484622647887,1.0546423775074718,0.32421356714048044,-0.3924996082531778,-2.1534990698161875,0.8647482437138204,2.4659396909475326,0.5444873205173232,1.0544104758940245,0.3238615046091247,-0.39250456234122666,-2.153291787532338,0.8647539153680389,2.46587817577521,0.5445020185570556,0.00013682489184526945,-0.0011092842970637088,6.889473453850014e-05,0.00010337516572174353,-0.00019471431070381952,-0.0020286692075427892,-0.0019335314100043625,0.0,0.0,0.0,0.0,0.0,0.0,0.0,-0.0002319016134473273,-0.0003520625313557235,-4.954088048847449e-06,0.00020728228384969682,5.671654218497579e-06,-6.151517232266812e-05,1.4698039732419232e-05,-0.00013682489184526945,0.0011092842970637088,-6.889473453850014e-05,-0.00010337516572174353,0.00019471431070381952,0.0020286692075427892,0.0019335314100043625,0.4783565402030945,34.11452865600586,3.7990386486053467,-19.459871292114258,-0.2548118233680725,-1.783755898475647,0.08365194499492645,0
26,0.1249849796295166,-0.4505855441093445,-34.13833236694336,-3.7990386486053467,19.436067581176758,0.2484031319618225,1.790164589881897,-0.11844198405742645,0.0,0.0,0.0,0.0,0.0,0.0,0.0,-0.48919978225784344,-0.0933636448130346,-0.24467722009972398,0.4325361308049111,0.19803298125177998,-0.11886038364744166,-0.123430974525065,1.0546403230254369,0.32421431294903325,-0.3924996082531778,-2.153497399380332,0.8647493090013593,2.46593897887071,0.5444904572087221,1.0544104758940245,0.3238615046091247,-0.39250456234122666,-2.153291787532338,0.8647539153680389,2.46587817577521,0.5445020185570556,-0.0006474663288522621,-0.0005750144586545209,-0.00010151958801483698,0.00036442874164443486,0.000225970505085239,-0.000244398866276751,-8.387099993567825e-05,0.0,0.0,0.0,0.0,0.0,0.0,0.0,-0.00022984713141238622,-0.000352808339908528,-4.954088048847449e-06,0.00020561184799428034,4.606366679649199e-06,-6.080309549982843e-05,1.1561348333466448e-05,0.0006474663288522621,0.0005750144586545209,0.00010151958801483698,-0.00036442874164443486,-0.000225970505085239,0.000244398866276751,8.387099993567825e-05,0.4505855441093445,34.13833236694336,3.7990386486053467,-19.436067581176758,-0.2484031319618225,-1.790164589881897,0.11844198405742645,0
27,0.12997889518737793,-0.4505855441093445,-34.13833236694336,-3.7990386486053467,19.436067581176758,0.2484031319618225,1.790164589881897,-0.11844198405742645,0.0,0.0,0.0,0.0,0.0,0.0,0.0,-0.48919978225784344,-0.0933636448130346,-0.24467722009972398,0.4325361308049111,0.19803298125177998,-0.11886038364744166,-0.123430974525065,1.0546403230254369,0.32421431294903325,-0.3924996082531778,-2.153497399380332,0.8647493090013593,2.46593897887071,0.5444904572087221,1.0544104758940245,0.3238615046091247,-0.39250456234122666,-2.153291787532338,0.8647539153680389,2.46587817577521,0.5445020185570556,-0.0006474663288522621,-0.0005750144586545209,-0.00010151958801483698,0.00036442874164443486,0.000225970505085239,-0.000244398866276751,-8.387099993567825e-05,0.0,0.0,0.0,0.0,0.0,0.0,0.0,-0.00022984713141238622,-0.000352808339908528,-4.954088048847449e-06,0.00020561184799428034,4.606366679649199e-06,-6.080309549982843e-05,1.1561348333466448e-05,0.0006474663288522621,0.0005750144586545209,0.00010151958801483698,-0.00036442874164443486,-0.000225970505085239,0.000244398866276751,8.387099993567825e-05,0.4505855441093445,34.13833236694336,3.7990386486053467,-19.436067581176758,-0.2484031319618225,-1.790164589881897,0.11844198405742645,0
28,0.13524913787841797,-0.5021602511405945,-34.16213607788086,-3.7990386486053467,19.487642288208008,0.2548118233680725,1.790164589881897,-0.09097616374492645,0.0,0.0,0.0,0.0,0.0,0.0,0.0,-0.484011497631526,-0.09327432339222479,-0.24067876715299574,0.4306010056942941,0.19825639694969752,-0.11986213712444509,-0.12284836791607143,1.0546439419754783,0.3242169079466417,-0.3924996082531778,-2.1535010186580186,0.8647482437138204,2.46593897887071,0.5444870759754059,1.0544104758940245,0.3238615046091247,-0.39250456234122666,-2.153291787532338,0.8647539153680389,2.46587817577521,0.5445020185570556,0.00018767085764386006,-0.00013944878870625674,5.9285540371808734e-05,-0.0006783574350017978,-0.000265160074341872,-0.00015050633768410953,-0.0008535548787286216,0.0,0.0,0.0,0.0,0.0,0.0,0.0,-0.00023346608145380365,-0.0003554033375169907,-4.954088048847449e-06,0.00020923112568072,5.671654218497579e-06,-6.080309549982843e-05,1.4942581649690645e-05,-0.00018767085764386006,0.00013944878870625674,-5.9285540371808734e-05,0.0006783574350017978,0.000265160074341872,0.00015050633768410953,0.0008535548787286216,0.5021602511405945,34.16213607788086,3.7990386486053467,-19.487642288208008,-0.2548118233680725,-1.790164589881897,0.09097616374492645,0
29,0.13997912406921387,-0.5021602511405945,-34.16213607788086,-3.7990386486053467,19.487642288208008,0.2548118233680725,1.790164589881897,-0.09097616374492645,0.0,0.0,0.0,0.0,0.0,0.0,0.0,-0.484011497631526,-0.09327432339222479,-0.24067876715299574,0.4306010056942941,0.19825639694969752,-0.11986213712444509,-0.12284836791607143,1.0546439419754783,0.3242169079466417,-0.3924996082531778,-2.1535010186580186,0.8647482437138204,2.46593897887071,0.5444870759754059,1.0544104758940245,0.3238615046091247,-0.39250456234122666,-2.153291787532338,0.8647539153680389,2.46587817577521,0.5445020185570556,0.00018767085764386006,-0.00013944878870625674,5.9285540371808734e-05,-0.0006783574350017978,-0.000265160074341872,-0.00015050633768410953,-0.0008535548787286216,0.0,0.0,0.0,0.0,0.0,0.0,0.0,-0.00023346608145380365,-0.0003554033375169907,-4.954088048847449e-06,0.00020923112568072,5.671654218497579e-06,-6.080309549982843e-05,1.4942581649690645e-05,-0.00018767085764386006,0.00013944878870625674,-5.9285540371808734e-05,0.0006783574350017978,0.000265160074341872,0.00015050633768410953,0.0008535548787286216,0.5021602511405945,34.16213607788086,3.7990386486053467,-19.487642288208008,-0.2548118233680725,-1.790164589881897,0.09097616374492645,0
30,0.14498305320739746,-0.4783565402030945,-34.13833236694336,-3.7990386486053467,19.459871292114258,0.2603049874305725,1.777347207069397,-0.11111776530742645,0.0,0.0,0.0,0.0,0.0,0.0,0.0,-0.4815903739717752,-0.08718669905841105,-0.23520533455232717,0.4278715210397712,0.198070220916047,-0.12074285404086539,-0.12184751990751237,1.0546446649191172,0.32421313008618147,-0.3924996082531778,-2.1534990698161875,0.8647479473271171,2.4659404030243555,0.5444924516597396,1.0544104758940245,0.3238615046091247,-0.39250456234122666,-2.153291787532338,0.8647539153680389,2.46587817577521,0.5445020185570556,-0.00044749778147838774,-7.545583217235514e-05,-2.681164420919805e-05,-5.106177560730073e-05,-0.0004844038397060543,0.00010415329574958855,0.0004386374890849786,0.0,0.0,0.0,0.0,0.0,0.0,0.0,-0.00023418902509275696,-0.0003516254770567495,-4.954088048847449e-06,0.00020728228384969682,5.96804092178882e-06,-6.222724914550781e-05,9.566897316015677e-06,0.00044749778147838774,7.545583217235514e-05,2.681164420919805e-05,5.106177560730073e-05,0.0004844038397060543,-0.00010415329574958855,-0.0004386374890849786,0.4783565402030945,34.13833236694336,3.7990386486053467,-19.459871292114258,-0.2603049874305725,-1.777347207069397,0.11111776530742645,0
31,0.14998650550842285,-0.4783565402030945,-34.13833236694336,-3.7990386486053467,19.459871292114258,0.2603049874305725,1.777347207069397,-0.11111776530742645,0.0,0.0,0.0,0.0,0.0,0.0,0.0,-0.4815903739717752,-0.08718669905841105,-0.23520533455232717,0.4278715210397712,0.198070220916047,-0.12074285404086539,-0.12184751990751237,1.0546446649191172,0.32421313008618147,-0.3924996082531778,-2.1534990698161875,0.8647479473271171,2.4659404030243555,0.5444924516597396,1.0544104758940245,0.3238615046091247,-0.39250456234122666,-2.153291787532338,0.8647539153680389,2.46587817577521,0.5445020185570556,-0.00044749778147838774,-7.545583217235514e-05,-2.681164420919805e-05,-5.106177560730073e-05,-0.0004844038397060543,0.00010415329574958855,0.0004386374890849786,0.0,0.0,0.0,0.0,0.0,0.0,0.0,-0.00023418902509275696,-0.0003516254770567495,-4.954088048847449e-06,0.00020728228384969682,5.96804092178882e-06,-6.222724914550781e-05,9.566897316015677e-06,0.00044749778147838774,7.545583217235514e-05,2.681164420919805e-05,5.106177560730073e-05,0.0004844038397060543,-0.00010415329574958855,-0.0004386374890849786,0.4783565402030945,34.13833236694336,3.7990386486053467,-19.459871292114258,-0.2603049874305725,-1.777347207069397,0.11111776530742645,0
32,0.15539169311523438,-0.5299312472343445,-34.16213607788086,-3.7752349376678467,19.487642288208008,0.2548118233680725,1.796573281288147,-0.14590780436992645,0.0,0.0,0.0,0.0,0.0,0.0,0.0,-0.48340007348398434,-0.09498916110971324,-0.23424821929854653,0.43163161739852585,0.19815545450257863,-0.12087534797301817,-0.12058558894317735,1.0546461590018315,0.3242169430028266,-0.3925012787253718,-2.1535010186580186,0.8647484379870177,2.465938266793887,0.5444931383648318,1.0544104758940245,0.3238615046091247,-0.39250456234122666,-2.153291787532338,0.8647539153680389,2.46587817577521,0.5445020185570556,0.0008863519660773535,-0.0001301094598199342,-0.00035435007961438,-0.0009751830088917615,-0.0001420390972200437,-0.0004170994449557744,0.0007465544850415748,0.0,0.0,0.0,0.0,0.0,0.0,0.0,-0.0002356831078069721,-0.0003554383937018901,-3.283615854832167e-06,0.00020923112568072,5.477381021190553e-06,-6.009101867698874e-05,8.880192223781336e-06,-0.0008863519660773535,0.0001301094598199342,0.00035435007961438,0.0009751830088917615,0.0001420390972200437,0.0004170994449557744,-0.0007465544850415748,0.5299312472343445,34.16213607788086,3.7752349376678467,-19.487642288208008,-0.2548118233680725,-1.796573281288147,0.14590780436992645,0
33,0.15998220443725586,-0.5299312472343445,-34.16213607788086,-3.7752349376678467,19.487642288208008,0.2548118233680725,1.796573281288147,-0.14590780436992645,0.0,0.0,0.0,0.0,0.0,0.0,0.0,-0.48340007348398434,-0.09498916110971324,-0.23424821929854653,0.43163161739852585,0.19815545450257863,-0.12087534797301817,-0.12058558894317735,1.0546461590018315,0.3242169430028266,-0.3925012787253718,-2.1535010186580186,0.8647484379870177,2.465938266793887,0.5444931383648318,1.0544104758940245,0.3238615046091247,-0.39250456234122666,-2.153291787532338,0.8647539153680389,2.46587817577521,0.5445020185570556,0.0008863519660773535,-0.0001301094598199342,-0.00035435007961438,-0.0009751830088917615,-0.0001420390972200437,-0.0004170994449557744,0.0007465544850415748,0.0,0.0,0.0,0.0,0.0,0.0,0.0,-0.0002356831078069721,-0.0003554383937018901,-3.283615854832167e-06,0.00020923112568072,5.477381021190553e-06,-6.009101867698874e-05,8.880192223781336e-06,-0.0008863519660773535,0.0001301094598199342,0.00035435007961438,0.0009751830088917615,0.0001420390972200437,0.0004170994449557744,-0.0007465544850415748,0.5299312472343445,34.16213607788086,3.7752349376678467,-19.487642288208008,-0.2548118233680725,-1.796573281288147,0.14590780436992645,0
34,0.1649761199951172,-0.5299312472343445,-34.18990707397461,-3.7990386486053467,19.459871292114258,0.2484031319618225,1.796573281288147,-0.11111776530742645,0.0,0.0,0.0,0.0,0.0,0.0,0.0,-0.49220628731123356,-0.0874606539194276,-0.23622617685071567,0.42396859367743717,0.19845471826699457,-0.12109356156429198,-0.12091033452165735,1.054646685583757,0.32421888601024984,-0.39249960825317803,-2.1534990698161875,0.864749309002456,2.465938266793887,0.544490338251285,1.0544104758940245,0.3238615046091247,-0.39250456234122666,-2.153291787532338,0.8647539153680389,2.46587817577521,0.5445020185570556,0.0008403950469073587,0.000603931791853023,-0.00029171068672976955,-0.000850620657007971,0.00015581563368503995,-0.0005149054126023951,-0.00019445781703689513,0.0,0.0,0.0,0.0,0.0,0.0,0.0,-0.0002362096897325916,-0.00035738140112512307,-4.954088048625405e-06,0.00020728228384969682,4.606365582970895e-06,-6.009101867698874e-05,1.1680305770589428e-05,-0.0008403950469073587,-0.000603931791853023,0.00029171068672976955,0.000850620657007971,-0.00015581563368503995,0.0005149054126023951,0.00019445781703689513,0.5299312472343445,34.18990707397461,3.7990386486053467,-19.459871292114258,-0.2484031319618225,-1.796573281288147,0.11111776530742645,0
35,0.1699838638305664,-0.5299312472343445,-34.18990707397461,-3.7990386486053467,19.459871292114258,0.2484031319618225,1.796573281288147,-0.11111776530742645,0.0,0.0,0.0,0.0,0.0,0.0,0.0,-0.49220628731123356,-0.0874606539194276,-0.23622617685071567,0.42396859367743717,0.19845471826699457,-0.12109356156429198,-0.12091033452165735,1.054646685583757,0.32421888601024984,-0.39249960825317803,-2.1534990698161875,0.864749309002456,2.465938266793887,0.544490338251285,1.0544104758940245,0.3238615046091247,-0.39250456234122666,-2.153291787532338,0.8647539153680389,2.46587817577521,0.5445020185570556,0.0008403950469073587,0.000603931791853023,-0.00029171068672976955,-0.000850620657007971,0.00015581563368503995,-0.0005149054126023951,-0.00019445781703689513,0.0,0.0,0.0,0.0,0.0,0.0,0.0,-0.0002362096897325916,-0.00035738140112512307,-4.954088048625405e-06,0.00020728228384969682,4.606365582970895e-06,-6.009101867698874e-05,1.1680305770589428e-05,-0.0008403950469073587,-0.000603931791853023,0.00029171068672976955,0.000850620657007971,-0.00015581563368503995,0.0005149054126023951,0.00019445781703689513,0.5299312472343445,34.18990707397461,3.7990386486053467,-19.459871292114258,-0.2484031319618225,-1.796573281288147,0.11111776530742645,0
36,0.17498278617858887,-0.5021602511405945,-34.13833236694336,-3.7990386486053467,19.459871292114258,0.2484031319618225,1.796573281288147,-0.09097616374492645,0.0,0.0,0.0,0.0,0.0,0.0,0.0,-0.49479409506720645,-0.09020327557271623,-0.23751757190705533,0.4261901840896205,0.19867612667032672,-0.12023462478060121,-0.12153868910812929,1.0546441836690301,0.3242145575453655,-0.3924996082531778,-2.1534990698161875,0.8647493046427024,2.465939326432016,0.5444874316684571,1.0544104758940245,0.3238615046091247,-0.39250456234122666,-2.153291787532338,0.8647539153680389,2.46587817577521,0.5445020185570556,-9.221250664942085e-05,-0.00041036208006020613,-0.0006623972167667161,-0.000269479711088663,0.00013623547651471122,-0.0003457255562784774,-0.0012336034461458323,0.0,0.0,0.0,0.0,0.0,0.0,0.0,-0.00023370777500564266,-0.00035305293624077194,-4.954088048847449e-06,0.00020728228384969682,4.610725336529065e-06,-6.115065680623033e-05,1.4586888598455694e-05,9.221250664942085e-05,0.00041036208006020613,0.0006623972167667161,0.000269479711088663,-0.00013623547651471122,0.0003457255562784774,0.0012336034461458323,0.5021602511405945,34.13833236694336,3.7990386486053467,-19.459871292114258,-0.2484031319618225,-1.796573281288147,0.09097616374492645,0
37,0.17998862266540527,-0.5021602511405945,-34.13833236694336,-3.7990386486053467,19.459871292114258,0.2484031319618225,1.796573281288147,-0.09097616374492645,0.0,0.0,0.0,0.0,0.0,0.0,0.0,-0.49479409506720645,-0.09020327557271623,-0.23751757190705533,0.4261901840896205,0.19867612667032672,-0.12023462478060121,-0.12153868910812929,1.0546441836690301,0.3242145575453655,-0.3924996082531778,-2.1534990698161875,0.8647493046427024,2.465939326432016,0.5444874316684571,1.0544104758940245,0.3238615046091247,-0.39250456234122666,-2.153291787532338,0.8647539153680389,2.46587817577521,0.5445020185570556,-9.221250664942085e-05,-0.00041036208006020613,-0.0006623972167667161,-0.000269479711088663,0.00013623547651471122,-0.0003457255562784774,-0.0012336034461458323,0.0,0.0,0.0,0.0,0.0,0.0,0.0,-0.00023370777500564266,-0.00035305293624077194,-4.954088048847449e-06,0.00020728228384969682,4.610725336529065e-06,-6.115065680623033e-05,1.4586888598455694e-05,9.221250664942085e-05,0.00041036208006020613,0.0006623972167667161,0.000269479711088663,-0.00013623547651471122,0.0003457255562784774,0.0012336034461458323,0.5021602511405945,34.13833236694336,3.7990386486053467,-19.459871292114258,-0.2484031319618225,-1.796573281288147,0.09097616374492645,0
38,0.18499422073364258,-0.4505855441093445,-34.18990707397461,-3.8228423595428467,19.487642288208008,0.2603049874305725,1.796573281288147,-0.11111776530742645,0.0,0.0,0.0,0.0,0.0,0.0,0.0,-0.4889856892030063,-0.09500031841185018,-0.23267917050014336,0.42841952423744617,0.1982492952675203,-0.12033726544550463,-0.1223533392820522,1.0546403226991543,0.32421880358991456,-0.3924979378173225,-2.1535010186580186,0.8647479860904262,2.4659382667998684,0.5444904506075755,1.0544104758940245,0.3238615046091247,-0.39250456234122666,-2.153291787532338,0.8647539153680389,2.46587817577521,0.5445020185570556,-0.001207190216998822,0.0002967361479820869,0.00025695711172297173,-0.0009639898845012671,-0.0005891925897985028,-0.00037084632017888707,-0.00021732749268850164,0.0,0.0,0.0,0.0,0.0,0.0,0.0,-0.0002298468051298297,-0.0003572989807898441,-6.6245239041529125e-06,0.00020923112568072,5.9292776126707025e-06,-6.0091024658426306e-05,1.1567949480095763e-05,0.001207190216998822,-0.0002967361479820869,-0.00025695711172297173,0.0009639898845012671,0.0005891925897985028,0.00037084632017888707,0.00021732749268850164,0.4505855441093445,34.18990707397461,3.8228423595428467,-19.487642288208008,-0.2603049874305725,-1.796573281288147,0.11111776530742645,0
39,0.18994641304016113,-0.4505855441093445,-34.18990707397461,-3.8228423595428467,19.487642288208008,0.2603049874305725,1.796573281288147,-0.11111776530742645,0.0,0.0,0.0,0.0,0.0,0.0,0.0,-0.4889856892030063,-0.09500031841185018,-0.23267917050014336,0.42841952423744617,0.1982492952675203,-0.12033726544550463,-0.1223533392820522,1.0546403226991543,0.32421880358991456,-0.3924979378173225,-2.1535010186580186,0.8647479860904262,2.4659382667998684,0.5444904506075755,1.0544104758940245,0.3238615046091247,-0.39250456234122666,-2.153291787532338,0.8647539153680389,2.46587817577521,0.5445020185570556,-0.001207190216998822,0.0002967361479820869,0.00025695711172297173,-0.0009639898845012671,-0.0005891925897985028,-0.00037084632017888707,-0.00021732749268850164,0.0,0.0,0.0,0.0,0.0,0.0,0.0,-0.0002298468051298297,-0.0003572989807898441,-6.6245239041529125e-06,0.00020923112568072,5.9292776126707025e-06,-6.0091024658426306e-05,1.1567949480095763e-05,0.001207190216998822,-0.0002967361479820869,-0.00025695711172297173,0.0009639898845012671,0.0005891925897985028,0.00037084632017888707,0.00021732749268850164,0.4505855441093445,34.18990707397461,3.8228423595428467,-19.487642288208008,-0.2603049874305725,-1.796573281288147,0.11111776530742645,0
40,0.19495582580566406,-0.4783565402030945,-34.16213607788086,-3.7752349376678467,19.487642288208008,0.2548118233680725,1.770938515663147,-0.15964071452617645,0.0,0.0,0.0,0.0,0.0,0.0,0.0,-0.4901625169581347,-0.08838662426122477,-0.2365183678081138,0.423021235018495,0.19789660669126044,-0.12083842043301787,-0.12228604115806371,1.054645132889619,0.3242169453078019,-0.39250127868903306,-2.1535010186580186,0.8647485838445752,2.4659411151011783,0.5444978431049583,1.0544104758940245,0.3238615046091247,-0.39250456234122666,-2.153291787532338,0.8647539153680389,2.46587817577521,0.5445020185570556,-0.0004410727679755137,-0.0001903772149805324,-0.0005541241552399211,-0.0010539125782310947,-0.00028496591356802216,0.00042600887622626165,0.001174455172797139,0.0,0.0,0.0,0.0,0.0,0.0,0.0,-0.00023465699559443998,-0.00035544069867715633,-3.283652193597497e-06,0.00020923112568072,5.331523463714127e-06,-6.29393259683475e-05,4.175452097299193e-06,0.0004410727679755137,0.0001903772149805324,0.0005541241552399211,0.0010539125782310947,0.00028496591356802216,-0.00042600887622626165,-0.001174455172797139,0.4783565402030945,34.16213607788086,3.7752349376678467,-19.487642288208008,-0.2548118233680725,-1.770938515663147,0.15964071452617645,0
41,0.1999804973602295,-0.4783565402030945,-34.16213607788086,-3.7752349376678467,19.487642288208008,0.2548118233680725,1.770938515663147,-0.15964071452617645,0.0,0.0,0.0,0.0,0.0,0.0,0.0,-0.4901625169581347,-0.08838662426122477,-0.2365183678081138,0.423021235018495,0.19789660669126044,-0.12083842043301787,-0.12228604115806371,1.054645132889619,0.3242169453078019,-0.39250127868903306,-2.1535010186580186,0.8647485838445752,2.4659411151011783,0.5444978431049583,1.0544104758940245,0.3238615046091247,-0.39250456234122666,-2.153291787532338,0.8647539153680389,2.46587817577521,0.5445020185570556,-0.0004410727679755137,-0.0001903772149805324,-0.0005541241552399211,-0.0010539125782310947,-0.00028496591356802216,0.00042600887622626165,0.001174455172797139,0.0,0.0,0.0,0.0,0.0,0.0,0.0,-0.00023465699559443998,-0.00035544069867715633,-3.283652193597497e-06,0.00020923112568072,5.331523463714127e-06,-6.29393259683475e-05,4.175452097299193e-06,0.0004410727679755137,0.0001903772149805324,0.0005541241552399211,0.0010539125782310947,0.00028496591356802216,-0.00042600887622626165,-0.001174455172797139,0.4783565402030945,34.16213607788086,3.7752349376678467,-19.487642288208008,-0.2548118233680725,-1.770938515663147,0.15964071452617645,0
42,0.20497965812683105,-0.4505855441093445,-34.18990707397461,-3.8506133556365967,19.459871292114258,0.2484031319618225,1.783755898475647,-0.13858358561992645,0.0,0.0,0.0,0.0,0.0,0.0,0.0,-0.48529230415469937,-0.0896761684624322,-0.2349296300293247,0.42266353475815654,0.1974164238791725,-0.12157715397306412,-0.12309570070114098,1.0546403320005282,0.3242186436670521,-0.39249598897549137,-2.1534990698161875,0.8647482450039083,2.4659396909475326,0.5444933857561172,1.0544104758940245,0.3238615046091247,-0.39250456234122666,-2.153291787532338,0.8647539153680389,2.46587817577521,0.5445020185570556,-0.0002769087944172568,0.0006660482627428809,0.0012555771878576772,-0.0007643425587184917,7.259595634626781e-05,-8.160464744708755e-05,0.0010040387416083067,0.0,0.0,0.0,0.0,0.0,0.0,0.0,-0.000229856106503723,-0.0003571390579273914,-8.573365735287108e-06,0.00020728228384969682,5.670364130572203e-06,-6.151517232266812e-05,8.632800938435103e-06,0.0002769087944172568,-0.0006660482627428809,-0.0012555771878576772,0.0007643425587184917,-7.259595634626781e-05,8.160464744708755e-05,-0.0010040387416083067,0.4505855441093445,34.18990707397461,3.8506133556365967,-19.459871292114258,-0.2484031319618225,-1.783755898475647,0.13858358561992645,0
43,0.20997953414916992,-0.4505855441093445,-34.18990707397461,-3.8506133556365967,19.459871292114258,0.2484031319618225,1.783755898475647,-0.13858358561992645,0.0,0.0,0.0,0.0,0.0,0.0,0.0,-0.48529230415469937,-0.0896761684624322,-0.2349296300293247,0.42266353475815654,0.1974164238791725,-0.12157715397306412,-0.12309570070114098,1.0546403320005282,0.3242186436670521,-0.39249598897549137,-2.1534990698161875,0.8647482450039083,2.4659396909475326,0.5444933857561172,1.0544104758940245,0.3238615046091247,-0.39250456234122666,-2.153291787532338,0.8647539153680389,2.46587817577521,0.5445020185570556,-0.0002769087944172568,0.0006660482627428809,0.0012555771878576772,-0.0007643425587184917,7.259595634626781e-05,-8.160464744708755e-05,0.0010040387416083067,0.0,0.0,0.0,0.0,0.0,0.0,0.0,-0.000229856106503723,-0.0003571390579273914,-8.573365735287108e-06,0.00020728228384969682,5.670364130572203e-06,-6.151517232266812e-05,8.632800938435103e-06,0.0002769087944172568,-0.0006660482627428809,-0.0012555771878576772,0.0007643425587184917,-7.259595634626781e-05,8.160464744708755e-05,-0.0010040387416083067,0.4505855441093445,34.18990707397461,3.8506133556365967,-19.459871292114258,-0.2484031319618225,-1.783755898475647,0.13858358561992645,0
44,0.2149810791015625,-0.5021602511405945,-34.09072494506836,-3.7990386486053467,19.436067581176758,0.2484031319618225,1.783755898475647,-0.13858358561992645,0.0,0.0,0.0,0.0,0.0,0.0,0.0,-0.4859171258344303,-0.09852510822478759,-0.24039299972617595,0.4257540795387844,0.19761543143960747,-0.12111997748523977,-0.12276949975669389,1.0546440214483537,0.3242118288964841,-0.3924996082531778,-2.153497399380332,0.8647493088398455,2.4659396909475326,0.5444969206487515,1.0544104758940245,0.3238615046091247,-0.39250456234122666,-2.153291787532338,0.8647539153680389,2.46587817577521,0.5445020185570556,0.0006441086084519578,-0.0021033001111884337,5.495734480485009e-05,0.00015397624743674002,0.0002630128417397944,-0.000256171654330359,0.0005976920016255577,0.0,0.0,0.0,0.0,0.0,0.0,0.0,-0.00023354555432919533,-0.0003503242873593715,-4.954088048847449e-06,0.00020561184799428034,4.606528193451531e-06,-6.151517232266812e-05,5.097908304052545e-06,-0.0006441086084519578,0.0021033001111884337,-5.495734480485009e-05,-0.00015397624743674002,-0.0002630128417397944,0.000256171654330359,-0.0005976920016255577,0.5021602511405945,34.09072494506836,3.7990386486053467,-19.436067581176758,-0.2484031319618225,-1.783755898475647,0.13858358561992645,0
45,0.21998214721679688,-0.5021602511405945,-34.09072494506836,-3.7990386486053467,19.436067581176758,0.2484031319618225,1.783755898475647,-0.13858358561992645,0.0,0.0,0.0,0.0,0.0,0.0,0.0,-0.4859171258344303,-0.09852510822478759,-0.24039299972617595,0.4257540795387844,0.19761543143960747,-0.12111997748523977,-0.12276949975669389,1.0546440214483537,0.3242118288964841,-0.3924996082531778,-2.153497399380332,0.8647493088398455,2.4659396909475326,0.5444969206487515,1.0544104758940245,0.3238615046091247,-0.39250456234122666,-2.153291787532338,0.8647539153680389,2.46587817577521,0.5445020185570556,0.0006441086084519578,-0.0021033001111884337,5.495734480485009e-05,0.00015397624743674002,0.0002630128417397944,-0.000256171654330359,0.0005976920016255577,0.0,0.0,0.0,0.0,0.0,0.0,0.0,-0.00023354555432919533,-0.0003503242873593715,-4.954088048847449e-06,0.00020561184799428034,4.606528193451531e-06,-6.151517232266812e-05,5.097908304052545e-06,-0.0006441086084519578,0.0021033001111884337,-5.495734480485009e-05,-0.00015397624743674002,-0.0002630128417397944,0.000256171654330359,-0.0005976920016255577,0.5021602511405945,34.09072494506836,3.7990386486053467,-19.436067581176758,-0.2484031319618225,-1.783755898475647,0.13858358561992645,0
46,0.22498083114624023,-0.5021602511405945,-34.21371078491211,-3.7990386486053467,19.412263870239258,0.2484031319618225,1.783755898475647,-0.14590780436992645,0.0,0.0,0.0,0.0,0.0,0.0,0.0,-0.49191697006475027,-0.10436243684759555,-0.24722873554076727,0.4289266716750964,0.19825586736329387,-0.12018747178487911,-0.1233016178000446,1.0546449049166242,0.32421961192857496,-0.3924996082531778,-2.1534957289444767,0.8647461300889642,2.4659396909475326,0.5444931557735633,1.0544104758940245,0.3238615046091247,-0.39250456234122666,-2.153291787532338,0.8647539153680389,2.46587817577521,0.5445020185570556,0.00017298736462489396,0.000844702246843741,-0.00037999283451335344,0.0011477383277013792,0.00015122386351676254,2.5288807393800298e-05,0.0009045341278068495,0.0,0.0,0.0,0.0,0.0,0.0,0.0,-0.00023442902259973586,-0.00035810731945024044,-4.954088048847449e-06,0.00020394141213886385,7.785279074745688e-06,-6.151517232266812e-05,8.862783492324944e-06,-0.00017298736462489396,-0.000844702246843741,0.00037999283451335344,-0.0011477383277013792,-0.00015122386351676254,-2.5288807393800298e-05,-0.0009045341278068495,0.5021602511405945,34.21371078491211,3.7990386486053467,-19.412263870239258,-0.2484031319618225,-1.783755898475647,0.14590780436992645,0
47,0.2299802303314209,-0.5021602511405945,-34.21371078491211,-3.7990386486053467,19.412263870239258,0.2484031319618225,1.783755898475647,-0.14590780436992645,0.0,0.0,0.0,0.0,0.0,0.0,0.0,-0.49191697006475027,-0.10436243684759555,-0.24722873554076727,0.4289266716750964,0.19825586736329387,-0.12018747178487911,-0.1233016178000446,1.0546449049166242,0.32421961192857496,-0.3924996082531778,-2.1534957289444767,0.8647461300889642,2.4659396909475326,0.5444931557735633,1.0544104758940245,0.3238615046091247,-0.39250456234122666,-2.153291787532338,0.8647539153680389,2.46587817577521,0.5445020185570556,0.00017298736462489396,0.000844702246843741,-0.00037999283451335344,0.0011477383277013792,0.00015122386351676254,2.5288807393800298e-05,0.0009045341278068495,0.0,0.0,0.0,0.0,0.0,0.0,0.0,-0.00023442902259973586,-0.00035810731945024044,-4.954088048847449e-06,0.00020394141213886385,7.785279074745688e-06,-6.151517232266812e-05,8.862783492324944e-06,-0.00017298736462489396,-0.000844702246843741,0.00037999283451335344,-0.0011477383277013792,-0.00015122386351676254,-2.5288807393800298e-05,-0.0009045341278068495,0.5021602511405945,34.21371078491211,3.7990386486053467,-19.412263870239258,-0.2484031319618225,-1.783755898475647,0.14590780436992645,0
48,0.23499512672424316,-0.5021602511405945,-34.13833236694336,-3.7990386486053467,19.459871292114258,0.2603049874305725,1.783755898475647,-0.13217489421367645,0.0,0.0,0.0,0.0,0.0,0.0,0.0,-0.4855052865315403,-0.09588556195661581,-0.2394174274844502,0.424264073779519,0.19842545736703643,-0.12111085808507877,-0.12469629684238123,1.0546439429620587,0.3242123854272236,-0.3924996082531778,-2.1534990698161875,0.8647448076426345,2.4659396909475326,0.5444916126415481,1.0544104758940245,0.3238615046091247,-0.39250456234122666,-2.153291787532338,0.8647539153680389,2.46587817577521,0.5445020185570556,0.00020162579766336904,-0.0006591712676979044,-1.788694719055321e-05,-6.62418614847924e-05,-4.057219015679163e-05,0.00018264867694885696,0.0004712923426912542,0.0,0.0,0.0,0.0,0.0,0.0,0.0,-0.0002334670680341766,-0.0003508808180988643,-4.954088048847449e-06,0.00020728228384969682,9.107725404411404e-06,-6.151517232266812e-05,1.0405915507494257e-05,-0.00020162579766336904,0.0006591712676979044,1.788694719055321e-05,6.62418614847924e-05,4.057219015679163e-05,-0.00018264867694885696,-0.0004712923426912542,0.5021602511405945,34.13833236694336,3.7990386486053467,-19.459871292114258,-0.2603049874305725,-1.783755898475647,0.13217489421367645,0
49,0.23997998237609863,-0.5021602511405945,-34.13833236694336,-3.7990386486053467,19.459871292114258,0.2603049874305725,1.783755898475647,-0.13217489421367645,0.0,0.0,0.0,0.0,0.0,0.0,0.0,-0.4855052865315403,-0.09588556195661581,-0.2394174274844502,0.424264073779519,0.19842545736703643,-0.12111085808507877,-0.12469629684238123,1.0546439429620587,0.3242123854272236,-0.3924996082531778,-2.1534990698161875,0.8647448076426345,2.4659396909475326,0.5444916126415481,1.0544104758940245,0.3238615046091247,-0.39250456234122666,-2.153291787532338,0.8647539153680389,2.46587817577521,0.5445020185570556,0.00020162579766336904,-0.0006591712676979044,-1.788694719055321e-05,-6.62418614847924e-05,-4.057219015679163e-05,0.00018264867694885696,0.0004712923426912542,0.0,0.0,0.0,0.0,0.0,0.0,0.0,-0.0002334670680341766,-0.0003508808180988643,-4.954088048847449e-06,0.00020728228384969682,9.107725404411404e-06,-6.151517232266812e-05,1.0405915507494257e-05,-0.00020162579766336904,0.0006591712676979044,1.788694719055321e-05,6.62418614847924e-05,4.057219015679163e-05,-0.00018264867694885696,-0.0004712923426912542,0.5021602511405945,34.13833236694336,3.7990386486053467,-19.459871292114258,-0.2603049874305725,-1.783755898475647,0.13217489421367645,0
50,0.24499273300170898,-0.5021602511405945,-34.13833236694336,-3.7990386486053467,19.459871292114258,0.2603049874305725,1.783755898475647,-0.13217489421367645,0.0,0.0,0.0,0.0,0.0,0.0,0.0,-0.4855052865315403,-0.09588556195661581,-0.2394174274844502,0.424264073779519,0.19842545736703643,-0.12111085808507877,-0.12469629684238123,1.0546439429620587,0.3242123854272236,-0.3924996082531778,-2.1534990698161875,0.8647448076426345,2.4659396909475326,0.5444916126415481,1.0544104758940245,0.3238615046091247,-0.39250456234122666,-2.153291787532338,0.8647539153680389,2.46587817577521,0.5445020185570556,0.00020162579766336904,-0.0006591712676979044,-1.788694719055321e-05,-6.62418614847924e-05,-4.057219015679163e-05,0.00018264867694885696,0.0004712923426912542,0.0,0.0,0.0,0.0,0.0,0.0,0.0,-0.0002334670680341766,-0.0003508808180988643,-4.954088048847449e-06,0.00020728228384969682,9.107725404411404e-06,-6.151517232266812e-05,1.0405915507494257e-05,-0.00020162579766336904,0.0006591712676979044,1.788694719055321e-05,6.62418614847924e-05,4.057219015679163e-05,-0.00018264867694885696,-0.0004712923426912542,0.5021602511405945,34.13833236694336,3.7990386486053467,-19.459871292114258,-0.2603049874305725,-1.783755898475647,0.13217489421367645,0
51,0.24997997283935547,-0.5021602511405945,-34.13833236694336,-3.7990386486053467,19.459871292114258,0.2603049874305725,1.783755898475647,-0.13217489421367645,0.0,0.0,0.0,0.0,0.0,0.0,0.0,-0.4855052865315403,-0.09588556195661581,-0.2394174274844502,0.424264073779519,0.19842545736703643,-0.12111085808507877,-0.12469629684238123,1.0546439429620587,0.3242123854272236,-0.3924996082531778,-2.1534990698161875,0.8647448076426345,2.4659396909475326,0.5444916126415481,1.0544104758940245,0.3238615046091247,-0.39250456234122666,-2.153291787532338,0.8647539153680389,2.46587817577521,0.5445020185570556,0.00020162579766336904,-0.0006591712676979044,-1.788694719055321e-05,-6.62418614847924e-05,-4.057219015679163e-05,0.00018264867694885696,0.0004712923426912542,0.0,0.0,0.0,0.0,0.0,0.0,0.0,-0.0002334670680341766,-0.0003508808180988643,-4.954088048847449e-06,0.00020728228384969682,9.107725404411404e-06,-6.151517232266812e-05,1.0405915507494257e-05,-0.00020162579766336904,0.0006591712676979044,1.788694719055321e-05,6.62418614847924e-05,4.057219015679163e-05,-0.00018264867694885696,-0.0004712923426912542,0.5021602511405945,34.13833236694336,3.7990386486053467,-19.459871292114258,-0.2603049874305725,-1.783755898475647,0.13217489421367645,0
52,0.2550959587097168,-0.5021602511405945,-34.16213607788086,-3.8228423595428467,19.436067581176758,0.2548118233680725,1.783755898475647,-0.11844198405742645,0.0,0.0,0.0,0.0,0.0,0.0,0.0,-0.48272151186106577,-0.09273663617113295,-0.23483463707013258,0.4259550641463461,0.1987725311384426,-0.1205875163402921,-0.1245074648762259,1.0546439429566283,0.3242159102188719,-0.3924979378173225,-2.153497399380332,0.8647485925479342,2.4659396909475326,0.5444911463468386,1.0544104758940245,0.3238615046091247,-0.39250456234122666,-2.153291787532338,0.8647539153680389,2.46587817577521,0.5445020185570556,0.0004105189482423885,4.3730089132562716e-05,0.00043296346771538565,0.00044261047016460513,-0.00023615810092497022,0.00020931077807952582,-0.00018752083435285847,0.0,0.0,0.0,0.0,0.0,0.0,0.0,-0.00023346706260385375,-0.00035440560974719926,-6.6245239041529125e-06,0.00020561184799428034,5.322820104680659e-06,-6.151517232266812e-05,1.0872210217005573e-05,-0.0004105189482423885,-4.3730089132562716e-05,-0.00043296346771538565,-0.00044261047016460513,0.00023615810092497022,-0.00020931077807952582,0.00018752083435285847,0.5021602511405945,34.16213607788086,3.8228423595428467,-19.436067581176758,-0.2548118233680725,-1.783755898475647,0.11844198405742645,0
53,0.25998425483703613,-0.5021602511405945,-34.16213607788086,-3.8228423595428467,19.436067581176758,0.2548118233680725,1.783755898475647,-0.11844198405742645,0.0,0.0,0.0,0.0,0.0,0.0,0.0,-0.48272151186106577,-0.09273663617113295,-0.23483463707013258,0.4259550641463461,0.1987725311384426,-0.1205875163402921,-0.1245074648762259,1.0546439429566283,0.3242159102188719,-0.3924979378173225,-2.153497399380332,0.8647485925479342,2.4659396909475326,0.5444911463468386,1.0544104758940245,0.3238615046091247,-0.39250456234122666,-2.153291787532338,0.8647539153680389,2.46587817577521,0.5445020185570556,0.0004105189482423885,4.3730089132562716e-05,0.00043296346771538565,0.00044261047016460513,-0.00023615810092497022,0.00020931077807952582,-0.00018752083435285847,0.0,0.0,0.0,0.0,0.0,0.0,0.0,-0.00023346706260385375,-0.00035440560974719926,-6.6245239041529125e-06,0.00020561184799428034,5.322820104680659e-06,-6.151517232266812e-05,1.0872210217005573e-05,-0.0004105189482423885,-4.3730089132562716e-05,-0.00043296346771538565,-0.00044261047016460513,0.00023615810092497022,-0.00020931077807952582,0.00018752083435285847,0.5021602511405945,34.16213607788086,3.8228423595428467,-19.436067581176758,-0.2548118233680725,-1.783755898475647,0.11844198405742645,0
54,0.265028715133667,-0.4783565402030945,-34.18990707397461,-3.7990386486053467,19.459871292114258,0.2484031319618225,1.783755898475647,-0.12485067546367645,0.0,0.0,0.0,0.0,0.0,0.0,0.0,-0.4859993670161394,-0.09537652542280547,-0.23889731819769086,0.43044405656617885,0.19824326359490585,-0.1189300386380227,-0.12457565417400605,1.0546425986974481,0.3242166599648955,-0.3924996082531778,-2.1534990689440576,0.8647493085188116,2.4659396909475326,0.5444918713500896,1.0544104758940245,0.3238615046091247,-0.39250456234122666,-2.153291787532338,0.8647539153680389,2.46587817577521,0.5445020185570556,-0.0006288752237998941,0.0006863293998417167,-0.000172171512442266,-7.522366872679183e-05,-6.274656447967982e-05,0.00012196154103781392,0.00014551162440448203,0.0,0.0,0.0,0.0,0.0,0.0,0.0,-0.0002321228034236622,-0.0003551553557707976,-4.954088048847449e-06,0.000207281411719773,4.606849227317689e-06,-6.151517232266812e-05,1.0147206966015787e-05,0.0006288752237998941,-0.0006863293998417167,0.000172171512442266,7.522366872679183e-05,6.274656447967982e-05,-0.00012196154103781392,-0.00014551162440448203,0.4783565402030945,34.18990707397461,3.7990386486053467,-19.459871292114258,-0.2484031319618225,-1.783755898475647,0.12485067546367645,0
55,0.27001523971557617,-0.4783565402030945,-34.18990707397461,-3.7990386486053467,19.459871292114258,0.2484031319618225,1.783755898475647,-0.12485067546367645,0.0,0.0,0.0,0.0,0.0,0.0,0.0,-0.4859993670161394,-0.09537652542280547,-0.23889731819769086,0.43044405656617885,0.19824326359490585,-0.1189300386380227,-0.12457565417400605,1.0546425986974481,0.3242166599648955,-0.3924996082531778,-2.1534990689440576,0.8647493085188116,2.4659396909475326,0.5444918713500896,1.0544104758940245,0.3238615046091247,-0.39250456234122666,-2.153291787532338,0.8647539153680389,2.46587817577521,0.5445020185570556,-0.0006288752237998941,0.0006863293998417167,-0.000172171512442266,-7.522366872679183e-05,-6.274656447967982e-05,0.00012196154103781392,0.00014551162440448203,0.0,0.0,0.0,0.0,0.0,0.0,0.0,-0.0002321228034236622,-0.0003551553557707976,-4.954088048847449e-06,0.000207281411719773,4.606849227317689e-06,-6.151517232266812e-05,1.0147206966015787e-05,0.0006288752237998941,-0.0006863293998417167,0.000172171512442266,7.522366872679183e-05,6.274656447967982e-05,-0.00012196154103781392,-0.00014551162440448203,0.4783565402030945,34.18990707397461,3.7990386486053467,-19.459871292114258,-0.2484031319618225,-1.783755898475647,0.12485067546367645,0
56,0.2751741409301758,-0.5299312472343445,-34.16213607788086,-3.7990386486053467,19.459871292114258,0.2548118233680725,1.783755898475647,-0.13217489421367645,0.0,0.0,0.0,0.0,0.0,0.0,0.0,-0.4841244498731994,-0.08603720844653084,-0.2346949470401504,0.4281950567360428,0.1974617284648037,-0.11964828194470757,-0.12458208669782155,1.0546458908191543,0.3242167036066339,-0.3924996082531778,-2.1534990698161827,0.8647484791889575,2.4659396909475326,0.5444947971607533,1.0544104758940245,0.3238615046091247,-0.39250456234122666,-2.153291787532338,0.8647539153680389,2.46587817577521,0.5445020185570556,0.0005553690421945878,0.0003181987476875111,0.0002943428515191705,7.454875271295743e-05,-8.491676725839635e-05,-8.765322290977721e-05,0.00021845462546500437,0.0,0.0,0.0,0.0,0.0,0.0,0.0,-0.00023541492512979545,-0.0003551989975091874,-4.954088048847449e-06,0.00020728228384481184,5.436179081441672e-06,-6.151517232266812e-05,7.2213963022704775e-06,-0.0005553690421945878,-0.0003181987476875111,-0.0002943428515191705,-7.454875271295743e-05,8.491676725839635e-05,8.765322290977721e-05,-0.00021845462546500437,0.5299312472343445,34.16213607788086,3.7990386486053467,-19.459871292114258,-0.2548118233680725,-1.783755898475647,0.13217489421367645,0
57,0.2800145149230957,-0.5299312472343445,-34.16213607788086,-3.7990386486053467,19.459871292114258,0.2548118233680725,1.783755898475647,-0.13217489421367645,0.0,0.0,0.0,0.0,0.0,0.0,0.0,-0.4841244498731994,-0.08603720844653084,-0.2346949470401504,0.4281950567360428,0.1974617284648037,-0.11964828194470757,-0.12458208669782155,1.0546458908191543,0.3242167036066339,-0.3924996082531778,-2.1534990698161827,0.8647484791889575,2.4659396909475326,0.5444947971607533,1.0544104758940245,0.3238615046091247,-0.39250456234122666,-2.153291787532338,0.8647539153680389,2.46587817577521,0.5445020185570556,0.0005553690421945878,0.0003181987476875111,0.0002943428515191705,7.454875271295743e-05,-8.491676725839635e-05,-8.765322290977721e-05,0.00021845462546500437,0.0,0.0,0.0,0.0,0.0,0.0,0.0,-0.00023541492512979545,-0.0003551989975091874,-4.954088048847449e-06,0.00020728228384481184,5.436179081441672e-06,-6.151517232266812e-05,7.2213963022704775e-06,-0.0005553690421945878,-0.0003181987476875111,-0.0002943428515191705,-7.454875271295743e-05,8.491676725839635e-05,8.765322290977721e-05,-0.00021845462546500437,0.5299312472343445,34.16213607788086,3.7990386486053467,-19.459871292114258,-0.2548118233680725,-1.783755898475647,0.13217489421367645,0
58,0.28501343727111816,-0.4505855441093445,-34.16213607788086,-3.7990386486053467,19.487642288208008,0.2603049874305725,1.783755898475647,-0.12485067546367645,0.0,0.0,0.0,0.0,0.0,0.0,0.0,-0.5002947378576426,-0.09237133067223478,-0.2442345288566158,0.43134617482467014,0.19812459260241785,-0.1197408619724711,-0.12408975414131694,1.0546406405892288,0.324216699075537,-0.3924996082531778,-2.1535010186580186,0.8647476333615932,2.4659396909475326,0.5444940168022481,1.0544104758940245,0.3238615046091247,-0.39250456234122666,-2.153291787532338,0.8647539153680389,2.46587817577521,0.5445020185570556,-0.001251844814873159,-3.5632762709957405e-06,-0.0005730415988313708,-0.0005607843641364308,-0.0003963089171353299,-0.00013105449766971105,0.0006591621803092574,0.0,0.0,0.0,0.0,0.0,0.0,0.0,-0.0002301646952043157,-0.0003551944664123008,-4.954088048847449e-06,0.00020923112568072,6.282006445701427e-06,-6.151517232266812e-05,8.001754807529515e-06,0.001251844814873159,3.5632762709957405e-06,0.0005730415988313708,0.0005607843641364308,0.0003963089171353299,0.00013105449766971105,-0.0006591621803092574,0.4505855441093445,34.16213607788086,3.7990386486053467,-19.487642288208008,-0.2603049874305725,-1.783755898475647,0.12485067546367645,0
59,0.2899913787841797,-0.4505855441093445,-34.16213607788086,-3.7990386486053467,19.487642288208008,0.2603049874305725,1.783755898475647,-0.12485067546367645,0.0,0.0,0.0,0.0,0.0,0.0,0.0,-0.5002947378576426,-0.09237133067223478,-0.2442345288566158,0.43134617482467014,0.19812459260241785,-0.1197408619724711,-0.12408975414131694,1.0546406405892288,0.324216699075537,-0.3924996082531778,-2.1535010186580186,0.8647476333615932,2.4659396909475326,0.5444940168022481,1.0544104758940245,0.3238615046091247,-0.39250456234122666,-2.153291787532338,0.8647539153680389,2.46587817577521,0.5445020185570556,-0.001251844814873159,-3.5632762709957405e-06,-0.0005730415988313708,-0.0005607843641364308,-0.0003963089171353299,-0.00013105449766971105,0.0006591621803092574,0.0,0.0,0.0,0.0,0.0,0.0,0.0,-0.0002301646952043157,-0.0003551944664123008,-4.954088048847449e-06,0.00020923112568072,6.282006445701427e-06,-6.151517232266812e-05,8.001754807529515e-06,0.001251844814873159,3.5632762709957405e-06,0.0005730415988313708,0.0005607843641364308,0.0003963089171353299,0.00013105449766971105,-0.0006591621803092574,0.4505855441093445,34.16213607788086,3.7990386486053467,-19.487642288208008,-0.2603049874305725,-1.783755898475647,0.12485067546367645,0
60,0.29498767852783203,-0.4783565402030945,-34.21371078491211,-3.7990386486053467,19.436067581176758,0.2548118233680725,1.783755898475647,-0.12485067546367645,0.0,0.0,0.0,0.0,0.0,0.0,0.0,-0.5012398056934539,-0.08697283680113463,-0.24362414599789428,0.42779927606602997,0.1978484825017683,-0.12071289416047494,-0.12300491603460594,1.0546432353542448,0.32421974405549564,-0.3924996082531778,-2.1534973287377905,0.8647485969245363,2.4659396909475326,0.5444918588186735,1.0544104758940245,0.3238615046091247,-0.39250456234122666,-2.153291787532338,0.8647539153680389,2.46587817577521,0.5445020185570556,-0.0006240843602424236,0.0015085738485907437,-0.0003864987700818132,0.00027239893445362595,-5.1582300444695586e-05,-5.222591179481174e-07,0.0002914879677786576,0.0,0.0,0.0,0.0,0.0,0.0,0.0,-0.0002327594602202776,-0.00035823944637092264,-4.954088048847449e-06,0.00020554120545268617,5.318443502599912e-06,-6.151517232266812e-05,1.0159738382142791e-05,0.0006240843602424236,-0.0015085738485907437,0.0003864987700818132,-0.00027239893445362595,5.1582300444695586e-05,5.222591179481174e-07,-0.0002914879677786576,0.4783565402030945,34.21371078491211,3.7990386486053467,-19.436067581176758,-0.2548118233680725,-1.783755898475647,0.12485067546367645,0
61,0.29999542236328125,-0.4783565402030945,-34.21371078491211,-3.7990386486053467,19.436067581176758,0.2548118233680725,1.783755898475647,-0.12485067546367645,0.0,0.0,0.0,0.0,0.0,0.0,0.0,-0.5012398056934539,-0.08697283680113463,-0.24362414599789428,0.42779927606602997,0.1978484825017683,-0.12071289416047494,-0.12300491603460594,1.0546432353542448,0.32421974405549564,-0.3924996082531778,-2.1534973287377905,0.8647485969245363,2.4659396909475326,0.5444918588186735,1.0544104758940245,0.3238615046091247,-0.39250456234122666,-2.153291787532338,0.8647539153680389,2.46587817577521,0.5445020185570556,-0.0006240843602424236,0.0015085738485907437,-0.0003864987700818132,0.00027239893445362595,-5.1582300444695586e-05,-5.222591179481174e-07,0.0002914879677786576,0.0,0.0,0.0,0.0,0.0,0.0,0.0,-0.0002327594602202776,-0.00035823944637092264,-4.954088048847449e-06,0.00020554120545268617,5.318443502599912e-06,-6.151517232266812e-05,1.0159738382142791e-05,0.0006240843602424236,-0.0015085738485907437,0.0003864987700818132,-0.00027239893445362595,5.1582300444695586e-05,5.222591179481174e-07,-0.0002914879677786576,0.4783565402030945,34.21371078491211,3.7990386486053467,-19.436067581176758,-0.2548118233680725,-1.783755898475647,0.12485067546367645,0
62,0.3049802780151367,-0.4783565402030945,-34.21371078491211,-3.7752349376678467,19.511445999145508,0.2484031319618225,1.790164589881897,-0.15231649577617645,0.0,0.0,0.0,0.0,0.0,0.0,0.0,-0.48472832255517423,-0.08646920529489045,-0.23186873814490672,0.431561205376517,0.19731186181367374,-0.12117531176761522,-0.12264890797197767,1.0546422744969868,0.3242198228256559,-0.39250127868903306,-2.153502689093741,0.8647493090033531,2.46593897887071,0.5444938940621205,1.0544104758940245,0.3238615046091247,-0.39250456234122666,-2.153291787532338,0.8647539153680389,2.46587817577521,0.5445020185570556,-3.897976888404863e-06,0.0012920443903086977,-0.00042961752838920834,-0.0010928830418117327,0.00010432447570954372,-0.00014883053457518338,0.001269621439662165,0.0,0.0,0.0,0.0,0.0,0.0,0.0,-0.00023179860296229648,-0.000358318216531206,-3.283652193597497e-06,0.0002109015614033538,4.606364685799669e-06,-6.080309549982843e-05,8.124494935146664e-06,3.897976888404863e-06,-0.0012920443903086977,0.00042961752838920834,0.0010928830418117327,-0.00010432447570954372,0.00014883053457518338,-0.001269621439662165,0.4783565402030945,34.21371078491211,3.7752349376678467,-19.511445999145508,-0.2484031319618225,-1.790164589881897,0.15231649577617645,0
63,0.309938907623291,-0.4783565402030945,-34.21371078491211,-3.7752349376678467,19.511445999145508,0.2484031319618225,1.790164589881897,-0.15231649577617645,0.0,0.0,0.0,0.0,0.0,0.0,0.0,-0.48472832255517423,-0.08646920529489045,-0.23186873814490672,0.431561205376517,0.19731186181367374,-0.12117531176761522,-0.12264890797197767,1.0546422744969868,0.3242198228256559,-0.39250127868903306,-2.153502689093741,0.8647493090033531,2.46593897887071,0.5444938940621205,1.0544104758940245,0.3238615046091247,-0.39250456234122666,-2.153291787532338,0.8647539153680389,2.46587817577521,0.5445020185570556,-3.897976888404863e-06,0.0012920443903086977,-0.00042961752838920834,-0.0010928830418117327,0.00010432447570954372,-0.00014883053457518338,0.001269621439662165,0.0,0.0,0.0,0.0,0.0,0.0,0.0,-0.00023179860296229648,-0.000358318216531206,-3.283652193597497e-06,0.0002109015614033538,4.606364685799669e-06,-6.080309549982843e-05,8.124494935146664e-06,3.897976888404863e-06,-0.0012920443903086977,0.00042961752838920834,0.0010928830418117327,-0.00010432447570954372,0.00014883053457518338,-0.001269621439662165,0.4783565402030945,34.21371078491211,3.7752349376678467,-19.511445999145508,-0.2484031319618225,-1.790164589881897,0.15231649577617645,0
64,0.31498050689697266,-0.4783565402030945,-34.18990707397461,-3.8228423595428467,19.459871292114258,0.2484031319618225,1.783755898475647,-0.15231649577617645,0.0,0.0,0.0,0.0,0.0,0.0,0.0,-0.4872582478588319,-0.08659577358094446,-0.2351333816477448,0.4297168758017351,0.1971389032306094,-0.12026535042941697,-0.12258353518111947,1.0546429898478304,0.3242160340314767,-0.3924979378173225,-2.1534990698161875,0.8647489557906434,2.4659396909475326,0.5444938896279411,1.0544104758940245,0.3238615046091247,-0.39250456234122666,-2.153291787532338,0.8647539153680389,2.46587817577521,0.5445020185570556,0.0003795018652849125,0.0007096250661118545,0.000788491864626425,-0.0004224132602183382,-6.819220560112141e-05,0.00025963588440339815,0.0008337649519116479,0.0,0.0,0.0,0.0,0.0,0.0,0.0,-0.0002325139538059684,-0.00035452942235197904,-6.6245239041529125e-06,0.00020728228384969682,4.959577395546866e-06,-6.151517232266812e-05,8.128929114503691e-06,-0.0003795018652849125,-0.0007096250661118545,-0.000788491864626425,0.0004224132602183382,6.819220560112141e-05,-0.00025963588440339815,-0.0008337649519116479,0.4783565402030945,34.18990707397461,3.8228423595428467,-19.459871292114258,-0.2484031319618225,-1.783755898475647,0.15231649577617645,0
65,0.31998276710510254,-0.4783565402030945,-34.18990707397461,-3.8228423595428467,19.459871292114258,0.2484031319618225,1.783755898475647,-0.15231649577617645,0.0,0.0,0.0,0.0,0.0,0.0,0.0,-0.4872582478588319,-0.08659577358094446,-0.2351333816477448,0.4297168758017351,0.1971389032306094,-0.12026535042941697,-0.12258353518111947,1.0546429898478304,0.3242160340314767,-0.3924979378173225,-2.1534990698161875,0.8647489557906434,2.4659396909475326,0.5444938896279411,1.0544104758940245,0.3238615046091247,-0.39250456234122666,-2.153291787532338,0.8647539153680389,2.46587817577521,0.5445020185570556,0.0003795018652849125,0.0007096250661118545,0.000788491864626425,-0.0004224132602183382,-6.819220560112141e-05,0.00025963588440339815,0.0008337649519116479,0.0,0.0,0.0,0.0,0.0,0.0,0.0,-0.0002325139538059684,-0.00035452942235197904,-6.6245239041529125e-06,0.00020728228384969682,4.959577395546866e-06,-6.151517232266812e-05,8.128929114503691e-06,-0.0003795018652849125,-0.0007096250661118545,-0.000788491864626425,0.0004224132602183382,6.819220560112141e-05,-0.00025963588440339815,-0.0008337649519116479,0.4783565402030945,34.18990707397461,3.8228423595428467,-19.459871292114258,-0.2484031319618225,-1.783755898475647,0.15231649577617645,0
66,0.32503318786621094,-0.4783565402030945,-34.18990707397461,-3.7990386486053467,19.459871292114258,0.2484031319618225,1.783755898475647,-0.16604940593242645,0.0,0.0,0.0,0.0,0.0,0.0,0.0,-0.49791031393339125,-0.1007922757084474,-0.24895682795529486,0.43855477523221253,0.1972496010335975,-0.11594062625625008,-0.1232273051381576,1.0546422715409727,0.3242188820681863,-0.3924996082531778,-2.1534990698161875,0.8647493087873477,2.465939689493982,0.544495376260818,1.0544104758940245,0.3238615046091247,-0.39250456234122666,-2.153291787532338,0.8647539153680389,2.46587817577521,0.5445020185570556,-0.0003910975522101478,0.0006013300211293575,-0.00041027842481937003,0.000105392848988264,5.713597967370691e-05,-0.005185933895022659,0.0018210054151037167,0.0,0.0,0.0,0.0,0.0,0.0,0.0,-0.00023179564694819632,-0.0003573774590615586,-4.954088048847449e-06,0.00020728228384969682,4.606580691235429e-06,-6.151371877205492e-05,6.642296237591161e-06,0.0003910975522101478,-0.0006013300211293575,0.00041027842481937003,-0.000105392848988264,-5.713597967370691e-05,0.005185933895022659,-0.0018210054151037167,0.4783565402030945,34.18990707397461,3.7990386486053467,-19.459871292114258,-0.2484031319618225,-1.783755898475647,0.16604940593242645,0
67,0.3299896717071533,-0.4783565402030945,-34.18990707397461,-3.7990386486053467,19.459871292114258,0.2484031319618225,1.783755898475647,-0.16604940593242645,0.0,0.0,0.0,0.0,0.0,0.0,0.0,-0.49791031393339125,-0.1007922757084474,-0.24895682795529486,0.43855477523221253,0.1972496010335975,-0.11594062625625008,-0.1232273051381576,1.0546422715409727,0.3242188820681863,-0.3924996082531778,-2.1534990698161875,0.8647493087873477,2.465939689493982,0.544495376260818,1.0544104758940245,0.3238615046091247,-0.39250456234122666,-2.153291787532338,0.8647539153680389,2.46587817577521,0.5445020185570556,-0.0003910975522101478,0.0006013300211293575,-0.00041027842481937003,0.000105392848988264,5.713597967370691e-05,-0.005185933895022659,0.0018210054151037167,0.0,0.0,0.0,0.0,0.0,0.0,0.0,-0.00023179564694819632,-0.0003573774590615586,-4.954088048847449e-06,0.00020728228384969682,4.606580691235429e-06,-6.151371877205492e-05,6.642296237591161e-06,0.0003910975522101478,-0.0006013300211293575,0.00041027842481937003,-0.000105392848988264,-5.713597967370691e-05,0.005185933895022659,-0.0018210054151037167,0.4783565402030945,34.18990707397461,3.7990386486053467,-19.459871292114258,-0.2484031319618225,-1.783755898475647,0.16604940593242645,0
68,0.33502984046936035,-0.5021602511405945,-34.16213607788086,-3.7990386486053467,19.436067581176758,0.2667136788368225,1.783755898475647,-0.10470907390117645,0.0,0.0,0.0,0.0,0.0,0.0,0.0,-0.4863077136353951,-0.09935273869323016,-0.2407599188808481,0.43866064259119886,0.19681425866174665,-0.11729325131513618,-0.12354732834229813,1.0546447367040734,0.32421667247686375,-0.3924996082531778,-2.153497399380332,0.8647469208009171,2.465939690947524,0.5444917395826843,1.0544104758940245,0.3238615046091247,-0.39250456234122666,-2.153291787532338,0.8647539153680389,2.46587817577521,0.5445020185570556,0.0003447845259109018,-0.0001462988345072957,3.258878409996652e-05,0.000814067653001288,-0.0004703310749354886,-0.0001760825990736722,-0.0005844907537050378,0.0,0.0,0.0,0.0,0.0,0.0,0.0,-0.0002342608100489585,-0.00035516786773903686,-4.954088048847449e-06,0.00020561184799428034,6.994567121831885e-06,-6.151517231423043e-05,1.027897437133607e-05,-0.0003447845259109018,0.0001462988345072957,-3.258878409996652e-05,-0.000814067653001288,0.0004703310749354886,0.0001760825990736722,0.0005844907537050378,0.5021602511405945,34.16213607788086,3.7990386486053467,-19.436067581176758,-0.2667136788368225,-1.783755898475647,0.10470907390117645,0
69,0.3399465084075928,-0.5021602511405945,-34.16213607788086,-3.7990386486053467,19.436067581176758,0.2667136788368225,1.783755898475647,-0.10470907390117645,0.0,0.0,0.0,0.0,0.0,0.0,0.0,-0.4863077136353951,-0.09935273869323016,-0.2407599188808481,0.43866064259119886,0.19681425866174665,-0.11729325131513618,-0.12354732834229813,1.0546447367040734,0.32421667247686375,-0.3924996082531778,-2.153497399380332,0.8647469208009171,2.465939690947524,0.5444917395826843,1.0544104758940245,0.3238615046091247,-0.39250456234122666,-2.153291787532338,0.8647539153680389,2.46587817577521,0.5445020185570556,0.0003447845259109018,-0.0001462988345072957,3.258878409996652e-05,0.000814067653001288,-0.0004703310749354886,-0.0001760825990736722,-0.0005844907537050378,0.0,0.0,0.0,0.0,0.0,0.0,0.0,-0.0002342608100489585,-0.00035516786773903686,-4.954088048847449e-06,0.00020561184799428034,6.994567121831885e-06,-6.151517231423043e-05,1.027897437133607e-05,-0.0003447845259109018,0.0001462988345072957,-3.258878409996652e-05,-0.000814067653001288,0.0004703310749354886,0.0001760825990736722,0.0005844907537050378,0.5021602511405945,34.16213607788086,3.7990386486053467,-19.436067581176758,-0.2667136788368225,-1.783755898475647,0.10470907390117645,0
70,0.34497928619384766,-0.5021602511405945,-34.16213607788086,-3.7990386486053467,19.436067581176758,0.2667136788368225,1.783755898475647,-0.10470907390117645,0.0,0.0,0.0,0.0,0.0,0.0,0.0,-0.4863077136353951,-0.09935273869323016,-0.2407599188808481,0.43866064259119886,0.19681425866174665,-0.11729325131513618,-0.12354732834229813,1.0546447367040734,0.32421667247686375,-0.3924996082531778,-2.153497399380332,0.8647469208009171,2.465939690947524,0.5444917395826843,1.0544104758940245,0.3238615046091247,-0.39250456234122666,-2.153291787532338,0.8647539153680389,2.46587817577521,0.5445020185570556,0.0003447845259109018,-0.0001462988345072957,3.258878409996652e-05,0.000814067653001288,-0.0004703310749354886,-0.0001760825990736722,-0.0005844907537050378,0.0,0.0,0.0,0.0,0.0,0.0,0.0,-0.0002342608100489585,-0.00035516786773903686,-4.954088048847449e-06,0.00020561184799428034,6.994567121831885e-06,-6.151517231423043e-05,1.027897437133607e-05,-0.0003447845259109018,0.0001462988345072957,-3.258878409996652e-05,-0.000814067653001288,0.0004703310749354886,0.0001760825990736722,0.0005844907537050378,0.5021602511405945,34.16213607788086,3.7990386486053467,-19.436067581176758,-0.2667136788368225,-1.783755898475647,0.10470907390117645,0
71,0.3501572608947754,-0.5021602511405945,-34.16213607788086,-3.7990386486053467,19.436067581176758,0.2667136788368225,1.783755898475647,-0.10470907390117645,0.0,0.0,0.0,0.0,0.0,0.0,0.0,-0.4863077136353951,-0.09935273869323016,-0.2407599188808481,0.43866064259119886,0.19681425866174665,-0.11729325131513618,-0.12354732834229813,1.0546447367040734,0.32421667247686375,-0.3924996082531778,-2.153497399380332,0.8647469208009171,2.465939690947524,0.5444917395826843,1.0544104758940245,0.3238615046091247,-0.39250456234122666,-2.153291787532338,0.8647539153680389,2.46587817577521,0.5445020185570556,0.0003447845259109018,-0.0001462988345072957,3.258878409996652e-05,0.000814067653001288,-0.0004703310749354886,-0.0001760825990736722,-0.0005844907537050378,0.0,0.0,0.0,0.0,0.0,0.0,0.0,-0.0002342608100489585,-0.00035516786773903686,-4.954088048847449e-06,0.00020561184799428034,6.994567121831885e-06,-6.151517231423043e-05,1.027897437133607e-05,-0.0003447845259109018,0.0001462988345072957,-3.258878409996652e-05,-0.000814067653001288,0.0004703310749354886,0.0001760825990736722,0.0005844907537050378,0.5021602511405945,34.16213607788086,3.7990386486053467,-19.436067581176758,-0.2667136788368225,-1.783755898475647,0.10470907390117645,0
72,0.3549826145172119,-0.5299312472343445,-34.11452865600586,-3.7990386486053467,19.436067581176758,0.2548118233680725,1.783755898475647,-0.10470907390117645,0.0,0.0,0.0,0.0,0.0,0.0,0.0,-0.4847883634748691,-0.08332292728147535,-0.23698273302943684,0.42924310273264565,0.19787298584404933,-0.1200171159167731,-0.12414543696502979,1.0546458908217937,0.3242107413771429,-0.3924996082531778,-2.153497399380332,0.8647485969245335,2.465939690947532,0.5444885606862413,1.0544104758940245,0.3238615046091247,-0.39250456234122666,-2.153291787532338,0.8647539153680389,2.46587817577521,0.5445020185570556,0.0007986140199734488,-0.0005948263631050981,-0.0002764686076808205,0.0004887618962316367,-7.508560518453109e-05,9.903535854984963e-05,-0.0011409876175315346,0.0,0.0,0.0,0.0,0.0,0.0,0.0,-0.00023541492776923967,-0.0003492367680181796,-4.954088048847449e-06,0.00020561184799428034,5.31844350537547e-06,-6.151517232222403e-05,1.3457870814304052e-05,-0.0007986140199734488,0.0005948263631050981,0.0002764686076808205,-0.0004887618962316367,7.508560518453109e-05,-9.903535854984963e-05,0.0011409876175315346,0.5299312472343445,34.11452865600586,3.7990386486053467,-19.436067581176758,-0.2548118233680725,-1.783755898475647,0.10470907390117645,0
73,0.35999035835266113,-0.5299312472343445,-34.11452865600586,-3.7990386486053467,19.436067581176758,0.2548118233680725,1.783755898475647,-0.10470907390117645,0.0,0.0,0.0,0.0,0.0,0.0,0.0,-0.4847883634748691,-0.08332292728147535,-0.23698273302943684,0.42924310273264565,0.19787298584404933,-0.1200171159167731,-0.12414543696502979,1.0546458908217937,0.3242107413771429,-0.3924996082531778,-2.153497399380332,0.8647485969245335,2.465939690947532,0.5444885606862413,1.0544104758940245,0.3238615046091247,-0.39250456234122666,-2.153291787532338,0.8647539153680389,2.46587817577521,0.5445020185570556,0.0007986140199734488,-0.0005948263631050981,-0.0002764686076808205,0.0004887618962316367,-7.508560518453109e-05,9.903535854984963e-05,-0.0011409876175315346,0.0,0.0,0.0,0.0,0.0,0.0,0.0,-0.00023541492776923967,-0.0003492367680181796,-4.954088048847449e-06,0.00020561184799428034,5.31844350537547e-06,-6.151517232222403e-05,1.3457870814304052e-05,-0.0007986140199734488,0.0005948263631050981,0.0002764686076808205,-0.0004887618962316367,7.508560518453109e-05,-9.903535854984963e-05,0.0011409876175315346,0.5299312472343445,34.11452865600586,3.7990386486053467,-19.436067581176758,-0.2548118233680725,-1.783755898475647,0.10470907390117645,0
74,0.36498451232910156,-0.5021602511405945,-34.16213607788086,-3.8506133556365967,19.487642288208008,0.2603049874305725,1.790164589881897,-0.13858358561992645,0.0,0.0,0.0,0.0,0.0,0.0,0.0,-0.4913498026014374,-0.09716167689469392,-0.24044338269433163,0.43883403698154544,0.1981834853748825,-0.1187487992182411,-0.12427529997759988,1.0546446693320195,0.32421447861738356,-0.39249598897549137,-2.1535010186580186,0.8647476333622579,2.4659389788707093,0.5444924820247102,1.0544104758940245,0.3238615046091247,-0.39250456234122666,-2.153291787532338,0.8647539153680389,2.46587817577521,0.5445020185570556,-0.0002863461644522434,-9.577019762798714e-05,0.0010838501496964602,-0.0006490553737030052,-0.00021623296153254313,-0.0003574356289307641,0.00042423676963860766,0.0,0.0,0.0,0.0,0.0,0.0,0.0,-0.0002341934379950228,-0.00035297400825884395,-8.573365735287108e-06,0.00020923112568072,6.282005781010902e-06,-6.080309549938434e-05,9.536532345366666e-06,0.0002863461644522434,9.577019762798714e-05,-0.0010838501496964602,0.0006490553737030052,0.00021623296153254313,0.0003574356289307641,-0.00042423676963860766,0.5021602511405945,34.16213607788086,3.8506133556365967,-19.487642288208008,-0.2603049874305725,-1.790164589881897,0.13858358561992645,0
75,0.3699817657470703,-0.5021602511405945,-34.16213607788086,-3.8506133556365967,19.487642288208008,0.2603049874305725,1.790164589881897,-0.13858358561992645,0.0,0.0,0.0,0.0,0.0,0.0,0.0,-0.4913498026014374,-0.09716167689469392,-0.24044338269433163,0.43883403698154544,0.1981834853748825,-0.1187487992182411,-0.12427529997759988,1.0546446693320195,0.32421447861738356,-0.39249598897549137,-2.1535010186580186,0.8647476333622579,2.4659389788707093,0.5444924820247102,1.0544104758940245,0.3238615046091247,-0.39250456234122666,-2.153291787532338,0.8647539153680389,2.46587817577521,0.5445020185570556,-0.0002863461644522434,-9.577019762798714e-05,0.0010838501496964602,-0.0006490553737030052,-0.00021623296153254313,-0.0003574356289307641,0.00042423676963860766,0.0,0.0,0.0,0.0,0.0,0.0,0.0,-0.0002341934379950228,-0.00035297400825884395,-8.573365735287108e-06,0.00020923112568072,6.282005781010902e-06,-6.080309549938434e-05,9.536532345366666e-06,0.0002863461644522434,9.577019762798714e-05,-0.0010838501496964602,0.0006490553737030052,0.00021623296153254313,0.0003574356289307641,-0.00042423676963860766,0.5021602511405945,34.16213607788086,3.8506133556365967,-19.487642288208008,-0.2603049874305725,-1.790164589881897,0.13858358561992645,0
76,0.37499213218688965,-0.5021602511405945,-34.18990707397461,-3.7990386486053467,19.436067581176758,0.2548118233680725,1.783755898475647,-0.14590780436992645,0.0,0.0,0.0,0.0,0.0,0.0,0.0,-0.48705943949988767,-0.08968344234590249,-0.23217591416871208,0.436107802182049,0.19777798578603883,-0.12030457909460901,-0.12547959417503343,1.05464704436455,0.32421673761273595,-0.3924996082531778,-2.153497399380332,0.8647485823890338,2.465939690947532,0.5444932604041248,1.0544104758940245,0.3238615046091247,-0.39250456234122666,-2.153291787532338,0.8647539153680389,2.46587817577521,0.5445020185570556,7.043312188638601e-06,0.0005169629953730145,-0.00037008429916751505,0.000699585546610824,-0.0002954213290037129,-7.547401084965221e-05,0.0011126014888238479,0.0,0.0,0.0,0.0,0.0,0.0,0.0,-0.0002365684705254445,-0.0003552330036112328,-4.954088048847449e-06,0.00020561184799428034,5.332979005068239e-06,-6.151517232222403e-05,8.758152930776752e-06,-7.043312188638601e-06,-0.0005169629953730145,0.00037008429916751505,-0.000699585546610824,0.0002954213290037129,7.547401084965221e-05,-0.0011126014888238479,0.5021602511405945,34.18990707397461,3.7990386486053467,-19.436067581176758,-0.2548118233680725,-1.783755898475647,0.14590780436992645,0
77,0.379932165145874,-0.5021602511405945,-34.18990707397461,-3.7990386486053467,19.436067581176758,0.2548118233680725,1.783755898475647,-0.14590780436992645,0.0,0.0,0.0,0.0,0.0,0.0,0.0,-0.48705943949988767,-0.08968344234590249,-0.23217591416871208,0.436107802182049,0.19777798578603883,-0.12030457909460901,-0.12547959417503343,1.05464704436455,0.32421673761273595,-0.3924996082531778,-2.153497399380332,0.8647485823890338,2.465939690947532,0.5444932604041248,1.0544104758940245,0.3238615046091247,-0.39250456234122666,-2.153291787532338,0.8647539153680389,2.46587817577521,0.5445020185570556,7.043312188638601e-06,0.0005169629953730145,-0.00037008429916751505,0.000699585546610824,-0.0002954213290037129,-7.547401084965221e-05,0.0011126014888238479,0.0,0.0,0.0,0.0,0.0,0.0,0.0,-0.0002365684705254445,-0.0003552330036112328,-4.954088048847449e-06,0.00020561184799428034,5.332979005068239e-06,-6.151517232222403e-05,8.758152930776752e-06,-7.043312188638601e-06,-0.0005169629953730145,0.00037008429916751505,-0.000699585546610824,0.0002954213290037129,7.547401084965221e-05,-0.0011126014888238479,0.5021602511405945,34.18990707397461,3.7990386486053467,-19.436067581176758,-0.2548118233680725,-1.783755898475647,0.14590780436992645,0
78,0.38499021530151367,-0.4783565402030945,-34.11452865600586,-3.8228423595428467,19.459871292114258,0.2603049874305725,1.777347207069397,-0.14590780436992645,0.0,0.0,0.0,0.0,0.0,0.0,0.0,-0.4918201503626187,-0.08111799451160698,-0.23310880406840215,0.4298674452840577,0.19705674074369406,-0.1214956139774257,-0.12534598078116835,1.0546422755180584,0.3242133549225292,-0.3924979378173225,-2.1534990698161875,0.8647478688373157,2.465940403024355,0.5444936150701849,1.0544104758940245,0.3238615046091247,-0.39250456234122666,-2.153291787532338,0.8647539153680389,2.46587817577521,0.5445020185570556,-0.00047966506167735175,-0.0007767605393213561,0.0001274349290793562,-0.00011529445459833815,-0.00032595910460914065,0.00016816714082912168,0.0011929612760556135,0.0,0.0,0.0,0.0,0.0,0.0,0.0,-0.00023179962403396814,-0.00035185031340445594,-6.6245239041529125e-06,0.00020728228384969682,6.046530723224919e-06,-6.222724914506372e-05,8.403486870700583e-06,0.00047966506167735175,0.0007767605393213561,-0.0001274349290793562,0.00011529445459833815,0.00032595910460914065,-0.00016816714082912168,-0.0011929612760556135,0.4783565402030945,34.11452865600586,3.8228423595428467,-19.459871292114258,-0.2603049874305725,-1.777347207069397,0.14590780436992645,0
79,0.38997888565063477,-0.4783565402030945,-34.11452865600586,-3.8228423595428467,19.459871292114258,0.2603049874305725,1.777347207069397,-0.14590780436992645,0.0,0.0,0.0,0.0,0.0,0.0,0.0,-0.4918201503626187,-0.08111799451160698,-0.23310880406840215,0.4298674452840577,0.19705674074369406,-0.1214956139774257,-0.12534598078116835,1.0546422755180584,0.3242133549225292,-0.3924979378173225,-2.1534990698161875,0.8647478688373157,2.465940403024355,0.5444936150701849,1.0544104758940245,0.3238615046091247,-0.39250456234122666,-2.153291787532338,0.8647539153680389,2.46587817577521,0.5445020185570556,-0.00047966506167735175,-0.0007767605393213561,0.0001274349290793562,-0.00011529445459833815,-0.00032595910460914065,0.00016816714082912168,0.0011929612760556135,0.0,0.0,0.0,0.0,0.0,0.0,0.0,-0.00023179962403396814,-0.00035185031340445594,-6.6245239041529125e-06,0.00020728228384969682,6.046530723224919e-06,-6.222724914506372e-05,8.403486870700583e-06,0.00047966506167735175,0.0007767605393213561,-0.0001274349290793562,0.00011529445459833815,0.00032595910460914065,-0.00016816714082912168,-0.0011929612760556135,0.4783565402030945,34.11452865600586,3.8228423595428467,-19.459871292114258,-0.2603049874305725,-1.777347207069397,0.14590780436992645,0
80,0.3950083255767822,-0.5021602511405945,-34.16213607788086,-3.7990386486053467,19.459871292114258,0.2667136788368225,1.770938515663147,-0.15231649577617645,0.0,0.0,0.0,0.0,0.0,0.0,0.0,-0.49098189520060165,-0.08220926403395228,-0.232808902678113,0.43063301027507156,0.19688608798258286,-0.12236366031679126,-0.12450582377608807,1.0546440214846973,0.3242144812485276,-0.3924996082531778,-2.1534990698161875,0.8647472744974802,2.465941115101178,0.5444980933515325,1.0544104758940245,0.3238615046091247,-0.39250456234122666,-2.153291787532338,0.8647539153680389,2.46587817577521,0.5445020185570556,0.0002542668420114302,0.0002529239280229213,-0.00038222427381683565,-0.00034091381204736314,-0.0006417766289048899,0.00045098423531694944,0.0013706558088828736,0.0,0.0,0.0,0.0,0.0,0.0,0.0,-0.00023354559067279013,-0.00035297663940286883,-4.954088048847449e-06,0.00020728228384969682,6.640870558682899e-06,-6.293932596790341e-05,3.92520552305875e-06,-0.0002542668420114302,-0.0002529239280229213,0.00038222427381683565,0.00034091381204736314,0.0006417766289048899,-0.00045098423531694944,-0.0013706558088828736,0.5021602511405945,34.16213607788086,3.7990386486053467,-19.459871292114258,-0.2667136788368225,-1.770938515663147,0.15231649577617645,0
