rezayati/contactInterpretation/dataset/franka_main/labeled_data/link4/d7_4.csv
index,time,tau_J0,tau_J1,tau_J2,tau_J3,tau_J4,tau_J5,tau_J6,tau_J_d0,tau_J_d1,tau_J_d2,tau_J_d3,tau_J_d4,tau_J_d5,tau_J_d6,tau_ext0,tau_ext1,tau_ext2,tau_ext3,tau_ext4,tau_ext5,tau_ext6,q0,q1,q2,q3,q4,q5,q6,q_d0,q_d1,q_d2,q_d3,q_d4,q_d5,q_d6,dq0,dq1,dq2,dq3,dq4,dq5,dq6,dq_d0,dq_d1,dq_d2,dq_d3,dq_d4,dq_d5,dq_d6,e0,e1,e2,e3,e4,e5,e6,de0,de1,de2,de3,de4,de5,de6,etau_J0,etau_J1,etau_J2,etau_J3,etau_J4,etau_J5,etau_J6,label
1,0.0,-0.4029781222343445,-19.792627334594727,-0.3990752398967743,20.106538772583008,0.5642600655555725,2.4493441581726074,-0.17978231608867645,0.0,0.0,0.0,0.0,0.0,0.0,0.0,-0.37996420784752644,-0.08707878553217413,-0.23000043382015886,0.31245925429783533,-0.013798176662275268,0.09259540360916951,-0.20170773622636837,1.2135180234071175,-0.22001559958954714,-0.007485305480266872,-2.6040746626629634,-0.10895616453886033,2.468123560640547,0.8264665133766744,1.2134413937687574,-0.2202432315892585,-0.0075118285948192216,-2.6038483821997875,-0.10888392708698907,2.4681821257803174,0.826474908251239,0.00041926695598836687,3.2596261339639685e-05,-0.00010652068228443643,-0.0005509754707928677,0.00011937037937885639,0.00037599290603047673,-0.0006791731361958297,0.0,0.0,0.0,0.0,0.0,0.0,0.0,-7.662963836008174e-05,-0.0002276319997113474,-2.6523114552349895e-05,0.00022628046317585415,7.223745187125152e-05,5.856513977020583e-05,8.394874564610078e-06,-0.00041926695598836687,-3.2596261339639685e-05,0.00010652068228443643,0.0005509754707928677,-0.00011937037937885639,-0.00037599290603047673,0.0006791731361958297,0.4029781222343445,19.792627334594727,0.3990752398967743,-20.106538772583008,-0.5642600655555725,-2.4493441581726074,0.17978231608867645,0
2,0.005003929138183594,-0.4029781222343445,-19.868005752563477,-0.4466826617717743,20.106538772583008,0.5642600655555725,2.4566683769226074,-0.16604940593242645,0.0,0.0,0.0,0.0,0.0,0.0,0.0,-0.3843295565274525,-0.09290662188583093,-0.2333183821053571,0.31857646001952206,-0.013823718481484941,0.09251101745259051,-0.20038440090834295,1.2135158747396002,-0.2200082003748916,-0.007481964608556345,-2.604071644038837,-0.10895617768213418,2.4681227468384637,0.8264681620515301,1.2134413937687574,-0.2202432315892585,-0.0075118285948192216,-2.6038483821997875,-0.10888392708698907,2.4681821257803174,0.826474908251239,0.0008673890906908745,0.0005046655955045356,0.0002856847556592748,-0.00022600546272289832,-0.002037694687134187,0.000449418347953009,-0.0011973570616162113,0.0,0.0,0.0,0.0,0.0,0.0,0.0,-7.448097084283845e-05,-0.000235031214366882,-2.9863986262876688e-05,0.0002232618390496377,7.225059514510968e-05,5.937894185370496e-05,6.746199708973499e-06,-0.0008673890906908745,-0.0005046655955045356,-0.0002856847556592748,0.00022600546272289832,0.002037694687134187,-0.000449418347953009,0.0011973570616162113,0.4029781222343445,19.868005752563477,0.4466826617717743,-20.106538772583008,-0.5642600655555725,-2.4566683769226074,0.16604940593242645,0
3,0.010016679763793945,-0.4029781222343445,-19.868005752563477,-0.4466826617717743,20.106538772583008,0.5642600655555725,2.4566683769226074,-0.16604940593242645,0.0,0.0,0.0,0.0,0.0,0.0,0.0,-0.3843295565274525,-0.09290662188583093,-0.2333183821053571,0.31857646001952206,-0.013823718481484941,0.09251101745259051,-0.20038440090834295,1.2135158747396002,-0.2200082003748916,-0.007481964608556345,-2.604071644038837,-0.10895617768213418,2.4681227468384637,0.8264681620515301,1.2134413937687574,-0.2202432315892585,-0.0075118285948192216,-2.6038483821997875,-0.10888392708698907,2.4681821257803174,0.826474908251239,0.0008673890906908745,0.0005046655955045356,0.0002856847556592748,-0.00022600546272289832,-0.002037694687134187,0.000449418347953009,-0.0011973570616162113,0.0,0.0,0.0,0.0,0.0,0.0,0.0,-7.448097084283845e-05,-0.000235031214366882,-2.9863986262876688e-05,0.0002232618390496377,7.225059514510968e-05,5.937894185370496e-05,6.746199708973499e-06,-0.0008673890906908745,-0.0005046655955045356,-0.0002856847556592748,0.00022600546272289832,0.002037694687134187,-0.000449418347953009,0.0011973570616162113,0.4029781222343445,19.868005752563477,0.4466826617717743,-20.106538772583008,-0.5642600655555725,-2.4566683769226074,0.16604940593242645,0
4,0.014998912811279297,-0.4029781222343445,-19.868005752563477,-0.4704863727092743,20.054964065551758,0.5642600655555725,2.4566683769226074,-0.19351522624492645,0.0,0.0,0.0,0.0,0.0,0.0,0.0,-0.3844989663683857,-0.09004600475721361,-0.23477436735963306,0.31203006842020964,-0.01475917622392894,0.0920319850753813,-0.20128697840361898,1.2135161425441037,-0.22001025712732855,-0.007480294172701082,-2.604068740278445,-0.10895616453893452,2.4681227468384637,0.8264680349128751,1.2134413937687574,-0.2202432315892585,-0.0075118285948192216,-2.6038483821997875,-0.10888392708698907,2.4681821257803174,0.826474908251239,8.112124722696748e-05,-0.00020753045187017668,0.0007827301555661516,0.0005800882276888839,0.00011956838766954117,0.00041817053455130403,-0.0007829382841325073,0.0,0.0,0.0,0.0,0.0,0.0,0.0,-7.474877534630053e-05,-0.00023297446192993565,-3.153442211813965e-05,0.000220358078657501,7.223745194544218e-05,5.937894185370496e-05,6.873338363910797e-06,-8.112124722696748e-05,0.00020753045187017668,-0.0007827301555661516,-0.0005800882276888839,-0.00011956838766954117,-0.00041817053455130403,0.0007829382841325073,0.4029781222343445,19.868005752563477,0.4704863727092743,-20.054964065551758,-0.5642600655555725,-2.4566683769226074,0.19351522624492645,0
5,0.01999807357788086,-0.4029781222343445,-19.868005752563477,-0.4704863727092743,20.054964065551758,0.5642600655555725,2.4566683769226074,-0.19351522624492645,0.0,0.0,0.0,0.0,0.0,0.0,0.0,-0.3844989663683857,-0.09004600475721361,-0.23477436735963306,0.31203006842020964,-0.01475917622392894,0.0920319850753813,-0.20128697840361898,1.2135161425441037,-0.22001025712732855,-0.007480294172701082,-2.604068740278445,-0.10895616453893452,2.4681227468384637,0.8264680349128751,1.2134413937687574,-0.2202432315892585,-0.0075118285948192216,-2.6038483821997875,-0.10888392708698907,2.4681821257803174,0.826474908251239,8.112124722696748e-05,-0.00020753045187017668,0.0007827301555661516,0.0005800882276888839,0.00011956838766954117,0.00041817053455130403,-0.0007829382841325073,0.0,0.0,0.0,0.0,0.0,0.0,0.0,-7.474877534630053e-05,-0.00023297446192993565,-3.153442211813965e-05,0.000220358078657501,7.223745194544218e-05,5.937894185370496e-05,6.873338363910797e-06,-8.112124722696748e-05,0.00020753045187017668,-0.0007827301555661516,-0.0005800882276888839,-0.00011956838766954117,-0.00041817053455130403,0.0007829382841325073,0.4029781222343445,19.868005752563477,0.4704863727092743,-20.054964065551758,-0.5642600655555725,-2.4566683769226074,0.19351522624492645,0
6,0.02498912811279297,-0.3752071261405945,-19.816431045532227,-0.4466826617717743,20.106538772583008,0.5697532296180725,2.4630770683288574,-0.16604940593242645,0.0,0.0,0.0,0.0,0.0,0.0,0.0,-0.37515863267451854,-0.09417391578888584,-0.22862368711021167,0.3114619129680587,-0.01571318519934082,0.09266950683173898,-0.20279087505979487,1.21351467032291,-0.22001395519602052,-0.007481964608556345,-2.604071746135049,-0.10895677489042283,2.468122034761641,0.8264649831371176,1.2134413937687574,-0.2202432315892585,-0.0075118285948192216,-2.6038483821997875,-0.10888392708698907,2.4681821257803174,0.826474908251239,0.0005535708854335528,-0.0009564969060660584,0.0002759619517447469,-0.00040012366586628665,1.1546382472597712e-05,0.00010439714266153621,-0.0010871876107788026,0.0,0.0,0.0,0.0,0.0,0.0,0.0,-7.32765541526792e-05,-0.00022927639323797044,-2.9863986262876688e-05,0.00022336393526156684,7.284780343375097e-05,6.009101867654465e-05,9.925114121456247e-06,-0.0005535708854335528,0.0009564969060660584,-0.0002759619517447469,0.00040012366586628665,-1.1546382472597712e-05,-0.00010439714266153621,0.0010871876107788026,0.3752071261405945,19.816431045532227,0.4466826617717743,-20.106538772583008,-0.5697532296180725,-2.4630770683288574,0.16604940593242645,0
7,0.02999567985534668,-0.3752071261405945,-19.816431045532227,-0.4466826617717743,20.106538772583008,0.5697532296180725,2.4630770683288574,-0.16604940593242645,0.0,0.0,0.0,0.0,0.0,0.0,0.0,-0.37515863267451854,-0.09417391578888584,-0.22862368711021167,0.3114619129680587,-0.01571318519934082,0.09266950683173898,-0.20279087505979487,1.21351467032291,-0.22001395519602052,-0.007481964608556345,-2.604071746135049,-0.10895677489042283,2.468122034761641,0.8264649831371176,1.2134413937687574,-0.2202432315892585,-0.0075118285948192216,-2.6038483821997875,-0.10888392708698907,2.4681821257803174,0.826474908251239,0.0005535708854335528,-0.0009564969060660584,0.0002759619517447469,-0.00040012366586628665,1.1546382472597712e-05,0.00010439714266153621,-0.0010871876107788026,0.0,0.0,0.0,0.0,0.0,0.0,0.0,-7.32765541526792e-05,-0.00022927639323797044,-2.9863986262876688e-05,0.00022336393526156684,7.284780343375097e-05,6.009101867654465e-05,9.925114121456247e-06,-0.0005535708854335528,0.0009564969060660584,-0.0002759619517447469,0.00040012366586628665,-1.1546382472597712e-05,-0.00010439714266153621,0.0010871876107788026,0.3752071261405945,19.816431045532227,0.4466826617717743,-20.106538772583008,-0.5697532296180725,-2.4630770683288574,0.16604940593242645,0
8,0.03501152992248535,-0.3752071261405945,-19.816431045532227,-0.4466826617717743,20.106538772583008,0.5697532296180725,2.4630770683288574,-0.16604940593242645,0.0,0.0,0.0,0.0,0.0,0.0,0.0,-0.37515863267451854,-0.09417391578888584,-0.22862368711021167,0.3114619129680587,-0.01571318519934082,0.09266950683173898,-0.20279087505979487,1.21351467032291,-0.22001395519602052,-0.007481964608556345,-2.604071746135049,-0.10895677489042283,2.468122034761641,0.8264649831371176,1.2134413937687574,-0.2202432315892585,-0.0075118285948192216,-2.6038483821997875,-0.10888392708698907,2.4681821257803174,0.826474908251239,0.0005535708854335528,-0.0009564969060660584,0.0002759619517447469,-0.00040012366586628665,1.1546382472597712e-05,0.00010439714266153621,-0.0010871876107788026,0.0,0.0,0.0,0.0,0.0,0.0,0.0,-7.32765541526792e-05,-0.00022927639323797044,-2.9863986262876688e-05,0.00022336393526156684,7.284780343375097e-05,6.009101867654465e-05,9.925114121456247e-06,-0.0005535708854335528,0.0009564969060660584,-0.0002759619517447469,0.00040012366586628665,-1.1546382472597712e-05,-0.00010439714266153621,0.0010871876107788026,0.3752071261405945,19.816431045532227,0.4466826617717743,-20.106538772583008,-0.5697532296180725,-2.4630770683288574,0.16604940593242645,0
9,0.04000234603881836,-0.3752071261405945,-19.816431045532227,-0.4466826617717743,20.106538772583008,0.5697532296180725,2.4630770683288574,-0.16604940593242645,0.0,0.0,0.0,0.0,0.0,0.0,0.0,-0.37515863267451854,-0.09417391578888584,-0.22862368711021167,0.3114619129680587,-0.01571318519934082,0.09266950683173898,-0.20279087505979487,1.21351467032291,-0.22001395519602052,-0.007481964608556345,-2.604071746135049,-0.10895677489042283,2.468122034761641,0.8264649831371176,1.2134413937687574,-0.2202432315892585,-0.0075118285948192216,-2.6038483821997875,-0.10888392708698907,2.4681821257803174,0.826474908251239,0.0005535708854335528,-0.0009564969060660584,0.0002759619517447469,-0.00040012366586628665,1.1546382472597712e-05,0.00010439714266153621,-0.0010871876107788026,0.0,0.0,0.0,0.0,0.0,0.0,0.0,-7.32765541526792e-05,-0.00022927639323797044,-2.9863986262876688e-05,0.00022336393526156684,7.284780343375097e-05,6.009101867654465e-05,9.925114121456247e-06,-0.0005535708854335528,0.0009564969060660584,-0.0002759619517447469,0.00040012366586628665,-1.1546382472597712e-05,-0.00010439714266153621,0.0010871876107788026,0.3752071261405945,19.816431045532227,0.4466826617717743,-20.106538772583008,-0.5697532296180725,-2.4630770683288574,0.16604940593242645,0
10,0.0449981689453125,-0.3752071261405945,-19.816431045532227,-0.4466826617717743,20.106538772583008,0.5697532296180725,2.4630770683288574,-0.16604940593242645,0.0,0.0,0.0,0.0,0.0,0.0,0.0,-0.37515863267451854,-0.09417391578888584,-0.22862368711021167,0.3114619129680587,-0.01571318519934082,0.09266950683173898,-0.20279087505979487,1.21351467032291,-0.22001395519602052,-0.007481964608556345,-2.604071746135049,-0.10895677489042283,2.468122034761641,0.8264649831371176,1.2134413937687574,-0.2202432315892585,-0.0075118285948192216,-2.6038483821997875,-0.10888392708698907,2.4681821257803174,0.826474908251239,0.0005535708854335528,-0.0009564969060660584,0.0002759619517447469,-0.00040012366586628665,1.1546382472597712e-05,0.00010439714266153621,-0.0010871876107788026,0.0,0.0,0.0,0.0,0.0,0.0,0.0,-7.32765541526792e-05,-0.00022927639323797044,-2.9863986262876688e-05,0.00022336393526156684,7.284780343375097e-05,6.009101867654465e-05,9.925114121456247e-06,-0.0005535708854335528,0.0009564969060660584,-0.0002759619517447469,0.00040012366586628665,-1.1546382472597712e-05,-0.00010439714266153621,0.0010871876107788026,0.3752071261405945,19.816431045532227,0.4466826617717743,-20.106538772583008,-0.5697532296180725,-2.4630770683288574,0.16604940593242645,0
11,0.0500035285949707,-0.4267818331718445,-19.816431045532227,-0.4228789508342743,20.054964065551758,0.5642600655555725,2.4694857597351074,-0.19351522624492645,0.0,0.0,0.0,0.0,0.0,0.0,0.0,-0.41809950280604974,-0.08821022658097705,-0.2781912343754583,0.3068720916719163,-0.013695807678213497,0.09112302124499025,-0.20189280055128284,1.213517799902209,-0.22001395552199998,-0.007483626276693049,-2.6040687881142834,-0.10895616459294787,2.468121322684818,0.8264683881076398,1.2134413937687574,-0.2202432315892585,-0.0075118285948192216,-2.6038483821997875,-0.10888392708698907,2.4681821257803174,0.826474908251239,0.001253470714299111,0.00021560892712403117,0.001427933920416219,0.0005693779545793079,0.00018037282284317103,-0.00039468530944642734,-0.0007635639285469835,0.0,0.0,0.0,0.0,0.0,0.0,0.0,-7.640613345172298e-05,-0.0002292760672585048,-2.8202318126172715e-05,0.00022040591449590252,7.223750595879153e-05,6.080309549938434e-05,6.5201435992534584e-06,-0.001253470714299111,-0.00021560892712403117,-0.001427933920416219,-0.0005693779545793079,-0.00018037282284317103,0.00039468530944642734,0.0007635639285469835,0.4267818331718445,19.816431045532227,0.4228789508342743,-20.054964065551758,-0.5642600655555725,-2.4694857597351074,0.19351522624492645,0
12,0.055007219314575195,-0.4267818331718445,-19.816431045532227,-0.4228789508342743,20.054964065551758,0.5642600655555725,2.4694857597351074,-0.19351522624492645,0.0,0.0,0.0,0.0,0.0,0.0,0.0,-0.41809950280604974,-0.08821022658097705,-0.2781912343754583,0.3068720916719163,-0.013695807678213497,0.09112302124499025,-0.20189280055128284,1.213517799902209,-0.22001395552199998,-0.007483626276693049,-2.6040687881142834,-0.10895616459294787,2.468121322684818,0.8264683881076398,1.2134413937687574,-0.2202432315892585,-0.0075118285948192216,-2.6038483821997875,-0.10888392708698907,2.4681821257803174,0.826474908251239,0.001253470714299111,0.00021560892712403117,0.001427933920416219,0.0005693779545793079,0.00018037282284317103,-0.00039468530944642734,-0.0007635639285469835,0.0,0.0,0.0,0.0,0.0,0.0,0.0,-7.640613345172298e-05,-0.0002292760672585048,-2.8202318126172715e-05,0.00022040591449590252,7.223750595879153e-05,6.080309549938434e-05,6.5201435992534584e-06,-0.001253470714299111,-0.00021560892712403117,-0.001427933920416219,-0.0005693779545793079,-0.00018037282284317103,0.00039468530944642734,0.0007635639285469835,0.4267818331718445,19.816431045532227,0.4228789508342743,-20.054964065551758,-0.5642600655555725,-2.4694857597351074,0.19351522624492645,0
13,0.06000328063964844,-0.3752071261405945,-19.816431045532227,-0.4466826617717743,20.054964065551758,0.5697532296180725,2.4566683769226074,-0.17337362468242645,0.0,0.0,0.0,0.0,0.0,0.0,0.0,-0.386647662909678,-0.09526285250944497,-0.24165322819001536,0.3131652091432843,-0.01535293031246393,0.09205556750332208,-0.2026009426608728,1.2135148206601587,-0.22001395552200181,-0.007481964608407863,-2.6040688165758756,-0.10895677537721166,2.4681227468384637,0.8264657969451825,1.2134413937687574,-0.2202432315892585,-0.0075118285948192216,-2.6038483821997875,-0.10888392708698907,2.4681821257803174,0.826474908251239,0.00022608724648870584,-0.00011002513591366123,0.0007800992880363602,0.00048537388447993817,-0.0003115585476649592,0.00020238582019191308,-0.0012486565736069273,0.0,0.0,0.0,0.0,0.0,0.0,0.0,-7.342689140132919e-05,-0.00022927606725667293,-2.986398641135861e-05,0.00022043437608809668,7.284829022258243e-05,5.937894185370496e-05,9.111306056519552e-06,-0.00022608724648870584,0.00011002513591366123,-0.0007800992880363602,-0.00048537388447993817,0.0003115585476649592,-0.00020238582019191308,0.0012486565736069273,0.3752071261405945,19.816431045532227,0.4466826617717743,-20.054964065551758,-0.5697532296180725,-2.4566683769226074,0.17337362468242645,0
14,0.06499934196472168,-0.3752071261405945,-19.816431045532227,-0.4466826617717743,20.054964065551758,0.5697532296180725,2.4566683769226074,-0.17337362468242645,0.0,0.0,0.0,0.0,0.0,0.0,0.0,-0.386647662909678,-0.09526285250944497,-0.24165322819001536,0.3131652091432843,-0.01535293031246393,0.09205556750332208,-0.2026009426608728,1.2135148206601587,-0.22001395552200181,-0.007481964608407863,-2.6040688165758756,-0.10895677537721166,2.4681227468384637,0.8264657969451825,1.2134413937687574,-0.2202432315892585,-0.0075118285948192216,-2.6038483821997875,-0.10888392708698907,2.4681821257803174,0.826474908251239,0.00022608724648870584,-0.00011002513591366123,0.0007800992880363602,0.00048537388447993817,-0.0003115585476649592,0.00020238582019191308,-0.0012486565736069273,0.0,0.0,0.0,0.0,0.0,0.0,0.0,-7.342689140132919e-05,-0.00022927606725667293,-2.986398641135861e-05,0.00022043437608809668,7.284829022258243e-05,5.937894185370496e-05,9.111306056519552e-06,-0.00022608724648870584,0.00011002513591366123,-0.0007800992880363602,-0.00048537388447993817,0.0003115585476649592,-0.00020238582019191308,0.0012486565736069273,0.3752071261405945,19.816431045532227,0.4466826617717743,-20.054964065551758,-0.5697532296180725,-2.4566683769226074,0.17337362468242645,0
15,0.06999850273132324,-0.4267818331718445,-19.868005752563477,-0.4228789508342743,20.082735061645508,0.5816550850868225,2.4758944511413574,-0.22830526530742645,0.0,0.0,0.0,0.0,0.0,0.0,0.0,-0.3782574075762308,-0.09314915229856215,-0.2332319893312143,0.3133877457750298,-0.015987594994306752,0.09187395128044513,-0.2015697205834916,1.2135174821197332,-0.2200103362443154,-0.007483635044411608,-2.604072293054236,-0.10895809731880854,2.4681206120615453,0.8264719004548258,1.2134413937687574,-0.2202432315892585,-0.0075118285948192216,-2.6038483821997875,-0.10888392708698907,2.4681821257803174,0.826474908251239,0.0007786486225913253,0.0009288126305789385,-0.000686283988895246,-9.617275298940497e-05,-0.0002918576220940093,-0.0004813332617048691,0.001304164736954443,0.0,0.0,0.0,0.0,0.0,0.0,0.0,-7.608835097583366e-05,-0.00023289534494308484,-2.8193550407613725e-05,0.00022391085444839476,7.41702318194648e-05,6.151371877205492e-05,3.0077964132679824e-06,-0.0007786486225913253,-0.0009288126305789385,0.000686283988895246,9.617275298940497e-05,0.0002918576220940093,0.0004813332617048691,-0.001304164736954443,0.4267818331718445,19.868005752563477,0.4228789508342743,-20.082735061645508,-0.5816550850868225,-2.4758944511413574,0.22830526530742645,0
16,0.07500481605529785,-0.4267818331718445,-19.868005752563477,-0.4228789508342743,20.082735061645508,0.5816550850868225,2.4758944511413574,-0.22830526530742645,0.0,0.0,0.0,0.0,0.0,0.0,0.0,-0.3782574075762308,-0.09314915229856215,-0.2332319893312143,0.3133877457750298,-0.015987594994306752,0.09187395128044513,-0.2015697205834916,1.2135174821197332,-0.2200103362443154,-0.007483635044411608,-2.604072293054236,-0.10895809731880854,2.4681206120615453,0.8264719004548258,1.2134413937687574,-0.2202432315892585,-0.0075118285948192216,-2.6038483821997875,-0.10888392708698907,2.4681821257803174,0.826474908251239,0.0007786486225913253,0.0009288126305789385,-0.000686283988895246,-9.617275298940497e-05,-0.0002918576220940093,-0.0004813332617048691,0.001304164736954443,0.0,0.0,0.0,0.0,0.0,0.0,0.0,-7.608835097583366e-05,-0.00023289534494308484,-2.8193550407613725e-05,0.00022391085444839476,7.41702318194648e-05,6.151371877205492e-05,3.0077964132679824e-06,-0.0007786486225913253,-0.0009288126305789385,0.000686283988895246,9.617275298940497e-05,0.0002918576220940093,0.0004813332617048691,-0.001304164736954443,0.4267818331718445,19.868005752563477,0.4228789508342743,-20.082735061645508,-0.5816550850868225,-2.4758944511413574,0.22830526530742645,0
17,0.07994723320007324,-0.4029781222343445,-19.868005752563477,-0.4982573688030243,20.082735061645508,0.5578513741493225,2.4630770683288574,-0.20724813640117645,0.0,0.0,0.0,0.0,0.0,0.0,0.0,-0.37363705279184256,-0.08240329541803924,-0.22738439491509882,0.30876808208246087,-0.016100559557079074,0.09239436941082682,-0.20144476511428297,1.2135165370736232,-0.2200103362443154,-0.00747826642140291,-2.6040702355907,-0.10895543931876353,2.468122034761649,0.8264695607738363,1.2134413937687574,-0.2202432315892585,-0.0075118285948192216,-2.6038483821997875,-0.10888392708698907,2.4681821257803174,0.826474908251239,2.095249380253226e-05,0.0015711061784798447,0.0015702782483168673,0.0002083585964802875,0.002593125311873145,0.0003275915970362732,0.00030062164205158355,0.0,0.0,0.0,0.0,0.0,0.0,0.0,-7.514330486579901e-05,-0.00023289534494308484,-3.3562173416311694e-05,0.00022185339091240763,7.151223177445654e-05,6.0091018668551044e-05,5.34747740277286e-06,-2.095249380253226e-05,-0.0015711061784798447,-0.0015702782483168673,-0.0002083585964802875,-0.002593125311873145,-0.0003275915970362732,-0.00030062164205158355,0.4029781222343445,19.868005752563477,0.4982573688030243,-20.082735061645508,-0.5578513741493225,-2.4630770683288574,0.20724813640117645,0
18,0.08499670028686523,-0.4029781222343445,-19.868005752563477,-0.4982573688030243,20.082735061645508,0.5578513741493225,2.4630770683288574,-0.20724813640117645,0.0,0.0,0.0,0.0,0.0,0.0,0.0,-0.37363705279184256,-0.08240329541803924,-0.22738439491509882,0.30876808208246087,-0.016100559557079074,0.09239436941082682,-0.20144476511428297,1.2135165370736232,-0.2200103362443154,-0.00747826642140291,-2.6040702355907,-0.10895543931876353,2.468122034761649,0.8264695607738363,1.2134413937687574,-0.2202432315892585,-0.0075118285948192216,-2.6038483821997875,-0.10888392708698907,2.4681821257803174,0.826474908251239,2.095249380253226e-05,0.0015711061784798447,0.0015702782483168673,0.0002083585964802875,0.002593125311873145,0.0003275915970362732,0.00030062164205158355,0.0,0.0,0.0,0.0,0.0,0.0,0.0,-7.514330486579901e-05,-0.00023289534494308484,-3.3562173416311694e-05,0.00022185339091240763,7.151223177445654e-05,6.0091018668551044e-05,5.34747740277286e-06,-2.095249380253226e-05,-0.0015711061784798447,-0.0015702782483168673,-0.0002083585964802875,-0.002593125311873145,-0.0003275915970362732,-0.00030062164205158355,0.4029781222343445,19.868005752563477,0.4982573688030243,-20.082735061645508,-0.5578513741493225,-2.4630770683288574,0.20724813640117645,0
19,0.09000897407531738,-0.3752071261405945,-19.816431045532227,-0.4466826617717743,20.054964065551758,0.5816550850868225,2.4566683769226074,-0.23471395671367645,0.0,0.0,0.0,0.0,0.0,0.0,0.0,-0.37915925989761645,-0.09438983445080293,-0.2297557513991483,0.3175711736202218,-0.015356141514122632,0.09445120238338042,-0.20130461032795788,1.2135163131276252,-0.22001324357763366,-0.007481964608110899,-2.6040701222185945,-0.10895809731873403,2.4681227468384637,0.8264726125316487,1.2134413937687574,-0.2202432315892585,-0.0075118285948192216,-2.6038483821997875,-0.10888392708698907,2.4681821257803174,0.826474908251239,-0.0009363068142249183,-0.0010087781705692734,0.0005091871963960187,0.0011297387511845249,-0.00036964573475082365,8.207256624618888e-05,0.001508609329938288,0.0,0.0,0.0,0.0,0.0,0.0,0.0,-7.491935886783097e-05,-0.00022998801162482652,-2.986398670832245e-05,0.0002217400188069263,7.417023174495496e-05,5.937894185370496e-05,2.295719590317269e-06,0.0009363068142249183,0.0010087781705692734,-0.0005091871963960187,-0.0011297387511845249,0.00036964573475082365,-8.207256624618888e-05,-0.001508609329938288,0.3752071261405945,19.816431045532227,0.4466826617717743,-20.054964065551758,-0.5816550850868225,-2.4566683769226074,0.23471395671367645,0
20,0.09501075744628906,-0.3752071261405945,-19.816431045532227,-0.4466826617717743,20.054964065551758,0.5816550850868225,2.4566683769226074,-0.23471395671367645,0.0,0.0,0.0,0.0,0.0,0.0,0.0,-0.37915925989761645,-0.09438983445080293,-0.2297557513991483,0.3175711736202218,-0.015356141514122632,0.09445120238338042,-0.20130461032795788,1.2135163131276252,-0.22001324357763366,-0.007481964608110899,-2.6040701222185945,-0.10895809731873403,2.4681227468384637,0.8264726125316487,1.2134413937687574,-0.2202432315892585,-0.0075118285948192216,-2.6038483821997875,-0.10888392708698907,2.4681821257803174,0.826474908251239,-0.0009363068142249183,-0.0010087781705692734,0.0005091871963960187,0.0011297387511845249,-0.00036964573475082365,8.207256624618888e-05,0.001508609329938288,0.0,0.0,0.0,0.0,0.0,0.0,0.0,-7.491935886783097e-05,-0.00022998801162482652,-2.986398670832245e-05,0.0002217400188069263,7.417023174495496e-05,5.937894185370496e-05,2.295719590317269e-06,0.0009363068142249183,0.0010087781705692734,-0.0005091871963960187,-0.0011297387511845249,0.00036964573475082365,-8.207256624618888e-05,-0.001508609329938288,0.3752071261405945,19.816431045532227,0.4466826617717743,-20.054964065551758,-0.5816550850868225,-2.4566683769226074,0.23471395671367645,0
21,0.1000068187713623,-0.3514034152030945,-19.768823623657227,-0.4704863727092743,20.082735061645508,0.5642600655555725,2.4566683769226074,-0.22098104655742645,0.0,0.0,0.0,0.0,0.0,0.0,0.0,-0.38596469248569887,-0.08619414972187567,-0.23230895940285143,0.3098143398747341,-0.01470995772327948,0.09206582469325725,-0.20301509160808892,1.2135143483212434,-0.2200172963896934,-0.00748029417270108,-2.604070200456599,-0.10895616453886031,2.4681227468384637,0.8264710866527425,1.2134413937687574,-0.2202432315892585,-0.0075118285948192216,-2.6038483821997875,-0.10888392708698907,2.4681821257803174,0.826474908251239,-0.0010101406636687336,-0.0016518228670331996,0.0010776524301701032,-0.0005375981668300851,0.00029115028310808385,0.0002122601631389662,0.0009454834380289574,0.0,0.0,0.0,0.0,0.0,0.0,0.0,-7.295455248601534e-05,-0.0002259351995650971,-3.1534422118141385e-05,0.00022181825681144574,7.223745187123765e-05,5.937894185370496e-05,3.8215984965450644e-06,0.0010101406636687336,0.0016518228670331996,-0.0010776524301701032,0.0005375981668300851,-0.00029115028310808385,-0.0002122601631389662,-0.0009454834380289574,0.3514034152030945,19.768823623657227,0.4704863727092743,-20.082735061645508,-0.5642600655555725,-2.4566683769226074,0.22098104655742645,0
22,0.10500645637512207,-0.3514034152030945,-19.768823623657227,-0.4704863727092743,20.082735061645508,0.5642600655555725,2.4566683769226074,-0.22098104655742645,0.0,0.0,0.0,0.0,0.0,0.0,0.0,-0.38596469248569887,-0.08619414972187567,-0.23230895940285143,0.3098143398747341,-0.01470995772327948,0.09206582469325725,-0.20301509160808892,1.2135143483212434,-0.2200172963896934,-0.00748029417270108,-2.604070200456599,-0.10895616453886031,2.4681227468384637,0.8264710866527425,1.2134413937687574,-0.2202432315892585,-0.0075118285948192216,-2.6038483821997875,-0.10888392708698907,2.4681821257803174,0.826474908251239,-0.0010101406636687336,-0.0016518228670331996,0.0010776524301701032,-0.0005375981668300851,0.00029115028310808385,0.0002122601631389662,0.0009454834380289574,0.0,0.0,0.0,0.0,0.0,0.0,0.0,-7.295455248601534e-05,-0.0002259351995650971,-3.1534422118141385e-05,0.00022181825681144574,7.223745187123765e-05,5.937894185370496e-05,3.8215984965450644e-06,0.0010101406636687336,0.0016518228670331996,-0.0010776524301701032,0.0005375981668300851,-0.00029115028310808385,-0.0002122601631389662,-0.0009454834380289574,0.3514034152030945,19.768823623657227,0.4704863727092743,-20.082735061645508,-0.5642600655555725,-2.4566683769226074,0.22098104655742645,0
23,0.11001729965209961,-0.3752071261405945,-19.844202041625977,-0.3990752398967743,20.082735061645508,0.5697532296180725,2.4630770683288574,-0.24112264811992645,0.0,0.0,0.0,0.0,0.0,0.0,0.0,-0.38411320159023943,-0.08867444873244432,-0.23250811156080653,0.31156773896132034,-0.014252172282573796,0.09191132356042467,-0.20300194336505642,1.2135141634075644,-0.22001200668017065,-0.007485279177111195,-2.6040700768512,-0.10895677489042281,2.468122034761641,0.8264733246084717,1.2134413937687574,-0.2202432315892585,-0.0075118285948192216,-2.6038483821997875,-0.10888392708698907,2.4681821257803174,0.826474908251239,-0.00014721546424618302,0.0004340690944956743,-0.0006746050698561495,-0.00015796669017492822,0.00014610532435824195,-8.582658679394644e-05,0.0015306457447274839,0.0,0.0,0.0,0.0,0.0,0.0,0.0,-7.276963880697984e-05,-0.00023122490908783488,-2.6549417708026865e-05,0.00022169465141264055,7.284780343373709e-05,6.009101867654465e-05,1.5836427673665554e-06,0.00014721546424618302,-0.0004340690944956743,0.0006746050698561495,0.00015796669017492822,-0.00014610532435824195,8.582658679394644e-05,-0.0015306457447274839,0.3752071261405945,19.844202041625977,0.3990752398967743,-20.082735061645508,-0.5697532296180725,-2.4630770683288574,0.24112264811992645,0
24,0.1150367259979248,-0.3752071261405945,-19.844202041625977,-0.3990752398967743,20.082735061645508,0.5697532296180725,2.4630770683288574,-0.24112264811992645,0.0,0.0,0.0,0.0,0.0,0.0,0.0,-0.38411320159023943,-0.08867444873244432,-0.23250811156080653,0.31156773896132034,-0.014252172282573796,0.09191132356042467,-0.20300194336505642,1.2135141634075644,-0.22001200668017065,-0.007485279177111195,-2.6040700768512,-0.10895677489042281,2.468122034761641,0.8264733246084717,1.2134413937687574,-0.2202432315892585,-0.0075118285948192216,-2.6038483821997875,-0.10888392708698907,2.4681821257803174,0.826474908251239,-0.00014721546424618302,0.0004340690944956743,-0.0006746050698561495,-0.00015796669017492822,0.00014610532435824195,-8.582658679394644e-05,0.0015306457447274839,0.0,0.0,0.0,0.0,0.0,0.0,0.0,-7.276963880697984e-05,-0.00023122490908783488,-2.6549417708026865e-05,0.00022169465141264055,7.284780343373709e-05,6.009101867654465e-05,1.5836427673665554e-06,0.00014721546424618302,-0.0004340690944956743,0.0006746050698561495,0.00015796669017492822,-0.00014610532435824195,8.582658679394644e-05,-0.0015306457447274839,0.3752071261405945,19.844202041625977,0.3990752398967743,-20.082735061645508,-0.5697532296180725,-2.4630770683288574,0.24112264811992645,0
25,0.11996316909790039,-0.4029781222343445,-19.816431045532227,-0.4228789508342743,20.082735061645508,0.5761619210243225,2.4758944511413574,-0.23471395671367645,0.0,0.0,0.0,0.0,0.0,0.0,0.0,-0.3843017470704165,-0.09472481920150334,-0.23579929395333774,0.31426912910500476,-0.013820180765266036,0.09186385509868636,-0.2031420828003597,1.2135182491758159,-0.22001395552200181,-0.007483635044263126,-2.604069980305157,-0.10895748696724572,2.468120610607995,0.8264726125316487,1.2134413937687574,-0.2202432315892585,-0.0075118285948192216,-2.6038483821997875,-0.10888392708698907,2.4681821257803174,0.826474908251239,0.000872073843573677,-0.0008468052761928938,-0.0003785450370070319,0.0001558847956657356,-8.212217833782446e-05,-0.00033375059359990014,0.0013288736607141233,0.0,0.0,0.0,0.0,0.0,0.0,0.0,-7.685540705848481e-05,-0.00022927606725667293,-2.8193550556095646e-05,0.00022159810536948044,7.355988025664617e-05,6.151517232222403e-05,2.295719590317269e-06,-0.000872073843573677,0.0008468052761928938,0.0003785450370070319,-0.0001558847956657356,8.212217833782446e-05,0.00033375059359990014,-0.0013288736607141233,0.4029781222343445,19.816431045532227,0.4228789508342743,-20.082735061645508,-0.5761619210243225,-2.4758944511413574,0.23471395671367645,0
26,0.12502455711364746,-0.4029781222343445,-19.816431045532227,-0.4228789508342743,20.082735061645508,0.5761619210243225,2.4758944511413574,-0.23471395671367645,0.0,0.0,0.0,0.0,0.0,0.0,0.0,-0.3843017470704165,-0.09472481920150334,-0.23579929395333774,0.31426912910500476,-0.013820180765266036,0.09186385509868636,-0.2031420828003597,1.2135182491758159,-0.22001395552200181,-0.007483635044263126,-2.604069980305157,-0.10895748696724572,2.468120610607995,0.8264726125316487,1.2134413937687574,-0.2202432315892585,-0.0075118285948192216,-2.6038483821997875,-0.10888392708698907,2.4681821257803174,0.826474908251239,0.000872073843573677,-0.0008468052761928938,-0.0003785450370070319,0.0001558847956657356,-8.212217833782446e-05,-0.00033375059359990014,0.0013288736607141233,0.0,0.0,0.0,0.0,0.0,0.0,0.0,-7.685540705848481e-05,-0.00022927606725667293,-2.8193550556095646e-05,0.00022159810536948044,7.355988025664617e-05,6.151517232222403e-05,2.295719590317269e-06,-0.000872073843573677,0.0008468052761928938,0.0003785450370070319,-0.0001558847956657356,8.212217833782446e-05,0.00033375059359990014,-0.0013288736607141233,0.4029781222343445,19.816431045532227,0.4228789508342743,-20.082735061645508,-0.5761619210243225,-2.4758944511413574,0.23471395671367645,0
27,0.13003134727478027,-0.3752071261405945,-19.792627334594727,-0.4228789508342743,20.106538772583008,0.5642600655555725,2.4630770683288574,-0.20724813640117645,0.0,0.0,0.0,0.0,0.0,0.0,0.0,-0.38380205784003574,-0.08855195888387767,-0.23884667944411217,0.3155376371465609,-0.012007366799623475,0.09174047285950311,-0.20413212245407203,1.2135167003630756,-0.22001562595785706,-0.007483635044411608,-2.604074705618568,-0.10895612510903872,2.468122034761641,0.8264695607738363,1.2134413937687574,-0.2202432315892585,-0.0075118285948192216,-2.6038483821997875,-0.10888392708698907,2.4681821257803174,0.826474908251239,-0.00017551406277061687,-0.0007854532754260811,-8.890383264149771e-05,5.869132176286395e-05,-0.0007266419002327429,6.312569200376376e-05,-0.0008255249436328646,0.0,0.0,0.0,0.0,0.0,0.0,0.0,-7.530659431820297e-05,-0.00022760563140142298,-2.8193550407613725e-05,0.00022632341878026097,7.219802204964931e-05,6.009101867654465e-05,5.34747740277286e-06,0.00017551406277061687,0.0007854532754260811,8.890383264149771e-05,-5.869132176286395e-05,0.0007266419002327429,-6.312569200376376e-05,0.0008255249436328646,0.3752071261405945,19.792627334594727,0.4228789508342743,-20.106538772583008,-0.5642600655555725,-2.4630770683288574,0.20724813640117645,0
28,0.13500046730041504,-0.3752071261405945,-19.792627334594727,-0.4228789508342743,20.106538772583008,0.5642600655555725,2.4630770683288574,-0.20724813640117645,0.0,0.0,0.0,0.0,0.0,0.0,0.0,-0.38380205784003574,-0.08855195888387767,-0.23884667944411217,0.3155376371465609,-0.012007366799623475,0.09174047285950311,-0.20413212245407203,1.2135167003630756,-0.22001562595785706,-0.007483635044411608,-2.604074705618568,-0.10895612510903872,2.468122034761641,0.8264695607738363,1.2134413937687574,-0.2202432315892585,-0.0075118285948192216,-2.6038483821997875,-0.10888392708698907,2.4681821257803174,0.826474908251239,-0.00017551406277061687,-0.0007854532754260811,-8.890383264149771e-05,5.869132176286395e-05,-0.0007266419002327429,6.312569200376376e-05,-0.0008255249436328646,0.0,0.0,0.0,0.0,0.0,0.0,0.0,-7.530659431820297e-05,-0.00022760563140142298,-2.8193550407613725e-05,0.00022632341878026097,7.219802204964931e-05,6.009101867654465e-05,5.34747740277286e-06,0.00017551406277061687,0.0007854532754260811,8.890383264149771e-05,-5.869132176286395e-05,0.0007266419002327429,-6.312569200376376e-05,0.0008255249436328646,0.3752071261405945,19.792627334594727,0.4228789508342743,-20.106538772583008,-0.5642600655555725,-2.4630770683288574,0.20724813640117645,0
29,0.1399998664855957,-0.4029781222343445,-19.816431045532227,-0.4466826617717743,20.082735061645508,0.5578513741493225,2.4630770683288574,-0.21457235515117645,0.0,0.0,0.0,0.0,0.0,0.0,0.0,-0.3847161813545946,-0.089991081348956,-0.23805486734986564,0.31325970904667766,-0.01405626553931605,0.09209614737339694,-0.20504931254387904,1.2135189651363107,-0.22001395454539774,-0.007479834052946483,-2.6040709260393315,-0.10895545246181482,2.468122034761641,0.8264703745759195,1.2134413937687574,-0.2202432315892585,-0.0075118285948192216,-2.6038483821997875,-0.10888392708698907,2.4681821257803174,0.826474908251239,-0.00011874315790331239,-0.0005364296222670272,2.8854771326296103e-05,-2.5007860380172966e-05,0.0013924193988384098,9.055389084838887e-05,0.0007538309052763296,0.0,0.0,0.0,0.0,0.0,0.0,0.0,-7.757136755337513e-05,-0.00022927704386074832,-3.1994541872738987e-05,0.00022254383954400936,7.152537482574273e-05,6.009101867654465e-05,4.533675319495778e-06,0.00011874315790331239,0.0005364296222670272,-2.8854771326296103e-05,2.5007860380172966e-05,-0.0013924193988384098,-9.055389084838887e-05,-0.0007538309052763296,0.4029781222343445,19.816431045532227,0.4466826617717743,-20.082735061645508,-0.5578513741493225,-2.4630770683288574,0.21457235515117645,0
30,0.14499664306640625,-0.4029781222343445,-19.816431045532227,-0.4466826617717743,20.082735061645508,0.5578513741493225,2.4630770683288574,-0.21457235515117645,0.0,0.0,0.0,0.0,0.0,0.0,0.0,-0.3847161813545946,-0.089991081348956,-0.23805486734986564,0.31325970904667766,-0.01405626553931605,0.09209614737339694,-0.20504931254387904,1.2135189651363107,-0.22001395454539774,-0.007479834052946483,-2.6040709260393315,-0.10895545246181482,2.468122034761641,0.8264703745759195,1.2134413937687574,-0.2202432315892585,-0.0075118285948192216,-2.6038483821997875,-0.10888392708698907,2.4681821257803174,0.826474908251239,-0.00011874315790331239,-0.0005364296222670272,2.8854771326296103e-05,-2.5007860380172966e-05,0.0013924193988384098,9.055389084838887e-05,0.0007538309052763296,0.0,0.0,0.0,0.0,0.0,0.0,0.0,-7.757136755337513e-05,-0.00022927704386074832,-3.1994541872738987e-05,0.00022254383954400936,7.152537482574273e-05,6.009101867654465e-05,4.533675319495778e-06,0.00011874315790331239,0.0005364296222670272,-2.8854771326296103e-05,2.5007860380172966e-05,-0.0013924193988384098,-9.055389084838887e-05,-0.0007538309052763296,0.4029781222343445,19.816431045532227,0.4466826617717743,-20.082735061645508,-0.5578513741493225,-2.4630770683288574,0.21457235515117645,0
31,0.1500246524810791,-0.3752071261405945,-19.816431045532227,-0.4228789508342743,20.106538772583008,0.5697532296180725,2.4630770683288574,-0.22830526530742645,0.0,0.0,0.0,0.0,0.0,0.0,0.0,-0.3839290015387717,-0.08760808464146953,-0.23216801446813368,0.31425586093522656,-0.01425948017814295,0.09283780756808362,-0.20342108229489606,1.2135162333414233,-0.22001371820720692,-0.007483635032384559,-2.60407403921957,-0.10895677489042281,2.468122034761641,0.8264719004548258,1.2134413937687574,-0.2202432315892585,-0.0075118285948192216,-2.6038483821997875,-0.10888392708698907,2.4681821257803174,0.826474908251239,-0.0002331019543799807,-4.798449390096313e-05,-0.00034463163542940785,-0.0006292945396952108,-6.527383199327465e-05,-7.511081104270513e-05,0.001110380002968286,0.0,0.0,0.0,0.0,0.0,0.0,0.0,-7.483957266596342e-05,-0.00022951338205157157,-2.8193562434662353e-05,0.0002256570197824992,7.284780343373709e-05,6.009101867654465e-05,3.0077964132679824e-06,0.0002331019543799807,4.798449390096313e-05,0.00034463163542940785,0.0006292945396952108,6.527383199327465e-05,7.511081104270513e-05,-0.001110380002968286,0.3752071261405945,19.816431045532227,0.4228789508342743,-20.106538772583008,-0.5697532296180725,-2.4630770683288574,0.22830526530742645,0
32,0.15502381324768066,-0.3752071261405945,-19.816431045532227,-0.4228789508342743,20.106538772583008,0.5697532296180725,2.4630770683288574,-0.22830526530742645,0.0,0.0,0.0,0.0,0.0,0.0,0.0,-0.3839290015387717,-0.08760808464146953,-0.23216801446813368,0.31425586093522656,-0.01425948017814295,0.09283780756808362,-0.20342108229489606,1.2135162333414233,-0.22001371820720692,-0.007483635032384559,-2.60407403921957,-0.10895677489042281,2.468122034761641,0.8264719004548258,1.2134413937687574,-0.2202432315892585,-0.0075118285948192216,-2.6038483821997875,-0.10888392708698907,2.4681821257803174,0.826474908251239,-0.0002331019543799807,-4.798449390096313e-05,-0.00034463163542940785,-0.0006292945396952108,-6.527383199327465e-05,-7.511081104270513e-05,0.001110380002968286,0.0,0.0,0.0,0.0,0.0,0.0,0.0,-7.483957266596342e-05,-0.00022951338205157157,-2.8193562434662353e-05,0.0002256570197824992,7.284780343373709e-05,6.009101867654465e-05,3.0077964132679824e-06,0.0002331019543799807,4.798449390096313e-05,0.00034463163542940785,0.0006292945396952108,6.527383199327465e-05,7.511081104270513e-05,-0.001110380002968286,0.3752071261405945,19.816431045532227,0.4228789508342743,-20.106538772583008,-0.5697532296180725,-2.4630770683288574,0.22830526530742645,0
33,0.16000747680664062,-0.3752071261405945,-19.816431045532227,-0.4228789508342743,20.106538772583008,0.5697532296180725,2.4630770683288574,-0.22830526530742645,0.0,0.0,0.0,0.0,0.0,0.0,0.0,-0.3839290015387717,-0.08760808464146953,-0.23216801446813368,0.31425586093522656,-0.01425948017814295,0.09283780756808362,-0.20342108229489606,1.2135162333414233,-0.22001371820720692,-0.007483635032384559,-2.60407403921957,-0.10895677489042281,2.468122034761641,0.8264719004548258,1.2134413937687574,-0.2202432315892585,-0.0075118285948192216,-2.6038483821997875,-0.10888392708698907,2.4681821257803174,0.826474908251239,-0.0002331019543799807,-4.798449390096313e-05,-0.00034463163542940785,-0.0006292945396952108,-6.527383199327465e-05,-7.511081104270513e-05,0.001110380002968286,0.0,0.0,0.0,0.0,0.0,0.0,0.0,-7.483957266596342e-05,-0.00022951338205157157,-2.8193562434662353e-05,0.0002256570197824992,7.284780343373709e-05,6.009101867654465e-05,3.0077964132679824e-06,0.0002331019543799807,4.798449390096313e-05,0.00034463163542940785,0.0006292945396952108,6.527383199327465e-05,7.511081104270513e-05,-0.001110380002968286,0.3752071261405945,19.816431045532227,0.4228789508342743,-20.106538772583008,-0.5697532296180725,-2.4630770683288574,0.22830526530742645,0
34,0.16500401496887207,-0.3752071261405945,-19.816431045532227,-0.4228789508342743,20.106538772583008,0.5697532296180725,2.4630770683288574,-0.22830526530742645,0.0,0.0,0.0,0.0,0.0,0.0,0.0,-0.3839290015387717,-0.08760808464146953,-0.23216801446813368,0.31425586093522656,-0.01425948017814295,0.09283780756808362,-0.20342108229489606,1.2135162333414233,-0.22001371820720692,-0.007483635032384559,-2.60407403921957,-0.10895677489042281,2.468122034761641,0.8264719004548258,1.2134413937687574,-0.2202432315892585,-0.0075118285948192216,-2.6038483821997875,-0.10888392708698907,2.4681821257803174,0.826474908251239,-0.0002331019543799807,-4.798449390096313e-05,-0.00034463163542940785,-0.0006292945396952108,-6.527383199327465e-05,-7.511081104270513e-05,0.001110380002968286,0.0,0.0,0.0,0.0,0.0,0.0,0.0,-7.483957266596342e-05,-0.00022951338205157157,-2.8193562434662353e-05,0.0002256570197824992,7.284780343373709e-05,6.009101867654465e-05,3.0077964132679824e-06,0.0002331019543799807,4.798449390096313e-05,0.00034463163542940785,0.0006292945396952108,6.527383199327465e-05,7.511081104270513e-05,-0.001110380002968286,0.3752071261405945,19.816431045532227,0.4228789508342743,-20.106538772583008,-0.5697532296180725,-2.4630770683288574,0.22830526530742645,0
35,0.17003750801086426,-0.3752071261405945,-19.792627334594727,-0.4704863727092743,20.106538772583008,0.5642600655555725,2.4694857597351074,-0.16604940593242645,0.0,0.0,0.0,0.0,0.0,0.0,0.0,-0.3865605620526564,-0.0846859776645756,-0.23417034540724102,0.31565254984779206,-0.014709034461233847,0.09270810518062463,-0.20167273183093,1.2135168121801418,-0.2200156259574105,-0.007480294172701059,-2.6040737074628937,-0.10895616453886031,2.468121322684818,0.8264649831371175,1.2134413937687574,-0.2202432315892585,-0.0075118285948192216,-2.6038483821997875,-0.10888392708698907,2.4681821257803174,0.826474908251239,-0.00026032956647377675,-0.0007774916298378244,0.0010772661057121206,-0.00038501947853631025,-5.6760190665193505e-06,-0.00022702169564438497,-0.0013653256025931834,0.0,0.0,0.0,0.0,0.0,0.0,0.0,-7.54184113844758e-05,-0.00022760563184798244,-3.15344221181622e-05,0.00022532526310614642,7.223745187123765e-05,6.080309549938434e-05,9.925114121567269e-06,0.00026032956647377675,0.0007774916298378244,-0.0010772661057121206,0.00038501947853631025,5.6760190665193505e-06,0.00022702169564438497,0.0013653256025931834,0.3752071261405945,19.792627334594727,0.4704863727092743,-20.106538772583008,-0.5642600655555725,-2.4694857597351074,0.16604940593242645,0
36,0.17502570152282715,-0.3752071261405945,-19.792627334594727,-0.4704863727092743,20.106538772583008,0.5642600655555725,2.4694857597351074,-0.16604940593242645,0.0,0.0,0.0,0.0,0.0,0.0,0.0,-0.3865605620526564,-0.0846859776645756,-0.23417034540724102,0.31565254984779206,-0.014709034461233847,0.09270810518062463,-0.20167273183093,1.2135168121801418,-0.2200156259574105,-0.007480294172701059,-2.6040737074628937,-0.10895616453886031,2.468121322684818,0.8264649831371175,1.2134413937687574,-0.2202432315892585,-0.0075118285948192216,-2.6038483821997875,-0.10888392708698907,2.4681821257803174,0.826474908251239,-0.00026032956647377675,-0.0007774916298378244,0.0010772661057121206,-0.00038501947853631025,-5.6760190665193505e-06,-0.00022702169564438497,-0.0013653256025931834,0.0,0.0,0.0,0.0,0.0,0.0,0.0,-7.54184113844758e-05,-0.00022760563184798244,-3.15344221181622e-05,0.00022532526310614642,7.223745187123765e-05,6.080309549938434e-05,9.925114121567269e-06,0.00026032956647377675,0.0007774916298378244,-0.0010772661057121206,0.00038501947853631025,5.6760190665193505e-06,0.00022702169564438497,0.0013653256025931834,0.3752071261405945,19.792627334594727,0.4704863727092743,-20.106538772583008,-0.5642600655555725,-2.4694857597351074,0.16604940593242645,0
37,0.180009126663208,-0.4029781222343445,-19.844202041625977,-0.4466826617717743,20.082735061645508,0.5642600655555725,2.4566683769226074,-0.16604940593242645,0.0,0.0,0.0,0.0,0.0,0.0,0.0,-0.39444470519301816,-0.08586952998207176,-0.23959572012375235,0.31688134588811984,-0.015337814902190904,0.0932910445312211,-0.20164116891129863,1.2135168313615197,-0.22001200668017068,-0.007481964608556345,-2.604072045840731,-0.10895616453886031,2.4681227468384637,0.8264649831371175,1.2134413937687574,-0.2202432315892585,-0.0075118285948192216,-2.6038483821997875,-0.10888392708698907,2.4681821257803174,0.826474908251239,-0.00012285435851936257,0.00023278943971399678,0.00010183803539736997,0.00014366044068810682,6.941119690931252e-05,0.00035395560650269435,-0.0013693448377101803,0.0,0.0,0.0,0.0,0.0,0.0,0.0,-7.543759276229522e-05,-0.00023122490908780713,-2.9863986262876688e-05,0.00022366364094361657,7.223745187123765e-05,5.937894185370496e-05,9.925114121567269e-06,0.00012285435851936257,-0.00023278943971399678,-0.00010183803539736997,-0.00014366044068810682,-6.941119690931252e-05,-0.00035395560650269435,0.0013693448377101803,0.4029781222343445,19.844202041625977,0.4466826617717743,-20.082735061645508,-0.5642600655555725,-2.4566683769226074,0.16604940593242645,0
38,0.18500542640686035,-0.4029781222343445,-19.844202041625977,-0.4466826617717743,20.082735061645508,0.5642600655555725,2.4566683769226074,-0.16604940593242645,0.0,0.0,0.0,0.0,0.0,0.0,0.0,-0.39444470519301816,-0.08586952998207176,-0.23959572012375235,0.31688134588811984,-0.015337814902190904,0.0932910445312211,-0.20164116891129863,1.2135168313615197,-0.22001200668017068,-0.007481964608556345,-2.604072045840731,-0.10895616453886031,2.4681227468384637,0.8264649831371175,1.2134413937687574,-0.2202432315892585,-0.0075118285948192216,-2.6038483821997875,-0.10888392708698907,2.4681821257803174,0.826474908251239,-0.00012285435851936257,0.00023278943971399678,0.00010183803539736997,0.00014366044068810682,6.941119690931252e-05,0.00035395560650269435,-0.0013693448377101803,0.0,0.0,0.0,0.0,0.0,0.0,0.0,-7.543759276229522e-05,-0.00023122490908780713,-2.9863986262876688e-05,0.00022366364094361657,7.223745187123765e-05,5.937894185370496e-05,9.925114121567269e-06,0.00012285435851936257,-0.00023278943971399678,-0.00010183803539736997,-0.00014366044068810682,-6.941119690931252e-05,-0.00035395560650269435,0.0013693448377101803,0.4029781222343445,19.844202041625977,0.4466826617717743,-20.082735061645508,-0.5642600655555725,-2.4566683769226074,0.16604940593242645,0
39,0.19002795219421387,-0.4029781222343445,-19.868005752563477,-0.4228789508342743,20.106538772583008,0.5761619210243225,2.4630770683288574,-0.19351522624492645,0.0,0.0,0.0,0.0,0.0,0.0,0.0,-0.39033004777882374,-0.090130893636171,-0.23359774776005154,0.3156308882492541,-0.015996441363825456,0.09325075542984475,-0.20208495623797956,1.2135161309211018,-0.2200102571393856,-0.007483634070220657,-2.6040717432033063,-0.10895748696724572,2.468122034761641,0.82646803489493,1.2134413937687574,-0.2202432315892585,-0.0075118285948192216,-2.6038483821997875,-0.10888392708698907,2.4681821257803174,0.826474908251239,0.0001396033762985804,0.0003147925751159116,-0.00019478982792587584,-0.0005439675146096905,-0.0002964540974804347,6.050850023851905e-05,-0.0008346962848747219,0.0,0.0,0.0,0.0,0.0,0.0,0.0,-7.473715234440625e-05,-0.00023297444987288585,-2.8194524598564724e-05,0.00022336100351871835,7.355988025664617e-05,6.009101867654465e-05,6.8733563090006555e-06,-0.0001396033762985804,-0.0003147925751159116,0.00019478982792587584,0.0005439675146096905,0.0002964540974804347,-6.050850023851905e-05,0.0008346962848747219,0.4029781222343445,19.868005752563477,0.4228789508342743,-20.106538772583008,-0.5761619210243225,-2.4630770683288574,0.19351522624492645,0
40,0.19500470161437988,-0.4029781222343445,-19.868005752563477,-0.4228789508342743,20.106538772583008,0.5761619210243225,2.4630770683288574,-0.19351522624492645,0.0,0.0,0.0,0.0,0.0,0.0,0.0,-0.39033004777882374,-0.090130893636171,-0.23359774776005154,0.3156308882492541,-0.015996441363825456,0.09325075542984475,-0.20208495623797956,1.2135161309211018,-0.2200102571393856,-0.007483634070220657,-2.6040717432033063,-0.10895748696724572,2.468122034761641,0.82646803489493,1.2134413937687574,-0.2202432315892585,-0.0075118285948192216,-2.6038483821997875,-0.10888392708698907,2.4681821257803174,0.826474908251239,0.0001396033762985804,0.0003147925751159116,-0.00019478982792587584,-0.0005439675146096905,-0.0002964540974804347,6.050850023851905e-05,-0.0008346962848747219,0.0,0.0,0.0,0.0,0.0,0.0,0.0,-7.473715234440625e-05,-0.00023297444987288585,-2.8194524598564724e-05,0.00022336100351871835,7.355988025664617e-05,6.009101867654465e-05,6.8733563090006555e-06,-0.0001396033762985804,-0.0003147925751159116,0.00019478982792587584,0.0005439675146096905,0.0002964540974804347,-6.050850023851905e-05,0.0008346962848747219,0.4029781222343445,19.868005752563477,0.4228789508342743,-20.106538772583008,-0.5761619210243225,-2.4630770683288574,0.19351522624492645,0
41,0.2000129222869873,-0.3752071261405945,-19.816431045532227,-0.4466826617717743,20.082735061645508,0.5697532296180725,2.4694857597351074,-0.16604940593242645,0.0,0.0,0.0,0.0,0.0,0.0,0.0,-0.3959652303143384,-0.09343982034776861,-0.2401628407555504,0.3150754032815319,-0.015053736721445736,0.09344515389183988,-0.20332157316263402,1.213514113068019,-0.22001394673211863,-0.007481964608550846,-2.6040702089485874,-0.1089567792715141,2.468121322684818,0.8264649831371175,1.2134413937687574,-0.2202432315892585,-0.0075118285948192216,-2.6038483821997875,-0.10888392708698907,2.4681821257803174,0.826474908251239,-0.0007578806628493675,-0.0007219729595683955,0.00030335385903024887,0.00015790040837226408,2.1222299576923206e-06,-9.276639670990673e-05,-0.001671132095331182,0.0,0.0,0.0,0.0,0.0,0.0,0.0,-7.271929926155885e-05,-0.00022928485713985536,-2.986398626837576e-05,0.0002218267487998915,7.285218452503239e-05,6.080309549938434e-05,9.925114121567269e-06,0.0007578806628493675,0.0007219729595683955,-0.00030335385903024887,-0.00015790040837226408,-2.1222299576923206e-06,9.276639670990673e-05,0.001671132095331182,0.3752071261405945,19.816431045532227,0.4466826617717743,-20.082735061645508,-0.5697532296180725,-2.4694857597351074,0.16604940593242645,0
42,0.20500397682189941,-0.3752071261405945,-19.816431045532227,-0.4466826617717743,20.082735061645508,0.5697532296180725,2.4694857597351074,-0.16604940593242645,0.0,0.0,0.0,0.0,0.0,0.0,0.0,-0.3959652303143384,-0.09343982034776861,-0.2401628407555504,0.3150754032815319,-0.015053736721445736,0.09344515389183988,-0.20332157316263402,1.213514113068019,-0.22001394673211863,-0.007481964608550846,-2.6040702089485874,-0.1089567792715141,2.468121322684818,0.8264649831371175,1.2134413937687574,-0.2202432315892585,-0.0075118285948192216,-2.6038483821997875,-0.10888392708698907,2.4681821257803174,0.826474908251239,-0.0007578806628493675,-0.0007219729595683955,0.00030335385903024887,0.00015790040837226408,2.1222299576923206e-06,-9.276639670990673e-05,-0.001671132095331182,0.0,0.0,0.0,0.0,0.0,0.0,0.0,-7.271929926155885e-05,-0.00022928485713985536,-2.986398626837576e-05,0.0002218267487998915,7.285218452503239e-05,6.080309549938434e-05,9.925114121567269e-06,0.0007578806628493675,0.0007219729595683955,-0.00030335385903024887,-0.00015790040837226408,-2.1222299576923206e-06,9.276639670990673e-05,0.001671132095331182,0.3752071261405945,19.816431045532227,0.4466826617717743,-20.082735061645508,-0.5697532296180725,-2.4694857597351074,0.16604940593242645,0
43,0.20999836921691895,-0.3752071261405945,-19.868005752563477,-0.4466826617717743,20.082735061645508,0.5697532296180725,2.4566683769226074,-0.17978231608867645,0.0,0.0,0.0,0.0,0.0,0.0,0.0,-0.38976022572899394,-0.08880560664256974,-0.23548803462515008,0.30810769698366236,-0.015041899982579756,0.09303572784846516,-0.2035771956482617,1.2135163396158961,-0.22001033624426578,-0.007481964608556345,-2.6040730435473005,-0.10895642002205319,2.4681227468384637,0.8264633301016356,1.2134413937687574,-0.2202432315892585,-0.0075118285948192216,-2.6038483821997875,-0.10888392708698907,2.4681821257803174,0.826474908251239,-0.0003771865201924191,0.0008790847789774775,0.00037792113201111447,-0.00022197804395484756,2.637995210249423e-05,0.0001949915708923156,-0.0006238734319019627,0.0,0.0,0.0,0.0,0.0,0.0,0.0,-7.494584713874097e-05,-0.0002328953449927118,-2.9863986262876688e-05,0.00022466134751297773,7.24929350641168e-05,5.937894185370496e-05,1.1578149603397314e-05,0.0003771865201924191,-0.0008790847789774775,-0.00037792113201111447,0.00022197804395484756,-2.637995210249423e-05,-0.0001949915708923156,0.0006238734319019627,0.3752071261405945,19.868005752563477,0.4466826617717743,-20.082735061645508,-0.5697532296180725,-2.4566683769226074,0.17978231608867645,0
44,0.2149982452392578,-0.3752071261405945,-19.868005752563477,-0.4466826617717743,20.082735061645508,0.5697532296180725,2.4566683769226074,-0.17978231608867645,0.0,0.0,0.0,0.0,0.0,0.0,0.0,-0.38976022572899394,-0.08880560664256974,-0.23548803462515008,0.30810769698366236,-0.015041899982579756,0.09303572784846516,-0.2035771956482617,1.2135163396158961,-0.22001033624426578,-0.007481964608556345,-2.6040730435473005,-0.10895642002205319,2.4681227468384637,0.8264633301016356,1.2134413937687574,-0.2202432315892585,-0.0075118285948192216,-2.6038483821997875,-0.10888392708698907,2.4681821257803174,0.826474908251239,-0.0003771865201924191,0.0008790847789774775,0.00037792113201111447,-0.00022197804395484756,2.637995210249423e-05,0.0001949915708923156,-0.0006238734319019627,0.0,0.0,0.0,0.0,0.0,0.0,0.0,-7.494584713874097e-05,-0.0002328953449927118,-2.9863986262876688e-05,0.00022466134751297773,7.24929350641168e-05,5.937894185370496e-05,1.1578149603397314e-05,0.0003771865201924191,-0.0008790847789774775,-0.00037792113201111447,0.00022197804395484756,-2.637995210249423e-05,-0.0001949915708923156,0.0006238734319019627,0.3752071261405945,19.868005752563477,0.4466826617717743,-20.082735061645508,-0.5697532296180725,-2.4566683769226074,0.17978231608867645,0
45,0.21999716758728027,-0.4029781222343445,-19.816431045532227,-0.3990752398967743,20.054964065551758,0.5642600655555725,2.4630770683288574,-0.20083944499492645,0.0,0.0,0.0,0.0,0.0,0.0,0.0,-0.3858496231663016,-0.09207763241564125,-0.23154256054017164,0.31168808383580054,-0.01466371689389422,0.09338839219540238,-0.20309027253911105,1.213518261943004,-0.22001395552200181,-0.007485305480266872,-2.6040681333793287,-0.10895616453685708,2.468122034761641,0.8264688486790682,1.2134413937687574,-0.2202432315892585,-0.0075118285948192216,-2.6038483821997875,-0.10888392708698907,2.4681821257803174,0.826474908251239,0.0004012152718669683,-5.8335500072039614e-05,0.00013893982155395966,0.000603765514952718,0.00015989603909078654,0.00019186673681027133,-0.0003420721156554858,0.0,0.0,0.0,0.0,0.0,0.0,0.0,-7.686817424668035e-05,-0.00022927606725667293,-2.6523114552349895e-05,0.0002197511795412055,7.223744986800673e-05,6.009101867654465e-05,6.059572170813432e-06,-0.0004012152718669683,5.8335500072039614e-05,-0.00013893982155395966,-0.000603765514952718,-0.00015989603909078654,-0.00019186673681027133,0.0003420721156554858,0.4029781222343445,19.816431045532227,0.3990752398967743,-20.054964065551758,-0.5642600655555725,-2.4630770683288574,0.20083944499492645,0
46,0.22494935989379883,-0.4029781222343445,-19.816431045532227,-0.3990752398967743,20.054964065551758,0.5642600655555725,2.4630770683288574,-0.20083944499492645,0.0,0.0,0.0,0.0,0.0,0.0,0.0,-0.3858496231663016,-0.09207763241564125,-0.23154256054017164,0.31168808383580054,-0.01466371689389422,0.09338839219540238,-0.20309027253911105,1.213518261943004,-0.22001395552200181,-0.007485305480266872,-2.6040681333793287,-0.10895616453685708,2.468122034761641,0.8264688486790682,1.2134413937687574,-0.2202432315892585,-0.0075118285948192216,-2.6038483821997875,-0.10888392708698907,2.4681821257803174,0.826474908251239,0.0004012152718669683,-5.8335500072039614e-05,0.00013893982155395966,0.000603765514952718,0.00015989603909078654,0.00019186673681027133,-0.0003420721156554858,0.0,0.0,0.0,0.0,0.0,0.0,0.0,-7.686817424668035e-05,-0.00022927606725667293,-2.6523114552349895e-05,0.0002197511795412055,7.223744986800673e-05,6.009101867654465e-05,6.059572170813432e-06,-0.0004012152718669683,5.8335500072039614e-05,-0.00013893982155395966,-0.000603765514952718,-0.00015989603909078654,-0.00019186673681027133,0.0003420721156554858,0.4029781222343445,19.816431045532227,0.3990752398967743,-20.054964065551758,-0.5642600655555725,-2.4630770683288574,0.20083944499492645,0
47,0.23000884056091309,-0.3752071261405945,-19.816431045532227,-0.4228789508342743,20.082735061645508,0.5697532296180725,2.4758944511413574,-0.19351522624492645,0.0,0.0,0.0,0.0,0.0,0.0,0.0,-0.38938943558100375,-0.09274087246361748,-0.23300047006700658,0.31640915556072097,-0.014059035242670704,0.09415904640811337,-0.20337974553706353,1.213516807162752,-0.22001395552200181,-0.007483635044411608,-2.6040720383062275,-0.10895665660095802,2.468120610607995,0.8264680348949299,1.2134413937687574,-0.2202432315892585,-0.0075118285948192216,-2.6038483821997875,-0.10888392708698907,2.4681821257803174,0.826474908251239,0.00021548878283244715,-8.463316458054087e-06,2.549251977560012e-06,0.0005191175143907167,0.0001642758027180763,-0.0003698688666086173,-0.000738376432993243,0.0,0.0,0.0,0.0,0.0,0.0,0.0,-7.541339399463887e-05,-0.00022927606725667293,-2.8193550407613725e-05,0.00022365610643992895,7.272951396894434e-05,6.151517232222403e-05,6.873356309111678e-06,-0.00021548878283244715,8.463316458054087e-06,-2.549251977560012e-06,-0.0005191175143907167,-0.0001642758027180763,0.0003698688666086173,0.000738376432993243,0.3752071261405945,19.816431045532227,0.4228789508342743,-20.082735061645508,-0.5697532296180725,-2.4758944511413574,0.19351522624492645,0
48,0.23500967025756836,-0.3752071261405945,-19.816431045532227,-0.4228789508342743,20.082735061645508,0.5697532296180725,2.4758944511413574,-0.19351522624492645,0.0,0.0,0.0,0.0,0.0,0.0,0.0,-0.38938943558100375,-0.09274087246361748,-0.23300047006700658,0.31640915556072097,-0.014059035242670704,0.09415904640811337,-0.20337974553706353,1.213516807162752,-0.22001395552200181,-0.007483635044411608,-2.6040720383062275,-0.10895665660095802,2.468120610607995,0.8264680348949299,1.2134413937687574,-0.2202432315892585,-0.0075118285948192216,-2.6038483821997875,-0.10888392708698907,2.4681821257803174,0.826474908251239,0.00021548878283244715,-8.463316458054087e-06,2.549251977560012e-06,0.0005191175143907167,0.0001642758027180763,-0.0003698688666086173,-0.000738376432993243,0.0,0.0,0.0,0.0,0.0,0.0,0.0,-7.541339399463887e-05,-0.00022927606725667293,-2.8193550407613725e-05,0.00022365610643992895,7.272951396894434e-05,6.151517232222403e-05,6.873356309111678e-06,-0.00021548878283244715,8.463316458054087e-06,-2.549251977560012e-06,-0.0005191175143907167,-0.0001642758027180763,0.0003698688666086173,0.000738376432993243,0.3752071261405945,19.816431045532227,0.4228789508342743,-20.082735061645508,-0.5697532296180725,-2.4758944511413574,0.19351522624492645,0
49,0.24001717567443848,-0.4029781222343445,-19.816431045532227,-0.4228789508342743,20.106538772583008,0.5761619210243225,2.4630770683288574,-0.19351522624492645,0.0,0.0,0.0,0.0,0.0,0.0,0.0,-0.38435492010072175,-0.08927172648868795,-0.22875487159537197,0.3126246024927226,-0.014711468942353699,0.09401734775351048,-0.20523048166626723,1.213516141616493,-0.22001395454539774,-0.007483635044411608,-2.6040744047536535,-0.10895748696702315,2.468122034761641,0.82646803489493,1.2134413937687574,-0.2202432315892585,-0.0075118285948192216,-2.6038483821997875,-0.10888392708698907,2.4681821257803174,0.826474908251239,0.000320868434523923,-0.0003922122798859929,-0.00015194874124157352,-0.00021922730588341848,0.001092880444008094,5.342424988630806e-05,-0.00019688156711150382,0.0,0.0,0.0,0.0,0.0,0.0,0.0,-7.474784773564558e-05,-0.00022927704386074832,-2.8193550407613725e-05,0.0002260225538659455,7.355988003407421e-05,6.009101867654465e-05,6.8733563090006555e-06,-0.000320868434523923,0.0003922122798859929,0.00015194874124157352,0.00021922730588341848,-0.001092880444008094,-5.342424988630806e-05,0.00019688156711150382,0.4029781222343445,19.816431045532227,0.4228789508342743,-20.106538772583008,-0.5761619210243225,-2.4630770683288574,0.19351522624492645,0
50,0.24506616592407227,-0.4029781222343445,-19.816431045532227,-0.4228789508342743,20.106538772583008,0.5761619210243225,2.4630770683288574,-0.19351522624492645,0.0,0.0,0.0,0.0,0.0,0.0,0.0,-0.38435492010072175,-0.08927172648868795,-0.22875487159537197,0.3126246024927226,-0.014711468942353699,0.09401734775351048,-0.20523048166626723,1.213516141616493,-0.22001395454539774,-0.007483635044411608,-2.6040744047536535,-0.10895748696702315,2.468122034761641,0.82646803489493,1.2134413937687574,-0.2202432315892585,-0.0075118285948192216,-2.6038483821997875,-0.10888392708698907,2.4681821257803174,0.826474908251239,0.000320868434523923,-0.0003922122798859929,-0.00015194874124157352,-0.00021922730588341848,0.001092880444008094,5.342424988630806e-05,-0.00019688156711150382,0.0,0.0,0.0,0.0,0.0,0.0,0.0,-7.474784773564558e-05,-0.00022927704386074832,-2.8193550407613725e-05,0.0002260225538659455,7.355988003407421e-05,6.009101867654465e-05,6.8733563090006555e-06,-0.000320868434523923,0.0003922122798859929,0.00015194874124157352,0.00021922730588341848,-0.001092880444008094,-5.342424988630806e-05,0.00019688156711150382,0.4029781222343445,19.816431045532227,0.4228789508342743,-20.106538772583008,-0.5761619210243225,-2.4630770683288574,0.19351522624492645,0
51,0.25000619888305664,-0.4029781222343445,-19.844202041625977,-0.4228789508342743,20.054964065551758,0.5697532296180725,2.4694857597351074,-0.24112264811992645,0.0,0.0,0.0,0.0,0.0,0.0,0.0,-0.3901815804507861,-0.09245729675957545,-0.234761490731846,0.31587706204190624,-0.012698720927069876,0.09356848686947306,-0.2047532365077041,1.2135161394204772,-0.22001129473579703,-0.007482924859208321,-2.6040687881642843,-0.10895677489042281,2.468121440422388,0.8264736778211814,1.2134413937687574,-0.2202432315892585,-0.0075118285948192216,-2.6038483821997875,-0.10888392708698907,2.4681821257803174,0.826474908251239,4.791580914934301e-05,-0.00018192512466153556,-0.00035041833488807606,0.00041971307912879087,-0.0021852364665169324,-0.00018515254284479326,0.0018939527140361854,0.0,0.0,0.0,0.0,0.0,0.0,0.0,-7.474565171983194e-05,-0.00023193685346145632,-2.890373561090058e-05,0.00022040596449679484,7.284780343373709e-05,6.068535792946861e-05,1.2304300576193583e-06,-4.791580914934301e-05,0.00018192512466153556,0.00035041833488807606,-0.00041971307912879087,0.0021852364665169324,0.00018515254284479326,-0.0018939527140361854,0.4029781222343445,19.844202041625977,0.4228789508342743,-20.054964065551758,-0.5697532296180725,-2.4694857597351074,0.24112264811992645,0
52,0.2550160884857178,-0.4029781222343445,-19.844202041625977,-0.4228789508342743,20.054964065551758,0.5697532296180725,2.4694857597351074,-0.24112264811992645,0.0,0.0,0.0,0.0,0.0,0.0,0.0,-0.3901815804507861,-0.09245729675957545,-0.234761490731846,0.31587706204190624,-0.012698720927069876,0.09356848686947306,-0.2047532365077041,1.2135161394204772,-0.22001129473579703,-0.007482924859208321,-2.6040687881642843,-0.10895677489042281,2.468121440422388,0.8264736778211814,1.2134413937687574,-0.2202432315892585,-0.0075118285948192216,-2.6038483821997875,-0.10888392708698907,2.4681821257803174,0.826474908251239,4.791580914934301e-05,-0.00018192512466153556,-0.00035041833488807606,0.00041971307912879087,-0.0021852364665169324,-0.00018515254284479326,0.0018939527140361854,0.0,0.0,0.0,0.0,0.0,0.0,0.0,-7.474565171983194e-05,-0.00023193685346145632,-2.890373561090058e-05,0.00022040596449679484,7.284780343373709e-05,6.068535792946861e-05,1.2304300576193583e-06,-4.791580914934301e-05,0.00018192512466153556,0.00035041833488807606,-0.00041971307912879087,0.0021852364665169324,0.00018515254284479326,-0.0018939527140361854,0.4029781222343445,19.844202041625977,0.4228789508342743,-20.054964065551758,-0.5697532296180725,-2.4694857597351074,0.24112264811992645,0
53,0.26000428199768066,-0.3752071261405945,-19.816431045532227,-0.4228789508342743,20.106538772583008,0.5578513741493225,2.4630770683288574,-0.19351522624492645,0.0,0.0,0.0,0.0,0.0,0.0,0.0,-0.3897040369054597,-0.09031252348255703,-0.23200387071425665,0.31399557884753393,-0.013496613941400618,0.09362447773939626,-0.205329061736356,1.2135163365275394,-0.22001395551798286,-0.007483635040402592,-2.604072662808707,-0.10895545246203739,2.468122034762305,0.8264680348969239,1.2134413937687574,-0.2202432315892585,-0.0075118285948192216,-2.6038483821997875,-0.10888392708698907,2.4681821257803174,0.826474908251239,-0.0005978003601565828,-0.00039888444384082126,-0.0006016087029296408,-0.0004879385402972961,0.0002349088512327658,7.25292929304694e-05,-0.00045096877767674196,0.0,0.0,0.0,0.0,0.0,0.0,0.0,-7.494275878205947e-05,-0.00022927607127562477,-2.8193554416629935e-05,0.00022428060891943602,7.152537504831469e-05,6.009101801218719e-05,6.873354315151126e-06,0.0005978003601565828,0.00039888444384082126,0.0006016087029296408,0.0004879385402972961,-0.0002349088512327658,-7.25292929304694e-05,0.00045096877767674196,0.3752071261405945,19.816431045532227,0.4228789508342743,-20.106538772583008,-0.5578513741493225,-2.4630770683288574,0.19351522624492645,0
54,0.26494693756103516,-0.3752071261405945,-19.816431045532227,-0.4228789508342743,20.106538772583008,0.5578513741493225,2.4630770683288574,-0.19351522624492645,0.0,0.0,0.0,0.0,0.0,0.0,0.0,-0.3897040369054597,-0.09031252348255703,-0.23200387071425665,0.31399557884753393,-0.013496613941400618,0.09362447773939626,-0.205329061736356,1.2135163365275394,-0.22001395551798286,-0.007483635040402592,-2.604072662808707,-0.10895545246203739,2.468122034762305,0.8264680348969239,1.2134413937687574,-0.2202432315892585,-0.0075118285948192216,-2.6038483821997875,-0.10888392708698907,2.4681821257803174,0.826474908251239,-0.0005978003601565828,-0.00039888444384082126,-0.0006016087029296408,-0.0004879385402972961,0.0002349088512327658,7.25292929304694e-05,-0.00045096877767674196,0.0,0.0,0.0,0.0,0.0,0.0,0.0,-7.494275878205947e-05,-0.00022927607127562477,-2.8193554416629935e-05,0.00022428060891943602,7.152537504831469e-05,6.009101801218719e-05,6.873354315151126e-06,0.0005978003601565828,0.00039888444384082126,0.0006016087029296408,0.0004879385402972961,-0.0002349088512327658,-7.25292929304694e-05,0.00045096877767674196,0.3752071261405945,19.816431045532227,0.4228789508342743,-20.106538772583008,-0.5578513741493225,-2.4630770683288574,0.19351522624492645,0
55,0.2700021266937256,-0.3752071261405945,-19.816431045532227,-0.4228789508342743,20.106538772583008,0.5578513741493225,2.4630770683288574,-0.19351522624492645,0.0,0.0,0.0,0.0,0.0,0.0,0.0,-0.3897040369054597,-0.09031252348255703,-0.23200387071425665,0.31399557884753393,-0.013496613941400618,0.09362447773939626,-0.205329061736356,1.2135163365275394,-0.22001395551798286,-0.007483635040402592,-2.604072662808707,-0.10895545246203739,2.468122034762305,0.8264680348969239,1.2134413937687574,-0.2202432315892585,-0.0075118285948192216,-2.6038483821997875,-0.10888392708698907,2.4681821257803174,0.826474908251239,-0.0005978003601565828,-0.00039888444384082126,-0.0006016087029296408,-0.0004879385402972961,0.0002349088512327658,7.25292929304694e-05,-0.00045096877767674196,0.0,0.0,0.0,0.0,0.0,0.0,0.0,-7.494275878205947e-05,-0.00022927607127562477,-2.8193554416629935e-05,0.00022428060891943602,7.152537504831469e-05,6.009101801218719e-05,6.873354315151126e-06,0.0005978003601565828,0.00039888444384082126,0.0006016087029296408,0.0004879385402972961,-0.0002349088512327658,-7.25292929304694e-05,0.00045096877767674196,0.3752071261405945,19.816431045532227,0.4228789508342743,-20.106538772583008,-0.5578513741493225,-2.4630770683288574,0.19351522624492645,0
56,0.2750093936920166,-0.3752071261405945,-19.816431045532227,-0.4228789508342743,20.106538772583008,0.5578513741493225,2.4630770683288574,-0.19351522624492645,0.0,0.0,0.0,0.0,0.0,0.0,0.0,-0.3897040369054597,-0.09031252348255703,-0.23200387071425665,0.31399557884753393,-0.013496613941400618,0.09362447773939626,-0.205329061736356,1.2135163365275394,-0.22001395551798286,-0.007483635040402592,-2.604072662808707,-0.10895545246203739,2.468122034762305,0.8264680348969239,1.2134413937687574,-0.2202432315892585,-0.0075118285948192216,-2.6038483821997875,-0.10888392708698907,2.4681821257803174,0.826474908251239,-0.0005978003601565828,-0.00039888444384082126,-0.0006016087029296408,-0.0004879385402972961,0.0002349088512327658,7.25292929304694e-05,-0.00045096877767674196,0.0,0.0,0.0,0.0,0.0,0.0,0.0,-7.494275878205947e-05,-0.00022927607127562477,-2.8193554416629935e-05,0.00022428060891943602,7.152537504831469e-05,6.009101801218719e-05,6.873354315151126e-06,0.0005978003601565828,0.00039888444384082126,0.0006016087029296408,0.0004879385402972961,-0.0002349088512327658,-7.25292929304694e-05,0.00045096877767674196,0.3752071261405945,19.816431045532227,0.4228789508342743,-20.106538772583008,-0.5578513741493225,-2.4630770683288574,0.19351522624492645,0
57,0.28000664710998535,-0.3514034152030945,-19.816431045532227,-0.3713042438030243,20.082735061645508,0.5697532296180725,2.4694857597351074,-0.22098104655742645,0.0,0.0,0.0,0.0,0.0,0.0,0.0,-0.3851352125104391,-0.09399526617188197,-0.22882233968795415,0.31779637413348716,-0.014691179844401712,0.09437697671881554,-0.20549903290681446,1.2135129197721937,-0.2200139555220018,-0.007487254322097989,-2.6040709687541015,-0.10895677489042281,2.468121322684818,0.8264710866527425,1.2134413937687574,-0.2202432315892585,-0.0075118285948192216,-2.6038483821997875,-0.10888392708698907,2.4681821257803174,0.826474908251239,-0.0006234128769826791,-0.0004647395943957909,-0.001372214286858334,0.0003173436230020538,8.646504779398496e-05,-0.00022667677076338946,0.0009418223472351313,0.0,0.0,0.0,0.0,0.0,0.0,0.0,-7.152600343629523e-05,-0.0002292760672567007,-2.457427272123218e-05,0.0002225865543139527,7.284780343373709e-05,6.080309549938434e-05,3.8215984965450644e-06,0.0006234128769826791,0.0004647395943957909,0.001372214286858334,-0.0003173436230020538,-8.646504779398496e-05,0.00022667677076338946,-0.0009418223472351313,0.3514034152030945,19.816431045532227,0.3713042438030243,-20.082735061645508,-0.5697532296180725,-2.4694857597351074,0.22098104655742645,0
58,0.28501248359680176,-0.3514034152030945,-19.816431045532227,-0.3713042438030243,20.082735061645508,0.5697532296180725,2.4694857597351074,-0.22098104655742645,0.0,0.0,0.0,0.0,0.0,0.0,0.0,-0.3851352125104391,-0.09399526617188197,-0.22882233968795415,0.31779637413348716,-0.014691179844401712,0.09437697671881554,-0.20549903290681446,1.2135129197721937,-0.2200139555220018,-0.007487254322097989,-2.6040709687541015,-0.10895677489042281,2.468121322684818,0.8264710866527425,1.2134413937687574,-0.2202432315892585,-0.0075118285948192216,-2.6038483821997875,-0.10888392708698907,2.4681821257803174,0.826474908251239,-0.0006234128769826791,-0.0004647395943957909,-0.001372214286858334,0.0003173436230020538,8.646504779398496e-05,-0.00022667677076338946,0.0009418223472351313,0.0,0.0,0.0,0.0,0.0,0.0,0.0,-7.152600343629523e-05,-0.0002292760672567007,-2.457427272123218e-05,0.0002225865543139527,7.284780343373709e-05,6.080309549938434e-05,3.8215984965450644e-06,0.0006234128769826791,0.0004647395943957909,0.001372214286858334,-0.0003173436230020538,-8.646504779398496e-05,0.00022667677076338946,-0.0009418223472351313,0.3514034152030945,19.816431045532227,0.3713042438030243,-20.082735061645508,-0.5697532296180725,-2.4694857597351074,0.22098104655742645,0
59,0.2900090217590332,-0.3752071261405945,-19.844202041625977,-0.4466826617717743,20.054964065551758,0.5761619210243225,2.4694857597351074,-0.21457235515117645,0.0,0.0,0.0,0.0,0.0,0.0,0.0,-0.3861341347629168,-0.08964226349528052,-0.23341187836683933,0.3158342579023147,-0.014297423131374864,0.09331125663695056,-0.20364835036470072,1.213516736873872,-0.22001200668017068,-0.007479834052946483,-2.604068948736627,-0.10895736867778094,2.468121322684818,0.8264703745759195,1.2134413937687574,-0.2202432315892585,-0.0075118285948192216,-2.6038483821997875,-0.10888392708698907,2.4681821257803174,0.826474908251239,0.0001589621674055267,0.0005498973387400073,0.00027133179321305116,0.0006804401784397854,-0.00016581956760323857,-0.0002730857596034443,0.0006687625406336384,0.0,0.0,0.0,0.0,0.0,0.0,0.0,-7.534310511458919e-05,-0.00023122490908780713,-3.1994541872738987e-05,0.00022056653683932836,7.34415907918673e-05,6.080309549938434e-05,4.533675319495778e-06,-0.0001589621674055267,-0.0005498973387400073,-0.00027133179321305116,-0.0006804401784397854,0.00016581956760323857,0.0002730857596034443,-0.0006687625406336384,0.3752071261405945,19.844202041625977,0.4466826617717743,-20.054964065551758,-0.5761619210243225,-2.4694857597351074,0.21457235515117645,0
60,0.2950015068054199,-0.3752071261405945,-19.844202041625977,-0.4466826617717743,20.054964065551758,0.5761619210243225,2.4694857597351074,-0.21457235515117645,0.0,0.0,0.0,0.0,0.0,0.0,0.0,-0.3861341347629168,-0.08964226349528052,-0.23341187836683933,0.3158342579023147,-0.014297423131374864,0.09331125663695056,-0.20364835036470072,1.213516736873872,-0.22001200668017068,-0.007479834052946483,-2.604068948736627,-0.10895736867778094,2.468121322684818,0.8264703745759195,1.2134413937687574,-0.2202432315892585,-0.0075118285948192216,-2.6038483821997875,-0.10888392708698907,2.4681821257803174,0.826474908251239,0.0001589621674055267,0.0005498973387400073,0.00027133179321305116,0.0006804401784397854,-0.00016581956760323857,-0.0002730857596034443,0.0006687625406336384,0.0,0.0,0.0,0.0,0.0,0.0,0.0,-7.534310511458919e-05,-0.00023122490908780713,-3.1994541872738987e-05,0.00022056653683932836,7.34415907918673e-05,6.080309549938434e-05,4.533675319495778e-06,-0.0001589621674055267,-0.0005498973387400073,-0.00027133179321305116,-0.0006804401784397854,0.00016581956760323857,0.0002730857596034443,-0.0006687625406336384,0.3752071261405945,19.844202041625977,0.4466826617717743,-20.054964065551758,-0.5761619210243225,-2.4694857597351074,0.21457235515117645,0
61,0.2999989986419678,-0.3752071261405945,-19.844202041625977,-0.3990752398967743,20.082735061645508,0.5697532296180725,2.4694857597351074,-0.19351522624492645,0.0,0.0,0.0,0.0,0.0,0.0,0.0,-0.38450733887508953,-0.09571330738762164,-0.2329816867269633,0.3210298916545453,-0.013784492881653712,0.0940139414101349,-0.20326152886543386,1.2135169723611297,-0.22001200375035845,-0.007485305468239823,-2.6040722931989415,-0.10895677488975507,2.468121322684818,0.82646803489493,1.2134413937687574,-0.2202432315892585,-0.0075118285948192216,-2.6038483821997875,-0.10888392708698907,2.4681821257803174,0.826474908251239,8.727990766643522e-05,-4.0608615632071195e-05,-0.0005841045900290046,0.00013099907355739016,3.49103665731357e-05,-6.0190872553592135e-05,-0.00021560609521806642,0.0,0.0,0.0,0.0,0.0,0.0,0.0,-7.557859237228293e-05,-0.0002312278389000333,-2.6523126579398523e-05,0.0002239109991539756,7.284780276599345e-05,6.080309549938434e-05,6.8733563090006555e-06,-8.727990766643522e-05,4.0608615632071195e-05,0.0005841045900290046,-0.00013099907355739016,-3.49103665731357e-05,6.0190872553592135e-05,0.00021560609521806642,0.3752071261405945,19.844202041625977,0.3990752398967743,-20.082735061645508,-0.5697532296180725,-2.4694857597351074,0.19351522624492645,0
62,0.3049662113189697,-0.3752071261405945,-19.844202041625977,-0.3990752398967743,20.082735061645508,0.5697532296180725,2.4694857597351074,-0.19351522624492645,0.0,0.0,0.0,0.0,0.0,0.0,0.0,-0.38450733887508953,-0.09571330738762164,-0.2329816867269633,0.3210298916545453,-0.013784492881653712,0.0940139414101349,-0.20326152886543386,1.2135169723611297,-0.22001200375035845,-0.007485305468239823,-2.6040722931989415,-0.10895677488975507,2.468121322684818,0.82646803489493,1.2134413937687574,-0.2202432315892585,-0.0075118285948192216,-2.6038483821997875,-0.10888392708698907,2.4681821257803174,0.826474908251239,8.727990766643522e-05,-4.0608615632071195e-05,-0.0005841045900290046,0.00013099907355739016,3.49103665731357e-05,-6.0190872553592135e-05,-0.00021560609521806642,0.0,0.0,0.0,0.0,0.0,0.0,0.0,-7.557859237228293e-05,-0.0002312278389000333,-2.6523126579398523e-05,0.0002239109991539756,7.284780276599345e-05,6.080309549938434e-05,6.8733563090006555e-06,-8.727990766643522e-05,4.0608615632071195e-05,0.0005841045900290046,-0.00013099907355739016,-3.49103665731357e-05,6.0190872553592135e-05,0.00021560609521806642,0.3752071261405945,19.844202041625977,0.3990752398967743,-20.082735061645508,-0.5697532296180725,-2.4694857597351074,0.19351522624492645,0
63,0.31001949310302734,-0.4029781222343445,-19.868005752563477,-0.3990752398967743,20.130342483520508,0.5761619210243225,2.4630770683288574,-0.16604940593242645,0.0,0.0,0.0,0.0,0.0,0.0,0.0,-0.3841346382641956,-0.09509460612330455,-0.23244628250799196,0.31911383465958776,-0.014209782778782033,0.09406278821586579,-0.20320082864939165,1.2135167741279511,-0.22001033624426578,-0.007485305480266669,-2.6040740290515014,-0.10895748696724572,2.468122034761641,0.8264649874977682,1.2134413937687574,-0.2202432315892585,-0.0075118285948192216,-2.6038483821997875,-0.10888392708698907,2.4681821257803174,0.826474908251239,0.00034654008593147266,0.00031033309634729086,-0.0005121454688087808,-0.000857628336485147,0.008880587929736923,0.00014251958751762163,-0.0014910787375887536,0.0,0.0,0.0,0.0,0.0,0.0,0.0,-7.538035919374408e-05,-0.0002328953449927118,-2.6523114552552858e-05,0.00022564685171388987,7.355988025664617e-05,6.009101867654465e-05,9.920753470837873e-06,-0.00034654008593147266,-0.00031033309634729086,0.0005121454688087808,0.000857628336485147,-0.008880587929736923,-0.00014251958751762163,0.0014910787375887536,0.4029781222343445,19.868005752563477,0.3990752398967743,-20.130342483520508,-0.5761619210243225,-2.4630770683288574,0.16604940593242645,0
64,0.31500816345214844,-0.4029781222343445,-19.868005752563477,-0.3990752398967743,20.130342483520508,0.5761619210243225,2.4630770683288574,-0.16604940593242645,0.0,0.0,0.0,0.0,0.0,0.0,0.0,-0.3841346382641956,-0.09509460612330455,-0.23244628250799196,0.31911383465958776,-0.014209782778782033,0.09406278821586579,-0.20320082864939165,1.2135167741279511,-0.22001033624426578,-0.007485305480266669,-2.6040740290515014,-0.10895748696724572,2.468122034761641,0.8264649874977682,1.2134413937687574,-0.2202432315892585,-0.0075118285948192216,-2.6038483821997875,-0.10888392708698907,2.4681821257803174,0.826474908251239,0.00034654008593147266,0.00031033309634729086,-0.0005121454688087808,-0.000857628336485147,0.008880587929736923,0.00014251958751762163,-0.0014910787375887536,0.0,0.0,0.0,0.0,0.0,0.0,0.0,-7.538035919374408e-05,-0.0002328953449927118,-2.6523114552552858e-05,0.00022564685171388987,7.355988025664617e-05,6.009101867654465e-05,9.920753470837873e-06,-0.00034654008593147266,-0.00031033309634729086,0.0005121454688087808,0.000857628336485147,-0.008880587929736923,-0.00014251958751762163,0.0014910787375887536,0.4029781222343445,19.868005752563477,0.3990752398967743,-20.130342483520508,-0.5761619210243225,-2.4630770683288574,0.16604940593242645,0
65,0.3200037479400635,-0.3514034152030945,-19.868005752563477,-0.4228789508342743,20.054964065551758,0.5697532296180725,2.4493441581726074,-0.22098104655742645,0.0,0.0,0.0,0.0,0.0,0.0,0.0,-0.38112586256940506,-0.08886517119049642,-0.22712117391456998,0.31326256583255296,-0.015343684394320177,0.09329593069056916,-0.20207531343172203,1.2135153536934886,-0.22001009892952603,-0.007483635044411608,-2.6040700891268527,-0.10895677489042281,2.468123560640547,0.8264710866527507,1.2134413937687574,-0.2202432315892585,-0.0075118285948192216,-2.6038483821997875,-0.10888392708698907,2.4681821257803174,0.826474908251239,-0.0006087995434289979,0.0008848995137438146,5.425798687255906e-06,0.0008821976902808477,0.000301373129182523,0.0005883308331096948,0.0008873954619471576,0.0,0.0,0.0,0.0,0.0,0.0,0.0,-7.395992473124835e-05,-0.0002331326597324601,-2.8193550407613725e-05,0.00022170692706513506,7.284780343373709e-05,5.856513977020583e-05,3.821598488329414e-06,0.0006087995434289979,-0.0008848995137438146,-5.425798687255906e-06,-0.0008821976902808477,-0.000301373129182523,-0.0005883308331096948,-0.0008873954619471576,0.3514034152030945,19.868005752563477,0.4228789508342743,-20.054964065551758,-0.5697532296180725,-2.4493441581726074,0.22098104655742645,0
66,0.3249967098236084,-0.3514034152030945,-19.868005752563477,-0.4228789508342743,20.054964065551758,0.5697532296180725,2.4493441581726074,-0.22098104655742645,0.0,0.0,0.0,0.0,0.0,0.0,0.0,-0.38112586256940506,-0.08886517119049642,-0.22712117391456998,0.31326256583255296,-0.015343684394320177,0.09329593069056916,-0.20207531343172203,1.2135153536934886,-0.22001009892952603,-0.007483635044411608,-2.6040700891268527,-0.10895677489042281,2.468123560640547,0.8264710866527507,1.2134413937687574,-0.2202432315892585,-0.0075118285948192216,-2.6038483821997875,-0.10888392708698907,2.4681821257803174,0.826474908251239,-0.0006087995434289979,0.0008848995137438146,5.425798687255906e-06,0.0008821976902808477,0.000301373129182523,0.0005883308331096948,0.0008873954619471576,0.0,0.0,0.0,0.0,0.0,0.0,0.0,-7.395992473124835e-05,-0.0002331326597324601,-2.8193550407613725e-05,0.00022170692706513506,7.284780343373709e-05,5.856513977020583e-05,3.821598488329414e-06,0.0006087995434289979,-0.0008848995137438146,-5.425798687255906e-06,-0.0008821976902808477,-0.000301373129182523,-0.0005883308331096948,-0.0008873954619471576,0.3514034152030945,19.868005752563477,0.4228789508342743,-20.054964065551758,-0.5697532296180725,-2.4493441581726074,0.22098104655742645,0
67,0.32999300956726074,-0.4505855441093445,-19.844202041625977,-0.4466826617717743,20.054964065551758,0.5761619210243225,2.4630770683288574,-0.18710653483867645,0.0,0.0,0.0,0.0,0.0,0.0,0.0,-0.38571483637219894,-0.08983245613230077,-0.2331095452516457,0.31629160761120756,-0.014941430602430429,0.09318345812046452,-0.2019300471206075,1.213519479496721,-0.22001200667972412,-0.007481964608556345,-2.6040682629561576,-0.10895748696724572,2.468122034761641,0.8264673228181071,1.2134413937687574,-0.2202432315892585,-0.0075118285948192216,-2.6038483821997875,-0.10888392708698907,2.4681821257803174,0.826474908251239,0.0015131869309779437,0.0007147031790061038,0.00010548112553646713,0.0009086714016280322,-0.00018623526984724685,9.834131472843532e-05,-0.0007277034310965177,0.0,0.0,0.0,0.0,0.0,0.0,0.0,-7.808572796363933e-05,-0.00023122490953436659,-2.9863986262876688e-05,0.0002198807563700278,7.355988025664617e-05,6.009101867654465e-05,7.585433131951369e-06,-0.0015131869309779437,-0.0007147031790061038,-0.00010548112553646713,-0.0009086714016280322,0.00018623526984724685,-9.834131472843532e-05,0.0007277034310965177,0.4505855441093445,19.844202041625977,0.4466826617717743,-20.054964065551758,-0.5761619210243225,-2.4630770683288574,0.18710653483867645,0
68,0.33495426177978516,-0.4505855441093445,-19.844202041625977,-0.4466826617717743,20.054964065551758,0.5761619210243225,2.4630770683288574,-0.18710653483867645,0.0,0.0,0.0,0.0,0.0,0.0,0.0,-0.38571483637219894,-0.08983245613230077,-0.2331095452516457,0.31629160761120756,-0.014941430602430429,0.09318345812046452,-0.2019300471206075,1.213519479496721,-0.22001200667972412,-0.007481964608556345,-2.6040682629561576,-0.10895748696724572,2.468122034761641,0.8264673228181071,1.2134413937687574,-0.2202432315892585,-0.0075118285948192216,-2.6038483821997875,-0.10888392708698907,2.4681821257803174,0.826474908251239,0.0015131869309779437,0.0007147031790061038,0.00010548112553646713,0.0009086714016280322,-0.00018623526984724685,9.834131472843532e-05,-0.0007277034310965177,0.0,0.0,0.0,0.0,0.0,0.0,0.0,-7.808572796363933e-05,-0.00023122490953436659,-2.9863986262876688e-05,0.0002198807563700278,7.355988025664617e-05,6.009101867654465e-05,7.585433131951369e-06,-0.0015131869309779437,-0.0007147031790061038,-0.00010548112553646713,-0.0009086714016280322,0.00018623526984724685,-9.834131472843532e-05,0.0007277034310965177,0.4505855441093445,19.844202041625977,0.4466826617717743,-20.054964065551758,-0.5761619210243225,-2.4630770683288574,0.18710653483867645,0
69,0.3400106430053711,-0.4029781222343445,-19.868005752563477,-0.3990752398967743,20.054964065551758,0.5697532296180725,2.4566683769226074,-0.20724813640117645,0.0,0.0,0.0,0.0,0.0,0.0,0.0,-0.37976042803055704,-0.09275732737810348,-0.2277541696050713,0.313326260919308,-0.014667448771151332,0.09352023492281773,-0.20240739066031346,1.213518920207436,-0.2200103362443154,-0.007485305480266872,-2.6040711113970874,-0.10895677489042281,2.4681227468384637,0.8264695607738363,1.2134413937687574,-0.2202432315892585,-0.0075118285948192216,-2.6038483821997875,-0.10888392708698907,2.4681821257803174,0.826474908251239,0.0006919110751688894,0.000905945831732802,-0.0005411839629544582,0.00040335891894630033,-7.929180929804031e-05,0.0002329567278417976,-3.215560660961338e-05,0.0,0.0,0.0,0.0,0.0,0.0,0.0,-7.752643867853237e-05,-0.00023289534494308484,-2.6523114552349895e-05,0.00022272919729982021,7.284780343373709e-05,5.937894185370496e-05,5.34747740277286e-06,-0.0006919110751688894,-0.000905945831732802,0.0005411839629544582,-0.00040335891894630033,7.929180929804031e-05,-0.0002329567278417976,3.215560660961338e-05,0.4029781222343445,19.868005752563477,0.3990752398967743,-20.054964065551758,-0.5697532296180725,-2.4566683769226074,0.20724813640117645,0
70,0.3449971675872803,-0.4029781222343445,-19.868005752563477,-0.3990752398967743,20.054964065551758,0.5697532296180725,2.4566683769226074,-0.20724813640117645,0.0,0.0,0.0,0.0,0.0,0.0,0.0,-0.37976042803055704,-0.09275732737810348,-0.2277541696050713,0.313326260919308,-0.014667448771151332,0.09352023492281773,-0.20240739066031346,1.213518920207436,-0.2200103362443154,-0.007485305480266872,-2.6040711113970874,-0.10895677489042281,2.4681227468384637,0.8264695607738363,1.2134413937687574,-0.2202432315892585,-0.0075118285948192216,-2.6038483821997875,-0.10888392708698907,2.4681821257803174,0.826474908251239,0.0006919110751688894,0.000905945831732802,-0.0005411839629544582,0.00040335891894630033,-7.929180929804031e-05,0.0002329567278417976,-3.215560660961338e-05,0.0,0.0,0.0,0.0,0.0,0.0,0.0,-7.752643867853237e-05,-0.00023289534494308484,-2.6523114552349895e-05,0.00022272919729982021,7.284780343373709e-05,5.937894185370496e-05,5.34747740277286e-06,-0.0006919110751688894,-0.000905945831732802,0.0005411839629544582,-0.00040335891894630033,7.929180929804031e-05,-0.0002329567278417976,3.215560660961338e-05,0.4029781222343445,19.868005752563477,0.3990752398967743,-20.054964065551758,-0.5697532296180725,-2.4566683769226074,0.20724813640117645,0
71,0.34999966621398926,-0.4029781222343445,-19.868005752563477,-0.4228789508342743,20.106538772583008,0.5642600655555725,2.4630770683288574,-0.16604940593242645,0.0,0.0,0.0,0.0,0.0,0.0,0.0,-0.3868705051584758,-0.1020520243409886,-0.23528390516268863,0.31782938427814256,-0.0139633897045352,0.09384559537283244,-0.20338381639599706,1.2135181972272457,-0.22001033526771133,-0.0074833895482919535,-2.6040737934416547,-0.10895616453886031,2.468122034761641,0.8264649831371175,1.2134413937687574,-0.2202432315892585,-0.0075118285948192216,-2.6038483821997875,-0.10888392708698907,2.4681821257803174,0.826474908251239,0.00011660372706827337,-2.594997281094824e-05,-0.0003365115961038703,-0.000378422954822646,0.00025842529417555203,0.00012040193163919659,-0.0019315599005010262,0.0,0.0,0.0,0.0,0.0,0.0,0.0,-7.680345848837256e-05,-0.00023289632154716022,-2.8439046527268044e-05,0.00022541124186714612,7.223745187123765e-05,6.009101867654465e-05,9.925114121567269e-06,-0.00011660372706827337,2.594997281094824e-05,0.0003365115961038703,0.000378422954822646,-0.00025842529417555203,-0.00012040193163919659,0.0019315599005010262,0.4029781222343445,19.868005752563477,0.4228789508342743,-20.106538772583008,-0.5642600655555725,-2.4630770683288574,0.16604940593242645,0
72,0.35504794120788574,-0.4029781222343445,-19.868005752563477,-0.4228789508342743,20.106538772583008,0.5642600655555725,2.4630770683288574,-0.16604940593242645,0.0,0.0,0.0,0.0,0.0,0.0,0.0,-0.3868705051584758,-0.1020520243409886,-0.23528390516268863,0.31782938427814256,-0.0139633897045352,0.09384559537283244,-0.20338381639599706,1.2135181972272457,-0.22001033526771133,-0.0074833895482919535,-2.6040737934416547,-0.10895616453886031,2.468122034761641,0.8264649831371175,1.2134413937687574,-0.2202432315892585,-0.0075118285948192216,-2.6038483821997875,-0.10888392708698907,2.4681821257803174,0.826474908251239,0.00011660372706827337,-2.594997281094824e-05,-0.0003365115961038703,-0.000378422954822646,0.00025842529417555203,0.00012040193163919659,-0.0019315599005010262,0.0,0.0,0.0,0.0,0.0,0.0,0.0,-7.680345848837256e-05,-0.00023289632154716022,-2.8439046527268044e-05,0.00022541124186714612,7.223745187123765e-05,6.009101867654465e-05,9.925114121567269e-06,-0.00011660372706827337,2.594997281094824e-05,0.0003365115961038703,0.000378422954822646,-0.00025842529417555203,-0.00012040193163919659,0.0019315599005010262,0.4029781222343445,19.868005752563477,0.4228789508342743,-20.106538772583008,-0.5642600655555725,-2.4630770683288574,0.16604940593242645,0
73,0.35994744300842285,-0.4029781222343445,-19.868005752563477,-0.4704863727092743,20.106538772583008,0.5642600655555725,2.4630770683288574,-0.17978231608867645,0.0,0.0,0.0,0.0,0.0,0.0,0.0,-0.38462393184339694,-0.09090468086464153,-0.23158470589513913,0.3105748714243206,-0.014515639808908293,0.09269662688174828,-0.20465590808294398,1.2135168481468424,-0.22001033624430988,-0.0074802931971242985,-2.604072596365059,-0.10895616453886031,2.4681220352461573,0.8264665090160237,1.2134413937687574,-0.2202432315892585,-0.0075118285948192216,-2.6038483821997875,-0.10888392708698907,2.4681821257803174,0.826474908251239,0.0005890374291324675,0.0007605980597389621,0.000850898768225989,-0.0003882972471146152,0.00035188673824598874,-4.244681916562005e-05,-0.0008959396234743547,0.0,0.0,0.0,0.0,0.0,0.0,0.0,-7.545437808498257e-05,-0.0002328953449486082,-3.153539769492307e-05,0.00022421416527151905,7.223745187123765e-05,6.009053416011767e-05,8.399235215339473e-06,-0.0005890374291324675,-0.0007605980597389621,-0.000850898768225989,0.0003882972471146152,-0.00035188673824598874,4.244681916562005e-05,0.0008959396234743547,0.4029781222343445,19.868005752563477,0.4704863727092743,-20.106538772583008,-0.5642600655555725,-2.4630770683288574,0.17978231608867645,0
74,0.3649940490722656,-0.4029781222343445,-19.868005752563477,-0.4704863727092743,20.106538772583008,0.5642600655555725,2.4630770683288574,-0.17978231608867645,0.0,0.0,0.0,0.0,0.0,0.0,0.0,-0.38462393184339694,-0.09090468086464153,-0.23158470589513913,0.3105748714243206,-0.014515639808908293,0.09269662688174828,-0.20465590808294398,1.2135168481468424,-0.22001033624430988,-0.0074802931971242985,-2.604072596365059,-0.10895616453886031,2.4681220352461573,0.8264665090160237,1.2134413937687574,-0.2202432315892585,-0.0075118285948192216,-2.6038483821997875,-0.10888392708698907,2.4681821257803174,0.826474908251239,0.0005890374291324675,0.0007605980597389621,0.000850898768225989,-0.0003882972471146152,0.00035188673824598874,-4.244681916562005e-05,-0.0008959396234743547,0.0,0.0,0.0,0.0,0.0,0.0,0.0,-7.545437808498257e-05,-0.0002328953449486082,-3.153539769492307e-05,0.00022421416527151905,7.223745187123765e-05,6.009053416011767e-05,8.399235215339473e-06,-0.0005890374291324675,-0.0007605980597389621,-0.000850898768225989,0.0003882972471146152,-0.00035188673824598874,4.244681916562005e-05,0.0008959396234743547,0.4029781222343445,19.868005752563477,0.4704863727092743,-20.106538772583008,-0.5642600655555725,-2.4630770683288574,0.17978231608867645,0
75,0.3699939250946045,-0.4029781222343445,-19.844202041625977,-0.4228789508342743,20.031160354614258,0.5642600655555725,2.4694857597351074,-0.17337362468242645,0.0,0.0,0.0,0.0,0.0,0.0,0.0,-0.3879978450593849,-0.09233683054969782,-0.23485502712337197,0.3095253460775412,-0.013967915926710412,0.09218049265912483,-0.20571165233397037,1.213518756032941,-0.22001200668017068,-0.007483635044406101,-2.6040664574026446,-0.10895616453886031,2.4681213226848207,0.8264657969392009,1.2134413937687574,-0.2202432315892585,-0.0075118285948192216,-2.6038483821997875,-0.10888392708698907,2.4681821257803174,0.826474908251239,-4.174029902812337e-05,0.0002634223793008995,-2.243103648034511e-05,0.0010248572113350108,0.00018866864151515498,-0.00021697941561231131,-0.0015309033217361526,0.0,0.0,0.0,0.0,0.0,0.0,0.0,-7.736226418364467e-05,-0.00023122490908780713,-2.8193550413120605e-05,0.00021807520285710424,7.223745187123765e-05,6.0803095496719806e-05,9.111312038179165e-06,4.174029902812337e-05,-0.0002634223793008995,2.243103648034511e-05,-0.0010248572113350108,-0.00018866864151515498,0.00021697941561231131,0.0015309033217361526,0.4029781222343445,19.844202041625977,0.4228789508342743,-20.031160354614258,-0.5642600655555725,-2.4694857597351074,0.17337362468242645,0
76,0.3750288486480713,-0.4029781222343445,-19.844202041625977,-0.4228789508342743,20.031160354614258,0.5642600655555725,2.4694857597351074,-0.17337362468242645,0.0,0.0,0.0,0.0,0.0,0.0,0.0,-0.3879978450593849,-0.09233683054969782,-0.23485502712337197,0.3095253460775412,-0.013967915926710412,0.09218049265912483,-0.20571165233397037,1.213518756032941,-0.22001200668017068,-0.007483635044406101,-2.6040664574026446,-0.10895616453886031,2.4681213226848207,0.8264657969392009,1.2134413937687574,-0.2202432315892585,-0.0075118285948192216,-2.6038483821997875,-0.10888392708698907,2.4681821257803174,0.826474908251239,-4.174029902812337e-05,0.0002634223793008995,-2.243103648034511e-05,0.0010248572113350108,0.00018866864151515498,-0.00021697941561231131,-0.0015309033217361526,0.0,0.0,0.0,0.0,0.0,0.0,0.0,-7.736226418364467e-05,-0.00023122490908780713,-2.8193550413120605e-05,0.00021807520285710424,7.223745187123765e-05,6.0803095496719806e-05,9.111312038179165e-06,4.174029902812337e-05,-0.0002634223793008995,2.243103648034511e-05,-0.0010248572113350108,-0.00018866864151515498,0.00021697941561231131,0.0015309033217361526,0.4029781222343445,19.844202041625977,0.4228789508342743,-20.031160354614258,-0.5642600655555725,-2.4694857597351074,0.17337362468242645,0
77,0.38001418113708496,-0.4029781222343445,-19.844202041625977,-0.4228789508342743,20.031160354614258,0.5642600655555725,2.4694857597351074,-0.17337362468242645,0.0,0.0,0.0,0.0,0.0,0.0,0.0,-0.3879978450593849,-0.09233683054969782,-0.23485502712337197,0.3095253460775412,-0.013967915926710412,0.09218049265912483,-0.20571165233397037,1.213518756032941,-0.22001200668017068,-0.007483635044406101,-2.6040664574026446,-0.10895616453886031,2.4681213226848207,0.8264657969392009,1.2134413937687574,-0.2202432315892585,-0.0075118285948192216,-2.6038483821997875,-0.10888392708698907,2.4681821257803174,0.826474908251239,-4.174029902812337e-05,0.0002634223793008995,-2.243103648034511e-05,0.0010248572113350108,0.00018866864151515498,-0.00021697941561231131,-0.0015309033217361526,0.0,0.0,0.0,0.0,0.0,0.0,0.0,-7.736226418364467e-05,-0.00023122490908780713,-2.8193550413120605e-05,0.00021807520285710424,7.223745187123765e-05,6.0803095496719806e-05,9.111312038179165e-06,4.174029902812337e-05,-0.0002634223793008995,2.243103648034511e-05,-0.0010248572113350108,-0.00018866864151515498,0.00021697941561231131,0.0015309033217361526,0.4029781222343445,19.844202041625977,0.4228789508342743,-20.031160354614258,-0.5642600655555725,-2.4694857597351074,0.17337362468242645,0
78,0.38499879837036133,-0.4029781222343445,-19.844202041625977,-0.4228789508342743,20.031160354614258,0.5642600655555725,2.4694857597351074,-0.17337362468242645,0.0,0.0,0.0,0.0,0.0,0.0,0.0,-0.3879978450593849,-0.09233683054969782,-0.23485502712337197,0.3095253460775412,-0.013967915926710412,0.09218049265912483,-0.20571165233397037,1.213518756032941,-0.22001200668017068,-0.007483635044406101,-2.6040664574026446,-0.10895616453886031,2.4681213226848207,0.8264657969392009,1.2134413937687574,-0.2202432315892585,-0.0075118285948192216,-2.6038483821997875,-0.10888392708698907,2.4681821257803174,0.826474908251239,-4.174029902812337e-05,0.0002634223793008995,-2.243103648034511e-05,0.0010248572113350108,0.00018866864151515498,-0.00021697941561231131,-0.0015309033217361526,0.0,0.0,0.0,0.0,0.0,0.0,0.0,-7.736226418364467e-05,-0.00023122490908780713,-2.8193550413120605e-05,0.00021807520285710424,7.223745187123765e-05,6.0803095496719806e-05,9.111312038179165e-06,4.174029902812337e-05,-0.0002634223793008995,2.243103648034511e-05,-0.0010248572113350108,-0.00018866864151515498,0.00021697941561231131,0.0015309033217361526,0.4029781222343445,19.844202041625977,0.4228789508342743,-20.031160354614258,-0.5642600655555725,-2.4694857597351074,0.17337362468242645,0
79,0.39002537727355957,-0.4267818331718445,-19.816431045532227,-0.3713042438030243,20.106538772583008,0.5697532296180725,2.4630770683288574,-0.22098104655742645,0.0,0.0,0.0,0.0,0.0,0.0,0.0,-0.39015758480104684,-0.09776066267833221,-0.23413269170647835,0.3146458527175101,-0.013642370720085386,0.09345815761090209,-0.20653106287779083,1.2135182889975908,-0.22001395552200181,-0.007487245554379453,-2.6040744089145136,-0.10895677489042281,2.468122034761641,0.8264710866527425,1.2134413937687574,-0.2202432315892585,-0.0075118285948192216,-2.6038483821997875,-0.10888392708698907,2.4681821257803174,0.826474908251239,0.0004947474296841193,-0.0001505511456678441,-0.0012798593772629207,-0.0005485091089897037,0.00017989591669948941,5.1977881455519923e-05,7.929757311489526e-05,0.0,0.0,0.0,0.0,0.0,0.0,0.0,-7.689522883347344e-05,-0.00022927606725667293,-2.4583040439768618e-05,0.0002260267147260464,7.284780343373709e-05,6.009101867654465e-05,3.8215984965450644e-06,-0.0004947474296841193,0.0001505511456678441,0.0012798593772629207,0.0005485091089897037,-0.00017989591669948941,-5.1977881455519923e-05,-7.929757311489526e-05,0.4267818331718445,19.816431045532227,0.3713042438030243,-20.106538772583008,-0.5697532296180725,-2.4630770683288574,0.22098104655742645,0
