rezayati/contactInterpretation/dataset/franka_main/labeled_data/link4/d7_5.csv
index,time,tau_J0,tau_J1,tau_J2,tau_J3,tau_J4,tau_J5,tau_J6,tau_J_d0,tau_J_d1,tau_J_d2,tau_J_d3,tau_J_d4,tau_J_d5,tau_J_d6,tau_ext0,tau_ext1,tau_ext2,tau_ext3,tau_ext4,tau_ext5,tau_ext6,q0,q1,q2,q3,q4,q5,q6,q_d0,q_d1,q_d2,q_d3,q_d4,q_d5,q_d6,dq0,dq1,dq2,dq3,dq4,dq5,dq6,dq_d0,dq_d1,dq_d2,dq_d3,dq_d4,dq_d5,dq_d6,e0,e1,e2,e3,e4,e5,e6,de0,de1,de2,de3,de4,de5,de6,etau_J0,etau_J1,etau_J2,etau_J3,etau_J4,etau_J5,etau_J6,label
1,0.0,-0.7838374972343445,-46.52419662475586,-5.687466144561768,19.535249710083008,0.7730002999305725,2.3852572441101074,-0.20724813640117645,0.0,0.0,0.0,0.0,0.0,0.0,0.0,-0.8090808235814116,-0.21068234847023032,-0.5074255499409669,0.28347585866093084,0.18457201788397037,0.11447549871038157,-0.18747181978128583,0.8781601400623932,0.755614312054965,-0.28249573031808606,-1.6690254090292411,0.14140479295165534,2.4035694321114582,1.0273491345958576,0.878092876070424,0.7554597494309409,-0.2825552651693207,-1.6690993614607135,0.1414185955172306,2.4034451173676383,1.0273381002308042,-0.0006457584909095325,-0.0002991946409198122,-0.0002886965408040108,-0.0014379644777783743,8.305644172145646e-05,-0.0001349096378305767,0.0004470888331781298,0.0,0.0,0.0,0.0,0.0,0.0,0.0,-6.726399196921307e-05,-0.0001545626240241349,-5.9534851234666064e-05,-7.395243147234609e-05,1.3802565575260495e-05,-0.0001243147438199088,-1.1034365053452788e-05,0.0006457584909095325,0.0002991946409198122,0.0002886965408040108,0.0014379644777783743,-8.305644172145646e-05,0.0001349096378305767,-0.0004470888331781298,0.7838374972343445,46.52419662475586,5.687466144561768,-19.535249710083008,-0.7730002999305725,-2.3852572441101074,0.20724813640117645,0
2,0.00574183464050293,-0.7838374972343445,-46.52419662475586,-5.687466144561768,19.535249710083008,0.7730002999305725,2.3852572441101074,-0.20724813640117645,0.0,0.0,0.0,0.0,0.0,0.0,0.0,-0.8090808235814116,-0.21068234847023032,-0.5074255499409669,0.28347585866093084,0.18457201788397037,0.11447549871038157,-0.18747181978128583,0.8781601400623932,0.755614312054965,-0.28249573031808606,-1.6690254090292411,0.14140479295165534,2.4035694321114582,1.0273491345958576,0.878092876070424,0.7554597494309409,-0.2825552651693207,-1.6690993614607135,0.1414185955172306,2.4034451173676383,1.0273381002308042,-0.0006457584909095325,-0.0002991946409198122,-0.0002886965408040108,-0.0014379644777783743,8.305644172145646e-05,-0.0001349096378305767,0.0004470888331781298,0.0,0.0,0.0,0.0,0.0,0.0,0.0,-6.726399196921307e-05,-0.0001545626240241349,-5.9534851234666064e-05,-7.395243147234609e-05,1.3802565575260495e-05,-0.0001243147438199088,-1.1034365053452788e-05,0.0006457584909095325,0.0002991946409198122,0.0002886965408040108,0.0014379644777783743,-8.305644172145646e-05,0.0001349096378305767,-0.0004470888331781298,0.7838374972343445,46.52419662475586,5.687466144561768,-19.535249710083008,-0.7730002999305725,-2.3852572441101074,0.20724813640117645,0
3,0.00991678237915039,-0.7838374972343445,-46.57577133178711,-5.663662433624268,19.459871292114258,0.7784934639930725,2.3788485527038574,-0.22098104655742645,0.0,0.0,0.0,0.0,0.0,0.0,0.0,-0.8032341776611441,-0.2270832097379363,-0.5046306612930567,0.29415057806210504,0.1849874369507879,0.11543814144637454,-0.18921284315859657,0.8781601381365018,0.7556158256346034,-0.28249739978188504,-1.6690201193156995,0.14140410384565674,2.4035700266128575,1.027350660474764,0.878092876070424,0.7554597494309409,-0.2825552651693207,-1.6690993614607135,0.1414185955172306,2.4034451173676383,1.0273381002308042,-0.0004672023793168073,0.0006447216402897186,-6.002873815197955e-05,0.0007098601902861563,-2.7120608744095887e-06,-2.218876522597253e-05,0.0010010751065227894,0.0,0.0,0.0,0.0,0.0,0.0,0.0,-6.726206607787777e-05,-0.00015607620366253627,-5.786538743568492e-05,-7.924214501398019e-05,1.4491671573857445e-05,-0.00012490924521912916,-1.2560243959791606e-05,0.0004672023793168073,-0.0006447216402897186,6.002873815197955e-05,-0.0007098601902861563,2.7120608744095887e-06,2.218876522597253e-05,-0.0010010751065227894,0.7838374972343445,46.57577133178711,5.663662433624268,-19.459871292114258,-0.7784934639930725,-2.3788485527038574,0.22098104655742645,0
4,0.014970064163208008,-0.7838374972343445,-46.57577133178711,-5.663662433624268,19.459871292114258,0.7784934639930725,2.3788485527038574,-0.22098104655742645,0.0,0.0,0.0,0.0,0.0,0.0,0.0,-0.8032341776611441,-0.2270832097379363,-0.5046306612930567,0.29415057806210504,0.1849874369507879,0.11543814144637454,-0.18921284315859657,0.8781601381365018,0.7556158256346034,-0.28249739978188504,-1.6690201193156995,0.14140410384565674,2.4035700266128575,1.027350660474764,0.878092876070424,0.7554597494309409,-0.2825552651693207,-1.6690993614607135,0.1414185955172306,2.4034451173676383,1.0273381002308042,-0.0004672023793168073,0.0006447216402897186,-6.002873815197955e-05,0.0007098601902861563,-2.7120608744095887e-06,-2.218876522597253e-05,0.0010010751065227894,0.0,0.0,0.0,0.0,0.0,0.0,0.0,-6.726206607787777e-05,-0.00015607620366253627,-5.786538743568492e-05,-7.924214501398019e-05,1.4491671573857445e-05,-0.00012490924521912916,-1.2560243959791606e-05,0.0004672023793168073,-0.0006447216402897186,6.002873815197955e-05,-0.0007098601902861563,2.7120608744095887e-06,2.218876522597253e-05,-0.0010010751065227894,0.7838374972343445,46.57577133178711,5.663662433624268,-19.459871292114258,-0.7784934639930725,-2.3788485527038574,0.22098104655742645,0
5,0.019966840744018555,-0.8076412081718445,-46.59957504272461,-5.663662433624268,19.459871292114258,0.7610984444618225,2.3980746269226074,-0.15231649577617645,0.0,0.0,0.0,0.0,0.0,0.0,0.0,-0.801172644786177,-0.23006995017952614,-0.5010294327935653,0.29616728646145235,0.18567999351703504,0.11543419018641966,-0.18981972378138803,0.8781619578337873,0.7556196017683616,-0.2824973997818796,-1.6690203665645964,0.14140706474244671,2.4035721302262867,1.0273430312457759,0.878092876070424,0.7554597494309409,-0.2825552651693207,-1.6690993614607135,0.1414185955172306,2.4034451173676383,1.0273381002308042,0.000525994540707477,0.001026939682891123,-0.0002739938088075291,0.001022600734947046,0.00017551846706705237,-0.0006884764607720771,-0.001816166712985706,0.0,0.0,0.0,0.0,0.0,0.0,0.0,-6.908176336328786e-05,-0.00015985233742077387,-5.7865387441125016e-05,-7.899489611706834e-05,1.1530774783885533e-05,-0.00012701285864835654,-4.931014971676362e-06,-0.000525994540707477,-0.001026939682891123,0.0002739938088075291,-0.001022600734947046,-0.00017551846706705237,0.0006884764607720771,0.001816166712985706,0.8076412081718445,46.59957504272461,5.663662433624268,-19.459871292114258,-0.7610984444618225,-2.3980746269226074,0.15231649577617645,0
6,0.02496337890625,-0.8076412081718445,-46.59957504272461,-5.663662433624268,19.459871292114258,0.7610984444618225,2.3980746269226074,-0.15231649577617645,0.0,0.0,0.0,0.0,0.0,0.0,0.0,-0.801172644786177,-0.23006995017952614,-0.5010294327935653,0.29616728646145235,0.18567999351703504,0.11543419018641966,-0.18981972378138803,0.8781619578337873,0.7556196017683616,-0.2824973997818796,-1.6690203665645964,0.14140706474244671,2.4035721302262867,1.0273430312457759,0.878092876070424,0.7554597494309409,-0.2825552651693207,-1.6690993614607135,0.1414185955172306,2.4034451173676383,1.0273381002308042,0.000525994540707477,0.001026939682891123,-0.0002739938088075291,0.001022600734947046,0.00017551846706705237,-0.0006884764607720771,-0.001816166712985706,0.0,0.0,0.0,0.0,0.0,0.0,0.0,-6.908176336328786e-05,-0.00015985233742077387,-5.7865387441125016e-05,-7.899489611706834e-05,1.1530774783885533e-05,-0.00012701285864835654,-4.931014971676362e-06,-0.000525994540707477,-0.001026939682891123,0.0002739938088075291,-0.001022600734947046,-0.00017551846706705237,0.0006884764607720771,0.001816166712985706,0.8076412081718445,46.59957504272461,5.663662433624268,-19.459871292114258,-0.7610984444618225,-2.3980746269226074,0.15231649577617645,0
7,0.02997565269470215,-0.8592159152030945,-46.59957504272461,-5.711269855499268,19.511445999145508,0.7784934639930725,2.3852572441101074,-0.15231649577617645,0.0,0.0,0.0,0.0,0.0,0.0,0.0,-0.8233710310142067,-0.2164683118085309,-0.5137290133737245,0.2867421438309507,0.18471004421989629,0.11455836337645406,-0.1910391628283934,0.8781677062545472,0.7556174986740632,-0.2824940589101691,-1.6690238210110806,0.14140553494189181,2.403569667664344,1.0273430310802336,0.878092876070424,0.7554597494309409,-0.2825552651693207,-1.6690993614607135,0.1414185955172306,2.4034451173676383,1.0273381002308042,0.00024756674989008553,0.0010633014841688842,0.0009508687016994751,-0.00033892015645336983,-0.0002520626082244361,7.03883755514208e-05,-0.0014441133042406573,0.0,0.0,0.0,0.0,0.0,0.0,0.0,-7.483018412324238e-05,-0.0001577492431223959,-6.120625915162492e-05,-7.554044963287154e-05,1.3060575338785796e-05,-0.00012455029670555007,-4.9308494294297844e-06,-0.00024756674989008553,-0.0010633014841688842,-0.0009508687016994751,0.00033892015645336983,0.0002520626082244361,-7.03883755514208e-05,0.0014441133042406573,0.8592159152030945,46.59957504272461,5.711269855499268,-19.511445999145508,-0.7784934639930725,-2.3852572441101074,0.15231649577617645,0
8,0.03495669364929199,-0.8592159152030945,-46.59957504272461,-5.711269855499268,19.511445999145508,0.7784934639930725,2.3852572441101074,-0.15231649577617645,0.0,0.0,0.0,0.0,0.0,0.0,0.0,-0.8233710310142067,-0.2164683118085309,-0.5137290133737245,0.2867421438309507,0.18471004421989629,0.11455836337645406,-0.1910391628283934,0.8781677062545472,0.7556174986740632,-0.2824940589101691,-1.6690238210110806,0.14140553494189181,2.403569667664344,1.0273430310802336,0.878092876070424,0.7554597494309409,-0.2825552651693207,-1.6690993614607135,0.1414185955172306,2.4034451173676383,1.0273381002308042,0.00024756674989008553,0.0010633014841688842,0.0009508687016994751,-0.00033892015645336983,-0.0002520626082244361,7.03883755514208e-05,-0.0014441133042406573,0.0,0.0,0.0,0.0,0.0,0.0,0.0,-7.483018412324238e-05,-0.0001577492431223959,-6.120625915162492e-05,-7.554044963287154e-05,1.3060575338785796e-05,-0.00012455029670555007,-4.9308494294297844e-06,-0.00024756674989008553,-0.0010633014841688842,-0.0009508687016994751,0.00033892015645336983,0.0002520626082244361,-7.03883755514208e-05,0.0014441133042406573,0.8592159152030945,46.59957504272461,5.711269855499268,-19.511445999145508,-0.7784934639930725,-2.3852572441101074,0.15231649577617645,0
9,0.039971351623535156,-0.9107906222343445,-46.52419662475586,-5.735073566436768,19.511445999145508,0.7784934639930725,2.3916659355163574,-0.21457235515117645,0.0,0.0,0.0,0.0,0.0,0.0,0.0,-0.819343174956828,-0.21457369211263355,-0.5080948918436549,0.28648314361761446,0.18464044933494134,0.11498539392884677,-0.19010798593699219,0.8781690664001215,0.755612206345045,-0.28249238847431385,-1.6690237396113363,0.14140868566624107,2.403569675019117,1.0273499498878302,0.878092876070424,0.7554597494309409,-0.2825552651693207,-1.6690993614607135,0.1414185955172306,2.4034451173676383,1.0273381002308042,0.001643486111532586,-0.00025640214874761663,0.0009500927812875092,-0.0003798127711943852,-0.00033735383234732256,-0.0002784826523551995,0.0007503622074363531,0.0,0.0,0.0,0.0,0.0,0.0,0.0,-7.619032969752304e-05,-0.00015245691410414874,-6.287669500687487e-05,-7.562184937714989e-05,9.909850989531233e-06,-0.00012455765147878495,-1.1849657026052896e-05,-0.001643486111532586,0.00025640214874761663,-0.0009500927812875092,0.0003798127711943852,0.00033735383234732256,0.0002784826523551995,-0.0007503622074363531,0.9107906222343445,46.52419662475586,5.735073566436768,-19.511445999145508,-0.7784934639930725,-2.3916659355163574,0.21457235515117645,0
10,0.04493236541748047,-0.9107906222343445,-46.52419662475586,-5.735073566436768,19.511445999145508,0.7784934639930725,2.3916659355163574,-0.21457235515117645,0.0,0.0,0.0,0.0,0.0,0.0,0.0,-0.819343174956828,-0.21457369211263355,-0.5080948918436549,0.28648314361761446,0.18464044933494134,0.11498539392884677,-0.19010798593699219,0.8781690664001215,0.755612206345045,-0.28249238847431385,-1.6690237396113363,0.14140868566624107,2.403569675019117,1.0273499498878302,0.878092876070424,0.7554597494309409,-0.2825552651693207,-1.6690993614607135,0.1414185955172306,2.4034451173676383,1.0273381002308042,0.001643486111532586,-0.00025640214874761663,0.0009500927812875092,-0.0003798127711943852,-0.00033735383234732256,-0.0002784826523551995,0.0007503622074363531,0.0,0.0,0.0,0.0,0.0,0.0,0.0,-7.619032969752304e-05,-0.00015245691410414874,-6.287669500687487e-05,-7.562184937714989e-05,9.909850989531233e-06,-0.00012455765147878495,-1.1849657026052896e-05,-0.001643486111532586,0.00025640214874761663,-0.0009500927812875092,0.0003798127711943852,0.00033735383234732256,0.0002784826523551995,-0.0007503622074363531,0.9107906222343445,46.52419662475586,5.735073566436768,-19.511445999145508,-0.7784934639930725,-2.3916659355163574,0.21457235515117645,0
11,0.049967050552368164,-0.8354122042655945,-46.59957504272461,-5.687466144561768,19.511445999145508,0.7730002999305725,2.3788485527038574,-0.17337362468242645,0.0,0.0,0.0,0.0,0.0,0.0,0.0,-0.8200129008236055,-0.22943623149519612,-0.509254614573186,0.2953931383693889,0.18485993575706164,0.11623799354363157,-0.18972745227611396,0.8781646330814061,0.7556174967005566,-0.28249572934602435,-1.6690237385933917,0.1414082371363482,2.4035703816075196,1.0273453707612308,0.878092876070424,0.7554597494309409,-0.2825552651693207,-1.6690993614607135,0.1414185955172306,2.4034451173676383,1.0273381002308042,-0.00026125538499610954,0.000889741575172755,-9.675924552016137e-05,-0.0003544011167621466,-0.00023305375038222388,3.0457457085767107e-05,-0.0006894644411297746,0.0,0.0,0.0,0.0,0.0,0.0,0.0,-7.175701098216525e-05,-0.0001577472696157045,-5.953582329637497e-05,-7.562286732176737e-05,1.0358380882397045e-05,-0.0001252642398812398,-7.270530426595201e-06,0.00026125538499610954,-0.000889741575172755,9.675924552016137e-05,0.0003544011167621466,0.00023305375038222388,-3.0457457085767107e-05,0.0006894644411297746,0.8354122042655945,46.59957504272461,5.687466144561768,-19.511445999145508,-0.7730002999305725,-2.3788485527038574,0.17337362468242645,0
12,0.05491971969604492,-0.8354122042655945,-46.59957504272461,-5.687466144561768,19.511445999145508,0.7730002999305725,2.3788485527038574,-0.17337362468242645,0.0,0.0,0.0,0.0,0.0,0.0,0.0,-0.8200129008236055,-0.22943623149519612,-0.509254614573186,0.2953931383693889,0.18485993575706164,0.11623799354363157,-0.18972745227611396,0.8781646330814061,0.7556174967005566,-0.28249572934602435,-1.6690237385933917,0.1414082371363482,2.4035703816075196,1.0273453707612308,0.878092876070424,0.7554597494309409,-0.2825552651693207,-1.6690993614607135,0.1414185955172306,2.4034451173676383,1.0273381002308042,-0.00026125538499610954,0.000889741575172755,-9.675924552016137e-05,-0.0003544011167621466,-0.00023305375038222388,3.0457457085767107e-05,-0.0006894644411297746,0.0,0.0,0.0,0.0,0.0,0.0,0.0,-7.175701098216525e-05,-0.0001577472696157045,-5.953582329637497e-05,-7.562286732176737e-05,1.0358380882397045e-05,-0.0001252642398812398,-7.270530426595201e-06,0.00026125538499610954,-0.000889741575172755,9.675924552016137e-05,0.0003544011167621466,0.00023305375038222388,-3.0457457085767107e-05,0.0006894644411297746,0.8354122042655945,46.59957504272461,5.687466144561768,-19.511445999145508,-0.7730002999305725,-2.3788485527038574,0.17337362468242645,0
13,0.05996441841125488,-0.8354122042655945,-46.57577133178711,-5.635891437530518,19.511445999145508,0.7665916085243225,2.3852572441101074,-0.17337362468242645,0.0,0.0,0.0,0.0,0.0,0.0,0.0,-0.8215139252793991,-0.20884738738673786,-0.5068163658553452,0.2834843391220061,0.18424829563784334,0.11409598826467278,-0.18982527365350402,0.8781637748953706,0.7556158253017278,-0.2824993486237108,-1.6690237389325477,0.14140551820732133,2.4035728465568016,1.0273453707612223,0.878092876070424,0.7554597494309409,-0.2825552651693207,-1.6690993614607135,0.1414185955172306,2.4034451173676383,1.0273381002308042,5.655620871412216e-05,0.0006917395084210086,-0.001321285081460314,-0.0009139462045067681,5.916646244566964e-05,-0.00020499397464583802,-0.0005807716370497645,0.0,0.0,0.0,0.0,0.0,0.0,0.0,-7.089882494659694e-05,-0.0001560758707869203,-5.591654560993531e-05,-7.562252816573078e-05,1.3077309909265145e-05,-0.00012772918916326148,-7.270530418157506e-06,-5.655620871412216e-05,-0.0006917395084210086,0.001321285081460314,0.0009139462045067681,-5.916646244566964e-05,0.00020499397464583802,0.0005807716370497645,0.8354122042655945,46.57577133178711,5.635891437530518,-19.511445999145508,-0.7665916085243225,-2.3852572441101074,0.17337362468242645,0
14,0.06496763229370117,-0.8354122042655945,-46.57577133178711,-5.635891437530518,19.511445999145508,0.7665916085243225,2.3852572441101074,-0.17337362468242645,0.0,0.0,0.0,0.0,0.0,0.0,0.0,-0.8215139252793991,-0.20884738738673786,-0.5068163658553452,0.2834843391220061,0.18424829563784334,0.11409598826467278,-0.18982527365350402,0.8781637748953706,0.7556158253017278,-0.2824993486237108,-1.6690237389325477,0.14140551820732133,2.4035728465568016,1.0273453707612223,0.878092876070424,0.7554597494309409,-0.2825552651693207,-1.6690993614607135,0.1414185955172306,2.4034451173676383,1.0273381002308042,5.655620871412216e-05,0.0006917395084210086,-0.001321285081460314,-0.0009139462045067681,5.916646244566964e-05,-0.00020499397464583802,-0.0005807716370497645,0.0,0.0,0.0,0.0,0.0,0.0,0.0,-7.089882494659694e-05,-0.0001560758707869203,-5.591654560993531e-05,-7.562252816573078e-05,1.3077309909265145e-05,-0.00012772918916326148,-7.270530418157506e-06,-5.655620871412216e-05,-0.0006917395084210086,0.001321285081460314,0.0009139462045067681,-5.916646244566964e-05,0.00020499397464583802,0.0005807716370497645,0.8354122042655945,46.57577133178711,5.635891437530518,-19.511445999145508,-0.7665916085243225,-2.3852572441101074,0.17337362468242645,0
15,0.06996798515319824,-0.8354122042655945,-46.54800033569336,-5.663662433624268,19.511445999145508,0.7665916085243225,2.3788485527038574,-0.22098104655742645,0.0,0.0,0.0,0.0,0.0,0.0,0.0,-0.8213260964662339,-0.22789199163931642,-0.5088610785392069,0.29254688778213545,0.18404997563255168,0.11537154272028988,-0.18907653164175095,0.8781660968421596,0.7556139544610313,-0.2824973997818796,-1.669023738593388,0.14140969168097475,2.4035700264706263,1.027350660474764,0.878092876070424,0.7554597494309409,-0.2825552651693207,-1.6690993614607135,0.1414185955172306,2.4034451173676383,1.0273381002308042,0.0007797260120317313,-0.0003900208465711093,-0.0004308059129243441,-0.0006921702131722056,0.00014792830567172076,0.0002398327334244789,0.0016301242409557176,0.0,0.0,0.0,0.0,0.0,0.0,0.0,-7.322077173566033e-05,-0.0001542050300904485,-5.7865387441125016e-05,-7.562286732554213e-05,8.903836255846898e-06,-0.0001249091029880134,-1.2560243959791606e-05,-0.0007797260120317313,0.0003900208465711093,0.0004308059129243441,0.0006921702131722056,-0.00014792830567172076,-0.0002398327334244789,-0.0016301242409557176,0.8354122042655945,46.54800033569336,5.663662433624268,-19.511445999145508,-0.7665916085243225,-2.3788485527038574,0.22098104655742645,0
16,0.07491326332092285,-0.8354122042655945,-46.54800033569336,-5.663662433624268,19.511445999145508,0.7665916085243225,2.3788485527038574,-0.22098104655742645,0.0,0.0,0.0,0.0,0.0,0.0,0.0,-0.8213260964662339,-0.22789199163931642,-0.5088610785392069,0.29254688778213545,0.18404997563255168,0.11537154272028988,-0.18907653164175095,0.8781660968421596,0.7556139544610313,-0.2824973997818796,-1.669023738593388,0.14140969168097475,2.4035700264706263,1.027350660474764,0.878092876070424,0.7554597494309409,-0.2825552651693207,-1.6690993614607135,0.1414185955172306,2.4034451173676383,1.0273381002308042,0.0007797260120317313,-0.0003900208465711093,-0.0004308059129243441,-0.0006921702131722056,0.00014792830567172076,0.0002398327334244789,0.0016301242409557176,0.0,0.0,0.0,0.0,0.0,0.0,0.0,-7.322077173566033e-05,-0.0001542050300904485,-5.7865387441125016e-05,-7.562286732554213e-05,8.903836255846898e-06,-0.0001249091029880134,-1.2560243959791606e-05,-0.0007797260120317313,0.0003900208465711093,0.0004308059129243441,0.0006921702131722056,-0.00014792830567172076,-0.0002398327334244789,-0.0016301242409557176,0.8354122042655945,46.54800033569336,5.663662433624268,-19.511445999145508,-0.7665916085243225,-2.3788485527038574,0.22098104655742645,0
17,0.07991600036621094,-0.7560665011405945,-46.57577133178711,-5.663662433624268,19.535249710083008,0.7730002999305725,2.3724398612976074,-0.20724813640117645,0.0,0.0,0.0,0.0,0.0,0.0,0.0,-0.8072739253945128,-0.22064896931621583,-0.49874161339727774,0.28919922369688744,0.1834876934506773,0.115124925442461,-0.1892081853564108,0.8781581104864122,0.7556158262651398,-0.2824973997818796,-1.6690254100467263,0.14140786424088286,2.4035707923627045,1.0273491345958576,0.878092876070424,0.7554597494309409,-0.2825552651693207,-1.6690993614607135,0.1414185955172306,2.4034451173676383,1.0273381002308042,-0.0005950133994821912,0.0005103142117345798,0.0002311239685252222,-0.0009612087332086246,-0.00019293201959116196,0.00036729468773068886,0.0006045107946640492,0.0,0.0,0.0,0.0,0.0,0.0,0.0,-6.523441598826896e-05,-0.00015607683419893714,-5.7865387441125016e-05,-7.395141398713889e-05,1.0731276347736296e-05,-0.00012567499506621616,-1.1034365053452788e-05,0.0005950133994821912,-0.0005103142117345798,-0.0002311239685252222,0.0009612087332086246,0.00019293201959116196,-0.00036729468773068886,-0.0006045107946640492,0.7560665011405945,46.57577133178711,5.663662433624268,-19.535249710083008,-0.7730002999305725,-2.3724398612976074,0.20724813640117645,0
18,0.08496522903442383,-0.7560665011405945,-46.57577133178711,-5.663662433624268,19.535249710083008,0.7730002999305725,2.3724398612976074,-0.20724813640117645,0.0,0.0,0.0,0.0,0.0,0.0,0.0,-0.8072739253945128,-0.22064896931621583,-0.49874161339727774,0.28919922369688744,0.1834876934506773,0.115124925442461,-0.1892081853564108,0.8781581104864122,0.7556158262651398,-0.2824973997818796,-1.6690254100467263,0.14140786424088286,2.4035707923627045,1.0273491345958576,0.878092876070424,0.7554597494309409,-0.2825552651693207,-1.6690993614607135,0.1414185955172306,2.4034451173676383,1.0273381002308042,-0.0005950133994821912,0.0005103142117345798,0.0002311239685252222,-0.0009612087332086246,-0.00019293201959116196,0.00036729468773068886,0.0006045107946640492,0.0,0.0,0.0,0.0,0.0,0.0,0.0,-6.523441598826896e-05,-0.00015607683419893714,-5.7865387441125016e-05,-7.395141398713889e-05,1.0731276347736296e-05,-0.00012567499506621616,-1.1034365053452788e-05,0.0005950133994821912,-0.0005103142117345798,-0.0002311239685252222,0.0009612087332086246,0.00019293201959116196,-0.00036729468773068886,-0.0006045107946640492,0.7560665011405945,46.57577133178711,5.663662433624268,-19.535249710083008,-0.7730002999305725,-2.3724398612976074,0.20724813640117645,0
19,0.08996343612670898,-0.8076412081718445,-46.54800033569336,-5.663662433624268,19.535249710083008,0.7610984444618225,2.3724398612976074,-0.16604940593242645,0.0,0.0,0.0,0.0,0.0,0.0,0.0,-0.8231115920174721,-0.23215651254184344,-0.51473979700012,0.29245057026362004,0.18404193968543509,0.11576417813386058,-0.18917891649496352,0.878161825941154,0.755614110463317,-0.2824973997818796,-1.6690254120817023,0.14140741508047452,2.4035707386893197,1.027344556959139,0.878092876070424,0.7554597494309409,-0.2825552651693207,-1.6690993614607135,0.1414185955172306,2.4034451173676383,1.0273381002308042,0.0002565731460657312,-0.0005408837563138489,-0.0007620450510973185,-0.0006049736364622286,0.00047738050771788527,0.00045912297106565894,-0.00084961502909558,0.0,0.0,0.0,0.0,0.0,0.0,0.0,-6.894987073002845e-05,-0.00015436103237609355,-5.7865387441125016e-05,-7.394937901117338e-05,1.1180436756075274e-05,-0.00012562132168136841,-6.456728334880424e-06,-0.0002565731460657312,0.0005408837563138489,0.0007620450510973185,0.0006049736364622286,-0.00047738050771788527,-0.00045912297106565894,0.00084961502909558,0.8076412081718445,46.54800033569336,5.663662433624268,-19.535249710083008,-0.7610984444618225,-2.3724398612976074,0.16604940593242645,0
20,0.0949709415435791,-0.8076412081718445,-46.54800033569336,-5.663662433624268,19.535249710083008,0.7610984444618225,2.3724398612976074,-0.16604940593242645,0.0,0.0,0.0,0.0,0.0,0.0,0.0,-0.8231115920174721,-0.23215651254184344,-0.51473979700012,0.29245057026362004,0.18404193968543509,0.11576417813386058,-0.18917891649496352,0.878161825941154,0.755614110463317,-0.2824973997818796,-1.6690254120817023,0.14140741508047452,2.4035707386893197,1.027344556959139,0.878092876070424,0.7554597494309409,-0.2825552651693207,-1.6690993614607135,0.1414185955172306,2.4034451173676383,1.0273381002308042,0.0002565731460657312,-0.0005408837563138489,-0.0007620450510973185,-0.0006049736364622286,0.00047738050771788527,0.00045912297106565894,-0.00084961502909558,0.0,0.0,0.0,0.0,0.0,0.0,0.0,-6.894987073002845e-05,-0.00015436103237609355,-5.7865387441125016e-05,-7.394937901117338e-05,1.1180436756075274e-05,-0.00012562132168136841,-6.456728334880424e-06,-0.0002565731460657312,0.0005408837563138489,0.0007620450510973185,0.0006049736364622286,-0.00047738050771788527,-0.00045912297106565894,0.00084961502909558,0.8076412081718445,46.54800033569336,5.663662433624268,-19.535249710083008,-0.7610984444618225,-2.3724398612976074,0.16604940593242645,0
21,0.09998226165771484,-0.8076412081718445,-46.57577133178711,-5.687466144561768,19.511445999145508,0.7665916085243225,2.3788485527038574,-0.20724813640117645,0.0,0.0,0.0,0.0,0.0,0.0,0.0,-0.8150702903137502,-0.22732792480659697,-0.5104215102628404,0.2900187827946678,0.18414931298105308,0.1155348217302119,-0.18912089627656087,0.8781619589395255,0.7556158253030434,-0.28249572934602435,-1.669023821122756,0.14140893056390494,2.403570026450688,1.0273491345958576,0.878092876070424,0.7554597494309409,-0.2825552651693207,-1.6690993614607135,0.1414185955172306,2.4034451173676383,1.0273381002308042,0.00011309209495396079,0.00021467117652615057,8.095090880230933e-05,-0.0005135349787155586,7.560237930847437e-05,-0.00015445884806913676,0.000894143711808412,0.0,0.0,0.0,0.0,0.0,0.0,0.0,-6.908286910156658e-05,-0.0001560758721025346,-5.953582329637497e-05,-7.55403379575359e-05,9.664953325660974e-06,-0.00012490908304974013,-1.1034365053452788e-05,-0.00011309209495396079,-0.00021467117652615057,-8.095090880230933e-05,0.0005135349787155586,-7.560237930847437e-05,0.00015445884806913676,-0.000894143711808412,0.8076412081718445,46.57577133178711,5.687466144561768,-19.511445999145508,-0.7665916085243225,-2.3788485527038574,0.20724813640117645,0
22,0.10496354103088379,-0.8076412081718445,-46.57577133178711,-5.687466144561768,19.511445999145508,0.7665916085243225,2.3788485527038574,-0.20724813640117645,0.0,0.0,0.0,0.0,0.0,0.0,0.0,-0.8150702903137502,-0.22732792480659697,-0.5104215102628404,0.2900187827946678,0.18414931298105308,0.1155348217302119,-0.18912089627656087,0.8781619589395255,0.7556158253030434,-0.28249572934602435,-1.669023821122756,0.14140893056390494,2.403570026450688,1.0273491345958576,0.878092876070424,0.7554597494309409,-0.2825552651693207,-1.6690993614607135,0.1414185955172306,2.4034451173676383,1.0273381002308042,0.00011309209495396079,0.00021467117652615057,8.095090880230933e-05,-0.0005135349787155586,7.560237930847437e-05,-0.00015445884806913676,0.000894143711808412,0.0,0.0,0.0,0.0,0.0,0.0,0.0,-6.908286910156658e-05,-0.0001560758721025346,-5.953582329637497e-05,-7.55403379575359e-05,9.664953325660974e-06,-0.00012490908304974013,-1.1034365053452788e-05,-0.00011309209495396079,-0.00021467117652615057,-8.095090880230933e-05,0.0005135349787155586,-7.560237930847437e-05,0.00015445884806913676,-0.000894143711808412,0.8076412081718445,46.57577133178711,5.687466144561768,-19.511445999145508,-0.7665916085243225,-2.3788485527038574,0.20724813640117645,0
23,0.10496354103088379,-0.8076412081718445,-46.57577133178711,-5.687466144561768,19.511445999145508,0.7665916085243225,2.3788485527038574,-0.20724813640117645,0.0,0.0,0.0,0.0,0.0,0.0,0.0,-0.8150702903137502,-0.22732792480659697,-0.5104215102628404,0.2900187827946678,0.18414931298105308,0.1155348217302119,-0.18912089627656087,0.8781619589395255,0.7556158253030434,-0.28249572934602435,-1.669023821122756,0.14140893056390494,2.403570026450688,1.0273491345958576,0.878092876070424,0.7554597494309409,-0.2825552651693207,-1.6690993614607135,0.1414185955172306,2.4034451173676383,1.0273381002308042,0.00011309209495396079,0.00021467117652615057,8.095090880230933e-05,-0.0005135349787155586,7.560237930847437e-05,-0.00015445884806913676,0.000894143711808412,0.0,0.0,0.0,0.0,0.0,0.0,0.0,-6.908286910156658e-05,-0.0001560758721025346,-5.953582329637497e-05,-7.55403379575359e-05,9.664953325660974e-06,-0.00012490908304974013,-1.1034365053452788e-05,-0.00011309209495396079,-0.00021467117652615057,-8.095090880230933e-05,0.0005135349787155586,-7.560237930847437e-05,0.00015445884806913676,-0.000894143711808412,0.8076412081718445,46.57577133178711,5.687466144561768,-19.511445999145508,-0.7665916085243225,-2.3788485527038574,0.20724813640117645,0
24,0.11496758460998535,-0.8076412081718445,-46.57577133178711,-5.687466144561768,19.511445999145508,0.7665916085243225,2.3788485527038574,-0.20724813640117645,0.0,0.0,0.0,0.0,0.0,0.0,0.0,-0.8150702903137502,-0.22732792480659697,-0.5104215102628404,0.2900187827946678,0.18414931298105308,0.1155348217302119,-0.18912089627656087,0.8781619589395255,0.7556158253030434,-0.28249572934602435,-1.669023821122756,0.14140893056390494,2.403570026450688,1.0273491345958576,0.878092876070424,0.7554597494309409,-0.2825552651693207,-1.6690993614607135,0.1414185955172306,2.4034451173676383,1.0273381002308042,0.00011309209495396079,0.00021467117652615057,8.095090880230933e-05,-0.0005135349787155586,7.560237930847437e-05,-0.00015445884806913676,0.000894143711808412,0.0,0.0,0.0,0.0,0.0,0.0,0.0,-6.908286910156658e-05,-0.0001560758721025346,-5.953582329637497e-05,-7.55403379575359e-05,9.664953325660974e-06,-0.00012490908304974013,-1.1034365053452788e-05,-0.00011309209495396079,-0.00021467117652615057,-8.095090880230933e-05,0.0005135349787155586,-7.560237930847437e-05,0.00015445884806913676,-0.000894143711808412,0.8076412081718445,46.57577133178711,5.687466144561768,-19.511445999145508,-0.7665916085243225,-2.3788485527038574,0.20724813640117645,0
25,0.119964599609375,-0.8076412081718445,-46.57577133178711,-5.687466144561768,19.511445999145508,0.7665916085243225,2.3788485527038574,-0.20724813640117645,0.0,0.0,0.0,0.0,0.0,0.0,0.0,-0.8150702903137502,-0.22732792480659697,-0.5104215102628404,0.2900187827946678,0.18414931298105308,0.1155348217302119,-0.18912089627656087,0.8781619589395255,0.7556158253030434,-0.28249572934602435,-1.669023821122756,0.14140893056390494,2.403570026450688,1.0273491345958576,0.878092876070424,0.7554597494309409,-0.2825552651693207,-1.6690993614607135,0.1414185955172306,2.4034451173676383,1.0273381002308042,0.00011309209495396079,0.00021467117652615057,8.095090880230933e-05,-0.0005135349787155586,7.560237930847437e-05,-0.00015445884806913676,0.000894143711808412,0.0,0.0,0.0,0.0,0.0,0.0,0.0,-6.908286910156658e-05,-0.0001560758721025346,-5.953582329637497e-05,-7.55403379575359e-05,9.664953325660974e-06,-0.00012490908304974013,-1.1034365053452788e-05,-0.00011309209495396079,-0.00021467117652615057,-8.095090880230933e-05,0.0005135349787155586,-7.560237930847437e-05,0.00015445884806913676,-0.000894143711808412,0.8076412081718445,46.57577133178711,5.687466144561768,-19.511445999145508,-0.7665916085243225,-2.3788485527038574,0.20724813640117645,0
26,0.12497973442077637,-0.8076412081718445,-46.57577133178711,-5.687466144561768,19.511445999145508,0.7665916085243225,2.3788485527038574,-0.20724813640117645,0.0,0.0,0.0,0.0,0.0,0.0,0.0,-0.8150702903137502,-0.22732792480659697,-0.5104215102628404,0.2900187827946678,0.18414931298105308,0.1155348217302119,-0.18912089627656087,0.8781619589395255,0.7556158253030434,-0.28249572934602435,-1.669023821122756,0.14140893056390494,2.403570026450688,1.0273491345958576,0.878092876070424,0.7554597494309409,-0.2825552651693207,-1.6690993614607135,0.1414185955172306,2.4034451173676383,1.0273381002308042,0.00011309209495396079,0.00021467117652615057,8.095090880230933e-05,-0.0005135349787155586,7.560237930847437e-05,-0.00015445884806913676,0.000894143711808412,0.0,0.0,0.0,0.0,0.0,0.0,0.0,-6.908286910156658e-05,-0.0001560758721025346,-5.953582329637497e-05,-7.55403379575359e-05,9.664953325660974e-06,-0.00012490908304974013,-1.1034365053452788e-05,-0.00011309209495396079,-0.00021467117652615057,-8.095090880230933e-05,0.0005135349787155586,-7.560237930847437e-05,0.00015445884806913676,-0.000894143711808412,0.8076412081718445,46.57577133178711,5.687466144561768,-19.511445999145508,-0.7665916085243225,-2.3788485527038574,0.20724813640117645,0
27,0.12996459007263184,-0.8076412081718445,-46.57577133178711,-5.687466144561768,19.511445999145508,0.7665916085243225,2.3788485527038574,-0.20724813640117645,0.0,0.0,0.0,0.0,0.0,0.0,0.0,-0.8150702903137502,-0.22732792480659697,-0.5104215102628404,0.2900187827946678,0.18414931298105308,0.1155348217302119,-0.18912089627656087,0.8781619589395255,0.7556158253030434,-0.28249572934602435,-1.669023821122756,0.14140893056390494,2.403570026450688,1.0273491345958576,0.878092876070424,0.7554597494309409,-0.2825552651693207,-1.6690993614607135,0.1414185955172306,2.4034451173676383,1.0273381002308042,0.00011309209495396079,0.00021467117652615057,8.095090880230933e-05,-0.0005135349787155586,7.560237930847437e-05,-0.00015445884806913676,0.000894143711808412,0.0,0.0,0.0,0.0,0.0,0.0,0.0,-6.908286910156658e-05,-0.0001560758721025346,-5.953582329637497e-05,-7.55403379575359e-05,9.664953325660974e-06,-0.00012490908304974013,-1.1034365053452788e-05,-0.00011309209495396079,-0.00021467117652615057,-8.095090880230933e-05,0.0005135349787155586,-7.560237930847437e-05,0.00015445884806913676,-0.000894143711808412,0.8076412081718445,46.57577133178711,5.687466144561768,-19.511445999145508,-0.7665916085243225,-2.3788485527038574,0.20724813640117645,0
28,0.13498592376708984,-0.8076412081718445,-46.54800033569336,-5.687466144561768,19.459871292114258,0.7610984444618225,2.3788485527038574,-0.22098104655742645,0.0,0.0,0.0,0.0,0.0,0.0,0.0,-0.8182773304986527,-0.21658158502586078,-0.5127838918531696,0.2853573256467912,0.1840689156084701,0.11524710656340664,-0.1883035543835258,0.8781638271184038,0.7556139024602713,-0.28249572934602435,-1.6690203665645964,0.14141030159984308,2.403570039694153,1.027350660474764,0.878092876070424,0.7554597494309409,-0.2825552651693207,-1.6690993614607135,0.1414185955172306,2.4034451173676383,1.0273381002308042,-0.00037652035375455357,0.0002278035461715491,0.0002558618900933945,0.0006990906635786938,0.00042947891636948524,4.060309544581647e-05,0.0008461385056599715,0.0,0.0,0.0,0.0,0.0,0.0,0.0,-7.09510479798281e-05,-0.0001541530293304172,-5.953582329637497e-05,-7.899489611706834e-05,8.293917387519611e-06,-0.00012492232651473145,-1.2560243959791606e-05,0.00037652035375455357,-0.0002278035461715491,-0.0002558618900933945,-0.0006990906635786938,-0.00042947891636948524,-4.060309544581647e-05,-0.0008461385056599715,0.8076412081718445,46.54800033569336,5.687466144561768,-19.459871292114258,-0.7610984444618225,-2.3788485527038574,0.22098104655742645,0
29,0.13996291160583496,-0.8076412081718445,-46.54800033569336,-5.687466144561768,19.459871292114258,0.7610984444618225,2.3788485527038574,-0.22098104655742645,0.0,0.0,0.0,0.0,0.0,0.0,0.0,-0.8182773304986527,-0.21658158502586078,-0.5127838918531696,0.2853573256467912,0.1840689156084701,0.11524710656340664,-0.1883035543835258,0.8781638271184038,0.7556139024602713,-0.28249572934602435,-1.6690203665645964,0.14141030159984308,2.403570039694153,1.027350660474764,0.878092876070424,0.7554597494309409,-0.2825552651693207,-1.6690993614607135,0.1414185955172306,2.4034451173676383,1.0273381002308042,-0.00037652035375455357,0.0002278035461715491,0.0002558618900933945,0.0006990906635786938,0.00042947891636948524,4.060309544581647e-05,0.0008461385056599715,0.0,0.0,0.0,0.0,0.0,0.0,0.0,-7.09510479798281e-05,-0.0001541530293304172,-5.953582329637497e-05,-7.899489611706834e-05,8.293917387519611e-06,-0.00012492232651473145,-1.2560243959791606e-05,0.00037652035375455357,-0.0002278035461715491,-0.0002558618900933945,-0.0006990906635786938,-0.00042947891636948524,-4.060309544581647e-05,-0.0008461385056599715,0.8076412081718445,46.54800033569336,5.687466144561768,-19.459871292114258,-0.7610984444618225,-2.3788485527038574,0.22098104655742645,0
30,0.14492082595825195,-0.8354122042655945,-46.57577133178711,-5.735073566436768,19.511445999145508,0.7784934639930725,2.3852572441101074,-0.14590780436992645,0.0,0.0,0.0,0.0,0.0,0.0,0.0,-0.8214355967127285,-0.23916317621495034,-0.5164259726389847,0.2993966455775997,0.18442623743127587,0.11686434278384779,-0.18910821798335375,0.8781643804717159,0.7556158253018692,-0.28249238847431385,-1.6690237385947817,0.14140777005409497,2.4035703871478553,1.0273423190034099,0.878092876070424,0.7554597494309409,-0.2825552651693207,-1.6690993614607135,0.1414185955172306,2.4034451173676383,1.0273381002308042,0.00022936114632597792,0.00041998093211091024,0.0009347592373824872,0.00022046641742226104,-0.0003379767453142981,-0.00033091420200046835,-0.0016239933220805675,0.0,0.0,0.0,0.0,0.0,0.0,0.0,-7.150440129188862e-05,-0.00015607587092836273,-6.287669500687487e-05,-7.562286593176815e-05,1.082546313563304e-05,-0.00012526978021698554,-4.218772605701915e-06,-0.00022936114632597792,-0.00041998093211091024,-0.0009347592373824872,-0.00022046641742226104,0.0003379767453142981,0.00033091420200046835,0.0016239933220805675,0.8354122042655945,46.57577133178711,5.735073566436768,-19.511445999145508,-0.7784934639930725,-2.3852572441101074,0.14590780436992645,0
31,0.1500091552734375,-0.8354122042655945,-46.57577133178711,-5.735073566436768,19.511445999145508,0.7784934639930725,2.3852572441101074,-0.14590780436992645,0.0,0.0,0.0,0.0,0.0,0.0,0.0,-0.8214355967127285,-0.23916317621495034,-0.5164259726389847,0.2993966455775997,0.18442623743127587,0.11686434278384779,-0.18910821798335375,0.8781643804717159,0.7556158253018692,-0.28249238847431385,-1.6690237385947817,0.14140777005409497,2.4035703871478553,1.0273423190034099,0.878092876070424,0.7554597494309409,-0.2825552651693207,-1.6690993614607135,0.1414185955172306,2.4034451173676383,1.0273381002308042,0.00022936114632597792,0.00041998093211091024,0.0009347592373824872,0.00022046641742226104,-0.0003379767453142981,-0.00033091420200046835,-0.0016239933220805675,0.0,0.0,0.0,0.0,0.0,0.0,0.0,-7.150440129188862e-05,-0.00015607587092836273,-6.287669500687487e-05,-7.562286593176815e-05,1.082546313563304e-05,-0.00012526978021698554,-4.218772605701915e-06,-0.00022936114632597792,-0.00041998093211091024,-0.0009347592373824872,-0.00022046641742226104,0.0003379767453142981,0.00033091420200046835,0.0016239933220805675,0.8354122042655945,46.57577133178711,5.735073566436768,-19.511445999145508,-0.7784934639930725,-2.3852572441101074,0.14590780436992645,0
32,0.15569067001342773,-0.8354122042655945,-46.57577133178711,-5.711269855499268,19.487642288208008,0.7610984444618225,2.3788485527038574,-0.19351522624492645,0.0,0.0,0.0,0.0,0.0,0.0,0.0,-0.8148165821148796,-0.21650779452148017,-0.508877420062493,0.290273687597443,0.18407690388652287,0.11444447026274747,-0.18856179048180832,0.8781644498338508,0.7556159033028624,-0.2824940589101691,-1.6690220712099864,0.14141076540213732,2.4035700265105784,1.0273476087169515,0.878092876070424,0.7554597494309409,-0.2825552651693207,-1.6690993614607135,0.1414185955172306,2.4034451173676383,1.0273381002308042,3.1511121061652155e-05,0.0005953925361578014,0.0007715916821667367,1.07243312581864e-05,0.00039813387511397353,0.0003389859009924251,0.0003761967176672942,0.0,0.0,0.0,0.0,0.0,0.0,0.0,-7.157376342681321e-05,-0.0001561538719215827,-6.120625915162492e-05,-7.729025072711337e-05,7.830115093282464e-06,-0.00012490914294005506,-9.508486147336015e-06,-3.1511121061652155e-05,-0.0005953925361578014,-0.0007715916821667367,-1.07243312581864e-05,-0.00039813387511397353,-0.0003389859009924251,-0.0003761967176672942,0.8354122042655945,46.57577133178711,5.711269855499268,-19.487642288208008,-0.7610984444618225,-2.3788485527038574,0.19351522624492645,0
33,0.15998315811157227,-0.8354122042655945,-46.57577133178711,-5.711269855499268,19.487642288208008,0.7610984444618225,2.3788485527038574,-0.19351522624492645,0.0,0.0,0.0,0.0,0.0,0.0,0.0,-0.8148165821148796,-0.21650779452148017,-0.508877420062493,0.290273687597443,0.18407690388652287,0.11444447026274747,-0.18856179048180832,0.8781644498338508,0.7556159033028624,-0.2824940589101691,-1.6690220712099864,0.14141076540213732,2.4035700265105784,1.0273476087169515,0.878092876070424,0.7554597494309409,-0.2825552651693207,-1.6690993614607135,0.1414185955172306,2.4034451173676383,1.0273381002308042,3.1511121061652155e-05,0.0005953925361578014,0.0007715916821667367,1.07243312581864e-05,0.00039813387511397353,0.0003389859009924251,0.0003761967176672942,0.0,0.0,0.0,0.0,0.0,0.0,0.0,-7.157376342681321e-05,-0.0001561538719215827,-6.120625915162492e-05,-7.729025072711337e-05,7.830115093282464e-06,-0.00012490914294005506,-9.508486147336015e-06,-3.1511121061652155e-05,-0.0005953925361578014,-0.0007715916821667367,-1.07243312581864e-05,-0.00039813387511397353,-0.0003389859009924251,-0.0003761967176672942,0.8354122042655945,46.57577133178711,5.711269855499268,-19.487642288208008,-0.7610984444618225,-2.3788485527038574,0.19351522624492645,0
34,0.16496729850769043,-0.8076412081718445,-46.52419662475586,-5.663662433624268,19.511445999145508,0.7784934639930725,2.3788485527038574,-0.17978231608867645,0.0,0.0,0.0,0.0,0.0,0.0,0.0,-0.8211608912532854,-0.22944201427419345,-0.5145125255672061,0.2969002014004889,0.1846956470110685,0.11605478792539192,-0.18790068218266295,0.8781619852290428,0.7556122060244764,-0.2824973997818796,-1.6690237385934032,0.14140514689413936,2.4035700264506876,1.0273460828380452,0.878092876070424,0.7554597494309409,-0.2825552651693207,-1.6690993614607135,0.1414185955172306,2.4034451173676383,1.0273381002308042,-0.0008140439404767064,-0.0010201338527220487,-0.0008506967842332485,-0.0003860299936124507,-0.00028201459228050435,0.00021676586662767593,-0.0006701049872970888,0.0,0.0,0.0,0.0,0.0,0.0,0.0,-6.910915861879641e-05,-0.00015245659353557706,-5.7865387441125016e-05,-7.562286731022105e-05,1.3448623091244505e-05,-0.00012490908304929604,-7.982607240997197e-06,0.0008140439404767064,0.0010201338527220487,0.0008506967842332485,0.0003860299936124507,0.00028201459228050435,-0.00021676586662767593,0.0006701049872970888,0.8076412081718445,46.52419662475586,5.663662433624268,-19.511445999145508,-0.7784934639930725,-2.3788485527038574,0.17978231608867645,0
35,0.16996335983276367,-0.8076412081718445,-46.52419662475586,-5.663662433624268,19.511445999145508,0.7784934639930725,2.3788485527038574,-0.17978231608867645,0.0,0.0,0.0,0.0,0.0,0.0,0.0,-0.8211608912532854,-0.22944201427419345,-0.5145125255672061,0.2969002014004889,0.1846956470110685,0.11605478792539192,-0.18790068218266295,0.8781619852290428,0.7556122060244764,-0.2824973997818796,-1.6690237385934032,0.14140514689413936,2.4035700264506876,1.0273460828380452,0.878092876070424,0.7554597494309409,-0.2825552651693207,-1.6690993614607135,0.1414185955172306,2.4034451173676383,1.0273381002308042,-0.0008140439404767064,-0.0010201338527220487,-0.0008506967842332485,-0.0003860299936124507,-0.00028201459228050435,0.00021676586662767593,-0.0006701049872970888,0.0,0.0,0.0,0.0,0.0,0.0,0.0,-6.910915861879641e-05,-0.00015245659353557706,-5.7865387441125016e-05,-7.562286731022105e-05,1.3448623091244505e-05,-0.00012490908304929604,-7.982607240997197e-06,0.0008140439404767064,0.0010201338527220487,0.0008506967842332485,0.0003860299936124507,0.00028201459228050435,-0.00021676586662767593,0.0006701049872970888,0.8076412081718445,46.52419662475586,5.663662433624268,-19.511445999145508,-0.7784934639930725,-2.3788485527038574,0.17978231608867645,0
36,0.17499589920043945,-0.8592159152030945,-46.52419662475586,-5.711269855499268,19.511445999145508,0.7730002999305725,2.3788485527038574,-0.14590780436992645,0.0,0.0,0.0,0.0,0.0,0.0,0.0,-0.819896718895034,-0.23143098586418695,-0.5142164667809208,0.29663946737613894,0.18546563439875657,0.11654622802606159,-0.1881158574995047,0.8781662849035776,0.7556122146908294,-0.2824940589101691,-1.6690238210096848,0.14140516638559664,2.403570065696544,1.0273423190034099,0.878092876070424,0.7554597494309409,-0.2825552651693207,-1.6690993614607135,0.1414185955172306,2.4034451173676383,1.0273381002308042,0.0007084780244862817,-0.0008694906652282776,7.090664130945476e-05,-0.00043407479894364313,-0.00019273835397024485,1.0065952443092273e-05,-0.0018509134099560065,0.0,0.0,0.0,0.0,0.0,0.0,0.0,-7.340883315365421e-05,-0.00015246525988854565,-6.120625915162492e-05,-7.554045102864393e-05,1.3429131633962976e-05,-0.00012494832890563856,-4.218772605701915e-06,-0.0007084780244862817,0.0008694906652282776,-7.090664130945476e-05,0.00043407479894364313,0.00019273835397024485,-1.0065952443092273e-05,0.0018509134099560065,0.8592159152030945,46.52419662475586,5.711269855499268,-19.511445999145508,-0.7730002999305725,-2.3788485527038574,0.14590780436992645,0
37,0.17997336387634277,-0.8592159152030945,-46.52419662475586,-5.711269855499268,19.511445999145508,0.7730002999305725,2.3788485527038574,-0.14590780436992645,0.0,0.0,0.0,0.0,0.0,0.0,0.0,-0.819896718895034,-0.23143098586418695,-0.5142164667809208,0.29663946737613894,0.18546563439875657,0.11654622802606159,-0.1881158574995047,0.8781662849035776,0.7556122146908294,-0.2824940589101691,-1.6690238210096848,0.14140516638559664,2.403570065696544,1.0273423190034099,0.878092876070424,0.7554597494309409,-0.2825552651693207,-1.6690993614607135,0.1414185955172306,2.4034451173676383,1.0273381002308042,0.0007084780244862817,-0.0008694906652282776,7.090664130945476e-05,-0.00043407479894364313,-0.00019273835397024485,1.0065952443092273e-05,-0.0018509134099560065,0.0,0.0,0.0,0.0,0.0,0.0,0.0,-7.340883315365421e-05,-0.00015246525988854565,-6.120625915162492e-05,-7.554045102864393e-05,1.3429131633962976e-05,-0.00012494832890563856,-4.218772605701915e-06,-0.0007084780244862817,0.0008694906652282776,-7.090664130945476e-05,0.00043407479894364313,0.00019273835397024485,-1.0065952443092273e-05,0.0018509134099560065,0.8592159152030945,46.52419662475586,5.711269855499268,-19.511445999145508,-0.7730002999305725,-2.3788485527038574,0.14590780436992645,0
38,0.18502306938171387,-0.8592159152030945,-46.57577133178711,-5.687466144561768,19.535249710083008,0.7784934639930725,2.3852572441101074,-0.15964071452617645,0.0,0.0,0.0,0.0,0.0,0.0,0.0,-0.8095148928729662,-0.22802831494728348,-0.5088546618767713,0.29553561143519747,0.18525791191892033,0.11656032538367388,-0.1889818469303152,0.8781660547649598,0.7556158281906553,-0.28249572934602435,-1.6690254090292584,0.1414083206548649,2.4035693148603827,1.027343844882316,0.878092876070424,0.7554597494309409,-0.2825552651693207,-1.6690993614607135,0.1414185955172306,2.4034451173676383,1.0273381002308042,0.0007297796941881419,0.0006092151338513903,0.00019532158583623606,-0.0010480470843478782,-0.000278032415189749,2.6696370073417118e-05,-0.0008655354553236008,0.0,0.0,0.0,0.0,0.0,0.0,0.0,-7.317869453582482e-05,-0.00015607875971446195,-5.953582329637497e-05,-7.395243145502661e-05,1.027486236571118e-05,-0.0001241974927443934,-5.744651511818688e-06,-0.0007297796941881419,-0.0006092151338513903,-0.00019532158583623606,0.0010480470843478782,0.000278032415189749,-2.6696370073417118e-05,0.0008655354553236008,0.8592159152030945,46.57577133178711,5.687466144561768,-19.535249710083008,-0.7784934639930725,-2.3852572441101074,0.15964071452617645,0
39,0.18996357917785645,-0.8592159152030945,-46.57577133178711,-5.687466144561768,19.535249710083008,0.7784934639930725,2.3852572441101074,-0.15964071452617645,0.0,0.0,0.0,0.0,0.0,0.0,0.0,-0.8095148928729662,-0.22802831494728348,-0.5088546618767713,0.29553561143519747,0.18525791191892033,0.11656032538367388,-0.1889818469303152,0.8781660547649598,0.7556158281906553,-0.28249572934602435,-1.6690254090292584,0.1414083206548649,2.4035693148603827,1.027343844882316,0.878092876070424,0.7554597494309409,-0.2825552651693207,-1.6690993614607135,0.1414185955172306,2.4034451173676383,1.0273381002308042,0.0007297796941881419,0.0006092151338513903,0.00019532158583623606,-0.0010480470843478782,-0.000278032415189749,2.6696370073417118e-05,-0.0008655354553236008,0.0,0.0,0.0,0.0,0.0,0.0,0.0,-7.317869453582482e-05,-0.00015607875971446195,-5.953582329637497e-05,-7.395243145502661e-05,1.027486236571118e-05,-0.0001241974927443934,-5.744651511818688e-06,-0.0007297796941881419,-0.0006092151338513903,-0.00019532158583623606,0.0010480470843478782,0.000278032415189749,-2.6696370073417118e-05,0.0008655354553236008,0.8592159152030945,46.57577133178711,5.687466144561768,-19.535249710083008,-0.7784934639930725,-2.3852572441101074,0.15964071452617645,0
40,0.1949915885925293,-0.8354122042655945,-46.54800033569336,-5.687466144561768,19.511445999145508,0.7730002999305725,2.3980746269226074,-0.20724813640117645,0.0,0.0,0.0,0.0,0.0,0.0,0.0,-0.832154016165155,-0.22998232743281924,-0.5244521752591609,0.2951303108283724,0.18620306900557235,0.11700411366730529,-0.18842925699245328,0.8781639301115985,0.7556148127945809,-0.28249572934602435,-1.669023738593386,0.1414050877082956,2.4035714225626594,1.0273491345958576,0.878092876070424,0.7554597494309409,-0.2825552651693207,-1.6690993614607135,0.1414185955172306,2.4034451173676383,1.0273381002308042,-3.480741993112797e-05,-5.716968827167657e-05,-5.565885064513488e-05,-0.00018669720544568387,1.7634668629100733e-05,-0.0006953075366416855,0.0006069999812170317,0.0,0.0,0.0,0.0,0.0,0.0,0.0,-7.105404117457859e-05,-0.00015506336364001783,-5.953582329637497e-05,-7.562286732754053e-05,1.3507808934998256e-05,-0.0001263051950211036,-1.1034365053452788e-05,3.480741993112797e-05,5.716968827167657e-05,5.565885064513488e-05,0.00018669720544568387,-1.7634668629100733e-05,0.0006953075366416855,-0.0006069999812170317,0.8354122042655945,46.54800033569336,5.687466144561768,-19.511445999145508,-0.7730002999305725,-2.3980746269226074,0.20724813640117645,0
41,0.19997525215148926,-0.8354122042655945,-46.54800033569336,-5.687466144561768,19.511445999145508,0.7730002999305725,2.3980746269226074,-0.20724813640117645,0.0,0.0,0.0,0.0,0.0,0.0,0.0,-0.832154016165155,-0.22998232743281924,-0.5244521752591609,0.2951303108283724,0.18620306900557235,0.11700411366730529,-0.18842925699245328,0.8781639301115985,0.7556148127945809,-0.28249572934602435,-1.669023738593386,0.1414050877082956,2.4035714225626594,1.0273491345958576,0.878092876070424,0.7554597494309409,-0.2825552651693207,-1.6690993614607135,0.1414185955172306,2.4034451173676383,1.0273381002308042,-3.480741993112797e-05,-5.716968827167657e-05,-5.565885064513488e-05,-0.00018669720544568387,1.7634668629100733e-05,-0.0006953075366416855,0.0006069999812170317,0.0,0.0,0.0,0.0,0.0,0.0,0.0,-7.105404117457859e-05,-0.00015506336364001783,-5.953582329637497e-05,-7.562286732754053e-05,1.3507808934998256e-05,-0.0001263051950211036,-1.1034365053452788e-05,3.480741993112797e-05,5.716968827167657e-05,5.565885064513488e-05,0.00018669720544568387,-1.7634668629100733e-05,0.0006953075366416855,-0.0006069999812170317,0.8354122042655945,46.54800033569336,5.687466144561768,-19.511445999145508,-0.7730002999305725,-2.3980746269226074,0.20724813640117645,0
42,0.20498323440551758,-0.8354122042655945,-46.54800033569336,-5.687466144561768,19.535249710083008,0.7730002999305725,2.3916659355163574,-0.17978231608867645,0.0,0.0,0.0,0.0,0.0,0.0,0.0,-0.8165461940467574,-0.22804044418374722,-0.5130175638690649,0.2962601836662754,0.1863186791953238,0.11727165861485732,-0.1888828930601818,0.8781668017065618,0.7556141104685972,-0.28249572934602435,-1.6690261507759316,0.14140897911971045,2.403568602478487,1.0273460828380452,0.878092876070424,0.7554597494309409,-0.2825552651693207,-1.6690993614607135,0.1414185955172306,2.4034451173676383,1.0273381002308042,0.0004269214610292106,-3.5192352247309166e-05,6.97772225382537e-05,-0.0009790412525669315,2.582655603055128e-05,-0.00014968445935285198,-0.0005957666615798417,0.0,0.0,0.0,0.0,0.0,0.0,0.0,-7.392563613783931e-05,-0.00015436103765631426,-5.953582329637497e-05,-7.321068478183257e-05,9.616397520145759e-06,-0.00012348511084869784,-7.982607240997197e-06,-0.0004269214610292106,3.5192352247309166e-05,-6.97772225382537e-05,0.0009790412525669315,-2.582655603055128e-05,0.00014968445935285198,0.0005957666615798417,0.8354122042655945,46.54800033569336,5.687466144561768,-19.535249710083008,-0.7730002999305725,-2.3916659355163574,0.17978231608867645,0
43,0.20996332168579102,-0.8354122042655945,-46.54800033569336,-5.687466144561768,19.535249710083008,0.7730002999305725,2.3916659355163574,-0.17978231608867645,0.0,0.0,0.0,0.0,0.0,0.0,0.0,-0.8165461940467574,-0.22804044418374722,-0.5130175638690649,0.2962601836662754,0.1863186791953238,0.11727165861485732,-0.1888828930601818,0.8781668017065618,0.7556141104685972,-0.28249572934602435,-1.6690261507759316,0.14140897911971045,2.403568602478487,1.0273460828380452,0.878092876070424,0.7554597494309409,-0.2825552651693207,-1.6690993614607135,0.1414185955172306,2.4034451173676383,1.0273381002308042,0.0004269214610292106,-3.5192352247309166e-05,6.97772225382537e-05,-0.0009790412525669315,2.582655603055128e-05,-0.00014968445935285198,-0.0005957666615798417,0.0,0.0,0.0,0.0,0.0,0.0,0.0,-7.392563613783931e-05,-0.00015436103765631426,-5.953582329637497e-05,-7.321068478183257e-05,9.616397520145759e-06,-0.00012348511084869784,-7.982607240997197e-06,-0.0004269214610292106,3.5192352247309166e-05,-6.97772225382537e-05,0.0009790412525669315,-2.582655603055128e-05,0.00014968445935285198,0.0005957666615798417,0.8354122042655945,46.54800033569336,5.687466144561768,-19.535249710083008,-0.7730002999305725,-2.3916659355163574,0.17978231608867645,0
44,0.2149810791015625,-0.8354122042655945,-46.54800033569336,-5.687466144561768,19.535249710083008,0.7730002999305725,2.3916659355163574,-0.17978231608867645,0.0,0.0,0.0,0.0,0.0,0.0,0.0,-0.8165461940467574,-0.22804044418374722,-0.5130175638690649,0.2962601836662754,0.1863186791953238,0.11727165861485732,-0.1888828930601818,0.8781668017065618,0.7556141104685972,-0.28249572934602435,-1.6690261507759316,0.14140897911971045,2.403568602478487,1.0273460828380452,0.878092876070424,0.7554597494309409,-0.2825552651693207,-1.6690993614607135,0.1414185955172306,2.4034451173676383,1.0273381002308042,0.0004269214610292106,-3.5192352247309166e-05,6.97772225382537e-05,-0.0009790412525669315,2.582655603055128e-05,-0.00014968445935285198,-0.0005957666615798417,0.0,0.0,0.0,0.0,0.0,0.0,0.0,-7.392563613783931e-05,-0.00015436103765631426,-5.953582329637497e-05,-7.321068478183257e-05,9.616397520145759e-06,-0.00012348511084869784,-7.982607240997197e-06,-0.0004269214610292106,3.5192352247309166e-05,-6.97772225382537e-05,0.0009790412525669315,-2.582655603055128e-05,0.00014968445935285198,0.0005957666615798417,0.8354122042655945,46.54800033569336,5.687466144561768,-19.535249710083008,-0.7730002999305725,-2.3916659355163574,0.17978231608867645,0
45,0.21999382972717285,-0.8354122042655945,-46.54800033569336,-5.687466144561768,19.535249710083008,0.7730002999305725,2.3916659355163574,-0.17978231608867645,0.0,0.0,0.0,0.0,0.0,0.0,0.0,-0.8165461940467574,-0.22804044418374722,-0.5130175638690649,0.2962601836662754,0.1863186791953238,0.11727165861485732,-0.1888828930601818,0.8781668017065618,0.7556141104685972,-0.28249572934602435,-1.6690261507759316,0.14140897911971045,2.403568602478487,1.0273460828380452,0.878092876070424,0.7554597494309409,-0.2825552651693207,-1.6690993614607135,0.1414185955172306,2.4034451173676383,1.0273381002308042,0.0004269214610292106,-3.5192352247309166e-05,6.97772225382537e-05,-0.0009790412525669315,2.582655603055128e-05,-0.00014968445935285198,-0.0005957666615798417,0.0,0.0,0.0,0.0,0.0,0.0,0.0,-7.392563613783931e-05,-0.00015436103765631426,-5.953582329637497e-05,-7.321068478183257e-05,9.616397520145759e-06,-0.00012348511084869784,-7.982607240997197e-06,-0.0004269214610292106,3.5192352247309166e-05,-6.97772225382537e-05,0.0009790412525669315,-2.582655603055128e-05,0.00014968445935285198,0.0005957666615798417,0.8354122042655945,46.54800033569336,5.687466144561768,-19.535249710083008,-0.7730002999305725,-2.3916659355163574,0.17978231608867645,0
46,0.22491931915283203,-0.7560665011405945,-46.54800033569336,-5.687466144561768,19.511445999145508,0.7784934639930725,2.3788485527038574,-0.17978231608867645,0.0,0.0,0.0,0.0,0.0,0.0,0.0,-0.8099974264693479,-0.23674655810314826,-0.5118030028260406,0.3002012354675348,0.1866704608875694,0.11856667940746704,-0.18966561415020297,0.8781581045698656,0.7556138764612123,-0.2824957322622095,-1.669023738597573,0.1414074259442433,2.40357051048292,1.0273460828380452,0.878092876070424,0.7554597494309409,-0.2825552651693207,-1.6690993614607135,0.1414185955172306,2.4034451173676383,1.0273381002308042,-0.0007459968421010213,-0.000284762950379011,0.0004007358343026047,2.2436321612182415e-05,-0.00022163334636523301,0.00014405979507194555,-0.00010790546443977839,0.0,0.0,0.0,0.0,0.0,0.0,0.0,-6.522849944168296e-05,-0.0001541270302714004,-5.953290711124826e-05,-7.562286314044542e-05,1.1169572987301812e-05,-0.0001253931152818133,-7.982607240997197e-06,0.0007459968421010213,0.000284762950379011,-0.0004007358343026047,-2.2436321612182415e-05,0.00022163334636523301,-0.00014405979507194555,0.00010790546443977839,0.7560665011405945,46.54800033569336,5.687466144561768,-19.511445999145508,-0.7784934639930725,-2.3788485527038574,0.17978231608867645,0
47,0.22996187210083008,-0.7560665011405945,-46.54800033569336,-5.687466144561768,19.511445999145508,0.7784934639930725,2.3788485527038574,-0.17978231608867645,0.0,0.0,0.0,0.0,0.0,0.0,0.0,-0.8099974264693479,-0.23674655810314826,-0.5118030028260406,0.3002012354675348,0.1866704608875694,0.11856667940746704,-0.18966561415020297,0.8781581045698656,0.7556138764612123,-0.2824957322622095,-1.669023738597573,0.1414074259442433,2.40357051048292,1.0273460828380452,0.878092876070424,0.7554597494309409,-0.2825552651693207,-1.6690993614607135,0.1414185955172306,2.4034451173676383,1.0273381002308042,-0.0007459968421010213,-0.000284762950379011,0.0004007358343026047,2.2436321612182415e-05,-0.00022163334636523301,0.00014405979507194555,-0.00010790546443977839,0.0,0.0,0.0,0.0,0.0,0.0,0.0,-6.522849944168296e-05,-0.0001541270302714004,-5.953290711124826e-05,-7.562286314044542e-05,1.1169572987301812e-05,-0.0001253931152818133,-7.982607240997197e-06,0.0007459968421010213,0.000284762950379011,-0.0004007358343026047,-2.2436321612182415e-05,0.00022163334636523301,-0.00014405979507194555,0.00010790546443977839,0.7560665011405945,46.54800033569336,5.687466144561768,-19.511445999145508,-0.7784934639930725,-2.3788485527038574,0.17978231608867645,0
48,0.234968900680542,-0.7560665011405945,-46.59957504272461,-5.711269855499268,19.511445999145508,0.7730002999305725,2.3852572441101074,-0.20724813640117645,0.0,0.0,0.0,0.0,0.0,0.0,0.0,-0.8255693514829381,-0.2187453572556286,-0.5226397390168486,0.287684630178281,0.1873173067119452,0.11612056547703459,-0.1891800645157653,0.8781583357023572,0.7556174967005548,-0.28249405891018553,-1.6690239859553366,0.14140786563964702,2.4035729642412638,1.0273491345958576,0.878092876070424,0.7554597494309409,-0.2825552651693207,-1.6690993614607135,0.1414185955172306,2.4034451173676383,1.0273381002308042,-0.0014688009398760315,0.0013406087481918753,0.0006328368172550667,-0.0008767130722315071,-2.278022242604161e-05,-0.00017584021159189678,0.001226987386796431,0.0,0.0,0.0,0.0,0.0,0.0,0.0,-6.545963193327342e-05,-0.00015774726961392815,-6.120625913519362e-05,-7.537550537684012e-05,1.0729877583576242e-05,-0.00012784687362543679,-1.1034365053452788e-05,0.0014688009398760315,-0.0013406087481918753,-0.0006328368172550667,0.0008767130722315071,2.278022242604161e-05,0.00017584021159189678,-0.001226987386796431,0.7560665011405945,46.59957504272461,5.711269855499268,-19.511445999145508,-0.7730002999305725,-2.3852572441101074,0.20724813640117645,0
49,0.23996734619140625,-0.7560665011405945,-46.59957504272461,-5.711269855499268,19.511445999145508,0.7730002999305725,2.3852572441101074,-0.20724813640117645,0.0,0.0,0.0,0.0,0.0,0.0,0.0,-0.8255693514829381,-0.2187453572556286,-0.5226397390168486,0.287684630178281,0.1873173067119452,0.11612056547703459,-0.1891800645157653,0.8781583357023572,0.7556174967005548,-0.28249405891018553,-1.6690239859553366,0.14140786563964702,2.4035729642412638,1.0273491345958576,0.878092876070424,0.7554597494309409,-0.2825552651693207,-1.6690993614607135,0.1414185955172306,2.4034451173676383,1.0273381002308042,-0.0014688009398760315,0.0013406087481918753,0.0006328368172550667,-0.0008767130722315071,-2.278022242604161e-05,-0.00017584021159189678,0.001226987386796431,0.0,0.0,0.0,0.0,0.0,0.0,0.0,-6.545963193327342e-05,-0.00015774726961392815,-6.120625913519362e-05,-7.537550537684012e-05,1.0729877583576242e-05,-0.00012784687362543679,-1.1034365053452788e-05,0.0014688009398760315,-0.0013406087481918753,-0.0006328368172550667,0.0008767130722315071,2.278022242604161e-05,0.00017584021159189678,-0.001226987386796431,0.7560665011405945,46.59957504272461,5.711269855499268,-19.511445999145508,-0.7730002999305725,-2.3852572441101074,0.20724813640117645,0
50,0.2449960708618164,-0.8076412081718445,-46.54800033569336,-5.663662433624268,19.487642288208008,0.7665916085243225,2.3724398612976074,-0.16604940593242645,0.0,0.0,0.0,0.0,0.0,0.0,0.0,-0.8116763411714967,-0.22151174556750988,-0.5129929829624722,0.2901057153391567,0.1869142036917551,0.1158360026853566,-0.18862411059904566,0.878161829116683,0.7556159824906787,-0.2824973997818796,-1.6690220681589272,0.14140680618701254,2.403570869367636,1.027344556959139,0.878092876070424,0.7554597494309409,-0.2825552651693207,-1.6690993614607135,0.1414185955172306,2.4034451173676383,1.0273381002308042,-0.00018247292920969816,0.00013639646630553103,-1.2038136639001758e-05,-2.0178284463103533e-05,0.00014055629810648436,0.0004237090318721493,-0.001105589112688234,0.0,0.0,0.0,0.0,0.0,0.0,0.0,-6.895304625897936e-05,-0.00015623305973788693,-5.7865387441125016e-05,-7.729330178629645e-05,1.178933021805939e-05,-0.0001257519999975365,-6.456728334880424e-06,0.00018247292920969816,-0.00013639646630553103,1.2038136639001758e-05,2.0178284463103533e-05,-0.00014055629810648436,-0.0004237090318721493,0.001105589112688234,0.8076412081718445,46.54800033569336,5.663662433624268,-19.487642288208008,-0.7665916085243225,-2.3724398612976074,0.16604940593242645,0
51,0.24999022483825684,-0.8076412081718445,-46.54800033569336,-5.663662433624268,19.487642288208008,0.7665916085243225,2.3724398612976074,-0.16604940593242645,0.0,0.0,0.0,0.0,0.0,0.0,0.0,-0.8116763411714967,-0.22151174556750988,-0.5129929829624722,0.2901057153391567,0.1869142036917551,0.1158360026853566,-0.18862411059904566,0.878161829116683,0.7556159824906787,-0.2824973997818796,-1.6690220681589272,0.14140680618701254,2.403570869367636,1.027344556959139,0.878092876070424,0.7554597494309409,-0.2825552651693207,-1.6690993614607135,0.1414185955172306,2.4034451173676383,1.0273381002308042,-0.00018247292920969816,0.00013639646630553103,-1.2038136639001758e-05,-2.0178284463103533e-05,0.00014055629810648436,0.0004237090318721493,-0.001105589112688234,0.0,0.0,0.0,0.0,0.0,0.0,0.0,-6.895304625897936e-05,-0.00015623305973788693,-5.7865387441125016e-05,-7.729330178629645e-05,1.178933021805939e-05,-0.0001257519999975365,-6.456728334880424e-06,0.00018247292920969816,-0.00013639646630553103,1.2038136639001758e-05,2.0178284463103533e-05,-0.00014055629810648436,-0.0004237090318721493,0.001105589112688234,0.8076412081718445,46.54800033569336,5.663662433624268,-19.487642288208008,-0.7665916085243225,-2.3724398612976074,0.16604940593242645,0
52,0.2550065517425537,-0.8076412081718445,-46.52419662475586,-5.635891437530518,19.535249710083008,0.7665916085243225,2.3852572441101074,-0.20724813640117645,0.0,0.0,0.0,0.0,0.0,0.0,0.0,-0.8253044276845398,-0.2214096443102757,-0.52287121825592,0.28866593439714666,0.18635513732850859,0.11571661501361773,-0.18793463470983016,0.8781624240213799,0.7556122063489913,-0.2824993486237108,-1.6690254090292411,0.14140863431376002,2.40356943211168,1.02735022072494,0.878092876070424,0.7554597494309409,-0.2825552651693207,-1.6690993614607135,0.1414185955172306,2.4034451173676383,1.0273381002308042,-0.00041408756314469726,-0.00033629480646041787,-0.0016447369475712625,-0.0010540896811994534,0.00014192039549890923,-4.0109511153467655e-05,0.001063623436769678,0.0,0.0,0.0,0.0,0.0,0.0,0.0,-6.954795095592825e-05,-0.00015245691805043649,-5.591654560993531e-05,-7.395243147234609e-05,9.961203470576496e-06,-0.00012431474404150933,-1.2120494135903215e-05,0.00041408756314469726,0.00033629480646041787,0.0016447369475712625,0.0010540896811994534,-0.00014192039549890923,4.0109511153467655e-05,-0.001063623436769678,0.8076412081718445,46.52419662475586,5.635891437530518,-19.535249710083008,-0.7665916085243225,-2.3852572441101074,0.20724813640117645,0
53,0.2599141597747803,-0.8076412081718445,-46.52419662475586,-5.635891437530518,19.535249710083008,0.7665916085243225,2.3852572441101074,-0.20724813640117645,0.0,0.0,0.0,0.0,0.0,0.0,0.0,-0.8253044276845398,-0.2214096443102757,-0.52287121825592,0.28866593439714666,0.18635513732850859,0.11571661501361773,-0.18793463470983016,0.8781624240213799,0.7556122063489913,-0.2824993486237108,-1.6690254090292411,0.14140863431376002,2.40356943211168,1.02735022072494,0.878092876070424,0.7554597494309409,-0.2825552651693207,-1.6690993614607135,0.1414185955172306,2.4034451173676383,1.0273381002308042,-0.00041408756314469726,-0.00033629480646041787,-0.0016447369475712625,-0.0010540896811994534,0.00014192039549890923,-4.0109511153467655e-05,0.001063623436769678,0.0,0.0,0.0,0.0,0.0,0.0,0.0,-6.954795095592825e-05,-0.00015245691805043649,-5.591654560993531e-05,-7.395243147234609e-05,9.961203470576496e-06,-0.00012431474404150933,-1.2120494135903215e-05,0.00041408756314469726,0.00033629480646041787,0.0016447369475712625,0.0010540896811994534,-0.00014192039549890923,4.0109511153467655e-05,-0.001063623436769678,0.8076412081718445,46.52419662475586,5.635891437530518,-19.535249710083008,-0.7665916085243225,-2.3852572441101074,0.20724813640117645,0
54,0.2649691104888916,-0.8869869112968445,-46.57577133178711,-5.687466144561768,19.511445999145508,0.7665916085243225,2.3852572441101074,-0.16604940593242645,0.0,0.0,0.0,0.0,0.0,0.0,0.0,-0.724865151481536,-0.21270824550672465,-0.4449141649730212,0.2940077348558807,0.18420802080582807,0.11522720717572915,-0.1874104985522265,0.8781673160634506,0.7556179316534987,-0.2824957296700449,-1.669023738593386,0.1414059137806632,2.4035693143745287,1.0273445569652704,0.878092876070424,0.7554597494309409,-0.2825552651693207,-1.6690993614607135,0.1414185955172306,2.4034451173676383,1.0273381002308042,0.0017504935118104648,0.00039437374939123174,-0.0012949124075000919,-0.00012971762528914666,0.00014151749975204502,-0.00011267347903470596,-0.001044107282662174,0.0,0.0,0.0,0.0,0.0,0.0,0.0,-7.44399930265871e-05,-0.00015818222255781222,-5.953549927584234e-05,-7.562286732754053e-05,1.2681736567404789e-05,-0.00012419700689036972,-6.4567344661981e-06,-0.0017504935118104648,-0.00039437374939123174,0.0012949124075000919,0.00012971762528914666,-0.00014151749975204502,0.00011267347903470596,0.001044107282662174,0.8869869112968445,46.57577133178711,5.687466144561768,-19.511445999145508,-0.7665916085243225,-2.3852572441101074,0.16604940593242645,0
55,0.26998424530029297,-0.8869869112968445,-46.57577133178711,-5.687466144561768,19.511445999145508,0.7665916085243225,2.3852572441101074,-0.16604940593242645,0.0,0.0,0.0,0.0,0.0,0.0,0.0,-0.724865151481536,-0.21270824550672465,-0.4449141649730212,0.2940077348558807,0.18420802080582807,0.11522720717572915,-0.1874104985522265,0.8781673160634506,0.7556179316534987,-0.2824957296700449,-1.669023738593386,0.1414059137806632,2.4035693143745287,1.0273445569652704,0.878092876070424,0.7554597494309409,-0.2825552651693207,-1.6690993614607135,0.1414185955172306,2.4034451173676383,1.0273381002308042,0.0017504935118104648,0.00039437374939123174,-0.0012949124075000919,-0.00012971762528914666,0.00014151749975204502,-0.00011267347903470596,-0.001044107282662174,0.0,0.0,0.0,0.0,0.0,0.0,0.0,-7.44399930265871e-05,-0.00015818222255781222,-5.953549927584234e-05,-7.562286732754053e-05,1.2681736567404789e-05,-0.00012419700689036972,-6.4567344661981e-06,-0.0017504935118104648,-0.00039437374939123174,0.0012949124075000919,0.00012971762528914666,-0.00014151749975204502,0.00011267347903470596,0.001044107282662174,0.8869869112968445,46.57577133178711,5.687466144561768,-19.511445999145508,-0.7665916085243225,-2.3852572441101074,0.16604940593242645,0
56,0.2749674320220947,-0.8592159152030945,-46.54800033569336,-5.735073566436768,19.487642288208008,0.7784934639930725,2.3916659355163574,-0.20083944499492645,0.0,0.0,0.0,0.0,0.0,0.0,0.0,-0.8265694887940879,-0.23093613434520666,-0.5246782890799304,0.29527302268501565,0.18559816551206973,0.1171107956562298,-0.18784296629265834,0.878166043227582,0.7556162193869882,-0.2824923884743144,-1.6690220681575307,0.14140880830071953,2.403568720519128,1.0273484225190348,0.878092876070424,0.7554597494309409,-0.2825552651693207,-1.6690993614607135,0.1414185955172306,2.4034451173676383,1.0273381002308042,0.00013213144256715573,-0.0006196223067783319,0.0008634953634450646,0.00034144877602213213,-0.0002641947570172124,-0.00029998326114766093,0.00039727879033022004,0.0,0.0,0.0,0.0,0.0,0.0,0.0,-7.316715715799393e-05,-0.00015646995604734482,-6.287669500631976e-05,-7.729330318273497e-05,9.787216511070174e-06,-0.00012360315148951528,-1.0322288230613097e-05,-0.00013213144256715573,0.0006196223067783319,-0.0008634953634450646,-0.00034144877602213213,0.0002641947570172124,0.00029998326114766093,-0.00039727879033022004,0.8592159152030945,46.54800033569336,5.735073566436768,-19.487642288208008,-0.7784934639930725,-2.3916659355163574,0.20083944499492645,0
57,0.27999329566955566,-0.8592159152030945,-46.54800033569336,-5.735073566436768,19.487642288208008,0.7784934639930725,2.3916659355163574,-0.20083944499492645,0.0,0.0,0.0,0.0,0.0,0.0,0.0,-0.8265694887940879,-0.23093613434520666,-0.5246782890799304,0.29527302268501565,0.18559816551206973,0.1171107956562298,-0.18784296629265834,0.878166043227582,0.7556162193869882,-0.2824923884743144,-1.6690220681575307,0.14140880830071953,2.403568720519128,1.0273484225190348,0.878092876070424,0.7554597494309409,-0.2825552651693207,-1.6690993614607135,0.1414185955172306,2.4034451173676383,1.0273381002308042,0.00013213144256715573,-0.0006196223067783319,0.0008634953634450646,0.00034144877602213213,-0.0002641947570172124,-0.00029998326114766093,0.00039727879033022004,0.0,0.0,0.0,0.0,0.0,0.0,0.0,-7.316715715799393e-05,-0.00015646995604734482,-6.287669500631976e-05,-7.729330318273497e-05,9.787216511070174e-06,-0.00012360315148951528,-1.0322288230613097e-05,-0.00013213144256715573,0.0006196223067783319,-0.0008634953634450646,-0.00034144877602213213,0.0002641947570172124,0.00029998326114766093,-0.00039727879033022004,0.8592159152030945,46.54800033569336,5.735073566436768,-19.487642288208008,-0.7784934639930725,-2.3916659355163574,0.20083944499492645,0
58,0.2849900722503662,-0.8354122042655945,-46.54800033569336,-5.663662433624268,19.487642288208008,0.7730002999305725,2.3788485527038574,-0.18710653483867645,0.0,0.0,0.0,0.0,0.0,0.0,0.0,-0.8371277202834891,-0.22552718603191615,-0.5292422422540826,0.29107526686405183,0.18582109034350655,0.11653086370092591,-0.18780962883593857,0.8781665068240923,0.7556138764731172,-0.2824973997818796,-1.6690220681952155,0.14140610734979658,2.403571086089484,1.0273468966401285,0.878092876070424,0.7554597494309409,-0.2825552651693207,-1.6690993614607135,0.1414185955172306,2.4034451173676383,1.0273381002308042,-0.00023525117067339755,-0.00046885687267467625,-0.0008327225190101962,-3.570893605884327e-05,-0.00019955023594826616,0.00010081080244810106,-0.00020756537960238988,0.0,0.0,0.0,0.0,0.0,0.0,0.0,-7.363075366828564e-05,-0.0001541270421763219,-5.7865387441125016e-05,-7.729326549799076e-05,1.248816743401604e-05,-0.00012596872184555963,-8.796409324274279e-06,0.00023525117067339755,0.00046885687267467625,0.0008327225190101962,3.570893605884327e-05,0.00019955023594826616,-0.00010081080244810106,0.00020756537960238988,0.8354122042655945,46.54800033569336,5.663662433624268,-19.487642288208008,-0.7730002999305725,-2.3788485527038574,0.18710653483867645,0
59,0.28992772102355957,-0.8354122042655945,-46.54800033569336,-5.663662433624268,19.487642288208008,0.7730002999305725,2.3788485527038574,-0.18710653483867645,0.0,0.0,0.0,0.0,0.0,0.0,0.0,-0.8371277202834891,-0.22552718603191615,-0.5292422422540826,0.29107526686405183,0.18582109034350655,0.11653086370092591,-0.18780962883593857,0.8781665068240923,0.7556138764731172,-0.2824973997818796,-1.6690220681952155,0.14140610734979658,2.403571086089484,1.0273468966401285,0.878092876070424,0.7554597494309409,-0.2825552651693207,-1.6690993614607135,0.1414185955172306,2.4034451173676383,1.0273381002308042,-0.00023525117067339755,-0.00046885687267467625,-0.0008327225190101962,-3.570893605884327e-05,-0.00019955023594826616,0.00010081080244810106,-0.00020756537960238988,0.0,0.0,0.0,0.0,0.0,0.0,0.0,-7.363075366828564e-05,-0.0001541270421763219,-5.7865387441125016e-05,-7.729326549799076e-05,1.248816743401604e-05,-0.00012596872184555963,-8.796409324274279e-06,0.00023525117067339755,0.00046885687267467625,0.0008327225190101962,3.570893605884327e-05,0.00019955023594826616,-0.00010081080244810106,0.00020756537960238988,0.8354122042655945,46.54800033569336,5.663662433624268,-19.487642288208008,-0.7730002999305725,-2.3788485527038574,0.18710653483867645,0
60,0.2949237823486328,-0.8592159152030945,-46.52419662475586,-5.663662433624268,19.487642288208008,0.7730002999305725,2.3788485527038574,-0.17978231608867645,0.0,0.0,0.0,0.0,0.0,0.0,0.0,-0.8453545604902921,-0.22684029579580797,-0.532560905676974,0.29177135592966064,0.18554132880617424,0.11666663266326811,-0.18816938226341867,0.8781677872662939,0.7556124400631222,-0.2824973997818796,-1.6690220712099864,0.1414059144308548,2.403570026456669,1.0273460828380452,0.878092876070424,0.7554597494309409,-0.2825552651693207,-1.6690993614607135,0.1414185955172306,2.4034451173676383,1.0273381002308042,0.0005950295025009975,-0.0007209272949180475,-0.0005064100630462627,0.00044463879805927705,-0.00019587424478118907,2.3579292271373728e-05,7.597403904532286e-05,0.0,0.0,0.0,0.0,0.0,0.0,0.0,-7.49111958698867e-05,-0.0001526906321813737,-5.7865387441125016e-05,-7.729025072711337e-05,1.268108637580978e-05,-0.0001249090890307336,-7.982607240997197e-06,-0.0005950295025009975,0.0007209272949180475,0.0005064100630462627,-0.00044463879805927705,0.00019587424478118907,-2.3579292271373728e-05,-7.597403904532286e-05,0.8592159152030945,46.52419662475586,5.663662433624268,-19.487642288208008,-0.7730002999305725,-2.3788485527038574,0.17978231608867645,0
61,0.2999856472015381,-0.8592159152030945,-46.52419662475586,-5.663662433624268,19.487642288208008,0.7730002999305725,2.3788485527038574,-0.17978231608867645,0.0,0.0,0.0,0.0,0.0,0.0,0.0,-0.8453545604902921,-0.22684029579580797,-0.532560905676974,0.29177135592966064,0.18554132880617424,0.11666663266326811,-0.18816938226341867,0.8781677872662939,0.7556124400631222,-0.2824973997818796,-1.6690220712099864,0.1414059144308548,2.403570026456669,1.0273460828380452,0.878092876070424,0.7554597494309409,-0.2825552651693207,-1.6690993614607135,0.1414185955172306,2.4034451173676383,1.0273381002308042,0.0005950295025009975,-0.0007209272949180475,-0.0005064100630462627,0.00044463879805927705,-0.00019587424478118907,2.3579292271373728e-05,7.597403904532286e-05,0.0,0.0,0.0,0.0,0.0,0.0,0.0,-7.49111958698867e-05,-0.0001526906321813737,-5.7865387441125016e-05,-7.729025072711337e-05,1.268108637580978e-05,-0.0001249090890307336,-7.982607240997197e-06,-0.0005950295025009975,0.0007209272949180475,0.0005064100630462627,-0.00044463879805927705,0.00019587424478118907,-2.3579292271373728e-05,-7.597403904532286e-05,0.8592159152030945,46.52419662475586,5.663662433624268,-19.487642288208008,-0.7730002999305725,-2.3788485527038574,0.17978231608867645,0
62,0.30501508712768555,-0.8076412081718445,-46.59957504272461,-5.635891437530518,19.487642288208008,0.7610984444618225,2.3724398612976074,-0.23471395671367645,0.0,0.0,0.0,0.0,0.0,0.0,0.0,-0.8275367864201539,-0.22941930406795585,-0.5185762550274738,0.2947585191287085,0.18501879383077513,0.11625792341127615,-0.18696363683630937,0.8781618249562749,0.7556174957388988,-0.2824993486237108,-1.6690220712100035,0.14140753317496763,2.4035707433726774,1.0273521863536703,0.878092876070424,0.7554597494309409,-0.2825552651693207,-1.6690993614607135,0.1414185955172306,2.4034451173676383,1.0273381002308042,-0.00016860209671853147,0.0010975899318591558,-0.0008602065264475128,-0.00011133938843848752,0.0003373606313707719,0.00042661747890963505,0.0015384838409930868,0.0,0.0,0.0,0.0,0.0,0.0,0.0,-6.894888585096126e-05,-0.00015774630795795108,-5.591654560993531e-05,-7.729025071001594e-05,1.106234226297409e-05,-0.00012562600503907007,-1.4086122866130424e-05,0.00016860209671853147,-0.0010975899318591558,0.0008602065264475128,0.00011133938843848752,-0.0003373606313707719,-0.00042661747890963505,-0.0015384838409930868,0.8076412081718445,46.59957504272461,5.635891437530518,-19.487642288208008,-0.7610984444618225,-2.3724398612976074,0.23471395671367645,0
63,0.31000828742980957,-0.8076412081718445,-46.59957504272461,-5.635891437530518,19.487642288208008,0.7610984444618225,2.3724398612976074,-0.23471395671367645,0.0,0.0,0.0,0.0,0.0,0.0,0.0,-0.8275367864201539,-0.22941930406795585,-0.5185762550274738,0.2947585191287085,0.18501879383077513,0.11625792341127615,-0.18696363683630937,0.8781618249562749,0.7556174957388988,-0.2824993486237108,-1.6690220712100035,0.14140753317496763,2.4035707433726774,1.0273521863536703,0.878092876070424,0.7554597494309409,-0.2825552651693207,-1.6690993614607135,0.1414185955172306,2.4034451173676383,1.0273381002308042,-0.00016860209671853147,0.0010975899318591558,-0.0008602065264475128,-0.00011133938843848752,0.0003373606313707719,0.00042661747890963505,0.0015384838409930868,0.0,0.0,0.0,0.0,0.0,0.0,0.0,-6.894888585096126e-05,-0.00015774630795795108,-5.591654560993531e-05,-7.729025071001594e-05,1.106234226297409e-05,-0.00012562600503907007,-1.4086122866130424e-05,0.00016860209671853147,-0.0010975899318591558,0.0008602065264475128,0.00011133938843848752,-0.0003373606313707719,-0.00042661747890963505,-0.0015384838409930868,0.8076412081718445,46.59957504272461,5.635891437530518,-19.487642288208008,-0.7610984444618225,-2.3724398612976074,0.23471395671367645,0
64,0.3150057792663574,-0.8076412081718445,-46.59957504272461,-5.635891437530518,19.487642288208008,0.7610984444618225,2.3724398612976074,-0.23471395671367645,0.0,0.0,0.0,0.0,0.0,0.0,0.0,-0.8275367864201539,-0.22941930406795585,-0.5185762550274738,0.2947585191287085,0.18501879383077513,0.11625792341127615,-0.18696363683630937,0.8781618249562749,0.7556174957388988,-0.2824993486237108,-1.6690220712100035,0.14140753317496763,2.4035707433726774,1.0273521863536703,0.878092876070424,0.7554597494309409,-0.2825552651693207,-1.6690993614607135,0.1414185955172306,2.4034451173676383,1.0273381002308042,-0.00016860209671853147,0.0010975899318591558,-0.0008602065264475128,-0.00011133938843848752,0.0003373606313707719,0.00042661747890963505,0.0015384838409930868,0.0,0.0,0.0,0.0,0.0,0.0,0.0,-6.894888585096126e-05,-0.00015774630795795108,-5.591654560993531e-05,-7.729025071001594e-05,1.106234226297409e-05,-0.00012562600503907007,-1.4086122866130424e-05,0.00016860209671853147,-0.0010975899318591558,0.0008602065264475128,0.00011133938843848752,-0.0003373606313707719,-0.00042661747890963505,-0.0015384838409930868,0.8076412081718445,46.59957504272461,5.635891437530518,-19.487642288208008,-0.7610984444618225,-2.3724398612976074,0.23471395671367645,0
65,0.31996750831604004,-0.8076412081718445,-46.59957504272461,-5.635891437530518,19.487642288208008,0.7610984444618225,2.3724398612976074,-0.23471395671367645,0.0,0.0,0.0,0.0,0.0,0.0,0.0,-0.8275367864201539,-0.22941930406795585,-0.5185762550274738,0.2947585191287085,0.18501879383077513,0.11625792341127615,-0.18696363683630937,0.8781618249562749,0.7556174957388988,-0.2824993486237108,-1.6690220712100035,0.14140753317496763,2.4035707433726774,1.0273521863536703,0.878092876070424,0.7554597494309409,-0.2825552651693207,-1.6690993614607135,0.1414185955172306,2.4034451173676383,1.0273381002308042,-0.00016860209671853147,0.0010975899318591558,-0.0008602065264475128,-0.00011133938843848752,0.0003373606313707719,0.00042661747890963505,0.0015384838409930868,0.0,0.0,0.0,0.0,0.0,0.0,0.0,-6.894888585096126e-05,-0.00015774630795795108,-5.591654560993531e-05,-7.729025071001594e-05,1.106234226297409e-05,-0.00012562600503907007,-1.4086122866130424e-05,0.00016860209671853147,-0.0010975899318591558,0.0008602065264475128,0.00011133938843848752,-0.0003373606313707719,-0.00042661747890963505,-0.0015384838409930868,0.8076412081718445,46.59957504272461,5.635891437530518,-19.487642288208008,-0.7610984444618225,-2.3724398612976074,0.23471395671367645,0
66,0.3249664306640625,-0.8354122042655945,-46.50039291381836,-5.711269855499268,19.487642288208008,0.7610984444618225,2.3788485527038574,-0.17978231608867645,0.0,0.0,0.0,0.0,0.0,0.0,0.0,-0.8337373159535441,-0.22707410706493528,-0.5221286671471683,0.29124139996343756,0.18473690026819461,0.11593281232959202,-0.18786602056342724,0.8781658143332232,0.7556105355881808,-0.2824940589101691,-1.669022068157548,0.14141026240194923,2.4035700264507147,1.0273460828380452,0.878092876070424,0.7554597494309409,-0.2825552651693207,-1.6690993614607135,0.1414185955172306,2.4034451173676383,1.0273381002308042,0.0006886900358867227,-0.0013466684224436596,0.0008011440854754181,-7.036888089089805e-05,0.00010690547898382326,0.0001363882026602239,-0.0002559036460459058,0.0,0.0,0.0,0.0,0.0,0.0,0.0,-7.293826279919369e-05,-0.00015078615723995714,-6.120625915162492e-05,-7.72933031654155e-05,8.333115281367043e-06,-0.00012490908307638549,-7.982607240997197e-06,-0.0006886900358867227,0.0013466684224436596,-0.0008011440854754181,7.036888089089805e-05,-0.00010690547898382326,-0.0001363882026602239,0.0002559036460459058,0.8354122042655945,46.50039291381836,5.711269855499268,-19.487642288208008,-0.7610984444618225,-2.3788485527038574,0.17978231608867645,0
67,0.32996416091918945,-0.8354122042655945,-46.50039291381836,-5.711269855499268,19.487642288208008,0.7610984444618225,2.3788485527038574,-0.17978231608867645,0.0,0.0,0.0,0.0,0.0,0.0,0.0,-0.8337373159535441,-0.22707410706493528,-0.5221286671471683,0.29124139996343756,0.18473690026819461,0.11593281232959202,-0.18786602056342724,0.8781658143332232,0.7556105355881808,-0.2824940589101691,-1.669022068157548,0.14141026240194923,2.4035700264507147,1.0273460828380452,0.878092876070424,0.7554597494309409,-0.2825552651693207,-1.6690993614607135,0.1414185955172306,2.4034451173676383,1.0273381002308042,0.0006886900358867227,-0.0013466684224436596,0.0008011440854754181,-7.036888089089805e-05,0.00010690547898382326,0.0001363882026602239,-0.0002559036460459058,0.0,0.0,0.0,0.0,0.0,0.0,0.0,-7.293826279919369e-05,-0.00015078615723995714,-6.120625915162492e-05,-7.72933031654155e-05,8.333115281367043e-06,-0.00012490908307638549,-7.982607240997197e-06,-0.0006886900358867227,0.0013466684224436596,-0.0008011440854754181,7.036888089089805e-05,-0.00010690547898382326,-0.0001363882026602239,0.0002559036460459058,0.8354122042655945,46.50039291381836,5.711269855499268,-19.487642288208008,-0.7610984444618225,-2.3788485527038574,0.17978231608867645,0
68,0.3349945545196533,-0.8076412081718445,-46.57577133178711,-5.687466144561768,19.511445999145508,0.7665916085243225,2.3916659355163574,-0.15964071452617645,0.0,0.0,0.0,0.0,0.0,0.0,0.0,-0.8292983753187587,-0.23946260909759776,-0.5218351108048466,0.2980881927732583,0.18455425898204267,0.11719296459795524,-0.18767096260160313,0.8781624229633079,0.7556158253373882,-0.28249572934602435,-1.66902373870644,0.14140649367523195,2.403568721488161,1.027343844882316,0.878092876070424,0.7554597494309409,-0.2825552651693207,-1.6690993614607135,0.1414185955172306,2.4034451173676383,1.0273381002308042,6.894670912538515e-05,0.00012222360757926544,0.00022526724609132245,-0.0001300375870242842,0.0001497808756882262,-0.00040443245699701253,-0.001380064499989286,0.0,0.0,0.0,0.0,0.0,0.0,0.0,-6.954689288396487e-05,-0.00015607590644739489,-5.953582329637497e-05,-7.562275427352994e-05,1.210184199865183e-05,-0.00012360412052281333,-5.744651511818688e-06,-6.894670912538515e-05,-0.00012222360757926544,-0.00022526724609132245,0.0001300375870242842,-0.0001497808756882262,0.00040443245699701253,0.001380064499989286,0.8076412081718445,46.57577133178711,5.687466144561768,-19.511445999145508,-0.7665916085243225,-2.3916659355163574,0.15964071452617645,0
69,0.3399670124053955,-0.8076412081718445,-46.57577133178711,-5.687466144561768,19.511445999145508,0.7665916085243225,2.3916659355163574,-0.15964071452617645,0.0,0.0,0.0,0.0,0.0,0.0,0.0,-0.8292983753187587,-0.23946260909759776,-0.5218351108048466,0.2980881927732583,0.18455425898204267,0.11719296459795524,-0.18767096260160313,0.8781624229633079,0.7556158253373882,-0.28249572934602435,-1.66902373870644,0.14140649367523195,2.403568721488161,1.027343844882316,0.878092876070424,0.7554597494309409,-0.2825552651693207,-1.6690993614607135,0.1414185955172306,2.4034451173676383,1.0273381002308042,6.894670912538515e-05,0.00012222360757926544,0.00022526724609132245,-0.0001300375870242842,0.0001497808756882262,-0.00040443245699701253,-0.001380064499989286,0.0,0.0,0.0,0.0,0.0,0.0,0.0,-6.954689288396487e-05,-0.00015607590644739489,-5.953582329637497e-05,-7.562275427352994e-05,1.210184199865183e-05,-0.00012360412052281333,-5.744651511818688e-06,-6.894670912538515e-05,-0.00012222360757926544,-0.00022526724609132245,0.0001300375870242842,-0.0001497808756882262,0.00040443245699701253,0.001380064499989286,0.8076412081718445,46.57577133178711,5.687466144561768,-19.511445999145508,-0.7665916085243225,-2.3916659355163574,0.15964071452617645,0
70,0.34496331214904785,-0.8076412081718445,-46.54800033569336,-5.663662433624268,19.511445999145508,0.7610984444618225,2.3724398612976074,-0.21457235515117645,0.0,0.0,0.0,0.0,0.0,0.0,0.0,-0.8233417981525815,-0.2184673439054117,-0.5155460633678433,0.2875842286868811,0.1845811020927381,0.11545648254447881,-0.18844400662373087,0.8781617482292535,0.7556138764598914,-0.2824973997818796,-1.6690237385933866,0.14140754624304766,2.4035718418266545,1.0273499483979411,0.878092876070424,0.7554597494309409,-0.2825552651693207,-1.6690993614607135,0.1414185955172306,2.4034451173676383,1.0273381002308042,-1.5257451272541687e-06,0.0001784014481064218,-0.00012713836321602792,-0.0005492141260611532,0.00029365906208646107,0.00035080201237324153,0.000331593002087197,0.0,0.0,0.0,0.0,0.0,0.0,0.0,-6.887215882955822e-05,-0.00015412702895056807,-5.7865387441125016e-05,-7.56228673268744e-05,1.1049274182939328e-05,-0.0001267244590161809,-1.1848167136951915e-05,1.5257451272541687e-06,-0.0001784014481064218,0.00012713836321602792,0.0005492141260611532,-0.00029365906208646107,-0.00035080201237324153,-0.000331593002087197,0.8076412081718445,46.54800033569336,5.663662433624268,-19.511445999145508,-0.7610984444618225,-2.3724398612976074,0.21457235515117645,0
71,0.3499748706817627,-0.8076412081718445,-46.54800033569336,-5.663662433624268,19.511445999145508,0.7610984444618225,2.3724398612976074,-0.21457235515117645,0.0,0.0,0.0,0.0,0.0,0.0,0.0,-0.8233417981525815,-0.2184673439054117,-0.5155460633678433,0.2875842286868811,0.1845811020927381,0.11545648254447881,-0.18844400662373087,0.8781617482292535,0.7556138764598914,-0.2824973997818796,-1.6690237385933866,0.14140754624304766,2.4035718418266545,1.0273499483979411,0.878092876070424,0.7554597494309409,-0.2825552651693207,-1.6690993614607135,0.1414185955172306,2.4034451173676383,1.0273381002308042,-1.5257451272541687e-06,0.0001784014481064218,-0.00012713836321602792,-0.0005492141260611532,0.00029365906208646107,0.00035080201237324153,0.000331593002087197,0.0,0.0,0.0,0.0,0.0,0.0,0.0,-6.887215882955822e-05,-0.00015412702895056807,-5.7865387441125016e-05,-7.56228673268744e-05,1.1049274182939328e-05,-0.0001267244590161809,-1.1848167136951915e-05,1.5257451272541687e-06,-0.0001784014481064218,0.00012713836321602792,0.0005492141260611532,-0.00029365906208646107,-0.00035080201237324153,-0.000331593002087197,0.8076412081718445,46.54800033569336,5.663662433624268,-19.511445999145508,-0.7610984444618225,-2.3724398612976074,0.21457235515117645,0
72,0.3549644947052002,-0.7838374972343445,-46.54800033569336,-5.663662433624268,19.487642288208008,0.7730002999305725,2.3916659355163574,-0.17978231608867645,0.0,0.0,0.0,0.0,0.0,0.0,0.0,-0.8220762534817038,-0.22983522305218754,-0.5141570231987271,0.2951585602950072,0.18475586870878272,0.11580910897506665,-0.19089441276037017,0.8781607566884011,0.7556138764598913,-0.2824973997818796,-1.6690242933976023,0.14140804033050924,2.403571781217657,1.0273460830035883,0.878092876070424,0.7554597494309409,-0.2825552651693207,-1.6690993614607135,0.1414185955172306,2.4034451173676383,1.0273381002308042,-0.00037120046124798075,9.046241537741148e-05,-0.0004913500792297978,0.00035120434571116177,-0.00016066423911275578,-0.0004088071938019297,-0.00039421726953495543,0.0,0.0,0.0,0.0,0.0,0.0,0.0,-6.788061797713407e-05,-0.00015412702895045705,-5.7865387441125016e-05,-7.50680631111944e-05,1.0555186721356025e-05,-0.00012666385001880442,-7.982772784131953e-06,0.00037120046124798075,-9.046241537741148e-05,0.0004913500792297978,-0.00035120434571116177,0.00016066423911275578,0.0004088071938019297,0.00039421726953495543,0.7838374972343445,46.54800033569336,5.663662433624268,-19.487642288208008,-0.7730002999305725,-2.3916659355163574,0.17978231608867645,0
73,0.35996556282043457,-0.7838374972343445,-46.54800033569336,-5.663662433624268,19.487642288208008,0.7730002999305725,2.3916659355163574,-0.17978231608867645,0.0,0.0,0.0,0.0,0.0,0.0,0.0,-0.8220762534817038,-0.22983522305218754,-0.5141570231987271,0.2951585602950072,0.18475586870878272,0.11580910897506665,-0.19089441276037017,0.8781607566884011,0.7556138764598913,-0.2824973997818796,-1.6690242933976023,0.14140804033050924,2.403571781217657,1.0273460830035883,0.878092876070424,0.7554597494309409,-0.2825552651693207,-1.6690993614607135,0.1414185955172306,2.4034451173676383,1.0273381002308042,-0.00037120046124798075,9.046241537741148e-05,-0.0004913500792297978,0.00035120434571116177,-0.00016066423911275578,-0.0004088071938019297,-0.00039421726953495543,0.0,0.0,0.0,0.0,0.0,0.0,0.0,-6.788061797713407e-05,-0.00015412702895045705,-5.7865387441125016e-05,-7.50680631111944e-05,1.0555186721356025e-05,-0.00012666385001880442,-7.982772784131953e-06,0.00037120046124798075,-9.046241537741148e-05,0.0004913500792297978,-0.00035120434571116177,0.00016066423911275578,0.0004088071938019297,0.00039421726953495543,0.7838374972343445,46.54800033569336,5.663662433624268,-19.487642288208008,-0.7730002999305725,-2.3916659355163574,0.17978231608867645,0
74,0.36496591567993164,-0.8076412081718445,-46.54800033569336,-5.687466144561768,19.459871292114258,0.7730002999305725,2.3788485527038574,-0.19351522624492645,0.0,0.0,0.0,0.0,0.0,0.0,0.0,-0.8314092599242802,-0.232758058755255,-0.5204729519600392,0.2953237653218704,0.18481091530299384,0.11607769152189248,-0.19042126933611683,0.8781618018349988,0.755614578470152,-0.2824957290189755,-1.669020119328261,0.14140837613408677,2.4035700658759946,1.0273476087169524,0.878092876070424,0.7554597494309409,-0.2825552651693207,-1.6690993614607135,0.1414185955172306,2.4034451173676383,1.0273381002308042,-0.0006464779713438376,-0.0005216071731672028,-0.0002600549972275581,0.0007615683858204998,-5.08598154871308e-05,0.00012150423849766427,0.00028139432567369143,0.0,0.0,0.0,0.0,0.0,0.0,0.0,-6.892576457484534e-05,-0.00015482903921115732,-5.953615034520743e-05,-7.92421324524728e-05,1.0219383143827976e-05,-0.0001249485083563151,-9.508486148224193e-06,0.0006464779713438376,0.0005216071731672028,0.0002600549972275581,-0.0007615683858204998,5.08598154871308e-05,-0.00012150423849766427,-0.00028139432567369143,0.8076412081718445,46.54800033569336,5.687466144561768,-19.459871292114258,-0.7730002999305725,-2.3788485527038574,0.19351522624492645,0
75,0.37056612968444824,-0.8076412081718445,-46.54800033569336,-5.687466144561768,19.459871292114258,0.7730002999305725,2.3788485527038574,-0.19351522624492645,0.0,0.0,0.0,0.0,0.0,0.0,0.0,-0.8314092599242802,-0.232758058755255,-0.5204729519600392,0.2953237653218704,0.18481091530299384,0.11607769152189248,-0.19042126933611683,0.8781618018349988,0.755614578470152,-0.2824957290189755,-1.669020119328261,0.14140837613408677,2.4035700658759946,1.0273476087169524,0.878092876070424,0.7554597494309409,-0.2825552651693207,-1.6690993614607135,0.1414185955172306,2.4034451173676383,1.0273381002308042,-0.0006464779713438376,-0.0005216071731672028,-0.0002600549972275581,0.0007615683858204998,-5.08598154871308e-05,0.00012150423849766427,0.00028139432567369143,0.0,0.0,0.0,0.0,0.0,0.0,0.0,-6.892576457484534e-05,-0.00015482903921115732,-5.953615034520743e-05,-7.92421324524728e-05,1.0219383143827976e-05,-0.0001249485083563151,-9.508486148224193e-06,0.0006464779713438376,0.0005216071731672028,0.0002600549972275581,-0.0007615683858204998,5.08598154871308e-05,-0.00012150423849766427,-0.00028139432567369143,0.8076412081718445,46.54800033569336,5.687466144561768,-19.459871292114258,-0.7730002999305725,-2.3788485527038574,0.19351522624492645,0
76,0.37496328353881836,-0.8354122042655945,-46.54800033569336,-5.687466144561768,19.511445999145508,0.7784934639930725,2.3916659355163574,-0.21457235515117645,0.0,0.0,0.0,0.0,0.0,0.0,0.0,-0.8222119510111207,-0.22624339458144843,-0.5133895011865504,0.29271536864348674,0.18457678780337058,0.11606070454426134,-0.19083236706679985,0.8781637596610858,0.7556139024642341,-0.28249572934602246,-1.669023738593386,0.14140552550615967,2.4035686022972635,1.0273499498878302,0.878092876070424,0.7554597494309409,-0.2825552651693207,-1.6690993614607135,0.1414185955172306,2.4034451173676383,1.0273381002308042,7.001899537243322e-05,2.3698261607854268e-05,-3.314369211866027e-05,-0.0002858314838379452,-0.0003943532455994818,-0.00031180184370933526,0.0011224688062125578,0.0,0.0,0.0,0.0,0.0,0.0,0.0,-7.088359066187433e-05,-0.00015415303329324725,-5.953582329826235e-05,-7.562286732754053e-05,1.3070011070925869e-05,-0.00012348492962521718,-1.1849657026052896e-05,-7.001899537243322e-05,-2.3698261607854268e-05,3.314369211866027e-05,0.0002858314838379452,0.0003943532455994818,0.00031180184370933526,-0.0011224688062125578,0.8354122042655945,46.54800033569336,5.687466144561768,-19.511445999145508,-0.7784934639930725,-2.3916659355163574,0.21457235515117645,0
77,0.3799598217010498,-0.8354122042655945,-46.54800033569336,-5.687466144561768,19.511445999145508,0.7784934639930725,2.3916659355163574,-0.21457235515117645,0.0,0.0,0.0,0.0,0.0,0.0,0.0,-0.8222119510111207,-0.22624339458144843,-0.5133895011865504,0.29271536864348674,0.18457678780337058,0.11606070454426134,-0.19083236706679985,0.8781637596610858,0.7556139024642341,-0.28249572934602246,-1.669023738593386,0.14140552550615967,2.4035686022972635,1.0273499498878302,0.878092876070424,0.7554597494309409,-0.2825552651693207,-1.6690993614607135,0.1414185955172306,2.4034451173676383,1.0273381002308042,7.001899537243322e-05,2.3698261607854268e-05,-3.314369211866027e-05,-0.0002858314838379452,-0.0003943532455994818,-0.00031180184370933526,0.0011224688062125578,0.0,0.0,0.0,0.0,0.0,0.0,0.0,-7.088359066187433e-05,-0.00015415303329324725,-5.953582329826235e-05,-7.562286732754053e-05,1.3070011070925869e-05,-0.00012348492962521718,-1.1849657026052896e-05,-7.001899537243322e-05,-2.3698261607854268e-05,3.314369211866027e-05,0.0002858314838379452,0.0003943532455994818,0.00031180184370933526,-0.0011224688062125578,0.8354122042655945,46.54800033569336,5.687466144561768,-19.511445999145508,-0.7784934639930725,-2.3916659355163574,0.21457235515117645,0
78,0.3849782943725586,-0.8076412081718445,-46.52419662475586,-5.687466144561768,19.535249710083008,0.7784934639930725,2.3788485527038574,-0.20724813640117645,0.0,0.0,0.0,0.0,0.0,0.0,0.0,-0.8263343261719337,-0.2211147570747629,-0.5171764095150106,0.28963530990479674,0.18434371436283614,0.11575702025415995,-0.1908329002509281,0.8781617326398363,0.7556122060241829,-0.2824957293460243,-1.6690254090669259,0.14140774341435375,2.403573323102645,1.027349134595866,0.878092876070424,0.7554597494309409,-0.2825552651693207,-1.6690993614607135,0.1414185955172306,2.4034451173676383,1.0273381002308042,-0.0004459221897438017,-0.0004308437604868,-0.0002282603214265471,-0.0011316009568581912,-0.00045910905185358205,0.00020236037953513393,0.0006798551136454257,0.0,0.0,0.0,0.0,0.0,0.0,0.0,-6.885656941235663e-05,-0.0001524565932420341,-5.953582329643048e-05,-7.395239378760188e-05,1.0852102876851566e-05,-0.00012820573500649246,-1.1034365061890483e-05,0.0004459221897438017,0.0004308437604868,0.0002282603214265471,0.0011316009568581912,0.00045910905185358205,-0.00020236037953513393,-0.0006798551136454257,0.8076412081718445,46.52419662475586,5.687466144561768,-19.535249710083008,-0.7784934639930725,-2.3788485527038574,0.20724813640117645,0
79,0.3899691104888916,-0.8076412081718445,-46.52419662475586,-5.687466144561768,19.535249710083008,0.7784934639930725,2.3788485527038574,-0.20724813640117645,0.0,0.0,0.0,0.0,0.0,0.0,0.0,-0.8263343261719337,-0.2211147570747629,-0.5171764095150106,0.28963530990479674,0.18434371436283614,0.11575702025415995,-0.1908329002509281,0.8781617326398363,0.7556122060241829,-0.2824957293460243,-1.6690254090669259,0.14140774341435375,2.403573323102645,1.027349134595866,0.878092876070424,0.7554597494309409,-0.2825552651693207,-1.6690993614607135,0.1414185955172306,2.4034451173676383,1.0273381002308042,-0.0004459221897438017,-0.0004308437604868,-0.0002282603214265471,-0.0011316009568581912,-0.00045910905185358205,0.00020236037953513393,0.0006798551136454257,0.0,0.0,0.0,0.0,0.0,0.0,0.0,-6.885656941235663e-05,-0.0001524565932420341,-5.953582329643048e-05,-7.395239378760188e-05,1.0852102876851566e-05,-0.00012820573500649246,-1.1034365061890483e-05,0.0004459221897438017,0.0004308437604868,0.0002282603214265471,0.0011316009568581912,0.00045910905185358205,-0.00020236037953513393,-0.0006798551136454257,0.8076412081718445,46.52419662475586,5.687466144561768,-19.535249710083008,-0.7784934639930725,-2.3788485527038574,0.20724813640117645,0
80,0.39496803283691406,-0.8354122042655945,-46.54800033569336,-5.687466144561768,19.511445999145508,0.7665916085243225,2.3852572441101074,-0.17978231608867645,0.0,0.0,0.0,0.0,0.0,0.0,0.0,-0.8276450965218204,-0.2200778986971738,-0.5185007121336996,0.28969924764993743,0.18426860132509273,0.11618854283512771,-0.1907425451773883,0.8781644759016166,0.7556138764598913,-0.2824957293460243,-1.6690238484817848,0.14140858895097538,2.4035694326145602,1.0273460828380452,0.878092876070424,0.7554597494309409,-0.2825552651693207,-1.6690993614607135,0.1414185955172306,2.4034451173676383,1.0273381002308042,1.4200631985346649e-05,6.69107291630643e-05,-0.0003214839918954017,-0.0008333166602414023,0.0001151337633806699,-8.459846042413204e-05,-1.128024399059577e-05,0.0,0.0,0.0,0.0,0.0,0.0,0.0,-7.159983119264801e-05,-0.00015412702895045705,-5.953582329643048e-05,-7.551297892871567e-05,1.0006566255216232e-05,-0.00012431524692191331,-7.982607240997197e-06,-1.4200631985346649e-05,-6.69107291630643e-05,0.0003214839918954017,0.0008333166602414023,-0.0001151337633806699,8.459846042413204e-05,1.128024399059577e-05,0.8354122042655945,46.54800033569336,5.687466144561768,-19.511445999145508,-0.7665916085243225,-2.3852572441101074,0.17978231608867645,0
