rezayati/contactInterpretation/dataset/franka_main/labeled_data/link4/d7_7.csv
index,time,tau_J0,tau_J1,tau_J2,tau_J3,tau_J4,tau_J5,tau_J6,tau_J_d0,tau_J_d1,tau_J_d2,tau_J_d3,tau_J_d4,tau_J_d5,tau_J_d6,tau_ext0,tau_ext1,tau_ext2,tau_ext3,tau_ext4,tau_ext5,tau_ext6,q0,q1,q2,q3,q4,q5,q6,q_d0,q_d1,q_d2,q_d3,q_d4,q_d5,q_d6,dq0,dq1,dq2,dq3,dq4,dq5,dq6,dq_d0,dq_d1,dq_d2,dq_d3,dq_d4,dq_d5,dq_d6,e0,e1,e2,e3,e4,e5,e6,de0,de1,de2,de3,de4,de5,de6,etau_J0,etau_J1,etau_J2,etau_J3,etau_J4,etau_J5,etau_J6,label
1,0.0,-0.17287558317184448,-12.024682998657227,1.2433807849884033,21.717256546020508,0.3857322335243225,2.5335726737976074,-0.20724813640117645,0.0,0.0,0.0,0.0,0.0,0.0,0.0,-0.16355152016773622,0.33267959847496437,0.06418256068005808,0.41244849763022823,-0.1460698380660855,0.12459643478009225,-0.2159872422776623,0.1728278568272005,-0.487543710939566,-0.11145640272478208,-1.9466916819990263,0.1336100216447721,2.5955496346201588,0.9452476107196676,0.1728802376190821,-0.48752024683155326,-0.11147110072896137,-1.9463801863486305,0.1336059019074957,2.595550359778934,0.9452445589611904,0.0007334610540473865,-0.0004489764582926195,0.0007213997051763207,-0.00026942990872919266,-0.004013289843838687,-0.0002281270789015257,0.0003504796533953181,0.0,0.0,0.0,0.0,0.0,0.0,0.0,5.23807918816066e-05,2.346410801273846e-05,-1.4698004179289348e-05,0.00031149565039578775,-4.119737276403468e-06,7.251587752499233e-07,-3.051758477146116e-06,-0.0007334610540473865,0.0004489764582926195,-0.0007213997051763207,0.00026942990872919266,0.004013289843838687,0.0002281270789015257,-0.0003504796533953181,0.17287558317184448,12.024682998657227,-1.2433807849884033,-21.717256546020508,-0.3857322335243225,-2.5335726737976074,0.20724813640117645,0
2,0.004999637603759766,-0.14510458707809448,-12.024682998657227,1.2433807849884033,21.717256546020508,0.3793235421180725,2.5143465995788574,-0.23471395671367645,0.0,0.0,0.0,0.0,0.0,0.0,0.0,-0.16241603476405364,0.3281995027314209,0.06534570749776761,0.4088363987599939,-0.14704836006136449,0.1245589084302404,-0.21556202815930053,0.17282590798536937,-0.48754128217045856,-0.11145498212335754,-1.9466916787164437,0.13361073372761403,2.595551783932506,0.94525066247748,0.1728802376190821,-0.48752024683155326,-0.11147110072896137,-1.9463801863486305,0.1336059019074957,2.595550359778934,0.9452445589611904,-0.0002465612938783146,-0.00039737958555794496,0.000570809863710891,-0.00017776160436477236,0.00034493536029947113,0.00036458582971647663,0.001615639883285477,0.0,0.0,0.0,0.0,0.0,0.0,0.0,5.43296337127408e-05,2.1035338905295298e-05,-1.6118605603826497e-05,0.0003114923678131376,-4.831820118345043e-06,-1.4241535719605736e-06,-6.103516289601707e-06,0.0002465612938783146,0.00039737958555794496,-0.000570809863710891,0.00017776160436477236,-0.00034493536029947113,-0.00036458582971647663,-0.001615639883285477,0.14510458707809448,12.024682998657227,-1.2433807849884033,-21.717256546020508,-0.3793235421180725,-2.5143465995788574,0.23471395671367645,0
3,0.010002851486206055,-0.14510458707809448,-12.024682998657227,1.2433807849884033,21.717256546020508,0.3793235421180725,2.5143465995788574,-0.23471395671367645,0.0,0.0,0.0,0.0,0.0,0.0,0.0,-0.16241603476405364,0.3281995027314209,0.06534570749776761,0.4088363987599939,-0.14704836006136449,0.1245589084302404,-0.21556202815930053,0.17282590798536937,-0.48754128217045856,-0.11145498212335754,-1.9466916787164437,0.13361073372761403,2.595551783932506,0.94525066247748,0.1728802376190821,-0.48752024683155326,-0.11147110072896137,-1.9463801863486305,0.1336059019074957,2.595550359778934,0.9452445589611904,-0.0002465612938783146,-0.00039737958555794496,0.000570809863710891,-0.00017776160436477236,0.00034493536029947113,0.00036458582971647663,0.001615639883285477,0.0,0.0,0.0,0.0,0.0,0.0,0.0,5.43296337127408e-05,2.1035338905295298e-05,-1.6118605603826497e-05,0.0003114923678131376,-4.831820118345043e-06,-1.4241535719605736e-06,-6.103516289601707e-06,0.0002465612938783146,0.00039737958555794496,-0.000570809863710891,0.00017776160436477236,-0.00034493536029947113,-0.00036458582971647663,-0.001615639883285477,0.14510458707809448,12.024682998657227,-1.2433807849884033,-21.717256546020508,-0.3793235421180725,-2.5143465995788574,0.23471395671367645,0
4,0.015005826950073242,-0.19667929410934448,-11.973108291625977,1.2433807849884033,21.641878128051758,0.3793235421180725,2.5143465995788574,-0.22830526530742645,0.0,0.0,0.0,0.0,0.0,0.0,0.0,-0.1598072232410592,0.34347877370730256,0.07066494442419538,0.40250157955438076,-0.14755189502319405,0.12264961447452061,-0.21437468487006892,0.17282952726305575,-0.4875470983666151,-0.11145427182665463,-1.9466863890028836,0.13361073372761406,2.5955517838787445,0.9452499504006571,0.1728802376190821,-0.48752024683155326,-0.11147110072896137,-1.9463801863486305,0.1336059019074957,2.595550359778934,0.9452445589611904,0.0008384024095449369,0.0005541163431786662,0.00025688116124616636,0.0017080183226594987,0.0003427453103396766,0.00036041619313449767,0.0011813963281582522,0.0,0.0,0.0,0.0,0.0,0.0,0.0,5.071035602635665e-05,2.6851535061822585e-05,-1.6828902306739724e-05,0.0003062026542530738,-4.831820118372798e-06,-1.4240998105208291e-06,-5.3914394666509935e-06,-0.0008384024095449369,-0.0005541163431786662,-0.00025688116124616636,-0.0017080183226594987,-0.0003427453103396766,-0.00036041619313449767,-0.0011813963281582522,0.19667929410934448,11.973108291625977,-1.2433807849884033,-21.641878128051758,-0.3793235421180725,-2.5143465995788574,0.22830526530742645,0
5,0.020003080368041992,-0.19667929410934448,-11.973108291625977,1.2433807849884033,21.641878128051758,0.3793235421180725,2.5143465995788574,-0.22830526530742645,0.0,0.0,0.0,0.0,0.0,0.0,0.0,-0.1598072232410592,0.34347877370730256,0.07066494442419538,0.40250157955438076,-0.14755189502319405,0.12264961447452061,-0.21437468487006892,0.17282952726305575,-0.4875470983666151,-0.11145427182665463,-1.9466863890028836,0.13361073372761406,2.5955517838787445,0.9452499504006571,0.1728802376190821,-0.48752024683155326,-0.11147110072896137,-1.9463801863486305,0.1336059019074957,2.595550359778934,0.9452445589611904,0.0008384024095449369,0.0005541163431786662,0.00025688116124616636,0.0017080183226594987,0.0003427453103396766,0.00036041619313449767,0.0011813963281582522,0.0,0.0,0.0,0.0,0.0,0.0,0.0,5.071035602635665e-05,2.6851535061822585e-05,-1.6828902306739724e-05,0.0003062026542530738,-4.831820118372798e-06,-1.4240998105208291e-06,-5.3914394666509935e-06,-0.0008384024095449369,-0.0005541163431786662,-0.00025688116124616636,-0.0017080183226594987,-0.0003427453103396766,-0.00036041619313449767,-0.0011813963281582522,0.19667929410934448,11.973108291625977,-1.2433807849884033,-21.641878128051758,-0.3793235421180725,-2.5143465995788574,0.22830526530742645,0
6,0.025431156158447266,-0.14510458707809448,-11.901697158813477,1.2433807849884033,21.669649124145508,0.3976340889930725,2.5079379081726074,-0.15964071452617645,0.0,0.0,0.0,0.0,0.0,0.0,0.0,-0.15434528826943317,0.365212768671257,0.07543740124486996,0.39673548230313094,-0.14863447656217108,0.12071829942969502,-0.21304116106325502,0.17282590798536937,-0.4875523768854565,-0.11145450858553951,-1.9466883378447148,0.1336055004398028,2.595552378110327,0.9452423210061258,0.1728802376190821,-0.48752024683155326,-0.11147110072896137,-1.9463801863486305,0.1336059019074957,2.595550359778934,0.9452445589611904,-3.67199960758986e-05,0.0005145940636906053,0.0002184563824547175,0.0002467733394872425,-0.00043381973395254013,0.00020638153069024753,-0.001711624022444899,0.0,0.0,0.0,0.0,0.0,0.0,0.0,5.43296337127408e-05,3.213005390323431e-05,-1.6592143421853556e-05,0.000308151496084319,4.014676928953964e-07,-2.0183313931276814e-06,2.2379550645990065e-06,3.67199960758986e-05,-0.0005145940636906053,-0.0002184563824547175,-0.0002467733394872425,0.00043381973395254013,-0.00020638153069024753,0.001711624022444899,0.14510458707809448,11.901697158813477,-1.2433807849884033,-21.669649124145508,-0.3976340889930725,-2.5079379081726074,0.15964071452617645,0
7,0.030000686645507812,-0.14510458707809448,-11.901697158813477,1.2433807849884033,21.669649124145508,0.3976340889930725,2.5079379081726074,-0.15964071452617645,0.0,0.0,0.0,0.0,0.0,0.0,0.0,-0.15434528826943317,0.365212768671257,0.07543740124486996,0.39673548230313094,-0.14863447656217108,0.12071829942969502,-0.21304116106325502,0.17282590798536937,-0.4875523768854565,-0.11145450858553951,-1.9466883378447148,0.1336055004398028,2.595552378110327,0.9452423210061258,0.1728802376190821,-0.48752024683155326,-0.11147110072896137,-1.9463801863486305,0.1336059019074957,2.595550359778934,0.9452445589611904,-3.67199960758986e-05,0.0005145940636906053,0.0002184563824547175,0.0002467733394872425,-0.00043381973395254013,0.00020638153069024753,-0.001711624022444899,0.0,0.0,0.0,0.0,0.0,0.0,0.0,5.43296337127408e-05,3.213005390323431e-05,-1.6592143421853556e-05,0.000308151496084319,4.014676928953964e-07,-2.0183313931276814e-06,2.2379550645990065e-06,3.67199960758986e-05,-0.0005145940636906053,-0.0002184563824547175,-0.0002467733394872425,0.00043381973395254013,-0.00020638153069024753,0.001711624022444899,0.14510458707809448,11.901697158813477,-1.2433807849884033,-21.669649124145508,-0.3976340889930725,-2.5079379081726074,0.15964071452617645,0
8,0.03500533103942871,-0.19667929410934448,-11.850122451782227,1.2433807849884033,21.717256546020508,0.3857322335243225,2.5207552909851074,-0.22098104655742645,0.0,0.0,0.0,0.0,0.0,0.0,0.0,-0.16030895064657175,0.34571517718065536,0.06477379094178433,0.4156695546204621,-0.14793510527025683,0.12307822174237584,-0.21236059117367184,0.17282952726305575,-0.4875559937299547,-0.11145427182398149,-1.9466917581892849,0.13361002163273394,2.595551071855091,0.9452491365985738,0.1728802376190821,-0.48752024683155326,-0.11147110072896137,-1.9463801863486305,0.1336059019074957,2.595550359778934,0.9452445589611904,0.0008427426098109179,-0.0013698191996971206,0.000176243476970272,-0.0005535723842238285,8.918955246880924e-05,0.0001249786240815037,0.00031512593599849,0.0,0.0,0.0,0.0,0.0,0.0,0.0,5.071035602635665e-05,3.5746898401411986e-05,-1.682890497987921e-05,0.0003115718406543344,-4.119725238255212e-06,-7.120761571499656e-07,-4.5776373833739115e-06,-0.0008427426098109179,0.0013698191996971206,-0.000176243476970272,0.0005535723842238285,-8.918955246880924e-05,-0.0001249786240815037,-0.00031512593599849,0.19667929410934448,11.850122451782227,-1.2433807849884033,-21.717256546020508,-0.3857322335243225,-2.5207552909851074,0.22098104655742645,0
9,0.03999638557434082,-0.19667929410934448,-11.850122451782227,1.2433807849884033,21.717256546020508,0.3857322335243225,2.5207552909851074,-0.22098104655742645,0.0,0.0,0.0,0.0,0.0,0.0,0.0,-0.16030895064657175,0.34571517718065536,0.06477379094178433,0.4156695546204621,-0.14793510527025683,0.12307822174237584,-0.21236059117367184,0.17282952726305575,-0.4875559937299547,-0.11145427182398149,-1.9466917581892849,0.13361002163273394,2.595551071855091,0.9452491365985738,0.1728802376190821,-0.48752024683155326,-0.11147110072896137,-1.9463801863486305,0.1336059019074957,2.595550359778934,0.9452445589611904,0.0008427426098109179,-0.0013698191996971206,0.000176243476970272,-0.0005535723842238285,8.918955246880924e-05,0.0001249786240815037,0.00031512593599849,0.0,0.0,0.0,0.0,0.0,0.0,0.0,5.071035602635665e-05,3.5746898401411986e-05,-1.682890497987921e-05,0.0003115718406543344,-4.119725238255212e-06,-7.120761571499656e-07,-4.5776373833739115e-06,-0.0008427426098109179,0.0013698191996971206,-0.000176243476970272,0.0005535723842238285,-8.918955246880924e-05,-0.0001249786240815037,-0.00031512593599849,0.19667929410934448,11.850122451782227,-1.2433807849884033,-21.717256546020508,-0.3857322335243225,-2.5207552909851074,0.22098104655742645,0
10,0.0449979305267334,-0.19667929410934448,-11.850122451782227,1.2433807849884033,21.717256546020508,0.3857322335243225,2.5207552909851074,-0.22098104655742645,0.0,0.0,0.0,0.0,0.0,0.0,0.0,-0.16030895064657175,0.34571517718065536,0.06477379094178433,0.4156695546204621,-0.14793510527025683,0.12307822174237584,-0.21236059117367184,0.17282952726305575,-0.4875559937299547,-0.11145427182398149,-1.9466917581892849,0.13361002163273394,2.595551071855091,0.9452491365985738,0.1728802376190821,-0.48752024683155326,-0.11147110072896137,-1.9463801863486305,0.1336059019074957,2.595550359778934,0.9452445589611904,0.0008427426098109179,-0.0013698191996971206,0.000176243476970272,-0.0005535723842238285,8.918955246880924e-05,0.0001249786240815037,0.00031512593599849,0.0,0.0,0.0,0.0,0.0,0.0,0.0,5.071035602635665e-05,3.5746898401411986e-05,-1.682890497987921e-05,0.0003115718406543344,-4.119725238255212e-06,-7.120761571499656e-07,-4.5776373833739115e-06,-0.0008427426098109179,0.0013698191996971206,-0.000176243476970272,0.0005535723842238285,-8.918955246880924e-05,-0.0001249786240815037,-0.00031512593599849,0.19667929410934448,11.850122451782227,-1.2433807849884033,-21.717256546020508,-0.3857322335243225,-2.5207552909851074,0.22098104655742645,0
11,0.04999947547912598,-0.19667929410934448,-11.850122451782227,1.2433807849884033,21.717256546020508,0.3857322335243225,2.5207552909851074,-0.22098104655742645,0.0,0.0,0.0,0.0,0.0,0.0,0.0,-0.16030895064657175,0.34571517718065536,0.06477379094178433,0.4156695546204621,-0.14793510527025683,0.12307822174237584,-0.21236059117367184,0.17282952726305575,-0.4875559937299547,-0.11145427182398149,-1.9466917581892849,0.13361002163273394,2.595551071855091,0.9452491365985738,0.1728802376190821,-0.48752024683155326,-0.11147110072896137,-1.9463801863486305,0.1336059019074957,2.595550359778934,0.9452445589611904,0.0008427426098109179,-0.0013698191996971206,0.000176243476970272,-0.0005535723842238285,8.918955246880924e-05,0.0001249786240815037,0.00031512593599849,0.0,0.0,0.0,0.0,0.0,0.0,0.0,5.071035602635665e-05,3.5746898401411986e-05,-1.682890497987921e-05,0.0003115718406543344,-4.119725238255212e-06,-7.120761571499656e-07,-4.5776373833739115e-06,-0.0008427426098109179,0.0013698191996971206,-0.000176243476970272,0.0005535723842238285,-8.918955246880924e-05,-0.0001249786240815037,-0.00031512593599849,0.19667929410934448,11.850122451782227,-1.2433807849884033,-21.717256546020508,-0.3857322335243225,-2.5207552909851074,0.22098104655742645,0
12,0.054994821548461914,-0.17287558317184448,-12.048486709594727,1.2671844959259033,21.717256546020508,0.3793235421180725,2.5271639823913574,-0.21457235515117645,0.0,0.0,0.0,0.0,0.0,0.0,0.0,-0.16459041976799782,0.3316278335694993,0.057739695742546754,0.4281684375649344,-0.14739158251563073,0.12543540992716665,-0.2144211135553487,0.1728278568272005,-0.48753897740546187,-0.11145594225850022,-1.9466916796980203,0.13361073372761398,2.595550359778934,0.9452484245217508,0.1728802376190821,-0.48752024683155326,-0.11147110072896137,-1.9463801863486305,0.1336059019074957,2.595550359778934,0.9452445589611904,-0.00023463294296914705,0.0016019158416906165,-0.0008441219212821734,-0.0005969417044296596,0.0002862757200561555,-9.73712697118297e-05,-0.00037308259201016724,0.0,0.0,0.0,0.0,0.0,0.0,0.0,5.23807918816066e-05,1.873057390860966e-05,-1.5158470461143492e-05,0.0003114933493897354,-4.8318201182895315e-06,0.0,-3.865560560423198e-06,0.00023463294296914705,-0.0016019158416906165,0.0008441219212821734,0.0005969417044296596,-0.0002862757200561555,9.73712697118297e-05,0.00037308259201016724,0.17287558317184448,12.048486709594727,-1.2671844959259033,-21.717256546020508,-0.3793235421180725,-2.5271639823913574,0.21457235515117645,0
13,0.06000804901123047,-0.17287558317184448,-12.048486709594727,1.2671844959259033,21.717256546020508,0.3793235421180725,2.5271639823913574,-0.21457235515117645,0.0,0.0,0.0,0.0,0.0,0.0,0.0,-0.16459041976799782,0.3316278335694993,0.057739695742546754,0.4281684375649344,-0.14739158251563073,0.12543540992716665,-0.2144211135553487,0.1728278568272005,-0.48753897740546187,-0.11145594225850022,-1.9466916796980203,0.13361073372761398,2.595550359778934,0.9452484245217508,0.1728802376190821,-0.48752024683155326,-0.11147110072896137,-1.9463801863486305,0.1336059019074957,2.595550359778934,0.9452445589611904,-0.00023463294296914705,0.0016019158416906165,-0.0008441219212821734,-0.0005969417044296596,0.0002862757200561555,-9.73712697118297e-05,-0.00037308259201016724,0.0,0.0,0.0,0.0,0.0,0.0,0.0,5.23807918816066e-05,1.873057390860966e-05,-1.5158470461143492e-05,0.0003114933493897354,-4.8318201182895315e-06,0.0,-3.865560560423198e-06,0.00023463294296914705,-0.0016019158416906165,0.0008441219212821734,0.0005969417044296596,-0.0002862757200561555,9.73712697118297e-05,0.00037308259201016724,0.17287558317184448,12.048486709594727,-1.2671844959259033,-21.717256546020508,-0.3793235421180725,-2.5271639823913574,0.21457235515117645,0
14,0.06499838829040527,-0.09352988004684448,-12.048486709594727,1.2156097888946533,21.717256546020508,0.3912253975868225,2.5271639823913574,-0.20083944499492645,0.0,0.0,0.0,0.0,0.0,0.0,0.0,-0.16080992013009243,0.3572573441913295,0.05991158343040452,0.4163598262931498,-0.14678163305451805,0.12395209604917075,-0.21656009228790962,0.17282252602247233,-0.4875396923166732,-0.11145232590381252,-1.9466916790434796,0.13360941129922865,2.595550359778934,0.9452468986428446,0.1728802376190821,-0.48752024683155326,-0.11147110072896137,-1.9463801863486305,0.1336059019074957,2.595550359778934,0.9452445589611904,-0.0012676966758275656,0.0011086921218344725,0.0006774102231016165,0.0003093129398732285,-0.000986089773402075,-3.1000080770696055e-05,-0.00023006213003742045,0.0,0.0,0.0,0.0,0.0,0.0,0.0,5.771159660977743e-05,1.9445485119951034e-05,-1.8774825148851204e-05,0.0003114926948490915,-3.509391732964273e-06,0.0,-2.3396816541954024e-06,0.0012676966758275656,-0.0011086921218344725,-0.0006774102231016165,-0.0003093129398732285,0.000986089773402075,3.1000080770696055e-05,0.00023006213003742045,0.09352988004684448,12.048486709594727,-1.2156097888946533,-21.717256546020508,-0.3912253975868225,-2.5271639823913574,0.20083944499492645,0
15,0.06999540328979492,-0.09352988004684448,-12.048486709594727,1.2156097888946533,21.717256546020508,0.3912253975868225,2.5271639823913574,-0.20083944499492645,0.0,0.0,0.0,0.0,0.0,0.0,0.0,-0.16080992013009243,0.3572573441913295,0.05991158343040452,0.4163598262931498,-0.14678163305451805,0.12395209604917075,-0.21656009228790962,0.17282252602247233,-0.4875396923166732,-0.11145232590381252,-1.9466916790434796,0.13360941129922865,2.595550359778934,0.9452468986428446,0.1728802376190821,-0.48752024683155326,-0.11147110072896137,-1.9463801863486305,0.1336059019074957,2.595550359778934,0.9452445589611904,-0.0012676966758275656,0.0011086921218344725,0.0006774102231016165,0.0003093129398732285,-0.000986089773402075,-3.1000080770696055e-05,-0.00023006213003742045,0.0,0.0,0.0,0.0,0.0,0.0,0.0,5.771159660977743e-05,1.9445485119951034e-05,-1.8774825148851204e-05,0.0003114926948490915,-3.509391732964273e-06,0.0,-2.3396816541954024e-06,0.0012676966758275656,-0.0011086921218344725,-0.0006774102231016165,-0.0003093129398732285,0.000986089773402075,3.1000080770696055e-05,0.00023006213003742045,0.09352988004684448,12.048486709594727,-1.2156097888946533,-21.717256546020508,-0.3912253975868225,-2.5271639823913574,0.20083944499492645,0
16,0.0749964714050293,-0.19667929410934448,-11.973108291625977,1.2671844959259033,21.717256546020508,0.3793235421180725,2.5207552909851074,-0.15964071452617645,0.0,0.0,0.0,0.0,0.0,0.0,0.0,-0.15537032055797123,0.36700783397491293,0.06024359010877715,0.40671143634883555,-0.14703434042329275,0.1228846290686687,-0.2159792951716165,0.17282952726439538,-0.48754655960867127,-0.11145594225851671,-1.9466945397393762,0.13361073372761406,2.595551071855757,0.9452423210061258,0.1728802376190821,-0.48752024683155326,-0.11147110072896137,-1.9463801863486305,0.1336059019074957,2.595550359778934,0.9452445589611904,0.001293453188321565,-0.0008496143126269356,-0.0003723125885293856,9.814602614379346e-05,0.0003116398442144188,0.0003167713859211227,-0.0015177130475729785,0.0,0.0,0.0,0.0,0.0,0.0,0.0,5.0710354686733794e-05,2.631277711800939e-05,-1.515847044465668e-05,0.000314353390745703,-4.831820118372798e-06,-7.120768228396912e-07,2.2379550645990065e-06,-0.001293453188321565,0.0008496143126269356,0.0003723125885293856,-9.814602614379346e-05,-0.0003116398442144188,-0.0003167713859211227,0.0015177130475729785,0.19667929410934448,11.973108291625977,-1.2671844959259033,-21.717256546020508,-0.3793235421180725,-2.5207552909851074,0.15964071452617645,0
17,0.07999873161315918,-0.19667929410934448,-11.973108291625977,1.2671844959259033,21.717256546020508,0.3793235421180725,2.5207552909851074,-0.15964071452617645,0.0,0.0,0.0,0.0,0.0,0.0,0.0,-0.15537032055797123,0.36700783397491293,0.06024359010877715,0.40671143634883555,-0.14703434042329275,0.1228846290686687,-0.2159792951716165,0.17282952726439538,-0.48754655960867127,-0.11145594225851671,-1.9466945397393762,0.13361073372761406,2.595551071855757,0.9452423210061258,0.1728802376190821,-0.48752024683155326,-0.11147110072896137,-1.9463801863486305,0.1336059019074957,2.595550359778934,0.9452445589611904,0.001293453188321565,-0.0008496143126269356,-0.0003723125885293856,9.814602614379346e-05,0.0003116398442144188,0.0003167713859211227,-0.0015177130475729785,0.0,0.0,0.0,0.0,0.0,0.0,0.0,5.0710354686733794e-05,2.631277711800939e-05,-1.515847044465668e-05,0.000314353390745703,-4.831820118372798e-06,-7.120768228396912e-07,2.2379550645990065e-06,-0.001293453188321565,0.0008496143126269356,0.0003723125885293856,-9.814602614379346e-05,-0.0003116398442144188,-0.0003167713859211227,0.0015177130475729785,0.19667929410934448,11.973108291625977,-1.2671844959259033,-21.717256546020508,-0.3793235421180725,-2.5207552909851074,0.15964071452617645,0
18,0.08501648902893066,-0.12130087614059448,-12.000879287719727,1.2671844959259033,21.641878128051758,0.3912253975868225,2.5271639823913574,-0.22830526530742645,0.0,0.0,0.0,0.0,0.0,0.0,0.0,-0.15896701586636447,0.3460041541086904,0.06086600675364695,0.4138974957507726,-0.14653164931934948,0.12432337175761689,-0.21479673983478836,0.1728242375495141,-0.48754318066703417,-0.1114559510635827,-1.9466886142846775,0.13360941129922865,2.595550359778934,0.9452499504006571,0.1728802376190821,-0.48752024683155326,-0.11147110072896137,-1.9463801863486305,0.1336059019074957,2.595550359778934,0.9452445589611904,-0.0008482608713318057,-0.00019201709747681834,-0.0001704000124421853,0.0013889735992544934,0.0001241836165147934,-0.00025973908768239014,0.0008234433782059365,0.0,0.0,0.0,0.0,0.0,0.0,0.0,5.600006956801851e-05,2.2933835480909437e-05,-1.5149665378660915e-05,0.0003084279360470177,-3.509391732964273e-06,0.0,-5.3914394666509935e-06,0.0008482608713318057,0.00019201709747681834,0.0001704000124421853,-0.0013889735992544934,-0.0001241836165147934,0.00025973908768239014,-0.0008234433782059365,0.12130087614059448,12.000879287719727,-1.2671844959259033,-21.641878128051758,-0.3912253975868225,-2.5271639823913574,0.22830526530742645,0
19,0.09000325202941895,-0.12130087614059448,-12.000879287719727,1.2671844959259033,21.641878128051758,0.3912253975868225,2.5271639823913574,-0.22830526530742645,0.0,0.0,0.0,0.0,0.0,0.0,0.0,-0.15896701586636447,0.3460041541086904,0.06086600675364695,0.4138974957507726,-0.14653164931934948,0.12432337175761689,-0.21479673983478836,0.1728242375495141,-0.48754318066703417,-0.1114559510635827,-1.9466886142846775,0.13360941129922865,2.595550359778934,0.9452499504006571,0.1728802376190821,-0.48752024683155326,-0.11147110072896137,-1.9463801863486305,0.1336059019074957,2.595550359778934,0.9452445589611904,-0.0008482608713318057,-0.00019201709747681834,-0.0001704000124421853,0.0013889735992544934,0.0001241836165147934,-0.00025973908768239014,0.0008234433782059365,0.0,0.0,0.0,0.0,0.0,0.0,0.0,5.600006956801851e-05,2.2933835480909437e-05,-1.5149665378660915e-05,0.0003084279360470177,-3.509391732964273e-06,0.0,-5.3914394666509935e-06,0.0008482608713318057,0.00019201709747681834,0.0001704000124421853,-0.0013889735992544934,-0.0001241836165147934,0.00025973908768239014,-0.0008234433782059365,0.12130087614059448,12.000879287719727,-1.2671844959259033,-21.641878128051758,-0.3912253975868225,-2.5271639823913574,0.22830526530742645,0
20,0.09526419639587402,-0.09352988004684448,-11.973108291625977,1.2671844959259033,21.741060256958008,0.3976340889930725,2.5271639823913574,-0.19351522624492645,0.0,0.0,0.0,0.0,0.0,0.0,0.0,-0.1563587831525236,0.3433473285999933,0.07047156292808464,0.4109388471894576,-0.14594074930810114,0.12390688673532745,-0.21483716700576572,0.17282228870768296,-0.48754450243617936,-0.11145602215384766,-1.9466933501459889,0.13360869922240573,2.595550359778934,0.9452460848407613,0.1728802376190821,-0.48752024683155326,-0.11147110072896137,-1.9463801863486305,0.1336059019074957,2.595550359778934,0.9452445589611904,-0.0011029761617375076,-0.0006117389458814439,0.0004335953945874269,-0.0011508215245088528,-0.0003628302780772066,-0.0002903708091126919,-0.00014285299165074807,0.0,0.0,0.0,0.0,0.0,0.0,0.0,5.79489113991527e-05,2.425560462609999e-05,-1.5078575113708359e-05,0.0003131637973583512,-2.7973149100413153e-06,0.0,-1.5258795709183204e-06,0.0011029761617375076,0.0006117389458814439,-0.0004335953945874269,0.0011508215245088528,0.0003628302780772066,0.0002903708091126919,0.00014285299165074807,0.09352988004684448,11.973108291625977,-1.2671844959259033,-21.741060256958008,-0.3976340889930725,-2.5271639823913574,0.19351522624492645,0
21,0.10000252723693848,-0.09352988004684448,-11.973108291625977,1.2671844959259033,21.741060256958008,0.3976340889930725,2.5271639823913574,-0.19351522624492645,0.0,0.0,0.0,0.0,0.0,0.0,0.0,-0.1563587831525236,0.3433473285999933,0.07047156292808464,0.4109388471894576,-0.14594074930810114,0.12390688673532745,-0.21483716700576572,0.17282228870768296,-0.48754450243617936,-0.11145602215384766,-1.9466933501459889,0.13360869922240573,2.595550359778934,0.9452460848407613,0.1728802376190821,-0.48752024683155326,-0.11147110072896137,-1.9463801863486305,0.1336059019074957,2.595550359778934,0.9452445589611904,-0.0011029761617375076,-0.0006117389458814439,0.0004335953945874269,-0.0011508215245088528,-0.0003628302780772066,-0.0002903708091126919,-0.00014285299165074807,0.0,0.0,0.0,0.0,0.0,0.0,0.0,5.79489113991527e-05,2.425560462609999e-05,-1.5078575113708359e-05,0.0003131637973583512,-2.7973149100413153e-06,0.0,-1.5258795709183204e-06,0.0011029761617375076,0.0006117389458814439,-0.0004335953945874269,0.0011508215245088528,0.0003628302780772066,0.0002903708091126919,0.00014285299165074807,0.09352988004684448,11.973108291625977,-1.2671844959259033,-21.741060256958008,-0.3976340889930725,-2.5271639823913574,0.19351522624492645,0
22,0.10537242889404297,-0.17287558317184448,-12.024682998657227,1.2671844959259033,21.717256546020508,0.3912253975868225,2.5207552909851074,-0.20724813640117645,0.0,0.0,0.0,0.0,0.0,0.0,0.0,-0.15744687302072938,0.3356418460437244,0.06950153012377036,0.40969126298794706,-0.14591084393091774,0.1237992323646062,-0.21370726391298187,0.1728278568272005,-0.4875429435624269,-0.11145594225895122,-1.9466916787164308,0.13360941129922865,2.595551071855757,0.9452476107196676,0.1728802376190821,-0.48752024683155326,-0.11147110072896137,-1.9463801863486305,0.1336059019074957,2.595550359778934,0.9452445589611904,0.0008690237693909511,0.0004325446766533261,0.0004938652022143626,-0.00023261968649711622,-0.00022375547682899395,0.00013626710600206395,0.005404692914246768,0.0,0.0,0.0,0.0,0.0,0.0,0.0,5.23807918816066e-05,2.2696730873628113e-05,-1.5158470010143144e-05,0.000311492367800259,-3.509391732964273e-06,-7.120768228396912e-07,-3.051758477146116e-06,-0.0008690237693909511,-0.0004325446766533261,-0.0004938652022143626,0.00023261968649711622,0.00022375547682899395,-0.00013626710600206395,-0.005404692914246768,0.17287558317184448,12.024682998657227,-1.2671844959259033,-21.717256546020508,-0.3912253975868225,-2.5207552909851074,0.20724813640117645,0
23,0.1100473403930664,-0.17287558317184448,-12.024682998657227,1.2671844959259033,21.717256546020508,0.3912253975868225,2.5207552909851074,-0.20724813640117645,0.0,0.0,0.0,0.0,0.0,0.0,0.0,-0.15744687302072938,0.3356418460437244,0.06950153012377036,0.40969126298794706,-0.14591084393091774,0.1237992323646062,-0.21370726391298187,0.1728278568272005,-0.4875429435624269,-0.11145594225895122,-1.9466916787164308,0.13360941129922865,2.595551071855757,0.9452476107196676,0.1728802376190821,-0.48752024683155326,-0.11147110072896137,-1.9463801863486305,0.1336059019074957,2.595550359778934,0.9452445589611904,0.0008690237693909511,0.0004325446766533261,0.0004938652022143626,-0.00023261968649711622,-0.00022375547682899395,0.00013626710600206395,0.005404692914246768,0.0,0.0,0.0,0.0,0.0,0.0,0.0,5.23807918816066e-05,2.2696730873628113e-05,-1.5158470010143144e-05,0.000311492367800259,-3.509391732964273e-06,-7.120768228396912e-07,-3.051758477146116e-06,-0.0008690237693909511,-0.0004325446766533261,-0.0004938652022143626,0.00023261968649711622,0.00022375547682899395,-0.00013626710600206395,-0.005404692914246768,0.17287558317184448,12.024682998657227,-1.2671844959259033,-21.717256546020508,-0.3912253975868225,-2.5207552909851074,0.20724813640117645,0
24,0.11499714851379395,-0.14510458707809448,-12.024682998657227,1.2671844959259033,21.717256546020508,0.3912253975868225,2.5143465995788574,-0.17978231608867645,0.0,0.0,0.0,0.0,0.0,0.0,0.0,-0.1575944152860845,0.3182868336749619,0.07263546524343452,0.41509126786905925,-0.14621221378258958,0.12498028104397853,-0.2144783359958583,0.17282590798536937,-0.4875406346094921,-0.11145594225850021,-1.9466916826773497,0.13360941129922865,2.5955517839325797,0.945244558961855,0.1728802376190821,-0.48752024683155326,-0.11147110072896137,-1.9463801863486305,0.1336059019074957,2.595550359778934,0.9452445589611904,-0.0006378698039105745,-0.00025033565677674347,0.0006979361595233098,4.7617911507859895e-05,-0.0001872114790723334,0.0004109410753720106,-0.0007379014720653806,0.0,0.0,0.0,0.0,0.0,0.0,0.0,5.43296337127408e-05,2.038777793883506e-05,-1.515847046115737e-05,0.0003114963287191852,-3.509391732964273e-06,-1.4241536456793824e-06,-6.645795025406187e-13,0.0006378698039105745,0.00025033565677674347,-0.0006979361595233098,-4.7617911507859895e-05,0.0001872114790723334,-0.0004109410753720106,0.0007379014720653806,0.14510458707809448,12.024682998657227,-1.2671844959259033,-21.717256546020508,-0.3912253975868225,-2.5143465995788574,0.17978231608867645,0
25,0.1199960708618164,-0.14510458707809448,-12.024682998657227,1.2671844959259033,21.717256546020508,0.3912253975868225,2.5143465995788574,-0.17978231608867645,0.0,0.0,0.0,0.0,0.0,0.0,0.0,-0.1575944152860845,0.3182868336749619,0.07263546524343452,0.41509126786905925,-0.14621221378258958,0.12498028104397853,-0.2144783359958583,0.17282590798536937,-0.4875406346094921,-0.11145594225850021,-1.9466916826773497,0.13360941129922865,2.5955517839325797,0.945244558961855,0.1728802376190821,-0.48752024683155326,-0.11147110072896137,-1.9463801863486305,0.1336059019074957,2.595550359778934,0.9452445589611904,-0.0006378698039105745,-0.00025033565677674347,0.0006979361595233098,4.7617911507859895e-05,-0.0001872114790723334,0.0004109410753720106,-0.0007379014720653806,0.0,0.0,0.0,0.0,0.0,0.0,0.0,5.43296337127408e-05,2.038777793883506e-05,-1.515847046115737e-05,0.0003114963287191852,-3.509391732964273e-06,-1.4241536456793824e-06,-6.645795025406187e-13,0.0006378698039105745,0.00025033565677674347,-0.0006979361595233098,-4.7617911507859895e-05,0.0001872114790723334,-0.0004109410753720106,0.0007379014720653806,0.14510458707809448,12.024682998657227,-1.2671844959259033,-21.717256546020508,-0.3912253975868225,-2.5143465995788574,0.17978231608867645,0
26,0.12500214576721191,-0.17287558317184448,-12.024682998657227,1.2671844959259033,21.717256546020508,0.3912253975868225,2.5207552909851074,-0.22098104655742645,0.0,0.0,0.0,0.0,0.0,0.0,0.0,-0.16039367230510573,0.32284934589643904,0.07054866843397546,0.4100311163981708,-0.14600357316553725,0.12412450257337222,-0.21425301089534304,0.1728278568272005,-0.4875437194661451,-0.11145594258327784,-1.9466916788254638,0.13360941129922865,2.595551071855757,0.9452491365985738,0.1728802376190821,-0.48752024683155326,-0.11147110072896137,-1.9463801863486305,0.1336059019074957,2.595550359778934,0.9452445589611904,0.0005643756781641125,0.0001346185859891721,-0.000336123140094141,-0.00019735917767444585,-0.00013523117704112374,0.0002532162548645299,0.0006414439131456613,0.0,0.0,0.0,0.0,0.0,0.0,0.0,5.23807918816066e-05,2.3472634591847896e-05,-1.5158145683522029e-05,0.00031149247683326386,-3.509391732964273e-06,-7.120768228396912e-07,-4.5776373833739115e-06,-0.0005643756781641125,-0.0001346185859891721,0.000336123140094141,0.00019735917767444585,0.00013523117704112374,-0.0002532162548645299,-0.0006414439131456613,0.17287558317184448,12.024682998657227,-1.2671844959259033,-21.717256546020508,-0.3912253975868225,-2.5207552909851074,0.22098104655742645,0
27,0.12999606132507324,-0.17287558317184448,-12.024682998657227,1.2671844959259033,21.717256546020508,0.3912253975868225,2.5207552909851074,-0.22098104655742645,0.0,0.0,0.0,0.0,0.0,0.0,0.0,-0.16039367230510573,0.32284934589643904,0.07054866843397546,0.4100311163981708,-0.14600357316553725,0.12412450257337222,-0.21425301089534304,0.1728278568272005,-0.4875437194661451,-0.11145594258327784,-1.9466916788254638,0.13360941129922865,2.595551071855757,0.9452491365985738,0.1728802376190821,-0.48752024683155326,-0.11147110072896137,-1.9463801863486305,0.1336059019074957,2.595550359778934,0.9452445589611904,0.0005643756781641125,0.0001346185859891721,-0.000336123140094141,-0.00019735917767444585,-0.00013523117704112374,0.0002532162548645299,0.0006414439131456613,0.0,0.0,0.0,0.0,0.0,0.0,0.0,5.23807918816066e-05,2.3472634591847896e-05,-1.5158145683522029e-05,0.00031149247683326386,-3.509391732964273e-06,-7.120768228396912e-07,-4.5776373833739115e-06,-0.0005643756781641125,-0.0001346185859891721,0.000336123140094141,0.00019735917767444585,0.00013523117704112374,-0.0002532162548645299,-0.0006414439131456613,0.17287558317184448,12.024682998657227,-1.2671844959259033,-21.717256546020508,-0.3912253975868225,-2.5207552909851074,0.22098104655742645,0
28,0.13499975204467773,-0.12130087614059448,-11.973108291625977,1.2433807849884033,21.717256546020508,0.3857322335243225,2.5207552909851074,-0.24112264811992645,0.0,0.0,0.0,0.0,0.0,0.0,0.0,-0.1586631695939728,0.3405240933946132,0.06892047510916953,0.40001437784280175,-0.14623158901529873,0.12314377393978308,-0.21487049697896735,0.1728242404793263,-0.487544952576823,-0.11145427182264679,-1.9466916816598652,0.13361002165079114,2.595551071855757,0.945251374554303,0.1728802376190821,-0.48752024683155326,-0.11147110072896137,-1.9463801863486305,0.1336059019074957,2.595550359778934,0.9452445589611904,-0.000788203783754436,0.00019973004791679424,0.00011018466217438407,-0.0005483249542278499,4.413592215591644e-05,2.0409089585638706e-05,0.001811529363839209,0.0,0.0,0.0,0.0,0.0,0.0,0.0,5.59971397558201e-05,2.4705745269748558e-05,-1.6828906314575454e-05,0.00031149531123464413,-4.11974329544984e-06,-7.120768228396912e-07,-6.8155931125524205e-06,0.000788203783754436,-0.00019973004791679424,-0.00011018466217438407,0.0005483249542278499,-4.413592215591644e-05,-2.0409089585638706e-05,-0.001811529363839209,0.12130087614059448,11.973108291625977,-1.2433807849884033,-21.717256546020508,-0.3857322335243225,-2.5207552909851074,0.24112264811992645,0
29,0.13999676704406738,-0.12130087614059448,-11.973108291625977,1.2433807849884033,21.717256546020508,0.3857322335243225,2.5207552909851074,-0.24112264811992645,0.0,0.0,0.0,0.0,0.0,0.0,0.0,-0.1586631695939728,0.3405240933946132,0.06892047510916953,0.40001437784280175,-0.14623158901529873,0.12314377393978308,-0.21487049697896735,0.1728242404793263,-0.487544952576823,-0.11145427182264679,-1.9466916816598652,0.13361002165079114,2.595551071855757,0.945251374554303,0.1728802376190821,-0.48752024683155326,-0.11147110072896137,-1.9463801863486305,0.1336059019074957,2.595550359778934,0.9452445589611904,-0.000788203783754436,0.00019973004791679424,0.00011018466217438407,-0.0005483249542278499,4.413592215591644e-05,2.0409089585638706e-05,0.001811529363839209,0.0,0.0,0.0,0.0,0.0,0.0,0.0,5.59971397558201e-05,2.4705745269748558e-05,-1.6828906314575454e-05,0.00031149531123464413,-4.11974329544984e-06,-7.120768228396912e-07,-6.8155931125524205e-06,0.000788203783754436,-0.00019973004791679424,-0.00011018466217438407,0.0005483249542278499,-4.413592215591644e-05,-2.0409089585638706e-05,-0.001811529363839209,0.12130087614059448,11.973108291625977,-1.2433807849884033,-21.717256546020508,-0.3857322335243225,-2.5207552909851074,0.24112264811992645,0
30,0.1450026035308838,-0.12130087614059448,-11.901697158813477,1.2433807849884033,21.669649124145508,0.3857322335243225,2.5143465995788574,-0.24844686686992645,0.0,0.0,0.0,0.0,0.0,0.0,0.0,-0.15804940917587615,0.35611002005950515,0.0649604679550272,0.397627562826502,-0.14586250014812452,0.12254843983193217,-0.2148975370535863,0.1728242375495306,-0.48754998483838113,-0.11145450858553949,-1.9466904839389922,0.13361002165079114,2.5955517839325797,0.9452521883563862,0.1728802376190821,-0.48752024683155326,-0.11147110072896137,-1.9463801863486305,0.1336059019074957,2.595550359778934,0.9452445589611904,-0.0010433527563913844,0.0001913878964359701,-0.0003298344946041974,0.0006016286577022371,0.0001884849532506351,0.0003760934651192026,0.001743242017090218,0.0,0.0,0.0,0.0,0.0,0.0,0.0,5.600006955150394e-05,2.9738006827872976e-05,-1.659214342188131e-05,0.0003102975903617189,-4.11974329544984e-06,-1.4241536456793824e-06,-7.629395195829503e-06,0.0010433527563913844,-0.0001913878964359701,0.0003298344946041974,-0.0006016286577022371,-0.0001884849532506351,-0.0003760934651192026,-0.001743242017090218,0.12130087614059448,11.901697158813477,-1.2433807849884033,-21.669649124145508,-0.3857322335243225,-2.5143465995788574,0.24844686686992645,0
31,0.15000534057617188,-0.12130087614059448,-11.901697158813477,1.2433807849884033,21.669649124145508,0.3857322335243225,2.5143465995788574,-0.24844686686992645,0.0,0.0,0.0,0.0,0.0,0.0,0.0,-0.15804940917587615,0.35611002005950515,0.0649604679550272,0.397627562826502,-0.14586250014812452,0.12254843983193217,-0.2148975370535863,0.1728242375495306,-0.48754998483838113,-0.11145450858553949,-1.9466904839389922,0.13361002165079114,2.5955517839325797,0.9452521883563862,0.1728802376190821,-0.48752024683155326,-0.11147110072896137,-1.9463801863486305,0.1336059019074957,2.595550359778934,0.9452445589611904,-0.0010433527563913844,0.0001913878964359701,-0.0003298344946041974,0.0006016286577022371,0.0001884849532506351,0.0003760934651192026,0.001743242017090218,0.0,0.0,0.0,0.0,0.0,0.0,0.0,5.600006955150394e-05,2.9738006827872976e-05,-1.659214342188131e-05,0.0003102975903617189,-4.11974329544984e-06,-1.4241536456793824e-06,-7.629395195829503e-06,0.0010433527563913844,-0.0001913878964359701,0.0003298344946041974,-0.0006016286577022371,-0.0001884849532506351,-0.0003760934651192026,-0.001743242017090218,0.12130087614059448,11.901697158813477,-1.2433807849884033,-21.669649124145508,-0.3857322335243225,-2.5143465995788574,0.24844686686992645,0
32,0.1550135612487793,-0.12130087614059448,-11.901697158813477,1.2433807849884033,21.669649124145508,0.3857322335243225,2.5143465995788574,-0.24844686686992645,0.0,0.0,0.0,0.0,0.0,0.0,0.0,-0.15804940917587615,0.35611002005950515,0.0649604679550272,0.397627562826502,-0.14586250014812452,0.12254843983193217,-0.2148975370535863,0.1728242375495306,-0.48754998483838113,-0.11145450858553949,-1.9466904839389922,0.13361002165079114,2.5955517839325797,0.9452521883563862,0.1728802376190821,-0.48752024683155326,-0.11147110072896137,-1.9463801863486305,0.1336059019074957,2.595550359778934,0.9452445589611904,-0.0010433527563913844,0.0001913878964359701,-0.0003298344946041974,0.0006016286577022371,0.0001884849532506351,0.0003760934651192026,0.001743242017090218,0.0,0.0,0.0,0.0,0.0,0.0,0.0,5.600006955150394e-05,2.9738006827872976e-05,-1.659214342188131e-05,0.0003102975903617189,-4.11974329544984e-06,-1.4241536456793824e-06,-7.629395195829503e-06,0.0010433527563913844,-0.0001913878964359701,0.0003298344946041974,-0.0006016286577022371,-0.0001884849532506351,-0.0003760934651192026,-0.001743242017090218,0.12130087614059448,11.901697158813477,-1.2433807849884033,-21.669649124145508,-0.3857322335243225,-2.5143465995788574,0.24844686686992645,0
33,0.16000890731811523,-0.12130087614059448,-11.901697158813477,1.2433807849884033,21.669649124145508,0.3857322335243225,2.5143465995788574,-0.24844686686992645,0.0,0.0,0.0,0.0,0.0,0.0,0.0,-0.15804940917587615,0.35611002005950515,0.0649604679550272,0.397627562826502,-0.14586250014812452,0.12254843983193217,-0.2148975370535863,0.1728242375495306,-0.48754998483838113,-0.11145450858553949,-1.9466904839389922,0.13361002165079114,2.5955517839325797,0.9452521883563862,0.1728802376190821,-0.48752024683155326,-0.11147110072896137,-1.9463801863486305,0.1336059019074957,2.595550359778934,0.9452445589611904,-0.0010433527563913844,0.0001913878964359701,-0.0003298344946041974,0.0006016286577022371,0.0001884849532506351,0.0003760934651192026,0.001743242017090218,0.0,0.0,0.0,0.0,0.0,0.0,0.0,5.600006955150394e-05,2.9738006827872976e-05,-1.659214342188131e-05,0.0003102975903617189,-4.11974329544984e-06,-1.4241536456793824e-06,-7.629395195829503e-06,0.0010433527563913844,-0.0001913878964359701,0.0003298344946041974,-0.0006016286577022371,-0.0001884849532506351,-0.0003760934651192026,-0.001743242017090218,0.12130087614059448,11.901697158813477,-1.2433807849884033,-21.669649124145508,-0.3857322335243225,-2.5143465995788574,0.24844686686992645,0
34,0.16500544548034668,-0.12130087614059448,-11.901697158813477,1.2433807849884033,21.669649124145508,0.3857322335243225,2.5143465995788574,-0.24844686686992645,0.0,0.0,0.0,0.0,0.0,0.0,0.0,-0.15804940917587615,0.35611002005950515,0.0649604679550272,0.397627562826502,-0.14586250014812452,0.12254843983193217,-0.2148975370535863,0.1728242375495306,-0.48754998483838113,-0.11145450858553949,-1.9466904839389922,0.13361002165079114,2.5955517839325797,0.9452521883563862,0.1728802376190821,-0.48752024683155326,-0.11147110072896137,-1.9463801863486305,0.1336059019074957,2.595550359778934,0.9452445589611904,-0.0010433527563913844,0.0001913878964359701,-0.0003298344946041974,0.0006016286577022371,0.0001884849532506351,0.0003760934651192026,0.001743242017090218,0.0,0.0,0.0,0.0,0.0,0.0,0.0,5.600006955150394e-05,2.9738006827872976e-05,-1.659214342188131e-05,0.0003102975903617189,-4.11974329544984e-06,-1.4241536456793824e-06,-7.629395195829503e-06,0.0010433527563913844,-0.0001913878964359701,0.0003298344946041974,-0.0006016286577022371,-0.0001884849532506351,-0.0003760934651192026,-0.001743242017090218,0.12130087614059448,11.901697158813477,-1.2433807849884033,-21.669649124145508,-0.3857322335243225,-2.5143465995788574,0.24844686686992645,0
35,0.1701040267944336,-0.19667929410934448,-11.925500869750977,1.2433807849884033,21.641878128051758,0.3857322335243225,2.5143465995788574,-0.20083944499492645,0.0,0.0,0.0,0.0,0.0,0.0,0.0,-0.15929087732098396,0.3388488103233447,0.06212435742262789,0.4126583374367449,-0.14551909899938087,0.124502058759222,-0.21624209893710322,0.17282952729922627,-0.4875506799466533,-0.11145427182398149,-1.9466863890149984,0.13361002165079114,2.5955517839325797,0.9452468986428446,0.1728802376190821,-0.48752024683155326,-0.11147110072896137,-1.9463801863486305,0.1336059019074957,2.595550359778934,0.9452445589611904,0.0006128947342398106,-0.00039293723350043616,-4.2979313055174174e-05,0.0009434101907411965,-0.00010670583227312767,0.0002202257175752551,-0.0004854556230401288,0.0,0.0,0.0,0.0,0.0,0.0,0.0,5.071031985584562e-05,3.043311510003699e-05,-1.682890497987921e-05,0.00030620266636782745,-4.11974329544984e-06,-1.4241536456793824e-06,-2.3396816541954024e-06,-0.0006128947342398106,0.00039293723350043616,4.2979313055174174e-05,-0.0009434101907411965,0.00010670583227312767,-0.0002202257175752551,0.0004854556230401288,0.19667929410934448,11.925500869750977,-1.2433807849884033,-21.641878128051758,-0.3857322335243225,-2.5143465995788574,0.20083944499492645,0
36,0.17499589920043945,-0.19667929410934448,-11.925500869750977,1.2433807849884033,21.641878128051758,0.3857322335243225,2.5143465995788574,-0.20083944499492645,0.0,0.0,0.0,0.0,0.0,0.0,0.0,-0.15929087732098396,0.3388488103233447,0.06212435742262789,0.4126583374367449,-0.14551909899938087,0.124502058759222,-0.21624209893710322,0.17282952729922627,-0.4875506799466533,-0.11145427182398149,-1.9466863890149984,0.13361002165079114,2.5955517839325797,0.9452468986428446,0.1728802376190821,-0.48752024683155326,-0.11147110072896137,-1.9463801863486305,0.1336059019074957,2.595550359778934,0.9452445589611904,0.0006128947342398106,-0.00039293723350043616,-4.2979313055174174e-05,0.0009434101907411965,-0.00010670583227312767,0.0002202257175752551,-0.0004854556230401288,0.0,0.0,0.0,0.0,0.0,0.0,0.0,5.071031985584562e-05,3.043311510003699e-05,-1.682890497987921e-05,0.00030620266636782745,-4.11974329544984e-06,-1.4241536456793824e-06,-2.3396816541954024e-06,-0.0006128947342398106,0.00039293723350043616,4.2979313055174174e-05,-0.0009434101907411965,0.00010670583227312767,-0.0002202257175752551,0.0004854556230401288,0.19667929410934448,11.925500869750977,-1.2433807849884033,-21.641878128051758,-0.3857322335243225,-2.5143465995788574,0.20083944499492645,0
37,0.17999744415283203,-0.17287558317184448,-11.973108291625977,1.2156097888946533,21.717256546020508,0.3976340889930725,2.5335726737976074,-0.15964071452617645,0.0,0.0,0.0,0.0,0.0,0.0,0.0,-0.1564190861071751,0.3401861299502357,0.06455722312941055,0.41632988174079893,-0.14585175468225564,0.12473170241492226,-0.21662279125308637,0.1728278568272007,-0.48754426708252885,-0.11145232298081383,-1.9466919174620532,0.13360869905989076,2.595549647702111,0.9452423210061258,0.1728802376190821,-0.48752024683155326,-0.11147110072896137,-1.9463801863486305,0.1336059019074957,2.595550359778934,0.9452445589611904,0.0005339066086103228,-0.00017121198324546966,0.0009772094813343952,-0.00021205436679767444,-0.00041595756967534455,-0.0001098928608502028,-0.0019234815180296794,0.0,0.0,0.0,0.0,0.0,0.0,0.0,5.2380791881412314e-05,2.4020250975587132e-05,-1.8777748147541518e-05,0.0003117311134226419,-2.7971523950676147e-06,7.120768228396912e-07,2.2379550645990065e-06,-0.0005339066086103228,0.00017121198324546966,-0.0009772094813343952,0.00021205436679767444,0.00041595756967534455,0.0001098928608502028,0.0019234815180296794,0.17287558317184448,11.973108291625977,-1.2156097888946533,-21.717256546020508,-0.3976340889930725,-2.5335726737976074,0.15964071452617645,0
38,0.18499541282653809,-0.17287558317184448,-11.973108291625977,1.2156097888946533,21.717256546020508,0.3976340889930725,2.5335726737976074,-0.15964071452617645,0.0,0.0,0.0,0.0,0.0,0.0,0.0,-0.1564190861071751,0.3401861299502357,0.06455722312941055,0.41632988174079893,-0.14585175468225564,0.12473170241492226,-0.21662279125308637,0.1728278568272007,-0.48754426708252885,-0.11145232298081383,-1.9466919174620532,0.13360869905989076,2.595549647702111,0.9452423210061258,0.1728802376190821,-0.48752024683155326,-0.11147110072896137,-1.9463801863486305,0.1336059019074957,2.595550359778934,0.9452445589611904,0.0005339066086103228,-0.00017121198324546966,0.0009772094813343952,-0.00021205436679767444,-0.00041595756967534455,-0.0001098928608502028,-0.0019234815180296794,0.0,0.0,0.0,0.0,0.0,0.0,0.0,5.2380791881412314e-05,2.4020250975587132e-05,-1.8777748147541518e-05,0.0003117311134226419,-2.7971523950676147e-06,7.120768228396912e-07,2.2379550645990065e-06,-0.0005339066086103228,0.00017121198324546966,-0.0009772094813343952,0.00021205436679767444,0.00041595756967534455,0.0001098928608502028,0.0019234815180296794,0.17287558317184448,11.973108291625977,-1.2156097888946533,-21.717256546020508,-0.3976340889930725,-2.5335726737976074,0.15964071452617645,0
39,0.18999767303466797,-0.19667929410934448,-12.000879287719727,1.2433807849884033,21.693452835083008,0.3912253975868225,2.5271639823913574,-0.22098104655742645,0.0,0.0,0.0,0.0,0.0,0.0,0.0,-0.15872123189842705,0.3493924122779772,0.05892558715292597,0.4106207460128699,-0.14567710354693253,0.12458031485329135,-0.21704530451264067,0.17282952726305575,-0.48754533819202484,-0.11145499088032462,-1.9466900083182566,0.13360941129922774,2.595550359778934,0.9452491366537549,0.1728802376190821,-0.48752024683155326,-0.11147110072896137,-1.9463801863486305,0.1336059019074957,2.595550359778934,0.9452445589611904,0.0004905018089180849,-0.000423089109982268,0.000603690737800057,0.00015890876510503435,2.0336592353752776e-05,0.00010302050044060414,0.0006871157855200703,0.0,0.0,0.0,0.0,0.0,0.0,0.0,5.071035602635665e-05,2.509136047157412e-05,-1.6109848636744473e-05,0.00030982196962603403,-3.509391732048339e-06,0.0,-4.5776925644558375e-06,-0.0004905018089180849,0.000423089109982268,-0.000603690737800057,-0.00015890876510503435,-2.0336592353752776e-05,-0.00010302050044060414,-0.0006871157855200703,0.19667929410934448,12.000879287719727,-1.2433807849884033,-21.693452835083008,-0.3912253975868225,-2.5271639823913574,0.22098104655742645,0
40,0.1949925422668457,-0.19667929410934448,-12.000879287719727,1.2433807849884033,21.693452835083008,0.3912253975868225,2.5271639823913574,-0.22098104655742645,0.0,0.0,0.0,0.0,0.0,0.0,0.0,-0.15872123189842705,0.3493924122779772,0.05892558715292597,0.4106207460128699,-0.14567710354693253,0.12458031485329135,-0.21704530451264067,0.17282952726305575,-0.48754533819202484,-0.11145499088032462,-1.9466900083182566,0.13360941129922774,2.595550359778934,0.9452491366537549,0.1728802376190821,-0.48752024683155326,-0.11147110072896137,-1.9463801863486305,0.1336059019074957,2.595550359778934,0.9452445589611904,0.0004905018089180849,-0.000423089109982268,0.000603690737800057,0.00015890876510503435,2.0336592353752776e-05,0.00010302050044060414,0.0006871157855200703,0.0,0.0,0.0,0.0,0.0,0.0,0.0,5.071035602635665e-05,2.509136047157412e-05,-1.6109848636744473e-05,0.00030982196962603403,-3.509391732048339e-06,0.0,-4.5776925644558375e-06,-0.0004905018089180849,0.000423089109982268,-0.000603690737800057,-0.00015890876510503435,-2.0336592353752776e-05,-0.00010302050044060414,-0.0006871157855200703,0.19667929410934448,12.000879287719727,-1.2433807849884033,-21.693452835083008,-0.3912253975868225,-2.5271639823913574,0.22098104655742645,0
41,0.1999971866607666,-0.17287558317184448,-11.973108291625977,1.2909882068634033,21.669649124145508,0.3857322335243225,2.5335726737976074,-0.22830526530742645,0.0,0.0,0.0,0.0,0.0,0.0,0.0,-0.15882881140392946,0.36173526328941635,0.06380357323754984,0.39913866326589664,-0.14571580515832677,0.12390653552223939,-0.21628380501136313,0.1728278568272005,-0.4875473273142455,-0.11145761269841457,-1.946688337844715,0.1336089553899235,2.595549647702111,0.9452499504006574,0.1728802376190821,-0.48752024683155326,-0.11147110072896137,-1.9463801863486305,0.1336059019074957,2.595550359778934,0.9452445589611904,0.0005691667097806011,-0.000740362333239746,-0.000594906442528395,0.0006606937288358,0.00010027382319953475,-0.00012679605105795925,0.001053465726493699,0.0,0.0,0.0,0.0,0.0,0.0,0.0,5.23807918816066e-05,2.7080482692232177e-05,-1.3488030546793262e-05,0.00030815149608454107,-3.0534824278227735e-06,7.120768228396912e-07,-5.39143946698406e-06,-0.0005691667097806011,0.000740362333239746,0.000594906442528395,-0.0006606937288358,-0.00010027382319953475,0.00012679605105795925,-0.001053465726493699,0.17287558317184448,11.973108291625977,-1.2909882068634033,-21.669649124145508,-0.3857322335243225,-2.5335726737976074,0.22830526530742645,0
42,0.20501160621643066,-0.17287558317184448,-11.973108291625977,1.2909882068634033,21.669649124145508,0.3857322335243225,2.5335726737976074,-0.22830526530742645,0.0,0.0,0.0,0.0,0.0,0.0,0.0,-0.15882881140392946,0.36173526328941635,0.06380357323754984,0.39913866326589664,-0.14571580515832677,0.12390653552223939,-0.21628380501136313,0.1728278568272005,-0.4875473273142455,-0.11145761269841457,-1.946688337844715,0.1336089553899235,2.595549647702111,0.9452499504006574,0.1728802376190821,-0.48752024683155326,-0.11147110072896137,-1.9463801863486305,0.1336059019074957,2.595550359778934,0.9452445589611904,0.0005691667097806011,-0.000740362333239746,-0.000594906442528395,0.0006606937288358,0.00010027382319953475,-0.00012679605105795925,0.001053465726493699,0.0,0.0,0.0,0.0,0.0,0.0,0.0,5.23807918816066e-05,2.7080482692232177e-05,-1.3488030546793262e-05,0.00030815149608454107,-3.0534824278227735e-06,7.120768228396912e-07,-5.39143946698406e-06,-0.0005691667097806011,0.000740362333239746,0.000594906442528395,-0.0006606937288358,-0.00010027382319953475,0.00012679605105795925,-0.001053465726493699,0.17287558317184448,11.973108291625977,-1.2909882068634033,-21.669649124145508,-0.3857322335243225,-2.5335726737976074,0.22830526530742645,0
43,0.21000981330871582,-0.14510458707809448,-11.973108291625977,1.2671844959259033,21.693452835083008,0.3976340889930725,2.5207552909851074,-0.20083944499492645,0.0,0.0,0.0,0.0,0.0,0.0,0.0,-0.159829626752078,0.35494591368159595,0.06363449687238133,0.3994598437156618,-0.14544558501018487,0.1247533863191631,-0.21555011562495993,0.17282593533028337,-0.4875444170888478,-0.11145807344932858,-1.9466900092617165,0.13360869921638668,2.595551071855757,0.9452468986428446,0.1728802376190821,-0.48752024683155326,-0.11147110072896137,-1.9463801863486305,0.1336059019074957,2.595550359778934,0.9452445589611904,5.971942103445346e-05,-0.000237971953096561,0.00014164883832044485,5.51637762264223e-05,-0.0004624987119582881,0.00018704572164223056,-0.0001033382682380231,0.0,0.0,0.0,0.0,0.0,0.0,0.0,5.4302288798740994e-05,2.4170257294564568e-05,-1.3027279632787936e-05,0.00030982291308601084,-2.797308890994943e-06,-7.120768228396912e-07,-2.3396816541954024e-06,-5.971942103445346e-05,0.000237971953096561,-0.00014164883832044485,-5.51637762264223e-05,0.0004624987119582881,-0.00018704572164223056,0.0001033382682380231,0.14510458707809448,11.973108291625977,-1.2671844959259033,-21.693452835083008,-0.3976340889930725,-2.5207552909851074,0.20083944499492645,0
44,0.21502041816711426,-0.14510458707809448,-11.973108291625977,1.2671844959259033,21.693452835083008,0.3976340889930725,2.5207552909851074,-0.20083944499492645,0.0,0.0,0.0,0.0,0.0,0.0,0.0,-0.159829626752078,0.35494591368159595,0.06363449687238133,0.3994598437156618,-0.14544558501018487,0.1247533863191631,-0.21555011562495993,0.17282593533028337,-0.4875444170888478,-0.11145807344932858,-1.9466900092617165,0.13360869921638668,2.595551071855757,0.9452468986428446,0.1728802376190821,-0.48752024683155326,-0.11147110072896137,-1.9463801863486305,0.1336059019074957,2.595550359778934,0.9452445589611904,5.971942103445346e-05,-0.000237971953096561,0.00014164883832044485,5.51637762264223e-05,-0.0004624987119582881,0.00018704572164223056,-0.0001033382682380231,0.0,0.0,0.0,0.0,0.0,0.0,0.0,5.4302288798740994e-05,2.4170257294564568e-05,-1.3027279632787936e-05,0.00030982291308601084,-2.797308890994943e-06,-7.120768228396912e-07,-2.3396816541954024e-06,-5.971942103445346e-05,0.000237971953096561,-0.00014164883832044485,-5.51637762264223e-05,0.0004624987119582881,-0.00018704572164223056,0.0001033382682380231,0.14510458707809448,11.973108291625977,-1.2671844959259033,-21.693452835083008,-0.3976340889930725,-2.5207552909851074,0.20083944499492645,0
45,0.2200024127960205,-0.17287558317184448,-12.000879287719727,1.2671844959259033,21.693452835083008,0.4031272530555725,2.5271639823913574,-0.15964071452617645,0.0,0.0,0.0,0.0,0.0,0.0,0.0,-0.1565400739893086,0.34383333341160077,0.06718980184190569,0.4055838493832952,-0.1456951645474567,0.12519380207622863,-0.2135660741333965,0.17282785682735485,-0.48754469263486866,-0.11145594237879006,-1.9466900171108934,0.1336080888708432,2.595550359778934,0.9452423210061258,0.1728802376190821,-0.48752024683155326,-0.11147110072896137,-1.9463801863486305,0.1336059019074957,2.595550359778934,0.9452445589611904,0.0004812965775734477,0.00018816797004532745,0.00028605498872308105,0.00014909830546932704,-0.0007229273157724526,-9.291137517260643e-05,-0.0018204774207938024,0.0,0.0,0.0,0.0,0.0,0.0,0.0,5.238079172725785e-05,2.444580331539825e-05,-1.5158350171309842e-05,0.00030983076226287487,-2.186963347500237e-06,0.0,2.2379550645990065e-06,-0.0004812965775734477,-0.00018816797004532745,-0.00028605498872308105,-0.00014909830546932704,0.0007229273157724526,9.291137517260643e-05,0.0018204774207938024,0.17287558317184448,12.000879287719727,-1.2671844959259033,-21.693452835083008,-0.4031272530555725,-2.5271639823913574,0.15964071452617645,0
46,0.22499990463256836,-0.17287558317184448,-12.000879287719727,1.2671844959259033,21.693452835083008,0.4031272530555725,2.5271639823913574,-0.15964071452617645,0.0,0.0,0.0,0.0,0.0,0.0,0.0,-0.1565400739893086,0.34383333341160077,0.06718980184190569,0.4055838493832952,-0.1456951645474567,0.12519380207622863,-0.2135660741333965,0.17282785682735485,-0.48754469263486866,-0.11145594237879006,-1.9466900171108934,0.1336080888708432,2.595550359778934,0.9452423210061258,0.1728802376190821,-0.48752024683155326,-0.11147110072896137,-1.9463801863486305,0.1336059019074957,2.595550359778934,0.9452445589611904,0.0004812965775734477,0.00018816797004532745,0.00028605498872308105,0.00014909830546932704,-0.0007229273157724526,-9.291137517260643e-05,-0.0018204774207938024,0.0,0.0,0.0,0.0,0.0,0.0,0.0,5.238079172725785e-05,2.444580331539825e-05,-1.5158350171309842e-05,0.00030983076226287487,-2.186963347500237e-06,0.0,2.2379550645990065e-06,-0.0004812965775734477,-0.00018816797004532745,-0.00028605498872308105,-0.00014909830546932704,0.0007229273157724526,9.291137517260643e-05,0.0018204774207938024,0.17287558317184448,12.000879287719727,-1.2671844959259033,-21.693452835083008,-0.4031272530555725,-2.5271639823913574,0.15964071452617645,0
47,0.2299950122833252,-0.19667929410934448,-12.024682998657227,1.2671844959259033,21.693452835083008,0.3793235421180725,2.5335726737976074,-0.19351522624492645,0.0,0.0,0.0,0.0,0.0,0.0,0.0,-0.1598780298389573,0.3495366355336516,0.06011334413158314,0.4021455137878621,-0.14539075487737796,0.12442504329067153,-0.21284028534269925,0.17282955363136568,-0.48754124829884987,-0.11145595102749699,-1.9466900092617663,0.13361073372761406,2.595549647702111,0.9452460848407613,0.1728802376190821,-0.48752024683155326,-0.11147110072896137,-1.9463801863486305,0.1336059019074957,2.595550359778934,0.9452445589611904,0.000854590371392565,0.0011805952210139714,-0.0004969269085502457,0.00014102808525915655,0.00022299631450449164,-0.00013844721005453424,-0.0003389062159165116,0.0,0.0,0.0,0.0,0.0,0.0,0.0,5.068398771643223e-05,2.1001467296610787e-05,-1.5149701464378662e-05,0.00030982291313574883,-4.831820118372798e-06,7.120768228396912e-07,-1.5258795709183204e-06,-0.000854590371392565,-0.0011805952210139714,0.0004969269085502457,-0.00014102808525915655,-0.00022299631450449164,0.00013844721005453424,0.0003389062159165116,0.19667929410934448,12.024682998657227,-1.2671844959259033,-21.693452835083008,-0.3793235421180725,-2.5335726737976074,0.19351522624492645,0
48,0.234999418258667,-0.19667929410934448,-12.024682998657227,1.2671844959259033,21.693452835083008,0.3793235421180725,2.5335726737976074,-0.19351522624492645,0.0,0.0,0.0,0.0,0.0,0.0,0.0,-0.1598780298389573,0.3495366355336516,0.06011334413158314,0.4021455137878621,-0.14539075487737796,0.12442504329067153,-0.21284028534269925,0.17282955363136568,-0.48754124829884987,-0.11145595102749699,-1.9466900092617663,0.13361073372761406,2.595549647702111,0.9452460848407613,0.1728802376190821,-0.48752024683155326,-0.11147110072896137,-1.9463801863486305,0.1336059019074957,2.595550359778934,0.9452445589611904,0.000854590371392565,0.0011805952210139714,-0.0004969269085502457,0.00014102808525915655,0.00022299631450449164,-0.00013844721005453424,-0.0003389062159165116,0.0,0.0,0.0,0.0,0.0,0.0,0.0,5.068398771643223e-05,2.1001467296610787e-05,-1.5149701464378662e-05,0.00030982291313574883,-4.831820118372798e-06,7.120768228396912e-07,-1.5258795709183204e-06,-0.000854590371392565,-0.0011805952210139714,0.0004969269085502457,-0.00014102808525915655,-0.00022299631450449164,0.00013844721005453424,0.0003389062159165116,0.19667929410934448,12.024682998657227,-1.2671844959259033,-21.693452835083008,-0.3793235421180725,-2.5335726737976074,0.19351522624492645,0
49,0.23999738693237305,-0.17287558317184448,-12.000879287719727,1.2433807849884033,21.717256546020508,0.3912253975868225,2.5335726737976074,-0.20724813640117645,0.0,0.0,0.0,0.0,0.0,0.0,0.0,-0.15729167424841112,0.3340264877097931,0.06638924910684126,0.4089991013348588,-0.14618403611827882,0.1258612508848211,-0.2116953942827977,0.17282785682734933,-0.48754532544051127,-0.11145427182269446,-1.9466923940085068,0.1336104775600963,2.595549647702111,0.9452476107196676,0.1728802376190821,-0.48752024683155326,-0.11147110072896137,-1.9463801863486305,0.1336059019074957,2.595550359778934,0.9452445589611904,0.00016027357243534503,-0.00020027865232697642,0.00036750922200302953,-0.0003518214908760419,-0.00018350278178503712,-0.00023636280927700595,0.0006412675593384361,0.0,0.0,0.0,0.0,0.0,0.0,0.0,5.238079173278121e-05,2.5078608958006843e-05,-1.6828906266905252e-05,0.0003122076598762735,-4.575652600619096e-06,7.120768228396912e-07,-3.051758477146116e-06,-0.00016027357243534503,0.00020027865232697642,-0.00036750922200302953,0.0003518214908760419,0.00018350278178503712,0.00023636280927700595,-0.0006412675593384361,0.17287558317184448,12.000879287719727,-1.2433807849884033,-21.717256546020508,-0.3912253975868225,-2.5335726737976074,0.20724813640117645,0
50,0.2449960708618164,-0.17287558317184448,-12.000879287719727,1.2433807849884033,21.717256546020508,0.3912253975868225,2.5335726737976074,-0.20724813640117645,0.0,0.0,0.0,0.0,0.0,0.0,0.0,-0.15729167424841112,0.3340264877097931,0.06638924910684126,0.4089991013348588,-0.14618403611827882,0.1258612508848211,-0.2116953942827977,0.17282785682734933,-0.48754532544051127,-0.11145427182269446,-1.9466923940085068,0.1336104775600963,2.595549647702111,0.9452476107196676,0.1728802376190821,-0.48752024683155326,-0.11147110072896137,-1.9463801863486305,0.1336059019074957,2.595550359778934,0.9452445589611904,0.00016027357243534503,-0.00020027865232697642,0.00036750922200302953,-0.0003518214908760419,-0.00018350278178503712,-0.00023636280927700595,0.0006412675593384361,0.0,0.0,0.0,0.0,0.0,0.0,0.0,5.238079173278121e-05,2.5078608958006843e-05,-1.6828906266905252e-05,0.0003122076598762735,-4.575652600619096e-06,7.120768228396912e-07,-3.051758477146116e-06,-0.00016027357243534503,0.00020027865232697642,-0.00036750922200302953,0.0003518214908760419,0.00018350278178503712,0.00023636280927700595,-0.0006412675593384361,0.17287558317184448,12.000879287719727,-1.2433807849884033,-21.717256546020508,-0.3912253975868225,-2.5335726737976074,0.20724813640117645,0
51,0.24999642372131348,-0.17287558317184448,-12.000879287719727,1.2671844959259033,21.669649124145508,0.3912253975868225,2.5271639823913574,-0.22098104655742645,0.0,0.0,0.0,0.0,0.0,0.0,0.0,-0.15862318865400557,0.34684630869505084,0.06365229416569926,0.4013916990002376,-0.14632869238140858,0.12493163629385516,-0.21042310954583826,0.1728278568272005,-0.4875453793081338,-0.11145594229458661,-1.9466883378487527,0.13360941130524773,2.595550359778934,0.9452491365985738,0.1728802376190821,-0.48752024683155326,-0.11147110072896137,-1.9463801863486305,0.1336059019074957,2.595550359778934,0.9452445589611904,4.444984022604405e-05,0.00011585706480037615,-0.0004393129621673609,0.0008464407049069212,-4.955363947749638e-06,-8.873395913959252e-05,0.0010840176748545707,0.0,0.0,0.0,0.0,0.0,0.0,0.0,5.23807918816066e-05,2.513247658053608e-05,-1.515843437475961e-05,0.00030815150012220016,-3.509397752038401e-06,0.0,-4.5776373833739115e-06,-4.444984022604405e-05,-0.00011585706480037615,0.0004393129621673609,-0.0008464407049069212,4.955363947749638e-06,8.873395913959252e-05,-0.0010840176748545707,0.17287558317184448,12.000879287719727,-1.2671844959259033,-21.669649124145508,-0.3912253975868225,-2.5271639823913574,0.22098104655742645,0
52,0.2550032138824463,-0.17287558317184448,-12.000879287719727,1.2671844959259033,21.669649124145508,0.3912253975868225,2.5271639823913574,-0.22098104655742645,0.0,0.0,0.0,0.0,0.0,0.0,0.0,-0.15862318865400557,0.34684630869505084,0.06365229416569926,0.4013916990002376,-0.14632869238140858,0.12493163629385516,-0.21042310954583826,0.1728278568272005,-0.4875453793081338,-0.11145594229458661,-1.9466883378487527,0.13360941130524773,2.595550359778934,0.9452491365985738,0.1728802376190821,-0.48752024683155326,-0.11147110072896137,-1.9463801863486305,0.1336059019074957,2.595550359778934,0.9452445589611904,4.444984022604405e-05,0.00011585706480037615,-0.0004393129621673609,0.0008464407049069212,-4.955363947749638e-06,-8.873395913959252e-05,0.0010840176748545707,0.0,0.0,0.0,0.0,0.0,0.0,0.0,5.23807918816066e-05,2.513247658053608e-05,-1.515843437475961e-05,0.00030815150012220016,-3.509397752038401e-06,0.0,-4.5776373833739115e-06,-4.444984022604405e-05,-0.00011585706480037615,0.0004393129621673609,-0.0008464407049069212,4.955363947749638e-06,8.873395913959252e-05,-0.0010840176748545707,0.17287558317184448,12.000879287719727,-1.2671844959259033,-21.669649124145508,-0.3912253975868225,-2.5271639823913574,0.22098104655742645,0
53,0.26041293144226074,-0.17287558317184448,-12.000879287719727,1.2671844959259033,21.717256546020508,0.3912253975868225,2.5271639823913574,-0.22830526530742645,0.0,0.0,0.0,0.0,0.0,0.0,0.0,-0.15738718820572514,0.3463517748596348,0.06620965375035193,0.40222055160543974,-0.14619935779592294,0.12457456609234739,-0.2101135379830125,0.1728278568272005,-0.48754531142720775,-0.11145602117946567,-1.9466919260743385,0.13360941129922876,2.595550359778934,0.9452499504006571,0.1728802376190821,-0.48752024683155326,-0.11147110072896137,-1.9463801863486305,0.1336059019074957,2.595550359778934,0.9452445589611904,0.0006548544304536668,0.0007790272092134433,-0.0003733005463647897,-0.0005681875235824047,2.508492091398734e-06,-0.0001517587860460272,0.0010093798818052422,0.0,0.0,0.0,0.0,0.0,0.0,0.0,5.23807918816066e-05,2.5064595654489263e-05,-1.5079549495700117e-05,0.00031173972570797126,-3.5093917330752955e-06,0.0,-5.3914394666509935e-06,-0.0006548544304536668,-0.0007790272092134433,0.0003733005463647897,0.0005681875235824047,-2.508492091398734e-06,0.0001517587860460272,-0.0010093798818052422,0.17287558317184448,12.000879287719727,-1.2671844959259033,-21.717256546020508,-0.3912253975868225,-2.5271639823913574,0.22830526530742645,0
54,0.2649962902069092,-0.17287558317184448,-12.000879287719727,1.2671844959259033,21.717256546020508,0.3912253975868225,2.5271639823913574,-0.22830526530742645,0.0,0.0,0.0,0.0,0.0,0.0,0.0,-0.15738718820572514,0.3463517748596348,0.06620965375035193,0.40222055160543974,-0.14619935779592294,0.12457456609234739,-0.2101135379830125,0.1728278568272005,-0.48754531142720775,-0.11145602117946567,-1.9466919260743385,0.13360941129922876,2.595550359778934,0.9452499504006571,0.1728802376190821,-0.48752024683155326,-0.11147110072896137,-1.9463801863486305,0.1336059019074957,2.595550359778934,0.9452445589611904,0.0006548544304536668,0.0007790272092134433,-0.0003733005463647897,-0.0005681875235824047,2.508492091398734e-06,-0.0001517587860460272,0.0010093798818052422,0.0,0.0,0.0,0.0,0.0,0.0,0.0,5.23807918816066e-05,2.5064595654489263e-05,-1.5079549495700117e-05,0.00031173972570797126,-3.5093917330752955e-06,0.0,-5.3914394666509935e-06,-0.0006548544304536668,-0.0007790272092134433,0.0003733005463647897,0.0005681875235824047,-2.508492091398734e-06,0.0001517587860460272,-0.0010093798818052422,0.17287558317184448,12.000879287719727,-1.2671844959259033,-21.717256546020508,-0.3912253975868225,-2.5271639823913574,0.22830526530742645,0
55,0.26999592781066895,-0.17287558317184448,-11.949304580688477,1.2433807849884033,21.693452835083008,0.3912253975868225,2.5271639823913574,-0.22098104655742645,0.0,0.0,0.0,0.0,0.0,0.0,0.0,-0.16516958230327222,0.3472138618501285,0.05353589742216749,0.40450489301869214,-0.14566634248616575,0.12466080206460663,-0.21084791057587712,0.1728278568272005,-0.48754689122859446,-0.11145427182309046,-1.9466900082819665,0.13360941129922868,2.595550359778934,0.9452491365985738,0.1728802376190821,-0.48752024683155326,-0.11147110072896137,-1.9463801863486305,0.1336059019074957,2.595550359778934,0.9452445589611904,-0.00018717682508441648,-1.4611804213525063e-05,-0.00019414892117385754,-0.00020009372501855833,-0.0001764539638976207,-0.0001254887226814064,0.0010091267923880525,0.0,0.0,0.0,0.0,0.0,0.0,0.0,5.23807918816066e-05,2.664439704119781e-05,-1.6828905870902577e-05,0.000309821933335952,-3.5093917329920288e-06,0.0,-4.5776373833739115e-06,0.00018717682508441648,1.4611804213525063e-05,0.00019414892117385754,0.00020009372501855833,0.0001764539638976207,0.0001254887226814064,-0.0010091267923880525,0.17287558317184448,11.949304580688477,-1.2433807849884033,-21.693452835083008,-0.3912253975868225,-2.5271639823913574,0.22098104655742645,0
56,0.2749977111816406,-0.17287558317184448,-11.949304580688477,1.2433807849884033,21.693452835083008,0.3912253975868225,2.5271639823913574,-0.22098104655742645,0.0,0.0,0.0,0.0,0.0,0.0,0.0,-0.16516958230327222,0.3472138618501285,0.05353589742216749,0.40450489301869214,-0.14566634248616575,0.12466080206460663,-0.21084791057587712,0.1728278568272005,-0.48754689122859446,-0.11145427182309046,-1.9466900082819665,0.13360941129922868,2.595550359778934,0.9452491365985738,0.1728802376190821,-0.48752024683155326,-0.11147110072896137,-1.9463801863486305,0.1336059019074957,2.595550359778934,0.9452445589611904,-0.00018717682508441648,-1.4611804213525063e-05,-0.00019414892117385754,-0.00020009372501855833,-0.0001764539638976207,-0.0001254887226814064,0.0010091267923880525,0.0,0.0,0.0,0.0,0.0,0.0,0.0,5.23807918816066e-05,2.664439704119781e-05,-1.6828905870902577e-05,0.000309821933335952,-3.5093917329920288e-06,0.0,-4.5776373833739115e-06,0.00018717682508441648,1.4611804213525063e-05,0.00019414892117385754,0.00020009372501855833,0.0001764539638976207,0.0001254887226814064,-0.0010091267923880525,0.17287558317184448,11.949304580688477,-1.2433807849884033,-21.693452835083008,-0.3912253975868225,-2.5271639823913574,0.22098104655742645,0
57,0.2800126075744629,-0.19667929410934448,-11.973108291625977,1.2156097888946533,21.717256546020508,0.3976340889930725,2.5335726737976074,-0.22830526530742645,0.0,0.0,0.0,0.0,0.0,0.0,0.0,-0.16195395564360526,0.3555741802611648,0.05787150308346801,0.40350930060776885,-0.14633628297855333,0.12408138476217859,-0.21100298107006965,0.17282952726305575,-0.4875472869665622,-0.11145232298081381,-1.9466916796975717,0.13360869922240576,2.595549647702111,0.9452499504006571,0.1728802376190821,-0.48752024683155326,-0.11147110072896137,-1.9463801863486305,0.1336059019074957,2.595550359778934,0.9452445589611904,0.0007662071178762152,0.0010368955723266979,0.0005885283101582325,-0.0009064101615029272,-0.00027791908699113495,-0.0004951898539794956,0.0005957993529266319,0.0,0.0,0.0,0.0,0.0,0.0,0.0,5.071035602635665e-05,2.7040135008926658e-05,-1.8777748147555395e-05,0.0003114933489412053,-2.797314910069071e-06,7.120768228396912e-07,-5.3914394666509935e-06,-0.0007662071178762152,-0.0010368955723266979,-0.0005885283101582325,0.0009064101615029272,0.00027791908699113495,0.0004951898539794956,-0.0005957993529266319,0.19667929410934448,11.973108291625977,-1.2156097888946533,-21.717256546020508,-0.3976340889930725,-2.5335726737976074,0.22830526530742645,0
58,0.2854163646697998,-0.19667929410934448,-11.973108291625977,1.2156097888946533,21.717256546020508,0.3976340889930725,2.5335726737976074,-0.22830526530742645,0.0,0.0,0.0,0.0,0.0,0.0,0.0,-0.16195395564360526,0.3555741802611648,0.05787150308346801,0.40350930060776885,-0.14633628297855333,0.12408138476217859,-0.21100298107006965,0.17282952726305575,-0.4875472869665622,-0.11145232298081381,-1.9466916796975717,0.13360869922240576,2.595549647702111,0.9452499504006571,0.1728802376190821,-0.48752024683155326,-0.11147110072896137,-1.9463801863486305,0.1336059019074957,2.595550359778934,0.9452445589611904,0.0007662071178762152,0.0010368955723266979,0.0005885283101582325,-0.0009064101615029272,-0.00027791908699113495,-0.0004951898539794956,0.0005957993529266319,0.0,0.0,0.0,0.0,0.0,0.0,0.0,5.071035602635665e-05,2.7040135008926658e-05,-1.8777748147555395e-05,0.0003114933489412053,-2.797314910069071e-06,7.120768228396912e-07,-5.3914394666509935e-06,-0.0007662071178762152,-0.0010368955723266979,-0.0005885283101582325,0.0009064101615029272,0.00027791908699113495,0.0004951898539794956,-0.0005957993529266319,0.19667929410934448,11.973108291625977,-1.2156097888946533,-21.717256546020508,-0.3976340889930725,-2.5335726737976074,0.22830526530742645,0
59,0.29000258445739746,-0.19667929410934448,-11.973108291625977,1.2156097888946533,21.717256546020508,0.3976340889930725,2.5335726737976074,-0.22830526530742645,0.0,0.0,0.0,0.0,0.0,0.0,0.0,-0.16195395564360526,0.3555741802611648,0.05787150308346801,0.40350930060776885,-0.14633628297855333,0.12408138476217859,-0.21100298107006965,0.17282952726305575,-0.4875472869665622,-0.11145232298081381,-1.9466916796975717,0.13360869922240576,2.595549647702111,0.9452499504006571,0.1728802376190821,-0.48752024683155326,-0.11147110072896137,-1.9463801863486305,0.1336059019074957,2.595550359778934,0.9452445589611904,0.0007662071178762152,0.0010368955723266979,0.0005885283101582325,-0.0009064101615029272,-0.00027791908699113495,-0.0004951898539794956,0.0005957993529266319,0.0,0.0,0.0,0.0,0.0,0.0,0.0,5.071035602635665e-05,2.7040135008926658e-05,-1.8777748147555395e-05,0.0003114933489412053,-2.797314910069071e-06,7.120768228396912e-07,-5.3914394666509935e-06,-0.0007662071178762152,-0.0010368955723266979,-0.0005885283101582325,0.0009064101615029272,0.00027791908699113495,0.0004951898539794956,-0.0005957993529266319,0.19667929410934448,11.973108291625977,-1.2156097888946533,-21.717256546020508,-0.3976340889930725,-2.5335726737976074,0.22830526530742645,0
60,0.29502272605895996,-0.19667929410934448,-11.973108291625977,1.2156097888946533,21.717256546020508,0.3976340889930725,2.5335726737976074,-0.22830526530742645,0.0,0.0,0.0,0.0,0.0,0.0,0.0,-0.16195395564360526,0.3555741802611648,0.05787150308346801,0.40350930060776885,-0.14633628297855333,0.12408138476217859,-0.21100298107006965,0.17282952726305575,-0.4875472869665622,-0.11145232298081381,-1.9466916796975717,0.13360869922240576,2.595549647702111,0.9452499504006571,0.1728802376190821,-0.48752024683155326,-0.11147110072896137,-1.9463801863486305,0.1336059019074957,2.595550359778934,0.9452445589611904,0.0007662071178762152,0.0010368955723266979,0.0005885283101582325,-0.0009064101615029272,-0.00027791908699113495,-0.0004951898539794956,0.0005957993529266319,0.0,0.0,0.0,0.0,0.0,0.0,0.0,5.071035602635665e-05,2.7040135008926658e-05,-1.8777748147555395e-05,0.0003114933489412053,-2.797314910069071e-06,7.120768228396912e-07,-5.3914394666509935e-06,-0.0007662071178762152,-0.0010368955723266979,-0.0005885283101582325,0.0009064101615029272,0.00027791908699113495,0.0004951898539794956,-0.0005957993529266319,0.19667929410934448,11.973108291625977,-1.2156097888946533,-21.717256546020508,-0.3976340889930725,-2.5335726737976074,0.22830526530742645,0
61,0.29999637603759766,-0.14510458707809448,-11.973108291625977,1.2671844959259033,21.693452835083008,0.3976340889930725,2.5271639823913574,-0.18710653483867645,0.0,0.0,0.0,0.0,0.0,0.0,0.0,-0.1623710830100995,0.33498890834388295,0.055935768027877364,0.4158939812048933,-0.14565390967277284,0.12595677256855553,-0.21288912058217155,0.17282590798536937,-0.48754664803387643,-0.11145594225850021,-1.9466921541568039,0.13360869922240576,2.595550359778934,0.9452453727639384,0.1728802376190821,-0.48752024683155326,-0.11147110072896137,-1.9463801863486305,0.1336059019074957,2.595550359778934,0.9452445589611904,-0.0002442920692925091,-0.0007540920952837856,-0.0005025767779655114,0.0001588116473820132,-0.00033115750753200693,-2.165896880552125e-05,-0.0006215366350459647,0.0,0.0,0.0,0.0,0.0,0.0,0.0,5.43296337127408e-05,2.640120232316745e-05,-1.515847046115737e-05,0.00031196780817333014,-2.797314910069071e-06,0.0,-8.138027479676069e-07,0.0002442920692925091,0.0007540920952837856,0.0005025767779655114,-0.0001588116473820132,0.00033115750753200693,2.165896880552125e-05,0.0006215366350459647,0.14510458707809448,11.973108291625977,-1.2671844959259033,-21.693452835083008,-0.3976340889930725,-2.5271639823913574,0.18710653483867645,0
62,0.30499744415283203,-0.14510458707809448,-11.973108291625977,1.2671844959259033,21.693452835083008,0.3976340889930725,2.5271639823913574,-0.18710653483867645,0.0,0.0,0.0,0.0,0.0,0.0,0.0,-0.1623710830100995,0.33498890834388295,0.055935768027877364,0.4158939812048933,-0.14565390967277284,0.12595677256855553,-0.21288912058217155,0.17282590798536937,-0.48754664803387643,-0.11145594225850021,-1.9466921541568039,0.13360869922240576,2.595550359778934,0.9452453727639384,0.1728802376190821,-0.48752024683155326,-0.11147110072896137,-1.9463801863486305,0.1336059019074957,2.595550359778934,0.9452445589611904,-0.0002442920692925091,-0.0007540920952837856,-0.0005025767779655114,0.0001588116473820132,-0.00033115750753200693,-2.165896880552125e-05,-0.0006215366350459647,0.0,0.0,0.0,0.0,0.0,0.0,0.0,5.43296337127408e-05,2.640120232316745e-05,-1.515847046115737e-05,0.00031196780817333014,-2.797314910069071e-06,0.0,-8.138027479676069e-07,0.0002442920692925091,0.0007540920952837856,0.0005025767779655114,-0.0001588116473820132,0.00033115750753200693,2.165896880552125e-05,0.0006215366350459647,0.14510458707809448,11.973108291625977,-1.2671844959259033,-21.693452835083008,-0.3976340889930725,-2.5271639823913574,0.18710653483867645,0
63,0.3099966049194336,-0.14510458707809448,-11.973108291625977,1.2909882068634033,21.693452835083008,0.4031272530555725,2.5207552909851074,-0.21457235515117645,0.0,0.0,0.0,0.0,0.0,0.0,0.0,-0.16107973374153844,0.35383066532878843,0.05781157755322739,0.40482463139637936,-0.14555673324474652,0.12479196326637773,-0.2134215780965871,0.17282590798536937,-0.4875471281379159,-0.11145761366868838,-1.9466909623303876,0.13360808887084324,2.595551071855757,0.9452484245217508,0.1728802376190821,-0.48752024683155326,-0.11147110072896137,-1.9463801863486305,0.1336059019074957,2.595550359778934,0.9452445589611904,-0.0002502412376968375,-0.0007917082617653227,-0.0007400790101943862,0.0002575589550639861,-0.0004218744503588388,0.0003654453277422308,-6.245754539562705e-05,0.0,0.0,0.0,0.0,0.0,0.0,0.0,5.43296337127408e-05,2.688130636263608e-05,-1.3487060272987517e-05,0.0003107759817571054,-2.186963347555748e-06,-7.120768228396912e-07,-3.865560560423198e-06,0.0002502412376968375,0.0007917082617653227,0.0007400790101943862,-0.0002575589550639861,0.0004218744503588388,-0.0003654453277422308,6.245754539562705e-05,0.14510458707809448,11.973108291625977,-1.2909882068634033,-21.693452835083008,-0.4031272530555725,-2.5207552909851074,0.21457235515117645,0
64,0.31499671936035156,-0.14510458707809448,-11.973108291625977,1.2909882068634033,21.693452835083008,0.4031272530555725,2.5207552909851074,-0.21457235515117645,0.0,0.0,0.0,0.0,0.0,0.0,0.0,-0.16107973374153844,0.35383066532878843,0.05781157755322739,0.40482463139637936,-0.14555673324474652,0.12479196326637773,-0.2134215780965871,0.17282590798536937,-0.4875471281379159,-0.11145761366868838,-1.9466909623303876,0.13360808887084324,2.595551071855757,0.9452484245217508,0.1728802376190821,-0.48752024683155326,-0.11147110072896137,-1.9463801863486305,0.1336059019074957,2.595550359778934,0.9452445589611904,-0.0002502412376968375,-0.0007917082617653227,-0.0007400790101943862,0.0002575589550639861,-0.0004218744503588388,0.0003654453277422308,-6.245754539562705e-05,0.0,0.0,0.0,0.0,0.0,0.0,0.0,5.43296337127408e-05,2.688130636263608e-05,-1.3487060272987517e-05,0.0003107759817571054,-2.186963347555748e-06,-7.120768228396912e-07,-3.865560560423198e-06,0.0002502412376968375,0.0007917082617653227,0.0007400790101943862,-0.0002575589550639861,0.0004218744503588388,-0.0003654453277422308,6.245754539562705e-05,0.14510458707809448,11.973108291625977,-1.2909882068634033,-21.693452835083008,-0.4031272530555725,-2.5207552909851074,0.21457235515117645,0
65,0.32041335105895996,-0.12130087614059448,-11.973108291625977,1.2671844959259033,21.693452835083008,0.3976340889930725,2.5271639823913574,-0.23471395671367645,0.0,0.0,0.0,0.0,0.0,0.0,0.0,-0.15929205118863446,0.354639673382352,0.06214304191549246,0.40373897909621104,-0.1451266282393407,0.12491709409407627,-0.21482494034376043,0.17282424633895072,-0.4875444170877235,-0.1114559422585057,-1.9466900082859557,0.13360869922240576,2.595550359778934,0.9452506610239297,0.1728802376190821,-0.48752024683155326,-0.11147110072896137,-1.9463801863486305,0.1336059019074957,2.595550359778934,0.9452445589611904,-0.00027953410191880256,-0.00034843523968464357,-2.36906713665796e-05,0.00023277844125350249,-0.0004350311248427125,5.0535821143112826e-05,0.0011866761603513407,0.0,0.0,0.0,0.0,0.0,0.0,0.0,5.599128013139554e-05,2.417025617024171e-05,-1.5158470455661766e-05,0.00030982193732520535,-2.797314910069071e-06,0.0,-6.102062739321568e-06,0.00027953410191880256,0.00034843523968464357,2.36906713665796e-05,-0.00023277844125350249,0.0004350311248427125,-5.0535821143112826e-05,-0.0011866761603513407,0.12130087614059448,11.973108291625977,-1.2671844959259033,-21.693452835083008,-0.3976340889930725,-2.5271639823913574,0.23471395671367645,0
66,0.32527685165405273,-0.12130087614059448,-11.973108291625977,1.2671844959259033,21.693452835083008,0.3976340889930725,2.5271639823913574,-0.23471395671367645,0.0,0.0,0.0,0.0,0.0,0.0,0.0,-0.15929205118863446,0.354639673382352,0.06214304191549246,0.40373897909621104,-0.1451266282393407,0.12491709409407627,-0.21482494034376043,0.17282424633895072,-0.4875444170877235,-0.1114559422585057,-1.9466900082859557,0.13360869922240576,2.595550359778934,0.9452506610239297,0.1728802376190821,-0.48752024683155326,-0.11147110072896137,-1.9463801863486305,0.1336059019074957,2.595550359778934,0.9452445589611904,-0.00027953410191880256,-0.00034843523968464357,-2.36906713665796e-05,0.00023277844125350249,-0.0004350311248427125,5.0535821143112826e-05,0.0011866761603513407,0.0,0.0,0.0,0.0,0.0,0.0,0.0,5.599128013139554e-05,2.417025617024171e-05,-1.5158470455661766e-05,0.00030982193732520535,-2.797314910069071e-06,0.0,-6.102062739321568e-06,0.00027953410191880256,0.00034843523968464357,2.36906713665796e-05,-0.00023277844125350249,0.0004350311248427125,-5.0535821143112826e-05,-0.0011866761603513407,0.12130087614059448,11.973108291625977,-1.2671844959259033,-21.693452835083008,-0.3976340889930725,-2.5271639823913574,0.23471395671367645,0
67,0.32999587059020996,-0.14510458707809448,-12.024682998657227,1.2909882068634033,21.693452835083008,0.3912253975868225,2.5207552909851074,-0.21457235515117645,0.0,0.0,0.0,0.0,0.0,0.0,0.0,-0.15606408209856562,0.3554420059668106,0.06338611735503609,0.40070074510166803,-0.14546208695627236,0.1249225484279654,-0.216180203739043,0.17282590798541897,-0.4875415975744173,-0.11145761269435547,-1.9466900112240093,0.13360941129922868,2.595551071855757,0.9452484245217426,0.1728802376190821,-0.48752024683155326,-0.11147110072896137,-1.9463801863486305,0.1336059019074957,2.595550359778934,0.9452445589611904,0.00033892348821879,0.0010308312642661572,-0.0005872701794842156,-9.134140629531993e-05,-1.3299063596551401e-05,0.00024459578101821897,0.0006534495479277897,0.0,0.0,0.0,0.0,0.0,0.0,0.0,5.4329633663141585e-05,2.135074286402361e-05,-1.348803460589354e-05,0.00030982487537878356,-3.5093917329920288e-06,-7.120768228396912e-07,-3.8655605522075476e-06,-0.00033892348821879,-0.0010308312642661572,0.0005872701794842156,9.134140629531993e-05,1.3299063596551401e-05,-0.00024459578101821897,-0.0006534495479277897,0.14510458707809448,12.024682998657227,-1.2909882068634033,-21.693452835083008,-0.3912253975868225,-2.5207552909851074,0.21457235515117645,0
68,0.33500242233276367,-0.14510458707809448,-12.024682998657227,1.2909882068634033,21.693452835083008,0.3912253975868225,2.5207552909851074,-0.21457235515117645,0.0,0.0,0.0,0.0,0.0,0.0,0.0,-0.15606408209856562,0.3554420059668106,0.06338611735503609,0.40070074510166803,-0.14546208695627236,0.1249225484279654,-0.216180203739043,0.17282590798541897,-0.4875415975744173,-0.11145761269435547,-1.9466900112240093,0.13360941129922868,2.595551071855757,0.9452484245217426,0.1728802376190821,-0.48752024683155326,-0.11147110072896137,-1.9463801863486305,0.1336059019074957,2.595550359778934,0.9452445589611904,0.00033892348821879,0.0010308312642661572,-0.0005872701794842156,-9.134140629531993e-05,-1.3299063596551401e-05,0.00024459578101821897,0.0006534495479277897,0.0,0.0,0.0,0.0,0.0,0.0,0.0,5.4329633663141585e-05,2.135074286402361e-05,-1.348803460589354e-05,0.00030982487537878356,-3.5093917329920288e-06,-7.120768228396912e-07,-3.8655605522075476e-06,-0.00033892348821879,-0.0010308312642661572,0.0005872701794842156,9.134140629531993e-05,1.3299063596551401e-05,-0.00024459578101821897,-0.0006534495479277897,0.14510458707809448,12.024682998657227,-1.2909882068634033,-21.693452835083008,-0.3912253975868225,-2.5207552909851074,0.21457235515117645,0
69,0.34000086784362793,-0.19667929410934448,-11.973108291625977,1.2671844959259033,21.717256546020508,0.3857322335243225,2.5207552909851074,-0.24844686686992645,0.0,0.0,0.0,0.0,0.0,0.0,0.0,-0.15907650541141588,0.341256285702282,0.05741262155079426,0.4064218161286803,-0.14503341258695984,0.12598444119992327,-0.21595940542172218,0.17282952726305575,-0.487547101505597,-0.11145594225850021,-1.9466916816599142,0.13361002165079117,2.595551071855757,0.9452521883563862,0.1728802376190821,-0.48752024683155326,-0.11147110072896137,-1.9463801863486305,0.1336059019074957,2.595550359778934,0.9452445589611904,0.0007627207662051273,-0.0007170855987917817,-0.00020430312964838738,-0.0006540975636767161,0.00010124139355348323,0.00016205889111200992,0.001849642625211952,0.0,0.0,0.0,0.0,0.0,0.0,0.0,5.071035602635665e-05,2.685467404373032e-05,-1.515847046115737e-05,0.000311495311283716,-4.119743295477596e-06,-7.120768228396912e-07,-7.629395195829503e-06,-0.0007627207662051273,0.0007170855987917817,0.00020430312964838738,0.0006540975636767161,-0.00010124139355348323,-0.00016205889111200992,-0.001849642625211952,0.19667929410934448,11.973108291625977,-1.2671844959259033,-21.717256546020508,-0.3857322335243225,-2.5207552909851074,0.24844686686992645,0
70,0.3450028896331787,-0.19667929410934448,-11.973108291625977,1.2671844959259033,21.717256546020508,0.3857322335243225,2.5207552909851074,-0.24844686686992645,0.0,0.0,0.0,0.0,0.0,0.0,0.0,-0.15907650541141588,0.341256285702282,0.05741262155079426,0.4064218161286803,-0.14503341258695984,0.12598444119992327,-0.21595940542172218,0.17282952726305575,-0.487547101505597,-0.11145594225850021,-1.9466916816599142,0.13361002165079117,2.595551071855757,0.9452521883563862,0.1728802376190821,-0.48752024683155326,-0.11147110072896137,-1.9463801863486305,0.1336059019074957,2.595550359778934,0.9452445589611904,0.0007627207662051273,-0.0007170855987917817,-0.00020430312964838738,-0.0006540975636767161,0.00010124139355348323,0.00016205889111200992,0.001849642625211952,0.0,0.0,0.0,0.0,0.0,0.0,0.0,5.071035602635665e-05,2.685467404373032e-05,-1.515847046115737e-05,0.000311495311283716,-4.119743295477596e-06,-7.120768228396912e-07,-7.629395195829503e-06,-0.0007627207662051273,0.0007170855987917817,0.00020430312964838738,0.0006540975636767161,-0.00010124139355348323,-0.00016205889111200992,-0.001849642625211952,0.19667929410934448,11.973108291625977,-1.2671844959259033,-21.717256546020508,-0.3857322335243225,-2.5207552909851074,0.24844686686992645,0
71,0.3500025272369385,-0.17287558317184448,-12.024682998657227,1.3147919178009033,21.693452835083008,0.3912253975868225,2.5207552909851074,-0.15231649577617645,0.0,0.0,0.0,0.0,0.0,0.0,0.0,-0.15781329815739473,0.34263495625327767,0.0671533186419118,0.4037924606404512,-0.14550423059738668,0.12516626484374208,-0.21586889775370138,0.1728278568272005,-0.48754371181573997,-0.11145928313021074,-1.9466900083169143,0.13360941129922868,2.595551071855757,0.9452415072040425,0.1728802376190821,-0.48752024683155326,-0.11147110072896137,-1.9463801863486305,0.1336059019074957,2.595550359778934,0.9452445589611904,7.274741061236266e-05,0.0006472832470720086,-0.001318206530304721,-6.343923667115265e-05,4.214908424409466e-05,0.00015981259338657187,-0.002089519618443841,0.0,0.0,0.0,0.0,0.0,0.0,0.0,5.23807918816066e-05,2.3464984186705173e-05,-1.181759875062971e-05,0.0003098219682837744,-3.5093917329920288e-06,-7.120768228396912e-07,3.0517571478760885e-06,-7.274741061236266e-05,-0.0006472832470720086,0.001318206530304721,6.343923667115265e-05,-4.214908424409466e-05,-0.00015981259338657187,0.002089519618443841,0.17287558317184448,12.024682998657227,-1.3147919178009033,-21.693452835083008,-0.3912253975868225,-2.5207552909851074,0.15231649577617645,0
72,0.3549480438232422,-0.17287558317184448,-12.024682998657227,1.3147919178009033,21.693452835083008,0.3912253975868225,2.5207552909851074,-0.15231649577617645,0.0,0.0,0.0,0.0,0.0,0.0,0.0,-0.15781329815739473,0.34263495625327767,0.0671533186419118,0.4037924606404512,-0.14550423059738668,0.12516626484374208,-0.21586889775370138,0.1728278568272005,-0.48754371181573997,-0.11145928313021074,-1.9466900083169143,0.13360941129922868,2.595551071855757,0.9452415072040425,0.1728802376190821,-0.48752024683155326,-0.11147110072896137,-1.9463801863486305,0.1336059019074957,2.595550359778934,0.9452445589611904,7.274741061236266e-05,0.0006472832470720086,-0.001318206530304721,-6.343923667115265e-05,4.214908424409466e-05,0.00015981259338657187,-0.002089519618443841,0.0,0.0,0.0,0.0,0.0,0.0,0.0,5.23807918816066e-05,2.3464984186705173e-05,-1.181759875062971e-05,0.0003098219682837744,-3.5093917329920288e-06,-7.120768228396912e-07,3.0517571478760885e-06,-7.274741061236266e-05,-0.0006472832470720086,0.001318206530304721,6.343923667115265e-05,-4.214908424409466e-05,-0.00015981259338657187,0.002089519618443841,0.17287558317184448,12.024682998657227,-1.3147919178009033,-21.693452835083008,-0.3912253975868225,-2.5207552909851074,0.15231649577617645,0
73,0.359940767288208,-0.14510458707809448,-11.973108291625977,1.2433807849884033,21.669649124145508,0.3857322335243225,2.5271639823913574,-0.17978231608867645,0.0,0.0,0.0,0.0,0.0,0.0,0.0,-0.16136541631296963,0.33951157460544734,0.0654128338425679,0.4027023699245437,-0.14510318223841437,0.12508514230618908,-0.21577524138293186,0.17282590798536937,-0.48754657183175387,-0.11145427182264496,-1.9466883379537314,0.13361002165079117,2.595550359778934,0.9452445575083047,0.1728802376190821,-0.48752024683155326,-0.11147110072896137,-1.9463801863486305,0.1336059019074957,2.595550359778934,0.9452445589611904,-0.0002944173143836143,-0.0007420850777195919,-2.6846150970195052e-05,0.000471353040701746,4.399597643486227e-06,-0.00012872012041255832,-0.0013170205102961223,0.0,0.0,0.0,0.0,0.0,0.0,0.0,5.43296337127408e-05,2.6325000200611015e-05,-1.682890631640732e-05,0.00030815160510089257,-4.119743295477596e-06,0.0,1.4528857006368412e-09,0.0002944173143836143,0.0007420850777195919,2.6846150970195052e-05,-0.000471353040701746,-4.399597643486227e-06,0.00012872012041255832,0.0013170205102961223,0.14510458707809448,11.973108291625977,-1.2433807849884033,-21.669649124145508,-0.3857322335243225,-2.5271639823913574,0.17978231608867645,0
74,0.36499547958374023,-0.14510458707809448,-11.973108291625977,1.2433807849884033,21.669649124145508,0.3857322335243225,2.5271639823913574,-0.17978231608867645,0.0,0.0,0.0,0.0,0.0,0.0,0.0,-0.16136541631296963,0.33951157460544734,0.0654128338425679,0.4027023699245437,-0.14510318223841437,0.12508514230618908,-0.21577524138293186,0.17282590798536937,-0.48754657183175387,-0.11145427182264496,-1.9466883379537314,0.13361002165079117,2.595550359778934,0.9452445575083047,0.1728802376190821,-0.48752024683155326,-0.11147110072896137,-1.9463801863486305,0.1336059019074957,2.595550359778934,0.9452445589611904,-0.0002944173143836143,-0.0007420850777195919,-2.6846150970195052e-05,0.000471353040701746,4.399597643486227e-06,-0.00012872012041255832,-0.0013170205102961223,0.0,0.0,0.0,0.0,0.0,0.0,0.0,5.43296337127408e-05,2.6325000200611015e-05,-1.682890631640732e-05,0.00030815160510089257,-4.119743295477596e-06,0.0,1.4528857006368412e-09,0.0002944173143836143,0.0007420850777195919,2.6846150970195052e-05,-0.000471353040701746,-4.399597643486227e-06,0.00012872012041255832,0.0013170205102961223,0.14510458707809448,11.973108291625977,-1.2433807849884033,-21.669649124145508,-0.3857322335243225,-2.5271639823913574,0.17978231608867645,0
75,0.3700075149536133,-0.12130087614059448,-11.973108291625977,1.2156097888946533,21.717256546020508,0.3857322335243225,2.5271639823913574,-0.24112264811992645,0.0,0.0,0.0,0.0,0.0,0.0,0.0,-0.15776105918576433,0.336243087845096,0.06755819040908208,0.4038663858132264,-0.14548295790972599,0.12504412253540095,-0.21660312097115572,0.17282637338261855,-0.4875473652478696,-0.11145232298081381,-1.946691680024621,0.13361002165079117,2.595550359778934,0.9452513745542948,0.1728802376190821,-0.48752024683155326,-0.11147110072896137,-1.9463801863486305,0.1336059019074957,2.595550359778934,0.9452445589611904,-0.0006088067505487694,-0.0002991730709005202,0.0009373199451361057,-0.00043346359967553366,0.00016000025070947964,-6.019175446651605e-05,0.0017648496728859427,0.0,0.0,0.0,0.0,0.0,0.0,0.0,5.386423646355776e-05,2.7118416316362914e-05,-1.8777748147555395e-05,0.00031149367599048183,-4.119743295477596e-06,0.0,-6.81559310433677e-06,0.0006088067505487694,0.0002991730709005202,-0.0009373199451361057,0.00043346359967553366,-0.00016000025070947964,6.019175446651605e-05,-0.0017648496728859427,0.12130087614059448,11.973108291625977,-1.2156097888946533,-21.717256546020508,-0.3857322335243225,-2.5271639823913574,0.24112264811992645,0
76,0.37499475479125977,-0.12130087614059448,-11.973108291625977,1.2156097888946533,21.717256546020508,0.3857322335243225,2.5271639823913574,-0.24112264811992645,0.0,0.0,0.0,0.0,0.0,0.0,0.0,-0.15776105918576433,0.336243087845096,0.06755819040908208,0.4038663858132264,-0.14548295790972599,0.12504412253540095,-0.21660312097115572,0.17282637338261855,-0.4875473652478696,-0.11145232298081381,-1.946691680024621,0.13361002165079117,2.595550359778934,0.9452513745542948,0.1728802376190821,-0.48752024683155326,-0.11147110072896137,-1.9463801863486305,0.1336059019074957,2.595550359778934,0.9452445589611904,-0.0006088067505487694,-0.0002991730709005202,0.0009373199451361057,-0.00043346359967553366,0.00016000025070947964,-6.019175446651605e-05,0.0017648496728859427,0.0,0.0,0.0,0.0,0.0,0.0,0.0,5.386423646355776e-05,2.7118416316362914e-05,-1.8777748147555395e-05,0.00031149367599048183,-4.119743295477596e-06,0.0,-6.81559310433677e-06,0.0006088067505487694,0.0002991730709005202,-0.0009373199451361057,0.00043346359967553366,-0.00016000025070947964,6.019175446651605e-05,-0.0017648496728859427,0.12130087614059448,11.973108291625977,-1.2156097888946533,-21.717256546020508,-0.3857322335243225,-2.5271639823913574,0.24112264811992645,0
77,0.37999415397644043,-0.14510458707809448,-11.925500869750977,1.2156097888946533,21.717256546020508,0.3857322335243225,2.5271639823913574,-0.22098104655742645,0.0,0.0,0.0,0.0,0.0,0.0,0.0,-0.1609970013145131,0.3505995843201249,0.0579532763800994,0.39838416498385465,-0.14566247648036976,0.12419350321908718,-0.2163342353236681,0.1728259079974262,-0.48754855839455424,-0.11145232341385065,-1.9466919201874673,0.13361002165079117,2.595550359778934,0.9452491365985738,0.1728802376190821,-0.48752024683155326,-0.11147110072896137,-1.9463801863486305,0.1336059019074957,2.595550359778934,0.9452445589611904,-0.0006561620284151398,-0.000601157700300087,0.0009931695601037686,-0.0006328474268907281,-4.132634685744224e-05,-0.0001634814465432871,0.0002470809264479005,0.0,0.0,0.0,0.0,0.0,0.0,0.0,5.432962165591304e-05,2.8311563000982254e-05,-1.87773151107129e-05,0.00031173383883675854,-4.119743295477596e-06,0.0,-4.5776373833739115e-06,0.0006561620284151398,0.000601157700300087,-0.0009931695601037686,0.0006328474268907281,4.132634685744224e-05,0.0001634814465432871,-0.0002470809264479005,0.14510458707809448,11.925500869750977,-1.2156097888946533,-21.717256546020508,-0.3857322335243225,-2.5271639823913574,0.22098104655742645,0
78,0.3849945068359375,-0.14510458707809448,-11.925500869750977,1.2156097888946533,21.717256546020508,0.3857322335243225,2.5271639823913574,-0.22098104655742645,0.0,0.0,0.0,0.0,0.0,0.0,0.0,-0.1609970013145131,0.3505995843201249,0.0579532763800994,0.39838416498385465,-0.14566247648036976,0.12419350321908718,-0.2163342353236681,0.1728259079974262,-0.48754855839455424,-0.11145232341385065,-1.9466919201874673,0.13361002165079117,2.595550359778934,0.9452491365985738,0.1728802376190821,-0.48752024683155326,-0.11147110072896137,-1.9463801863486305,0.1336059019074957,2.595550359778934,0.9452445589611904,-0.0006561620284151398,-0.000601157700300087,0.0009931695601037686,-0.0006328474268907281,-4.132634685744224e-05,-0.0001634814465432871,0.0002470809264479005,0.0,0.0,0.0,0.0,0.0,0.0,0.0,5.432962165591304e-05,2.8311563000982254e-05,-1.87773151107129e-05,0.00031173383883675854,-4.119743295477596e-06,0.0,-4.5776373833739115e-06,0.0006561620284151398,0.000601157700300087,-0.0009931695601037686,0.0006328474268907281,4.132634685744224e-05,0.0001634814465432871,-0.0002470809264479005,0.14510458707809448,11.925500869750977,-1.2156097888946533,-21.717256546020508,-0.3857322335243225,-2.5271639823913574,0.22098104655742645,0
79,0.3899953365325928,-0.14510458707809448,-11.949304580688477,1.2671844959259033,21.741060256958008,0.3857322335243225,2.5143465995788574,-0.16604940593242645,0.0,0.0,0.0,0.0,0.0,0.0,0.0,-0.16298391214690897,0.34726158285173797,0.055870044463184096,0.40580692386647677,-0.1465507748424571,0.12535391543402005,-0.21580875686556794,0.172825908093881,-0.48754900951217534,-0.11145594225850265,-1.9466933491899825,0.13361002165079117,2.5955517839325797,0.9452430330829488,0.1728802376190821,-0.48752024683155326,-0.11147110072896137,-1.9463801863486305,0.1336059019074957,2.595550359778934,0.9452445589611904,-0.00043084558944569355,-2.423759700634292e-06,-0.000641424413325525,-0.0011169798083282816,-9.834068295727725e-05,0.00039708476607604474,-0.0016232511843073203,0.0,0.0,0.0,0.0,0.0,0.0,0.0,5.432952520112444e-05,2.876268062207421e-05,-1.5158470458714879e-05,0.00031316284135196604,-4.119743295477596e-06,-1.4241536456793824e-06,1.525878241648293e-06,0.00043084558944569355,2.423759700634292e-06,0.000641424413325525,0.0011169798083282816,9.834068295727725e-05,-0.00039708476607604474,0.0016232511843073203,0.14510458707809448,11.949304580688477,-1.2671844959259033,-21.741060256958008,-0.3857322335243225,-2.5143465995788574,0.16604940593242645,0
80,0.39546728134155273,-0.14510458707809448,-11.949304580688477,1.2671844959259033,21.741060256958008,0.3857322335243225,2.5143465995788574,-0.16604940593242645,0.0,0.0,0.0,0.0,0.0,0.0,0.0,-0.16298391214690897,0.34726158285173797,0.055870044463184096,0.40580692386647677,-0.1465507748424571,0.12535391543402005,-0.21580875686556794,0.172825908093881,-0.48754900951217534,-0.11145594225850265,-1.9466933491899825,0.13361002165079117,2.5955517839325797,0.9452430330829488,0.1728802376190821,-0.48752024683155326,-0.11147110072896137,-1.9463801863486305,0.1336059019074957,2.595550359778934,0.9452445589611904,-0.00043084558944569355,-2.423759700634292e-06,-0.000641424413325525,-0.0011169798083282816,-9.834068295727725e-05,0.00039708476607604474,-0.0016232511843073203,0.0,0.0,0.0,0.0,0.0,0.0,0.0,5.432952520112444e-05,2.876268062207421e-05,-1.5158470458714879e-05,0.00031316284135196604,-4.119743295477596e-06,-1.4241536456793824e-06,1.525878241648293e-06,0.00043084558944569355,2.423759700634292e-06,0.000641424413325525,0.0011169798083282816,9.834068295727725e-05,-0.00039708476607604474,0.0016232511843073203,0.14510458707809448,11.949304580688477,-1.2671844959259033,-21.741060256958008,-0.3857322335243225,-2.5143465995788574,0.16604940593242645,0
