rezayati/contactInterpretation/dataset/franka_main/labeled_data/link4/d7_8.csv
index,time,tau_J0,tau_J1,tau_J2,tau_J3,tau_J4,tau_J5,tau_J6,tau_J_d0,tau_J_d1,tau_J_d2,tau_J_d3,tau_J_d4,tau_J_d5,tau_J_d6,tau_ext0,tau_ext1,tau_ext2,tau_ext3,tau_ext4,tau_ext5,tau_ext6,q0,q1,q2,q3,q4,q5,q6,q_d0,q_d1,q_d2,q_d3,q_d4,q_d5,q_d6,dq0,dq1,dq2,dq3,dq4,dq5,dq6,dq_d0,dq_d1,dq_d2,dq_d3,dq_d4,dq_d5,dq_d6,e0,e1,e2,e3,e4,e5,e6,de0,de1,de2,de3,de4,de5,de6,etau_J0,etau_J1,etau_J2,etau_J3,etau_J4,etau_J5,etau_J6,label
1,0.0,-0.3236324191093445,-22.819665908813477,-0.09756157547235489,14.179414749145508,0.1293845772743225,2.1453890800476074,-0.37845176458358765,0.0,0.0,0.0,0.0,0.0,0.0,0.0,-0.3632081902068876,0.020842820134282635,-0.21157890708489643,0.28398613085007546,-0.1136586099836308,-0.040265428403655754,-0.3642969438255951,1.6755997555339546,0.05212903284049977,0.030034526697400702,-2.7523881264067533,0.03425092233220736,2.766372722678714,0.7691800883544815,1.6754973547542302,0.052104326824870026,0.029969505109285054,-2.752394845125968,0.0342448039870148,2.7663679543071322,0.7691630533470046,-0.0011356156012203964,0.0008930021153280007,-0.0004068046447577758,-0.001048812710612762,-0.00038814394393682717,5.796025639864985e-05,0.0004795304305687668,0.0,0.0,0.0,0.0,0.0,0.0,0.0,-0.00010240077972434314,-2.4706015629746836e-05,-6.502158811564837e-05,-6.718719214759972e-06,-6.118345192561436e-06,-4.768371581587161e-06,-1.703500747685105e-05,0.0011356156012203964,-0.0008930021153280007,0.0004068046447577758,0.001048812710612762,0.00038814394393682717,-5.796025639864985e-05,-0.0004795304305687668,0.3236324191093445,22.819665908813477,0.09756157547235489,-14.179414749145508,-0.1293845772743225,-2.1453890800476074,0.37845176458358765,0
2,0.00497889518737793,-0.3236324191093445,-22.819665908813477,-0.09756157547235489,14.179414749145508,0.1293845772743225,2.1453890800476074,-0.37845176458358765,0.0,0.0,0.0,0.0,0.0,0.0,0.0,-0.3632081902068876,0.020842820134282635,-0.21157890708489643,0.28398613085007546,-0.1136586099836308,-0.040265428403655754,-0.3642969438255951,1.6755997555339546,0.05212903284049977,0.030034526697400702,-2.7523881264067533,0.03425092233220736,2.766372722678714,0.7691800883544815,1.6754973547542302,0.052104326824870026,0.029969505109285054,-2.752394845125968,0.0342448039870148,2.7663679543071322,0.7691630533470046,-0.0011356156012203964,0.0008930021153280007,-0.0004068046447577758,-0.001048812710612762,-0.00038814394393682717,5.796025639864985e-05,0.0004795304305687668,0.0,0.0,0.0,0.0,0.0,0.0,0.0,-0.00010240077972434314,-2.4706015629746836e-05,-6.502158811564837e-05,-6.718719214759972e-06,-6.118345192561436e-06,-4.768371581587161e-06,-1.703500747685105e-05,0.0011356156012203964,-0.0008930021153280007,0.0004068046447577758,0.001048812710612762,0.00038814394393682717,-5.796025639864985e-05,-0.0004795304305687668,0.3236324191093445,22.819665908813477,0.09756157547235489,-14.179414749145508,-0.1293845772743225,-2.1453890800476074,0.37845176458358765,0
3,0.009975194931030273,-0.3514034152030945,-22.748254776000977,-0.1253325641155243,14.155611038208008,0.11198955774307251,2.1517977714538574,-0.39218467473983765,0.0,0.0,0.0,0.0,0.0,0.0,0.0,-0.36850677175890567,0.024745142201405095,-0.21591613159481515,0.28020302682479464,-0.112430815643059,-0.04037569880782658,-0.3644411299542977,1.6756017043757856,0.05212282223745496,0.030036471641399397,-2.752386455970898,0.03425285511215528,2.766372010601891,0.7691816258436203,1.6754973547542302,0.052104326824870026,0.029969505109285054,-2.752394845125968,0.0342448039870148,2.7663679543071322,0.7691630533470046,0.0002762972297598526,-0.0008614196976484017,0.0005491305884356205,-0.0006197254413860608,-0.002182204786480032,-9.17547945224066e-05,0.0008227069830551665,0.0,0.0,0.0,0.0,0.0,0.0,0.0,-0.00010434962155536631,-1.8495412584931814e-05,-6.696653211434381e-05,-8.389155070176457e-06,-8.051125140476345e-06,-4.05629475874747e-06,-1.8572496615631984e-05,-0.0002762972297598526,0.0008614196976484017,-0.0005491305884356205,0.0006197254413860608,0.002182204786480032,9.17547945224066e-05,-0.0008227069830551665,0.3514034152030945,22.748254776000977,0.1253325641155243,-14.155611038208008,-0.11198955774307251,-2.1517977714538574,0.39218467473983765,0
4,0.01515960693359375,-0.3514034152030945,-22.748254776000977,-0.1253325641155243,14.155611038208008,0.11198955774307251,2.1517977714538574,-0.39218467473983765,0.0,0.0,0.0,0.0,0.0,0.0,0.0,-0.36850677175890567,0.024745142201405095,-0.21591613159481515,0.28020302682479464,-0.112430815643059,-0.04037569880782658,-0.3644411299542977,1.6756017043757856,0.05212282223745496,0.030036471641399397,-2.752386455970898,0.03425285511215528,2.766372010601891,0.7691816258436203,1.6754973547542302,0.052104326824870026,0.029969505109285054,-2.752394845125968,0.0342448039870148,2.7663679543071322,0.7691630533470046,0.0002762972297598526,-0.0008614196976484017,0.0005491305884356205,-0.0006197254413860608,-0.002182204786480032,-9.17547945224066e-05,0.0008227069830551665,0.0,0.0,0.0,0.0,0.0,0.0,0.0,-0.00010434962155536631,-1.8495412584931814e-05,-6.696653211434381e-05,-8.389155070176457e-06,-8.051125140476345e-06,-4.05629475874747e-06,-1.8572496615631984e-05,-0.0002762972297598526,0.0008614196976484017,-0.0005491305884356205,0.0006197254413860608,0.002182204786480032,9.17547945224066e-05,-0.0008227069830551665,0.3514034152030945,22.748254776000977,0.1253325641155243,-14.155611038208008,-0.11198955774307251,-2.1517977714538574,0.39218467473983765,0
5,0.019979476928710938,-0.3752071261405945,-22.795862197875977,-0.1253325641155243,14.155611038208008,0.11748272180557251,2.1582064628601074,-0.38577598333358765,0.0,0.0,0.0,0.0,0.0,0.0,0.0,-0.36543847739311136,0.017358627127910083,-0.21371264235208381,0.28203332333887854,-0.11395517688139374,-0.03849884522064774,-0.3660784228783443,1.675603374811641,0.05212591803689424,0.030037524029167827,-2.752386455970898,0.03425224622095654,2.766371298525068,0.7691812684512923,1.6754973547542302,0.052104326824870026,0.029969505109285054,-2.752394845125968,0.0342448039870148,2.7663679543071322,0.7691630533470046,0.0005625145189107485,-0.0003386249502280798,-6.568151596688294e-05,-0.0003030107889322707,-4.9223005196832886e-05,-0.0003646099912764766,0.0007543561301386532,0.0,0.0,0.0,0.0,0.0,0.0,0.0,-0.0001060200574107828,-2.1591212024212048e-05,-6.801891988277367e-05,-8.389155070176457e-06,-7.442233941737375e-06,-3.3442179359077784e-06,-1.8215104287677697e-05,-0.0005625145189107485,0.0003386249502280798,6.568151596688294e-05,0.0003030107889322707,4.9223005196832886e-05,0.0003646099912764766,-0.0007543561301386532,0.3752071261405945,22.795862197875977,0.1253325641155243,-14.155611038208008,-0.11748272180557251,-2.1582064628601074,0.38577598333358765,0
6,0.024977684020996094,-0.3752071261405945,-22.795862197875977,-0.1253325641155243,14.155611038208008,0.11748272180557251,2.1582064628601074,-0.38577598333358765,0.0,0.0,0.0,0.0,0.0,0.0,0.0,-0.36543847739311136,0.017358627127910083,-0.21371264235208381,0.28203332333887854,-0.11395517688139374,-0.03849884522064774,-0.3660784228783443,1.675603374811641,0.05212591803689424,0.030037524029167827,-2.752386455970898,0.03425224622095654,2.766371298525068,0.7691812684512923,1.6754973547542302,0.052104326824870026,0.029969505109285054,-2.752394845125968,0.0342448039870148,2.7663679543071322,0.7691630533470046,0.0005625145189107485,-0.0003386249502280798,-6.568151596688294e-05,-0.0003030107889322707,-4.9223005196832886e-05,-0.0003646099912764766,0.0007543561301386532,0.0,0.0,0.0,0.0,0.0,0.0,0.0,-0.0001060200574107828,-2.1591212024212048e-05,-6.801891988277367e-05,-8.389155070176457e-06,-7.442233941737375e-06,-3.3442179359077784e-06,-1.8215104287677697e-05,-0.0005625145189107485,0.0003386249502280798,6.568151596688294e-05,0.0003030107889322707,4.9223005196832886e-05,0.0003646099912764766,-0.0007543561301386532,0.3752071261405945,22.795862197875977,0.1253325641155243,-14.155611038208008,-0.11748272180557251,-2.1582064628601074,0.38577598333358765,0
7,0.029975175857543945,-0.4267818331718445,-22.795862197875977,-0.1253325641155243,14.207185745239258,0.11198955774307251,2.1389803886413574,-0.37204307317733765,0.0,0.0,0.0,0.0,0.0,0.0,0.0,-0.36206231154479745,0.019805953745981812,-0.21178623226978838,0.2739385811012039,-0.11415091292047118,-0.039188248797605865,-0.36865580770111483,1.6756069940893275,0.052125443800064536,0.03003647168340456,-2.7523900752485844,0.03425285511216352,2.7663734347555367,0.769179380640377,1.6754973547542302,0.052104326824870026,0.029969505109285054,-2.752394845125968,0.0342448039870148,2.7663679543071322,0.7691630533470046,0.0014160439982700153,5.145610958152355e-05,-0.00036733735270483005,-0.001872975502622133,0.00031592970042124125,0.0002631185394651328,0.00022148642775663834,0.0,0.0,0.0,0.0,0.0,0.0,0.0,-0.00010963933509722246,-2.1116975194510057e-05,-6.696657411950704e-05,-4.769877383736798e-06,-8.051125148719751e-06,-5.480448404426852e-06,-1.6327293372420115e-05,-0.0014160439982700153,-5.145610958152355e-05,0.00036733735270483005,0.001872975502622133,-0.00031592970042124125,-0.0002631185394651328,-0.00022148642775663834,0.4267818331718445,22.795862197875977,0.1253325641155243,-14.207185745239258,-0.11198955774307251,-2.1389803886413574,0.37204307317733765,0
8,0.034975528717041016,-0.4267818331718445,-22.795862197875977,-0.1253325641155243,14.207185745239258,0.11198955774307251,2.1389803886413574,-0.37204307317733765,0.0,0.0,0.0,0.0,0.0,0.0,0.0,-0.36206231154479745,0.019805953745981812,-0.21178623226978838,0.2739385811012039,-0.11415091292047118,-0.039188248797605865,-0.36865580770111483,1.6756069940893275,0.052125443800064536,0.03003647168340456,-2.7523900752485844,0.03425285511216352,2.7663734347555367,0.769179380640377,1.6754973547542302,0.052104326824870026,0.029969505109285054,-2.752394845125968,0.0342448039870148,2.7663679543071322,0.7691630533470046,0.0014160439982700153,5.145610958152355e-05,-0.00036733735270483005,-0.001872975502622133,0.00031592970042124125,0.0002631185394651328,0.00022148642775663834,0.0,0.0,0.0,0.0,0.0,0.0,0.0,-0.00010963933509722246,-2.1116975194510057e-05,-6.696657411950704e-05,-4.769877383736798e-06,-8.051125148719751e-06,-5.480448404426852e-06,-1.6327293372420115e-05,-0.0014160439982700153,-5.145610958152355e-05,0.00036733735270483005,0.001872975502622133,-0.00031592970042124125,-0.0002631185394651328,-0.00022148642775663834,0.4267818331718445,22.795862197875977,0.1253325641155243,-14.207185745239258,-0.11198955774307251,-2.1389803886413574,0.37204307317733765,0
9,0.039977073669433594,-0.3752071261405945,-22.795862197875977,-0.1729399859905243,14.155611038208008,0.11748272180557251,2.1453890800476074,-0.35831016302108765,0.0,0.0,0.0,0.0,0.0,0.0,0.0,-0.3652849832389672,0.01734551121211794,-0.2146355713668413,0.27426620370610794,-0.11423707997939923,-0.03928169112636754,-0.3703747398111609,1.675603374811641,0.052125210521057466,0.030039812513088637,-2.7523864644741667,0.03425224476059278,2.766372722678714,0.7691779681363962,1.6754973547542302,0.052104326824870026,0.029969505109285054,-2.752394845125968,0.0342448039870148,2.7663679543071322,0.7691630533470046,-0.0002757311309148322,0.0005040117993880801,0.00044865801762499185,-0.0002719370288664658,8.603457442408689e-05,-8.723086575295719e-05,-0.0009607238320180083,0.0,0.0,0.0,0.0,0.0,0.0,0.0,-0.0001060200574107828,-2.0883696187440348e-05,-7.030740380358294e-05,-8.380651801420669e-06,-7.4407735779769e-06,-4.768371581587161e-06,-1.4914789391529126e-05,0.0002757311309148322,-0.0005040117993880801,-0.00044865801762499185,0.0002719370288664658,-8.603457442408689e-05,8.723086575295719e-05,0.0009607238320180083,0.3752071261405945,22.795862197875977,0.1729399859905243,-14.155611038208008,-0.11748272180557251,-2.1453890800476074,0.35831016302108765,0
10,0.04497551918029785,-0.3752071261405945,-22.795862197875977,-0.1729399859905243,14.155611038208008,0.11748272180557251,2.1453890800476074,-0.35831016302108765,0.0,0.0,0.0,0.0,0.0,0.0,0.0,-0.3652849832389672,0.01734551121211794,-0.2146355713668413,0.27426620370610794,-0.11423707997939923,-0.03928169112636754,-0.3703747398111609,1.675603374811641,0.052125210521057466,0.030039812513088637,-2.7523864644741667,0.03425224476059278,2.766372722678714,0.7691779681363962,1.6754973547542302,0.052104326824870026,0.029969505109285054,-2.752394845125968,0.0342448039870148,2.7663679543071322,0.7691630533470046,-0.0002757311309148322,0.0005040117993880801,0.00044865801762499185,-0.0002719370288664658,8.603457442408689e-05,-8.723086575295719e-05,-0.0009607238320180083,0.0,0.0,0.0,0.0,0.0,0.0,0.0,-0.0001060200574107828,-2.0883696187440348e-05,-7.030740380358294e-05,-8.380651801420669e-06,-7.4407735779769e-06,-4.768371581587161e-06,-1.4914789391529126e-05,0.0002757311309148322,-0.0005040117993880801,-0.00044865801762499185,0.0002719370288664658,-8.603457442408689e-05,8.723086575295719e-05,0.0009607238320180083,0.3752071261405945,22.795862197875977,0.1729399859905243,-14.155611038208008,-0.11748272180557251,-2.1453890800476074,0.35831016302108765,0
11,0.05000114440917969,-0.3514034152030945,-22.772058486938477,-0.1253325641155243,14.108003616333008,0.1293845772743225,2.1453890800476074,-0.35098594427108765,0.0,0.0,0.0,0.0,0.0,0.0,0.0,-0.3647272699256698,0.01172834890585594,-0.21366510607332034,0.2788314071026923,-0.11501824802307456,-0.038967686300265064,-0.37127788210922036,1.6756017043757856,0.052123615786341844,0.03003647174963661,-2.752383115134196,0.03425092233220736,2.766372722678714,0.7691773917476673,1.6754973547542302,0.052104326824870026,0.029969505109285054,-2.752394845125968,0.0342448039870148,2.7663679543071322,0.7691630533470046,-0.0006372975759044565,-0.00019884469929600096,-0.00015642509244873608,0.0014164423103333792,-0.0006276481051613934,-0.00018370508822287756,-0.001018307266917345,0.0,0.0,0.0,0.0,0.0,0.0,0.0,-0.00010434962155536631,-1.9288961471818078e-05,-6.696664035155467e-05,-1.1729991772124748e-05,-6.118345192561436e-06,-4.768371581587161e-06,-1.4338400662672335e-05,0.0006372975759044565,0.00019884469929600096,0.00015642509244873608,-0.0014164423103333792,0.0006276481051613934,0.00018370508822287756,0.001018307266917345,0.3514034152030945,22.772058486938477,0.1253325641155243,-14.108003616333008,-0.1293845772743225,-2.1453890800476074,0.35098594427108765,0
12,0.05498361587524414,-0.3514034152030945,-22.772058486938477,-0.1253325641155243,14.108003616333008,0.1293845772743225,2.1453890800476074,-0.35098594427108765,0.0,0.0,0.0,0.0,0.0,0.0,0.0,-0.3647272699256698,0.01172834890585594,-0.21366510607332034,0.2788314071026923,-0.11501824802307456,-0.038967686300265064,-0.37127788210922036,1.6756017043757856,0.052123615786341844,0.03003647174963661,-2.752383115134196,0.03425092233220736,2.766372722678714,0.7691773917476673,1.6754973547542302,0.052104326824870026,0.029969505109285054,-2.752394845125968,0.0342448039870148,2.7663679543071322,0.7691630533470046,-0.0006372975759044565,-0.00019884469929600096,-0.00015642509244873608,0.0014164423103333792,-0.0006276481051613934,-0.00018370508822287756,-0.001018307266917345,0.0,0.0,0.0,0.0,0.0,0.0,0.0,-0.00010434962155536631,-1.9288961471818078e-05,-6.696664035155467e-05,-1.1729991772124748e-05,-6.118345192561436e-06,-4.768371581587161e-06,-1.4338400662672335e-05,0.0006372975759044565,0.00019884469929600096,0.00015642509244873608,-0.0014164423103333792,0.0006276481051613934,0.00018370508822287756,0.001018307266917345,0.3514034152030945,22.772058486938477,0.1253325641155243,-14.108003616333008,-0.1293845772743225,-2.1453890800476074,0.35098594427108765,0
13,0.05999326705932617,-0.2998287081718445,-22.795862197875977,-0.09756157547235489,14.179414749145508,0.11198955774307251,2.1453890800476074,-0.35831016302108765,0.0,0.0,0.0,0.0,0.0,0.0,0.0,-0.3671962896024654,0.016622465664872778,-0.21574980278340142,0.27680227742452174,-0.11490336532706677,-0.03975444350478926,-0.3708542596032804,1.6755980850980994,0.05212807434883536,0.03003523308875329,-2.7523881264067533,0.03425178967912992,2.7663727225172083,0.7691778504007571,1.6754973547542302,0.052104326824870026,0.029969505109285054,-2.752394845125968,0.0342448039870148,2.7663679543071322,0.7691630533470046,-0.001634554532888451,0.0005479060562735371,-0.0006611819391449464,-0.0006291506686096136,4.3655257215283254e-05,-5.187155741332358e-05,-0.000291750135488587,0.0,0.0,0.0,0.0,0.0,0.0,0.0,-0.0001007303438691487,-2.3747523965333972e-05,-6.572797946823722e-05,-6.718719214759972e-06,-6.985692115116238e-06,-4.768210076111501e-06,-1.4797053752513278e-05,0.001634554532888451,-0.0005479060562735371,0.0006611819391449464,0.0006291506686096136,-4.3655257215283254e-05,5.187155741332358e-05,0.000291750135488587,0.2998287081718445,22.795862197875977,0.09756157547235489,-14.179414749145508,-0.11198955774307251,-2.1453890800476074,0.35831016302108765,0
14,0.06492996215820312,-0.2998287081718445,-22.795862197875977,-0.09756157547235489,14.179414749145508,0.11198955774307251,2.1453890800476074,-0.35831016302108765,0.0,0.0,0.0,0.0,0.0,0.0,0.0,-0.3671962896024654,0.016622465664872778,-0.21574980278340142,0.27680227742452174,-0.11490336532706677,-0.03975444350478926,-0.3708542596032804,1.6755980850980994,0.05212807434883536,0.03003523308875329,-2.7523881264067533,0.03425178967912992,2.7663727225172083,0.7691778504007571,1.6754973547542302,0.052104326824870026,0.029969505109285054,-2.752394845125968,0.0342448039870148,2.7663679543071322,0.7691630533470046,-0.001634554532888451,0.0005479060562735371,-0.0006611819391449464,-0.0006291506686096136,4.3655257215283254e-05,-5.187155741332358e-05,-0.000291750135488587,0.0,0.0,0.0,0.0,0.0,0.0,0.0,-0.0001007303438691487,-2.3747523965333972e-05,-6.572797946823722e-05,-6.718719214759972e-06,-6.985692115116238e-06,-4.768210076111501e-06,-1.4797053752513278e-05,0.001634554532888451,-0.0005479060562735371,0.0006611819391449464,0.0006291506686096136,-4.3655257215283254e-05,5.187155741332358e-05,0.000291750135488587,0.2998287081718445,22.795862197875977,0.09756157547235489,-14.179414749145508,-0.11198955774307251,-2.1453890800476074,0.35831016302108765,0
15,0.06998085975646973,-0.2998287081718445,-22.795862197875977,-0.09756157547235489,14.179414749145508,0.11198955774307251,2.1453890800476074,-0.35831016302108765,0.0,0.0,0.0,0.0,0.0,0.0,0.0,-0.3671962896024654,0.016622465664872778,-0.21574980278340142,0.27680227742452174,-0.11490336532706677,-0.03975444350478926,-0.3708542596032804,1.6755980850980994,0.05212807434883536,0.03003523308875329,-2.7523881264067533,0.03425178967912992,2.7663727225172083,0.7691778504007571,1.6754973547542302,0.052104326824870026,0.029969505109285054,-2.752394845125968,0.0342448039870148,2.7663679543071322,0.7691630533470046,-0.001634554532888451,0.0005479060562735371,-0.0006611819391449464,-0.0006291506686096136,4.3655257215283254e-05,-5.187155741332358e-05,-0.000291750135488587,0.0,0.0,0.0,0.0,0.0,0.0,0.0,-0.0001007303438691487,-2.3747523965333972e-05,-6.572797946823722e-05,-6.718719214759972e-06,-6.985692115116238e-06,-4.768210076111501e-06,-1.4797053752513278e-05,0.001634554532888451,-0.0005479060562735371,0.0006611819391449464,0.0006291506686096136,-4.3655257215283254e-05,5.187155741332358e-05,0.000291750135488587,0.2998287081718445,22.795862197875977,0.09756157547235489,-14.179414749145508,-0.11198955774307251,-2.1453890800476074,0.35831016302108765,0
16,0.07497811317443848,-0.2998287081718445,-22.795862197875977,-0.09756157547235489,14.179414749145508,0.11198955774307251,2.1453890800476074,-0.35831016302108765,0.0,0.0,0.0,0.0,0.0,0.0,0.0,-0.3671962896024654,0.016622465664872778,-0.21574980278340142,0.27680227742452174,-0.11490336532706677,-0.03975444350478926,-0.3708542596032804,1.6755980850980994,0.05212807434883536,0.03003523308875329,-2.7523881264067533,0.03425178967912992,2.7663727225172083,0.7691778504007571,1.6754973547542302,0.052104326824870026,0.029969505109285054,-2.752394845125968,0.0342448039870148,2.7663679543071322,0.7691630533470046,-0.001634554532888451,0.0005479060562735371,-0.0006611819391449464,-0.0006291506686096136,4.3655257215283254e-05,-5.187155741332358e-05,-0.000291750135488587,0.0,0.0,0.0,0.0,0.0,0.0,0.0,-0.0001007303438691487,-2.3747523965333972e-05,-6.572797946823722e-05,-6.718719214759972e-06,-6.985692115116238e-06,-4.768210076111501e-06,-1.4797053752513278e-05,0.001634554532888451,-0.0005479060562735371,0.0006611819391449464,0.0006291506686096136,-4.3655257215283254e-05,5.187155741332358e-05,0.000291750135488587,0.2998287081718445,22.795862197875977,0.09756157547235489,-14.179414749145508,-0.11198955774307251,-2.1453890800476074,0.35831016302108765,0
17,0.07999682426452637,-0.3752071261405945,-22.772058486938477,-0.09756157547235489,14.131807327270508,0.11198955774307251,2.1582064628601074,-0.39950889348983765,0.0,0.0,0.0,0.0,0.0,0.0,0.0,-0.36702952559577207,0.020782537339900185,-0.21582127296096215,0.2752754385201901,-0.11563267833322953,-0.0404343989277181,-0.3696343596348393,1.675603374811641,0.05212362480159191,0.030036741360090363,-2.752384785535043,0.03425285510614088,2.7663712985250672,0.7691824280354711,1.6754973547542302,0.052104326824870026,0.029969505109285054,-2.752394845125968,0.0342448039870148,2.7663679543071322,0.7691630533470046,0.00026412153332859773,-8.666723357020196e-05,-0.0010572764302427039,0.00047790434987687777,0.004183467586993266,-0.00040740827680277086,0.0015701950585096619,0.0,0.0,0.0,0.0,0.0,0.0,0.0,-0.0001060200574107828,-1.929797672188538e-05,-6.723625080530884e-05,-1.0059590925148854e-05,-8.051119126079032e-06,-3.3442179350196e-06,-1.937468846646695e-05,-0.00026412153332859773,8.666723357020196e-05,0.0010572764302427039,-0.00047790434987687777,-0.004183467586993266,0.00040740827680277086,-0.0015701950585096619,0.3752071261405945,22.772058486938477,0.09756157547235489,-14.131807327270508,-0.11198955774307251,-2.1582064628601074,0.39950889348983765,0
18,0.08497357368469238,-0.3752071261405945,-22.772058486938477,-0.09756157547235489,14.131807327270508,0.11198955774307251,2.1582064628601074,-0.39950889348983765,0.0,0.0,0.0,0.0,0.0,0.0,0.0,-0.36702952559577207,0.020782537339900185,-0.21582127296096215,0.2752754385201901,-0.11563267833322953,-0.0404343989277181,-0.3696343596348393,1.675603374811641,0.05212362480159191,0.030036741360090363,-2.752384785535043,0.03425285510614088,2.7663712985250672,0.7691824280354711,1.6754973547542302,0.052104326824870026,0.029969505109285054,-2.752394845125968,0.0342448039870148,2.7663679543071322,0.7691630533470046,0.00026412153332859773,-8.666723357020196e-05,-0.0010572764302427039,0.00047790434987687777,0.004183467586993266,-0.00040740827680277086,0.0015701950585096619,0.0,0.0,0.0,0.0,0.0,0.0,0.0,-0.0001060200574107828,-1.929797672188538e-05,-6.723625080530884e-05,-1.0059590925148854e-05,-8.051119126079032e-06,-3.3442179350196e-06,-1.937468846646695e-05,-0.00026412153332859773,8.666723357020196e-05,0.0010572764302427039,-0.00047790434987687777,-0.004183467586993266,0.00040740827680277086,-0.0015701950585096619,0.3752071261405945,22.772058486938477,0.09756157547235489,-14.131807327270508,-0.11198955774307251,-2.1582064628601074,0.39950889348983765,0
19,0.08997511863708496,-0.3752071261405945,-22.772058486938477,-0.09756157547235489,14.155611038208008,0.11748272180557251,2.1517977714538574,-0.34457725286483765,0.0,0.0,0.0,0.0,0.0,0.0,0.0,-0.36679840427703464,0.017229001564307456,-0.21534631264112558,0.27985822948812733,-0.11566091061628664,-0.0392131753462204,-0.3687682199114676,1.675603374811641,0.052123777541837564,0.030036653678643662,-2.752386455970898,0.03425224476059274,2.766372010601891,0.7691763245198461,1.6754973547542302,0.052104326824870026,0.029969505109285054,-2.752394845125968,0.0342448039870148,2.7663679543071322,0.7691630533470046,0.00042154022224965724,-0.0004698917700966559,-0.0004989710814428619,-0.0001844448544518605,6.76088947209159e-05,-5.088830571535924e-05,-0.0004611088030768898,0.0,0.0,0.0,0.0,0.0,0.0,0.0,-0.0001060200574107828,-1.945071696753814e-05,-6.714856935860838e-05,-8.389155070176457e-06,-7.440773577942206e-06,-4.05629475874747e-06,-1.3271172841444745e-05,-0.00042154022224965724,0.0004698917700966559,0.0004989710814428619,0.0001844448544518605,-6.76088947209159e-05,5.088830571535924e-05,0.0004611088030768898,0.3752071261405945,22.772058486938477,0.09756157547235489,-14.155611038208008,-0.11748272180557251,-2.1517977714538574,0.34457725286483765,0
20,0.09497570991516113,-0.3752071261405945,-22.772058486938477,-0.09756157547235489,14.155611038208008,0.11748272180557251,2.1517977714538574,-0.34457725286483765,0.0,0.0,0.0,0.0,0.0,0.0,0.0,-0.36679840427703464,0.017229001564307456,-0.21534631264112558,0.27985822948812733,-0.11566091061628664,-0.0392131753462204,-0.3687682199114676,1.675603374811641,0.052123777541837564,0.030036653678643662,-2.752386455970898,0.03425224476059274,2.766372010601891,0.7691763245198461,1.6754973547542302,0.052104326824870026,0.029969505109285054,-2.752394845125968,0.0342448039870148,2.7663679543071322,0.7691630533470046,0.00042154022224965724,-0.0004698917700966559,-0.0004989710814428619,-0.0001844448544518605,6.76088947209159e-05,-5.088830571535924e-05,-0.0004611088030768898,0.0,0.0,0.0,0.0,0.0,0.0,0.0,-0.0001060200574107828,-1.945071696753814e-05,-6.714856935860838e-05,-8.389155070176457e-06,-7.440773577942206e-06,-4.05629475874747e-06,-1.3271172841444745e-05,-0.00042154022224965724,0.0004698917700966559,0.0004989710814428619,0.0001844448544518605,-6.76088947209159e-05,5.088830571535924e-05,0.0004611088030768898,0.3752071261405945,22.772058486938477,0.09756157547235489,-14.155611038208008,-0.11748272180557251,-2.1517977714538574,0.34457725286483765,0
21,0.09997439384460449,-0.3514034152030945,-22.795862197875977,-0.09756157547235489,14.179414749145508,0.11748272180557251,2.1453890800476074,-0.33725303411483765,0.0,0.0,0.0,0.0,0.0,0.0,0.0,-0.3650311029913034,0.015270773493739792,-0.2139821782622494,0.280054456430311,-0.11506186503969384,-0.03798236374231675,-0.3674741170987779,1.6756017043757856,0.052127417405517754,0.030034522812097977,-2.7523882114394427,0.03425224476059278,2.766372722678714,0.7691755107177627,1.6754973547542302,0.052104326824870026,0.029969505109285054,-2.752394845125968,0.0342448039870148,2.7663679543071322,0.7691630533470046,-4.2581325489252085e-05,-0.0002053082013877936,-0.00014009721099484055,-0.0009407700865985164,4.909352644677491e-05,0.00020001338519438864,-0.0008382931323929504,0.0,0.0,0.0,0.0,0.0,0.0,0.0,-0.00010434962155536631,-2.3090580647727732e-05,-6.501770281292299e-05,-6.6336865254257305e-06,-7.4407735779769e-06,-4.768371581587161e-06,-1.245737075805664e-05,4.2581325489252085e-05,0.0002053082013877936,0.00014009721099484055,0.0009407700865985164,-4.909352644677491e-05,-0.00020001338519438864,0.0008382931323929504,0.3514034152030945,22.795862197875977,0.09756157547235489,-14.179414749145508,-0.11748272180557251,-2.1453890800476074,0.33725303411483765,0
22,0.10520100593566895,-0.3514034152030945,-22.795862197875977,-0.09756157547235489,14.179414749145508,0.11748272180557251,2.1453890800476074,-0.33725303411483765,0.0,0.0,0.0,0.0,0.0,0.0,0.0,-0.3650311029913034,0.015270773493739792,-0.2139821782622494,0.280054456430311,-0.11506186503969384,-0.03798236374231675,-0.3674741170987779,1.6756017043757856,0.052127417405517754,0.030034522812097977,-2.7523882114394427,0.03425224476059278,2.766372722678714,0.7691755107177627,1.6754973547542302,0.052104326824870026,0.029969505109285054,-2.752394845125968,0.0342448039870148,2.7663679543071322,0.7691630533470046,-4.2581325489252085e-05,-0.0002053082013877936,-0.00014009721099484055,-0.0009407700865985164,4.909352644677491e-05,0.00020001338519438864,-0.0008382931323929504,0.0,0.0,0.0,0.0,0.0,0.0,0.0,-0.00010434962155536631,-2.3090580647727732e-05,-6.501770281292299e-05,-6.6336865254257305e-06,-7.4407735779769e-06,-4.768371581587161e-06,-1.245737075805664e-05,4.2581325489252085e-05,0.0002053082013877936,0.00014009721099484055,0.0009407700865985164,-4.909352644677491e-05,-0.00020001338519438864,0.0008382931323929504,0.3514034152030945,22.795862197875977,0.09756157547235489,-14.179414749145508,-0.11748272180557251,-2.1453890800476074,0.33725303411483765,0
23,0.10997509956359863,-0.3752071261405945,-22.819665908813477,-0.1491362750530243,14.155611038208008,0.1293845772743225,2.1517977714538574,-0.35098594427108765,0.0,0.0,0.0,0.0,0.0,0.0,0.0,-0.36661440948591606,0.016024211108051713,-0.21476908121193347,0.2769169076018659,-0.11421951390632507,-0.03763668242591374,-0.3670635610275379,1.675603374811641,0.052127853838297426,0.030041009538955304,-2.7523864559713775,0.03425092233220736,2.766372010601891,0.76918023295366,1.6754973547542302,0.052104326824870026,0.029969505109285054,-2.752394845125968,0.0342448039870148,2.7663679543071322,0.7691630533470046,0.00047688421829382026,0.0008952168368323892,0.0005252121845427739,1.9704123362318688e-05,-0.0003817316776681658,-2.2063068758085423e-05,-0.0005857080041236653,0.0,0.0,0.0,0.0,0.0,0.0,0.0,-0.0001060200574107828,-2.3527013427400434e-05,-7.150442967025078e-05,-8.38915459056011e-06,-6.118345192561436e-06,-4.05629475874747e-06,-1.7179606655370883e-05,-0.00047688421829382026,-0.0008952168368323892,-0.0005252121845427739,-1.9704123362318688e-05,0.0003817316776681658,2.2063068758085423e-05,0.0005857080041236653,0.3752071261405945,22.819665908813477,0.1491362750530243,-14.155611038208008,-0.1293845772743225,-2.1517977714538574,0.35098594427108765,0
24,0.11498546600341797,-0.3752071261405945,-22.819665908813477,-0.1491362750530243,14.155611038208008,0.1293845772743225,2.1517977714538574,-0.35098594427108765,0.0,0.0,0.0,0.0,0.0,0.0,0.0,-0.36661440948591606,0.016024211108051713,-0.21476908121193347,0.2769169076018659,-0.11421951390632507,-0.03763668242591374,-0.3670635610275379,1.675603374811641,0.052127853838297426,0.030041009538955304,-2.7523864559713775,0.03425092233220736,2.766372010601891,0.76918023295366,1.6754973547542302,0.052104326824870026,0.029969505109285054,-2.752394845125968,0.0342448039870148,2.7663679543071322,0.7691630533470046,0.00047688421829382026,0.0008952168368323892,0.0005252121845427739,1.9704123362318688e-05,-0.0003817316776681658,-2.2063068758085423e-05,-0.0005857080041236653,0.0,0.0,0.0,0.0,0.0,0.0,0.0,-0.0001060200574107828,-2.3527013427400434e-05,-7.150442967025078e-05,-8.38915459056011e-06,-6.118345192561436e-06,-4.05629475874747e-06,-1.7179606655370883e-05,-0.00047688421829382026,-0.0008952168368323892,-0.0005252121845427739,-1.9704123362318688e-05,0.0003817316776681658,2.2063068758085423e-05,0.0005857080041236653,0.3752071261405945,22.819665908813477,0.1491362750530243,-14.155611038208008,-0.1293845772743225,-2.1517977714538574,0.35098594427108765,0
25,0.11997842788696289,-0.4029781222343445,-22.819665908813477,-0.1253325641155243,14.155611038208008,0.11748272180557251,2.1453890800476074,-0.35831016302108765,0.0,0.0,0.0,0.0,0.0,0.0,0.0,-0.3686397359816796,0.012908036932168729,-0.21629656082809728,0.279402481481464,-0.11359392344552775,-0.036700938759387125,-0.3664487725350361,1.675605323653472,0.0521293606651713,0.030036480426560395,-2.752386455970898,0.03425224476059278,2.766372722678714,0.7691782036295056,1.6754973547542302,0.052104326824870026,0.029969505109285054,-2.752394845125968,0.0342448039870148,2.7663679543071322,0.7691630533470046,0.00047204566161555356,0.0008719564488754424,-0.0005093971974197153,0.00010218127606875244,0.00014312392158121734,8.9042441905746e-05,-0.0008749530410316448,0.0,0.0,0.0,0.0,0.0,0.0,0.0,-0.00010796889924180597,-2.5033840301273702e-05,-6.697531727534178e-05,-8.389155070176457e-06,-7.4407735779769e-06,-4.768371581587161e-06,-1.5150282500986378e-05,-0.00047204566161555356,-0.0008719564488754424,0.0005093971974197153,-0.00010218127606875244,-0.00014312392158121734,-8.9042441905746e-05,0.0008749530410316448,0.4029781222343445,22.819665908813477,0.1253325641155243,-14.155611038208008,-0.11748272180557251,-2.1453890800476074,0.35831016302108765,0
26,0.12590503692626953,-0.4029781222343445,-22.819665908813477,-0.1253325641155243,14.155611038208008,0.11748272180557251,2.1453890800476074,-0.35831016302108765,0.0,0.0,0.0,0.0,0.0,0.0,0.0,-0.3686397359816796,0.012908036932168729,-0.21629656082809728,0.279402481481464,-0.11359392344552775,-0.036700938759387125,-0.3664487725350361,1.675605323653472,0.0521293606651713,0.030036480426560395,-2.752386455970898,0.03425224476059278,2.766372722678714,0.7691782036295056,1.6754973547542302,0.052104326824870026,0.029969505109285054,-2.752394845125968,0.0342448039870148,2.7663679543071322,0.7691630533470046,0.00047204566161555356,0.0008719564488754424,-0.0005093971974197153,0.00010218127606875244,0.00014312392158121734,8.9042441905746e-05,-0.0008749530410316448,0.0,0.0,0.0,0.0,0.0,0.0,0.0,-0.00010796889924180597,-2.5033840301273702e-05,-6.697531727534178e-05,-8.389155070176457e-06,-7.4407735779769e-06,-4.768371581587161e-06,-1.5150282500986378e-05,-0.00047204566161555356,-0.0008719564488754424,0.0005093971974197153,-0.00010218127606875244,-0.00014312392158121734,-8.9042441905746e-05,0.0008749530410316448,0.4029781222343445,22.819665908813477,0.1253325641155243,-14.155611038208008,-0.11748272180557251,-2.1453890800476074,0.35831016302108765,0
27,0.1299755573272705,-0.4267818331718445,-22.748254776000977,-0.1253325641155243,14.108003616333008,0.11748272180557251,2.1453890800476074,-0.37845176458358765,0.0,0.0,0.0,0.0,0.0,0.0,0.0,-0.36822550081344774,0.020073565437035413,-0.21318762875350916,0.27495827399025485,-0.1133775075865854,-0.037723016910917485,-0.3664233437073305,1.6756069940893275,0.05212281272359848,0.0300364717496862,-2.7523831916286077,0.03425224476059278,2.766372722678714,0.7691804415691853,1.6754973547542302,0.052104326824870026,0.029969505109285054,-2.752394845125968,0.0342448039870148,2.7663679543071322,0.7691630533470046,0.000989935762322391,-0.00036632300421256107,-0.00019944234126328855,0.0008874058461426635,0.0001304764927638621,5.6465028399389864e-05,0.00016526334756197363,0.0,0.0,0.0,0.0,0.0,0.0,0.0,-0.00010963933509722246,-1.848589872845141e-05,-6.696664040114694e-05,-1.1653497360430976e-05,-7.4407735779769e-06,-4.768371581587161e-06,-1.738822218066982e-05,-0.000989935762322391,0.00036632300421256107,0.00019944234126328855,-0.0008874058461426635,-0.0001304764927638621,-5.6465028399389864e-05,-0.00016526334756197363,0.4267818331718445,22.748254776000977,0.1253325641155243,-14.108003616333008,-0.11748272180557251,-2.1453890800476074,0.37845176458358765,0
28,0.13497471809387207,-0.4267818331718445,-22.748254776000977,-0.1253325641155243,14.108003616333008,0.11748272180557251,2.1453890800476074,-0.37845176458358765,0.0,0.0,0.0,0.0,0.0,0.0,0.0,-0.36822550081344774,0.020073565437035413,-0.21318762875350916,0.27495827399025485,-0.1133775075865854,-0.037723016910917485,-0.3664233437073305,1.6756069940893275,0.05212281272359848,0.0300364717496862,-2.7523831916286077,0.03425224476059278,2.766372722678714,0.7691804415691853,1.6754973547542302,0.052104326824870026,0.029969505109285054,-2.752394845125968,0.0342448039870148,2.7663679543071322,0.7691630533470046,0.000989935762322391,-0.00036632300421256107,-0.00019944234126328855,0.0008874058461426635,0.0001304764927638621,5.6465028399389864e-05,0.00016526334756197363,0.0,0.0,0.0,0.0,0.0,0.0,0.0,-0.00010963933509722246,-1.848589872845141e-05,-6.696664040114694e-05,-1.1653497360430976e-05,-7.4407735779769e-06,-4.768371581587161e-06,-1.738822218066982e-05,-0.000989935762322391,0.00036632300421256107,0.00019944234126328855,-0.0008874058461426635,-0.0001304764927638621,-5.6465028399389864e-05,-0.00016526334756197363,0.4267818331718445,22.748254776000977,0.1253325641155243,-14.108003616333008,-0.11748272180557251,-2.1453890800476074,0.37845176458358765,0
29,0.13998031616210938,-0.3514034152030945,-22.748254776000977,-0.1253325641155243,14.131807327270508,0.11748272180557251,2.1582064628601074,-0.39950889348983765,0.0,0.0,0.0,0.0,0.0,0.0,0.0,-0.371864114252745,0.016161125746586343,-0.21571648231399673,0.2801434912078488,-0.11287097618423086,-0.03699353290533492,-0.36709970277911264,1.6756017043757856,0.052122655813890646,0.03003647164137801,-2.7523868519348054,0.03425224476059278,2.766371298525068,0.7691834881601111,1.6754973547542302,0.052104326824870026,0.029969505109285054,-2.752394845125968,0.0342448039870148,2.7663679543071322,0.7691630533470046,-0.0008877220666641715,-0.00037961094480258264,-0.0004395779177472402,0.0006181423031857139,0.00012121496012982103,-0.00019247744898695556,0.0006678522534273245,0.0,0.0,0.0,0.0,0.0,0.0,0.0,-0.00010434962155536631,-1.8328989020620357e-05,-6.696653209295467e-05,-7.993191162736224e-06,-7.4407735779769e-06,-3.3442179359077784e-06,-2.043481310642914e-05,0.0008877220666641715,0.00037961094480258264,0.0004395779177472402,-0.0006181423031857139,-0.00012121496012982103,0.00019247744898695556,-0.0006678522534273245,0.3514034152030945,22.748254776000977,0.1253325641155243,-14.131807327270508,-0.11748272180557251,-2.1582064628601074,0.39950889348983765,0
30,0.14498066902160645,-0.3514034152030945,-22.748254776000977,-0.1253325641155243,14.131807327270508,0.11748272180557251,2.1582064628601074,-0.39950889348983765,0.0,0.0,0.0,0.0,0.0,0.0,0.0,-0.371864114252745,0.016161125746586343,-0.21571648231399673,0.2801434912078488,-0.11287097618423086,-0.03699353290533492,-0.36709970277911264,1.6756017043757856,0.052122655813890646,0.03003647164137801,-2.7523868519348054,0.03425224476059278,2.766371298525068,0.7691834881601111,1.6754973547542302,0.052104326824870026,0.029969505109285054,-2.752394845125968,0.0342448039870148,2.7663679543071322,0.7691630533470046,-0.0008877220666641715,-0.00037961094480258264,-0.0004395779177472402,0.0006181423031857139,0.00012121496012982103,-0.00019247744898695556,0.0006678522534273245,0.0,0.0,0.0,0.0,0.0,0.0,0.0,-0.00010434962155536631,-1.8328989020620357e-05,-6.696653209295467e-05,-7.993191162736224e-06,-7.4407735779769e-06,-3.3442179359077784e-06,-2.043481310642914e-05,0.0008877220666641715,0.00037961094480258264,0.0004395779177472402,-0.0006181423031857139,-0.00012121496012982103,0.00019247744898695556,-0.0006678522534273245,0.3514034152030945,22.748254776000977,0.1253325641155243,-14.131807327270508,-0.11748272180557251,-2.1582064628601074,0.39950889348983765,0
31,0.1499769687652588,-0.3752071261405945,-22.772058486938477,-0.1253325641155243,14.131807327270508,0.12389141321182251,2.1453890800476074,-0.39218467473983765,0.0,0.0,0.0,0.0,0.0,0.0,0.0,-0.3738621871688977,0.018518028673322272,-0.21716475129522514,0.27773311601643375,-0.1123012407587417,-0.0369441922113517,-0.36965166708975317,1.675603374811641,0.05212640420534544,0.03003655164493435,-2.752384786491515,0.03425153273785741,2.766372722678714,0.7691816186000229,1.6754973547542302,0.052104326824870026,0.029969505109285054,-2.752394845125968,0.0342448039870148,2.7663679543071322,0.7691630533470046,-0.0002490738090116983,-0.00011971342289072977,-0.0001790780423990366,0.0004236826955661897,-2.1669954484111532e-05,0.00010790635448946666,0.0013689521239608937,0.0,0.0,0.0,0.0,0.0,0.0,0.0,-0.0001060200574107828,-2.2077380475417352e-05,-6.704653564929691e-05,-1.0058634452914106e-05,-6.728750842607822e-06,-4.768371581587161e-06,-1.856525301824341e-05,0.0002490738090116983,0.00011971342289072977,0.0001790780423990366,-0.0004236826955661897,2.1669954484111532e-05,-0.00010790635448946666,-0.0013689521239608937,0.3752071261405945,22.772058486938477,0.1253325641155243,-14.131807327270508,-0.12389141321182251,-2.1453890800476074,0.39218467473983765,0
32,0.15497827529907227,-0.3752071261405945,-22.772058486938477,-0.1253325641155243,14.131807327270508,0.12389141321182251,2.1453890800476074,-0.39218467473983765,0.0,0.0,0.0,0.0,0.0,0.0,0.0,-0.3738621871688977,0.018518028673322272,-0.21716475129522514,0.27773311601643375,-0.1123012407587417,-0.0369441922113517,-0.36965166708975317,1.675603374811641,0.05212640420534544,0.03003655164493435,-2.752384786491515,0.03425153273785741,2.766372722678714,0.7691816186000229,1.6754973547542302,0.052104326824870026,0.029969505109285054,-2.752394845125968,0.0342448039870148,2.7663679543071322,0.7691630533470046,-0.0002490738090116983,-0.00011971342289072977,-0.0001790780423990366,0.0004236826955661897,-2.1669954484111532e-05,0.00010790635448946666,0.0013689521239608937,0.0,0.0,0.0,0.0,0.0,0.0,0.0,-0.0001060200574107828,-2.2077380475417352e-05,-6.704653564929691e-05,-1.0058634452914106e-05,-6.728750842607822e-06,-4.768371581587161e-06,-1.856525301824341e-05,0.0002490738090116983,0.00011971342289072977,0.0001790780423990366,-0.0004236826955661897,2.1669954484111532e-05,-0.00010790635448946666,-0.0013689521239608937,0.3752071261405945,22.772058486938477,0.1253325641155243,-14.131807327270508,-0.12389141321182251,-2.1453890800476074,0.39218467473983765,0
33,0.15997695922851562,-0.3752071261405945,-22.795862197875977,-0.1491362750530243,14.155611038208008,0.1293845772743225,2.1453890800476074,-0.37204307317733765,0.0,0.0,0.0,0.0,0.0,0.0,0.0,-0.37694521255971003,0.0183561196630967,-0.2191845562945412,0.2786686136496332,-0.11174777119446994,-0.03672953507405704,-0.370472209708438,1.675603374811641,0.05212594639989799,0.030038142081297264,-2.75238714473573,0.03425092233221011,2.766372722678714,0.7691793893598325,1.6754973547542302,0.052104326824870026,0.029969505109285054,-2.752394845125968,0.0342448039870148,2.7663679543071322,0.7691630533470046,5.74185708194411e-06,0.00029697545657117675,0.00021302545399795215,1.4245902689116972e-05,0.008972409376910486,0.0002132499584618634,-0.00038928188523941677,0.0,0.0,0.0,0.0,0.0,0.0,0.0,-0.0001060200574107828,-2.1619575027963245e-05,-6.86369720122107e-05,-7.700390237896926e-06,-6.118345195309238e-06,-4.768371581587161e-06,-1.6336012827911084e-05,-5.74185708194411e-06,-0.00029697545657117675,-0.00021302545399795215,-1.4245902689116972e-05,-0.008972409376910486,-0.0002132499584618634,0.00038928188523941677,0.3752071261405945,22.795862197875977,0.1491362750530243,-14.155611038208008,-0.1293845772743225,-2.1453890800476074,0.37204307317733765,0
34,0.16500520706176758,-0.3752071261405945,-22.795862197875977,-0.1491362750530243,14.155611038208008,0.1293845772743225,2.1453890800476074,-0.37204307317733765,0.0,0.0,0.0,0.0,0.0,0.0,0.0,-0.37694521255971003,0.0183561196630967,-0.2191845562945412,0.2786686136496332,-0.11174777119446994,-0.03672953507405704,-0.370472209708438,1.675603374811641,0.05212594639989799,0.030038142081297264,-2.75238714473573,0.03425092233221011,2.766372722678714,0.7691793893598325,1.6754973547542302,0.052104326824870026,0.029969505109285054,-2.752394845125968,0.0342448039870148,2.7663679543071322,0.7691630533470046,5.74185708194411e-06,0.00029697545657117675,0.00021302545399795215,1.4245902689116972e-05,0.008972409376910486,0.0002132499584618634,-0.00038928188523941677,0.0,0.0,0.0,0.0,0.0,0.0,0.0,-0.0001060200574107828,-2.1619575027963245e-05,-6.86369720122107e-05,-7.700390237896926e-06,-6.118345195309238e-06,-4.768371581587161e-06,-1.6336012827911084e-05,-5.74185708194411e-06,-0.00029697545657117675,-0.00021302545399795215,-1.4245902689116972e-05,-0.008972409376910486,-0.0002132499584618634,0.00038928188523941677,0.3752071261405945,22.795862197875977,0.1491362750530243,-14.155611038208008,-0.1293845772743225,-2.1453890800476074,0.37204307317733765,0
35,0.16997361183166504,-0.4029781222343445,-22.795862197875977,-0.1253325641155243,14.131807327270508,0.11748272180557251,2.1453890800476074,-0.38577598333358765,0.0,0.0,0.0,0.0,0.0,0.0,0.0,-0.3688059210035039,0.008154707079661235,-0.21234320029414547,0.28103856790528686,-0.11257717266824487,-0.036405443364134704,-0.3711495012857411,1.675605323653472,0.05212552555679587,0.03003678746958238,-2.752385015158441,0.03425224476059278,2.766372722678714,0.7691810203786542,1.6754973547542302,0.052104326824870026,0.029969505109285054,-2.752394845125968,0.0342448039870148,2.7663679543071322,0.7691630533470046,0.0014637263092084718,-0.0008924130720021154,0.0005019325918938346,0.0008761697948434235,0.0003826151008650599,0.00025618236874933704,0.0004928579500400488,0.0,0.0,0.0,0.0,0.0,0.0,0.0,-0.00010796889924180597,-2.119873192584637e-05,-6.728236029732507e-05,-9.829967527075212e-06,-7.4407735779769e-06,-4.768371581587161e-06,-1.7967031649579468e-05,-0.0014637263092084718,0.0008924130720021154,-0.0005019325918938346,-0.0008761697948434235,-0.0003826151008650599,-0.00025618236874933704,-0.0004928579500400488,0.4029781222343445,22.795862197875977,0.1253325641155243,-14.131807327270508,-0.11748272180557251,-2.1453890800476074,0.38577598333358765,0
36,0.174973726272583,-0.4029781222343445,-22.795862197875977,-0.1253325641155243,14.131807327270508,0.11748272180557251,2.1453890800476074,-0.38577598333358765,0.0,0.0,0.0,0.0,0.0,0.0,0.0,-0.3688059210035039,0.008154707079661235,-0.21234320029414547,0.28103856790528686,-0.11257717266824487,-0.036405443364134704,-0.3711495012857411,1.675605323653472,0.05212552555679587,0.03003678746958238,-2.752385015158441,0.03425224476059278,2.766372722678714,0.7691810203786542,1.6754973547542302,0.052104326824870026,0.029969505109285054,-2.752394845125968,0.0342448039870148,2.7663679543071322,0.7691630533470046,0.0014637263092084718,-0.0008924130720021154,0.0005019325918938346,0.0008761697948434235,0.0003826151008650599,0.00025618236874933704,0.0004928579500400488,0.0,0.0,0.0,0.0,0.0,0.0,0.0,-0.00010796889924180597,-2.119873192584637e-05,-6.728236029732507e-05,-9.829967527075212e-06,-7.4407735779769e-06,-4.768371581587161e-06,-1.7967031649579468e-05,-0.0014637263092084718,0.0008924130720021154,-0.0005019325918938346,-0.0008761697948434235,-0.0003826151008650599,-0.00025618236874933704,-0.0004928579500400488,0.4029781222343445,22.795862197875977,0.1253325641155243,-14.131807327270508,-0.11748272180557251,-2.1453890800476074,0.38577598333358765,0
37,0.17998433113098145,-0.4029781222343445,-22.795862197875977,-0.1253325641155243,14.131807327270508,0.11748272180557251,2.1453890800476074,-0.38577598333358765,0.0,0.0,0.0,0.0,0.0,0.0,0.0,-0.3688059210035039,0.008154707079661235,-0.21234320029414547,0.28103856790528686,-0.11257717266824487,-0.036405443364134704,-0.3711495012857411,1.675605323653472,0.05212552555679587,0.03003678746958238,-2.752385015158441,0.03425224476059278,2.766372722678714,0.7691810203786542,1.6754973547542302,0.052104326824870026,0.029969505109285054,-2.752394845125968,0.0342448039870148,2.7663679543071322,0.7691630533470046,0.0014637263092084718,-0.0008924130720021154,0.0005019325918938346,0.0008761697948434235,0.0003826151008650599,0.00025618236874933704,0.0004928579500400488,0.0,0.0,0.0,0.0,0.0,0.0,0.0,-0.00010796889924180597,-2.119873192584637e-05,-6.728236029732507e-05,-9.829967527075212e-06,-7.4407735779769e-06,-4.768371581587161e-06,-1.7967031649579468e-05,-0.0014637263092084718,0.0008924130720021154,-0.0005019325918938346,-0.0008761697948434235,-0.0003826151008650599,-0.00025618236874933704,-0.0004928579500400488,0.4029781222343445,22.795862197875977,0.1253325641155243,-14.131807327270508,-0.11748272180557251,-2.1453890800476074,0.38577598333358765,0
38,0.18517041206359863,-0.3514034152030945,-22.795862197875977,-0.07375786453485489,14.179414749145508,0.11748272180557251,2.1453890800476074,-0.33084434270858765,0.0,0.0,0.0,0.0,0.0,0.0,0.0,-0.37054433896413497,0.01596701364962198,-0.21386286475022193,0.27604107251860316,-0.11194459747457026,-0.03740476357967326,-0.37144957877708484,1.6756017046907214,0.05212547425532044,0.0300328523659967,-2.752388126408049,0.03425224476059278,2.766372722678714,0.7691749207398278,1.6754973547542302,0.052104326824870026,0.029969505109285054,-2.752394845125968,0.0342448039870148,2.7663679543071322,0.7691630533470046,-0.00032513557868019415,0.0004598078885250084,-0.0007155628900711549,-0.000638074793176319,-0.00011536258578263706,0.00026029855214878455,-0.001580149065290969,0.0,0.0,0.0,0.0,0.0,0.0,0.0,-0.00010434993649122148,-2.1147430450417504e-05,-6.334725671164679e-05,-6.718717918907657e-06,-7.4407735779769e-06,-4.768371581587161e-06,-1.1867392823217138e-05,0.00032513557868019415,-0.0004598078885250084,0.0007155628900711549,0.000638074793176319,0.00011536258578263706,-0.00026029855214878455,0.001580149065290969,0.3514034152030945,22.795862197875977,0.07375786453485489,-14.179414749145508,-0.11748272180557251,-2.1453890800476074,0.33084434270858765,0
39,0.18998217582702637,-0.3514034152030945,-22.795862197875977,-0.07375786453485489,14.179414749145508,0.11748272180557251,2.1453890800476074,-0.33084434270858765,0.0,0.0,0.0,0.0,0.0,0.0,0.0,-0.37054433896413497,0.01596701364962198,-0.21386286475022193,0.27604107251860316,-0.11194459747457026,-0.03740476357967326,-0.37144957877708484,1.6756017046907214,0.05212547425532044,0.0300328523659967,-2.752388126408049,0.03425224476059278,2.766372722678714,0.7691749207398278,1.6754973547542302,0.052104326824870026,0.029969505109285054,-2.752394845125968,0.0342448039870148,2.7663679543071322,0.7691630533470046,-0.00032513557868019415,0.0004598078885250084,-0.0007155628900711549,-0.000638074793176319,-0.00011536258578263706,0.00026029855214878455,-0.001580149065290969,0.0,0.0,0.0,0.0,0.0,0.0,0.0,-0.00010434993649122148,-2.1147430450417504e-05,-6.334725671164679e-05,-6.718717918907657e-06,-7.4407735779769e-06,-4.768371581587161e-06,-1.1867392823217138e-05,0.00032513557868019415,-0.0004598078885250084,0.0007155628900711549,0.000638074793176319,0.00011536258578263706,-0.00026029855214878455,0.001580149065290969,0.3514034152030945,22.795862197875977,0.07375786453485489,-14.179414749145508,-0.11748272180557251,-2.1453890800476074,0.33084434270858765,0
40,0.19492244720458984,-0.3752071261405945,-22.772058486938477,-0.1491362750530243,14.155611038208008,0.11198955774307251,2.1517977714538574,-0.34457725286483765,0.0,0.0,0.0,0.0,0.0,0.0,0.0,-0.37755382351712513,0.01475028563153747,-0.2193455132748607,0.2796719079250579,-0.1117749776909839,-0.03668248954573779,-0.37010395657910766,1.6756033748116428,0.05212574733025428,0.030038852365916247,-2.752386455970898,0.03425285657251904,2.766372010601891,0.7691763250050521,1.6754973547542302,0.052104326824870026,0.029969505109285054,-2.752394845125968,0.0342448039870148,2.7663679543071322,0.7691630533470046,-0.0004300030732254565,0.0002882527753383928,3.1498499210924425e-05,-3.807347963701587e-05,0.0002729413052899446,-7.862493627344873e-05,-0.0008109203084193335,0.0,0.0,0.0,0.0,0.0,0.0,0.0,-0.00010602005741255915,-2.142050538425644e-05,-6.934725663119284e-05,-8.389155070176457e-06,-8.05258550423682e-06,-4.05629475874747e-06,-1.3271658047431245e-05,0.0004300030732254565,-0.0002882527753383928,-3.1498499210924425e-05,3.807347963701587e-05,-0.0002729413052899446,7.862493627344873e-05,0.0008109203084193335,0.3752071261405945,22.772058486938477,0.1491362750530243,-14.155611038208008,-0.11198955774307251,-2.1517977714538574,0.34457725286483765,0
41,0.19997596740722656,-0.3752071261405945,-22.772058486938477,-0.1491362750530243,14.155611038208008,0.11198955774307251,2.1517977714538574,-0.34457725286483765,0.0,0.0,0.0,0.0,0.0,0.0,0.0,-0.37755382351712513,0.01475028563153747,-0.2193455132748607,0.2796719079250579,-0.1117749776909839,-0.03668248954573779,-0.37010395657910766,1.6756033748116428,0.05212574733025428,0.030038852365916247,-2.752386455970898,0.03425285657251904,2.766372010601891,0.7691763250050521,1.6754973547542302,0.052104326824870026,0.029969505109285054,-2.752394845125968,0.0342448039870148,2.7663679543071322,0.7691630533470046,-0.0004300030732254565,0.0002882527753383928,3.1498499210924425e-05,-3.807347963701587e-05,0.0002729413052899446,-7.862493627344873e-05,-0.0008109203084193335,0.0,0.0,0.0,0.0,0.0,0.0,0.0,-0.00010602005741255915,-2.142050538425644e-05,-6.934725663119284e-05,-8.389155070176457e-06,-8.05258550423682e-06,-4.05629475874747e-06,-1.3271658047431245e-05,0.0004300030732254565,-0.0002882527753383928,-3.1498499210924425e-05,3.807347963701587e-05,-0.0002729413052899446,7.862493627344873e-05,0.0008109203084193335,0.3752071261405945,22.772058486938477,0.1491362750530243,-14.155611038208008,-0.11198955774307251,-2.1517977714538574,0.34457725286483765,0
42,0.2049853801727295,-0.3752071261405945,-22.772058486938477,-0.1491362750530243,14.155611038208008,0.11198955774307251,2.1517977714538574,-0.34457725286483765,0.0,0.0,0.0,0.0,0.0,0.0,0.0,-0.37755382351712513,0.01475028563153747,-0.2193455132748607,0.2796719079250579,-0.1117749776909839,-0.03668248954573779,-0.37010395657910766,1.6756033748116428,0.05212574733025428,0.030038852365916247,-2.752386455970898,0.03425285657251904,2.766372010601891,0.7691763250050521,1.6754973547542302,0.052104326824870026,0.029969505109285054,-2.752394845125968,0.0342448039870148,2.7663679543071322,0.7691630533470046,-0.0004300030732254565,0.0002882527753383928,3.1498499210924425e-05,-3.807347963701587e-05,0.0002729413052899446,-7.862493627344873e-05,-0.0008109203084193335,0.0,0.0,0.0,0.0,0.0,0.0,0.0,-0.00010602005741255915,-2.142050538425644e-05,-6.934725663119284e-05,-8.389155070176457e-06,-8.05258550423682e-06,-4.05629475874747e-06,-1.3271658047431245e-05,0.0004300030732254565,-0.0002882527753383928,-3.1498499210924425e-05,3.807347963701587e-05,-0.0002729413052899446,7.862493627344873e-05,0.0008109203084193335,0.3752071261405945,22.772058486938477,0.1491362750530243,-14.155611038208008,-0.11198955774307251,-2.1517977714538574,0.34457725286483765,0
43,0.20998382568359375,-0.3752071261405945,-22.772058486938477,-0.1491362750530243,14.155611038208008,0.11198955774307251,2.1517977714538574,-0.34457725286483765,0.0,0.0,0.0,0.0,0.0,0.0,0.0,-0.37755382351712513,0.01475028563153747,-0.2193455132748607,0.2796719079250579,-0.1117749776909839,-0.03668248954573779,-0.37010395657910766,1.6756033748116428,0.05212574733025428,0.030038852365916247,-2.752386455970898,0.03425285657251904,2.766372010601891,0.7691763250050521,1.6754973547542302,0.052104326824870026,0.029969505109285054,-2.752394845125968,0.0342448039870148,2.7663679543071322,0.7691630533470046,-0.0004300030732254565,0.0002882527753383928,3.1498499210924425e-05,-3.807347963701587e-05,0.0002729413052899446,-7.862493627344873e-05,-0.0008109203084193335,0.0,0.0,0.0,0.0,0.0,0.0,0.0,-0.00010602005741255915,-2.142050538425644e-05,-6.934725663119284e-05,-8.389155070176457e-06,-8.05258550423682e-06,-4.05629475874747e-06,-1.3271658047431245e-05,0.0004300030732254565,-0.0002882527753383928,-3.1498499210924425e-05,3.807347963701587e-05,-0.0002729413052899446,7.862493627344873e-05,0.0008109203084193335,0.3752071261405945,22.772058486938477,0.1491362750530243,-14.155611038208008,-0.11198955774307251,-2.1517977714538574,0.34457725286483765,0
44,0.2150111198425293,-0.3752071261405945,-22.772058486938477,-0.1253325641155243,14.131807327270508,0.12389141321182251,2.1453890800476074,-0.38577598333358765,0.0,0.0,0.0,0.0,0.0,0.0,0.0,-0.37152799198833036,0.02074592093803322,-0.21480761319504446,0.27956258680751656,-0.11277557025524304,-0.036755352898139436,-0.36804079895801156,1.675603374811641,0.05212427293620829,0.03003648042240229,-2.752384785535043,0.03425153268379459,2.766372722678714,0.769180902156573,1.6754973547542302,0.052104326824870026,0.029969505109285054,-2.752394845125968,0.0342448039870148,2.7663679543071322,0.7691630533470046,-1.1379649425268696e-05,0.0005846681900141217,-0.0006680354712204692,0.0008103281656850397,-3.0391868555983203e-05,0.00020946548053833378,0.0007865175608262747,0.0,0.0,0.0,0.0,0.0,0.0,0.0,-0.0001060200574107828,-1.994611133826485e-05,-6.697531311723737e-05,-1.0059590925148854e-05,-6.728696779791099e-06,-4.768371581587161e-06,-1.7848809568343782e-05,1.1379649425268696e-05,-0.0005846681900141217,0.0006680354712204692,-0.0008103281656850397,3.0391868555983203e-05,-0.00020946548053833378,-0.0007865175608262747,0.3752071261405945,22.772058486938477,0.1253325641155243,-14.131807327270508,-0.12389141321182251,-2.1453890800476074,0.38577598333358765,0
45,0.2199878692626953,-0.3752071261405945,-22.772058486938477,-0.1253325641155243,14.131807327270508,0.12389141321182251,2.1453890800476074,-0.38577598333358765,0.0,0.0,0.0,0.0,0.0,0.0,0.0,-0.37152799198833036,0.02074592093803322,-0.21480761319504446,0.27956258680751656,-0.11277557025524304,-0.036755352898139436,-0.36804079895801156,1.675603374811641,0.05212427293620829,0.03003648042240229,-2.752384785535043,0.03425153268379459,2.766372722678714,0.769180902156573,1.6754973547542302,0.052104326824870026,0.029969505109285054,-2.752394845125968,0.0342448039870148,2.7663679543071322,0.7691630533470046,-1.1379649425268696e-05,0.0005846681900141217,-0.0006680354712204692,0.0008103281656850397,-3.0391868555983203e-05,0.00020946548053833378,0.0007865175608262747,0.0,0.0,0.0,0.0,0.0,0.0,0.0,-0.0001060200574107828,-1.994611133826485e-05,-6.697531311723737e-05,-1.0059590925148854e-05,-6.728696779791099e-06,-4.768371581587161e-06,-1.7848809568343782e-05,1.1379649425268696e-05,-0.0005846681900141217,0.0006680354712204692,-0.0008103281656850397,3.0391868555983203e-05,-0.00020946548053833378,-0.0007865175608262747,0.3752071261405945,22.772058486938477,0.1253325641155243,-14.131807327270508,-0.12389141321182251,-2.1453890800476074,0.38577598333358765,0
46,0.2249891757965088,-0.4029781222343445,-22.772058486938477,-0.1253325641155243,14.179414749145508,0.11748272180557251,2.1517977714538574,-0.33084434270858765,0.0,0.0,0.0,0.0,0.0,0.0,0.0,-0.36785529342599343,0.01615131804166616,-0.21419542417672396,0.28452017024918386,-0.11245616469754617,-0.03569326824859454,-0.36654201586043433,1.675605323653472,0.05212600725791834,0.030036711435546353,-2.7523881264067533,0.03425224476059278,2.766372010601891,0.7691747986409398,1.6754973547542302,0.052104326824870026,0.029969505109285054,-2.752394845125968,0.0342448039870148,2.7663679543071322,0.7691630533470046,0.0011632383591441155,-0.00032880078350335684,9.81300400210146e-05,-0.0007302863482155841,4.607055467128121e-05,-0.00019154261720442313,-0.0015154770126088028,0.0,0.0,0.0,0.0,0.0,0.0,0.0,-0.00010796889924180597,-2.1680433048315573e-05,-6.720632626129944e-05,-6.718719214759972e-06,-7.4407735779769e-06,-4.05629475874747e-06,-1.174529393521695e-05,-0.0011632383591441155,0.00032880078350335684,-9.81300400210146e-05,0.0007302863482155841,-4.607055467128121e-05,0.00019154261720442313,0.0015154770126088028,0.4029781222343445,22.772058486938477,0.1253325641155243,-14.179414749145508,-0.11748272180557251,-2.1517977714538574,0.33084434270858765,0
47,0.2299809455871582,-0.4029781222343445,-22.772058486938477,-0.1253325641155243,14.179414749145508,0.11748272180557251,2.1517977714538574,-0.33084434270858765,0.0,0.0,0.0,0.0,0.0,0.0,0.0,-0.36785529342599343,0.01615131804166616,-0.21419542417672396,0.28452017024918386,-0.11245616469754617,-0.03569326824859454,-0.36654201586043433,1.675605323653472,0.05212600725791834,0.030036711435546353,-2.7523881264067533,0.03425224476059278,2.766372010601891,0.7691747986409398,1.6754973547542302,0.052104326824870026,0.029969505109285054,-2.752394845125968,0.0342448039870148,2.7663679543071322,0.7691630533470046,0.0011632383591441155,-0.00032880078350335684,9.81300400210146e-05,-0.0007302863482155841,4.607055467128121e-05,-0.00019154261720442313,-0.0015154770126088028,0.0,0.0,0.0,0.0,0.0,0.0,0.0,-0.00010796889924180597,-2.1680433048315573e-05,-6.720632626129944e-05,-6.718719214759972e-06,-7.4407735779769e-06,-4.05629475874747e-06,-1.174529393521695e-05,-0.0011632383591441155,0.00032880078350335684,-9.81300400210146e-05,0.0007302863482155841,-4.607055467128121e-05,0.00019154261720442313,0.0015154770126088028,0.4029781222343445,22.772058486938477,0.1253325641155243,-14.179414749145508,-0.11748272180557251,-2.1517977714538574,0.33084434270858765,0
48,0.23498821258544922,-0.4029781222343445,-22.795862197875977,-0.1253325641155243,14.179414749145508,0.11748272180557251,2.1325716972351074,-0.34457725286483765,0.0,0.0,0.0,0.0,0.0,0.0,0.0,-0.36924516552544456,0.02429382599953863,-0.2151169263415979,0.2795557452197508,-0.11265762750249556,-0.03693272746547635,-0.3660736710447746,1.675605323653472,0.05212744984871794,0.030036471653857415,-2.7523901927011054,0.03425224476059278,2.76637414683236,0.7691764466180667,1.6754973547542302,0.052104326824870026,0.029969505109285054,-2.752394845125968,0.0342448039870148,2.7663679543071322,0.7691630533470046,0.0009972115870190124,0.00036100118677885465,0.00034374907951187085,-0.0008881440970734612,9.43590960094737e-05,0.0006354483290597395,-0.0014501038679797394,0.0,0.0,0.0,0.0,0.0,0.0,0.0,-0.00010796889924180597,-2.312302384791659e-05,-6.696654457236106e-05,-4.65242486269446e-06,-7.4407735779769e-06,-6.192525227710632e-06,-1.3393271062089873e-05,-0.0009972115870190124,-0.00036100118677885465,-0.00034374907951187085,0.0008881440970734612,-9.43590960094737e-05,-0.0006354483290597395,0.0014501038679797394,0.4029781222343445,22.795862197875977,0.1253325641155243,-14.179414749145508,-0.11748272180557251,-2.1325716972351074,0.34457725286483765,0
49,0.24009251594543457,-0.4029781222343445,-22.795862197875977,-0.1253325641155243,14.179414749145508,0.11748272180557251,2.1325716972351074,-0.34457725286483765,0.0,0.0,0.0,0.0,0.0,0.0,0.0,-0.36924516552544456,0.02429382599953863,-0.2151169263415979,0.2795557452197508,-0.11265762750249556,-0.03693272746547635,-0.3660736710447746,1.675605323653472,0.05212744984871794,0.030036471653857415,-2.7523901927011054,0.03425224476059278,2.76637414683236,0.7691764466180667,1.6754973547542302,0.052104326824870026,0.029969505109285054,-2.752394845125968,0.0342448039870148,2.7663679543071322,0.7691630533470046,0.0009972115870190124,0.00036100118677885465,0.00034374907951187085,-0.0008881440970734612,9.43590960094737e-05,0.0006354483290597395,-0.0014501038679797394,0.0,0.0,0.0,0.0,0.0,0.0,0.0,-0.00010796889924180597,-2.312302384791659e-05,-6.696654457236106e-05,-4.65242486269446e-06,-7.4407735779769e-06,-6.192525227710632e-06,-1.3393271062089873e-05,-0.0009972115870190124,-0.00036100118677885465,-0.00034374907951187085,0.0008881440970734612,-9.43590960094737e-05,-0.0006354483290597395,0.0014501038679797394,0.4029781222343445,22.795862197875977,0.1253325641155243,-14.179414749145508,-0.11748272180557251,-2.1325716972351074,0.34457725286483765,0
50,0.24504375457763672,-0.3752071261405945,-22.795862197875977,-0.1253325641155243,14.108003616333008,0.12389141321182251,2.1582064628601074,-0.36471885442733765,0.0,0.0,0.0,0.0,0.0,0.0,0.0,-0.3709947207633692,0.021928818482952098,-0.2148078708631993,0.2776784423701424,-0.1131815095938951,-0.037674893386897675,-0.36796360897572034,1.675603374811641,0.05212592878537271,0.030036471641377467,-2.7523831151458444,0.03425153268376986,2.766371298525068,0.7691785626377701,1.6754973547542302,0.052104326824870026,0.029969505109285054,-2.752394845125968,0.0342448039870148,2.7663679543071322,0.7691630533470046,-0.0003049415841885427,3.3594078922838924e-05,4.098546397026133e-05,0.0006121368101962679,-0.00023168904677780083,-0.00017790521026618094,-0.0008211813506388623,0.0,0.0,0.0,0.0,0.0,0.0,0.0,-0.0001060200574107828,-2.1601960502687367e-05,-6.696653209241343e-05,-1.1729980123664774e-05,-6.728696755060881e-06,-3.3442179359077784e-06,-1.550929076543639e-05,0.0003049415841885427,-3.3594078922838924e-05,-4.098546397026133e-05,-0.0006121368101962679,0.00023168904677780083,0.00017790521026618094,0.0008211813506388623,0.3752071261405945,22.795862197875977,0.1253325641155243,-14.108003616333008,-0.12389141321182251,-2.1582064628601074,0.36471885442733765,0
51,0.24999570846557617,-0.3752071261405945,-22.795862197875977,-0.1253325641155243,14.108003616333008,0.12389141321182251,2.1582064628601074,-0.36471885442733765,0.0,0.0,0.0,0.0,0.0,0.0,0.0,-0.3709947207633692,0.021928818482952098,-0.2148078708631993,0.2776784423701424,-0.1131815095938951,-0.037674893386897675,-0.36796360897572034,1.675603374811641,0.05212592878537271,0.030036471641377467,-2.7523831151458444,0.03425153268376986,2.766371298525068,0.7691785626377701,1.6754973547542302,0.052104326824870026,0.029969505109285054,-2.752394845125968,0.0342448039870148,2.7663679543071322,0.7691630533470046,-0.0003049415841885427,3.3594078922838924e-05,4.098546397026133e-05,0.0006121368101962679,-0.00023168904677780083,-0.00017790521026618094,-0.0008211813506388623,0.0,0.0,0.0,0.0,0.0,0.0,0.0,-0.0001060200574107828,-2.1601960502687367e-05,-6.696653209241343e-05,-1.1729980123664774e-05,-6.728696755060881e-06,-3.3442179359077784e-06,-1.550929076543639e-05,0.0003049415841885427,-3.3594078922838924e-05,-4.098546397026133e-05,-0.0006121368101962679,0.00023168904677780083,0.00017790521026618094,0.0008211813506388623,0.3752071261405945,22.795862197875977,0.1253325641155243,-14.108003616333008,-0.12389141321182251,-2.1582064628601074,0.36471885442733765,0
52,0.2550225257873535,-0.4029781222343445,-22.772058486938477,-0.09756157547235489,14.131807327270508,0.12389141321182251,2.1517977714538574,-0.35831016302108765,0.0,0.0,0.0,0.0,0.0,0.0,0.0,-0.3732222587601631,0.018570130391902452,-0.21536424011675034,0.27585064206652016,-0.11322968266739633,-0.037134492823077334,-0.3704843277888387,1.675605323653472,0.052125673982578176,0.030034522908328316,-2.752384785535043,0.03425153268376986,2.766372010601891,0.76917785088327,1.6754973547542302,0.052104326824870026,0.029969505109285054,-2.752394845125968,0.0342448039870148,2.7663679543071322,0.7691630533470046,0.0006712719847360925,-0.00048726644866297616,-0.0013530640020917814,-0.00011635731431022135,-9.241479609579249e-05,-9.287774338602578e-05,-0.0008529042728056482,0.0,0.0,0.0,0.0,0.0,0.0,0.0,-0.00010796889924180597,-2.1347157708150044e-05,-6.501779904326266e-05,-1.0059590925148854e-05,-6.728696755060881e-06,-4.05629475874747e-06,-1.4797536265320765e-05,-0.0006712719847360925,0.00048726644866297616,0.0013530640020917814,0.00011635731431022135,9.241479609579249e-05,9.287774338602578e-05,0.0008529042728056482,0.4029781222343445,22.772058486938477,0.09756157547235489,-14.131807327270508,-0.12389141321182251,-2.1517977714538574,0.35831016302108765,0
53,0.2600679397583008,-0.4029781222343445,-22.772058486938477,-0.09756157547235489,14.131807327270508,0.12389141321182251,2.1517977714538574,-0.35831016302108765,0.0,0.0,0.0,0.0,0.0,0.0,0.0,-0.3732222587601631,0.018570130391902452,-0.21536424011675034,0.27585064206652016,-0.11322968266739633,-0.037134492823077334,-0.3704843277888387,1.675605323653472,0.052125673982578176,0.030034522908328316,-2.752384785535043,0.03425153268376986,2.766372010601891,0.76917785088327,1.6754973547542302,0.052104326824870026,0.029969505109285054,-2.752394845125968,0.0342448039870148,2.7663679543071322,0.7691630533470046,0.0006712719847360925,-0.00048726644866297616,-0.0013530640020917814,-0.00011635731431022135,-9.241479609579249e-05,-9.287774338602578e-05,-0.0008529042728056482,0.0,0.0,0.0,0.0,0.0,0.0,0.0,-0.00010796889924180597,-2.1347157708150044e-05,-6.501779904326266e-05,-1.0059590925148854e-05,-6.728696755060881e-06,-4.05629475874747e-06,-1.4797536265320765e-05,-0.0006712719847360925,0.00048726644866297616,0.0013530640020917814,0.00011635731431022135,9.241479609579249e-05,9.287774338602578e-05,0.0008529042728056482,0.4029781222343445,22.772058486938477,0.09756157547235489,-14.131807327270508,-0.12389141321182251,-2.1517977714538574,0.35831016302108765,0
54,0.26498913764953613,-0.3752071261405945,-22.772058486938477,-0.09756157547235489,14.155611038208008,0.11198955774307251,2.1453890800476074,-0.36471885442733765,0.0,0.0,0.0,0.0,0.0,0.0,0.0,-0.36886962336229856,0.019301213349331995,-0.21045004610056248,0.27448799313664457,-0.11393509431751189,-0.03721507381971791,-0.37098206390674876,1.675603374811641,0.05212637599023135,0.03003523308875329,-2.7523864562858336,0.03425285511215528,2.766372722678714,0.7691799753264171,1.6754973547542302,0.052104326824870026,0.029969505109285054,-2.752394845125968,0.0342448039870148,2.7663679543071322,0.7691630533470046,7.819228569310178e-05,0.00026102803809336354,-0.0009178772055941708,-0.00020320592577534902,0.0006440011651055761,3.0995361337051064e-05,-0.00018388507762049164,0.0,0.0,0.0,0.0,0.0,0.0,0.0,-0.0001060200574107828,-2.2049165361325007e-05,-6.572797946823722e-05,-8.38884013454333e-06,-8.051125140476345e-06,-4.768371581587161e-06,-1.6921979412498622e-05,-7.819228569310178e-05,-0.00026102803809336354,0.0009178772055941708,0.00020320592577534902,-0.0006440011651055761,-3.0995361337051064e-05,0.00018388507762049164,0.3752071261405945,22.772058486938477,0.09756157547235489,-14.155611038208008,-0.11198955774307251,-2.1453890800476074,0.36471885442733765,0
55,0.2700047492980957,-0.3752071261405945,-22.772058486938477,-0.09756157547235489,14.155611038208008,0.11198955774307251,2.1453890800476074,-0.36471885442733765,0.0,0.0,0.0,0.0,0.0,0.0,0.0,-0.36886962336229856,0.019301213349331995,-0.21045004610056248,0.27448799313664457,-0.11393509431751189,-0.03721507381971791,-0.37098206390674876,1.675603374811641,0.05212637599023135,0.03003523308875329,-2.7523864562858336,0.03425285511215528,2.766372722678714,0.7691799753264171,1.6754973547542302,0.052104326824870026,0.029969505109285054,-2.752394845125968,0.0342448039870148,2.7663679543071322,0.7691630533470046,7.819228569310178e-05,0.00026102803809336354,-0.0009178772055941708,-0.00020320592577534902,0.0006440011651055761,3.0995361337051064e-05,-0.00018388507762049164,0.0,0.0,0.0,0.0,0.0,0.0,0.0,-0.0001060200574107828,-2.2049165361325007e-05,-6.572797946823722e-05,-8.38884013454333e-06,-8.051125140476345e-06,-4.768371581587161e-06,-1.6921979412498622e-05,-7.819228569310178e-05,-0.00026102803809336354,0.0009178772055941708,0.00020320592577534902,-0.0006440011651055761,-3.0995361337051064e-05,0.00018388507762049164,0.3752071261405945,22.772058486938477,0.09756157547235489,-14.155611038208008,-0.11198955774307251,-2.1453890800476074,0.36471885442733765,0
56,0.2750115394592285,-0.3514034152030945,-22.772058486938477,-0.1253325641155243,14.179414749145508,0.11748272180557251,2.1325716972351074,-0.33725303411483765,0.0,0.0,0.0,0.0,0.0,0.0,0.0,-0.36826761049671897,0.014710831803126495,-0.20963749870286727,0.27773020194736514,-0.11381484381549875,-0.037248351962461033,-0.36971869653690453,1.6756017043757856,0.052123802988715065,0.030038602543514523,-2.7523881264067693,0.03425224476059278,2.76637414683236,0.7691755238714951,1.6754973547542302,0.052104326824870026,0.029969505109285054,-2.752394845125968,0.0342448039870148,2.7663679543071322,0.7691630533470046,0.00015526120951849317,-0.0001837363277733063,8.260359622440262e-05,-0.0008574347333584487,0.00011724966043947748,0.0006080414112513753,-0.0010045622650045952,0.0,0.0,0.0,0.0,0.0,0.0,0.0,-0.00010434962155536631,-1.947616384503914e-05,-6.909743422946896e-05,-6.71871919877276e-06,-7.4407735779769e-06,-6.192525227710632e-06,-1.247052449049324e-05,-0.00015526120951849317,0.0001837363277733063,-8.260359622440262e-05,0.0008574347333584487,-0.00011724966043947748,-0.0006080414112513753,0.0010045622650045952,0.3514034152030945,22.772058486938477,0.1253325641155243,-14.179414749145508,-0.11748272180557251,-2.1325716972351074,0.33725303411483765,0
57,0.27999377250671387,-0.3514034152030945,-22.772058486938477,-0.1253325641155243,14.179414749145508,0.11748272180557251,2.1325716972351074,-0.33725303411483765,0.0,0.0,0.0,0.0,0.0,0.0,0.0,-0.36826761049671897,0.014710831803126495,-0.20963749870286727,0.27773020194736514,-0.11381484381549875,-0.037248351962461033,-0.36971869653690453,1.6756017043757856,0.052123802988715065,0.030038602543514523,-2.7523881264067693,0.03425224476059278,2.76637414683236,0.7691755238714951,1.6754973547542302,0.052104326824870026,0.029969505109285054,-2.752394845125968,0.0342448039870148,2.7663679543071322,0.7691630533470046,0.00015526120951849317,-0.0001837363277733063,8.260359622440262e-05,-0.0008574347333584487,0.00011724966043947748,0.0006080414112513753,-0.0010045622650045952,0.0,0.0,0.0,0.0,0.0,0.0,0.0,-0.00010434962155536631,-1.947616384503914e-05,-6.909743422946896e-05,-6.71871919877276e-06,-7.4407735779769e-06,-6.192525227710632e-06,-1.247052449049324e-05,-0.00015526120951849317,0.0001837363277733063,-8.260359622440262e-05,0.0008574347333584487,-0.00011724966043947748,-0.0006080414112513753,0.0010045622650045952,0.3514034152030945,22.772058486938477,0.1253325641155243,-14.179414749145508,-0.11748272180557251,-2.1325716972351074,0.33725303411483765,0
58,0.2849881649017334,-0.4267818331718445,-22.748254776000977,-0.1253325641155243,14.155611038208008,0.12389141321182251,2.1453890800476074,-0.31711143255233765,0.0,0.0,0.0,0.0,0.0,0.0,0.0,-0.37317071757870074,0.016743087670887103,-0.21437976893204086,0.2834721246023126,-0.11324851572081172,-0.03581787736172693,-0.36751509670325144,1.6756069940893275,0.05212402403324821,0.030036708404717442,-2.7523864591202565,0.03425153268376986,2.7663727221941974,0.7691733120078929,1.6754973547542302,0.052104326824870026,0.029969505109285054,-2.752394845125968,0.0342448039870148,2.7663679543071322,0.7691630533470046,0.0014879265467168845,-0.000256230779084374,-0.00011968583998601377,-0.0002798596826388539,-0.00027393739384311364,-0.000966139172509952,-0.002278959166984884,0.0,0.0,0.0,0.0,0.0,0.0,0.0,-0.00010963933509722246,-1.969720837818184e-05,-6.720329543238868e-05,-8.386005711624733e-06,-6.728696755060881e-06,-4.767887065160181e-06,-1.0258660888218252e-05,-0.0014879265467168845,0.000256230779084374,0.00011968583998601377,0.0002798596826388539,0.00027393739384311364,0.000966139172509952,0.002278959166984884,0.4267818331718445,22.748254776000977,0.1253325641155243,-14.155611038208008,-0.12389141321182251,-2.1453890800476074,0.31711143255233765,0
59,0.28999757766723633,-0.4267818331718445,-22.748254776000977,-0.1253325641155243,14.155611038208008,0.12389141321182251,2.1453890800476074,-0.31711143255233765,0.0,0.0,0.0,0.0,0.0,0.0,0.0,-0.37317071757870074,0.016743087670887103,-0.21437976893204086,0.2834721246023126,-0.11324851572081172,-0.03581787736172693,-0.36751509670325144,1.6756069940893275,0.05212402403324821,0.030036708404717442,-2.7523864591202565,0.03425153268376986,2.7663727221941974,0.7691733120078929,1.6754973547542302,0.052104326824870026,0.029969505109285054,-2.752394845125968,0.0342448039870148,2.7663679543071322,0.7691630533470046,0.0014879265467168845,-0.000256230779084374,-0.00011968583998601377,-0.0002798596826388539,-0.00027393739384311364,-0.000966139172509952,-0.002278959166984884,0.0,0.0,0.0,0.0,0.0,0.0,0.0,-0.00010963933509722246,-1.969720837818184e-05,-6.720329543238868e-05,-8.386005711624733e-06,-6.728696755060881e-06,-4.767887065160181e-06,-1.0258660888218252e-05,-0.0014879265467168845,0.000256230779084374,0.00011968583998601377,0.0002798596826388539,0.00027393739384311364,0.000966139172509952,0.002278959166984884,0.4267818331718445,22.748254776000977,0.1253325641155243,-14.155611038208008,-0.12389141321182251,-2.1453890800476074,0.31711143255233765,0
60,0.2950408458709717,-0.3752071261405945,-22.772058486938477,-0.1253325641155243,14.155611038208008,0.12389141321182251,2.1389803886413574,-0.37845176458358765,0.0,0.0,0.0,0.0,0.0,0.0,0.0,-0.37181940608209896,0.016814665468624496,-0.21040624611448916,0.27972122302173297,-0.11382981606605444,-0.03830297217308246,-0.36740163539644904,1.675603374811641,0.052123575777277976,0.030036471642713933,-2.752386456005908,0.03425153268376986,2.766373434755534,0.7691832716297419,1.6754973547542302,0.052104326824870026,0.029969505109285054,-2.752394845125968,0.0342448039870148,2.7663679543071322,0.7691630533470046,8.656966548089289e-05,-0.0007711966319714942,-0.00011797829153321424,-1.051516034879244e-05,-0.0002704307428938819,0.0003340018928855881,0.00033383935668819753,0.0,0.0,0.0,0.0,0.0,0.0,0.0,-0.0001060200574107828,-1.9248952407950604e-05,-6.69665334288791e-05,-8.38912005995951e-06,-6.728696755060881e-06,-5.480448401762317e-06,-2.0218282737238802e-05,-8.656966548089289e-05,0.0007711966319714942,0.00011797829153321424,1.051516034879244e-05,0.0002704307428938819,-0.0003340018928855881,-0.00033383935668819753,0.3752071261405945,22.772058486938477,0.1253325641155243,-14.155611038208008,-0.12389141321182251,-2.1389803886413574,0.37845176458358765,0
61,0.300020694732666,-0.3752071261405945,-22.772058486938477,-0.1253325641155243,14.155611038208008,0.12389141321182251,2.1389803886413574,-0.37845176458358765,0.0,0.0,0.0,0.0,0.0,0.0,0.0,-0.37181940608209896,0.016814665468624496,-0.21040624611448916,0.27972122302173297,-0.11382981606605444,-0.03830297217308246,-0.36740163539644904,1.675603374811641,0.052123575777277976,0.030036471642713933,-2.752386456005908,0.03425153268376986,2.766373434755534,0.7691832716297419,1.6754973547542302,0.052104326824870026,0.029969505109285054,-2.752394845125968,0.0342448039870148,2.7663679543071322,0.7691630533470046,8.656966548089289e-05,-0.0007711966319714942,-0.00011797829153321424,-1.051516034879244e-05,-0.0002704307428938819,0.0003340018928855881,0.00033383935668819753,0.0,0.0,0.0,0.0,0.0,0.0,0.0,-0.0001060200574107828,-1.9248952407950604e-05,-6.69665334288791e-05,-8.38912005995951e-06,-6.728696755060881e-06,-5.480448401762317e-06,-2.0218282737238802e-05,-8.656966548089289e-05,0.0007711966319714942,0.00011797829153321424,1.051516034879244e-05,0.0002704307428938819,-0.0003340018928855881,-0.00033383935668819753,0.3752071261405945,22.772058486938477,0.1253325641155243,-14.155611038208008,-0.12389141321182251,-2.1389803886413574,0.37845176458358765,0
62,0.3050241470336914,-0.3752071261405945,-22.772058486938477,-0.1253325641155243,14.155611038208008,0.12389141321182251,2.1389803886413574,-0.37845176458358765,0.0,0.0,0.0,0.0,0.0,0.0,0.0,-0.37181940608209896,0.016814665468624496,-0.21040624611448916,0.27972122302173297,-0.11382981606605444,-0.03830297217308246,-0.36740163539644904,1.675603374811641,0.052123575777277976,0.030036471642713933,-2.752386456005908,0.03425153268376986,2.766373434755534,0.7691832716297419,1.6754973547542302,0.052104326824870026,0.029969505109285054,-2.752394845125968,0.0342448039870148,2.7663679543071322,0.7691630533470046,8.656966548089289e-05,-0.0007711966319714942,-0.00011797829153321424,-1.051516034879244e-05,-0.0002704307428938819,0.0003340018928855881,0.00033383935668819753,0.0,0.0,0.0,0.0,0.0,0.0,0.0,-0.0001060200574107828,-1.9248952407950604e-05,-6.69665334288791e-05,-8.38912005995951e-06,-6.728696755060881e-06,-5.480448401762317e-06,-2.0218282737238802e-05,-8.656966548089289e-05,0.0007711966319714942,0.00011797829153321424,1.051516034879244e-05,0.0002704307428938819,-0.0003340018928855881,-0.00033383935668819753,0.3752071261405945,22.772058486938477,0.1253325641155243,-14.155611038208008,-0.12389141321182251,-2.1389803886413574,0.37845176458358765,0
63,0.3099856376647949,-0.3752071261405945,-22.772058486938477,-0.1253325641155243,14.155611038208008,0.12389141321182251,2.1389803886413574,-0.37845176458358765,0.0,0.0,0.0,0.0,0.0,0.0,0.0,-0.37181940608209896,0.016814665468624496,-0.21040624611448916,0.27972122302173297,-0.11382981606605444,-0.03830297217308246,-0.36740163539644904,1.675603374811641,0.052123575777277976,0.030036471642713933,-2.752386456005908,0.03425153268376986,2.766373434755534,0.7691832716297419,1.6754973547542302,0.052104326824870026,0.029969505109285054,-2.752394845125968,0.0342448039870148,2.7663679543071322,0.7691630533470046,8.656966548089289e-05,-0.0007711966319714942,-0.00011797829153321424,-1.051516034879244e-05,-0.0002704307428938819,0.0003340018928855881,0.00033383935668819753,0.0,0.0,0.0,0.0,0.0,0.0,0.0,-0.0001060200574107828,-1.9248952407950604e-05,-6.69665334288791e-05,-8.38912005995951e-06,-6.728696755060881e-06,-5.480448401762317e-06,-2.0218282737238802e-05,-8.656966548089289e-05,0.0007711966319714942,0.00011797829153321424,1.051516034879244e-05,0.0002704307428938819,-0.0003340018928855881,-0.00033383935668819753,0.3752071261405945,22.772058486938477,0.1253325641155243,-14.155611038208008,-0.12389141321182251,-2.1389803886413574,0.37845176458358765,0
64,0.315004825592041,-0.3752071261405945,-22.772058486938477,-0.1491362750530243,14.131807327270508,0.12389141321182251,2.1582064628601074,-0.41324180364608765,0.0,0.0,0.0,0.0,0.0,0.0,0.0,-0.3693528945587438,0.02085720450769876,-0.20792489190919983,0.2763727655694898,-0.11449545247470407,-0.03946516868011159,-0.36733962864416553,1.675603374811641,0.05212433485922215,0.030038150846228764,-2.752384785535043,0.03425153268376986,2.766371298525068,0.7691840718314226,1.6754973547542302,0.052104326824870026,0.029969505109285054,-2.752394845125968,0.0342448039870148,2.7663679543071322,0.7691630533470046,0.00028818739392057354,-0.0007630433921607106,0.0004824010885443482,0.0006064506978795213,-0.00015092625525602033,-0.00029871807848569576,0.0014959930943204275,0.0,0.0,0.0,0.0,0.0,0.0,0.0,-0.0001060200574107828,-2.0008034352127224e-05,-6.864573694371004e-05,-1.0059590925148854e-05,-6.728696755060881e-06,-3.3442179359077784e-06,-2.101848441793397e-05,-0.00028818739392057354,0.0007630433921607106,-0.0004824010885443482,-0.0006064506978795213,0.00015092625525602033,0.00029871807848569576,-0.0014959930943204275,0.3752071261405945,22.772058486938477,0.1491362750530243,-14.131807327270508,-0.12389141321182251,-2.1582064628601074,0.41324180364608765,0
65,0.3199779987335205,-0.3752071261405945,-22.772058486938477,-0.1491362750530243,14.131807327270508,0.12389141321182251,2.1582064628601074,-0.41324180364608765,0.0,0.0,0.0,0.0,0.0,0.0,0.0,-0.3693528945587438,0.02085720450769876,-0.20792489190919983,0.2763727655694898,-0.11449545247470407,-0.03946516868011159,-0.36733962864416553,1.675603374811641,0.05212433485922215,0.030038150846228764,-2.752384785535043,0.03425153268376986,2.766371298525068,0.7691840718314226,1.6754973547542302,0.052104326824870026,0.029969505109285054,-2.752394845125968,0.0342448039870148,2.7663679543071322,0.7691630533470046,0.00028818739392057354,-0.0007630433921607106,0.0004824010885443482,0.0006064506978795213,-0.00015092625525602033,-0.00029871807848569576,0.0014959930943204275,0.0,0.0,0.0,0.0,0.0,0.0,0.0,-0.0001060200574107828,-2.0008034352127224e-05,-6.864573694371004e-05,-1.0059590925148854e-05,-6.728696755060881e-06,-3.3442179359077784e-06,-2.101848441793397e-05,-0.00028818739392057354,0.0007630433921607106,-0.0004824010885443482,-0.0006064506978795213,0.00015092625525602033,0.00029871807848569576,-0.0014959930943204275,0.3752071261405945,22.772058486938477,0.1491362750530243,-14.131807327270508,-0.12389141321182251,-2.1582064628601074,0.41324180364608765,0
66,0.32500576972961426,-0.4029781222343445,-22.772058486938477,-0.1253325641155243,14.155611038208008,0.11748272180557251,2.1517977714538574,-0.39950889348983765,0.0,0.0,0.0,0.0,0.0,0.0,0.0,-0.36676126121632013,0.02058568018519647,-0.20755695638134425,0.27385933754013514,-0.11465046455444841,-0.039047716937967235,-0.3697493424673694,1.675605323653472,0.05212380839980512,0.0300364716414269,-2.752386455970898,0.03425224476059278,2.766375189516279,0.7691834876742661,1.6754973547542302,0.052104326824870026,0.029969505109285054,-2.752394845125968,0.0342448039870148,2.7663679543071322,0.7691630533470046,0.0011066443112775688,-0.0006229375511694442,0.0002544398189516866,-0.0004738920058104768,3.718419605318205e-05,1.2112563017637659e-05,0.0008653852834815007,0.0,0.0,0.0,0.0,0.0,0.0,0.0,-0.00010796889924180597,-1.9481574935094337e-05,-6.696653214184611e-05,-8.389155070176457e-06,-7.4407735779769e-06,-7.235209146916333e-06,-2.043432726150929e-05,-0.0011066443112775688,0.0006229375511694442,-0.0002544398189516866,0.0004738920058104768,-3.718419605318205e-05,-1.2112563017637659e-05,-0.0008653852834815007,0.4029781222343445,22.772058486938477,0.1253325641155243,-14.155611038208008,-0.11748272180557251,-2.1517977714538574,0.39950889348983765,0
67,0.3300137519836426,-0.4029781222343445,-22.772058486938477,-0.1253325641155243,14.155611038208008,0.11748272180557251,2.1517977714538574,-0.39950889348983765,0.0,0.0,0.0,0.0,0.0,0.0,0.0,-0.36676126121632013,0.02058568018519647,-0.20755695638134425,0.27385933754013514,-0.11465046455444841,-0.039047716937967235,-0.3697493424673694,1.675605323653472,0.05212380839980512,0.0300364716414269,-2.752386455970898,0.03425224476059278,2.766375189516279,0.7691834876742661,1.6754973547542302,0.052104326824870026,0.029969505109285054,-2.752394845125968,0.0342448039870148,2.7663679543071322,0.7691630533470046,0.0011066443112775688,-0.0006229375511694442,0.0002544398189516866,-0.0004738920058104768,3.718419605318205e-05,1.2112563017637659e-05,0.0008653852834815007,0.0,0.0,0.0,0.0,0.0,0.0,0.0,-0.00010796889924180597,-1.9481574935094337e-05,-6.696653214184611e-05,-8.389155070176457e-06,-7.4407735779769e-06,-7.235209146916333e-06,-2.043432726150929e-05,-0.0011066443112775688,0.0006229375511694442,-0.0002544398189516866,0.0004738920058104768,-3.718419605318205e-05,-1.2112563017637659e-05,-0.0008653852834815007,0.4029781222343445,22.772058486938477,0.1253325641155243,-14.155611038208008,-0.11748272180557251,-2.1517977714538574,0.39950889348983765,0
68,0.3350253105163574,-0.3752071261405945,-22.772058486938477,-0.1491362750530243,14.179414749145508,0.11198955774307251,2.1517977714538574,-0.41324180364608765,0.0,0.0,0.0,0.0,0.0,0.0,0.0,-0.37075413734959733,0.019192490540430727,-0.2106347181340955,0.27483397150953903,-0.11428450181297772,-0.038307168295683466,-0.3715264625536804,1.675603374811641,0.05212354884150539,0.030038220998197505,-2.752388126721689,0.03425285511215528,2.766372010619836,0.769183953920359,1.6754973547542302,0.052104326824870026,0.029969505109285054,-2.752394845125968,0.0342448039870148,2.7663679543071322,0.7691630533470046,0.00010197965457261712,-4.9481048811841224e-06,0.0007374789453214927,-0.0008563734111411775,5.503284482356805e-05,-0.00014042277532918103,0.0018050113779204636,0.0,0.0,0.0,0.0,0.0,0.0,0.0,-0.0001060200574107828,-1.922201663536599e-05,-6.871588891245103e-05,-6.718404279126844e-06,-8.051125140476345e-06,-4.05631270394835e-06,-2.0900573354354357e-05,-0.00010197965457261712,4.9481048811841224e-06,-0.0007374789453214927,0.0008563734111411775,-5.503284482356805e-05,0.00014042277532918103,-0.0018050113779204636,0.3752071261405945,22.772058486938477,0.1491362750530243,-14.179414749145508,-0.11198955774307251,-2.1517977714538574,0.41324180364608765,0
69,0.3400237560272217,-0.3752071261405945,-22.772058486938477,-0.1491362750530243,14.179414749145508,0.11198955774307251,2.1517977714538574,-0.41324180364608765,0.0,0.0,0.0,0.0,0.0,0.0,0.0,-0.37075413734959733,0.019192490540430727,-0.2106347181340955,0.27483397150953903,-0.11428450181297772,-0.038307168295683466,-0.3715264625536804,1.675603374811641,0.05212354884150539,0.030038220998197505,-2.752388126721689,0.03425285511215528,2.766372010619836,0.769183953920359,1.6754973547542302,0.052104326824870026,0.029969505109285054,-2.752394845125968,0.0342448039870148,2.7663679543071322,0.7691630533470046,0.00010197965457261712,-4.9481048811841224e-06,0.0007374789453214927,-0.0008563734111411775,5.503284482356805e-05,-0.00014042277532918103,0.0018050113779204636,0.0,0.0,0.0,0.0,0.0,0.0,0.0,-0.0001060200574107828,-1.922201663536599e-05,-6.871588891245103e-05,-6.718404279126844e-06,-8.051125140476345e-06,-4.05631270394835e-06,-2.0900573354354357e-05,-0.00010197965457261712,4.9481048811841224e-06,-0.0007374789453214927,0.0008563734111411775,-5.503284482356805e-05,0.00014042277532918103,-0.0018050113779204636,0.3752071261405945,22.772058486938477,0.1491362750530243,-14.179414749145508,-0.11198955774307251,-2.1517977714538574,0.41324180364608765,0
70,0.3450279235839844,-0.3514034152030945,-22.772058486938477,-0.1253325641155243,14.207185745239258,0.11748272180557251,2.1517977714538574,-0.36471885442733765,0.0,0.0,0.0,0.0,0.0,0.0,0.0,-0.37005759479998906,0.018974941215655728,-0.2097663175178396,0.2738592213929817,-0.1146558329505923,-0.038444643127177464,-0.3729815027609934,1.6756017043757856,0.05212567689816493,0.03003744500038929,-2.7523903048368474,0.03425224476059278,2.7663720106018914,0.7691785624755753,1.6754973547542302,0.052104326824870026,0.029969505109285054,-2.752394845125968,0.0342448039870148,2.7663679543071322,0.7691630533470046,-0.000544105204444954,-3.82850439241619e-05,7.411869303661213e-05,-0.0015183961514333173,5.426814848895388e-05,-0.00020032907911332558,2.3746448048512543e-05,0.0,0.0,0.0,0.0,0.0,0.0,0.0,-0.00010434962155536631,-2.135007329490124e-05,-6.793989110423504e-05,-4.540289120669172e-06,-7.4407735779769e-06,-4.056294759191559e-06,-1.5509128570623254e-05,0.000544105204444954,3.82850439241619e-05,-7.411869303661213e-05,0.0015183961514333173,-5.426814848895388e-05,0.00020032907911332558,-2.3746448048512543e-05,0.3514034152030945,22.772058486938477,0.1253325641155243,-14.207185745239258,-0.11748272180557251,-2.1517977714538574,0.36471885442733765,0
71,0.3499770164489746,-0.3514034152030945,-22.772058486938477,-0.1253325641155243,14.207185745239258,0.11748272180557251,2.1517977714538574,-0.36471885442733765,0.0,0.0,0.0,0.0,0.0,0.0,0.0,-0.37005759479998906,0.018974941215655728,-0.2097663175178396,0.2738592213929817,-0.1146558329505923,-0.038444643127177464,-0.3729815027609934,1.6756017043757856,0.05212567689816493,0.03003744500038929,-2.7523903048368474,0.03425224476059278,2.7663720106018914,0.7691785624755753,1.6754973547542302,0.052104326824870026,0.029969505109285054,-2.752394845125968,0.0342448039870148,2.7663679543071322,0.7691630533470046,-0.000544105204444954,-3.82850439241619e-05,7.411869303661213e-05,-0.0015183961514333173,5.426814848895388e-05,-0.00020032907911332558,2.3746448048512543e-05,0.0,0.0,0.0,0.0,0.0,0.0,0.0,-0.00010434962155536631,-2.135007329490124e-05,-6.793989110423504e-05,-4.540289120669172e-06,-7.4407735779769e-06,-4.056294759191559e-06,-1.5509128570623254e-05,0.000544105204444954,3.82850439241619e-05,-7.411869303661213e-05,0.0015183961514333173,-5.426814848895388e-05,0.00020032907911332558,-2.3746448048512543e-05,0.3514034152030945,22.772058486938477,0.1253325641155243,-14.207185745239258,-0.11748272180557251,-2.1517977714538574,0.36471885442733765,0
72,0.354978084564209,-0.3514034152030945,-22.720483779907227,-0.1253325641155243,14.179414749145508,0.12389141321182251,2.1453890800476074,-0.34457725286483765,0.0,0.0,0.0,0.0,0.0,0.0,0.0,-0.3718506525307607,0.01967560362295279,-0.21185954532326645,0.275255441837779,-0.11390593249008821,-0.03819214170526344,-0.3725300485554906,1.6756017043757856,0.05212023613152036,0.03003649795386032,-2.752388126722985,0.03425153268376986,2.7663727226787143,0.7691773841579754,1.6754973547542302,0.052104326824870026,0.029969505109285054,-2.752394845125968,0.0342448039870148,2.7663679543071322,0.7691630533470046,-0.000333443010726703,-0.001187556567386512,-0.00022908538136841012,-0.0007585965568245452,-4.687850302361976e-05,0.000359644844792104,-0.000861100634669881,0.0,0.0,0.0,0.0,0.0,0.0,0.0,-0.00010434962155536631,-1.590930665033158e-05,-6.699284457526572e-05,-6.7184029832745296e-06,-6.728696755060881e-06,-4.76837158203125e-06,-1.4330810970797359e-05,0.000333443010726703,0.001187556567386512,0.00022908538136841012,0.0007585965568245452,4.687850302361976e-05,-0.000359644844792104,0.000861100634669881,0.3514034152030945,22.720483779907227,0.1253325641155243,-14.179414749145508,-0.12389141321182251,-2.1453890800476074,0.34457725286483765,0
73,0.35997700691223145,-0.3514034152030945,-22.720483779907227,-0.1253325641155243,14.179414749145508,0.12389141321182251,2.1453890800476074,-0.34457725286483765,0.0,0.0,0.0,0.0,0.0,0.0,0.0,-0.3718506525307607,0.01967560362295279,-0.21185954532326645,0.275255441837779,-0.11390593249008821,-0.03819214170526344,-0.3725300485554906,1.6756017043757856,0.05212023613152036,0.03003649795386032,-2.752388126722985,0.03425153268376986,2.7663727226787143,0.7691773841579754,1.6754973547542302,0.052104326824870026,0.029969505109285054,-2.752394845125968,0.0342448039870148,2.7663679543071322,0.7691630533470046,-0.000333443010726703,-0.001187556567386512,-0.00022908538136841012,-0.0007585965568245452,-4.687850302361976e-05,0.000359644844792104,-0.000861100634669881,0.0,0.0,0.0,0.0,0.0,0.0,0.0,-0.00010434962155536631,-1.590930665033158e-05,-6.699284457526572e-05,-6.7184029832745296e-06,-6.728696755060881e-06,-4.76837158203125e-06,-1.4330810970797359e-05,0.000333443010726703,0.001187556567386512,0.00022908538136841012,0.0007585965568245452,4.687850302361976e-05,-0.000359644844792104,0.000861100634669881,0.3514034152030945,22.720483779907227,0.1253325641155243,-14.179414749145508,-0.12389141321182251,-2.1453890800476074,0.34457725286483765,0
74,0.3649775981903076,-0.3514034152030945,-22.772058486938477,-0.1253325641155243,14.155611038208008,0.11748272180557251,2.1453890800476074,-0.39950889348983765,0.0,0.0,0.0,0.0,0.0,0.0,0.0,-0.37360490331138435,0.02591439203115874,-0.21456109128502196,0.2760723253998757,-0.11288120332792902,-0.037792612527749354,-0.3709517611362573,1.6756017043757856,0.0521266476461932,0.030036471966303567,-2.752386456075878,0.03425224476059278,2.7663727226787143,0.7691824280414528,1.6754973547542302,0.052104326824870026,0.029969505109285054,-2.752394845125968,0.0342448039870148,2.7663679543071322,0.7691630533470046,-0.0007917721262914061,0.0005848811230326026,-0.0005074935715137911,-7.81818719987851e-05,0.0001807663574516408,0.009427763771370005,0.0012392596165304464,0.0,0.0,0.0,0.0,0.0,0.0,0.0,-0.00010434962155536631,-2.232082132317542e-05,-6.696685701851335e-05,-8.389050090151784e-06,-7.4407735779769e-06,-4.76837158203125e-06,-1.937469444812656e-05,0.0007917721262914061,-0.0005848811230326026,0.0005074935715137911,7.81818719987851e-05,-0.0001807663574516408,-0.009427763771370005,-0.0012392596165304464,0.3514034152030945,22.772058486938477,0.1253325641155243,-14.155611038208008,-0.11748272180557251,-2.1453890800476074,0.39950889348983765,0
75,0.3699820041656494,-0.3514034152030945,-22.772058486938477,-0.1253325641155243,14.155611038208008,0.11748272180557251,2.1453890800476074,-0.39950889348983765,0.0,0.0,0.0,0.0,0.0,0.0,0.0,-0.37360490331138435,0.02591439203115874,-0.21456109128502196,0.2760723253998757,-0.11288120332792902,-0.037792612527749354,-0.3709517611362573,1.6756017043757856,0.0521266476461932,0.030036471966303567,-2.752386456075878,0.03425224476059278,2.7663727226787143,0.7691824280414528,1.6754973547542302,0.052104326824870026,0.029969505109285054,-2.752394845125968,0.0342448039870148,2.7663679543071322,0.7691630533470046,-0.0007917721262914061,0.0005848811230326026,-0.0005074935715137911,-7.81818719987851e-05,0.0001807663574516408,0.009427763771370005,0.0012392596165304464,0.0,0.0,0.0,0.0,0.0,0.0,0.0,-0.00010434962155536631,-2.232082132317542e-05,-6.696685701851335e-05,-8.389050090151784e-06,-7.4407735779769e-06,-4.76837158203125e-06,-1.937469444812656e-05,0.0007917721262914061,-0.0005848811230326026,0.0005074935715137911,7.81818719987851e-05,-0.0001807663574516408,-0.009427763771370005,-0.0012392596165304464,0.3514034152030945,22.772058486938477,0.1253325641155243,-14.155611038208008,-0.11748272180557251,-2.1453890800476074,0.39950889348983765,0
76,0.3750035762786865,-0.3752071261405945,-22.795862197875977,-0.1491362750530243,14.179414749145508,0.12389141321182251,2.1453890800476074,-0.35831016302108765,0.0,0.0,0.0,0.0,0.0,0.0,0.0,-0.3700237974364295,0.02251580292147278,-0.2122399069879466,0.27875816573427736,-0.11246470636213123,-0.038156285144689,-0.36947743862569704,1.675603374811641,0.05212520738317922,0.03003814208124233,-2.7523881264067533,0.034251533170557784,2.7663727226787143,0.769177854759403,1.6754973547542302,0.052104326824870026,0.029969505109285054,-2.752394845125968,0.0342448039870148,2.7663679543071322,0.7691630533470046,5.435376431192165e-05,-0.00011425424267521209,0.0003893156890111471,-0.0006785232971010703,-0.0001447672461591436,0.0001765982063121872,-0.00010779664247277355,0.0,0.0,0.0,0.0,0.0,0.0,0.0,-0.0001060200574107828,-2.0880558309191444e-05,-6.863697195727547e-05,-6.718719214759972e-06,-6.729183542983352e-06,-4.76837158203125e-06,-1.4801412398401936e-05,-5.435376431192165e-05,0.00011425424267521209,-0.0003893156890111471,0.0006785232971010703,0.0001447672461591436,-0.0001765982063121872,0.00010779664247277355,0.3752071261405945,22.795862197875977,0.1491362750530243,-14.179414749145508,-0.12389141321182251,-2.1453890800476074,0.35831016302108765,0
77,0.3800203800201416,-0.3752071261405945,-22.795862197875977,-0.1491362750530243,14.179414749145508,0.12389141321182251,2.1453890800476074,-0.35831016302108765,0.0,0.0,0.0,0.0,0.0,0.0,0.0,-0.3700237974364295,0.02251580292147278,-0.2122399069879466,0.27875816573427736,-0.11246470636213123,-0.038156285144689,-0.36947743862569704,1.675603374811641,0.05212520738317922,0.03003814208124233,-2.7523881264067533,0.034251533170557784,2.7663727226787143,0.769177854759403,1.6754973547542302,0.052104326824870026,0.029969505109285054,-2.752394845125968,0.0342448039870148,2.7663679543071322,0.7691630533470046,5.435376431192165e-05,-0.00011425424267521209,0.0003893156890111471,-0.0006785232971010703,-0.0001447672461591436,0.0001765982063121872,-0.00010779664247277355,0.0,0.0,0.0,0.0,0.0,0.0,0.0,-0.0001060200574107828,-2.0880558309191444e-05,-6.863697195727547e-05,-6.718719214759972e-06,-6.729183542983352e-06,-4.76837158203125e-06,-1.4801412398401936e-05,-5.435376431192165e-05,0.00011425424267521209,-0.0003893156890111471,0.0006785232971010703,0.0001447672461591436,-0.0001765982063121872,0.00010779664247277355,0.3752071261405945,22.795862197875977,0.1491362750530243,-14.179414749145508,-0.12389141321182251,-2.1453890800476074,0.35831016302108765,0
78,0.38503122329711914,-0.3514034152030945,-22.795862197875977,-0.1253325641155243,14.155611038208008,0.1293845772743225,2.1389803886413574,-0.33725303411483765,0.0,0.0,0.0,0.0,0.0,0.0,0.0,-0.3701916621574235,0.04457435164409364,-0.21360192431450858,0.2410125475851962,-0.11271113381550324,-0.04406490179524254,-0.36811914258305767,1.6756017043757856,0.05212591705830183,0.030036790248235485,-2.752386455970898,0.03425092281899803,2.766373434755537,0.7691755107177873,1.6754973547542302,0.052104326824870026,0.029969505109285054,-2.752394845125968,0.0342448039870148,2.7663679543071322,0.7691630533470046,-0.00045701655481745893,0.0001385523839752936,-0.0003186441302739951,0.0019193735435014477,-0.00017974842066974833,0.0003217230317607898,-0.0008944723177560095,0.0,0.0,0.0,0.0,0.0,0.0,0.0,-0.00010434962155536631,-2.159023343180355e-05,-6.728513895043128e-05,-8.389155070176457e-06,-6.1188319832317095e-06,-5.480448404870941e-06,-1.2457370782703592e-05,0.00045701655481745893,-0.0001385523839752936,0.0003186441302739951,-0.0019193735435014477,0.00017974842066974833,-0.0003217230317607898,0.0008944723177560095,0.3514034152030945,22.795862197875977,0.1253325641155243,-14.155611038208008,-0.1293845772743225,-2.1389803886413574,0.33725303411483765,0
79,0.3899991512298584,-0.3514034152030945,-22.795862197875977,-0.1253325641155243,14.155611038208008,0.1293845772743225,2.1389803886413574,-0.33725303411483765,0.0,0.0,0.0,0.0,0.0,0.0,0.0,-0.3701916621574235,0.04457435164409364,-0.21360192431450858,0.2410125475851962,-0.11271113381550324,-0.04406490179524254,-0.36811914258305767,1.6756017043757856,0.05212591705830183,0.030036790248235485,-2.752386455970898,0.03425092281899803,2.766373434755537,0.7691755107177873,1.6754973547542302,0.052104326824870026,0.029969505109285054,-2.752394845125968,0.0342448039870148,2.7663679543071322,0.7691630533470046,-0.00045701655481745893,0.0001385523839752936,-0.0003186441302739951,0.0019193735435014477,-0.00017974842066974833,0.0003217230317607898,-0.0008944723177560095,0.0,0.0,0.0,0.0,0.0,0.0,0.0,-0.00010434962155536631,-2.159023343180355e-05,-6.728513895043128e-05,-8.389155070176457e-06,-6.1188319832317095e-06,-5.480448404870941e-06,-1.2457370782703592e-05,0.00045701655481745893,-0.0001385523839752936,0.0003186441302739951,-0.0019193735435014477,0.00017974842066974833,-0.0003217230317607898,0.0008944723177560095,0.3514034152030945,22.795862197875977,0.1253325641155243,-14.155611038208008,-0.1293845772743225,-2.1389803886413574,0.33725303411483765,0
