rezayati/contactInterpretation/dataset/franka_main/labeled_data/link4/d8_3.csv
index,time,tau_J0,tau_J1,tau_J2,tau_J3,tau_J4,tau_J5,tau_J6,tau_J_d0,tau_J_d1,tau_J_d2,tau_J_d3,tau_J_d4,tau_J_d5,tau_J_d6,tau_ext0,tau_ext1,tau_ext2,tau_ext3,tau_ext4,tau_ext5,tau_ext6,q0,q1,q2,q3,q4,q5,q6,q_d0,q_d1,q_d2,q_d3,q_d4,q_d5,q_d6,dq0,dq1,dq2,dq3,dq4,dq5,dq6,dq_d0,dq_d1,dq_d2,dq_d3,dq_d4,dq_d5,dq_d6,e0,e1,e2,e3,e4,e5,e6,de0,de1,de2,de3,de4,de5,de6,etau_J0,etau_J1,etau_J2,etau_J3,etau_J4,etau_J5,etau_J6,label
1,0.0,-0.5537349581718445,-34.13833236694336,-3.7990386486053467,19.459871292114258,0.2429099678993225,1.796573281288147,-0.13217489421367645,0.0,0.0,0.0,0.0,0.0,0.0,0.0,-0.5225871437215608,-0.07987967163163093,-0.25950518214531937,0.45447351034527156,0.19900367574675154,-0.12182611213366291,-0.12222236471577003,1.0544781648527113,0.3242823908289828,-0.39239063408037167,-2.1534962087932388,0.8647467404385255,2.465938266793887,0.5444926720883864,1.0544104758940245,0.3238615046091247,-0.39250456234122666,-2.153291787532338,0.8647539153680389,2.46587817577521,0.5445020185570556,0.0010336370315160027,-0.0001627049114913157,-0.000358973210052877,0.0007426571456004172,0.00023215146327136858,-0.0004953286037477496,0.0005346837923612876,0.0,0.0,0.0,0.0,0.0,0.0,0.0,-6.76889586868068e-05,-0.0004208862198580854,-0.00011392826085498964,0.00020442126090092216,7.174929513409367e-06,-6.009101867698874e-05,9.346468669235719e-06,-0.0010336370315160027,0.0001627049114913157,0.000358973210052877,-0.0007426571456004172,-0.00023215146327136858,0.0004953286037477496,-0.0005346837923612876,0.5537349581718445,34.13833236694336,3.7990386486053467,-19.459871292114258,-0.2429099678993225,-1.796573281288147,0.13217489421367645,0
2,0.004992008209228516,-0.5299312472343445,-34.13833236694336,-3.8506133556365967,19.459871292114258,0.2429099678993225,1.783755898475647,-0.09097616374492645,0.0,0.0,0.0,0.0,0.0,0.0,0.0,-0.5323931190418714,-0.08327533282372297,-0.265005397288694,0.45733061793794544,0.1984551681562007,-0.1202908359961415,-0.12246992135551045,1.0544764944168559,0.3242823907199665,-0.39238709566720215,-2.1534962087932388,0.8647498015994006,2.4659396909475326,0.5444870347953717,1.0544104758940245,0.3238615046091247,-0.39250456234122666,-2.153291787532338,0.8647539153680389,2.46587817577521,0.5445020185570556,0.00017596782051638622,-0.0002661755254678318,0.0003022289637372745,0.000533858758701645,0.0003652098189692539,-0.00015762699997822665,-0.0017348756829427818,0.0,0.0,0.0,0.0,0.0,0.0,0.0,-6.601852283139031e-05,-0.0004208861108417894,-0.00011746667402451338,0.00020442126090092216,4.113768638291937e-06,-6.151517232266812e-05,1.4983761683851071e-05,-0.00017596782051638622,0.0002661755254678318,-0.0003022289637372745,-0.000533858758701645,-0.0003652098189692539,0.00015762699997822665,0.0017348756829427818,0.5299312472343445,34.13833236694336,3.8506133556365967,-19.459871292114258,-0.2429099678993225,-1.783755898475647,0.09097616374492645,0
3,0.009990453720092773,-0.5299312472343445,-34.13833236694336,-3.8506133556365967,19.459871292114258,0.2429099678993225,1.783755898475647,-0.09097616374492645,0.0,0.0,0.0,0.0,0.0,0.0,0.0,-0.5323931190418714,-0.08327533282372297,-0.265005397288694,0.45733061793794544,0.1984551681562007,-0.1202908359961415,-0.12246992135551045,1.0544764944168559,0.3242823907199665,-0.39238709566720215,-2.1534962087932388,0.8647498015994006,2.4659396909475326,0.5444870347953717,1.0544104758940245,0.3238615046091247,-0.39250456234122666,-2.153291787532338,0.8647539153680389,2.46587817577521,0.5445020185570556,0.00017596782051638622,-0.0002661755254678318,0.0003022289637372745,0.000533858758701645,0.0003652098189692539,-0.00015762699997822665,-0.0017348756829427818,0.0,0.0,0.0,0.0,0.0,0.0,0.0,-6.601852283139031e-05,-0.0004208861108417894,-0.00011746667402451338,0.00020442126090092216,4.113768638291937e-06,-6.151517232266812e-05,1.4983761683851071e-05,-0.00017596782051638622,0.0002661755254678318,-0.0003022289637372745,-0.000533858758701645,-0.0003652098189692539,0.00015762699997822665,0.0017348756829427818,0.5299312472343445,34.13833236694336,3.8506133556365967,-19.459871292114258,-0.2429099678993225,-1.783755898475647,0.09097616374492645,0
4,0.014990568161010742,-0.5299312472343445,-34.13833236694336,-3.8228423595428467,19.511445999145508,0.2484031319618225,1.783755898475647,-0.13858358561992645,0.0,0.0,0.0,0.0,0.0,0.0,0.0,-0.5319802390651721,-0.0739376962311681,-0.26384580962460724,0.4518932636101713,0.1982132030859889,-0.1208497061512816,-0.12216098304783551,1.0544757758906305,0.32428239955028365,-0.3923892785485758,-2.153499828070925,0.8647493094872052,2.4659396909475326,0.5444923249874485,1.0544104758940245,0.3238615046091247,-0.39250456234122666,-2.153291787532338,0.8647539153680389,2.46587817577521,0.5445020185570556,-0.00037603996393096895,-1.2406336821764586e-05,-7.472180556104364e-05,-0.0006605678248478346,0.00011664329125980752,-0.00022657149918939128,0.0005550258305206966,0.0,0.0,0.0,0.0,0.0,0.0,0.0,-6.529999660598307e-05,-0.00042089494115893356,-0.00011528379265085542,0.00020804053858736182,4.605880833730147e-06,-6.151517232266812e-05,9.693569607116537e-06,0.00037603996393096895,1.2406336821764586e-05,7.472180556104364e-05,0.0006605678248478346,-0.00011664329125980752,0.00022657149918939128,-0.0005550258305206966,0.5299312472343445,34.13833236694336,3.8228423595428467,-19.511445999145508,-0.2484031319618225,-1.783755898475647,0.13858358561992645,0
5,0.01999354362487793,-0.5299312472343445,-34.13833236694336,-3.8228423595428467,19.511445999145508,0.2484031319618225,1.783755898475647,-0.13858358561992645,0.0,0.0,0.0,0.0,0.0,0.0,0.0,-0.5319802390651721,-0.0739376962311681,-0.26384580962460724,0.4518932636101713,0.1982132030859889,-0.1208497061512816,-0.12216098304783551,1.0544757758906305,0.32428239955028365,-0.3923892785485758,-2.153499828070925,0.8647493094872052,2.4659396909475326,0.5444923249874485,1.0544104758940245,0.3238615046091247,-0.39250456234122666,-2.153291787532338,0.8647539153680389,2.46587817577521,0.5445020185570556,-0.00037603996393096895,-1.2406336821764586e-05,-7.472180556104364e-05,-0.0006605678248478346,0.00011664329125980752,-0.00022657149918939128,0.0005550258305206966,0.0,0.0,0.0,0.0,0.0,0.0,0.0,-6.529999660598307e-05,-0.00042089494115893356,-0.00011528379265085542,0.00020804053858736182,4.605880833730147e-06,-6.151517232266812e-05,9.693569607116537e-06,0.00037603996393096895,1.2406336821764586e-05,7.472180556104364e-05,0.0006605678248478346,-0.00011664329125980752,0.00022657149918939128,-0.0005550258305206966,0.5299312472343445,34.13833236694336,3.8228423595428467,-19.511445999145508,-0.2484031319618225,-1.783755898475647,0.13858358561992645,0
6,0.02500295639038086,-0.5299312472343445,-34.18990707397461,-3.8228423595428467,19.459871292114258,0.2548118233680725,1.770938515663147,-0.15964071452617645,0.0,0.0,0.0,0.0,0.0,0.0,0.0,-0.5288854042330511,-0.09023951338172916,-0.2615423683377059,0.4620772359869125,0.19772508017414164,-0.11978818082228011,-0.12217973939919911,1.0544764914693605,0.32428600999770213,-0.39238904411848696,-2.1534962087932388,0.8647485969265329,2.4659411151011783,0.5444946641839239,1.0544104758940245,0.3238615046091247,-0.39250456234122666,-2.153291787532338,0.8647539153680389,2.46587817577521,0.5445020185570556,1.951591893505769e-05,0.0005947407712535251,-5.3179610057122156e-05,0.0006215587503210425,-0.00013727466936840074,0.0006335213758905587,0.0016781754528011467,0.0,0.0,0.0,0.0,0.0,0.0,0.0,-6.601557533603142e-05,-0.00042450538857741194,-0.0001155182227396967,0.00020442126090092216,5.318441505974825e-06,-6.29393259683475e-05,7.35437313170717e-06,-1.951591893505769e-05,-0.0005947407712535251,5.3179610057122156e-05,-0.0006215587503210425,0.00013727466936840074,-0.0006335213758905587,-0.0016781754528011467,0.5299312472343445,34.18990707397461,3.8228423595428467,-19.459871292114258,-0.2548118233680725,-1.770938515663147,0.15964071452617645,0
7,0.029999494552612305,-0.5299312472343445,-34.18990707397461,-3.8228423595428467,19.459871292114258,0.2548118233680725,1.770938515663147,-0.15964071452617645,0.0,0.0,0.0,0.0,0.0,0.0,0.0,-0.5288854042330511,-0.09023951338172916,-0.2615423683377059,0.4620772359869125,0.19772508017414164,-0.11978818082228011,-0.12217973939919911,1.0544764914693605,0.32428600999770213,-0.39238904411848696,-2.1534962087932388,0.8647485969265329,2.4659411151011783,0.5444946641839239,1.0544104758940245,0.3238615046091247,-0.39250456234122666,-2.153291787532338,0.8647539153680389,2.46587817577521,0.5445020185570556,1.951591893505769e-05,0.0005947407712535251,-5.3179610057122156e-05,0.0006215587503210425,-0.00013727466936840074,0.0006335213758905587,0.0016781754528011467,0.0,0.0,0.0,0.0,0.0,0.0,0.0,-6.601557533603142e-05,-0.00042450538857741194,-0.0001155182227396967,0.00020442126090092216,5.318441505974825e-06,-6.29393259683475e-05,7.35437313170717e-06,-1.951591893505769e-05,-0.0005947407712535251,5.3179610057122156e-05,-0.0006215587503210425,0.00013727466936840074,-0.0006335213758905587,-0.0016781754528011467,0.5299312472343445,34.18990707397461,3.8228423595428467,-19.459871292114258,-0.2548118233680725,-1.770938515663147,0.15964071452617645,0
8,0.034998416900634766,-0.5021602511405945,-34.16213607788086,-3.7990386486053467,19.459871292114258,0.2484031319618225,1.790164589881897,-0.09097616374492645,0.0,0.0,0.0,0.0,0.0,0.0,0.0,-0.5145724775286029,-0.07576936584922671,-0.2467418857906959,0.45066581122237487,0.19689232821892447,-0.1232794610575426,-0.12366193550634605,1.0544745455750082,0.32428620692303306,-0.39239094862777074,-2.1534962087932388,0.8647482493652238,2.46593897887071,0.5444870741967521,1.0544104758940245,0.3238615046091247,-0.39250456234122666,-2.153291787532338,0.8647539153680389,2.46587817577521,0.5445020185570556,-0.00044959741345684324,-0.00031263090760967014,-0.00023949951269132584,-0.0001336146762755239,-0.0001207526015908388,0.0050929962408992405,-0.0016755056404103815,0.0,0.0,0.0,0.0,0.0,0.0,0.0,-6.40696809837138e-05,-0.0004247023139083428,-0.00011361371345591786,0.00020442126090092216,5.666002815152282e-06,-6.080309549982843e-05,1.4944360303470461e-05,0.00044959741345684324,0.00031263090760967014,0.00023949951269132584,0.0001336146762755239,0.0001207526015908388,-0.0050929962408992405,0.0016755056404103815,0.5021602511405945,34.16213607788086,3.7990386486053467,-19.459871292114258,-0.2484031319618225,-1.790164589881897,0.09097616374492645,0
9,0.03998851776123047,-0.5021602511405945,-34.16213607788086,-3.7990386486053467,19.459871292114258,0.2484031319618225,1.790164589881897,-0.09097616374492645,0.0,0.0,0.0,0.0,0.0,0.0,0.0,-0.5145724775286029,-0.07576936584922671,-0.2467418857906959,0.45066581122237487,0.19689232821892447,-0.1232794610575426,-0.12366193550634605,1.0544745455750082,0.32428620692303306,-0.39239094862777074,-2.1534962087932388,0.8647482493652238,2.46593897887071,0.5444870741967521,1.0544104758940245,0.3238615046091247,-0.39250456234122666,-2.153291787532338,0.8647539153680389,2.46587817577521,0.5445020185570556,-0.00044959741345684324,-0.00031263090760967014,-0.00023949951269132584,-0.0001336146762755239,-0.0001207526015908388,0.0050929962408992405,-0.0016755056404103815,0.0,0.0,0.0,0.0,0.0,0.0,0.0,-6.40696809837138e-05,-0.0004247023139083428,-0.00011361371345591786,0.00020442126090092216,5.666002815152282e-06,-6.080309549982843e-05,1.4944360303470461e-05,0.00044959741345684324,0.00031263090760967014,0.00023949951269132584,0.0001336146762755239,0.0001207526015908388,-0.0050929962408992405,0.0016755056404103815,0.5021602511405945,34.16213607788086,3.7990386486053467,-19.459871292114258,-0.2484031319618225,-1.790164589881897,0.09097616374492645,0
10,0.04499244689941406,-0.5299312472343445,-34.16213607788086,-3.8506133556365967,19.535249710083008,0.2429099678993225,1.802981972694397,-0.09097616374492645,0.0,0.0,0.0,0.0,0.0,0.0,0.0,-0.5179313375738039,-0.08067163166364556,-0.24991554854913095,0.4536425468406815,0.1961372316183124,-0.12255419351199216,-0.12554283827968937,1.0544754612696798,0.32428414164616604,-0.3923866275908017,-2.15350149850678,0.8647499193369705,2.465937554717064,0.544490252950302,1.0544104758940245,0.3238615046091247,-0.39250456234122666,-2.153291787532338,0.8647539153680389,2.46587817577521,0.5445020185570556,0.0005706798869908149,-7.857679505330874e-05,0.0008921405429259485,-0.00144889754131767,-1.4996943078675244e-06,-0.00034791046867405095,-0.0016425301974181228,0.0,0.0,0.0,0.0,0.0,0.0,0.0,-6.498537565535756e-05,-0.00042263703704131794,-0.00011793475042498613,0.00020971097444233422,3.996031068376205e-06,-5.937894185414905e-05,1.1765606753644242e-05,-0.0005706798869908149,7.857679505330874e-05,-0.0008921405429259485,0.00144889754131767,1.4996943078675244e-06,0.00034791046867405095,0.0016425301974181228,0.5299312472343445,34.16213607788086,3.8506133556365967,-19.535249710083008,-0.2429099678993225,-1.802981972694397,0.09097616374492645,0
11,0.049990177154541016,-0.5299312472343445,-34.16213607788086,-3.8506133556365967,19.535249710083008,0.2429099678993225,1.802981972694397,-0.09097616374492645,0.0,0.0,0.0,0.0,0.0,0.0,0.0,-0.5179313375738039,-0.08067163166364556,-0.24991554854913095,0.4536425468406815,0.1961372316183124,-0.12255419351199216,-0.12554283827968937,1.0544754612696798,0.32428414164616604,-0.3923866275908017,-2.15350149850678,0.8647499193369705,2.465937554717064,0.544490252950302,1.0544104758940245,0.3238615046091247,-0.39250456234122666,-2.153291787532338,0.8647539153680389,2.46587817577521,0.5445020185570556,0.0005706798869908149,-7.857679505330874e-05,0.0008921405429259485,-0.00144889754131767,-1.4996943078675244e-06,-0.00034791046867405095,-0.0016425301974181228,0.0,0.0,0.0,0.0,0.0,0.0,0.0,-6.498537565535756e-05,-0.00042263703704131794,-0.00011793475042498613,0.00020971097444233422,3.996031068376205e-06,-5.937894185414905e-05,1.1765606753644242e-05,-0.0005706798869908149,7.857679505330874e-05,-0.0008921405429259485,0.00144889754131767,1.4996943078675244e-06,0.00034791046867405095,0.0016425301974181228,0.5299312472343445,34.16213607788086,3.8506133556365967,-19.535249710083008,-0.2429099678993225,-1.802981972694397,0.09097616374492645,0
12,0.054995059967041016,-0.5299312472343445,-34.16213607788086,-3.8506133556365967,19.535249710083008,0.2429099678993225,1.802981972694397,-0.09097616374492645,0.0,0.0,0.0,0.0,0.0,0.0,0.0,-0.5179313375738039,-0.08067163166364556,-0.24991554854913095,0.4536425468406815,0.1961372316183124,-0.12255419351199216,-0.12554283827968937,1.0544754612696798,0.32428414164616604,-0.3923866275908017,-2.15350149850678,0.8647499193369705,2.465937554717064,0.544490252950302,1.0544104758940245,0.3238615046091247,-0.39250456234122666,-2.153291787532338,0.8647539153680389,2.46587817577521,0.5445020185570556,0.0005706798869908149,-7.857679505330874e-05,0.0008921405429259485,-0.00144889754131767,-1.4996943078675244e-06,-0.00034791046867405095,-0.0016425301974181228,0.0,0.0,0.0,0.0,0.0,0.0,0.0,-6.498537565535756e-05,-0.00042263703704131794,-0.00011793475042498613,0.00020971097444233422,3.996031068376205e-06,-5.937894185414905e-05,1.1765606753644242e-05,-0.0005706798869908149,7.857679505330874e-05,-0.0008921405429259485,0.00144889754131767,1.4996943078675244e-06,0.00034791046867405095,0.0016425301974181228,0.5299312472343445,34.16213607788086,3.8506133556365967,-19.535249710083008,-0.2429099678993225,-1.802981972694397,0.09097616374492645,0
13,0.06001567840576172,-0.5299312472343445,-34.16213607788086,-3.8506133556365967,19.535249710083008,0.2429099678993225,1.802981972694397,-0.09097616374492645,0.0,0.0,0.0,0.0,0.0,0.0,0.0,-0.5179313375738039,-0.08067163166364556,-0.24991554854913095,0.4536425468406815,0.1961372316183124,-0.12255419351199216,-0.12554283827968937,1.0544754612696798,0.32428414164616604,-0.3923866275908017,-2.15350149850678,0.8647499193369705,2.465937554717064,0.544490252950302,1.0544104758940245,0.3238615046091247,-0.39250456234122666,-2.153291787532338,0.8647539153680389,2.46587817577521,0.5445020185570556,0.0005706798869908149,-7.857679505330874e-05,0.0008921405429259485,-0.00144889754131767,-1.4996943078675244e-06,-0.00034791046867405095,-0.0016425301974181228,0.0,0.0,0.0,0.0,0.0,0.0,0.0,-6.498537565535756e-05,-0.00042263703704131794,-0.00011793475042498613,0.00020971097444233422,3.996031068376205e-06,-5.937894185414905e-05,1.1765606753644242e-05,-0.0005706798869908149,7.857679505330874e-05,-0.0008921405429259485,0.00144889754131767,1.4996943078675244e-06,0.00034791046867405095,0.0016425301974181228,0.5299312472343445,34.16213607788086,3.8506133556365967,-19.535249710083008,-0.2429099678993225,-1.802981972694397,0.09097616374492645,0
14,0.06499481201171875,-0.5299312472343445,-34.16213607788086,-3.8506133556365967,19.535249710083008,0.2429099678993225,1.802981972694397,-0.09097616374492645,0.0,0.0,0.0,0.0,0.0,0.0,0.0,-0.5179313375738039,-0.08067163166364556,-0.24991554854913095,0.4536425468406815,0.1961372316183124,-0.12255419351199216,-0.12554283827968937,1.0544754612696798,0.32428414164616604,-0.3923866275908017,-2.15350149850678,0.8647499193369705,2.465937554717064,0.544490252950302,1.0544104758940245,0.3238615046091247,-0.39250456234122666,-2.153291787532338,0.8647539153680389,2.46587817577521,0.5445020185570556,0.0005706798869908149,-7.857679505330874e-05,0.0008921405429259485,-0.00144889754131767,-1.4996943078675244e-06,-0.00034791046867405095,-0.0016425301974181228,0.0,0.0,0.0,0.0,0.0,0.0,0.0,-6.498537565535756e-05,-0.00042263703704131794,-0.00011793475042498613,0.00020971097444233422,3.996031068376205e-06,-5.937894185414905e-05,1.1765606753644242e-05,-0.0005706798869908149,7.857679505330874e-05,-0.0008921405429259485,0.00144889754131767,1.4996943078675244e-06,0.00034791046867405095,0.0016425301974181228,0.5299312472343445,34.16213607788086,3.8506133556365967,-19.535249710083008,-0.2429099678993225,-1.802981972694397,0.09097616374492645,0
15,0.0699472427368164,-0.5299312472343445,-34.16213607788086,-3.8228423595428467,19.459871292114258,0.2429099678993225,1.790164589881897,-0.13858358561992645,0.0,0.0,0.0,0.0,0.0,0.0,0.0,-0.5253675988273657,-0.0843003055186381,-0.2584609206008036,0.45706233741114644,0.19551286579935193,-0.11951966200140506,-0.1259599620733542,1.0544764914727687,0.3242840611558716,-0.3923892525451137,-2.1534962088255396,0.8647499193549156,2.46593897887071,0.5444926791891552,1.0544104758940245,0.3238615046091247,-0.39250456234122666,-2.153291787532338,0.8647539153680389,2.46587817577521,0.5445020185570556,-0.00034131000033460517,0.00013518811925563258,8.979042566723958e-05,0.0006565134313480022,0.0003401999045208052,0.0001191745242425257,0.0005800721606690849,0.0,0.0,0.0,0.0,0.0,0.0,0.0,-6.601557874419406e-05,-0.00042255654674688836,-0.00011530979611296122,0.00020442129320175084,3.996013123286346e-06,-6.080309549982843e-05,9.33936790037393e-06,0.00034131000033460517,-0.00013518811925563258,-8.979042566723958e-05,-0.0006565134313480022,-0.0003401999045208052,-0.0001191745242425257,-0.0005800721606690849,0.5299312472343445,34.16213607788086,3.8228423595428467,-19.459871292114258,-0.2429099678993225,-1.790164589881897,0.13858358561992645,0
16,0.07539868354797363,-0.5299312472343445,-34.16213607788086,-3.8228423595428467,19.459871292114258,0.2429099678993225,1.790164589881897,-0.13858358561992645,0.0,0.0,0.0,0.0,0.0,0.0,0.0,-0.5253675988273657,-0.0843003055186381,-0.2584609206008036,0.45706233741114644,0.19551286579935193,-0.11951966200140506,-0.1259599620733542,1.0544764914727687,0.3242840611558716,-0.3923892525451137,-2.1534962088255396,0.8647499193549156,2.46593897887071,0.5444926791891552,1.0544104758940245,0.3238615046091247,-0.39250456234122666,-2.153291787532338,0.8647539153680389,2.46587817577521,0.5445020185570556,-0.00034131000033460517,0.00013518811925563258,8.979042566723958e-05,0.0006565134313480022,0.0003401999045208052,0.0001191745242425257,0.0005800721606690849,0.0,0.0,0.0,0.0,0.0,0.0,0.0,-6.601557874419406e-05,-0.00042255654674688836,-0.00011530979611296122,0.00020442129320175084,3.996013123286346e-06,-6.080309549982843e-05,9.33936790037393e-06,0.00034131000033460517,-0.00013518811925563258,-8.979042566723958e-05,-0.0006565134313480022,-0.0003401999045208052,-0.0001191745242425257,-0.0005800721606690849,0.5299312472343445,34.16213607788086,3.8228423595428467,-19.459871292114258,-0.2429099678993225,-1.790164589881897,0.13858358561992645,0
17,0.08001303672790527,-0.5021602511405945,-34.16213607788086,-3.7990386486053467,19.511445999145508,0.2603049874305725,1.783755898475647,-0.15231649577617645,0.0,0.0,0.0,0.0,0.0,0.0,0.0,-0.5214174974071605,-0.08679689468875573,-0.2519356732768963,0.4595845223627551,0.19516602986487347,-0.11921978003416374,-0.1258917799784054,1.0544745455750082,0.32428406115582115,-0.39239094031881216,-2.153499828070925,0.864747868622057,2.465939690893697,0.5444943605799765,1.0544104758940245,0.3238615046091247,-0.39250456234122666,-2.153291787532338,0.8647539153680389,2.46587817577521,0.5445020185570556,-0.00046238763770210166,0.000268299685041601,-0.0005183695676460256,-0.0008229005602314011,-0.00034766847220410956,0.00021484953063424342,0.0010765444735319177,0.0,0.0,0.0,0.0,0.0,0.0,0.0,-6.40696809837138e-05,-0.0004225565466964287,-0.0001136220224144946,0.00020804053858736182,6.046745981924673e-06,-6.151511848706548e-05,7.65797707913407e-06,0.00046238763770210166,-0.000268299685041601,0.0005183695676460256,0.0008229005602314011,0.00034766847220410956,-0.00021484953063424342,-0.0010765444735319177,0.5021602511405945,34.16213607788086,3.7990386486053467,-19.511445999145508,-0.2603049874305725,-1.783755898475647,0.15231649577617645,0
18,0.08504128456115723,-0.5021602511405945,-34.16213607788086,-3.7990386486053467,19.511445999145508,0.2603049874305725,1.783755898475647,-0.15231649577617645,0.0,0.0,0.0,0.0,0.0,0.0,0.0,-0.5214174974071605,-0.08679689468875573,-0.2519356732768963,0.4595845223627551,0.19516602986487347,-0.11921978003416374,-0.1258917799784054,1.0544745455750082,0.32428406115582115,-0.39239094031881216,-2.153499828070925,0.864747868622057,2.465939690893697,0.5444943605799765,1.0544104758940245,0.3238615046091247,-0.39250456234122666,-2.153291787532338,0.8647539153680389,2.46587817577521,0.5445020185570556,-0.00046238763770210166,0.000268299685041601,-0.0005183695676460256,-0.0008229005602314011,-0.00034766847220410956,0.00021484953063424342,0.0010765444735319177,0.0,0.0,0.0,0.0,0.0,0.0,0.0,-6.40696809837138e-05,-0.0004225565466964287,-0.0001136220224144946,0.00020804053858736182,6.046745981924673e-06,-6.151511848706548e-05,7.65797707913407e-06,0.00046238763770210166,-0.000268299685041601,0.0005183695676460256,0.0008229005602314011,0.00034766847220410956,-0.00021484953063424342,-0.0010765444735319177,0.5021602511405945,34.16213607788086,3.7990386486053467,-19.511445999145508,-0.2603049874305725,-1.783755898475647,0.15231649577617645,0
19,0.0899960994720459,-0.5299312472343445,-34.18990707397461,-3.8228423595428467,19.459871292114258,0.2484031319618225,1.783755898475647,-0.09097616374492645,0.0,0.0,0.0,0.0,0.0,0.0,0.0,-0.5299842627279662,-0.08894176531193389,-0.25978924764840833,0.4589333114022679,0.19630820031933305,-0.11913121232226162,-0.12484442599702542,1.0544743221586907,0.32428601003399105,-0.3923871638522727,-2.1534962087932388,0.864749308948852,2.465939690947532,0.5444871937137635,1.0544104758940245,0.3238615046091247,-0.39250456234122666,-2.153291787532338,0.8647539153680389,2.46587817577521,0.5445020185570556,0.00030222623937764764,0.0006667659540738137,0.00017093581645618376,0.00025724206202862906,0.0001152328748124142,-0.00015405002690741106,-0.0009052302054562992,0.0,0.0,0.0,0.0,0.0,0.0,0.0,-6.384626466626742e-05,-0.00042450542486632825,-0.0001173984889539792,0.00020442126090092216,4.606419186869992e-06,-6.151517232222403e-05,1.4824843292071677e-05,-0.00030222623937764764,-0.0006667659540738137,-0.00017093581645618376,-0.00025724206202862906,-0.0001152328748124142,0.00015405002690741106,0.0009052302054562992,0.5299312472343445,34.18990707397461,3.8228423595428467,-19.459871292114258,-0.2484031319618225,-1.783755898475647,0.09097616374492645,0
20,0.09499001502990723,-0.5299312472343445,-34.18990707397461,-3.8228423595428467,19.459871292114258,0.2484031319618225,1.783755898475647,-0.09097616374492645,0.0,0.0,0.0,0.0,0.0,0.0,0.0,-0.5299842627279662,-0.08894176531193389,-0.25978924764840833,0.4589333114022679,0.19630820031933305,-0.11913121232226162,-0.12484442599702542,1.0544743221586907,0.32428601003399105,-0.3923871638522727,-2.1534962087932388,0.864749308948852,2.465939690947532,0.5444871937137635,1.0544104758940245,0.3238615046091247,-0.39250456234122666,-2.153291787532338,0.8647539153680389,2.46587817577521,0.5445020185570556,0.00030222623937764764,0.0006667659540738137,0.00017093581645618376,0.00025724206202862906,0.0001152328748124142,-0.00015405002690741106,-0.0009052302054562992,0.0,0.0,0.0,0.0,0.0,0.0,0.0,-6.384626466626742e-05,-0.00042450542486632825,-0.0001173984889539792,0.00020442126090092216,4.606419186869992e-06,-6.151517232222403e-05,1.4824843292071677e-05,-0.00030222623937764764,-0.0006667659540738137,-0.00017093581645618376,-0.00025724206202862906,-0.0001152328748124142,0.00015405002690741106,0.0009052302054562992,0.5299312472343445,34.18990707397461,3.8228423595428467,-19.459871292114258,-0.2484031319618225,-1.783755898475647,0.09097616374492645,0
21,0.09995007514953613,-0.4505855441093445,-34.13833236694336,-3.8228423595428467,19.459871292114258,0.2429099678993225,1.783755898475647,-0.10470907390117645,0.0,0.0,0.0,0.0,0.0,0.0,0.0,-0.5171040417855144,-0.08581768753293756,-0.24816282690716002,0.45763272818801776,0.19605572280911318,-0.1208121782156165,-0.12345775156679863,1.0544709174184195,0.3242823910470149,-0.39238925253757945,-2.1534962087932388,0.8647499193549153,2.465939690947532,0.5444885611537101,1.0544104758940245,0.3238615046091247,-0.39250456234122666,-2.153291787532338,0.8647539153680389,2.46587817577521,0.5445020185570556,-0.00127752674335569,-0.00028417403612774055,0.0002781960589136378,0.0001621592024007392,0.00028714282540307385,-1.4756165965520007e-05,-0.0009093230550865684,0.0,0.0,0.0,0.0,0.0,0.0,0.0,-6.044152439499406e-05,-0.00042088643789017777,-0.00011530980364721222,0.00020442126090092216,3.996013123619413e-06,-6.151517232222403e-05,1.3457403345462637e-05,0.00127752674335569,0.00028417403612774055,-0.0002781960589136378,-0.0001621592024007392,-0.00028714282540307385,1.4756165965520007e-05,0.0009093230550865684,0.4505855441093445,34.13833236694336,3.8228423595428467,-19.459871292114258,-0.2429099678993225,-1.783755898475647,0.10470907390117645,0
22,0.10499000549316406,-0.4505855441093445,-34.13833236694336,-3.8228423595428467,19.459871292114258,0.2429099678993225,1.783755898475647,-0.10470907390117645,0.0,0.0,0.0,0.0,0.0,0.0,0.0,-0.5171040417855144,-0.08581768753293756,-0.24816282690716002,0.45763272818801776,0.19605572280911318,-0.1208121782156165,-0.12345775156679863,1.0544709174184195,0.3242823910470149,-0.39238925253757945,-2.1534962087932388,0.8647499193549153,2.465939690947532,0.5444885611537101,1.0544104758940245,0.3238615046091247,-0.39250456234122666,-2.153291787532338,0.8647539153680389,2.46587817577521,0.5445020185570556,-0.00127752674335569,-0.00028417403612774055,0.0002781960589136378,0.0001621592024007392,0.00028714282540307385,-1.4756165965520007e-05,-0.0009093230550865684,0.0,0.0,0.0,0.0,0.0,0.0,0.0,-6.044152439499406e-05,-0.00042088643789017777,-0.00011530980364721222,0.00020442126090092216,3.996013123619413e-06,-6.151517232222403e-05,1.3457403345462637e-05,0.00127752674335569,0.00028417403612774055,-0.0002781960589136378,-0.0001621592024007392,-0.00028714282540307385,1.4756165965520007e-05,0.0009093230550865684,0.4505855441093445,34.13833236694336,3.8228423595428467,-19.459871292114258,-0.2429099678993225,-1.783755898475647,0.10470907390117645,0
23,0.10999059677124023,-0.5021602511405945,-34.16213607788086,-3.8506133556365967,19.487642288208008,0.2429099678993225,1.777347207069397,-0.13858358561992645,0.0,0.0,0.0,0.0,0.0,0.0,0.0,-0.5218331220350719,-0.08492207255542983,-0.25649713163551,0.4568652166061497,0.1966033281855617,-0.12076042862819121,-0.12336874465939063,1.0544745455749747,0.324284061155823,-0.3923852233561446,-2.15349815763507,0.8647499193549156,2.465940403024355,0.5444923642333078,1.0544104758940245,0.3238615046091247,-0.39250456234122666,-2.153291787532338,0.8647539153680389,2.46587817577521,0.5445020185570556,1.047997221545116e-05,-3.141873020806023e-05,0.0009720681461365089,-0.000319352904576009,0.00016257996031761096,0.00020543277422443786,0.0011731001275621107,0.0,0.0,0.0,0.0,0.0,0.0,0.0,-6.406968095018506e-05,-0.0004225565466982606,-0.00011933898508204033,0.00020637010273194534,3.996013123286346e-06,-6.222724914506372e-05,9.654323747776417e-06,-1.047997221545116e-05,3.141873020806023e-05,-0.0009720681461365089,0.000319352904576009,-0.00016257996031761096,-0.00020543277422443786,-0.0011731001275621107,0.5021602511405945,34.16213607788086,3.8506133556365967,-19.487642288208008,-0.2429099678993225,-1.777347207069397,0.13858358561992645,0
24,0.1150062084197998,-0.5021602511405945,-34.16213607788086,-3.8506133556365967,19.487642288208008,0.2429099678993225,1.777347207069397,-0.13858358561992645,0.0,0.0,0.0,0.0,0.0,0.0,0.0,-0.5218331220350719,-0.08492207255542983,-0.25649713163551,0.4568652166061497,0.1966033281855617,-0.12076042862819121,-0.12336874465939063,1.0544745455749747,0.324284061155823,-0.3923852233561446,-2.15349815763507,0.8647499193549156,2.465940403024355,0.5444923642333078,1.0544104758940245,0.3238615046091247,-0.39250456234122666,-2.153291787532338,0.8647539153680389,2.46587817577521,0.5445020185570556,1.047997221545116e-05,-3.141873020806023e-05,0.0009720681461365089,-0.000319352904576009,0.00016257996031761096,0.00020543277422443786,0.0011731001275621107,0.0,0.0,0.0,0.0,0.0,0.0,0.0,-6.406968095018506e-05,-0.0004225565466982606,-0.00011933898508204033,0.00020637010273194534,3.996013123286346e-06,-6.222724914506372e-05,9.654323747776417e-06,-1.047997221545116e-05,3.141873020806023e-05,-0.0009720681461365089,0.000319352904576009,-0.00016257996031761096,-0.00020543277422443786,-0.0011731001275621107,0.5021602511405945,34.16213607788086,3.8506133556365967,-19.487642288208008,-0.2429099678993225,-1.777347207069397,0.13858358561992645,0
25,0.12001347541809082,-0.5021602511405945,-34.18990707397461,-3.7990386486053467,19.511445999145508,0.2429099678993225,1.777347207069397,-0.08365194499492645,0.0,0.0,0.0,0.0,0.0,0.0,0.0,-0.5237615254887033,-0.09519395831572694,-0.2637648847183824,0.4610894086516502,0.19654738653685067,-0.12020695695750601,-0.12279179503120677,1.0544722935169513,0.32428601294109155,-0.3923908680837907,-2.153499828070925,0.8647467404405276,2.465940403024355,0.5444872942459644,1.0544104758940245,0.3238615046091247,-0.39250456234122666,-2.153291787532338,0.8647539153680389,2.46587817577521,0.5445020185570556,-0.0005364185967106248,0.00013704261947126888,-0.0005394885790645629,-0.0007636502904813056,0.0002055816290247956,0.0004323697739379533,-0.0016819931456184853,0.0,0.0,0.0,0.0,0.0,0.0,0.0,-6.181762292678528e-05,-0.000424508331966833,-0.00011369425743595896,0.00020804053858736182,7.174927511344187e-06,-6.222724914506372e-05,1.4724311091174336e-05,0.0005364185967106248,-0.00013704261947126888,0.0005394885790645629,0.0007636502904813056,-0.0002055816290247956,-0.0004323697739379533,0.0016819931456184853,0.5021602511405945,34.18990707397461,3.7990386486053467,-19.511445999145508,-0.2429099678993225,-1.777347207069397,0.08365194499492645,0
26,0.1250460147857666,-0.5021602511405945,-34.18990707397461,-3.7990386486053467,19.511445999145508,0.2429099678993225,1.777347207069397,-0.08365194499492645,0.0,0.0,0.0,0.0,0.0,0.0,0.0,-0.5237615254887033,-0.09519395831572694,-0.2637648847183824,0.4610894086516502,0.19654738653685067,-0.12020695695750601,-0.12279179503120677,1.0544722935169513,0.32428601294109155,-0.3923908680837907,-2.153499828070925,0.8647467404405276,2.465940403024355,0.5444872942459644,1.0544104758940245,0.3238615046091247,-0.39250456234122666,-2.153291787532338,0.8647539153680389,2.46587817577521,0.5445020185570556,-0.0005364185967106248,0.00013704261947126888,-0.0005394885790645629,-0.0007636502904813056,0.0002055816290247956,0.0004323697739379533,-0.0016819931456184853,0.0,0.0,0.0,0.0,0.0,0.0,0.0,-6.181762292678528e-05,-0.000424508331966833,-0.00011369425743595896,0.00020804053858736182,7.174927511344187e-06,-6.222724914506372e-05,1.4724311091174336e-05,0.0005364185967106248,-0.00013704261947126888,0.0005394885790645629,0.0007636502904813056,-0.0002055816290247956,-0.0004323697739379533,0.0016819931456184853,0.5021602511405945,34.18990707397461,3.7990386486053467,-19.511445999145508,-0.2429099678993225,-1.777347207069397,0.08365194499492645,0
27,0.1299910545349121,-0.5299312472343445,-34.13833236694336,-3.8506133556365967,19.459871292114258,0.2603049874305725,1.783755898475647,-0.13858358561992645,0.0,0.0,0.0,0.0,0.0,0.0,0.0,-0.532158428636213,-0.07957332759649736,-0.2696105784304738,0.4499773080508895,0.19663839360265895,-0.1206397121588708,-0.12311207269411857,1.054476494404143,0.3242823907199825,-0.3923873210408158,-2.1534962087932388,0.8647479865031874,2.465939690947532,0.5444923768906343,1.0544104758940245,0.3238615046091247,-0.39250456234122666,-2.153291787532338,0.8647539153680389,2.46587817577521,0.5445020185570556,-0.0003953164369337193,-0.00036127836690265385,-2.4511717937217332e-05,0.00019970519586720204,-0.00027338005232064173,0.00010555933310215393,0.00044403440828369483,0.0,0.0,0.0,0.0,0.0,0.0,0.0,-6.60185101184485e-05,-0.0004208861108577766,-0.00011724130041085301,0.00020442126090092216,5.928864851512117e-06,-6.151517232222403e-05,9.64166642125619e-06,0.0003953164369337193,0.00036127836690265385,2.4511717937217332e-05,-0.00019970519586720204,0.00027338005232064173,-0.00010555933310215393,-0.00044403440828369483,0.5299312472343445,34.13833236694336,3.8506133556365967,-19.459871292114258,-0.2603049874305725,-1.783755898475647,0.13858358561992645,0
28,0.13494205474853516,-0.5299312472343445,-34.13833236694336,-3.8506133556365967,19.459871292114258,0.2603049874305725,1.783755898475647,-0.13858358561992645,0.0,0.0,0.0,0.0,0.0,0.0,0.0,-0.532158428636213,-0.07957332759649736,-0.2696105784304738,0.4499773080508895,0.19663839360265895,-0.1206397121588708,-0.12311207269411857,1.054476494404143,0.3242823907199825,-0.3923873210408158,-2.1534962087932388,0.8647479865031874,2.465939690947532,0.5444923768906343,1.0544104758940245,0.3238615046091247,-0.39250456234122666,-2.153291787532338,0.8647539153680389,2.46587817577521,0.5445020185570556,-0.0003953164369337193,-0.00036127836690265385,-2.4511717937217332e-05,0.00019970519586720204,-0.00027338005232064173,0.00010555933310215393,0.00044403440828369483,0.0,0.0,0.0,0.0,0.0,0.0,0.0,-6.60185101184485e-05,-0.0004208861108577766,-0.00011724130041085301,0.00020442126090092216,5.928864851512117e-06,-6.151517232222403e-05,9.64166642125619e-06,0.0003953164369337193,0.00036127836690265385,2.4511717937217332e-05,-0.00019970519586720204,0.00027338005232064173,-0.00010555933310215393,-0.00044403440828369483,0.5299312472343445,34.13833236694336,3.8506133556365967,-19.459871292114258,-0.2603049874305725,-1.783755898475647,0.13858358561992645,0
29,0.13998889923095703,-0.5537349581718445,-34.13833236694336,-3.8228423595428467,19.511445999145508,0.2603049874305725,1.777347207069397,-0.09097616374492645,0.0,0.0,0.0,0.0,0.0,0.0,0.0,-0.5162680008548515,-0.08210864955360694,-0.2543491213522852,0.4551632049978051,0.19608085183757176,-0.12178916437326531,-0.12287335498002949,1.0544779254529855,0.3242823907199659,-0.39238920054861015,-2.153499828070925,0.8647479865749664,2.465940403024355,0.544488452001767,1.0544104758940245,0.3238615046091247,-0.39250456234122666,-2.153291787532338,0.8647539153680389,2.46587817577521,0.5445020185570556,0.00014765900540275432,-0.0001420522134662987,-0.00019552943634848721,-0.0006637700684790695,-0.0003979996011060603,0.0004166992107570018,-0.0008079830643879237,0.0,0.0,0.0,0.0,0.0,0.0,0.0,-6.744955896098581e-05,-0.0004208861108411788,-0.00011536179261650847,0.00020804053858736182,5.92879307248495e-06,-6.222724914506372e-05,1.356655528861328e-05,-0.00014765900540275432,0.0001420522134662987,0.00019552943634848721,0.0006637700684790695,0.0003979996011060603,-0.0004166992107570018,0.0008079830643879237,0.5537349581718445,34.13833236694336,3.8228423595428467,-19.511445999145508,-0.2603049874305725,-1.777347207069397,0.09097616374492645,0
30,0.14500737190246582,-0.5537349581718445,-34.13833236694336,-3.8228423595428467,19.511445999145508,0.2603049874305725,1.777347207069397,-0.09097616374492645,0.0,0.0,0.0,0.0,0.0,0.0,0.0,-0.5162680008548515,-0.08210864955360694,-0.2543491213522852,0.4551632049978051,0.19608085183757176,-0.12178916437326531,-0.12287335498002949,1.0544779254529855,0.3242823907199659,-0.39238920054861015,-2.153499828070925,0.8647479865749664,2.465940403024355,0.544488452001767,1.0544104758940245,0.3238615046091247,-0.39250456234122666,-2.153291787532338,0.8647539153680389,2.46587817577521,0.5445020185570556,0.00014765900540275432,-0.0001420522134662987,-0.00019552943634848721,-0.0006637700684790695,-0.0003979996011060603,0.0004166992107570018,-0.0008079830643879237,0.0,0.0,0.0,0.0,0.0,0.0,0.0,-6.744955896098581e-05,-0.0004208861108411788,-0.00011536179261650847,0.00020804053858736182,5.92879307248495e-06,-6.222724914506372e-05,1.356655528861328e-05,-0.00014765900540275432,0.0001420522134662987,0.00019552943634848721,0.0006637700684790695,0.0003979996011060603,-0.0004166992107570018,0.0008079830643879237,0.5537349581718445,34.13833236694336,3.8228423595428467,-19.511445999145508,-0.2603049874305725,-1.777347207069397,0.09097616374492645,0
31,0.1499936580657959,-0.5299312472343445,-34.13833236694336,-3.7990386486053467,19.487642288208008,0.2429099678993225,1.777347207069397,-0.15964071452617645,0.0,0.0,0.0,0.0,0.0,0.0,0.0,-0.5181126467612227,-0.09245984964997268,-0.25454242364457264,0.4618202570682114,0.19658977864457458,-0.12177851355863224,-0.12215762949933566,1.0544764944155045,0.3242823908289822,-0.39239094609638087,-2.15349815763507,0.8647499193549156,2.465940403024355,0.5444950319401336,1.0544104758940245,0.3238615046091247,-0.39250456234122666,-2.153291787532338,0.8647539153680389,2.46587817577521,0.5445020185570556,0.0001653918295915277,-0.0008535554078876509,-0.0007471595990003025,0.00016320099709833384,0.000544535502003676,-0.00013104705798246656,0.0009874782401792848,0.0,0.0,0.0,0.0,0.0,0.0,0.0,-6.601852148002685e-05,-0.00042088621985747476,-0.00011361624484579336,0.00020637010273194534,3.996013123286346e-06,-6.222724914506372e-05,6.9866169220000884e-06,-0.0001653918295915277,0.0008535554078876509,0.0007471595990003025,-0.00016320099709833384,-0.000544535502003676,0.00013104705798246656,-0.0009874782401792848,0.5299312472343445,34.13833236694336,3.7990386486053467,-19.487642288208008,-0.2429099678993225,-1.777347207069397,0.15964071452617645,0
32,0.15494346618652344,-0.5299312472343445,-34.13833236694336,-3.7990386486053467,19.487642288208008,0.2429099678993225,1.777347207069397,-0.15964071452617645,0.0,0.0,0.0,0.0,0.0,0.0,0.0,-0.5181126467612227,-0.09245984964997268,-0.25454242364457264,0.4618202570682114,0.19658977864457458,-0.12177851355863224,-0.12215762949933566,1.0544764944155045,0.3242823908289822,-0.39239094609638087,-2.15349815763507,0.8647499193549156,2.465940403024355,0.5444950319401336,1.0544104758940245,0.3238615046091247,-0.39250456234122666,-2.153291787532338,0.8647539153680389,2.46587817577521,0.5445020185570556,0.0001653918295915277,-0.0008535554078876509,-0.0007471595990003025,0.00016320099709833384,0.000544535502003676,-0.00013104705798246656,0.0009874782401792848,0.0,0.0,0.0,0.0,0.0,0.0,0.0,-6.601852148002685e-05,-0.00042088621985747476,-0.00011361624484579336,0.00020637010273194534,3.996013123286346e-06,-6.222724914506372e-05,6.9866169220000884e-06,-0.0001653918295915277,0.0008535554078876509,0.0007471595990003025,-0.00016320099709833384,-0.000544535502003676,0.00013104705798246656,-0.0009874782401792848,0.5299312472343445,34.13833236694336,3.7990386486053467,-19.487642288208008,-0.2429099678993225,-1.777347207069397,0.15964071452617645,0
33,0.1600055694580078,-0.5299312472343445,-34.18990707397461,-3.8228423595428467,19.436067581176758,0.2484031319618225,1.770938515663147,-0.13217489421367645,0.0,0.0,0.0,0.0,0.0,0.0,0.0,-0.523642259088667,-0.0868978169813122,-0.2614487018649969,0.45753143445156463,0.19724430314738833,-0.12262438032621911,-0.12443912873766312,1.0544757791611186,0.3242860099976525,-0.39238692983700735,-2.1534945383573834,0.8647489427086911,2.465941115101178,0.5444930252776399,1.0544104758940245,0.3238615046091247,-0.39250456234122666,-2.153291787532338,0.8647539153680389,2.46587817577521,0.5445020185570556,0.0007017250168770369,0.0005471089439118607,-0.00037600947543461275,0.0009653001124951845,6.610596170180615e-05,0.000412967593039461,0.00028936328419875036,0.0,0.0,0.0,0.0,0.0,0.0,0.0,-6.530326709408563e-05,-0.00042450538852778497,-0.0001176325042193116,0.00020275082504550568,4.972659347846076e-06,-6.293932596790341e-05,8.993279415725475e-06,-0.0007017250168770369,-0.0005471089439118607,0.00037600947543461275,-0.0009653001124951845,-6.610596170180615e-05,-0.000412967593039461,-0.00028936328419875036,0.5299312472343445,34.18990707397461,3.8228423595428467,-19.436067581176758,-0.2484031319618225,-1.770938515663147,0.13217489421367645,0
34,0.16499662399291992,-0.5299312472343445,-34.18990707397461,-3.8228423595428467,19.436067581176758,0.2484031319618225,1.770938515663147,-0.13217489421367645,0.0,0.0,0.0,0.0,0.0,0.0,0.0,-0.523642259088667,-0.0868978169813122,-0.2614487018649969,0.45753143445156463,0.19724430314738833,-0.12262438032621911,-0.12443912873766312,1.0544757791611186,0.3242860099976525,-0.39238692983700735,-2.1534945383573834,0.8647489427086911,2.465941115101178,0.5444930252776399,1.0544104758940245,0.3238615046091247,-0.39250456234122666,-2.153291787532338,0.8647539153680389,2.46587817577521,0.5445020185570556,0.0007017250168770369,0.0005471089439118607,-0.00037600947543461275,0.0009653001124951845,6.610596170180615e-05,0.000412967593039461,0.00028936328419875036,0.0,0.0,0.0,0.0,0.0,0.0,0.0,-6.530326709408563e-05,-0.00042450538852778497,-0.0001176325042193116,0.00020275082504550568,4.972659347846076e-06,-6.293932596790341e-05,8.993279415725475e-06,-0.0007017250168770369,-0.0005471089439118607,0.00037600947543461275,-0.0009653001124951845,-6.610596170180615e-05,-0.000412967593039461,-0.00028936328419875036,0.5299312472343445,34.18990707397461,3.8228423595428467,-19.436067581176758,-0.2484031319618225,-1.770938515663147,0.13217489421367645,0
35,0.16999459266662598,-0.5021602511405945,-34.13833236694336,-3.8228423595428467,19.487642288208008,0.2484031319618225,1.783755898475647,-0.14590780436992645,0.0,0.0,0.0,0.0,0.0,0.0,0.0,-0.5136337372055693,-0.0861285686191426,-0.25513346974904705,0.45547216866964785,0.19691072213697455,-0.12339750428242599,-0.12549169668118743,1.054474519080034,0.32428239366340517,-0.39238925221526605,-2.15349815763507,0.8647492959193331,2.465939690947532,0.5444941979511199,1.0544104758940245,0.3238615046091247,-0.39250456234122666,-2.153291787532338,0.8647539153680389,2.46587817577521,0.5445020185570556,0.0004834224917666289,-0.0006378683238162352,0.000306228205520033,-0.0003998522774810806,0.00022037222236883237,3.550891078350561e-05,0.000803922623103373,0.0,0.0,0.0,0.0,0.0,0.0,0.0,-6.404318600949921e-05,-0.00042088905428044887,-0.00011531012596061041,0.00020637010273194534,4.61944870577824e-06,-6.151517232222403e-05,7.820605935737746e-06,-0.0004834224917666289,0.0006378683238162352,-0.000306228205520033,0.0003998522774810806,-0.00022037222236883237,-3.550891078350561e-05,-0.000803922623103373,0.5021602511405945,34.13833236694336,3.8228423595428467,-19.487642288208008,-0.2484031319618225,-1.783755898475647,0.14590780436992645,0
36,0.17499184608459473,-0.5021602511405945,-34.13833236694336,-3.8228423595428467,19.487642288208008,0.2484031319618225,1.783755898475647,-0.14590780436992645,0.0,0.0,0.0,0.0,0.0,0.0,0.0,-0.5136337372055693,-0.0861285686191426,-0.25513346974904705,0.45547216866964785,0.19691072213697455,-0.12339750428242599,-0.12549169668118743,1.054474519080034,0.32428239366340517,-0.39238925221526605,-2.15349815763507,0.8647492959193331,2.465939690947532,0.5444941979511199,1.0544104758940245,0.3238615046091247,-0.39250456234122666,-2.153291787532338,0.8647539153680389,2.46587817577521,0.5445020185570556,0.0004834224917666289,-0.0006378683238162352,0.000306228205520033,-0.0003998522774810806,0.00022037222236883237,3.550891078350561e-05,0.000803922623103373,0.0,0.0,0.0,0.0,0.0,0.0,0.0,-6.404318600949921e-05,-0.00042088905428044887,-0.00011531012596061041,0.00020637010273194534,4.61944870577824e-06,-6.151517232222403e-05,7.820605935737746e-06,-0.0004834224917666289,0.0006378683238162352,-0.000306228205520033,0.0003998522774810806,-0.00022037222236883237,-3.550891078350561e-05,-0.000803922623103373,0.5021602511405945,34.13833236694336,3.8228423595428467,-19.487642288208008,-0.2484031319618225,-1.783755898475647,0.14590780436992645,0
37,0.17994141578674316,-0.5021602511405945,-34.21371078491211,-3.7990386486053467,19.511445999145508,0.2548118233680725,1.790164589881897,-0.10470907390117645,0.0,0.0,0.0,0.0,0.0,0.0,0.0,-0.5208768784123923,-0.08440277628750195,-0.2628906339534889,0.4512366787240461,0.1976959519504562,-0.12290704943019963,-0.1257768142095251,1.054474545574576,0.3242877069245106,-0.39238881695414424,-2.153499828070925,0.8647485969263086,2.4659389788707093,0.5444886047772656,1.0544104758940245,0.3238615046091247,-0.39250456234122666,-2.153291787532338,0.8647539153680389,2.46587817577521,0.5445020185570556,-0.0002607297610382799,0.0010709635025889124,-0.0004892845941339697,-0.0010642487432560885,-6.399343161550553e-06,-0.00038181393690856646,-0.0005291585282029978,0.0,0.0,0.0,0.0,0.0,0.0,0.0,-6.4069680551615e-05,-0.0004262023153858707,-0.0001157453870824221,0.00020804053858736182,5.318441730350898e-06,-6.080309549938434e-05,1.3413779790028002e-05,0.0002607297610382799,-0.0010709635025889124,0.0004892845941339697,0.0010642487432560885,6.399343161550553e-06,0.00038181393690856646,0.0005291585282029978,0.5021602511405945,34.21371078491211,3.7990386486053467,-19.511445999145508,-0.2548118233680725,-1.790164589881897,0.10470907390117645,0
38,0.18498802185058594,-0.5021602511405945,-34.21371078491211,-3.7990386486053467,19.511445999145508,0.2548118233680725,1.790164589881897,-0.10470907390117645,0.0,0.0,0.0,0.0,0.0,0.0,0.0,-0.5208768784123923,-0.08440277628750195,-0.2628906339534889,0.4512366787240461,0.1976959519504562,-0.12290704943019963,-0.1257768142095251,1.054474545574576,0.3242877069245106,-0.39238881695414424,-2.153499828070925,0.8647485969263086,2.4659389788707093,0.5444886047772656,1.0544104758940245,0.3238615046091247,-0.39250456234122666,-2.153291787532338,0.8647539153680389,2.46587817577521,0.5445020185570556,-0.0002607297610382799,0.0010709635025889124,-0.0004892845941339697,-0.0010642487432560885,-6.399343161550553e-06,-0.00038181393690856646,-0.0005291585282029978,0.0,0.0,0.0,0.0,0.0,0.0,0.0,-6.4069680551615e-05,-0.0004262023153858707,-0.0001157453870824221,0.00020804053858736182,5.318441730350898e-06,-6.080309549938434e-05,1.3413779790028002e-05,0.0002607297610382799,-0.0010709635025889124,0.0004892845941339697,0.0010642487432560885,6.399343161550553e-06,0.00038181393690856646,0.0005291585282029978,0.5021602511405945,34.21371078491211,3.7990386486053467,-19.511445999145508,-0.2548118233680725,-1.790164589881897,0.10470907390117645,0
39,0.1900022029876709,-0.5537349581718445,-34.13833236694336,-3.7990386486053467,19.511445999145508,0.2429099678993225,1.783755898475647,-0.08365194499492645,0.0,0.0,0.0,0.0,0.0,0.0,0.0,-0.5095283001852593,-0.07771058681913044,-0.2540714462203013,0.4497472697827104,0.19797080445594673,-0.12379740257497755,-0.1254853818603434,1.0544752773388089,0.32428239072001575,-0.392388842843961,-2.153499828070925,0.8647499193549156,2.465939690947532,0.5444894406011845,1.0544104758940245,0.3238615046091247,-0.39250456234122666,-2.153291787532338,0.8647539153680389,2.46587817577521,0.5445020185570556,0.0015753210079518611,2.7986372888043193e-05,-0.00043507008153569337,-0.0009912712329133418,0.00026106486507134196,-0.0001395922871414395,-0.0017281070067108005,0.0,0.0,0.0,0.0,0.0,0.0,0.0,-6.480144478437921e-05,-0.0004208861108910278,-0.00011571949726563169,0.00020804053858736182,3.996013123286346e-06,-6.151517232222403e-05,1.2577955871062585e-05,-0.0015753210079518611,-2.7986372888043193e-05,0.00043507008153569337,0.0009912712329133418,-0.00026106486507134196,0.0001395922871414395,0.0017281070067108005,0.5537349581718445,34.13833236694336,3.7990386486053467,-19.511445999145508,-0.2429099678993225,-1.783755898475647,0.08365194499492645,0
40,0.19502592086791992,-0.5537349581718445,-34.13833236694336,-3.7990386486053467,19.511445999145508,0.2429099678993225,1.783755898475647,-0.08365194499492645,0.0,0.0,0.0,0.0,0.0,0.0,0.0,-0.5095283001852593,-0.07771058681913044,-0.2540714462203013,0.4497472697827104,0.19797080445594673,-0.12379740257497755,-0.1254853818603434,1.0544752773388089,0.32428239072001575,-0.392388842843961,-2.153499828070925,0.8647499193549156,2.465939690947532,0.5444894406011845,1.0544104758940245,0.3238615046091247,-0.39250456234122666,-2.153291787532338,0.8647539153680389,2.46587817577521,0.5445020185570556,0.0015753210079518611,2.7986372888043193e-05,-0.00043507008153569337,-0.0009912712329133418,0.00026106486507134196,-0.0001395922871414395,-0.0017281070067108005,0.0,0.0,0.0,0.0,0.0,0.0,0.0,-6.480144478437921e-05,-0.0004208861108910278,-0.00011571949726563169,0.00020804053858736182,3.996013123286346e-06,-6.151517232222403e-05,1.2577955871062585e-05,-0.0015753210079518611,-2.7986372888043193e-05,0.00043507008153569337,0.0009912712329133418,-0.00026106486507134196,0.0001395922871414395,0.0017281070067108005,0.5537349581718445,34.13833236694336,3.7990386486053467,-19.511445999145508,-0.2429099678993225,-1.783755898475647,0.08365194499492645,0
41,0.20000767707824707,-0.5537349581718445,-34.21371078491211,-3.8744170665740967,19.459871292114258,0.2603049874305725,1.790164589881897,-0.15964071452617645,0.0,0.0,0.0,0.0,0.0,0.0,0.0,-0.5197995559432871,-0.08745557429948224,-0.2631474807149954,0.45452768986041586,0.19800357133955582,-0.12273195726496486,-0.12519442555163457,1.054478084382405,0.3242884045195626,-0.39238563325994136,-2.1534962087932388,0.8647479860904509,2.465938974510059,0.5444961948443402,1.0544104758940245,0.3238615046091247,-0.39250456234122666,-2.153291787532338,0.8647539153680389,2.46587817577521,0.5445020185570556,0.000618070664030415,0.0012714620550098774,0.0012480257067956667,0.00020760502343556211,-0.0003321439519219945,-0.0001611153072724856,0.001680996396699881,0.0,0.0,0.0,0.0,0.0,0.0,0.0,-6.760848838061051e-05,-0.00042689991043787234,-0.00011892908128530166,0.00020442126090092216,5.929277588023751e-06,-6.079873484887699e-05,5.823712715402607e-06,-0.000618070664030415,-0.0012714620550098774,-0.0012480257067956667,-0.00020760502343556211,0.0003321439519219945,0.0001611153072724856,-0.001680996396699881,0.5537349581718445,34.21371078491211,3.8744170665740967,-19.459871292114258,-0.2603049874305725,-1.790164589881897,0.15964071452617645,0
42,0.2050340175628662,-0.5537349581718445,-34.21371078491211,-3.8744170665740967,19.459871292114258,0.2603049874305725,1.790164589881897,-0.15964071452617645,0.0,0.0,0.0,0.0,0.0,0.0,0.0,-0.5197995559432871,-0.08745557429948224,-0.2631474807149954,0.45452768986041586,0.19800357133955582,-0.12273195726496486,-0.12519442555163457,1.054478084382405,0.3242884045195626,-0.39238563325994136,-2.1534962087932388,0.8647479860904509,2.465938974510059,0.5444961948443402,1.0544104758940245,0.3238615046091247,-0.39250456234122666,-2.153291787532338,0.8647539153680389,2.46587817577521,0.5445020185570556,0.000618070664030415,0.0012714620550098774,0.0012480257067956667,0.00020760502343556211,-0.0003321439519219945,-0.0001611153072724856,0.001680996396699881,0.0,0.0,0.0,0.0,0.0,0.0,0.0,-6.760848838061051e-05,-0.00042689991043787234,-0.00011892908128530166,0.00020442126090092216,5.929277588023751e-06,-6.079873484887699e-05,5.823712715402607e-06,-0.000618070664030415,-0.0012714620550098774,-0.0012480257067956667,-0.00020760502343556211,0.0003321439519219945,0.0001611153072724856,-0.001680996396699881,0.5537349581718445,34.21371078491211,3.8744170665740967,-19.459871292114258,-0.2603049874305725,-1.790164589881897,0.15964071452617645,0
43,0.20995616912841797,-0.5537349581718445,-34.21371078491211,-3.8744170665740967,19.459871292114258,0.2603049874305725,1.790164589881897,-0.15964071452617645,0.0,0.0,0.0,0.0,0.0,0.0,0.0,-0.5197995559432871,-0.08745557429948224,-0.2631474807149954,0.45452768986041586,0.19800357133955582,-0.12273195726496486,-0.12519442555163457,1.054478084382405,0.3242884045195626,-0.39238563325994136,-2.1534962087932388,0.8647479860904509,2.465938974510059,0.5444961948443402,1.0544104758940245,0.3238615046091247,-0.39250456234122666,-2.153291787532338,0.8647539153680389,2.46587817577521,0.5445020185570556,0.000618070664030415,0.0012714620550098774,0.0012480257067956667,0.00020760502343556211,-0.0003321439519219945,-0.0001611153072724856,0.001680996396699881,0.0,0.0,0.0,0.0,0.0,0.0,0.0,-6.760848838061051e-05,-0.00042689991043787234,-0.00011892908128530166,0.00020442126090092216,5.929277588023751e-06,-6.079873484887699e-05,5.823712715402607e-06,-0.000618070664030415,-0.0012714620550098774,-0.0012480257067956667,-0.00020760502343556211,0.0003321439519219945,0.0001611153072724856,-0.001680996396699881,0.5537349581718445,34.21371078491211,3.8744170665740967,-19.459871292114258,-0.2603049874305725,-1.790164589881897,0.15964071452617645,0
44,0.21500158309936523,-0.5537349581718445,-34.21371078491211,-3.8744170665740967,19.459871292114258,0.2603049874305725,1.790164589881897,-0.15964071452617645,0.0,0.0,0.0,0.0,0.0,0.0,0.0,-0.5197995559432871,-0.08745557429948224,-0.2631474807149954,0.45452768986041586,0.19800357133955582,-0.12273195726496486,-0.12519442555163457,1.054478084382405,0.3242884045195626,-0.39238563325994136,-2.1534962087932388,0.8647479860904509,2.465938974510059,0.5444961948443402,1.0544104758940245,0.3238615046091247,-0.39250456234122666,-2.153291787532338,0.8647539153680389,2.46587817577521,0.5445020185570556,0.000618070664030415,0.0012714620550098774,0.0012480257067956667,0.00020760502343556211,-0.0003321439519219945,-0.0001611153072724856,0.001680996396699881,0.0,0.0,0.0,0.0,0.0,0.0,0.0,-6.760848838061051e-05,-0.00042689991043787234,-0.00011892908128530166,0.00020442126090092216,5.929277588023751e-06,-6.079873484887699e-05,5.823712715402607e-06,-0.000618070664030415,-0.0012714620550098774,-0.0012480257067956667,-0.00020760502343556211,0.0003321439519219945,0.0001611153072724856,-0.001680996396699881,0.5537349581718445,34.21371078491211,3.8744170665740967,-19.459871292114258,-0.2603049874305725,-1.790164589881897,0.15964071452617645,0
45,0.21998953819274902,-0.5299312472343445,-34.16213607788086,-3.8228423595428467,19.487642288208008,0.2365012764930725,1.770938515663147,-0.08365194499492645,0.0,0.0,0.0,0.0,0.0,0.0,0.0,-0.5130576522428785,-0.08524614001144458,-0.25532360160055423,0.45393155004738645,0.19722324820111564,-0.12270657696303067,-0.12380021617255471,1.0544764944164016,0.32428406115990865,-0.3923884856986556,-2.15349815763507,0.8647474394353956,2.4659411151011534,0.5444897532845506,1.0544104758940245,0.3238615046091247,-0.39250456234122666,-2.153291787532338,0.8647539153680389,2.46587817577521,0.5445020185570556,-1.128002699029581e-05,1.2530576537845367e-05,-0.0003556243844857785,-0.0002905668156233142,0.0005224776290004159,0.0003185833691612034,-0.0015064511900449455,0.0,0.0,0.0,0.0,0.0,0.0,0.0,-6.601852237708705e-05,-0.00042255655078393684,-0.00011607664257107242,0.00020637010273194534,6.475932643357218e-06,-6.293932594347851e-05,1.2265272504974334e-05,1.128002699029581e-05,-1.2530576537845367e-05,0.0003556243844857785,0.0002905668156233142,-0.0005224776290004159,-0.0003185833691612034,0.0015064511900449455,0.5299312472343445,34.16213607788086,3.8228423595428467,-19.487642288208008,-0.2365012764930725,-1.770938515663147,0.08365194499492645,0
46,0.22500181198120117,-0.5299312472343445,-34.16213607788086,-3.8228423595428467,19.487642288208008,0.2365012764930725,1.770938515663147,-0.08365194499492645,0.0,0.0,0.0,0.0,0.0,0.0,0.0,-0.5130576522428785,-0.08524614001144458,-0.25532360160055423,0.45393155004738645,0.19722324820111564,-0.12270657696303067,-0.12380021617255471,1.0544764944164016,0.32428406115990865,-0.3923884856986556,-2.15349815763507,0.8647474394353956,2.4659411151011534,0.5444897532845506,1.0544104758940245,0.3238615046091247,-0.39250456234122666,-2.153291787532338,0.8647539153680389,2.46587817577521,0.5445020185570556,-1.128002699029581e-05,1.2530576537845367e-05,-0.0003556243844857785,-0.0002905668156233142,0.0005224776290004159,0.0003185833691612034,-0.0015064511900449455,0.0,0.0,0.0,0.0,0.0,0.0,0.0,-6.601852237708705e-05,-0.00042255655078393684,-0.00011607664257107242,0.00020637010273194534,6.475932643357218e-06,-6.293932594347851e-05,1.2265272504974334e-05,1.128002699029581e-05,-1.2530576537845367e-05,0.0003556243844857785,0.0002905668156233142,-0.0005224776290004159,-0.0003185833691612034,0.0015064511900449455,0.5299312472343445,34.16213607788086,3.8228423595428467,-19.487642288208008,-0.2365012764930725,-1.770938515663147,0.08365194499492645,0
47,0.23002982139587402,-0.5021602511405945,-34.13833236694336,-3.8228423595428467,19.487642288208008,0.2603049874305725,1.783755898475647,-0.11844198405742645,0.0,0.0,0.0,0.0,0.0,0.0,0.0,-0.5186519178076381,-0.09065981383381597,-0.259718764133934,0.4572238492116955,0.1967600028979291,-0.1225655782859504,-0.12339272057535472,1.0544744661021652,0.32428241721091916,-0.39238926891565096,-2.15349815763507,0.8647469138368672,2.465939690947532,0.5444932669350807,1.0544104758940245,0.3238615046091247,-0.39250456234122666,-2.153291787532338,0.8647539153680389,2.46587817577521,0.5445020185570556,-0.0008673966049750496,-0.0009510012927681929,0.00028497368442805,-0.00021612536626997245,-0.0005475152017884797,3.504078553752006e-05,-0.0003020248394340433,0.0,0.0,0.0,0.0,0.0,0.0,0.0,-6.399020814074063e-05,-0.0004209126017944431,-0.0001152934255757021,0.00020637010273194534,7.001531171724196e-06,-6.151517232222403e-05,8.751621974889545e-06,0.0008673966049750496,0.0009510012927681929,-0.00028497368442805,0.00021612536626997245,0.0005475152017884797,-3.504078553752006e-05,0.0003020248394340433,0.5021602511405945,34.13833236694336,3.8228423595428467,-19.487642288208008,-0.2603049874305725,-1.783755898475647,0.11844198405742645,0
48,0.23499178886413574,-0.5021602511405945,-34.13833236694336,-3.8228423595428467,19.487642288208008,0.2603049874305725,1.783755898475647,-0.11844198405742645,0.0,0.0,0.0,0.0,0.0,0.0,0.0,-0.5186519178076381,-0.09065981383381597,-0.259718764133934,0.4572238492116955,0.1967600028979291,-0.1225655782859504,-0.12339272057535472,1.0544744661021652,0.32428241721091916,-0.39238926891565096,-2.15349815763507,0.8647469138368672,2.465939690947532,0.5444932669350807,1.0544104758940245,0.3238615046091247,-0.39250456234122666,-2.153291787532338,0.8647539153680389,2.46587817577521,0.5445020185570556,-0.0008673966049750496,-0.0009510012927681929,0.00028497368442805,-0.00021612536626997245,-0.0005475152017884797,3.504078553752006e-05,-0.0003020248394340433,0.0,0.0,0.0,0.0,0.0,0.0,0.0,-6.399020814074063e-05,-0.0004209126017944431,-0.0001152934255757021,0.00020637010273194534,7.001531171724196e-06,-6.151517232222403e-05,8.751621974889545e-06,0.0008673966049750496,0.0009510012927681929,-0.00028497368442805,0.00021612536626997245,0.0005475152017884797,-3.504078553752006e-05,0.0003020248394340433,0.5021602511405945,34.13833236694336,3.8228423595428467,-19.487642288208008,-0.2603049874305725,-1.783755898475647,0.11844198405742645,0
49,0.23999857902526855,-0.5299312472343445,-34.11452865600586,-3.7752349376678467,19.459871292114258,0.2548118233680725,1.790164589881897,-0.15231649577617645,0.0,0.0,0.0,0.0,0.0,0.0,0.0,-0.5185066104829649,-0.08550182829370093,-0.25458937991354713,0.45373129765874887,0.19638292565885992,-0.12351747490438533,-0.12362329099247428,1.0544764944164073,0.3242828660514721,-0.392392610719094,-2.1534962087932388,0.8647485969204746,2.4659389788707093,0.5444939034274576,1.0544104758940245,0.3238615046091247,-0.39250456234122666,-2.153291787532338,0.8647539153680389,2.46587817577521,0.5445020185570556,0.00036452907904675134,-0.0013828119495978943,-0.001048124997905358,0.0002567808539358317,-0.00023428039302388632,-0.00038010319455217273,0.001402159851065226,0.0,0.0,0.0,0.0,0.0,0.0,0.0,-6.601852238286021e-05,-0.0004213614423473899,-0.00011195162213267773,0.00020442126090092216,5.318447564350848e-06,-6.080309549938434e-05,8.115129597974224e-06,-0.00036452907904675134,0.0013828119495978943,0.001048124997905358,-0.0002567808539358317,0.00023428039302388632,0.00038010319455217273,-0.001402159851065226,0.5299312472343445,34.11452865600586,3.7752349376678467,-19.459871292114258,-0.2548118233680725,-1.790164589881897,0.15231649577617645,0
50,0.2449934482574463,-0.5299312472343445,-34.11452865600586,-3.7752349376678467,19.459871292114258,0.2548118233680725,1.790164589881897,-0.15231649577617645,0.0,0.0,0.0,0.0,0.0,0.0,0.0,-0.5185066104829649,-0.08550182829370093,-0.25458937991354713,0.45373129765874887,0.19638292565885992,-0.12351747490438533,-0.12362329099247428,1.0544764944164073,0.3242828660514721,-0.392392610719094,-2.1534962087932388,0.8647485969204746,2.4659389788707093,0.5444939034274576,1.0544104758940245,0.3238615046091247,-0.39250456234122666,-2.153291787532338,0.8647539153680389,2.46587817577521,0.5445020185570556,0.00036452907904675134,-0.0013828119495978943,-0.001048124997905358,0.0002567808539358317,-0.00023428039302388632,-0.00038010319455217273,0.001402159851065226,0.0,0.0,0.0,0.0,0.0,0.0,0.0,-6.601852238286021e-05,-0.0004213614423473899,-0.00011195162213267773,0.00020442126090092216,5.318447564350848e-06,-6.080309549938434e-05,8.115129597974224e-06,-0.00036452907904675134,0.0013828119495978943,0.001048124997905358,-0.0002567808539358317,0.00023428039302388632,0.00038010319455217273,-0.001402159851065226,0.5299312472343445,34.11452865600586,3.7752349376678467,-19.459871292114258,-0.2548118233680725,-1.790164589881897,0.15231649577617645,0
51,0.24998736381530762,-0.5299312472343445,-34.21371078491211,-3.8228423595428467,19.487642288208008,0.2484031319618225,1.770938515663147,-0.13217489421367645,0.0,0.0,0.0,0.0,0.0,0.0,0.0,-0.5261932003433282,-0.08810571822147846,-0.2572976093054288,0.457740663115142,0.19641126697582634,-0.12245436360650078,-0.12233965729983164,1.0544762559982768,0.32428775991040487,-0.39238926977608984,-2.15349815763507,0.8647493090033531,2.465941115101178,0.5444916129107252,1.0544104758940245,0.3238615046091247,-0.39250456234122666,-2.153291787532338,0.8647539153680389,2.46587817577521,0.5445020185570556,0.0001541335811269919,0.0014135052040274627,-0.0001788855395428717,0.00041537536257445646,8.768745841890493e-05,-0.009210007806054063,0.00032067369674201965,0.0,0.0,0.0,0.0,0.0,0.0,0.0,-6.578010425228875e-05,-0.000426255301280154,-0.0001152925651368153,0.00020637010273194534,4.606364685799669e-06,-6.293932596790341e-05,1.0405646330369223e-05,-0.0001541335811269919,-0.0014135052040274627,0.0001788855395428717,-0.00041537536257445646,-8.768745841890493e-05,0.009210007806054063,-0.00032067369674201965,0.5299312472343445,34.21371078491211,3.8228423595428467,-19.487642288208008,-0.2484031319618225,-1.770938515663147,0.13217489421367645,0
52,0.25499796867370605,-0.5299312472343445,-34.21371078491211,-3.8228423595428467,19.487642288208008,0.2484031319618225,1.770938515663147,-0.13217489421367645,0.0,0.0,0.0,0.0,0.0,0.0,0.0,-0.5261932003433282,-0.08810571822147846,-0.2572976093054288,0.457740663115142,0.19641126697582634,-0.12245436360650078,-0.12233965729983164,1.0544762559982768,0.32428775991040487,-0.39238926977608984,-2.15349815763507,0.8647493090033531,2.465941115101178,0.5444916129107252,1.0544104758940245,0.3238615046091247,-0.39250456234122666,-2.153291787532338,0.8647539153680389,2.46587817577521,0.5445020185570556,0.0001541335811269919,0.0014135052040274627,-0.0001788855395428717,0.00041537536257445646,8.768745841890493e-05,-0.009210007806054063,0.00032067369674201965,0.0,0.0,0.0,0.0,0.0,0.0,0.0,-6.578010425228875e-05,-0.000426255301280154,-0.0001152925651368153,0.00020637010273194534,4.606364685799669e-06,-6.293932596790341e-05,1.0405646330369223e-05,-0.0001541335811269919,-0.0014135052040274627,0.0001788855395428717,-0.00041537536257445646,-8.768745841890493e-05,0.009210007806054063,-0.00032067369674201965,0.5299312472343445,34.21371078491211,3.8228423595428467,-19.487642288208008,-0.2484031319618225,-1.770938515663147,0.13217489421367645,0
53,0.26000237464904785,-0.5537349581718445,-34.11452865600586,-3.7990386486053467,19.487642288208008,0.2603049874305725,1.777347207069397,-0.11111776530742645,0.0,0.0,0.0,0.0,0.0,0.0,0.0,-0.5212831180583292,-0.08764521612465272,-0.2523236212639899,0.4605106843085229,0.1965281653799413,-0.12251808151745594,-0.12276599905370128,1.0544781648522628,0.3242809587028393,-0.3923907111304074,-2.1535000649837026,0.8647437480224502,2.465940403024355,0.5444893256112808,1.0544104758940245,0.3238615046091247,-0.39250456234122666,-2.153291787532338,0.8647539153680389,2.46587817577521,0.5445020185570556,0.0013255076478798688,-0.0007767158226274709,-0.000669952578197645,0.00023007590133645021,-0.00030431197504119604,-0.00017301128967044606,-0.0005112817833849362,0.0,0.0,0.0,0.0,0.0,0.0,0.0,-6.76889582382767e-05,-0.0004194540937145774,-0.0001138512108192491,0.00020827745136475784,1.016734558867416e-05,-6.222724914506372e-05,1.2692945774772646e-05,-0.0013255076478798688,0.0007767158226274709,0.000669952578197645,-0.00023007590133645021,0.00030431197504119604,0.00017301128967044606,0.0005112817833849362,0.5537349581718445,34.11452865600586,3.7990386486053467,-19.487642288208008,-0.2603049874305725,-1.777347207069397,0.11111776530742645,0
54,0.26500844955444336,-0.5537349581718445,-34.11452865600586,-3.7990386486053467,19.487642288208008,0.2603049874305725,1.777347207069397,-0.11111776530742645,0.0,0.0,0.0,0.0,0.0,0.0,0.0,-0.5212831180583292,-0.08764521612465272,-0.2523236212639899,0.4605106843085229,0.1965281653799413,-0.12251808151745594,-0.12276599905370128,1.0544781648522628,0.3242809587028393,-0.3923907111304074,-2.1535000649837026,0.8647437480224502,2.465940403024355,0.5444893256112808,1.0544104758940245,0.3238615046091247,-0.39250456234122666,-2.153291787532338,0.8647539153680389,2.46587817577521,0.5445020185570556,0.0013255076478798688,-0.0007767158226274709,-0.000669952578197645,0.00023007590133645021,-0.00030431197504119604,-0.00017301128967044606,-0.0005112817833849362,0.0,0.0,0.0,0.0,0.0,0.0,0.0,-6.76889582382767e-05,-0.0004194540937145774,-0.0001138512108192491,0.00020827745136475784,1.016734558867416e-05,-6.222724914506372e-05,1.2692945774772646e-05,-0.0013255076478798688,0.0007767158226274709,0.000669952578197645,-0.00023007590133645021,0.00030431197504119604,0.00017301128967044606,0.0005112817833849362,0.5537349581718445,34.11452865600586,3.7990386486053467,-19.487642288208008,-0.2603049874305725,-1.777347207069397,0.11111776530742645,0
55,0.2700064182281494,-0.5299312472343445,-34.16213607788086,-3.7752349376678467,19.487642288208008,0.2548118233680725,1.783755898475647,-0.11844198405742645,0.0,0.0,0.0,0.0,0.0,0.0,0.0,-0.515794488155509,-0.07553087667438123,-0.24792696808345657,0.4521310109264967,0.19714139316102297,-0.12546877046853191,-0.12313548932821547,1.0544764679259027,0.324284061157167,-0.3923925403491503,-2.1534981576458367,0.8647484791650335,2.465939695308183,0.5444932719759474,1.0544104758940245,0.3238615046091247,-0.39250456234122666,-2.153291787532338,0.8647539153680389,2.46587817577521,0.5445020185570556,0.0006822698778519434,0.0005578623389091625,-0.0010292226079887641,-0.00026522727884883176,-0.0003006017187769844,8.64848619743313e-07,6.714643453672744e-05,0.0,0.0,0.0,0.0,0.0,0.0,0.0,-6.599203187818148e-05,-0.0004225565480422966,-0.00011202199207638319,0.00020637011349888823,5.436203005415585e-06,-6.151953297317547e-05,8.746581108165508e-06,-0.0006822698778519434,-0.0005578623389091625,0.0010292226079887641,0.00026522727884883176,0.0003006017187769844,-8.64848619743313e-07,-6.714643453672744e-05,0.5299312472343445,34.16213607788086,3.7752349376678467,-19.487642288208008,-0.2548118233680725,-1.783755898475647,0.11844198405742645,0
56,0.27500367164611816,-0.5299312472343445,-34.16213607788086,-3.7752349376678467,19.487642288208008,0.2548118233680725,1.783755898475647,-0.11844198405742645,0.0,0.0,0.0,0.0,0.0,0.0,0.0,-0.515794488155509,-0.07553087667438123,-0.24792696808345657,0.4521310109264967,0.19714139316102297,-0.12546877046853191,-0.12313548932821547,1.0544764679259027,0.324284061157167,-0.3923925403491503,-2.1534981576458367,0.8647484791650335,2.465939695308183,0.5444932719759474,1.0544104758940245,0.3238615046091247,-0.39250456234122666,-2.153291787532338,0.8647539153680389,2.46587817577521,0.5445020185570556,0.0006822698778519434,0.0005578623389091625,-0.0010292226079887641,-0.00026522727884883176,-0.0003006017187769844,8.64848619743313e-07,6.714643453672744e-05,0.0,0.0,0.0,0.0,0.0,0.0,0.0,-6.599203187818148e-05,-0.0004225565480422966,-0.00011202199207638319,0.00020637011349888823,5.436203005415585e-06,-6.151953297317547e-05,8.746581108165508e-06,-0.0006822698778519434,-0.0005578623389091625,0.0010292226079887641,0.00026522727884883176,0.0003006017187769844,-8.64848619743313e-07,-6.714643453672744e-05,0.5299312472343445,34.16213607788086,3.7752349376678467,-19.487642288208008,-0.2548118233680725,-1.783755898475647,0.11844198405742645,0
57,0.27994751930236816,-0.5021602511405945,-34.16213607788086,-3.8228423595428467,19.511445999145508,0.2429099678993225,1.790164589881897,-0.09738485515117645,0.0,0.0,0.0,0.0,0.0,0.0,0.0,-0.5179212224875415,-0.07471285472185045,-0.2521119914368986,0.45329495494823735,0.19734201524710193,-0.12461627724430263,-0.1227556129518192,1.0544723994442757,0.32428406115582115,-0.3923892785494506,-2.153499828070925,0.8647499188158989,2.465938978870734,0.5444923779491136,1.0544104758940245,0.3238615046091247,-0.39250456234122666,-2.153291787532338,0.8647539153680389,2.46587817577521,0.5445020185570556,-9.256642481259993e-05,0.0004821349072394084,0.00017947607230946506,-0.0005621162220876769,0.0002589889676737807,-0.00020460738664980873,-0.0009585375947511461,0.0,0.0,0.0,0.0,0.0,0.0,0.0,-6.192355025125273e-05,-0.0004225565466964287,-0.00011528379177605519,0.00020804053858736182,3.996552140006493e-06,-6.080309552425334e-05,9.640607941951984e-06,9.256642481259993e-05,-0.0004821349072394084,-0.00017947607230946506,0.0005621162220876769,-0.0002589889676737807,0.00020460738664980873,0.0009585375947511461,0.5021602511405945,34.16213607788086,3.8228423595428467,-19.511445999145508,-0.2429099678993225,-1.790164589881897,0.09738485515117645,0
58,0.2849884033203125,-0.5021602511405945,-34.16213607788086,-3.8228423595428467,19.511445999145508,0.2429099678993225,1.790164589881897,-0.09738485515117645,0.0,0.0,0.0,0.0,0.0,0.0,0.0,-0.5179212224875415,-0.07471285472185045,-0.2521119914368986,0.45329495494823735,0.19734201524710193,-0.12461627724430263,-0.1227556129518192,1.0544723994442757,0.32428406115582115,-0.3923892785494506,-2.153499828070925,0.8647499188158989,2.465938978870734,0.5444923779491136,1.0544104758940245,0.3238615046091247,-0.39250456234122666,-2.153291787532338,0.8647539153680389,2.46587817577521,0.5445020185570556,-9.256642481259993e-05,0.0004821349072394084,0.00017947607230946506,-0.0005621162220876769,0.0002589889676737807,-0.00020460738664980873,-0.0009585375947511461,0.0,0.0,0.0,0.0,0.0,0.0,0.0,-6.192355025125273e-05,-0.0004225565466964287,-0.00011528379177605519,0.00020804053858736182,3.996552140006493e-06,-6.080309552425334e-05,9.640607941951984e-06,9.256642481259993e-05,-0.0004821349072394084,-0.00017947607230946506,0.0005621162220876769,-0.0002589889676737807,0.00020460738664980873,0.0009585375947511461,0.5021602511405945,34.16213607788086,3.8228423595428467,-19.511445999145508,-0.2429099678993225,-1.790164589881897,0.09738485515117645,0
59,0.29000210762023926,-0.5299312472343445,-34.16213607788086,-3.7990386486053467,19.511445999145508,0.2667136788368225,1.777347207069397,-0.09097616374492645,0.0,0.0,0.0,0.0,0.0,0.0,0.0,-0.5215423079649117,-0.07729226184175099,-0.25751920307677034,0.4523945834256186,0.19741015956938437,-0.12459412793322992,-0.12225968180009818,1.054476485465407,0.32428406115582115,-0.39239093743002784,-2.153499828070925,0.8647472744981418,2.4659404030243555,0.5444870349770381,1.0544104758940245,0.3238615046091247,-0.39250456234122666,-2.153291787532338,0.8647539153680389,2.46587817577521,0.5445020185570556,-0.00044489122152652666,0.00011794407788585537,-0.0007089025251290836,-0.0003715427507309448,-0.0005868087075572355,0.0008507156520427805,-0.0012193673866742047,0.0,0.0,0.0,0.0,0.0,0.0,0.0,-6.600957138247487e-05,-0.0004225565466964287,-0.00011362491119881746,0.00020804053858736182,6.640869897100998e-06,-6.222724914550781e-05,1.498358001750244e-05,0.00044489122152652666,-0.00011794407788585537,0.0007089025251290836,0.0003715427507309448,0.0005868087075572355,-0.0008507156520427805,0.0012193673866742047,0.5299312472343445,34.16213607788086,3.7990386486053467,-19.511445999145508,-0.2667136788368225,-1.777347207069397,0.09097616374492645,0
60,0.29503965377807617,-0.5299312472343445,-34.16213607788086,-3.7990386486053467,19.511445999145508,0.2667136788368225,1.777347207069397,-0.09097616374492645,0.0,0.0,0.0,0.0,0.0,0.0,0.0,-0.5215423079649117,-0.07729226184175099,-0.25751920307677034,0.4523945834256186,0.19741015956938437,-0.12459412793322992,-0.12225968180009818,1.054476485465407,0.32428406115582115,-0.39239093743002784,-2.153499828070925,0.8647472744981418,2.4659404030243555,0.5444870349770381,1.0544104758940245,0.3238615046091247,-0.39250456234122666,-2.153291787532338,0.8647539153680389,2.46587817577521,0.5445020185570556,-0.00044489122152652666,0.00011794407788585537,-0.0007089025251290836,-0.0003715427507309448,-0.0005868087075572355,0.0008507156520427805,-0.0012193673866742047,0.0,0.0,0.0,0.0,0.0,0.0,0.0,-6.600957138247487e-05,-0.0004225565466964287,-0.00011362491119881746,0.00020804053858736182,6.640869897100998e-06,-6.222724914550781e-05,1.498358001750244e-05,0.00044489122152652666,-0.00011794407788585537,0.0007089025251290836,0.0003715427507309448,0.0005868087075572355,-0.0008507156520427805,0.0012193673866742047,0.5299312472343445,34.16213607788086,3.7990386486053467,-19.511445999145508,-0.2667136788368225,-1.777347207069397,0.09097616374492645,0
61,0.30001282691955566,-0.5299312472343445,-34.16213607788086,-3.7990386486053467,19.511445999145508,0.2667136788368225,1.777347207069397,-0.09097616374492645,0.0,0.0,0.0,0.0,0.0,0.0,0.0,-0.5215423079649117,-0.07729226184175099,-0.25751920307677034,0.4523945834256186,0.19741015956938437,-0.12459412793322992,-0.12225968180009818,1.054476485465407,0.32428406115582115,-0.39239093743002784,-2.153499828070925,0.8647472744981418,2.4659404030243555,0.5444870349770381,1.0544104758940245,0.3238615046091247,-0.39250456234122666,-2.153291787532338,0.8647539153680389,2.46587817577521,0.5445020185570556,-0.00044489122152652666,0.00011794407788585537,-0.0007089025251290836,-0.0003715427507309448,-0.0005868087075572355,0.0008507156520427805,-0.0012193673866742047,0.0,0.0,0.0,0.0,0.0,0.0,0.0,-6.600957138247487e-05,-0.0004225565466964287,-0.00011362491119881746,0.00020804053858736182,6.640869897100998e-06,-6.222724914550781e-05,1.498358001750244e-05,0.00044489122152652666,-0.00011794407788585537,0.0007089025251290836,0.0003715427507309448,0.0005868087075572355,-0.0008507156520427805,0.0012193673866742047,0.5299312472343445,34.16213607788086,3.7990386486053467,-19.511445999145508,-0.2667136788368225,-1.777347207069397,0.09097616374492645,0
62,0.3049931526184082,-0.5299312472343445,-34.16213607788086,-3.7990386486053467,19.511445999145508,0.2667136788368225,1.777347207069397,-0.09097616374492645,0.0,0.0,0.0,0.0,0.0,0.0,0.0,-0.5215423079649117,-0.07729226184175099,-0.25751920307677034,0.4523945834256186,0.19741015956938437,-0.12459412793322992,-0.12225968180009818,1.054476485465407,0.32428406115582115,-0.39239093743002784,-2.153499828070925,0.8647472744981418,2.4659404030243555,0.5444870349770381,1.0544104758940245,0.3238615046091247,-0.39250456234122666,-2.153291787532338,0.8647539153680389,2.46587817577521,0.5445020185570556,-0.00044489122152652666,0.00011794407788585537,-0.0007089025251290836,-0.0003715427507309448,-0.0005868087075572355,0.0008507156520427805,-0.0012193673866742047,0.0,0.0,0.0,0.0,0.0,0.0,0.0,-6.600957138247487e-05,-0.0004225565466964287,-0.00011362491119881746,0.00020804053858736182,6.640869897100998e-06,-6.222724914550781e-05,1.498358001750244e-05,0.00044489122152652666,-0.00011794407788585537,0.0007089025251290836,0.0003715427507309448,0.0005868087075572355,-0.0008507156520427805,0.0012193673866742047,0.5299312472343445,34.16213607788086,3.7990386486053467,-19.511445999145508,-0.2667136788368225,-1.777347207069397,0.09097616374492645,0
63,0.30999255180358887,-0.5815059542655945,-34.13833236694336,-3.7990386486053467,19.535249710083008,0.2429099678993225,1.783755898475647,-0.14590780436992645,0.0,0.0,0.0,0.0,0.0,0.0,0.0,-0.512803498115335,-0.08544100066799808,-0.24979216873197324,0.4608596773361115,0.1964913200120213,-0.12297862782057574,-0.12165469455802796,1.0544777265652616,0.3242823907199659,-0.392390870984547,-2.153501498603683,0.864749880109059,2.4659396909475326,0.5444941993966956,1.0544104758940245,0.3238615046091247,-0.39250456234122666,-2.153291787532338,0.8647539153680389,2.46587817577521,0.5445020185570556,0.001383482376095272,-0.0008818984879066925,-0.00012247367723641127,-0.0008953636411815954,0.0003090122812095197,1.4598116656588811e-05,0.0009762120354488292,0.0,0.0,0.0,0.0,0.0,0.0,0.0,-6.725067123714012e-05,-0.0004208861108411788,-0.00011369135667965713,0.00020971107134526434,4.035258979961931e-06,-6.151517232266812e-05,7.819160359967547e-06,-0.001383482376095272,0.0008818984879066925,0.00012247367723641127,0.0008953636411815954,-0.0003090122812095197,-1.4598116656588811e-05,-0.0009762120354488292,0.5815059542655945,34.13833236694336,3.7990386486053467,-19.535249710083008,-0.2429099678993225,-1.783755898475647,0.14590780436992645,0
64,0.31495022773742676,-0.5815059542655945,-34.13833236694336,-3.7990386486053467,19.535249710083008,0.2429099678993225,1.783755898475647,-0.14590780436992645,0.0,0.0,0.0,0.0,0.0,0.0,0.0,-0.512803498115335,-0.08544100066799808,-0.24979216873197324,0.4608596773361115,0.1964913200120213,-0.12297862782057574,-0.12165469455802796,1.0544777265652616,0.3242823907199659,-0.392390870984547,-2.153501498603683,0.864749880109059,2.4659396909475326,0.5444941993966956,1.0544104758940245,0.3238615046091247,-0.39250456234122666,-2.153291787532338,0.8647539153680389,2.46587817577521,0.5445020185570556,0.001383482376095272,-0.0008818984879066925,-0.00012247367723641127,-0.0008953636411815954,0.0003090122812095197,1.4598116656588811e-05,0.0009762120354488292,0.0,0.0,0.0,0.0,0.0,0.0,0.0,-6.725067123714012e-05,-0.0004208861108411788,-0.00011369135667965713,0.00020971107134526434,4.035258979961931e-06,-6.151517232266812e-05,7.819160359967547e-06,-0.001383482376095272,0.0008818984879066925,0.00012247367723641127,0.0008953636411815954,-0.0003090122812095197,-1.4598116656588811e-05,-0.0009762120354488292,0.5815059542655945,34.13833236694336,3.7990386486053467,-19.535249710083008,-0.2429099678993225,-1.783755898475647,0.14590780436992645,0
65,0.3199477195739746,-0.5021602511405945,-34.16213607788086,-3.8228423595428467,19.487642288208008,0.2429099678993225,1.783755898475647,-0.09097616374492645,0.0,0.0,0.0,0.0,0.0,0.0,0.0,-0.5248641777131364,-0.07633168810857952,-0.2553241488176558,0.4552820939269424,0.19622232262592465,-0.12286071725502594,-0.12206008904213281,1.0544723968508982,0.32428406115582115,-0.39238927854945665,-2.1534981577319736,0.8647499193008589,2.4659396909475326,0.5444873925302459,1.0544104758940245,0.3238615046091247,-0.39250456234122666,-2.153291787532338,0.8647539153680389,2.46587817577521,0.5445020185570556,-0.0008510076985557109,0.0003246704149032857,-3.6796002302762844e-05,-0.0002302541149092477,0.0002317372482954388,-0.00016483948023154635,-0.0005727934066298914,0.0,0.0,0.0,0.0,0.0,0.0,0.0,-6.192095687374e-05,-0.0004225565466964287,-0.00011528379177000447,0.00020637019963576364,3.996067180045415e-06,-6.151517232266812e-05,1.4626026809683168e-05,0.0008510076985557109,-0.0003246704149032857,3.6796002302762844e-05,0.0002302541149092477,-0.0002317372482954388,0.00016483948023154635,0.0005727934066298914,0.5021602511405945,34.16213607788086,3.8228423595428467,-19.487642288208008,-0.2429099678993225,-1.783755898475647,0.09097616374492645,0
66,0.32500410079956055,-0.5021602511405945,-34.16213607788086,-3.8228423595428467,19.487642288208008,0.2429099678993225,1.783755898475647,-0.09097616374492645,0.0,0.0,0.0,0.0,0.0,0.0,0.0,-0.5248641777131364,-0.07633168810857952,-0.2553241488176558,0.4552820939269424,0.19622232262592465,-0.12286071725502594,-0.12206008904213281,1.0544723968508982,0.32428406115582115,-0.39238927854945665,-2.1534981577319736,0.8647499193008589,2.4659396909475326,0.5444873925302459,1.0544104758940245,0.3238615046091247,-0.39250456234122666,-2.153291787532338,0.8647539153680389,2.46587817577521,0.5445020185570556,-0.0008510076985557109,0.0003246704149032857,-3.6796002302762844e-05,-0.0002302541149092477,0.0002317372482954388,-0.00016483948023154635,-0.0005727934066298914,0.0,0.0,0.0,0.0,0.0,0.0,0.0,-6.192095687374e-05,-0.0004225565466964287,-0.00011528379177000447,0.00020637019963576364,3.996067180045415e-06,-6.151517232266812e-05,1.4626026809683168e-05,0.0008510076985557109,-0.0003246704149032857,3.6796002302762844e-05,0.0002302541149092477,-0.0002317372482954388,0.00016483948023154635,0.0005727934066298914,0.5021602511405945,34.16213607788086,3.8228423595428467,-19.487642288208008,-0.2429099678993225,-1.783755898475647,0.09097616374492645,0
67,0.3300325870513916,-0.5299312472343445,-34.16213607788086,-3.7990386486053467,19.535249710083008,0.2429099678993225,1.783755898475647,-0.09738485515117645,0.0,0.0,0.0,0.0,0.0,0.0,0.0,-0.524811744960448,-0.08252916882333927,-0.2557528176033587,0.4564478543005792,0.19594345391983597,-0.12281058177213056,-0.12114436132580392,1.0544764944047262,0.32428406115582115,-0.39239094802277524,-2.1535014985067806,0.8647497972566947,2.465939689493982,0.5444909257826204,1.0544104758940245,0.3238615046091247,-0.39250456234122666,-2.153291787532338,0.8647539153680389,2.46587817577521,0.5445020185570556,-0.0001741691895223355,-6.256998751472791e-05,-0.0006458384298136739,-0.001721390256151056,0.00031161905698450475,1.1510378001657348e-05,-0.0013300800774504304,0.0,0.0,0.0,0.0,0.0,0.0,0.0,-6.601851070175968e-05,-0.0004225565466964287,-0.00011361431845141601,0.0002097109744427783,4.118111344264541e-06,-6.151371877205492e-05,1.1092774435228492e-05,0.0001741691895223355,6.256998751472791e-05,0.0006458384298136739,0.001721390256151056,-0.00031161905698450475,-1.1510378001657348e-05,0.0013300800774504304,0.5299312472343445,34.16213607788086,3.7990386486053467,-19.535249710083008,-0.2429099678993225,-1.783755898475647,0.09738485515117645,0
68,0.3350214958190918,-0.5299312472343445,-34.16213607788086,-3.7990386486053467,19.535249710083008,0.2429099678993225,1.783755898475647,-0.09738485515117645,0.0,0.0,0.0,0.0,0.0,0.0,0.0,-0.524811744960448,-0.08252916882333927,-0.2557528176033587,0.4564478543005792,0.19594345391983597,-0.12281058177213056,-0.12114436132580392,1.0544764944047262,0.32428406115582115,-0.39239094802277524,-2.1535014985067806,0.8647497972566947,2.465939689493982,0.5444909257826204,1.0544104758940245,0.3238615046091247,-0.39250456234122666,-2.153291787532338,0.8647539153680389,2.46587817577521,0.5445020185570556,-0.0001741691895223355,-6.256998751472791e-05,-0.0006458384298136739,-0.001721390256151056,0.00031161905698450475,1.1510378001657348e-05,-0.0013300800774504304,0.0,0.0,0.0,0.0,0.0,0.0,0.0,-6.601851070175968e-05,-0.0004225565466964287,-0.00011361431845141601,0.0002097109744427783,4.118111344264541e-06,-6.151371877205492e-05,1.1092774435228492e-05,0.0001741691895223355,6.256998751472791e-05,0.0006458384298136739,0.001721390256151056,-0.00031161905698450475,-1.1510378001657348e-05,0.0013300800774504304,0.5299312472343445,34.16213607788086,3.7990386486053467,-19.535249710083008,-0.2429099678993225,-1.783755898475647,0.09738485515117645,0
69,0.34009885787963867,-0.5021602511405945,-34.18990707397461,-3.8228423595428467,19.487642288208008,0.2548118233680725,1.777347207069397,-0.11111776530742645,0.0,0.0,0.0,0.0,0.0,0.0,0.0,-0.5272204600632421,-0.0853119249805512,-0.25599571371747937,0.4610290969530902,0.19590648026226726,-0.12210205961293202,-0.12313965520897217,1.0544745426315856,0.3242860099976523,-0.3923892785498916,-2.15349815763507,0.8647485969258409,2.465940403024347,0.5444924516774522,1.0544104758940245,0.3238615046091247,-0.39250456234122666,-2.153291787532338,0.8647539153680389,2.46587817577521,0.5445020185570556,-0.0008408116284178749,0.0010272556500816304,-4.7797203775502436e-05,0.00017553809148101207,-9.085616709859317e-05,0.00025687258794862946,-0.0005669388899042519,0.0,0.0,0.0,0.0,0.0,0.0,0.0,-6.406673756109704e-05,-0.0004245053885275629,-0.0001152837913350746,0.00020637010273194534,5.318442197976836e-06,-6.222724913707012e-05,9.56687960340652e-06,0.0008408116284178749,-0.0010272556500816304,4.7797203775502436e-05,-0.00017553809148101207,9.085616709859317e-05,-0.00025687258794862946,0.0005669388899042519,0.5021602511405945,34.18990707397461,3.8228423595428467,-19.487642288208008,-0.2548118233680725,-1.777347207069397,0.11111776530742645,0
70,0.34500598907470703,-0.5021602511405945,-34.18990707397461,-3.8228423595428467,19.487642288208008,0.2548118233680725,1.777347207069397,-0.11111776530742645,0.0,0.0,0.0,0.0,0.0,0.0,0.0,-0.5272204600632421,-0.0853119249805512,-0.25599571371747937,0.4610290969530902,0.19590648026226726,-0.12210205961293202,-0.12313965520897217,1.0544745426315856,0.3242860099976523,-0.3923892785498916,-2.15349815763507,0.8647485969258409,2.465940403024347,0.5444924516774522,1.0544104758940245,0.3238615046091247,-0.39250456234122666,-2.153291787532338,0.8647539153680389,2.46587817577521,0.5445020185570556,-0.0008408116284178749,0.0010272556500816304,-4.7797203775502436e-05,0.00017553809148101207,-9.085616709859317e-05,0.00025687258794862946,-0.0005669388899042519,0.0,0.0,0.0,0.0,0.0,0.0,0.0,-6.406673756109704e-05,-0.0004245053885275629,-0.0001152837913350746,0.00020637010273194534,5.318442197976836e-06,-6.222724913707012e-05,9.56687960340652e-06,0.0008408116284178749,-0.0010272556500816304,4.7797203775502436e-05,-0.00017553809148101207,9.085616709859317e-05,-0.00025687258794862946,0.0005669388899042519,0.5021602511405945,34.18990707397461,3.8228423595428467,-19.487642288208008,-0.2548118233680725,-1.777347207069397,0.11111776530742645,0
71,0.34999513626098633,-0.5021602511405945,-34.16213607788086,-3.8228423595428467,19.487642288208008,0.2429099678993225,1.783755898475647,-0.09097616374492645,0.0,0.0,0.0,0.0,0.0,0.0,0.0,-0.5281634378433907,-0.08204200239272863,-0.25458330194543927,0.4591687974200173,0.19598405317739673,-0.12253053688713864,-0.12471727385116556,1.0544742188411498,0.32428406115582115,-0.39238904453458817,-2.15349815763507,0.8647466226491225,2.465939690947532,0.5444870347953716,1.0544104758940245,0.3238615046091247,-0.39250456234122666,-2.153291787532338,0.8647539153680389,2.46587817577521,0.5445020185570556,-0.0006302529129535529,0.0002672927671805429,-0.00015028268471102747,-0.0001314889640209931,0.0001344250249341366,-0.0091548971886849,-0.0017445703811279263,0.0,0.0,0.0,0.0,0.0,0.0,0.0,-6.374294712530038e-05,-0.0004225565466964287,-0.00011551780663848765,0.00020637010273194534,7.2927189164184725e-06,-6.151517232222403e-05,1.4983761683962094e-05,0.0006302529129535529,-0.0002672927671805429,0.00015028268471102747,0.0001314889640209931,-0.0001344250249341366,0.0091548971886849,0.0017445703811279263,0.5021602511405945,34.16213607788086,3.8228423595428467,-19.487642288208008,-0.2429099678993225,-1.783755898475647,0.09097616374492645,0
72,0.354947566986084,-0.5021602511405945,-34.16213607788086,-3.8228423595428467,19.487642288208008,0.2429099678993225,1.783755898475647,-0.09097616374492645,0.0,0.0,0.0,0.0,0.0,0.0,0.0,-0.5281634378433907,-0.08204200239272863,-0.25458330194543927,0.4591687974200173,0.19598405317739673,-0.12253053688713864,-0.12471727385116556,1.0544742188411498,0.32428406115582115,-0.39238904453458817,-2.15349815763507,0.8647466226491225,2.465939690947532,0.5444870347953716,1.0544104758940245,0.3238615046091247,-0.39250456234122666,-2.153291787532338,0.8647539153680389,2.46587817577521,0.5445020185570556,-0.0006302529129535529,0.0002672927671805429,-0.00015028268471102747,-0.0001314889640209931,0.0001344250249341366,-0.0091548971886849,-0.0017445703811279263,0.0,0.0,0.0,0.0,0.0,0.0,0.0,-6.374294712530038e-05,-0.0004225565466964287,-0.00011551780663848765,0.00020637010273194534,7.2927189164184725e-06,-6.151517232222403e-05,1.4983761683962094e-05,0.0006302529129535529,-0.0002672927671805429,0.00015028268471102747,0.0001314889640209931,-0.0001344250249341366,0.0091548971886849,0.0017445703811279263,0.5021602511405945,34.16213607788086,3.8228423595428467,-19.487642288208008,-0.2429099678993225,-1.783755898475647,0.09097616374492645,0
73,0.35999202728271484,-0.5299312472343445,-34.16213607788086,-3.8228423595428467,19.459871292114258,0.2484031319618225,1.790164589881897,-0.10470907390117645,0.0,0.0,0.0,0.0,0.0,0.0,0.0,-0.5326375347260182,-0.089634246062628,-0.2620505699877179,0.4645057391251968,0.19553347966591972,-0.11952934902622088,-0.12600024792298142,1.0544764944113225,0.32428620692303306,-0.3923885733257498,-2.1534962087932388,0.8647493089475231,2.4659389788707093,0.5444896246670764,1.0544104758940245,0.3238615046091247,-0.39250456234122666,-2.153291787532338,0.8647539153680389,2.46587817577521,0.5445020185570556,0.00035107035578943864,3.09817335906557e-05,-0.00021957316240852105,0.0004255292779557886,3.6177537586391075e-05,-0.00072892604503165,-0.000912535692659451,0.0,0.0,0.0,0.0,0.0,0.0,0.0,-6.601851729803876e-05,-0.0004247023139083428,-0.00011598901547688056,0.00020442126090092216,4.606420515806953e-06,-6.080309549938434e-05,1.2393889979200878e-05,-0.00035107035578943864,-3.09817335906557e-05,0.00021957316240852105,-0.0004255292779557886,-3.6177537586391075e-05,0.00072892604503165,0.000912535692659451,0.5299312472343445,34.16213607788086,3.8228423595428467,-19.459871292114258,-0.2484031319618225,-1.790164589881897,0.10470907390117645,0
74,0.36499643325805664,-0.5299312472343445,-34.16213607788086,-3.8228423595428467,19.459871292114258,0.2484031319618225,1.790164589881897,-0.10470907390117645,0.0,0.0,0.0,0.0,0.0,0.0,0.0,-0.5326375347260182,-0.089634246062628,-0.2620505699877179,0.4645057391251968,0.19553347966591972,-0.11952934902622088,-0.12600024792298142,1.0544764944113225,0.32428620692303306,-0.3923885733257498,-2.1534962087932388,0.8647493089475231,2.4659389788707093,0.5444896246670764,1.0544104758940245,0.3238615046091247,-0.39250456234122666,-2.153291787532338,0.8647539153680389,2.46587817577521,0.5445020185570556,0.00035107035578943864,3.09817335906557e-05,-0.00021957316240852105,0.0004255292779557886,3.6177537586391075e-05,-0.00072892604503165,-0.000912535692659451,0.0,0.0,0.0,0.0,0.0,0.0,0.0,-6.601851729803876e-05,-0.0004247023139083428,-0.00011598901547688056,0.00020442126090092216,4.606420515806953e-06,-6.080309549938434e-05,1.2393889979200878e-05,-0.00035107035578943864,-3.09817335906557e-05,0.00021957316240852105,-0.0004255292779557886,-3.6177537586391075e-05,0.00072892604503165,0.000912535692659451,0.5299312472343445,34.16213607788086,3.8228423595428467,-19.459871292114258,-0.2484031319618225,-1.790164589881897,0.10470907390117645,0
75,0.3699967861175537,-0.4783565402030945,-34.21371078491211,-3.7990386486053467,19.511445999145508,0.2365012764930725,1.790164589881897,-0.09097616374492645,0.0,0.0,0.0,0.0,0.0,0.0,0.0,-0.5161752298042518,-0.08727867138694476,-0.24904330964177132,0.46052953957563525,0.19496045213980476,-0.12159261485476099,-0.12663668056575209,1.0544728751391694,0.32428770693657366,-0.39239094866077895,-2.153499828070925,0.8647505921858816,2.4659389788707093,0.5444902544091912,1.0544104758940245,0.3238615046091247,-0.39250456234122666,-2.153291787532338,0.8647539153680389,2.46587817577521,0.5445020185570556,-0.00038995015262837654,0.0010245700545064654,-0.00038554610454474576,-0.00048710121026417373,0.00034280836223381245,-2.0265672822493276e-05,-0.0012421606965094308,0.0,0.0,0.0,0.0,0.0,0.0,0.0,-6.239924514495065e-05,-0.0004262023274489435,-0.00011361368044771059,0.00020804053858736182,3.3231821573442843e-06,-6.080309549938434e-05,1.17641478644126e-05,0.00038995015262837654,-0.0010245700545064654,0.00038554610454474576,0.00048710121026417373,-0.00034280836223381245,2.0265672822493276e-05,0.0012421606965094308,0.4783565402030945,34.21371078491211,3.7990386486053467,-19.511445999145508,-0.2365012764930725,-1.790164589881897,0.09097616374492645,0
76,0.37500619888305664,-0.4783565402030945,-34.21371078491211,-3.7990386486053467,19.511445999145508,0.2365012764930725,1.790164589881897,-0.09097616374492645,0.0,0.0,0.0,0.0,0.0,0.0,0.0,-0.5161752298042518,-0.08727867138694476,-0.24904330964177132,0.46052953957563525,0.19496045213980476,-0.12159261485476099,-0.12663668056575209,1.0544728751391694,0.32428770693657366,-0.39239094866077895,-2.153499828070925,0.8647505921858816,2.4659389788707093,0.5444902544091912,1.0544104758940245,0.3238615046091247,-0.39250456234122666,-2.153291787532338,0.8647539153680389,2.46587817577521,0.5445020185570556,-0.00038995015262837654,0.0010245700545064654,-0.00038554610454474576,-0.00048710121026417373,0.00034280836223381245,-2.0265672822493276e-05,-0.0012421606965094308,0.0,0.0,0.0,0.0,0.0,0.0,0.0,-6.239924514495065e-05,-0.0004262023274489435,-0.00011361368044771059,0.00020804053858736182,3.3231821573442843e-06,-6.080309549938434e-05,1.17641478644126e-05,0.00038995015262837654,-0.0010245700545064654,0.00038554610454474576,0.00048710121026417373,-0.00034280836223381245,2.0265672822493276e-05,0.0012421606965094308,0.4783565402030945,34.21371078491211,3.7990386486053467,-19.511445999145508,-0.2365012764930725,-1.790164589881897,0.09097616374492645,0
77,0.3799934387207031,-0.4783565402030945,-34.18990707397461,-3.8228423595428467,19.511445999145508,0.2484031319618225,1.790164589881897,-0.11844198405742645,0.0,0.0,0.0,0.0,0.0,0.0,0.0,-0.5202028229929986,-0.07953744542629884,-0.255240739096,0.4526311126537979,0.19485106841648797,-0.12100727544656238,-0.12563869860985816,1.054472875030153,0.32428603648875515,-0.39238896654533484,-2.153499828070925,0.8647493090031316,2.4659389788707093,0.5444904399395927,1.0544104758940245,0.3238615046091247,-0.39250456234122666,-2.153291787532338,0.8647539153680389,2.46587817577521,0.5445020185570556,-0.00032151450769597983,0.00047435414719147577,-0.000301213399070641,-0.0009918181597629962,-1.1509164088648518e-05,-0.00015640758637652173,-0.0002207805711760765,0.0,0.0,0.0,0.0,0.0,0.0,0.0,-6.239913612859915e-05,-0.0004245318796304298,-0.00011559579589182079,0.00020804053858736182,4.606364907289162e-06,-6.080309549938434e-05,1.157861746292621e-05,0.00032151450769597983,-0.00047435414719147577,0.000301213399070641,0.0009918181597629962,1.1509164088648518e-05,0.00015640758637652173,0.0002207805711760765,0.4783565402030945,34.18990707397461,3.8228423595428467,-19.511445999145508,-0.2484031319618225,-1.790164589881897,0.11844198405742645,0
78,0.384990930557251,-0.4783565402030945,-34.18990707397461,-3.8228423595428467,19.511445999145508,0.2484031319618225,1.790164589881897,-0.11844198405742645,0.0,0.0,0.0,0.0,0.0,0.0,0.0,-0.5202028229929986,-0.07953744542629884,-0.255240739096,0.4526311126537979,0.19485106841648797,-0.12100727544656238,-0.12563869860985816,1.054472875030153,0.32428603648875515,-0.39238896654533484,-2.153499828070925,0.8647493090031316,2.4659389788707093,0.5444904399395927,1.0544104758940245,0.3238615046091247,-0.39250456234122666,-2.153291787532338,0.8647539153680389,2.46587817577521,0.5445020185570556,-0.00032151450769597983,0.00047435414719147577,-0.000301213399070641,-0.0009918181597629962,-1.1509164088648518e-05,-0.00015640758637652173,-0.0002207805711760765,0.0,0.0,0.0,0.0,0.0,0.0,0.0,-6.239913612859915e-05,-0.0004245318796304298,-0.00011559579589182079,0.00020804053858736182,4.606364907289162e-06,-6.080309549938434e-05,1.157861746292621e-05,0.00032151450769597983,-0.00047435414719147577,0.000301213399070641,0.0009918181597629962,1.1509164088648518e-05,0.00015640758637652173,0.0002207805711760765,0.4783565402030945,34.18990707397461,3.8228423595428467,-19.511445999145508,-0.2484031319618225,-1.790164589881897,0.11844198405742645,0
79,0.39000940322875977,-0.4783565402030945,-34.16213607788086,-3.8228423595428467,19.487642288208008,0.2548118233680725,1.783755898475647,-0.13858358561992645,0.0,0.0,0.0,0.0,0.0,0.0,0.0,-0.5104545075940529,-0.08489474778001424,-0.25020282551273726,0.45533443936443563,0.19456750028765377,-0.12051390942965846,-0.12420412739666896,1.0544728751391688,0.3242840611559707,-0.39238926888269954,-2.15349815763507,0.8647485969265302,2.4659397040294846,0.5444937373557657,1.0544104758940245,0.3238615046091247,-0.39250456234122666,-2.153291787532338,0.8647539153680389,2.46587817577521,0.5445020185570556,-0.0005430023939790858,-0.0003015598334022207,0.00010869760769779589,-0.00010438000578646124,-0.00026108186298597476,1.46438195119424e-05,0.0010274845068400829,0.0,0.0,0.0,0.0,0.0,0.0,0.0,-6.239924514428452e-05,-0.00042255654684597577,-0.00011529345852712147,0.00020637010273194534,5.318441508750382e-06,-6.152825427463426e-05,8.281201289928042e-06,0.0005430023939790858,0.0003015598334022207,-0.00010869760769779589,0.00010438000578646124,0.00026108186298597476,-1.46438195119424e-05,-0.0010274845068400829,0.4783565402030945,34.16213607788086,3.8228423595428467,-19.487642288208008,-0.2548118233680725,-1.783755898475647,0.13858358561992645,0
80,0.3949546813964844,-0.4783565402030945,-34.16213607788086,-3.8228423595428467,19.487642288208008,0.2548118233680725,1.783755898475647,-0.13858358561992645,0.0,0.0,0.0,0.0,0.0,0.0,0.0,-0.5104545075940529,-0.08489474778001424,-0.25020282551273726,0.45533443936443563,0.19456750028765377,-0.12051390942965846,-0.12420412739666896,1.0544728751391688,0.3242840611559707,-0.39238926888269954,-2.15349815763507,0.8647485969265302,2.4659397040294846,0.5444937373557657,1.0544104758940245,0.3238615046091247,-0.39250456234122666,-2.153291787532338,0.8647539153680389,2.46587817577521,0.5445020185570556,-0.0005430023939790858,-0.0003015598334022207,0.00010869760769779589,-0.00010438000578646124,-0.00026108186298597476,1.46438195119424e-05,0.0010274845068400829,0.0,0.0,0.0,0.0,0.0,0.0,0.0,-6.239924514428452e-05,-0.00042255654684597577,-0.00011529345852712147,0.00020637010273194534,5.318441508750382e-06,-6.152825427463426e-05,8.281201289928042e-06,0.0005430023939790858,0.0003015598334022207,-0.00010869760769779589,0.00010438000578646124,0.00026108186298597476,-1.46438195119424e-05,-0.0010274845068400829,0.4783565402030945,34.16213607788086,3.8228423595428467,-19.487642288208008,-0.2548118233680725,-1.783755898475647,0.13858358561992645,0
