rezayati/contactInterpretation/dataset/franka_main/labeled_data/link4/d8_4.csv
index,time,tau_J0,tau_J1,tau_J2,tau_J3,tau_J4,tau_J5,tau_J6,tau_J_d0,tau_J_d1,tau_J_d2,tau_J_d3,tau_J_d4,tau_J_d5,tau_J_d6,tau_ext0,tau_ext1,tau_ext2,tau_ext3,tau_ext4,tau_ext5,tau_ext6,q0,q1,q2,q3,q4,q5,q6,q_d0,q_d1,q_d2,q_d3,q_d4,q_d5,q_d6,dq0,dq1,dq2,dq3,dq4,dq5,dq6,dq_d0,dq_d1,dq_d2,dq_d3,dq_d4,dq_d5,dq_d6,e0,e1,e2,e3,e4,e5,e6,de0,de1,de2,de3,de4,de5,de6,etau_J0,etau_J1,etau_J2,etau_J3,etau_J4,etau_J5,etau_J6,label
1,0.0,-0.4505855441093445,-19.844202041625977,-0.4982573688030243,20.082735061645508,0.5578513741493225,2.4566683769226074,-0.21457235515117645,0.0,0.0,0.0,0.0,0.0,0.0,0.0,-0.40880906052532046,-0.11335827173749827,-0.2416676296557253,0.327600451278445,-0.02325215594332914,0.09224688931293205,-0.2030725058445638,1.2135576305514888,-0.22029642514387768,-0.007424016628479748,-2.604290260653281,-0.1089554524620374,2.4681227468384637,0.8264703745759195,1.2134413937687574,-0.2202432315892585,-0.0075118285948192216,-2.6038483821997875,-0.10888392708698907,2.4681821257803174,0.826474908251239,0.0002852028348037593,-3.014283969110998e-05,0.0007029941627873053,0.00020353386356060642,0.00017104596226413357,0.0005046151193520667,0.0007817004240970286,0.0,0.0,0.0,0.0,0.0,0.0,0.0,-0.00011623678273142701,5.319355461919084e-05,-8.781196633947386e-05,0.00044187845349341615,7.152537504832857e-05,5.937894185370496e-05,4.533675319495778e-06,-0.0002852028348037593,3.014283969110998e-05,-0.0007029941627873053,-0.00020353386356060642,-0.00017104596226413357,-0.0005046151193520667,-0.0007817004240970286,0.4505855441093445,19.844202041625977,0.4982573688030243,-20.082735061645508,-0.5578513741493225,-2.4566683769226074,0.21457235515117645,0
2,0.005004167556762695,-0.4783565402030945,-19.868005752563477,-0.4704863727092743,20.106538772583008,0.5697532296180725,2.4758944511413574,-0.20083944499492645,0.0,0.0,0.0,0.0,0.0,0.0,0.0,-0.4168986360047378,-0.11877528095075517,-0.2491334265255285,0.32974652113863995,-0.023351217053155182,0.09328914633710586,-0.20143637373620268,1.2135595793933198,-0.2202947547080224,-0.007425965470310888,-2.6042921783366384,-0.10895677489042283,2.468120610607995,0.8264688486970133,1.2134413937687574,-0.2202432315892585,-0.0075118285948192216,-2.6038483821997875,-0.10888392708698907,2.4681821257803174,0.826474908251239,0.00044822627987160335,2.3301103542891508e-05,-0.0005532598109630823,0.00011502805798072562,-0.0002802550477043885,-0.0004615021346436757,-0.00013779197245109465,0.0,0.0,0.0,0.0,0.0,0.0,0.0,-0.00011818562456245019,5.1523118763913134e-05,-8.586312450833359e-05,0.0004437961368508603,7.284780343375097e-05,6.151517232222403e-05,6.0595542257235735e-06,-0.00044822627987160335,-2.3301103542891508e-05,0.0005532598109630823,-0.00011502805798072562,0.0002802550477043885,0.0004615021346436757,0.00013779197245109465,0.4783565402030945,19.868005752563477,0.4704863727092743,-20.106538772583008,-0.5697532296180725,-2.4758944511413574,0.20083944499492645,0
3,0.010005950927734375,-0.4783565402030945,-19.868005752563477,-0.4704863727092743,20.106538772583008,0.5697532296180725,2.4758944511413574,-0.20083944499492645,0.0,0.0,0.0,0.0,0.0,0.0,0.0,-0.4168986360047378,-0.11877528095075517,-0.2491334265255285,0.32974652113863995,-0.023351217053155182,0.09328914633710586,-0.20143637373620268,1.2135595793933198,-0.2202947547080224,-0.007425965470310888,-2.6042921783366384,-0.10895677489042283,2.468120610607995,0.8264688486970133,1.2134413937687574,-0.2202432315892585,-0.0075118285948192216,-2.6038483821997875,-0.10888392708698907,2.4681821257803174,0.826474908251239,0.00044822627987160335,2.3301103542891508e-05,-0.0005532598109630823,0.00011502805798072562,-0.0002802550477043885,-0.0004615021346436757,-0.00013779197245109465,0.0,0.0,0.0,0.0,0.0,0.0,0.0,-0.00011818562456245019,5.1523118763913134e-05,-8.586312450833359e-05,0.0004437961368508603,7.284780343375097e-05,6.151517232222403e-05,6.0595542257235735e-06,-0.00044822627987160335,-2.3301103542891508e-05,0.0005532598109630823,-0.00011502805798072562,0.0002802550477043885,0.0004615021346436757,0.00013779197245109465,0.4783565402030945,19.868005752563477,0.4704863727092743,-20.106538772583008,-0.5697532296180725,-2.4758944511413574,0.20083944499492645,0
4,0.01500082015991211,-0.3514034152030945,-19.868005752563477,-0.4228789508342743,20.106538772583008,0.5642600655555725,2.4630770683288574,-0.17337362468242645,0.0,0.0,0.0,0.0,0.0,0.0,0.0,-0.4074209104115071,-0.12013819949456911,-0.24064476766685683,0.32603153676164365,-0.024018850763908382,0.0931895942429008,-0.2022416294183852,1.213550747246448,-0.2202947547080224,-0.007429306342021414,-2.6042921783380337,-0.10895616453886033,2.468122034761641,0.8264689758535888,1.2134413937687574,-0.2202432315892585,-0.0075118285948192216,-2.6038483821997875,-0.10888392708698907,2.4681821257803174,0.826474908251239,-0.001247512137451316,-0.00027051271181381003,-0.00010541081353377374,-0.0001951465394136995,-0.000225898378112179,9.905717946065369e-05,-0.0009885336778694413,0.0,0.0,0.0,0.0,0.0,0.0,0.0,-0.00010935347769058801,5.1523118763913134e-05,-8.252225279780766e-05,0.0004437961382461886,7.223745187125152e-05,6.009101867654465e-05,5.932397650232346e-06,0.001247512137451316,0.00027051271181381003,0.00010541081353377374,0.0001951465394136995,0.000225898378112179,-9.905717946065369e-05,0.0009885336778694413,0.3514034152030945,19.868005752563477,0.4228789508342743,-20.106538772583008,-0.5642600655555725,-2.4630770683288574,0.17337362468242645,0
5,0.020000696182250977,-0.3514034152030945,-19.868005752563477,-0.4228789508342743,20.106538772583008,0.5642600655555725,2.4630770683288574,-0.17337362468242645,0.0,0.0,0.0,0.0,0.0,0.0,0.0,-0.4074209104115071,-0.12013819949456911,-0.24064476766685683,0.32603153676164365,-0.024018850763908382,0.0931895942429008,-0.2022416294183852,1.213550747246448,-0.2202947547080224,-0.007429306342021414,-2.6042921783380337,-0.10895616453886033,2.468122034761641,0.8264689758535888,1.2134413937687574,-0.2202432315892585,-0.0075118285948192216,-2.6038483821997875,-0.10888392708698907,2.4681821257803174,0.826474908251239,-0.001247512137451316,-0.00027051271181381003,-0.00010541081353377374,-0.0001951465394136995,-0.000225898378112179,9.905717946065369e-05,-0.0009885336778694413,0.0,0.0,0.0,0.0,0.0,0.0,0.0,-0.00010935347769058801,5.1523118763913134e-05,-8.252225279780766e-05,0.0004437961382461886,7.223745187125152e-05,6.009101867654465e-05,5.932397650232346e-06,0.001247512137451316,0.00027051271181381003,0.00010541081353377374,0.0001951465394136995,0.000225898378112179,-9.905717946065369e-05,0.0009885336778694413,0.3514034152030945,19.868005752563477,0.4228789508342743,-20.106538772583008,-0.5642600655555725,-2.4630770683288574,0.17337362468242645,0
6,0.025002002716064453,-0.4267818331718445,-19.891809463500977,-0.3990752398967743,20.106538772583008,0.5523582100868225,2.4758944511413574,-0.21457235515117645,0.0,0.0,0.0,0.0,0.0,0.0,0.0,-0.4127422193949381,-0.11639009246868737,-0.2476371333156392,0.3239713240640287,-0.023920972044948596,0.09276517352376944,-0.2012863533853258,1.2135559601160673,-0.22029308427216715,-0.007430976777876678,-2.604292168163182,-0.1089548421104749,2.468120610607995,0.8264703745938646,1.2134413937687574,-0.2202432315892585,-0.0075118285948192216,-2.6038483821997875,-0.10888392708698907,2.4681821257803174,0.826474908251239,0.0011303051219944656,0.0009122284843001042,-0.00021808196100108542,-0.00023902540829097804,0.00036497221979227946,-0.00044216680673016853,0.000673381629023227,0.0,0.0,0.0,0.0,0.0,0.0,0.0,-0.00011456634730988569,4.985268290866318e-05,-8.085181694254383e-05,0.00044378596339456067,7.091502348582912e-05,6.151517232222403e-05,4.5336573744059194e-06,-0.0011303051219944656,-0.0009122284843001042,0.00021808196100108542,0.00023902540829097804,-0.00036497221979227946,0.00044216680673016853,-0.000673381629023227,0.4267818331718445,19.891809463500977,0.3990752398967743,-20.106538772583008,-0.5523582100868225,-2.4758944511413574,0.21457235515117645,0
7,0.029999732971191406,-0.4267818331718445,-19.891809463500977,-0.3990752398967743,20.106538772583008,0.5523582100868225,2.4758944511413574,-0.21457235515117645,0.0,0.0,0.0,0.0,0.0,0.0,0.0,-0.4127422193949381,-0.11639009246868737,-0.2476371333156392,0.3239713240640287,-0.023920972044948596,0.09276517352376944,-0.2012863533853258,1.2135559601160673,-0.22029308427216715,-0.007430976777876678,-2.604292168163182,-0.1089548421104749,2.468120610607995,0.8264703745938646,1.2134413937687574,-0.2202432315892585,-0.0075118285948192216,-2.6038483821997875,-0.10888392708698907,2.4681821257803174,0.826474908251239,0.0011303051219944656,0.0009122284843001042,-0.00021808196100108542,-0.00023902540829097804,0.00036497221979227946,-0.00044216680673016853,0.000673381629023227,0.0,0.0,0.0,0.0,0.0,0.0,0.0,-0.00011456634730988569,4.985268290866318e-05,-8.085181694254383e-05,0.00044378596339456067,7.091502348582912e-05,6.151517232222403e-05,4.5336573744059194e-06,-0.0011303051219944656,-0.0009122284843001042,0.00021808196100108542,0.00023902540829097804,-0.00036497221979227946,0.00044216680673016853,-0.000673381629023227,0.4267818331718445,19.891809463500977,0.3990752398967743,-20.106538772583008,-0.5523582100868225,-2.4758944511413574,0.21457235515117645,0
8,0.035002946853637695,-0.3514034152030945,-19.816431045532227,-0.4228789508342743,20.106538772583008,0.5642600655555725,2.4630770683288574,-0.22830526530742645,0.0,0.0,0.0,0.0,0.0,0.0,0.0,-0.40532057492929496,-0.12210883341406266,-0.23702699922271334,0.3275366404339896,-0.02404432480361573,0.09359152422528015,-0.19994783478627706,1.2135506789053605,-0.2202983739857088,-0.007429306342021414,-2.6042921661281544,-0.10895616453886033,2.468122034761641,0.8264729993388118,1.2134413937687574,-0.2202432315892585,-0.0075118285948192216,-2.6038483821997875,-0.10888392708698907,2.4681821257803174,0.826474908251239,-0.0007988654755525645,-0.0008930178065067545,0.0008471947788982493,-0.0001292276815473357,-0.0004307258506492301,0.00011190542753613496,0.0014053627011611472,0.0,0.0,0.0,0.0,0.0,0.0,0.0,-0.00010928513660313222,5.514239645032504e-05,-8.252225279780766e-05,0.00044378392836685876,7.223745187125152e-05,6.009101867654465e-05,1.908912427239784e-06,0.0007988654755525645,0.0008930178065067545,-0.0008471947788982493,0.0001292276815473357,0.0004307258506492301,-0.00011190542753613496,-0.0014053627011611472,0.3514034152030945,19.816431045532227,0.4228789508342743,-20.106538772583008,-0.5642600655555725,-2.4630770683288574,0.22830526530742645,0
9,0.04001903533935547,-0.3514034152030945,-19.816431045532227,-0.4228789508342743,20.106538772583008,0.5642600655555725,2.4630770683288574,-0.22830526530742645,0.0,0.0,0.0,0.0,0.0,0.0,0.0,-0.40532057492929496,-0.12210883341406266,-0.23702699922271334,0.3275366404339896,-0.02404432480361573,0.09359152422528015,-0.19994783478627706,1.2135506789053605,-0.2202983739857088,-0.007429306342021414,-2.6042921661281544,-0.10895616453886033,2.468122034761641,0.8264729993388118,1.2134413937687574,-0.2202432315892585,-0.0075118285948192216,-2.6038483821997875,-0.10888392708698907,2.4681821257803174,0.826474908251239,-0.0007988654755525645,-0.0008930178065067545,0.0008471947788982493,-0.0001292276815473357,-0.0004307258506492301,0.00011190542753613496,0.0014053627011611472,0.0,0.0,0.0,0.0,0.0,0.0,0.0,-0.00010928513660313222,5.514239645032504e-05,-8.252225279780766e-05,0.00044378392836685876,7.223745187125152e-05,6.009101867654465e-05,1.908912427239784e-06,0.0007988654755525645,0.0008930178065067545,-0.0008471947788982493,0.0001292276815473357,0.0004307258506492301,-0.00011190542753613496,-0.0014053627011611472,0.3514034152030945,19.816431045532227,0.4228789508342743,-20.106538772583008,-0.5642600655555725,-2.4630770683288574,0.22830526530742645,0
10,0.045020103454589844,-0.3752071261405945,-19.844202041625977,-0.4228789508342743,20.082735061645508,0.5642600655555725,2.4630770683288574,-0.19351522624492645,0.0,0.0,0.0,0.0,0.0,0.0,0.0,-0.4053064582500207,-0.12100782183160562,-0.23385862112298428,0.3233460963746967,-0.02445883053712184,0.0924290381045095,-0.19994756902218855,1.2135523408379951,-0.22029642514387768,-0.007429306342021414,-2.604290507789056,-0.10895616453886033,2.468122034761641,0.8264680349011333,1.2134413937687574,-0.2202432315892585,-0.0075118285948192216,-2.6038483821997875,-0.10888392708698907,2.4681821257803174,0.826474908251239,-0.0001441678377779128,-0.0005950699424794169,0.00040837670450700277,-0.000442146697523435,-0.005492474343272826,-0.00023332836237512582,0.00010541286402352829,0.0,0.0,0.0,0.0,0.0,0.0,0.0,-0.00011094706923775455,5.319355461919084e-05,-8.252225279780766e-05,0.00044212558926837175,7.223745187125152e-05,6.009101867654465e-05,6.873350105740528e-06,0.0001441678377779128,0.0005950699424794169,-0.00040837670450700277,0.000442146697523435,0.005492474343272826,0.00023332836237512582,-0.00010541286402352829,0.3752071261405945,19.844202041625977,0.4228789508342743,-20.082735061645508,-0.5642600655555725,-2.4630770683288574,0.19351522624492645,0
11,0.050028324127197266,-0.3752071261405945,-19.844202041625977,-0.4228789508342743,20.082735061645508,0.5642600655555725,2.4630770683288574,-0.19351522624492645,0.0,0.0,0.0,0.0,0.0,0.0,0.0,-0.4053064582500207,-0.12100782183160562,-0.23385862112298428,0.3233460963746967,-0.02445883053712184,0.0924290381045095,-0.19994756902218855,1.2135523408379951,-0.22029642514387768,-0.007429306342021414,-2.604290507789056,-0.10895616453886033,2.468122034761641,0.8264680349011333,1.2134413937687574,-0.2202432315892585,-0.0075118285948192216,-2.6038483821997875,-0.10888392708698907,2.4681821257803174,0.826474908251239,-0.0001441678377779128,-0.0005950699424794169,0.00040837670450700277,-0.000442146697523435,-0.005492474343272826,-0.00023332836237512582,0.00010541286402352829,0.0,0.0,0.0,0.0,0.0,0.0,0.0,-0.00011094706923775455,5.319355461919084e-05,-8.252225279780766e-05,0.00044212558926837175,7.223745187125152e-05,6.009101867654465e-05,6.873350105740528e-06,0.0001441678377779128,0.0005950699424794169,-0.00040837670450700277,0.000442146697523435,0.005492474343272826,0.00023332836237512582,-0.00010541286402352829,0.3752071261405945,19.844202041625977,0.4228789508342743,-20.082735061645508,-0.5642600655555725,-2.4630770683288574,0.19351522624492645,0
12,0.055002689361572266,-0.4505855441093445,-19.844202041625977,-0.4466826617717743,20.082735061645508,0.5642600655555725,2.4694857597351074,-0.18710653483867645,0.0,0.0,0.0,0.0,0.0,0.0,0.0,-0.40673655788571045,-0.11746224039452266,-0.23535162778053184,0.3226076835595695,-0.023790726649393336,0.09200224367020265,-0.20104695574390172,1.2135576305514888,-0.22029642514387768,-0.007427635906166151,-2.604290507902178,-0.10895616453886033,2.468121322684818,0.8264672050805372,1.2134413937687574,-0.2202432315892585,-0.0075118285948192216,-2.6038483821997875,-0.10888392708698907,2.4681821257803174,0.826474908251239,0.000581887738269298,-3.886501980417669e-05,0.00020545980771216482,1.5114952401177947e-05,-0.00021784784814642225,-0.00043351573783706996,-0.000865143205763614,0.0,0.0,0.0,0.0,0.0,0.0,0.0,-0.00011623678273142701,5.319355461919084e-05,-8.419268865307063e-05,0.000442125702390328,7.223745187125152e-05,6.080309549938434e-05,7.703170701867101e-06,-0.000581887738269298,3.886501980417669e-05,-0.00020545980771216482,-1.5114952401177947e-05,0.00021784784814642225,0.00043351573783706996,0.000865143205763614,0.4505855441093445,19.844202041625977,0.4466826617717743,-20.082735061645508,-0.5642600655555725,-2.4694857597351074,0.18710653483867645,0
13,0.059963226318359375,-0.4505855441093445,-19.844202041625977,-0.4466826617717743,20.082735061645508,0.5642600655555725,2.4694857597351074,-0.18710653483867645,0.0,0.0,0.0,0.0,0.0,0.0,0.0,-0.40673655788571045,-0.11746224039452266,-0.23535162778053184,0.3226076835595695,-0.023790726649393336,0.09200224367020265,-0.20104695574390172,1.2135576305514888,-0.22029642514387768,-0.007427635906166151,-2.604290507902178,-0.10895616453886033,2.468121322684818,0.8264672050805372,1.2134413937687574,-0.2202432315892585,-0.0075118285948192216,-2.6038483821997875,-0.10888392708698907,2.4681821257803174,0.826474908251239,0.000581887738269298,-3.886501980417669e-05,0.00020545980771216482,1.5114952401177947e-05,-0.00021784784814642225,-0.00043351573783706996,-0.000865143205763614,0.0,0.0,0.0,0.0,0.0,0.0,0.0,-0.00011623678273142701,5.319355461919084e-05,-8.419268865307063e-05,0.000442125702390328,7.223745187125152e-05,6.080309549938434e-05,7.703170701867101e-06,-0.000581887738269298,3.886501980417669e-05,-0.00020545980771216482,-1.5114952401177947e-05,0.00021784784814642225,0.00043351573783706996,0.000865143205763614,0.4505855441093445,19.844202041625977,0.4466826617717743,-20.082735061645508,-0.5642600655555725,-2.4694857597351074,0.18710653483867645,0
14,0.06499958038330078,-0.4783565402030945,-19.868005752563477,-0.4982573688030243,20.106538772583008,0.5642600655555725,2.4630770683288574,-0.22098104655742645,0.0,0.0,0.0,0.0,0.0,0.0,0.0,-0.4101816804633163,-0.12628867761644802,-0.23714767805304127,0.32568149598647217,-0.0235240332680108,0.0925430622233273,-0.20214717936529616,1.2135595803381274,-0.2202947547080224,-0.007424016628479748,-2.604292177320549,-0.10895616453886033,2.468122074007497,0.8264710866507486,1.2134413937687574,-0.2202432315892585,-0.0075118285948192216,-2.6038483821997875,-0.10888392708698907,2.4681821257803174,0.826474908251239,0.0004788674761901733,5.355599170621002e-05,0.000700278079297633,-0.00020616255524388992,-0.00023059455808880573,1.758691506320803e-07,-0.0002826564028453019,0.0,0.0,0.0,0.0,0.0,0.0,0.0,-0.0001181865693700157,5.1523118763913134e-05,-8.781196633947386e-05,0.00044379512076142547,7.223745187125152e-05,6.005177282020213e-05,3.821600490394594e-06,-0.0004788674761901733,-5.355599170621002e-05,-0.000700278079297633,0.00020616255524388992,0.00023059455808880573,-1.758691506320803e-07,0.0002826564028453019,0.4783565402030945,19.868005752563477,0.4982573688030243,-20.106538772583008,-0.5642600655555725,-2.4630770683288574,0.22098104655742645,0
15,0.07003593444824219,-0.4783565402030945,-19.868005752563477,-0.4982573688030243,20.106538772583008,0.5642600655555725,2.4630770683288574,-0.22098104655742645,0.0,0.0,0.0,0.0,0.0,0.0,0.0,-0.4101816804633163,-0.12628867761644802,-0.23714767805304127,0.32568149598647217,-0.0235240332680108,0.0925430622233273,-0.20214717936529616,1.2135595803381274,-0.2202947547080224,-0.007424016628479748,-2.604292177320549,-0.10895616453886033,2.468122074007497,0.8264710866507486,1.2134413937687574,-0.2202432315892585,-0.0075118285948192216,-2.6038483821997875,-0.10888392708698907,2.4681821257803174,0.826474908251239,0.0004788674761901733,5.355599170621002e-05,0.000700278079297633,-0.00020616255524388992,-0.00023059455808880573,1.758691506320803e-07,-0.0002826564028453019,0.0,0.0,0.0,0.0,0.0,0.0,0.0,-0.0001181865693700157,5.1523118763913134e-05,-8.781196633947386e-05,0.00044379512076142547,7.223745187125152e-05,6.005177282020213e-05,3.821600490394594e-06,-0.0004788674761901733,-5.355599170621002e-05,-0.000700278079297633,0.00020616255524388992,0.00023059455808880573,-1.758691506320803e-07,0.0002826564028453019,0.4783565402030945,19.868005752563477,0.4982573688030243,-20.106538772583008,-0.5642600655555725,-2.4630770683288574,0.22098104655742645,0
16,0.07501745223999023,-0.3514034152030945,-19.868005752563477,-0.4704863727092743,20.106538772583008,0.5578513741493225,2.4566683769226074,-0.17337362468242645,0.0,0.0,0.0,0.0,0.0,0.0,0.0,-0.40336259892592696,-0.12688556699820702,-0.2283474216614641,0.3240041833319505,-0.024936153060148486,0.09239035153334293,-0.20290772777443358,1.2135527376762498,-0.2202947547080224,-0.007425965470310888,-2.6042899527211105,-0.1089554524620374,2.468122746838685,0.8264657969392009,1.2134413937687574,-0.2202432315892585,-0.0075118285948192216,-2.6038483821997875,-0.10888392708698907,2.4681821257803174,0.826474908251239,-0.0014010310743575226,-0.0003258639319083134,0.00035546886119740956,-0.0002492802187533221,7.621525562304139e-05,0.0002595175303242133,-0.000639965428033767,0.0,0.0,0.0,0.0,0.0,0.0,0.0,-0.00011134390749245604,5.1523118763913134e-05,-8.586312450833359e-05,0.000441570521322987,7.152537504832857e-05,5.937894163254853e-05,9.111312038179165e-06,0.0014010310743575226,0.0003258639319083134,-0.00035546886119740956,0.0002492802187533221,-7.621525562304139e-05,-0.0002595175303242133,0.000639965428033767,0.3514034152030945,19.868005752563477,0.4704863727092743,-20.106538772583008,-0.5578513741493225,-2.4566683769226074,0.17337362468242645,0
17,0.08000707626342773,-0.3514034152030945,-19.868005752563477,-0.4704863727092743,20.106538772583008,0.5578513741493225,2.4566683769226074,-0.17337362468242645,0.0,0.0,0.0,0.0,0.0,0.0,0.0,-0.40336259892592696,-0.12688556699820702,-0.2283474216614641,0.3240041833319505,-0.024936153060148486,0.09239035153334293,-0.20290772777443358,1.2135527376762498,-0.2202947547080224,-0.007425965470310888,-2.6042899527211105,-0.1089554524620374,2.468122746838685,0.8264657969392009,1.2134413937687574,-0.2202432315892585,-0.0075118285948192216,-2.6038483821997875,-0.10888392708698907,2.4681821257803174,0.826474908251239,-0.0014010310743575226,-0.0003258639319083134,0.00035546886119740956,-0.0002492802187533221,7.621525562304139e-05,0.0002595175303242133,-0.000639965428033767,0.0,0.0,0.0,0.0,0.0,0.0,0.0,-0.00011134390749245604,5.1523118763913134e-05,-8.586312450833359e-05,0.000441570521322987,7.152537504832857e-05,5.937894163254853e-05,9.111312038179165e-06,0.0014010310743575226,0.0003258639319083134,-0.00035546886119740956,0.0002492802187533221,-7.621525562304139e-05,-0.0002595175303242133,0.000639965428033767,0.3514034152030945,19.868005752563477,0.4704863727092743,-20.106538772583008,-0.5578513741493225,-2.4566683769226074,0.17337362468242645,0
18,0.08503031730651855,-0.3752071261405945,-19.844202041625977,-0.4704863727092743,20.054964065551758,0.5578513741493225,2.4694857597351074,-0.16604940593242645,0.0,0.0,0.0,0.0,0.0,0.0,0.0,-0.40635367854286675,-0.11995371921649288,-0.2367539290470754,0.3240697434501945,-0.024500475962963883,0.09189824195017608,-0.20215456599200426,1.2135523408729565,-0.22029642514387768,-0.007425965470310888,-2.6042883117737596,-0.1089554524620374,2.468121322684818,0.8264649832986231,1.2134413937687574,-0.2202432315892585,-0.0075118285948192216,-2.6038483821997875,-0.10888392708698907,2.4681821257803174,0.826474908251239,-0.0007469143882700822,0.00013454919528544247,0.0006657218933314141,0.0015673419885989515,0.00012006230359820891,-0.0002326052692024506,-0.0013555577032519654,0.0,0.0,0.0,0.0,0.0,0.0,0.0,-0.00011094710419912168,5.319355461919084e-05,-8.586312450833359e-05,0.00043992957397209764,7.152537504832857e-05,6.080309549938434e-05,9.924952615980587e-06,0.0007469143882700822,-0.00013454919528544247,-0.0006657218933314141,-0.0015673419885989515,-0.00012006230359820891,0.0002326052692024506,0.0013555577032519654,0.3752071261405945,19.844202041625977,0.4704863727092743,-20.054964065551758,-0.5578513741493225,-2.4694857597351074,0.16604940593242645,0
19,0.09001660346984863,-0.3752071261405945,-19.844202041625977,-0.4704863727092743,20.054964065551758,0.5578513741493225,2.4694857597351074,-0.16604940593242645,0.0,0.0,0.0,0.0,0.0,0.0,0.0,-0.40635367854286675,-0.11995371921649288,-0.2367539290470754,0.3240697434501945,-0.024500475962963883,0.09189824195017608,-0.20215456599200426,1.2135523408729565,-0.22029642514387768,-0.007425965470310888,-2.6042883117737596,-0.1089554524620374,2.468121322684818,0.8264649832986231,1.2134413937687574,-0.2202432315892585,-0.0075118285948192216,-2.6038483821997875,-0.10888392708698907,2.4681821257803174,0.826474908251239,-0.0007469143882700822,0.00013454919528544247,0.0006657218933314141,0.0015673419885989515,0.00012006230359820891,-0.0002326052692024506,-0.0013555577032519654,0.0,0.0,0.0,0.0,0.0,0.0,0.0,-0.00011094710419912168,5.319355461919084e-05,-8.586312450833359e-05,0.00043992957397209764,7.152537504832857e-05,6.080309549938434e-05,9.924952615980587e-06,0.0007469143882700822,-0.00013454919528544247,-0.0006657218933314141,-0.0015673419885989515,-0.00012006230359820891,0.0002326052692024506,0.0013555577032519654,0.3752071261405945,19.844202041625977,0.4704863727092743,-20.054964065551758,-0.5578513741493225,-2.4694857597351074,0.16604940593242645,0
20,0.09502124786376953,-0.3752071261405945,-19.844202041625977,-0.4704863727092743,20.054964065551758,0.5578513741493225,2.4694857597351074,-0.16604940593242645,0.0,0.0,0.0,0.0,0.0,0.0,0.0,-0.40635367854286675,-0.11995371921649288,-0.2367539290470754,0.3240697434501945,-0.024500475962963883,0.09189824195017608,-0.20215456599200426,1.2135523408729565,-0.22029642514387768,-0.007425965470310888,-2.6042883117737596,-0.1089554524620374,2.468121322684818,0.8264649832986231,1.2134413937687574,-0.2202432315892585,-0.0075118285948192216,-2.6038483821997875,-0.10888392708698907,2.4681821257803174,0.826474908251239,-0.0007469143882700822,0.00013454919528544247,0.0006657218933314141,0.0015673419885989515,0.00012006230359820891,-0.0002326052692024506,-0.0013555577032519654,0.0,0.0,0.0,0.0,0.0,0.0,0.0,-0.00011094710419912168,5.319355461919084e-05,-8.586312450833359e-05,0.00043992957397209764,7.152537504832857e-05,6.080309549938434e-05,9.924952615980587e-06,0.0007469143882700822,-0.00013454919528544247,-0.0006657218933314141,-0.0015673419885989515,-0.00012006230359820891,0.0002326052692024506,0.0013555577032519654,0.3752071261405945,19.844202041625977,0.4704863727092743,-20.054964065551758,-0.5578513741493225,-2.4694857597351074,0.16604940593242645,0
21,0.10001850128173828,-0.4267818331718445,-19.816431045532227,-0.4466826617717743,20.106538772583008,0.5578513741493225,2.4630770683288574,-0.18710653483867645,0.0,0.0,0.0,0.0,0.0,0.0,0.0,-0.4115632231963843,-0.12464154062493545,-0.24372969012549686,0.3278350706187269,-0.02403039812038338,0.0929540898945607,-0.20236085072328414,1.2135580264216501,-0.2202983739857088,-0.007427635906166151,-2.6042921783375688,-0.10895545244400821,2.468122034761641,0.8264673228181074,1.2134413937687574,-0.2202432315892585,-0.0075118285948192216,-2.6038483821997875,-0.10888392708698907,2.4681821257803174,0.826474908251239,0.0002919700958114331,-0.000664065141819957,0.0001954623358356534,-7.836086205267805e-05,-0.0002011612848986933,5.08263715635549e-05,-0.0008451101035947104,0.0,0.0,0.0,0.0,0.0,0.0,0.0,-0.00011663265289274527,5.514239645032504e-05,-8.419268865307063e-05,0.0004437961377812272,7.152535701913931e-05,6.009101867654465e-05,7.585433131618302e-06,-0.0002919700958114331,0.000664065141819957,-0.0001954623358356534,7.836086205267805e-05,0.0002011612848986933,-5.08263715635549e-05,0.0008451101035947104,0.4267818331718445,19.816431045532227,0.4466826617717743,-20.106538772583008,-0.5578513741493225,-2.4630770683288574,0.18710653483867645,0
22,0.10501599311828613,-0.4267818331718445,-19.816431045532227,-0.4466826617717743,20.106538772583008,0.5578513741493225,2.4630770683288574,-0.18710653483867645,0.0,0.0,0.0,0.0,0.0,0.0,0.0,-0.4115632231963843,-0.12464154062493545,-0.24372969012549686,0.3278350706187269,-0.02403039812038338,0.0929540898945607,-0.20236085072328414,1.2135580264216501,-0.2202983739857088,-0.007427635906166151,-2.6042921783375688,-0.10895545244400821,2.468122034761641,0.8264673228181074,1.2134413937687574,-0.2202432315892585,-0.0075118285948192216,-2.6038483821997875,-0.10888392708698907,2.4681821257803174,0.826474908251239,0.0002919700958114331,-0.000664065141819957,0.0001954623358356534,-7.836086205267805e-05,-0.0002011612848986933,5.08263715635549e-05,-0.0008451101035947104,0.0,0.0,0.0,0.0,0.0,0.0,0.0,-0.00011663265289274527,5.514239645032504e-05,-8.419268865307063e-05,0.0004437961377812272,7.152535701913931e-05,6.009101867654465e-05,7.585433131618302e-06,-0.0002919700958114331,0.000664065141819957,-0.0001954623358356534,7.836086205267805e-05,0.0002011612848986933,-5.08263715635549e-05,0.0008451101035947104,0.4267818331718445,19.816431045532227,0.4466826617717743,-20.106538772583008,-0.5578513741493225,-2.4630770683288574,0.18710653483867645,0
23,0.11000657081604004,-0.4029781222343445,-19.844202041625977,-0.4228789508342743,20.106538772583008,0.5642600655555725,2.4630770683288574,-0.24112264811992645,0.0,0.0,0.0,0.0,0.0,0.0,0.0,-0.4096312237250291,-0.11379380187551742,-0.24098232702078148,0.32533317488536234,-0.025219739116512402,0.09259762992561955,-0.20432258334958162,1.2135542896914424,-0.22029642514387768,-0.007429306342021414,-2.6042921783380337,-0.10895616453886021,2.468125213676029,0.8264733250929884,1.2134413937687574,-0.2202432315892585,-0.0075118285948192216,-2.6038483821997875,-0.10888392708698907,2.4681821257803174,0.826474908251239,6.09121397786922e-06,0.0009209288597282404,-0.0005298842190738447,4.6713847954495795e-05,-0.00023546851434508244,4.295518480416732e-05,0.0012330726871423005,0.0,0.0,0.0,0.0,0.0,0.0,0.0,-0.00011289592268504123,5.319355461919084e-05,-8.252225279780766e-05,0.0004437961382461886,7.22374518711405e-05,5.6912104288375787e-05,1.583158250606509e-06,-6.09121397786922e-06,-0.0009209288597282404,0.0005298842190738447,-4.6713847954495795e-05,0.00023546851434508244,-4.295518480416732e-05,-0.0012330726871423005,0.4029781222343445,19.844202041625977,0.4228789508342743,-20.106538772583008,-0.5642600655555725,-2.4630770683288574,0.24112264811992645,0
24,0.11501002311706543,-0.4029781222343445,-19.844202041625977,-0.4228789508342743,20.106538772583008,0.5642600655555725,2.4630770683288574,-0.24112264811992645,0.0,0.0,0.0,0.0,0.0,0.0,0.0,-0.4096312237250291,-0.11379380187551742,-0.24098232702078148,0.32533317488536234,-0.025219739116512402,0.09259762992561955,-0.20432258334958162,1.2135542896914424,-0.22029642514387768,-0.007429306342021414,-2.6042921783380337,-0.10895616453886021,2.468125213676029,0.8264733250929884,1.2134413937687574,-0.2202432315892585,-0.0075118285948192216,-2.6038483821997875,-0.10888392708698907,2.4681821257803174,0.826474908251239,6.09121397786922e-06,0.0009209288597282404,-0.0005298842190738447,4.6713847954495795e-05,-0.00023546851434508244,4.295518480416732e-05,0.0012330726871423005,0.0,0.0,0.0,0.0,0.0,0.0,0.0,-0.00011289592268504123,5.319355461919084e-05,-8.252225279780766e-05,0.0004437961382461886,7.22374518711405e-05,5.6912104288375787e-05,1.583158250606509e-06,-6.09121397786922e-06,-0.0009209288597282404,0.0005298842190738447,-4.6713847954495795e-05,0.00023546851434508244,-4.295518480416732e-05,-0.0012330726871423005,0.4029781222343445,19.844202041625977,0.4228789508342743,-20.106538772583008,-0.5642600655555725,-2.4630770683288574,0.24112264811992645,0
25,0.11999893188476562,-0.4267818331718445,-19.891809463500977,-0.3990752398967743,20.106538772583008,0.5523582100868225,2.4630770683288574,-0.23471395671367645,0.0,0.0,0.0,0.0,0.0,0.0,0.0,-0.41016809466619475,-0.12220645563859489,-0.24248372934764276,0.33013434171742534,-0.02518478490027052,0.09336104151661484,-0.20533832411141797,1.213556062154861,-0.22029308427216715,-0.007430976777876678,-2.6042921783380337,-0.10895484211047489,2.4681220347795856,0.8264726125316515,1.2134413937687574,-0.2202432315892585,-0.0075118285948192216,-2.6038483821997875,-0.10888392708698907,2.4681821257803174,0.826474908251239,0.00025544445369361893,0.0007079984708123746,-0.0007821775324050978,-0.0001510511431105224,0.0002090076856174839,-5.22498255789461e-05,0.0016205265300738765,0.0,0.0,0.0,0.0,0.0,0.0,0.0,-0.00011466838610352248,4.985268290866318e-05,-8.085181694254383e-05,0.0004437961382461886,7.091502348581524e-05,6.009100073178786e-05,2.2957195875417113e-06,-0.00025544445369361893,-0.0007079984708123746,0.0007821775324050978,0.0001510511431105224,-0.0002090076856174839,5.22498255789461e-05,-0.0016205265300738765,0.4267818331718445,19.891809463500977,0.3990752398967743,-20.106538772583008,-0.5523582100868225,-2.4630770683288574,0.23471395671367645,0
26,0.12528109550476074,-0.4267818331718445,-19.891809463500977,-0.3990752398967743,20.106538772583008,0.5523582100868225,2.4630770683288574,-0.23471395671367645,0.0,0.0,0.0,0.0,0.0,0.0,0.0,-0.41016809466619475,-0.12220645563859489,-0.24248372934764276,0.33013434171742534,-0.02518478490027052,0.09336104151661484,-0.20533832411141797,1.213556062154861,-0.22029308427216715,-0.007430976777876678,-2.6042921783380337,-0.10895484211047489,2.4681220347795856,0.8264726125316515,1.2134413937687574,-0.2202432315892585,-0.0075118285948192216,-2.6038483821997875,-0.10888392708698907,2.4681821257803174,0.826474908251239,0.00025544445369361893,0.0007079984708123746,-0.0007821775324050978,-0.0001510511431105224,0.0002090076856174839,-5.22498255789461e-05,0.0016205265300738765,0.0,0.0,0.0,0.0,0.0,0.0,0.0,-0.00011466838610352248,4.985268290866318e-05,-8.085181694254383e-05,0.0004437961382461886,7.091502348581524e-05,6.009100073178786e-05,2.2957195875417113e-06,-0.00025544445369361893,-0.0007079984708123746,0.0007821775324050978,0.0001510511431105224,-0.0002090076856174839,5.22498255789461e-05,-0.0016205265300738765,0.4267818331718445,19.891809463500977,0.3990752398967743,-20.106538772583008,-0.5523582100868225,-2.4630770683288574,0.23471395671367645,0
27,0.12999939918518066,-0.4267818331718445,-19.844202041625977,-0.4228789508342743,20.106538772583008,0.5578513741493225,2.4694857597351074,-0.21457235515117645,0.0,0.0,0.0,0.0,0.0,0.0,0.0,-0.41027907011949255,-0.11793783165205786,-0.23969208158495597,0.3273468393049293,-0.02542537139967954,0.0927208781598374,-0.2044181674462338,1.2135559601162096,-0.22029642510770717,-0.007429306342021414,-2.604292178300349,-0.10895545246203739,2.4681213231693344,0.8264703745759195,1.2134413937687574,-0.2202432315892585,-0.0075118285948192216,-2.6038483821997875,-0.10888392708698907,2.4681821257803174,0.826474908251239,0.000367305803951959,-0.0006031773463389605,-1.1701933973196559e-05,-0.00019804352283755023,-0.00011732576347122373,-0.00024435833620920676,0.0009401970699702988,0.0,0.0,0.0,0.0,0.0,0.0,0.0,-0.00011456634745221628,5.319351844867981e-05,-8.252225279780766e-05,0.0004437961005616664,7.152537504831469e-05,6.080261098295736e-05,4.533675319495778e-06,-0.000367305803951959,0.0006031773463389605,1.1701933973196559e-05,0.00019804352283755023,0.00011732576347122373,0.00024435833620920676,-0.0009401970699702988,0.4267818331718445,19.844202041625977,0.4228789508342743,-20.106538772583008,-0.5578513741493225,-2.4694857597351074,0.21457235515117645,0
28,0.13499784469604492,-0.4267818331718445,-19.844202041625977,-0.4228789508342743,20.106538772583008,0.5578513741493225,2.4694857597351074,-0.21457235515117645,0.0,0.0,0.0,0.0,0.0,0.0,0.0,-0.41027907011949255,-0.11793783165205786,-0.23969208158495597,0.3273468393049293,-0.02542537139967954,0.0927208781598374,-0.2044181674462338,1.2135559601162096,-0.22029642510770717,-0.007429306342021414,-2.604292178300349,-0.10895545246203739,2.4681213231693344,0.8264703745759195,1.2134413937687574,-0.2202432315892585,-0.0075118285948192216,-2.6038483821997875,-0.10888392708698907,2.4681821257803174,0.826474908251239,0.000367305803951959,-0.0006031773463389605,-1.1701933973196559e-05,-0.00019804352283755023,-0.00011732576347122373,-0.00024435833620920676,0.0009401970699702988,0.0,0.0,0.0,0.0,0.0,0.0,0.0,-0.00011456634745221628,5.319351844867981e-05,-8.252225279780766e-05,0.0004437961005616664,7.152537504831469e-05,6.080261098295736e-05,4.533675319495778e-06,-0.000367305803951959,0.0006031773463389605,1.1701933973196559e-05,0.00019804352283755023,0.00011732576347122373,0.00024435833620920676,-0.0009401970699702988,0.4267818331718445,19.844202041625977,0.4228789508342743,-20.106538772583008,-0.5578513741493225,-2.4694857597351074,0.21457235515117645,0
29,0.1399993896484375,-0.4267818331718445,-19.844202041625977,-0.4228789508342743,20.106538772583008,0.5578513741493225,2.4694857597351074,-0.21457235515117645,0.0,0.0,0.0,0.0,0.0,0.0,0.0,-0.41027907011949255,-0.11793783165205786,-0.23969208158495597,0.3273468393049293,-0.02542537139967954,0.0927208781598374,-0.2044181674462338,1.2135559601162096,-0.22029642510770717,-0.007429306342021414,-2.604292178300349,-0.10895545246203739,2.4681213231693344,0.8264703745759195,1.2134413937687574,-0.2202432315892585,-0.0075118285948192216,-2.6038483821997875,-0.10888392708698907,2.4681821257803174,0.826474908251239,0.000367305803951959,-0.0006031773463389605,-1.1701933973196559e-05,-0.00019804352283755023,-0.00011732576347122373,-0.00024435833620920676,0.0009401970699702988,0.0,0.0,0.0,0.0,0.0,0.0,0.0,-0.00011456634745221628,5.319351844867981e-05,-8.252225279780766e-05,0.0004437961005616664,7.152537504831469e-05,6.080261098295736e-05,4.533675319495778e-06,-0.000367305803951959,0.0006031773463389605,1.1701933973196559e-05,0.00019804352283755023,0.00011732576347122373,0.00024435833620920676,-0.0009401970699702988,0.4267818331718445,19.844202041625977,0.4228789508342743,-20.106538772583008,-0.5578513741493225,-2.4694857597351074,0.21457235515117645,0
30,0.14499855041503906,-0.4267818331718445,-19.844202041625977,-0.4228789508342743,20.106538772583008,0.5578513741493225,2.4694857597351074,-0.21457235515117645,0.0,0.0,0.0,0.0,0.0,0.0,0.0,-0.41027907011949255,-0.11793783165205786,-0.23969208158495597,0.3273468393049293,-0.02542537139967954,0.0927208781598374,-0.2044181674462338,1.2135559601162096,-0.22029642510770717,-0.007429306342021414,-2.604292178300349,-0.10895545246203739,2.4681213231693344,0.8264703745759195,1.2134413937687574,-0.2202432315892585,-0.0075118285948192216,-2.6038483821997875,-0.10888392708698907,2.4681821257803174,0.826474908251239,0.000367305803951959,-0.0006031773463389605,-1.1701933973196559e-05,-0.00019804352283755023,-0.00011732576347122373,-0.00024435833620920676,0.0009401970699702988,0.0,0.0,0.0,0.0,0.0,0.0,0.0,-0.00011456634745221628,5.319351844867981e-05,-8.252225279780766e-05,0.0004437961005616664,7.152537504831469e-05,6.080261098295736e-05,4.533675319495778e-06,-0.000367305803951959,0.0006031773463389605,1.1701933973196559e-05,0.00019804352283755023,0.00011732576347122373,0.00024435833620920676,-0.0009401970699702988,0.4267818331718445,19.844202041625977,0.4228789508342743,-20.106538772583008,-0.5578513741493225,-2.4694857597351074,0.21457235515117645,0
31,0.15000033378601074,-0.4029781222343445,-19.868005752563477,-0.3990752398967743,20.106538772583008,0.5578513741493225,2.4694857597351074,-0.20724813640117645,0.0,0.0,0.0,0.0,0.0,0.0,0.0,-0.4039165340838195,-0.11513128395139133,-0.2316281424128779,0.32330273596608944,-0.02591952527374517,0.09222724869949293,-0.2042428982703237,1.2135542896797782,-0.2202947547080218,-0.007430976777876678,-2.6042921783380333,-0.10895545246203739,2.468121322684826,0.8264695607738363,1.2134413937687574,-0.2202432315892585,-0.0075118285948192216,-2.6038483821997875,-0.10888392708698907,2.4681821257803174,0.826474908251239,0.0006265630512982208,0.00038897092011232936,-0.0004332788919137028,-0.0006751703020971898,4.425849067652256e-05,0.00013928966468654752,-7.306196719213867e-05,0.0,0.0,0.0,0.0,0.0,0.0,0.0,-0.00011289591102081609,5.152311876330251e-05,-8.085181694254383e-05,0.0004437961382457445,7.152537504831469e-05,6.0803095491390735e-05,5.34747740277286e-06,-0.0006265630512982208,-0.00038897092011232936,0.0004332788919137028,0.0006751703020971898,-4.425849067652256e-05,-0.00013928966468654752,7.306196719213867e-05,0.4029781222343445,19.868005752563477,0.3990752398967743,-20.106538772583008,-0.5578513741493225,-2.4694857597351074,0.20724813640117645,0
32,0.1549999713897705,-0.4029781222343445,-19.868005752563477,-0.3990752398967743,20.106538772583008,0.5578513741493225,2.4694857597351074,-0.20724813640117645,0.0,0.0,0.0,0.0,0.0,0.0,0.0,-0.4039165340838195,-0.11513128395139133,-0.2316281424128779,0.32330273596608944,-0.02591952527374517,0.09222724869949293,-0.2042428982703237,1.2135542896797782,-0.2202947547080218,-0.007430976777876678,-2.6042921783380333,-0.10895545246203739,2.468121322684826,0.8264695607738363,1.2134413937687574,-0.2202432315892585,-0.0075118285948192216,-2.6038483821997875,-0.10888392708698907,2.4681821257803174,0.826474908251239,0.0006265630512982208,0.00038897092011232936,-0.0004332788919137028,-0.0006751703020971898,4.425849067652256e-05,0.00013928966468654752,-7.306196719213867e-05,0.0,0.0,0.0,0.0,0.0,0.0,0.0,-0.00011289591102081609,5.152311876330251e-05,-8.085181694254383e-05,0.0004437961382457445,7.152537504831469e-05,6.0803095491390735e-05,5.34747740277286e-06,-0.0006265630512982208,-0.00038897092011232936,0.0004332788919137028,0.0006751703020971898,-4.425849067652256e-05,-0.00013928966468654752,7.306196719213867e-05,0.4029781222343445,19.868005752563477,0.3990752398967743,-20.106538772583008,-0.5578513741493225,-2.4694857597351074,0.20724813640117645,0
33,0.1600332260131836,-0.4029781222343445,-19.844202041625977,-0.4228789508342743,20.154146194458008,0.5642600655555725,2.4694857597351074,-0.17978231608867645,0.0,0.0,0.0,0.0,0.0,0.0,0.0,-0.405445463903233,-0.11727246303354072,-0.23813874880516853,0.326570836590484,-0.02492211725835362,0.0936304216227936,-0.20329252686166152,1.2135542896797782,-0.22029642514387768,-0.007429306342021414,-2.6042955100523777,-0.10895616453886031,2.468121322684818,0.8264666398355458,1.2134413937687574,-0.2202432315892585,-0.0075118285948192216,-2.6038483821997875,-0.10888392708698907,2.4681821257803174,0.826474908251239,0.00015441706272943692,-1.8426252209922796e-05,-9.322608623391696e-05,-0.0013135972878144083,-0.00010293555555369452,-0.00033640468399852584,-0.0007429869076380324,0.0,0.0,0.0,0.0,0.0,0.0,0.0,-0.00011289591102081609,5.319355461919084e-05,-8.252225279780766e-05,0.00044712785259015675,7.223745187123765e-05,6.080309549938434e-05,8.268415693235553e-06,-0.00015441706272943692,1.8426252209922796e-05,9.322608623391696e-05,0.0013135972878144083,0.00010293555555369452,0.00033640468399852584,0.0007429869076380324,0.4029781222343445,19.844202041625977,0.4228789508342743,-20.154146194458008,-0.5642600655555725,-2.4694857597351074,0.17978231608867645,0
34,0.16499686241149902,-0.4029781222343445,-19.844202041625977,-0.4228789508342743,20.154146194458008,0.5642600655555725,2.4694857597351074,-0.17978231608867645,0.0,0.0,0.0,0.0,0.0,0.0,0.0,-0.405445463903233,-0.11727246303354072,-0.23813874880516853,0.326570836590484,-0.02492211725835362,0.0936304216227936,-0.20329252686166152,1.2135542896797782,-0.22029642514387768,-0.007429306342021414,-2.6042955100523777,-0.10895616453886031,2.468121322684818,0.8264666398355458,1.2134413937687574,-0.2202432315892585,-0.0075118285948192216,-2.6038483821997875,-0.10888392708698907,2.4681821257803174,0.826474908251239,0.00015441706272943692,-1.8426252209922796e-05,-9.322608623391696e-05,-0.0013135972878144083,-0.00010293555555369452,-0.00033640468399852584,-0.0007429869076380324,0.0,0.0,0.0,0.0,0.0,0.0,0.0,-0.00011289591102081609,5.319355461919084e-05,-8.252225279780766e-05,0.00044712785259015675,7.223745187123765e-05,6.080309549938434e-05,8.268415693235553e-06,-0.00015441706272943692,1.8426252209922796e-05,9.322608623391696e-05,0.0013135972878144083,0.00010293555555369452,0.00033640468399852584,0.0007429869076380324,0.4029781222343445,19.844202041625977,0.4228789508342743,-20.154146194458008,-0.5642600655555725,-2.4694857597351074,0.17978231608867645,0
35,0.170013427734375,-0.4029781222343445,-19.868005752563477,-0.4704863727092743,20.106538772583008,0.5459495186805725,2.4566683769226074,-0.22098104655742645,0.0,0.0,0.0,0.0,0.0,0.0,0.0,-0.3779474768918123,-0.12212993575076944,-0.20797141275308292,0.3278970426736821,-0.025455475879401158,0.09405066530549944,-0.20339872571429893,1.2135542896797782,-0.2202947547080224,-0.007425965470310888,-2.6042919309760317,-0.10895413441474328,2.4681228660295838,0.8264711302599883,1.2134413937687574,-0.2202432315892585,-0.0075118285948192216,-2.6038483821997875,-0.10888392708698907,2.4681821257803174,0.826474908251239,-0.0008745695975673703,8.53769755716037e-06,-0.00022093087707260594,-0.00017202376106923911,0.0007327223377126783,0.00026098054892049506,0.0008567649789341342,0.0,0.0,0.0,0.0,0.0,0.0,0.0,-0.00011289591102081609,5.1523118763913134e-05,-8.586312450833359e-05,0.00044354877624419586,7.020732775420147e-05,5.925975073362011e-05,3.77799125073075e-06,0.0008745695975673703,-8.53769755716037e-06,0.00022093087707260594,0.00017202376106923911,-0.0007327223377126783,-0.00026098054892049506,-0.0008567649789341342,0.4029781222343445,19.868005752563477,0.4704863727092743,-20.106538772583008,-0.5459495186805725,-2.4566683769226074,0.22098104655742645,0
36,0.17500019073486328,-0.4029781222343445,-19.868005752563477,-0.4704863727092743,20.106538772583008,0.5459495186805725,2.4566683769226074,-0.22098104655742645,0.0,0.0,0.0,0.0,0.0,0.0,0.0,-0.3779474768918123,-0.12212993575076944,-0.20797141275308292,0.3278970426736821,-0.025455475879401158,0.09405066530549944,-0.20339872571429893,1.2135542896797782,-0.2202947547080224,-0.007425965470310888,-2.6042919309760317,-0.10895413441474328,2.4681228660295838,0.8264711302599883,1.2134413937687574,-0.2202432315892585,-0.0075118285948192216,-2.6038483821997875,-0.10888392708698907,2.4681821257803174,0.826474908251239,-0.0008745695975673703,8.53769755716037e-06,-0.00022093087707260594,-0.00017202376106923911,0.0007327223377126783,0.00026098054892049506,0.0008567649789341342,0.0,0.0,0.0,0.0,0.0,0.0,0.0,-0.00011289591102081609,5.1523118763913134e-05,-8.586312450833359e-05,0.00044354877624419586,7.020732775420147e-05,5.925975073362011e-05,3.77799125073075e-06,0.0008745695975673703,-8.53769755716037e-06,0.00022093087707260594,0.00017202376106923911,-0.0007327223377126783,-0.00026098054892049506,-0.0008567649789341342,0.4029781222343445,19.868005752563477,0.4704863727092743,-20.106538772583008,-0.5459495186805725,-2.4566683769226074,0.22098104655742645,0
37,0.1799945831298828,-0.4505855441093445,-19.844202041625977,-0.4466826617717743,20.106538772583008,0.5459495186805725,2.4630770683288574,-0.22098104655742645,0.0,0.0,0.0,0.0,0.0,0.0,0.0,-0.41377091090253276,-0.11360579821750574,-0.24433369278818637,0.32697074836427936,-0.02384811110178944,0.09281327094986995,-0.20168939832682417,1.2135577070809092,-0.22029642514387768,-0.007427635906166151,-2.6042920955434923,-0.10895413003367672,2.4681220347623136,0.8264710866529886,1.2134413937687574,-0.2202432315892585,-0.0075118285948192216,-2.6038483821997875,-0.10888392708698907,2.4681821257803174,0.826474908251239,0.00010422055918133553,0.0003689351130151109,-0.00031739299639474156,6.231207660513399e-05,0.00048056059353825326,3.0146119562023407e-05,0.0011943252909000013,0.0,0.0,0.0,0.0,0.0,0.0,0.0,-0.00011631331215178342,5.319355461919084e-05,-8.419268865307063e-05,0.0004437133437047436,7.020294668765026e-05,6.00910180037495e-05,3.82159825040862e-06,-0.00010422055918133553,-0.0003689351130151109,0.00031739299639474156,-6.231207660513399e-05,-0.00048056059353825326,-3.0146119562023407e-05,-0.0011943252909000013,0.4505855441093445,19.844202041625977,0.4466826617717743,-20.106538772583008,-0.5459495186805725,-2.4630770683288574,0.22098104655742645,0
38,0.18500328063964844,-0.4505855441093445,-19.844202041625977,-0.4466826617717743,20.106538772583008,0.5459495186805725,2.4630770683288574,-0.22098104655742645,0.0,0.0,0.0,0.0,0.0,0.0,0.0,-0.41377091090253276,-0.11360579821750574,-0.24433369278818637,0.32697074836427936,-0.02384811110178944,0.09281327094986995,-0.20168939832682417,1.2135577070809092,-0.22029642514387768,-0.007427635906166151,-2.6042920955434923,-0.10895413003367672,2.4681220347623136,0.8264710866529886,1.2134413937687574,-0.2202432315892585,-0.0075118285948192216,-2.6038483821997875,-0.10888392708698907,2.4681821257803174,0.826474908251239,0.00010422055918133553,0.0003689351130151109,-0.00031739299639474156,6.231207660513399e-05,0.00048056059353825326,3.0146119562023407e-05,0.0011943252909000013,0.0,0.0,0.0,0.0,0.0,0.0,0.0,-0.00011631331215178342,5.319355461919084e-05,-8.419268865307063e-05,0.0004437133437047436,7.020294668765026e-05,6.00910180037495e-05,3.82159825040862e-06,-0.00010422055918133553,-0.0003689351130151109,0.00031739299639474156,-6.231207660513399e-05,-0.00048056059353825326,-3.0146119562023407e-05,-0.0011943252909000013,0.4505855441093445,19.844202041625977,0.4466826617717743,-20.106538772583008,-0.5459495186805725,-2.4630770683288574,0.22098104655742645,0
39,0.190018892288208,-0.4267818331718445,-19.891809463500977,-0.4982573688030243,20.154146194458008,0.5642600655555725,2.4694857597351074,-0.20083944499492645,0.0,0.0,0.0,0.0,0.0,0.0,0.0,-0.4261332012753678,-0.11834599357268315,-0.2538972552299665,0.33006362033019826,-0.02363516774592416,0.09296384177632348,-0.2007316016362095,1.2135559601169295,-0.22029308427216715,-0.007424016628479748,-2.6042954366789894,-0.10895616453886033,2.468121322684818,0.8264688486970133,1.2134413937687574,-0.2202432315892585,-0.0075118285948192216,-2.6038483821997875,-0.10888392708698907,2.4681821257803174,0.826474908251239,-1.3440415136330009e-05,0.001098974803260024,0.000731791601219571,-0.001185217700960505,-0.009462948878654683,-0.00011957363296576695,0.000278856783273854,0.0,0.0,0.0,0.0,0.0,0.0,0.0,-0.00011456634817208489,4.985268290866318e-05,-8.781196633947386e-05,0.00044705447920190267,7.223745187125152e-05,6.080309549938434e-05,6.0595542257235735e-06,1.3440415136330009e-05,-0.001098974803260024,-0.000731791601219571,0.001185217700960505,0.009462948878654683,0.00011957363296576695,-0.000278856783273854,0.4267818331718445,19.891809463500977,0.4982573688030243,-20.154146194458008,-0.5642600655555725,-2.4694857597351074,0.20083944499492645,0
40,0.19502592086791992,-0.4267818331718445,-19.891809463500977,-0.4982573688030243,20.154146194458008,0.5642600655555725,2.4694857597351074,-0.20083944499492645,0.0,0.0,0.0,0.0,0.0,0.0,0.0,-0.4261332012753678,-0.11834599357268315,-0.2538972552299665,0.33006362033019826,-0.02363516774592416,0.09296384177632348,-0.2007316016362095,1.2135559601169295,-0.22029308427216715,-0.007424016628479748,-2.6042954366789894,-0.10895616453886033,2.468121322684818,0.8264688486970133,1.2134413937687574,-0.2202432315892585,-0.0075118285948192216,-2.6038483821997875,-0.10888392708698907,2.4681821257803174,0.826474908251239,-1.3440415136330009e-05,0.001098974803260024,0.000731791601219571,-0.001185217700960505,-0.009462948878654683,-0.00011957363296576695,0.000278856783273854,0.0,0.0,0.0,0.0,0.0,0.0,0.0,-0.00011456634817208489,4.985268290866318e-05,-8.781196633947386e-05,0.00044705447920190267,7.223745187125152e-05,6.080309549938434e-05,6.0595542257235735e-06,1.3440415136330009e-05,-0.001098974803260024,-0.000731791601219571,0.001185217700960505,0.009462948878654683,0.00011957363296576695,-0.000278856783273854,0.4267818331718445,19.891809463500977,0.4982573688030243,-20.154146194458008,-0.5642600655555725,-2.4694857597351074,0.20083944499492645,0
41,0.19999957084655762,-0.4267818331718445,-19.816431045532227,-0.4228789508342743,20.130342483520508,0.5578513741493225,2.4694857597351074,-0.17978231608867645,0.0,0.0,0.0,0.0,0.0,0.0,0.0,-0.41810748814895454,-0.11627307624807998,-0.24647298772677478,0.33017795570452535,-0.023392975537974918,0.09288253463209115,-0.19967755545962054,1.2135559601156336,-0.22029837397365198,-0.007429306342021414,-2.604293848773734,-0.1089554524620374,2.468121322684818,0.8264665090160237,1.2134413937687574,-0.2202432315892585,-0.0075118285948192216,-2.6038483821997875,-0.10888392708698907,2.4681821257803174,0.826474908251239,0.0007831993484405637,-0.0008469680806358726,-0.0003487055107003063,-0.0005799142563036623,-0.0003663276659964293,-0.0002837067212101992,-0.0008268449857147084,0.0,0.0,0.0,0.0,0.0,0.0,0.0,-0.00011456634687623257,5.514238439349728e-05,-8.252225279780766e-05,0.00044546657394661793,7.152537504832857e-05,6.080309549938434e-05,8.399235215339473e-06,-0.0007831993484405637,0.0008469680806358726,0.0003487055107003063,0.0005799142563036623,0.0003663276659964293,0.0002837067212101992,0.0008268449857147084,0.4267818331718445,19.816431045532227,0.4228789508342743,-20.130342483520508,-0.5578513741493225,-2.4694857597351074,0.17978231608867645,0
42,0.20502829551696777,-0.4267818331718445,-19.816431045532227,-0.4228789508342743,20.130342483520508,0.5578513741493225,2.4694857597351074,-0.17978231608867645,0.0,0.0,0.0,0.0,0.0,0.0,0.0,-0.41810748814895454,-0.11627307624807998,-0.24647298772677478,0.33017795570452535,-0.023392975537974918,0.09288253463209115,-0.19967755545962054,1.2135559601156336,-0.22029837397365198,-0.007429306342021414,-2.604293848773734,-0.1089554524620374,2.468121322684818,0.8264665090160237,1.2134413937687574,-0.2202432315892585,-0.0075118285948192216,-2.6038483821997875,-0.10888392708698907,2.4681821257803174,0.826474908251239,0.0007831993484405637,-0.0008469680806358726,-0.0003487055107003063,-0.0005799142563036623,-0.0003663276659964293,-0.0002837067212101992,-0.0008268449857147084,0.0,0.0,0.0,0.0,0.0,0.0,0.0,-0.00011456634687623257,5.514238439349728e-05,-8.252225279780766e-05,0.00044546657394661793,7.152537504832857e-05,6.080309549938434e-05,8.399235215339473e-06,-0.0007831993484405637,0.0008469680806358726,0.0003487055107003063,0.0005799142563036623,0.0003663276659964293,0.0002837067212101992,0.0008268449857147084,0.4267818331718445,19.816431045532227,0.4228789508342743,-20.130342483520508,-0.5578513741493225,-2.4694857597351074,0.17978231608867645,0
43,0.21001839637756348,-0.4029781222343445,-19.844202041625977,-0.3990752398967743,20.106538772583008,0.5578513741493225,2.4758944511413574,-0.21457235515117645,0.0,0.0,0.0,0.0,0.0,0.0,0.0,-0.4127458974137394,-0.11232197387840497,-0.24667611715530646,0.32809776750821146,-0.024679028843488066,0.09222643625816472,-0.19972276158721056,1.2135542896797782,-0.22029642514387762,-0.007430976777876678,-2.6042914365913434,-0.1089554524620374,2.468120610607995,0.8264693147762846,1.2134413937687574,-0.2202432315892585,-0.0075118285948192216,-2.6038483821997875,-0.10888392708698907,2.4681821257803174,0.826474908251239,0.0007453019501705772,0.00017774210598192267,-0.0006383843341521172,-0.00019995583788984887,-9.111681888314958e-05,-0.00035150837121346106,3.8490534045853776e-05,0.0,0.0,0.0,0.0,0.0,0.0,0.0,-0.00011289591102081609,5.319355461913533e-05,-8.085181694254383e-05,0.0004430543915558971,7.152537504832857e-05,6.151517232222403e-05,5.593474954435074e-06,-0.0007453019501705772,-0.00017774210598192267,0.0006383843341521172,0.00019995583788984887,9.111681888314958e-05,0.00035150837121346106,-3.8490534045853776e-05,0.4029781222343445,19.844202041625977,0.3990752398967743,-20.106538772583008,-0.5578513741493225,-2.4758944511413574,0.21457235515117645,0
44,0.21502971649169922,-0.4029781222343445,-19.844202041625977,-0.3990752398967743,20.106538772583008,0.5578513741493225,2.4758944511413574,-0.21457235515117645,0.0,0.0,0.0,0.0,0.0,0.0,0.0,-0.4127458974137394,-0.11232197387840497,-0.24667611715530646,0.32809776750821146,-0.024679028843488066,0.09222643625816472,-0.19972276158721056,1.2135542896797782,-0.22029642514387762,-0.007430976777876678,-2.6042914365913434,-0.1089554524620374,2.468120610607995,0.8264693147762846,1.2134413937687574,-0.2202432315892585,-0.0075118285948192216,-2.6038483821997875,-0.10888392708698907,2.4681821257803174,0.826474908251239,0.0007453019501705772,0.00017774210598192267,-0.0006383843341521172,-0.00019995583788984887,-9.111681888314958e-05,-0.00035150837121346106,3.8490534045853776e-05,0.0,0.0,0.0,0.0,0.0,0.0,0.0,-0.00011289591102081609,5.319355461913533e-05,-8.085181694254383e-05,0.0004430543915558971,7.152537504832857e-05,6.151517232222403e-05,5.593474954435074e-06,-0.0007453019501705772,-0.00017774210598192267,0.0006383843341521172,0.00019995583788984887,9.111681888314958e-05,0.00035150837121346106,-3.8490534045853776e-05,0.4029781222343445,19.844202041625977,0.3990752398967743,-20.106538772583008,-0.5578513741493225,-2.4758944511413574,0.21457235515117645,0
45,0.2200007438659668,-0.4267818331718445,-19.844202041625977,-0.3990752398967743,20.007356643676758,0.5578513741493225,2.4694857597351074,-0.22830526530742645,0.0,0.0,0.0,0.0,0.0,0.0,0.0,-0.4137949554762057,-0.11541010743890658,-0.2523741964300301,0.3295093820222676,-0.023945926961417677,0.09267642086163999,-0.20129935905905083,1.2135559601156336,-0.22029642514387768,-0.007430976777876678,-2.60428521818445,-0.1089554524620374,2.468121322684818,0.8264719004488432,1.2134413937687574,-0.2202432315892585,-0.0075118285948192216,-2.6038483821997875,-0.10888392708698907,2.4681821257803174,0.826474908251239,0.00036249899120035134,-0.00015904141937636432,-0.0002833865393458173,0.0021053821782067127,-0.0029304906013633307,-0.0002032034808851392,0.0007589877585286799,0.0,0.0,0.0,0.0,0.0,0.0,0.0,-0.00011456634687623257,5.319355461919084e-05,-8.085181694254383e-05,0.00043683598466248696,7.152537504832857e-05,6.080309549938434e-05,3.007802395815773e-06,-0.00036249899120035134,0.00015904141937636432,0.0002833865393458173,-0.0021053821782067127,0.0029304906013633307,0.0002032034808851392,-0.0007589877585286799,0.4267818331718445,19.844202041625977,0.3990752398967743,-20.007356643676758,-0.5578513741493225,-2.4694857597351074,0.22830526530742645,0
46,0.22496676445007324,-0.4267818331718445,-19.844202041625977,-0.3990752398967743,20.007356643676758,0.5578513741493225,2.4694857597351074,-0.22830526530742645,0.0,0.0,0.0,0.0,0.0,0.0,0.0,-0.4137949554762057,-0.11541010743890658,-0.2523741964300301,0.3295093820222676,-0.023945926961417677,0.09267642086163999,-0.20129935905905083,1.2135559601156336,-0.22029642514387768,-0.007430976777876678,-2.60428521818445,-0.1089554524620374,2.468121322684818,0.8264719004488432,1.2134413937687574,-0.2202432315892585,-0.0075118285948192216,-2.6038483821997875,-0.10888392708698907,2.4681821257803174,0.826474908251239,0.00036249899120035134,-0.00015904141937636432,-0.0002833865393458173,0.0021053821782067127,-0.0029304906013633307,-0.0002032034808851392,0.0007589877585286799,0.0,0.0,0.0,0.0,0.0,0.0,0.0,-0.00011456634687623257,5.319355461919084e-05,-8.085181694254383e-05,0.00043683598466248696,7.152537504832857e-05,6.080309549938434e-05,3.007802395815773e-06,-0.00036249899120035134,0.00015904141937636432,0.0002833865393458173,-0.0021053821782067127,0.0029304906013633307,0.0002032034808851392,-0.0007589877585286799,0.4267818331718445,19.844202041625977,0.3990752398967743,-20.007356643676758,-0.5578513741493225,-2.4694857597351074,0.22830526530742645,0
47,0.2299950122833252,-0.4505855441093445,-19.844202041625977,-0.4228789508342743,20.082735061645508,0.5523582100868225,2.4758944511413574,-0.23471395671367645,0.0,0.0,0.0,0.0,0.0,0.0,0.0,-0.4029129160462948,-0.11935834063221694,-0.2368694142311639,0.33091751763458926,-0.025258671595194033,0.09389576199865772,-0.20291321091026449,1.2135576305514888,-0.22029642514387768,-0.007429306342021414,-2.604290498744812,-0.1089548421104749,2.468120610607995,0.8264726125316487,1.2134413937687574,-0.2202432315892585,-0.0075118285948192216,-2.6038483821997875,-0.10888392708698907,2.4681821257803174,0.826474908251239,0.0012104234455191801,-0.00036846069122007497,0.000529442933226583,0.0007636948049729182,3.200762411599873e-05,-0.00029699169840936395,0.0014687357571194879,0.0,0.0,0.0,0.0,0.0,0.0,0.0,-0.00011623678273142701,5.319355461919084e-05,-8.252225279780766e-05,0.0004421165450243514,7.091502348582912e-05,6.151517232222403e-05,2.295719590317269e-06,-0.0012104234455191801,0.00036846069122007497,-0.000529442933226583,-0.0007636948049729182,-3.200762411599873e-05,0.00029699169840936395,-0.0014687357571194879,0.4505855441093445,19.844202041625977,0.4228789508342743,-20.082735061645508,-0.5523582100868225,-2.4758944511413574,0.23471395671367645,0
48,0.23500323295593262,-0.4505855441093445,-19.844202041625977,-0.4228789508342743,20.082735061645508,0.5523582100868225,2.4758944511413574,-0.23471395671367645,0.0,0.0,0.0,0.0,0.0,0.0,0.0,-0.4029129160462948,-0.11935834063221694,-0.2368694142311639,0.33091751763458926,-0.025258671595194033,0.09389576199865772,-0.20291321091026449,1.2135576305514888,-0.22029642514387768,-0.007429306342021414,-2.604290498744812,-0.1089548421104749,2.468120610607995,0.8264726125316487,1.2134413937687574,-0.2202432315892585,-0.0075118285948192216,-2.6038483821997875,-0.10888392708698907,2.4681821257803174,0.826474908251239,0.0012104234455191801,-0.00036846069122007497,0.000529442933226583,0.0007636948049729182,3.200762411599873e-05,-0.00029699169840936395,0.0014687357571194879,0.0,0.0,0.0,0.0,0.0,0.0,0.0,-0.00011623678273142701,5.319355461919084e-05,-8.252225279780766e-05,0.0004421165450243514,7.091502348582912e-05,6.151517232222403e-05,2.295719590317269e-06,-0.0012104234455191801,0.00036846069122007497,-0.000529442933226583,-0.0007636948049729182,-3.200762411599873e-05,0.00029699169840936395,-0.0014687357571194879,0.4505855441093445,19.844202041625977,0.4228789508342743,-20.082735061645508,-0.5523582100868225,-2.4758944511413574,0.23471395671367645,0
49,0.23999786376953125,-0.3752071261405945,-19.844202041625977,-0.4466826617717743,20.106538772583008,0.5697532296180725,2.4566683769226074,-0.20724813640117645,0.0,0.0,0.0,0.0,0.0,0.0,0.0,-0.40854401335080504,-0.11810005525903612,-0.2399409114227366,0.3263941597485748,-0.025555647921999894,0.09384720722651273,-0.2024523163246354,1.2135523408379472,-0.22029642514387768,-0.007427635906166151,-2.604292178338017,-0.10895677472816018,2.4681227468384637,0.8264695607738363,1.2134413937687574,-0.2202432315892585,-0.0075118285948192216,-2.6038483821997875,-0.10888392708698907,2.4681821257803174,0.826474908251239,-0.0009942532458144457,-0.00043780174860127177,9.804401181650665e-05,-0.00020399196184432656,-0.00043483462399100203,0.0004654828318698647,0.00043921385611187907,0.0,0.0,0.0,0.0,0.0,0.0,0.0,-0.00011094706918979291,5.319355461919084e-05,-8.419268865307063e-05,0.0004437961382293132,7.28476411711032e-05,5.937894185370496e-05,5.34747740277286e-06,0.0009942532458144457,0.00043780174860127177,-9.804401181650665e-05,0.00020399196184432656,0.00043483462399100203,-0.0004654828318698647,-0.00043921385611187907,0.3752071261405945,19.844202041625977,0.4466826617717743,-20.106538772583008,-0.5697532296180725,-2.4566683769226074,0.20724813640117645,0
50,0.24499797821044922,-0.3752071261405945,-19.844202041625977,-0.4466826617717743,20.106538772583008,0.5697532296180725,2.4566683769226074,-0.20724813640117645,0.0,0.0,0.0,0.0,0.0,0.0,0.0,-0.40854401335080504,-0.11810005525903612,-0.2399409114227366,0.3263941597485748,-0.025555647921999894,0.09384720722651273,-0.2024523163246354,1.2135523408379472,-0.22029642514387768,-0.007427635906166151,-2.604292178338017,-0.10895677472816018,2.4681227468384637,0.8264695607738363,1.2134413937687574,-0.2202432315892585,-0.0075118285948192216,-2.6038483821997875,-0.10888392708698907,2.4681821257803174,0.826474908251239,-0.0009942532458144457,-0.00043780174860127177,9.804401181650665e-05,-0.00020399196184432656,-0.00043483462399100203,0.0004654828318698647,0.00043921385611187907,0.0,0.0,0.0,0.0,0.0,0.0,0.0,-0.00011094706918979291,5.319355461919084e-05,-8.419268865307063e-05,0.0004437961382293132,7.28476411711032e-05,5.937894185370496e-05,5.34747740277286e-06,0.0009942532458144457,0.00043780174860127177,-9.804401181650665e-05,0.00020399196184432656,0.00043483462399100203,-0.0004654828318698647,-0.00043921385611187907,0.3752071261405945,19.844202041625977,0.4466826617717743,-20.106538772583008,-0.5697532296180725,-2.4566683769226074,0.20724813640117645,0
51,0.2500007152557373,-0.3752071261405945,-19.844202041625977,-0.4466826617717743,20.106538772583008,0.5697532296180725,2.4566683769226074,-0.20724813640117645,0.0,0.0,0.0,0.0,0.0,0.0,0.0,-0.40854401335080504,-0.11810005525903612,-0.2399409114227366,0.3263941597485748,-0.025555647921999894,0.09384720722651273,-0.2024523163246354,1.2135523408379472,-0.22029642514387768,-0.007427635906166151,-2.604292178338017,-0.10895677472816018,2.4681227468384637,0.8264695607738363,1.2134413937687574,-0.2202432315892585,-0.0075118285948192216,-2.6038483821997875,-0.10888392708698907,2.4681821257803174,0.826474908251239,-0.0009942532458144457,-0.00043780174860127177,9.804401181650665e-05,-0.00020399196184432656,-0.00043483462399100203,0.0004654828318698647,0.00043921385611187907,0.0,0.0,0.0,0.0,0.0,0.0,0.0,-0.00011094706918979291,5.319355461919084e-05,-8.419268865307063e-05,0.0004437961382293132,7.28476411711032e-05,5.937894185370496e-05,5.34747740277286e-06,0.0009942532458144457,0.00043780174860127177,-9.804401181650665e-05,0.00020399196184432656,0.00043483462399100203,-0.0004654828318698647,-0.00043921385611187907,0.3752071261405945,19.844202041625977,0.4466826617717743,-20.106538772583008,-0.5697532296180725,-2.4566683769226074,0.20724813640117645,0
52,0.25499963760375977,-0.3752071261405945,-19.844202041625977,-0.4466826617717743,20.106538772583008,0.5697532296180725,2.4566683769226074,-0.20724813640117645,0.0,0.0,0.0,0.0,0.0,0.0,0.0,-0.40854401335080504,-0.11810005525903612,-0.2399409114227366,0.3263941597485748,-0.025555647921999894,0.09384720722651273,-0.2024523163246354,1.2135523408379472,-0.22029642514387768,-0.007427635906166151,-2.604292178338017,-0.10895677472816018,2.4681227468384637,0.8264695607738363,1.2134413937687574,-0.2202432315892585,-0.0075118285948192216,-2.6038483821997875,-0.10888392708698907,2.4681821257803174,0.826474908251239,-0.0009942532458144457,-0.00043780174860127177,9.804401181650665e-05,-0.00020399196184432656,-0.00043483462399100203,0.0004654828318698647,0.00043921385611187907,0.0,0.0,0.0,0.0,0.0,0.0,0.0,-0.00011094706918979291,5.319355461919084e-05,-8.419268865307063e-05,0.0004437961382293132,7.28476411711032e-05,5.937894185370496e-05,5.34747740277286e-06,0.0009942532458144457,0.00043780174860127177,-9.804401181650665e-05,0.00020399196184432656,0.00043483462399100203,-0.0004654828318698647,-0.00043921385611187907,0.3752071261405945,19.844202041625977,0.4466826617717743,-20.106538772583008,-0.5697532296180725,-2.4566683769226074,0.20724813640117645,0
53,0.2600064277648926,-0.4029781222343445,-19.816431045532227,-0.4228789508342743,20.082735061645508,0.5642600655555725,2.4758944511413574,-0.20724813640117645,0.0,0.0,0.0,0.0,0.0,0.0,0.0,-0.4011534726012828,-0.11323353468171367,-0.23259861250650324,0.32525414255263674,-0.025453316992229254,0.09443605220748076,-0.20186511458818812,1.2135542896797782,-0.2202983739857088,-0.0074290696481137475,-2.6042905079021783,-0.1089561645388594,2.4681206498538515,0.8264695607738363,1.2134413937687574,-0.2202432315892585,-0.0075118285948192216,-2.6038483821997875,-0.10888392708698907,2.4681821257803174,0.826474908251239,-0.0003460808959554895,-0.00024613696108227376,0.00011925883077164179,0.00045609282050120535,-0.0002482523545201143,-0.00011036966673462634,0.00018848608416917656,0.0,0.0,0.0,0.0,0.0,0.0,0.0,-0.00011289591102081609,5.514239645032504e-05,-8.275894670547405e-05,0.0004421257023907721,7.223745187032171e-05,6.147592646588151e-05,5.34747740277286e-06,0.0003460808959554895,0.00024613696108227376,-0.00011925883077164179,-0.00045609282050120535,0.0002482523545201143,0.00011036966673462634,-0.00018848608416917656,0.4029781222343445,19.816431045532227,0.4228789508342743,-20.082735061645508,-0.5642600655555725,-2.4758944511413574,0.20724813640117645,0
54,0.26502060890197754,-0.4029781222343445,-19.816431045532227,-0.4228789508342743,20.082735061645508,0.5642600655555725,2.4758944511413574,-0.20724813640117645,0.0,0.0,0.0,0.0,0.0,0.0,0.0,-0.4011534726012828,-0.11323353468171367,-0.23259861250650324,0.32525414255263674,-0.025453316992229254,0.09443605220748076,-0.20186511458818812,1.2135542896797782,-0.2202983739857088,-0.0074290696481137475,-2.6042905079021783,-0.1089561645388594,2.4681206498538515,0.8264695607738363,1.2134413937687574,-0.2202432315892585,-0.0075118285948192216,-2.6038483821997875,-0.10888392708698907,2.4681821257803174,0.826474908251239,-0.0003460808959554895,-0.00024613696108227376,0.00011925883077164179,0.00045609282050120535,-0.0002482523545201143,-0.00011036966673462634,0.00018848608416917656,0.0,0.0,0.0,0.0,0.0,0.0,0.0,-0.00011289591102081609,5.514239645032504e-05,-8.275894670547405e-05,0.0004421257023907721,7.223745187032171e-05,6.147592646588151e-05,5.34747740277286e-06,0.0003460808959554895,0.00024613696108227376,-0.00011925883077164179,-0.00045609282050120535,0.0002482523545201143,0.00011036966673462634,-0.00018848608416917656,0.4029781222343445,19.816431045532227,0.4228789508342743,-20.082735061645508,-0.5642600655555725,-2.4758944511413574,0.20724813640117645,0
55,0.2700176239013672,-0.3752071261405945,-19.816431045532227,-0.4228789508342743,20.082735061645508,0.5523582100868225,2.4566683769226074,-0.16604940593242645,0.0,0.0,0.0,0.0,0.0,0.0,0.0,-0.40077328246899807,-0.11135835079236546,-0.23091602724975932,0.32511355412644505,-0.025411393950686884,0.09527844952241936,-0.20137417784277217,1.2135523408379472,-0.2202983739857088,-0.00742930634068527,-2.604289766155488,-0.10895484211047489,2.468122746838685,0.8264649831371175,1.2134413937687574,-0.2202432315892585,-0.0075118285948192216,-2.6038483821997875,-0.10888392708698907,2.4681821257803174,0.826474908251239,-0.0005911529286787825,-1.9388359940500316e-05,-0.00012250811010653862,0.0004470052879032052,0.00012560918205517814,0.00030354950766745735,-0.0013812320794114297,0.0,0.0,0.0,0.0,0.0,0.0,0.0,-0.00011094706918979291,5.514239645032504e-05,-8.252225413395153e-05,0.0004413839557004806,7.091502348581524e-05,5.937894163254853e-05,9.925114121567269e-06,0.0005911529286787825,1.9388359940500316e-05,0.00012250811010653862,-0.0004470052879032052,-0.00012560918205517814,-0.00030354950766745735,0.0013812320794114297,0.3752071261405945,19.816431045532227,0.4228789508342743,-20.082735061645508,-0.5523582100868225,-2.4566683769226074,0.16604940593242645,0
56,0.2750101089477539,-0.3752071261405945,-19.816431045532227,-0.4228789508342743,20.082735061645508,0.5523582100868225,2.4566683769226074,-0.16604940593242645,0.0,0.0,0.0,0.0,0.0,0.0,0.0,-0.40077328246899807,-0.11135835079236546,-0.23091602724975932,0.32511355412644505,-0.025411393950686884,0.09527844952241936,-0.20137417784277217,1.2135523408379472,-0.2202983739857088,-0.00742930634068527,-2.604289766155488,-0.10895484211047489,2.468122746838685,0.8264649831371175,1.2134413937687574,-0.2202432315892585,-0.0075118285948192216,-2.6038483821997875,-0.10888392708698907,2.4681821257803174,0.826474908251239,-0.0005911529286787825,-1.9388359940500316e-05,-0.00012250811010653862,0.0004470052879032052,0.00012560918205517814,0.00030354950766745735,-0.0013812320794114297,0.0,0.0,0.0,0.0,0.0,0.0,0.0,-0.00011094706918979291,5.514239645032504e-05,-8.252225413395153e-05,0.0004413839557004806,7.091502348581524e-05,5.937894163254853e-05,9.925114121567269e-06,0.0005911529286787825,1.9388359940500316e-05,0.00012250811010653862,-0.0004470052879032052,-0.00012560918205517814,-0.00030354950766745735,0.0013812320794114297,0.3752071261405945,19.816431045532227,0.4228789508342743,-20.082735061645508,-0.5523582100868225,-2.4566683769226074,0.16604940593242645,0
57,0.28000688552856445,-0.4029781222343445,-19.816431045532227,-0.4704863727092743,20.082735061645508,0.5578513741493225,2.4630770683288574,-0.20083944499492645,0.0,0.0,0.0,0.0,0.0,0.0,0.0,-0.40612378836663576,-0.11218485164640449,-0.23864711612934317,0.3280112448739369,-0.025453163080676734,0.0950066726874159,-0.20100893809692638,1.2135542896797782,-0.2202983739857088,-0.007425965470310881,-2.6042904254816923,-0.10895545246203739,2.468122047843593,0.8264688486970133,1.2134413937687574,-0.2202432315892585,-0.0075118285948192216,-2.6038483821997875,-0.10888392708698907,2.4681821257803174,0.826474908251239,-0.0002609573623791131,-0.0005891110870648105,0.0008231319494342111,0.0005678733258626985,4.203938309613164e-05,0.00015722647957266682,-6.986451557351392e-05,0.0,0.0,0.0,0.0,0.0,0.0,0.0,-0.00011289591102081609,5.514239645032504e-05,-8.586312450834053e-05,0.00044204328190478037,7.152537504831469e-05,6.007793672457851e-05,6.0595542257235735e-06,0.0002609573623791131,0.0005891110870648105,-0.0008231319494342111,-0.0005678733258626985,-4.203938309613164e-05,-0.00015722647957266682,6.986451557351392e-05,0.4029781222343445,19.816431045532227,0.4704863727092743,-20.082735061645508,-0.5578513741493225,-2.4630770683288574,0.20083944499492645,0
58,0.28500962257385254,-0.4029781222343445,-19.816431045532227,-0.4704863727092743,20.082735061645508,0.5578513741493225,2.4630770683288574,-0.20083944499492645,0.0,0.0,0.0,0.0,0.0,0.0,0.0,-0.40612378836663576,-0.11218485164640449,-0.23864711612934317,0.3280112448739369,-0.025453163080676734,0.0950066726874159,-0.20100893809692638,1.2135542896797782,-0.2202983739857088,-0.007425965470310881,-2.6042904254816923,-0.10895545246203739,2.468122047843593,0.8264688486970133,1.2134413937687574,-0.2202432315892585,-0.0075118285948192216,-2.6038483821997875,-0.10888392708698907,2.4681821257803174,0.826474908251239,-0.0002609573623791131,-0.0005891110870648105,0.0008231319494342111,0.0005678733258626985,4.203938309613164e-05,0.00015722647957266682,-6.986451557351392e-05,0.0,0.0,0.0,0.0,0.0,0.0,0.0,-0.00011289591102081609,5.514239645032504e-05,-8.586312450834053e-05,0.00044204328190478037,7.152537504831469e-05,6.007793672457851e-05,6.0595542257235735e-06,0.0002609573623791131,0.0005891110870648105,-0.0008231319494342111,-0.0005678733258626985,-4.203938309613164e-05,-0.00015722647957266682,6.986451557351392e-05,0.4029781222343445,19.816431045532227,0.4704863727092743,-20.082735061645508,-0.5578513741493225,-2.4630770683288574,0.20083944499492645,0
59,0.2900199890136719,-0.4029781222343445,-19.891809463500977,-0.4228789508342743,20.082735061645508,0.5642600655555725,2.4566683769226074,-0.22098104655742645,0.0,0.0,0.0,0.0,0.0,0.0,0.0,-0.4092061283296533,-0.10663060176126578,-0.2424488961356872,0.3263448491259216,-0.025696665760800437,0.09436526197567638,-0.2020291509958535,1.2135542896797782,-0.22029308427216715,-0.007429306342021414,-2.604290507864029,-0.10895615139558645,2.4681227468385374,0.8264710866527425,1.2134413937687574,-0.2202432315892585,-0.0075118285948192216,-2.6038483821997875,-0.10888392708698907,2.4681821257803174,0.826474908251239,-0.0007781915053368986,0.001573837486032244,-0.0006397157976281121,0.0006336532541117014,-0.00019520707568812125,0.0004446651453868952,0.0006000275178166606,0.0,0.0,0.0,0.0,0.0,0.0,0.0,-0.00011289591102081609,4.985268290866318e-05,-8.252225279780766e-05,0.0004421256642412885,7.22243085973795e-05,5.937894177998615e-05,3.8215984965450644e-06,0.0007781915053368986,-0.001573837486032244,0.0006397157976281121,-0.0006336532541117014,0.00019520707568812125,-0.0004446651453868952,-0.0006000275178166606,0.4029781222343445,19.891809463500977,0.4228789508342743,-20.082735061645508,-0.5642600655555725,-2.4566683769226074,0.22098104655742645,0
60,0.2950105667114258,-0.4029781222343445,-19.891809463500977,-0.4228789508342743,20.082735061645508,0.5642600655555725,2.4566683769226074,-0.22098104655742645,0.0,0.0,0.0,0.0,0.0,0.0,0.0,-0.4092061283296533,-0.10663060176126578,-0.2424488961356872,0.3263448491259216,-0.025696665760800437,0.09436526197567638,-0.2020291509958535,1.2135542896797782,-0.22029308427216715,-0.007429306342021414,-2.604290507864029,-0.10895615139558645,2.4681227468385374,0.8264710866527425,1.2134413937687574,-0.2202432315892585,-0.0075118285948192216,-2.6038483821997875,-0.10888392708698907,2.4681821257803174,0.826474908251239,-0.0007781915053368986,0.001573837486032244,-0.0006397157976281121,0.0006336532541117014,-0.00019520707568812125,0.0004446651453868952,0.0006000275178166606,0.0,0.0,0.0,0.0,0.0,0.0,0.0,-0.00011289591102081609,4.985268290866318e-05,-8.252225279780766e-05,0.0004421256642412885,7.22243085973795e-05,5.937894177998615e-05,3.8215984965450644e-06,0.0007781915053368986,-0.001573837486032244,0.0006397157976281121,-0.0006336532541117014,0.00019520707568812125,-0.0004446651453868952,-0.0006000275178166606,0.4029781222343445,19.891809463500977,0.4228789508342743,-20.082735061645508,-0.5642600655555725,-2.4566683769226074,0.22098104655742645,0
61,0.29999780654907227,-0.4267818331718445,-19.891809463500977,-0.4466826617717743,20.054964065551758,0.5523582100868225,2.4630770683288574,-0.18710653483867645,0.0,0.0,0.0,0.0,0.0,0.0,0.0,-0.4024660877797838,-0.10960252238110876,-0.23413792009700432,0.3274095768545552,-0.02590172207096955,0.09452670090978754,-0.20327022960100355,1.213556189703895,-0.22029308427216715,-0.007427635906166151,-2.6042885590603473,-0.1089548421104007,2.468122034761641,0.8264673228181071,1.2134413937687574,-0.2202432315892585,-0.0075118285948192216,-2.6038483821997875,-0.10888392708698907,2.4681821257803174,0.826474908251239,0.00042451303928987323,0.0010014446006502736,0.0005396376279699004,0.0012002671605832174,0.00021214337538967912,-4.265740477428196e-05,-0.00035341777189589846,0.0,0.0,0.0,0.0,0.0,0.0,0.0,-0.00011479593513752384,4.985268290866318e-05,-8.419268865307063e-05,0.0004401768605597489,7.091502341162459e-05,6.009101867654465e-05,7.585433131951369e-06,-0.00042451303928987323,-0.0010014446006502736,-0.0005396376279699004,-0.0012002671605832174,-0.00021214337538967912,4.265740477428196e-05,0.00035341777189589846,0.4267818331718445,19.891809463500977,0.4466826617717743,-20.054964065551758,-0.5523582100868225,-2.4630770683288574,0.18710653483867645,0
62,0.30501317977905273,-0.4267818331718445,-19.891809463500977,-0.4466826617717743,20.054964065551758,0.5523582100868225,2.4630770683288574,-0.18710653483867645,0.0,0.0,0.0,0.0,0.0,0.0,0.0,-0.4024660877797838,-0.10960252238110876,-0.23413792009700432,0.3274095768545552,-0.02590172207096955,0.09452670090978754,-0.20327022960100355,1.213556189703895,-0.22029308427216715,-0.007427635906166151,-2.6042885590603473,-0.1089548421104007,2.468122034761641,0.8264673228181071,1.2134413937687574,-0.2202432315892585,-0.0075118285948192216,-2.6038483821997875,-0.10888392708698907,2.4681821257803174,0.826474908251239,0.00042451303928987323,0.0010014446006502736,0.0005396376279699004,0.0012002671605832174,0.00021214337538967912,-4.265740477428196e-05,-0.00035341777189589846,0.0,0.0,0.0,0.0,0.0,0.0,0.0,-0.00011479593513752384,4.985268290866318e-05,-8.419268865307063e-05,0.0004401768605597489,7.091502341162459e-05,6.009101867654465e-05,7.585433131951369e-06,-0.00042451303928987323,-0.0010014446006502736,-0.0005396376279699004,-0.0012002671605832174,-0.00021214337538967912,4.265740477428196e-05,0.00035341777189589846,0.4267818331718445,19.891809463500977,0.4466826617717743,-20.054964065551758,-0.5523582100868225,-2.4630770683288574,0.18710653483867645,0
63,0.31002187728881836,-0.4029781222343445,-19.868005752563477,-0.4982573688030243,20.082735061645508,0.5578513741493225,2.4694857597351074,-0.16604940593242645,0.0,0.0,0.0,0.0,0.0,0.0,0.0,-0.4097388057299661,-0.11435824062900078,-0.24127952760462304,0.3317998161831288,-0.02522314726994433,0.09459177539687047,-0.2031605173077012,1.213554289681074,-0.2202947547080224,-0.007424016628479748,-2.604288281644622,-0.10895545246203739,2.468121322684818,0.8264649831371175,1.2134413937687574,-0.2202432315892585,-0.0075118285948192216,-2.6038483821997875,-0.10888392708698907,2.4681821257803174,0.826474908251239,-0.0002230793555190617,6.847628519133633e-05,0.001482098311904561,0.0007533439081142088,0.00014192680531392382,-0.00012223765065541507,-0.002007966174274397,0.0,0.0,0.0,0.0,0.0,0.0,0.0,-0.0001128959123166684,5.1523118763913134e-05,-8.781196633947386e-05,0.00043989944483424637,7.152537504831469e-05,6.080309549938434e-05,9.925114121567269e-06,0.0002230793555190617,-6.847628519133633e-05,-0.001482098311904561,-0.0007533439081142088,-0.00014192680531392382,0.00012223765065541507,0.002007966174274397,0.4029781222343445,19.868005752563477,0.4982573688030243,-20.082735061645508,-0.5578513741493225,-2.4694857597351074,0.16604940593242645,0
64,0.31505703926086426,-0.4029781222343445,-19.868005752563477,-0.4982573688030243,20.082735061645508,0.5578513741493225,2.4694857597351074,-0.16604940593242645,0.0,0.0,0.0,0.0,0.0,0.0,0.0,-0.4097388057299661,-0.11435824062900078,-0.24127952760462304,0.3317998161831288,-0.02522314726994433,0.09459177539687047,-0.2031605173077012,1.213554289681074,-0.2202947547080224,-0.007424016628479748,-2.604288281644622,-0.10895545246203739,2.468121322684818,0.8264649831371175,1.2134413937687574,-0.2202432315892585,-0.0075118285948192216,-2.6038483821997875,-0.10888392708698907,2.4681821257803174,0.826474908251239,-0.0002230793555190617,6.847628519133633e-05,0.001482098311904561,0.0007533439081142088,0.00014192680531392382,-0.00012223765065541507,-0.002007966174274397,0.0,0.0,0.0,0.0,0.0,0.0,0.0,-0.0001128959123166684,5.1523118763913134e-05,-8.781196633947386e-05,0.00043989944483424637,7.152537504831469e-05,6.080309549938434e-05,9.925114121567269e-06,0.0002230793555190617,-6.847628519133633e-05,-0.001482098311904561,-0.0007533439081142088,-0.00014192680531392382,0.00012223765065541507,0.002007966174274397,0.4029781222343445,19.868005752563477,0.4982573688030243,-20.082735061645508,-0.5578513741493225,-2.4694857597351074,0.16604940593242645,0
65,0.3200099468231201,-0.3514034152030945,-19.844202041625977,-0.4228789508342743,20.082735061645508,0.5642600655555725,2.4566683769226074,-0.21457235515117645,0.0,0.0,0.0,0.0,0.0,0.0,0.0,-0.40355351222412494,-0.10890820731723343,-0.2371049118326662,0.32800309399405275,-0.024937716232281415,0.09355525900971251,-0.2045060663525805,1.2135506704020917,-0.22029642510770717,-0.007429306342021414,-2.6042904254733124,-0.10895616453886031,2.4681227468384637,0.8264703745759195,1.2134413937687574,-0.2202432315892585,-0.0075118285948192216,-2.6038483821997875,-0.10888392708698907,2.4681821257803174,0.826474908251239,-0.001039761395306049,0.00013340566920447584,-8.050641064493161e-05,0.001030441297618062,-0.0002751926708937101,0.00022447354093075127,0.0004395566144128626,0.0,0.0,0.0,0.0,0.0,0.0,0.0,-0.00010927663333437643,5.319351844867981e-05,-8.252225279780766e-05,0.000442043273524817,7.223745187123765e-05,5.937894185370496e-05,4.533675319495778e-06,0.001039761395306049,-0.00013340566920447584,8.050641064493161e-05,-0.001030441297618062,0.0002751926708937101,-0.00022447354093075127,-0.0004395566144128626,0.3514034152030945,19.844202041625977,0.4228789508342743,-20.082735061645508,-0.5642600655555725,-2.4566683769226074,0.21457235515117645,0
66,0.3249990940093994,-0.3514034152030945,-19.844202041625977,-0.4228789508342743,20.082735061645508,0.5642600655555725,2.4566683769226074,-0.21457235515117645,0.0,0.0,0.0,0.0,0.0,0.0,0.0,-0.40355351222412494,-0.10890820731723343,-0.2371049118326662,0.32800309399405275,-0.024937716232281415,0.09355525900971251,-0.2045060663525805,1.2135506704020917,-0.22029642510770717,-0.007429306342021414,-2.6042904254733124,-0.10895616453886031,2.4681227468384637,0.8264703745759195,1.2134413937687574,-0.2202432315892585,-0.0075118285948192216,-2.6038483821997875,-0.10888392708698907,2.4681821257803174,0.826474908251239,-0.001039761395306049,0.00013340566920447584,-8.050641064493161e-05,0.001030441297618062,-0.0002751926708937101,0.00022447354093075127,0.0004395566144128626,0.0,0.0,0.0,0.0,0.0,0.0,0.0,-0.00010927663333437643,5.319351844867981e-05,-8.252225279780766e-05,0.000442043273524817,7.223745187123765e-05,5.937894185370496e-05,4.533675319495778e-06,0.001039761395306049,-0.00013340566920447584,8.050641064493161e-05,-0.001030441297618062,0.0002751926708937101,-0.00022447354093075127,-0.0004395566144128626,0.3514034152030945,19.844202041625977,0.4228789508342743,-20.082735061645508,-0.5642600655555725,-2.4566683769226074,0.21457235515117645,0
67,0.33001065254211426,-0.4029781222343445,-19.868005752563477,-0.3990752398967743,20.130342483520508,0.5642600655555725,2.4694857597351074,-0.22098104655742645,0.0,0.0,0.0,0.0,0.0,0.0,0.0,-0.4033808525489968,-0.1168785477114511,-0.2377941240201799,0.33334941904784904,-0.0246991029670572,0.09356319815348614,-0.20398155678176927,1.2135542896797782,-0.2202947547080222,-0.007430976777876678,-2.6042936014114733,-0.1089529707233111,2.468121322684818,0.8264710866527425,1.2134413937687574,-0.2202432315892585,-0.0075118285948192216,-2.6038483821997875,-0.10888392708698907,2.4681821257803174,0.826474908251239,0.00032378360978236806,0.00035651240013128695,-0.0002719454308182892,-0.0003896679480350799,-0.00020918453480222676,-0.00013778866789567696,0.0006359635878616161,0.0,0.0,0.0,0.0,0.0,0.0,0.0,-0.00011289591102081609,5.1523118763718845e-05,-8.085181694254383e-05,0.0004452192116857212,6.904363632202759e-05,6.080309549938434e-05,3.8215984965450644e-06,-0.00032378360978236806,-0.00035651240013128695,0.0002719454308182892,0.0003896679480350799,0.00020918453480222676,0.00013778866789567696,-0.0006359635878616161,0.4029781222343445,19.868005752563477,0.3990752398967743,-20.130342483520508,-0.5642600655555725,-2.4694857597351074,0.22098104655742645,0
68,0.3350107669830322,-0.4029781222343445,-19.868005752563477,-0.3990752398967743,20.130342483520508,0.5642600655555725,2.4694857597351074,-0.22098104655742645,0.0,0.0,0.0,0.0,0.0,0.0,0.0,-0.4033808525489968,-0.1168785477114511,-0.2377941240201799,0.33334941904784904,-0.0246991029670572,0.09356319815348614,-0.20398155678176927,1.2135542896797782,-0.2202947547080222,-0.007430976777876678,-2.6042936014114733,-0.1089529707233111,2.468121322684818,0.8264710866527425,1.2134413937687574,-0.2202432315892585,-0.0075118285948192216,-2.6038483821997875,-0.10888392708698907,2.4681821257803174,0.826474908251239,0.00032378360978236806,0.00035651240013128695,-0.0002719454308182892,-0.0003896679480350799,-0.00020918453480222676,-0.00013778866789567696,0.0006359635878616161,0.0,0.0,0.0,0.0,0.0,0.0,0.0,-0.00011289591102081609,5.1523118763718845e-05,-8.085181694254383e-05,0.0004452192116857212,6.904363632202759e-05,6.080309549938434e-05,3.8215984965450644e-06,-0.00032378360978236806,-0.00035651240013128695,0.0002719454308182892,0.0003896679480350799,0.00020918453480222676,0.00013778866789567696,-0.0006359635878616161,0.4029781222343445,19.868005752563477,0.3990752398967743,-20.130342483520508,-0.5642600655555725,-2.4694857597351074,0.22098104655742645,0
69,0.3400096893310547,-0.4267818331718445,-19.844202041625977,-0.4466826617717743,20.106538772583008,0.5697532296180725,2.4566683769226074,-0.19351522624492645,0.0,0.0,0.0,0.0,0.0,0.0,0.0,-0.40558625826898215,-0.11644124815718386,-0.23915156127958814,0.33236385219754044,-0.024080600103954172,0.09313974071123722,-0.203607481428589,1.2135559601156336,-0.22029642514387768,-0.007427635906166151,-2.604289953096566,-0.10895677487239364,2.4681227468384637,0.82646803489493,1.2134413937687574,-0.2202432315892585,-0.0075118285948192216,-2.6038483821997875,-0.10888392708698907,2.4681821257803174,0.826474908251239,0.0005879892426356684,-0.000343917647978453,0.00033022277853309717,-4.5363672647186315e-05,-0.00027497894083717764,0.00028676784734555245,-0.0005584379899513601,0.0,0.0,0.0,0.0,0.0,0.0,0.0,-0.00011456634687623257,5.319355461919084e-05,-8.419268865307063e-05,0.0004415708967786536,7.284778540456172e-05,5.937894185370496e-05,6.8733563090006555e-06,-0.0005879892426356684,0.000343917647978453,-0.00033022277853309717,4.5363672647186315e-05,0.00027497894083717764,-0.00028676784734555245,0.0005584379899513601,0.4267818331718445,19.844202041625977,0.4466826617717743,-20.106538772583008,-0.5697532296180725,-2.4566683769226074,0.19351522624492645,0
70,0.3450002670288086,-0.4267818331718445,-19.844202041625977,-0.4466826617717743,20.106538772583008,0.5697532296180725,2.4566683769226074,-0.19351522624492645,0.0,0.0,0.0,0.0,0.0,0.0,0.0,-0.40558625826898215,-0.11644124815718386,-0.23915156127958814,0.33236385219754044,-0.024080600103954172,0.09313974071123722,-0.203607481428589,1.2135559601156336,-0.22029642514387768,-0.007427635906166151,-2.604289953096566,-0.10895677487239364,2.4681227468384637,0.82646803489493,1.2134413937687574,-0.2202432315892585,-0.0075118285948192216,-2.6038483821997875,-0.10888392708698907,2.4681821257803174,0.826474908251239,0.0005879892426356684,-0.000343917647978453,0.00033022277853309717,-4.5363672647186315e-05,-0.00027497894083717764,0.00028676784734555245,-0.0005584379899513601,0.0,0.0,0.0,0.0,0.0,0.0,0.0,-0.00011456634687623257,5.319355461919084e-05,-8.419268865307063e-05,0.0004415708967786536,7.284778540456172e-05,5.937894185370496e-05,6.8733563090006555e-06,-0.0005879892426356684,0.000343917647978453,-0.00033022277853309717,4.5363672647186315e-05,0.00027497894083717764,-0.00028676784734555245,0.0005584379899513601,0.4267818331718445,19.844202041625977,0.4466826617717743,-20.106538772583008,-0.5697532296180725,-2.4566683769226074,0.19351522624492645,0
71,0.3499870300292969,-0.4267818331718445,-19.816431045532227,-0.4466826617717743,20.106538772583008,0.5523582100868225,2.4694857597351074,-0.22830526530742645,0.0,0.0,0.0,0.0,0.0,0.0,0.0,-0.40469842575713594,-0.11041007977092862,-0.23671459962054267,0.331068416326128,-0.023722070867324453,0.09294711792009454,-0.2033620238491889,1.2135559601156336,-0.2202983739857088,-0.007427635906166151,-2.604292178325472,-0.10895484194821216,2.468121322684818,0.8264717827172559,1.2134413937687574,-0.2202432315892585,-0.0075118285948192216,-2.6038483821997875,-0.10888392708698907,2.4681821257803174,0.826474908251239,0.00037054686269422663,-5.863663050499659e-05,-0.00040741444458849524,0.00022114798040014723,0.0002878675180370377,-7.607765741482157e-05,0.0004939958534420827,0.0,0.0,0.0,0.0,0.0,0.0,0.0,-0.00011456634687623257,5.514239645032504e-05,-8.419268865307063e-05,0.0004437961256846812,7.091486122308421e-05,6.080309549938434e-05,3.1255339831837148e-06,-0.00037054686269422663,5.863663050499659e-05,0.00040741444458849524,-0.00022114798040014723,-0.0002878675180370377,7.607765741482157e-05,-0.0004939958534420827,0.4267818331718445,19.816431045532227,0.4466826617717743,-20.106538772583008,-0.5523582100868225,-2.4694857597351074,0.22830526530742645,0
72,0.354999303817749,-0.4267818331718445,-19.816431045532227,-0.4466826617717743,20.106538772583008,0.5523582100868225,2.4694857597351074,-0.22830526530742645,0.0,0.0,0.0,0.0,0.0,0.0,0.0,-0.40469842575713594,-0.11041007977092862,-0.23671459962054267,0.331068416326128,-0.023722070867324453,0.09294711792009454,-0.2033620238491889,1.2135559601156336,-0.2202983739857088,-0.007427635906166151,-2.604292178325472,-0.10895484194821216,2.468121322684818,0.8264717827172559,1.2134413937687574,-0.2202432315892585,-0.0075118285948192216,-2.6038483821997875,-0.10888392708698907,2.4681821257803174,0.826474908251239,0.00037054686269422663,-5.863663050499659e-05,-0.00040741444458849524,0.00022114798040014723,0.0002878675180370377,-7.607765741482157e-05,0.0004939958534420827,0.0,0.0,0.0,0.0,0.0,0.0,0.0,-0.00011456634687623257,5.514239645032504e-05,-8.419268865307063e-05,0.0004437961256846812,7.091486122308421e-05,6.080309549938434e-05,3.1255339831837148e-06,-0.00037054686269422663,5.863663050499659e-05,0.00040741444458849524,-0.00022114798040014723,-0.0002878675180370377,7.607765741482157e-05,-0.0004939958534420827,0.4267818331718445,19.816431045532227,0.4466826617717743,-20.106538772583008,-0.5523582100868225,-2.4694857597351074,0.22830526530742645,0
73,0.35994911193847656,-0.4029781222343445,-19.844202041625977,-0.4466826617717743,20.082735061645508,0.5642600655555725,2.4630770683288574,-0.22098104655742645,0.0,0.0,0.0,0.0,0.0,0.0,0.0,-0.3985426869841037,-0.11218466853154864,-0.23224194623889796,0.33193497647117737,-0.02439646162356442,0.0932719731257302,-0.20379416495567165,1.2135542896797782,-0.22029642514387768,-0.007427635906166151,-2.6042905075630167,-0.108956203968681,2.468122034761641,0.8264710866520779,1.2134413937687574,-0.2202432315892585,-0.0075118285948192216,-2.6038483821997875,-0.10888392708698907,2.4681821257803174,0.826474908251239,-0.00035148771589937124,7.74625441093544e-05,0.00044298180786472087,0.0003052676189239298,-0.00018684772472619103,0.00010395007774592964,0.0005665428932920435,0.0,0.0,0.0,0.0,0.0,0.0,0.0,-0.00011289591102081609,5.319355461919084e-05,-8.419268865307063e-05,0.0004421253632291844,7.227688169192392e-05,6.009101867654465e-05,3.821599161124567e-06,0.00035148771589937124,-7.74625441093544e-05,-0.00044298180786472087,-0.0003052676189239298,0.00018684772472619103,-0.00010395007774592964,-0.0005665428932920435,0.4029781222343445,19.844202041625977,0.4466826617717743,-20.082735061645508,-0.5642600655555725,-2.4630770683288574,0.22098104655742645,0
74,0.36499762535095215,-0.4029781222343445,-19.844202041625977,-0.4466826617717743,20.082735061645508,0.5642600655555725,2.4630770683288574,-0.22098104655742645,0.0,0.0,0.0,0.0,0.0,0.0,0.0,-0.3985426869841037,-0.11218466853154864,-0.23224194623889796,0.33193497647117737,-0.02439646162356442,0.0932719731257302,-0.20379416495567165,1.2135542896797782,-0.22029642514387768,-0.007427635906166151,-2.6042905075630167,-0.108956203968681,2.468122034761641,0.8264710866520779,1.2134413937687574,-0.2202432315892585,-0.0075118285948192216,-2.6038483821997875,-0.10888392708698907,2.4681821257803174,0.826474908251239,-0.00035148771589937124,7.74625441093544e-05,0.00044298180786472087,0.0003052676189239298,-0.00018684772472619103,0.00010395007774592964,0.0005665428932920435,0.0,0.0,0.0,0.0,0.0,0.0,0.0,-0.00011289591102081609,5.319355461919084e-05,-8.419268865307063e-05,0.0004421253632291844,7.227688169192392e-05,6.009101867654465e-05,3.821599161124567e-06,0.00035148771589937124,-7.74625441093544e-05,-0.00044298180786472087,-0.0003052676189239298,0.00018684772472619103,-0.00010395007774592964,-0.0005665428932920435,0.4029781222343445,19.844202041625977,0.4466826617717743,-20.082735061645508,-0.5642600655555725,-2.4630770683288574,0.22098104655742645,0
75,0.3700072765350342,-0.4267818331718445,-19.844202041625977,-0.4466826617717743,20.106538772583008,0.5642600655555725,2.4694857597351074,-0.22098104655742645,0.0,0.0,0.0,0.0,0.0,0.0,0.0,-0.4055621607354606,-0.10615084710389576,-0.2411390591327431,0.3295755384610039,-0.02406740854328752,0.09286813168364219,-0.20411970602781754,1.2135559601156336,-0.22029642514387768,-0.007427635906166151,-2.604289952758799,-0.1089561645390829,2.468121322684818,0.8264710866527425,1.2134413937687574,-0.2202432315892585,-0.0075118285948192216,-2.6038483821997875,-0.10888392708698907,2.4681821257803174,0.826474908251239,0.0005048834446756451,0.0005249661490870327,1.2504744744071359e-05,-0.00033207236930492517,-0.00011715499649996234,-0.00028238767858076725,0.0010110370165834707,0.0,0.0,0.0,0.0,0.0,0.0,0.0,-0.00011456634687623257,5.319355461919084e-05,-8.419268865307063e-05,0.000441570559011506,7.223745209382348e-05,6.080309549938434e-05,3.8215984965450644e-06,-0.0005048834446756451,-0.0005249661490870327,-1.2504744744071359e-05,0.00033207236930492517,0.00011715499649996234,0.00028238767858076725,-0.0010110370165834707,0.4267818331718445,19.844202041625977,0.4466826617717743,-20.106538772583008,-0.5642600655555725,-2.4694857597351074,0.22098104655742645,0
76,0.3750479221343994,-0.4267818331718445,-19.844202041625977,-0.4466826617717743,20.106538772583008,0.5642600655555725,2.4694857597351074,-0.22098104655742645,0.0,0.0,0.0,0.0,0.0,0.0,0.0,-0.4055621607354606,-0.10615084710389576,-0.2411390591327431,0.3295755384610039,-0.02406740854328752,0.09286813168364219,-0.20411970602781754,1.2135559601156336,-0.22029642514387768,-0.007427635906166151,-2.604289952758799,-0.1089561645390829,2.468121322684818,0.8264710866527425,1.2134413937687574,-0.2202432315892585,-0.0075118285948192216,-2.6038483821997875,-0.10888392708698907,2.4681821257803174,0.826474908251239,0.0005048834446756451,0.0005249661490870327,1.2504744744071359e-05,-0.00033207236930492517,-0.00011715499649996234,-0.00028238767858076725,0.0010110370165834707,0.0,0.0,0.0,0.0,0.0,0.0,0.0,-0.00011456634687623257,5.319355461919084e-05,-8.419268865307063e-05,0.000441570559011506,7.223745209382348e-05,6.080309549938434e-05,3.8215984965450644e-06,-0.0005048834446756451,-0.0005249661490870327,-1.2504744744071359e-05,0.00033207236930492517,0.00011715499649996234,0.00028238767858076725,-0.0010110370165834707,0.4267818331718445,19.844202041625977,0.4466826617717743,-20.106538772583008,-0.5642600655555725,-2.4694857597351074,0.22098104655742645,0
77,0.3800492286682129,-0.4267818331718445,-19.844202041625977,-0.4466826617717743,20.106538772583008,0.5642600655555725,2.4694857597351074,-0.22098104655742645,0.0,0.0,0.0,0.0,0.0,0.0,0.0,-0.4055621607354606,-0.10615084710389576,-0.2411390591327431,0.3295755384610039,-0.02406740854328752,0.09286813168364219,-0.20411970602781754,1.2135559601156336,-0.22029642514387768,-0.007427635906166151,-2.604289952758799,-0.1089561645390829,2.468121322684818,0.8264710866527425,1.2134413937687574,-0.2202432315892585,-0.0075118285948192216,-2.6038483821997875,-0.10888392708698907,2.4681821257803174,0.826474908251239,0.0005048834446756451,0.0005249661490870327,1.2504744744071359e-05,-0.00033207236930492517,-0.00011715499649996234,-0.00028238767858076725,0.0010110370165834707,0.0,0.0,0.0,0.0,0.0,0.0,0.0,-0.00011456634687623257,5.319355461919084e-05,-8.419268865307063e-05,0.000441570559011506,7.223745209382348e-05,6.080309549938434e-05,3.8215984965450644e-06,-0.0005048834446756451,-0.0005249661490870327,-1.2504744744071359e-05,0.00033207236930492517,0.00011715499649996234,0.00028238767858076725,-0.0010110370165834707,0.4267818331718445,19.844202041625977,0.4466826617717743,-20.106538772583008,-0.5642600655555725,-2.4694857597351074,0.22098104655742645,0
78,0.3850386142730713,-0.4267818331718445,-19.844202041625977,-0.4466826617717743,20.106538772583008,0.5642600655555725,2.4694857597351074,-0.22098104655742645,0.0,0.0,0.0,0.0,0.0,0.0,0.0,-0.4055621607354606,-0.10615084710389576,-0.2411390591327431,0.3295755384610039,-0.02406740854328752,0.09286813168364219,-0.20411970602781754,1.2135559601156336,-0.22029642514387768,-0.007427635906166151,-2.604289952758799,-0.1089561645390829,2.468121322684818,0.8264710866527425,1.2134413937687574,-0.2202432315892585,-0.0075118285948192216,-2.6038483821997875,-0.10888392708698907,2.4681821257803174,0.826474908251239,0.0005048834446756451,0.0005249661490870327,1.2504744744071359e-05,-0.00033207236930492517,-0.00011715499649996234,-0.00028238767858076725,0.0010110370165834707,0.0,0.0,0.0,0.0,0.0,0.0,0.0,-0.00011456634687623257,5.319355461919084e-05,-8.419268865307063e-05,0.000441570559011506,7.223745209382348e-05,6.080309549938434e-05,3.8215984965450644e-06,-0.0005048834446756451,-0.0005249661490870327,-1.2504744744071359e-05,0.00033207236930492517,0.00011715499649996234,0.00028238767858076725,-0.0010110370165834707,0.4267818331718445,19.844202041625977,0.4466826617717743,-20.106538772583008,-0.5642600655555725,-2.4694857597351074,0.22098104655742645,0
79,0.3899970054626465,-0.4267818331718445,-19.891809463500977,-0.3990752398967743,20.082735061645508,0.5578513741493225,2.4694857597351074,-0.17337362468242645,0.0,0.0,0.0,0.0,0.0,0.0,0.0,-0.4070326813020455,-0.10765282948322759,-0.24416913155379144,0.3288978090779957,-0.02362914884539593,0.09366765609401599,-0.20370894834465095,1.2135559601156336,-0.22029308427216715,-0.007430976777876678,-2.6042882826495437,-0.1089554524620374,2.468121322684818,0.8264657969392009,1.2134413937687574,-0.2202432315892585,-0.0075118285948192216,-2.6038483821997875,-0.10888392708698907,2.4681821257803174,0.826474908251239,0.00045484905425867504,0.00134890449095953,-0.0014253841764307158,0.00021280732703536927,0.00018480680926352453,4.610921805140368e-05,-0.0013966303015714914,0.0,0.0,0.0,0.0,0.0,0.0,0.0,-0.00011456634687623257,4.985268290866318e-05,-8.085181694254383e-05,0.0004399004497561698,7.152537504832857e-05,6.080309549938434e-05,9.111312038179165e-06,-0.00045484905425867504,-0.00134890449095953,0.0014253841764307158,-0.00021280732703536927,-0.00018480680926352453,-4.610921805140368e-05,0.0013966303015714914,0.4267818331718445,19.891809463500977,0.3990752398967743,-20.082735061645508,-0.5578513741493225,-2.4694857597351074,0.17337362468242645,0
