rezayati/contactInterpretation/dataset/franka_main/labeled_data/link4/d8_5.csv
index,time,tau_J0,tau_J1,tau_J2,tau_J3,tau_J4,tau_J5,tau_J6,tau_J_d0,tau_J_d1,tau_J_d2,tau_J_d3,tau_J_d4,tau_J_d5,tau_J_d6,tau_ext0,tau_ext1,tau_ext2,tau_ext3,tau_ext4,tau_ext5,tau_ext6,q0,q1,q2,q3,q4,q5,q6,q_d0,q_d1,q_d2,q_d3,q_d4,q_d5,q_d6,dq0,dq1,dq2,dq3,dq4,dq5,dq6,dq_d0,dq_d1,dq_d2,dq_d3,dq_d4,dq_d5,dq_d6,e0,e1,e2,e3,e4,e5,e6,de0,de1,de2,de3,de4,de5,de6,etau_J0,etau_J1,etau_J2,etau_J3,etau_J4,etau_J5,etau_J6,label
1,0.0,-0.8354122042655945,-46.54800033569336,-5.564480304718018,19.459871292114258,0.7610984444618225,2.3522982597351074,-0.18710653483867645,0.0,0.0,0.0,0.0,0.0,0.0,0.0,-0.7643564106736408,-0.2361422943528239,-0.39005206234907797,0.2852184547758167,0.19155994992501899,0.0954442577202623,-0.19114203521645382,0.8780805213033107,0.7556106548656342,-0.2824625770389502,-1.669048932484815,0.14140652289258215,2.4035761735461514,1.0273468966401285,0.878092876070424,0.7554597494309409,-0.2825552651693207,-1.6690993614607135,0.1414185955172306,2.4034451173676383,1.0273381002308042,0.00039454334923517986,0.0001330900179992322,6.871912921473627e-05,0.0009789499409810492,0.0006391194566334436,0.0005258572953846677,-0.0002987577722705864,0.0,0.0,0.0,0.0,0.0,0.0,0.0,1.2354767113254006e-05,-0.00015090543469331585,-9.268813037049961e-05,-5.04289758984644e-05,1.207262464844594e-05,-0.00013105617851305595,-8.796409324274279e-06,-0.00039454334923517986,-0.0001330900179992322,-6.871912921473627e-05,-0.0009789499409810492,-0.0006391194566334436,-0.0005258572953846677,0.0002987577722705864,0.8354122042655945,46.54800033569336,5.564480304718018,-19.459871292114258,-0.7610984444618225,-2.3522982597351074,0.18710653483867645,0
2,0.0049932003021240234,-0.8354122042655945,-46.54800033569336,-5.564480304718018,19.459871292114258,0.7610984444618225,2.3522982597351074,-0.18710653483867645,0.0,0.0,0.0,0.0,0.0,0.0,0.0,-0.7643564106736408,-0.2361422943528239,-0.39005206234907797,0.2852184547758167,0.19155994992501899,0.0954442577202623,-0.19114203521645382,0.8780805213033107,0.7556106548656342,-0.2824625770389502,-1.669048932484815,0.14140652289258215,2.4035761735461514,1.0273468966401285,0.878092876070424,0.7554597494309409,-0.2825552651693207,-1.6690993614607135,0.1414185955172306,2.4034451173676383,1.0273381002308042,0.00039454334923517986,0.0001330900179992322,6.871912921473627e-05,0.0009789499409810492,0.0006391194566334436,0.0005258572953846677,-0.0002987577722705864,0.0,0.0,0.0,0.0,0.0,0.0,0.0,1.2354767113254006e-05,-0.00015090543469331585,-9.268813037049961e-05,-5.04289758984644e-05,1.207262464844594e-05,-0.00013105617851305595,-8.796409324274279e-06,-0.00039454334923517986,-0.0001330900179992322,-6.871912921473627e-05,-0.0009789499409810492,-0.0006391194566334436,-0.0005258572953846677,0.0002987577722705864,0.8354122042655945,46.54800033569336,5.564480304718018,-19.459871292114258,-0.7610984444618225,-2.3522982597351074,0.18710653483867645,0
3,0.0049932003021240234,-0.8354122042655945,-46.54800033569336,-5.564480304718018,19.459871292114258,0.7610984444618225,2.3522982597351074,-0.18710653483867645,0.0,0.0,0.0,0.0,0.0,0.0,0.0,-0.7643564106736408,-0.2361422943528239,-0.39005206234907797,0.2852184547758167,0.19155994992501899,0.0954442577202623,-0.19114203521645382,0.8780805213033107,0.7556106548656342,-0.2824625770389502,-1.669048932484815,0.14140652289258215,2.4035761735461514,1.0273468966401285,0.878092876070424,0.7554597494309409,-0.2825552651693207,-1.6690993614607135,0.1414185955172306,2.4034451173676383,1.0273381002308042,0.00039454334923517986,0.0001330900179992322,6.871912921473627e-05,0.0009789499409810492,0.0006391194566334436,0.0005258572953846677,-0.0002987577722705864,0.0,0.0,0.0,0.0,0.0,0.0,0.0,1.2354767113254006e-05,-0.00015090543469331585,-9.268813037049961e-05,-5.04289758984644e-05,1.207262464844594e-05,-0.00013105617851305595,-8.796409324274279e-06,-0.00039454334923517986,-0.0001330900179992322,-6.871912921473627e-05,-0.0009789499409810492,-0.0006391194566334436,-0.0005258572953846677,0.0002987577722705864,0.8354122042655945,46.54800033569336,5.564480304718018,-19.459871292114258,-0.7610984444618225,-2.3522982597351074,0.18710653483867645,0
4,0.014997482299804688,-0.8076412081718445,-46.54800033569336,-5.588284015655518,19.487642288208008,0.7784934639930725,2.3596224784851074,-0.17978231608867645,0.0,0.0,0.0,0.0,0.0,0.0,0.0,-0.7954488623022608,-0.24483693409989288,-0.409296570949183,0.2897497014756397,0.19247552649762434,0.0957589900369301,-0.19091607668912347,0.8780785724614796,0.7556106578090568,-0.2824611067919565,-1.6690486558079938,0.14140513374735694,2.403573237411187,1.0273460828380452,0.878092876070424,0.7554597494309409,-0.2825552651693207,-1.6690993614607135,0.1414185955172306,2.4034451173676383,1.0273381002308042,-0.0002783630307605002,-0.000384406297353201,-0.00020231096834765128,0.0003234708146785284,8.850573370355247e-05,0.00020630330130755277,-2.918458334806766e-05,0.0,0.0,0.0,0.0,0.0,0.0,0.0,1.4303608944388202e-05,-0.0001509083781159326,-9.415837736420629e-05,-5.070565271969585e-05,1.3461769873657214e-05,-0.000128120043548563,-7.982607240997197e-06,0.0002783630307605002,0.000384406297353201,0.00020231096834765128,-0.0003234708146785284,-8.850573370355247e-05,-0.00020630330130755277,2.918458334806766e-05,0.8076412081718445,46.54800033569336,5.588284015655518,-19.487642288208008,-0.7784934639930725,-2.3596224784851074,0.17978231608867645,0
5,0.019995689392089844,-0.8076412081718445,-46.54800033569336,-5.588284015655518,19.487642288208008,0.7784934639930725,2.3596224784851074,-0.17978231608867645,0.0,0.0,0.0,0.0,0.0,0.0,0.0,-0.7954488623022608,-0.24483693409989288,-0.409296570949183,0.2897497014756397,0.19247552649762434,0.0957589900369301,-0.19091607668912347,0.8780785724614796,0.7556106578090568,-0.2824611067919565,-1.6690486558079938,0.14140513374735694,2.403573237411187,1.0273460828380452,0.878092876070424,0.7554597494309409,-0.2825552651693207,-1.6690993614607135,0.1414185955172306,2.4034451173676383,1.0273381002308042,-0.0002783630307605002,-0.000384406297353201,-0.00020231096834765128,0.0003234708146785284,8.850573370355247e-05,0.00020630330130755277,-2.918458334806766e-05,0.0,0.0,0.0,0.0,0.0,0.0,0.0,1.4303608944388202e-05,-0.0001509083781159326,-9.415837736420629e-05,-5.070565271969585e-05,1.3461769873657214e-05,-0.000128120043548563,-7.982607240997197e-06,0.0002783630307605002,0.000384406297353201,0.00020231096834765128,-0.0003234708146785284,-8.850573370355247e-05,-0.00020630330130755277,2.918458334806766e-05,0.8076412081718445,46.54800033569336,5.588284015655518,-19.487642288208008,-0.7784934639930725,-2.3596224784851074,0.17978231608867645,0
6,0.025006771087646484,-0.8354122042655945,-46.59957504272461,-5.635891437530518,19.487642288208008,0.7784934639930725,2.3596224784851074,-0.22098104655742645,0.0,0.0,0.0,0.0,0.0,0.0,0.0,-0.7950061174101729,-0.24358013585494853,-0.4077716065365666,0.29045713172578896,0.19272253448873747,0.09542055643248104,-0.190118057419404,0.8780805213033107,0.7556142770867598,-0.282457562824068,-1.6690500823823198,0.14140443408199604,2.4035722862389934,1.027350660474764,0.878092876070424,0.7554597494309409,-0.2825552651693207,-1.6690993614607135,0.1414185955172306,2.4034451173676383,1.0273381002308042,0.0006528236675831189,0.0006070048404535525,0.0009721315001415435,-0.0004108588925458589,-0.00011577245281478872,3.108569536431814e-05,0.001011651697780016,0.0,0.0,0.0,0.0,0.0,0.0,0.0,1.2354767113254006e-05,-0.0001545276558189146,-9.770234525274812e-05,-4.927907839369361e-05,1.4161435234555375e-05,-0.00012716887135511001,-1.2560243959791606e-05,-0.0006528236675831189,-0.0006070048404535525,-0.0009721315001415435,0.0004108588925458589,0.00011577245281478872,-3.108569536431814e-05,-0.001011651697780016,0.8354122042655945,46.59957504272461,5.635891437530518,-19.487642288208008,-0.7784934639930725,-2.3596224784851074,0.22098104655742645,0
7,0.030005931854248047,-0.8354122042655945,-46.59957504272461,-5.635891437530518,19.487642288208008,0.7784934639930725,2.3596224784851074,-0.22098104655742645,0.0,0.0,0.0,0.0,0.0,0.0,0.0,-0.7950061174101729,-0.24358013585494853,-0.4077716065365666,0.29045713172578896,0.19272253448873747,0.09542055643248104,-0.190118057419404,0.8780805213033107,0.7556142770867598,-0.282457562824068,-1.6690500823823198,0.14140443408199604,2.4035722862389934,1.027350660474764,0.878092876070424,0.7554597494309409,-0.2825552651693207,-1.6690993614607135,0.1414185955172306,2.4034451173676383,1.0273381002308042,0.0006528236675831189,0.0006070048404535525,0.0009721315001415435,-0.0004108588925458589,-0.00011577245281478872,3.108569536431814e-05,0.001011651697780016,0.0,0.0,0.0,0.0,0.0,0.0,0.0,1.2354767113254006e-05,-0.0001545276558189146,-9.770234525274812e-05,-4.927907839369361e-05,1.4161435234555375e-05,-0.00012716887135511001,-1.2560243959791606e-05,-0.0006528236675831189,-0.0006070048404535525,-0.0009721315001415435,0.0004108588925458589,0.00011577245281478872,-3.108569536431814e-05,-0.001011651697780016,0.8354122042655945,46.59957504272461,5.635891437530518,-19.487642288208008,-0.7784934639930725,-2.3596224784851074,0.22098104655742645,0
8,0.035001516342163086,-0.7084590792655945,-46.59957504272461,-5.564480304718018,19.459871292114258,0.7784934639930725,2.3660311698913574,-0.15231649577617645,0.0,0.0,0.0,0.0,0.0,0.0,0.0,-0.7784889836546863,-0.23402641658840562,-0.39463870787305605,0.2859327940725727,0.19254306305521487,0.0948569852741677,-0.19018474322482132,0.8780716123120826,0.7556142770867598,-0.28246254956548805,-1.6690467337796546,0.14140867691147113,2.403575118558323,1.0273430310802327,0.878092876070424,0.7554597494309409,-0.2825552651693207,-1.6690993614607135,0.1414185955172306,2.4034451173676383,1.0273381002308042,-0.002035927441171901,0.001319942062620489,-0.00022603025553829135,0.0009084324028379434,-0.00021713804423833093,0.00010084427988414921,-0.0017899141255363288,0.0,0.0,0.0,0.0,0.0,0.0,0.0,2.1263758341327765e-05,-0.0001545276558189146,-9.271560383267152e-05,-5.262768105884774e-05,9.918605759468013e-06,-0.0001300011906848475,-4.930849428541606e-06,0.002035927441171901,-0.001319942062620489,0.00022603025553829135,-0.0009084324028379434,0.00021713804423833093,-0.00010084427988414921,0.0017899141255363288,0.7084590792655945,46.59957504272461,5.564480304718018,-19.459871292114258,-0.7784934639930725,-2.3660311698913574,0.15231649577617645,0
9,0.04009652137756348,-0.7084590792655945,-46.59957504272461,-5.564480304718018,19.459871292114258,0.7784934639930725,2.3660311698913574,-0.15231649577617645,0.0,0.0,0.0,0.0,0.0,0.0,0.0,-0.7784889836546863,-0.23402641658840562,-0.39463870787305605,0.2859327940725727,0.19254306305521487,0.0948569852741677,-0.19018474322482132,0.8780716123120826,0.7556142770867598,-0.28246254956548805,-1.6690467337796546,0.14140867691147113,2.403575118558323,1.0273430310802327,0.878092876070424,0.7554597494309409,-0.2825552651693207,-1.6690993614607135,0.1414185955172306,2.4034451173676383,1.0273381002308042,-0.002035927441171901,0.001319942062620489,-0.00022603025553829135,0.0009084324028379434,-0.00021713804423833093,0.00010084427988414921,-0.0017899141255363288,0.0,0.0,0.0,0.0,0.0,0.0,0.0,2.1263758341327765e-05,-0.0001545276558189146,-9.271560383267152e-05,-5.262768105884774e-05,9.918605759468013e-06,-0.0001300011906848475,-4.930849428541606e-06,0.002035927441171901,-0.001319942062620489,0.00022603025553829135,-0.0009084324028379434,0.00021713804423833093,-0.00010084427988414921,0.0017899141255363288,0.7084590792655945,46.59957504272461,5.564480304718018,-19.459871292114258,-0.7784934639930725,-2.3660311698913574,0.15231649577617645,0
10,0.044996023178100586,-0.7838374972343445,-46.57577133178711,-5.612087726593018,19.487642288208008,0.7784934639930725,2.3596224784851074,-0.19351522624492645,0.0,0.0,0.0,0.0,0.0,0.0,0.0,-0.7791296987066842,-0.24307924963680522,-0.3960722879104123,0.2870886062197189,0.19210410520386897,0.09585199144209876,-0.19056132232677012,0.8780769020256243,0.7556126066509045,-0.28245946579033865,-1.669047945736287,0.14140423720549417,2.4035754783038077,1.0273476087169515,0.878092876070424,0.7554597494309409,-0.2825552651693207,-1.6690993614607135,0.1414185955172306,2.4034451173676383,1.0273381002308042,0.0009311700292557833,0.0002145981591931124,0.0015110687736681573,-0.000213491293394101,-0.0003292041174506325,9.106116221211896e-05,0.0004360267540050632,0.0,0.0,0.0,0.0,0.0,0.0,0.0,1.5974044799693665e-05,-0.00015285721996360913,-9.579937898207547e-05,-5.141572442646236e-05,1.4358311736434315e-05,-0.00013036093616936029,-9.508486147336015e-06,-0.0009311700292557833,-0.0002145981591931124,-0.0015110687736681573,0.000213491293394101,0.0003292041174506325,-9.106116221211896e-05,-0.0004360267540050632,0.7838374972343445,46.57577133178711,5.612087726593018,-19.487642288208008,-0.7784934639930725,-2.3596224784851074,0.19351522624492645,0
11,0.0499415397644043,-0.7838374972343445,-46.57577133178711,-5.612087726593018,19.487642288208008,0.7784934639930725,2.3596224784851074,-0.19351522624492645,0.0,0.0,0.0,0.0,0.0,0.0,0.0,-0.7791296987066842,-0.24307924963680522,-0.3960722879104123,0.2870886062197189,0.19210410520386897,0.09585199144209876,-0.19056132232677012,0.8780769020256243,0.7556126066509045,-0.28245946579033865,-1.669047945736287,0.14140423720549417,2.4035754783038077,1.0273476087169515,0.878092876070424,0.7554597494309409,-0.2825552651693207,-1.6690993614607135,0.1414185955172306,2.4034451173676383,1.0273381002308042,0.0009311700292557833,0.0002145981591931124,0.0015110687736681573,-0.000213491293394101,-0.0003292041174506325,9.106116221211896e-05,0.0004360267540050632,0.0,0.0,0.0,0.0,0.0,0.0,0.0,1.5974044799693665e-05,-0.00015285721996360913,-9.579937898207547e-05,-5.141572442646236e-05,1.4358311736434315e-05,-0.00013036093616936029,-9.508486147336015e-06,-0.0009311700292557833,-0.0002145981591931124,-0.0015110687736681573,0.000213491293394101,0.0003292041174506325,-9.106116221211896e-05,-0.0004360267540050632,0.7838374972343445,46.57577133178711,5.612087726593018,-19.487642288208008,-0.7784934639930725,-2.3596224784851074,0.19351522624492645,0
12,0.05493760108947754,-0.7838374972343445,-46.52419662475586,-5.564480304718018,19.487642288208008,0.7730002999305725,2.3660311698913574,-0.17978231608867645,0.0,0.0,0.0,0.0,0.0,0.0,0.0,-0.7845006838298282,-0.2562199918851037,-0.4048035359316456,0.2907903218139665,0.192328722554529,0.09632525835931549,-0.18972931352006053,0.8780769019186268,0.7556089873732181,-0.2824606692905412,-1.669047724756151,0.1414089805764474,2.403575859940803,1.0273461231202292,0.878092876070424,0.7554597494309409,-0.2825552651693207,-1.6690993614607135,0.1414185955172306,2.4034451173676383,1.0273381002308042,0.00099578591370291,-0.0015476434303202896,0.00046947549974080415,-0.000328940269628141,0.0002003658335089329,-0.00018853498304872976,-0.0006370989669081077,0.0,0.0,0.0,0.0,0.0,0.0,0.0,1.597415179721562e-05,-0.0001492379422772805,-9.459587877952425e-05,-5.163670456242997e-05,9.614940783192472e-06,-0.0001307425731646994,-8.022889425030044e-06,-0.00099578591370291,0.0015476434303202896,-0.00046947549974080415,0.000328940269628141,-0.0002003658335089329,0.00018853498304872976,0.0006370989669081077,0.7838374972343445,46.52419662475586,5.564480304718018,-19.487642288208008,-0.7730002999305725,-2.3660311698913574,0.17978231608867645,0
13,0.059952735900878906,-0.7838374972343445,-46.52419662475586,-5.564480304718018,19.487642288208008,0.7730002999305725,2.3660311698913574,-0.17978231608867645,0.0,0.0,0.0,0.0,0.0,0.0,0.0,-0.7845006838298282,-0.2562199918851037,-0.4048035359316456,0.2907903218139665,0.192328722554529,0.09632525835931549,-0.18972931352006053,0.8780769019186268,0.7556089873732181,-0.2824606692905412,-1.669047724756151,0.1414089805764474,2.403575859940803,1.0273461231202292,0.878092876070424,0.7554597494309409,-0.2825552651693207,-1.6690993614607135,0.1414185955172306,2.4034451173676383,1.0273381002308042,0.00099578591370291,-0.0015476434303202896,0.00046947549974080415,-0.000328940269628141,0.0002003658335089329,-0.00018853498304872976,-0.0006370989669081077,0.0,0.0,0.0,0.0,0.0,0.0,0.0,1.597415179721562e-05,-0.0001492379422772805,-9.459587877952425e-05,-5.163670456242997e-05,9.614940783192472e-06,-0.0001307425731646994,-8.022889425030044e-06,-0.00099578591370291,0.0015476434303202896,-0.00046947549974080415,0.000328940269628141,-0.0002003658335089329,0.00018853498304872976,0.0006370989669081077,0.7838374972343445,46.52419662475586,5.564480304718018,-19.487642288208008,-0.7730002999305725,-2.3660311698913574,0.17978231608867645,0
14,0.0650475025177002,-0.7084590792655945,-46.57577133178711,-5.564480304718018,19.511445999145508,0.7730002999305725,2.3660311698913574,-0.17978231608867645,0.0,0.0,0.0,0.0,0.0,0.0,0.0,-0.7763990161849036,-0.24171407720225757,-0.398493011527546,0.2835273041262717,0.19255098022084652,0.09565583895248009,-0.18889118330208293,0.878071612312082,0.7556126066509045,-0.28246210022601537,-1.669049458202162,0.1414051885869813,2.4035758201627684,1.0273493412255201,0.878092876070424,0.7554597494309409,-0.2825552651693207,-1.6690993614607135,0.1414185955172306,2.4034451173676383,1.0273381002308042,-0.0004940840280912727,0.0004587879421050756,0.0002364684128503415,-0.0001433241239573468,7.19696998228945e-05,-6.987820310999037e-05,-0.0003480397915502891,0.0,0.0,0.0,0.0,0.0,0.0,0.0,2.12637583419939e-05,-0.00015285721996360913,-9.316494330535718e-05,-4.9903258551475815e-05,1.3406930249287852e-05,-0.00013070279513005545,-1.1240994715944197e-05,0.0004940840280912727,-0.0004587879421050756,-0.0002364684128503415,0.0001433241239573468,-7.19696998228945e-05,6.987820310999037e-05,0.0003480397915502891,0.7084590792655945,46.57577133178711,5.564480304718018,-19.511445999145508,-0.7730002999305725,-2.3660311698913574,0.17978231608867645,0
15,0.07000207901000977,-0.7084590792655945,-46.57577133178711,-5.564480304718018,19.511445999145508,0.7730002999305725,2.3660311698913574,-0.17978231608867645,0.0,0.0,0.0,0.0,0.0,0.0,0.0,-0.7763990161849036,-0.24171407720225757,-0.398493011527546,0.2835273041262717,0.19255098022084652,0.09565583895248009,-0.18889118330208293,0.878071612312082,0.7556126066509045,-0.28246210022601537,-1.669049458202162,0.1414051885869813,2.4035758201627684,1.0273493412255201,0.878092876070424,0.7554597494309409,-0.2825552651693207,-1.6690993614607135,0.1414185955172306,2.4034451173676383,1.0273381002308042,-0.0004940840280912727,0.0004587879421050756,0.0002364684128503415,-0.0001433241239573468,7.19696998228945e-05,-6.987820310999037e-05,-0.0003480397915502891,0.0,0.0,0.0,0.0,0.0,0.0,0.0,2.12637583419939e-05,-0.00015285721996360913,-9.316494330535718e-05,-4.9903258551475815e-05,1.3406930249287852e-05,-0.00013070279513005545,-1.1240994715944197e-05,0.0004940840280912727,-0.0004587879421050756,-0.0002364684128503415,0.0001433241239573468,-7.19696998228945e-05,6.987820310999037e-05,0.0003480397915502891,0.7084590792655945,46.57577133178711,5.564480304718018,-19.511445999145508,-0.7730002999305725,-2.3660311698913574,0.17978231608867645,0
16,0.0749962329864502,-0.7838374972343445,-46.57577133178711,-5.588284015655518,19.487642288208008,0.7730002999305725,2.3660311698913574,-0.16604940593242645,0.0,0.0,0.0,0.0,0.0,0.0,0.0,-0.7873401914532315,-0.2391799152473537,-0.4133330318636133,0.28159901038570956,0.19257854186356374,0.09575114908012086,-0.18884929548082172,0.8780769020256242,0.7556126066509045,-0.28246105675079763,-1.6690501706442582,0.14140941368587534,2.403571452567066,1.0273445569775328,0.878092876070424,0.7554597494309409,-0.2825552651693207,-1.6690993614607135,0.1414185955172306,2.4034451173676383,1.0273381002308042,0.0007213947685031542,0.00022435504198882475,0.0002535721829631479,0.00014048571116853347,7.026020666821314e-05,-6.518327083709956e-05,-0.001025607807090893,0.0,0.0,0.0,0.0,0.0,0.0,0.0,1.5974044799804688e-05,-0.00015285721996360913,-9.420841852308959e-05,-4.9190816455269015e-05,9.181831355259407e-06,-0.0001263351994276185,-6.456746728611407e-06,-0.0007213947685031542,-0.00022435504198882475,-0.0002535721829631479,-0.00014048571116853347,-7.026020666821314e-05,6.518327083709956e-05,0.001025607807090893,0.7838374972343445,46.57577133178711,5.588284015655518,-19.487642288208008,-0.7730002999305725,-2.3660311698913574,0.16604940593242645,0
17,0.08000993728637695,-0.7838374972343445,-46.57577133178711,-5.588284015655518,19.487642288208008,0.7730002999305725,2.3660311698913574,-0.16604940593242645,0.0,0.0,0.0,0.0,0.0,0.0,0.0,-0.7873401914532315,-0.2391799152473537,-0.4133330318636133,0.28159901038570956,0.19257854186356374,0.09575114908012086,-0.18884929548082172,0.8780769020256242,0.7556126066509045,-0.28246105675079763,-1.6690501706442582,0.14140941368587534,2.403571452567066,1.0273445569775328,0.878092876070424,0.7554597494309409,-0.2825552651693207,-1.6690993614607135,0.1414185955172306,2.4034451173676383,1.0273381002308042,0.0007213947685031542,0.00022435504198882475,0.0002535721829631479,0.00014048571116853347,7.026020666821314e-05,-6.518327083709956e-05,-0.001025607807090893,0.0,0.0,0.0,0.0,0.0,0.0,0.0,1.5974044799804688e-05,-0.00015285721996360913,-9.420841852308959e-05,-4.9190816455269015e-05,9.181831355259407e-06,-0.0001263351994276185,-6.456746728611407e-06,-0.0007213947685031542,-0.00022435504198882475,-0.0002535721829631479,-0.00014048571116853347,-7.026020666821314e-05,6.518327083709956e-05,0.001025607807090893,0.7838374972343445,46.57577133178711,5.588284015655518,-19.487642288208008,-0.7730002999305725,-2.3660311698913574,0.16604940593242645,0
18,0.08499264717102051,-0.7560665011405945,-46.52419662475586,-5.588284015655518,19.459871292114258,0.7730002999305725,2.3724398612976074,-0.17337362468242645,0.0,0.0,0.0,0.0,0.0,0.0,0.0,-0.7772859531766527,-0.2545468392960718,-0.4128060719593791,0.29127477887347764,0.19227811585145665,0.0972674647247472,-0.1881323456489617,0.878074953183793,0.7556089873732181,-0.2824611450575143,-1.669045865102187,0.14140507053792983,2.4035712096393063,1.0273453707612223,0.878092876070424,0.7554597494309409,-0.2825552651693207,-1.6690993614607135,0.1414185955172306,2.4034451173676383,1.0273381002308042,-0.0008815133142850377,-0.001475459744806327,0.0003964595244537354,0.001072611857111716,0.00017274609857694835,-0.00034909169748133733,-0.0005633126451308522,0.0,0.0,0.0,0.0,0.0,0.0,0.0,1.7922886630938883e-05,-0.0001492379422772805,-9.412011180642832e-05,-5.3496358526361476e-05,1.3524979300766349e-05,-0.00012609227166793247,-7.270530418157506e-06,0.0008815133142850377,0.001475459744806327,-0.0003964595244537354,-0.001072611857111716,-0.00017274609857694835,0.00034909169748133733,0.0005633126451308522,0.7560665011405945,46.52419662475586,5.588284015655518,-19.459871292114258,-0.7730002999305725,-2.3724398612976074,0.17337362468242645,0
19,0.08999872207641602,-0.7560665011405945,-46.52419662475586,-5.588284015655518,19.459871292114258,0.7730002999305725,2.3724398612976074,-0.17337362468242645,0.0,0.0,0.0,0.0,0.0,0.0,0.0,-0.7772859531766527,-0.2545468392960718,-0.4128060719593791,0.29127477887347764,0.19227811585145665,0.0972674647247472,-0.1881323456489617,0.878074953183793,0.7556089873732181,-0.2824611450575143,-1.669045865102187,0.14140507053792983,2.4035712096393063,1.0273453707612223,0.878092876070424,0.7554597494309409,-0.2825552651693207,-1.6690993614607135,0.1414185955172306,2.4034451173676383,1.0273381002308042,-0.0008815133142850377,-0.001475459744806327,0.0003964595244537354,0.001072611857111716,0.00017274609857694835,-0.00034909169748133733,-0.0005633126451308522,0.0,0.0,0.0,0.0,0.0,0.0,0.0,1.7922886630938883e-05,-0.0001492379422772805,-9.412011180642832e-05,-5.3496358526361476e-05,1.3524979300766349e-05,-0.00012609227166793247,-7.270530418157506e-06,0.0008815133142850377,0.001475459744806327,-0.0003964595244537354,-0.001072611857111716,-0.00017274609857694835,0.00034909169748133733,0.0005633126451308522,0.7560665011405945,46.52419662475586,5.588284015655518,-19.459871292114258,-0.7730002999305725,-2.3724398612976074,0.17337362468242645,0
20,0.0949406623840332,-0.7560665011405945,-46.57577133178711,-5.588284015655518,19.511445999145508,0.7849021553993225,2.3596224784851074,-0.22098104655742645,0.0,0.0,0.0,0.0,0.0,0.0,0.0,-0.7828493270714436,-0.2444816102320347,-0.41424634678608224,0.28467656990501095,0.19223584611138914,0.09672447097368841,-0.18721455164266473,0.878074953183793,0.7556126066509045,-0.28246113590064625,-1.669050414529711,0.14140482718155106,2.4035725218722312,1.027350660474764,0.878092876070424,0.7554597494309409,-0.2825552651693207,-1.6690993614607135,0.1414185955172306,2.4034451173676383,1.0273381002308042,-0.001398853112414754,6.157296611133324e-05,-8.603554936294545e-05,-0.0005776038654032849,-0.00014860360484224633,0.00016927327261319867,0.0012774767266007724,0.0,0.0,0.0,0.0,0.0,0.0,0.0,1.7922886630938883e-05,-0.00015285721996360913,-9.412926867446991e-05,-4.894693100254699e-05,1.3768335679537058e-05,-0.00012740450459292063,-1.2560243959791606e-05,0.001398853112414754,-6.157296611133324e-05,8.603554936294545e-05,0.0005776038654032849,0.00014860360484224633,-0.00016927327261319867,-0.0012774767266007724,0.7560665011405945,46.57577133178711,5.588284015655518,-19.511445999145508,-0.7849021553993225,-2.3596224784851074,0.22098104655742645,0
21,0.10001587867736816,-0.7560665011405945,-46.57577133178711,-5.588284015655518,19.511445999145508,0.7849021553993225,2.3596224784851074,-0.22098104655742645,0.0,0.0,0.0,0.0,0.0,0.0,0.0,-0.7828493270714436,-0.2444816102320347,-0.41424634678608224,0.28467656990501095,0.19223584611138914,0.09672447097368841,-0.18721455164266473,0.878074953183793,0.7556126066509045,-0.28246113590064625,-1.669050414529711,0.14140482718155106,2.4035725218722312,1.027350660474764,0.878092876070424,0.7554597494309409,-0.2825552651693207,-1.6690993614607135,0.1414185955172306,2.4034451173676383,1.0273381002308042,-0.001398853112414754,6.157296611133324e-05,-8.603554936294545e-05,-0.0005776038654032849,-0.00014860360484224633,0.00016927327261319867,0.0012774767266007724,0.0,0.0,0.0,0.0,0.0,0.0,0.0,1.7922886630938883e-05,-0.00015285721996360913,-9.412926867446991e-05,-4.894693100254699e-05,1.3768335679537058e-05,-0.00012740450459292063,-1.2560243959791606e-05,0.001398853112414754,-6.157296611133324e-05,8.603554936294545e-05,0.0005776038654032849,0.00014860360484224633,-0.00016927327261319867,-0.0012774767266007724,0.7560665011405945,46.57577133178711,5.588284015655518,-19.511445999145508,-0.7849021553993225,-2.3596224784851074,0.22098104655742645,0
22,0.10499382019042969,-0.7560665011405945,-46.57577133178711,-5.588284015655518,19.511445999145508,0.7849021553993225,2.3596224784851074,-0.22098104655742645,0.0,0.0,0.0,0.0,0.0,0.0,0.0,-0.7828493270714436,-0.2444816102320347,-0.41424634678608224,0.28467656990501095,0.19223584611138914,0.09672447097368841,-0.18721455164266473,0.878074953183793,0.7556126066509045,-0.28246113590064625,-1.669050414529711,0.14140482718155106,2.4035725218722312,1.027350660474764,0.878092876070424,0.7554597494309409,-0.2825552651693207,-1.6690993614607135,0.1414185955172306,2.4034451173676383,1.0273381002308042,-0.001398853112414754,6.157296611133324e-05,-8.603554936294545e-05,-0.0005776038654032849,-0.00014860360484224633,0.00016927327261319867,0.0012774767266007724,0.0,0.0,0.0,0.0,0.0,0.0,0.0,1.7922886630938883e-05,-0.00015285721996360913,-9.412926867446991e-05,-4.894693100254699e-05,1.3768335679537058e-05,-0.00012740450459292063,-1.2560243959791606e-05,0.001398853112414754,-6.157296611133324e-05,8.603554936294545e-05,0.0005776038654032849,0.00014860360484224633,-0.00016927327261319867,-0.0012774767266007724,0.7560665011405945,46.57577133178711,5.588284015655518,-19.511445999145508,-0.7849021553993225,-2.3596224784851074,0.22098104655742645,0
23,0.1100008487701416,-0.7560665011405945,-46.57577133178711,-5.588284015655518,19.511445999145508,0.7849021553993225,2.3596224784851074,-0.22098104655742645,0.0,0.0,0.0,0.0,0.0,0.0,0.0,-0.7828493270714436,-0.2444816102320347,-0.41424634678608224,0.28467656990501095,0.19223584611138914,0.09672447097368841,-0.18721455164266473,0.878074953183793,0.7556126066509045,-0.28246113590064625,-1.669050414529711,0.14140482718155106,2.4035725218722312,1.027350660474764,0.878092876070424,0.7554597494309409,-0.2825552651693207,-1.6690993614607135,0.1414185955172306,2.4034451173676383,1.0273381002308042,-0.001398853112414754,6.157296611133324e-05,-8.603554936294545e-05,-0.0005776038654032849,-0.00014860360484224633,0.00016927327261319867,0.0012774767266007724,0.0,0.0,0.0,0.0,0.0,0.0,0.0,1.7922886630938883e-05,-0.00015285721996360913,-9.412926867446991e-05,-4.894693100254699e-05,1.3768335679537058e-05,-0.00012740450459292063,-1.2560243959791606e-05,0.001398853112414754,-6.157296611133324e-05,8.603554936294545e-05,0.0005776038654032849,0.00014860360484224633,-0.00016927327261319867,-0.0012774767266007724,0.7560665011405945,46.57577133178711,5.588284015655518,-19.511445999145508,-0.7849021553993225,-2.3596224784851074,0.22098104655742645,0
24,0.11513638496398926,-0.8354122042655945,-46.59957504272461,-5.612087726593018,19.511445999145508,0.7849021553993225,2.3596224784851074,-0.15231649577617645,0.0,0.0,0.0,0.0,0.0,0.0,0.0,-0.7759387598396837,-0.251087335105598,-0.406107664105597,0.29018108477031473,0.1921175334015608,0.0974150690686881,-0.18790346125823748,0.8780805213033106,0.7556142741433206,-0.2824570551150439,-1.6690503340446168,0.14140693661559353,2.4035767675841977,1.0273462894674803,0.878092876070424,0.7554597494309409,-0.2825552651693207,-1.6690993614607135,0.1414185955172306,2.4034451173676383,1.0273381002308042,0.0007666702879520542,0.0006204321984252766,0.0005810416316684328,-0.0004988398974303597,-0.000296205422793924,9.428935451747793e-05,-0.0014123070298261871,0.0,0.0,0.0,0.0,0.0,0.0,0.0,1.2354767113365028e-05,-0.0001545247123797555,-9.821005427684826e-05,-4.902741609669192e-05,1.1658901637068286e-05,-0.0001316502165593647,-8.18923667611493e-06,-0.0007666702879520542,-0.0006204321984252766,-0.0005810416316684328,0.0004988398974303597,0.000296205422793924,-9.428935451747793e-05,0.0014123070298261871,0.8354122042655945,46.59957504272461,5.612087726593018,-19.511445999145508,-0.7849021553993225,-2.3596224784851074,0.15231649577617645,0
25,0.11999154090881348,-0.8354122042655945,-46.59957504272461,-5.612087726593018,19.511445999145508,0.7849021553993225,2.3596224784851074,-0.15231649577617645,0.0,0.0,0.0,0.0,0.0,0.0,0.0,-0.7759387598396837,-0.251087335105598,-0.406107664105597,0.29018108477031473,0.1921175334015608,0.0974150690686881,-0.18790346125823748,0.8780805213033106,0.7556142741433206,-0.2824570551150439,-1.6690503340446168,0.14140693661559353,2.4035767675841977,1.0273462894674803,0.878092876070424,0.7554597494309409,-0.2825552651693207,-1.6690993614607135,0.1414185955172306,2.4034451173676383,1.0273381002308042,0.0007666702879520542,0.0006204321984252766,0.0005810416316684328,-0.0004988398974303597,-0.000296205422793924,9.428935451747793e-05,-0.0014123070298261871,0.0,0.0,0.0,0.0,0.0,0.0,0.0,1.2354767113365028e-05,-0.0001545247123797555,-9.821005427684826e-05,-4.902741609669192e-05,1.1658901637068286e-05,-0.0001316502165593647,-8.18923667611493e-06,-0.0007666702879520542,-0.0006204321984252766,-0.0005810416316684328,0.0004988398974303597,0.000296205422793924,-9.428935451747793e-05,0.0014123070298261871,0.8354122042655945,46.59957504272461,5.612087726593018,-19.511445999145508,-0.7849021553993225,-2.3596224784851074,0.15231649577617645,0
26,0.12511348724365234,-0.8354122042655945,-46.59957504272461,-5.564480304718018,19.535249710083008,0.7849021553993225,2.3596224784851074,-0.22098104655742645,0.0,0.0,0.0,0.0,0.0,0.0,0.0,-0.7957353678430955,-0.2520764289960592,-0.4159141097844244,0.2918234748257249,0.19209843225706663,0.09722575319731432,-0.1883023765456417,0.8780805213033106,0.7556142770867432,-0.2824628151168223,-1.6690535030176439,0.14140370889653678,2.403576523842405,1.0273506604931577,0.878092876070424,0.7554597494309409,-0.2825552651693207,-1.6690993614607135,0.1414185955172306,2.4034451173676383,1.0273381002308042,-0.00016755286205490845,0.00048034684604072726,-0.0006816759836752491,-0.0006546785320989169,-0.00035226730796931527,9.837243060982854e-05,0.0012651738689290022,0.0,0.0,0.0,0.0,0.0,0.0,0.0,1.2354767113365028e-05,-0.00015452765580237227,-9.24500524984162e-05,-4.585844306959075e-05,1.4886620693821406e-05,-0.00013140647476683753,-1.2560262353522589e-05,0.00016755286205490845,-0.00048034684604072726,0.0006816759836752491,0.0006546785320989169,0.00035226730796931527,-9.837243060982854e-05,-0.0012651738689290022,0.8354122042655945,46.59957504272461,5.564480304718018,-19.535249710083008,-0.7849021553993225,-2.3596224784851074,0.22098104655742645,0
27,0.1300034523010254,-0.8354122042655945,-46.59957504272461,-5.564480304718018,19.535249710083008,0.7849021553993225,2.3596224784851074,-0.22098104655742645,0.0,0.0,0.0,0.0,0.0,0.0,0.0,-0.7957353678430955,-0.2520764289960592,-0.4159141097844244,0.2918234748257249,0.19209843225706663,0.09722575319731432,-0.1883023765456417,0.8780805213033106,0.7556142770867432,-0.2824628151168223,-1.6690535030176439,0.14140370889653678,2.403576523842405,1.0273506604931577,0.878092876070424,0.7554597494309409,-0.2825552651693207,-1.6690993614607135,0.1414185955172306,2.4034451173676383,1.0273381002308042,-0.00016755286205490845,0.00048034684604072726,-0.0006816759836752491,-0.0006546785320989169,-0.00035226730796931527,9.837243060982854e-05,0.0012651738689290022,0.0,0.0,0.0,0.0,0.0,0.0,0.0,1.2354767113365028e-05,-0.00015452765580237227,-9.24500524984162e-05,-4.585844306959075e-05,1.4886620693821406e-05,-0.00013140647476683753,-1.2560262353522589e-05,0.00016755286205490845,-0.00048034684604072726,0.0006816759836752491,0.0006546785320989169,0.00035226730796931527,-9.837243060982854e-05,-0.0012651738689290022,0.8354122042655945,46.59957504272461,5.564480304718018,-19.535249710083008,-0.7849021553993225,-2.3596224784851074,0.22098104655742645,0
28,0.13501381874084473,-0.8592159152030945,-46.57577133178711,-5.564480304718018,19.459871292114258,0.7784934639930725,2.3660311698913574,-0.22098104655742645,0.0,0.0,0.0,0.0,0.0,0.0,0.0,-0.7960293387069518,-0.2349485300720373,-0.4076999846238032,0.2849275782865963,0.19148132001961288,0.09555429405283448,-0.18740335662344715,0.8780821917391659,0.7556126066509045,-0.2824628153848497,-1.66904861038615,0.14140518591371484,2.4035758476184457,1.027350660474764,0.878092876070424,0.7554597494309409,-0.2825552651693207,-1.6690993614607135,0.1414185955172306,2.4034451173676383,1.0273381002308042,0.0006459968107690527,0.0003153506111397854,-0.0005461824001993798,0.0007429425466114795,-0.00016553508410742157,-4.665113964101041e-05,0.001546392162066344,0.0,0.0,0.0,0.0,0.0,0.0,0.0,1.0684331258059565e-05,-0.00015285721996360913,-9.244978447103813e-05,-5.075107456353756e-05,1.3409603515757151e-05,-0.00013073025080734268,-1.2560243959791606e-05,-0.0006459968107690527,-0.0003153506111397854,0.0005461824001993798,-0.0007429425466114795,0.00016553508410742157,4.665113964101041e-05,-0.001546392162066344,0.8592159152030945,46.57577133178711,5.564480304718018,-19.459871292114258,-0.7784934639930725,-2.3660311698913574,0.22098104655742645,0
29,0.13999533653259277,-0.8592159152030945,-46.57577133178711,-5.564480304718018,19.459871292114258,0.7784934639930725,2.3660311698913574,-0.22098104655742645,0.0,0.0,0.0,0.0,0.0,0.0,0.0,-0.7960293387069518,-0.2349485300720373,-0.4076999846238032,0.2849275782865963,0.19148132001961288,0.09555429405283448,-0.18740335662344715,0.8780821917391659,0.7556126066509045,-0.2824628153848497,-1.66904861038615,0.14140518591371484,2.4035758476184457,1.027350660474764,0.878092876070424,0.7554597494309409,-0.2825552651693207,-1.6690993614607135,0.1414185955172306,2.4034451173676383,1.0273381002308042,0.0006459968107690527,0.0003153506111397854,-0.0005461824001993798,0.0007429425466114795,-0.00016553508410742157,-4.665113964101041e-05,0.001546392162066344,0.0,0.0,0.0,0.0,0.0,0.0,0.0,1.0684331258059565e-05,-0.00015285721996360913,-9.244978447103813e-05,-5.075107456353756e-05,1.3409603515757151e-05,-0.00013073025080734268,-1.2560243959791606e-05,-0.0006459968107690527,-0.0003153506111397854,0.0005461824001993798,-0.0007429425466114795,0.00016553508410742157,4.665113964101041e-05,-0.001546392162066344,0.8592159152030945,46.57577133178711,5.564480304718018,-19.459871292114258,-0.7784934639930725,-2.3660311698913574,0.22098104655742645,0
30,0.14500045776367188,-0.7560665011405945,-46.54800033569336,-5.536709308624268,19.487642288208008,0.7849021553993225,2.3522982597351074,-0.15964071452617645,0.0,0.0,0.0,0.0,0.0,0.0,0.0,-0.8012638994434051,-0.2361066944551871,-0.40690288095331406,0.285978835130432,0.19119634722970072,0.09582146054566267,-0.1874233985538114,0.878074953183793,0.7556106578090733,-0.2824637838070414,-1.669050085627214,0.14140478430692496,2.403574171972385,1.027343844882316,0.878092876070424,0.7554597494309409,-0.2825552651693207,-1.6690993614607135,0.1414185955172306,2.4034451173676383,1.0273381002308042,-0.0017730744616268053,-0.00022638133415567394,-0.0013395315199801153,0.00017474920004884308,-0.0003008015849649345,0.0004268431989106305,-0.0013037965349487562,0.0,0.0,0.0,0.0,0.0,0.0,0.0,1.7922886630938883e-05,-0.00015090837813247493,-9.148136227932202e-05,-4.927583349956244e-05,1.3811210305636479e-05,-0.00012905460474677,-5.744651511818688e-06,0.0017730744616268053,0.00022638133415567394,0.0013395315199801153,-0.00017474920004884308,0.0003008015849649345,-0.0004268431989106305,0.0013037965349487562,0.7560665011405945,46.54800033569336,5.536709308624268,-19.487642288208008,-0.7849021553993225,-2.3522982597351074,0.15964071452617645,0
31,0.14999985694885254,-0.7560665011405945,-46.54800033569336,-5.536709308624268,19.487642288208008,0.7849021553993225,2.3522982597351074,-0.15964071452617645,0.0,0.0,0.0,0.0,0.0,0.0,0.0,-0.8012638994434051,-0.2361066944551871,-0.40690288095331406,0.285978835130432,0.19119634722970072,0.09582146054566267,-0.1874233985538114,0.878074953183793,0.7556106578090733,-0.2824637838070414,-1.669050085627214,0.14140478430692496,2.403574171972385,1.027343844882316,0.878092876070424,0.7554597494309409,-0.2825552651693207,-1.6690993614607135,0.1414185955172306,2.4034451173676383,1.0273381002308042,-0.0017730744616268053,-0.00022638133415567394,-0.0013395315199801153,0.00017474920004884308,-0.0003008015849649345,0.0004268431989106305,-0.0013037965349487562,0.0,0.0,0.0,0.0,0.0,0.0,0.0,1.7922886630938883e-05,-0.00015090837813247493,-9.148136227932202e-05,-4.927583349956244e-05,1.3811210305636479e-05,-0.00012905460474677,-5.744651511818688e-06,0.0017730744616268053,0.00022638133415567394,0.0013395315199801153,-0.00017474920004884308,0.0003008015849649345,-0.0004268431989106305,0.0013037965349487562,0.7560665011405945,46.54800033569336,5.536709308624268,-19.487642288208008,-0.7849021553993225,-2.3522982597351074,0.15964071452617645,0
32,0.15499353408813477,-0.7838374972343445,-46.59957504272461,-5.536709308624268,19.511445999145508,0.7784934639930725,2.3522982597351074,-0.20724813640117645,0.0,0.0,0.0,0.0,0.0,0.0,0.0,-0.7840548122306708,-0.234140150952329,-0.39454561901357865,0.28600745259129734,0.1909390508646048,0.0954047096215998,-0.18818525420482216,0.8780769020256242,0.7556142741433206,-0.28246468485730436,-1.6690494039617263,0.1414086710850975,2.403573370886621,1.0273491345958576,0.878092876070424,0.7554597494309409,-0.2825552651693207,-1.6690993614607135,0.1414185955172306,2.4034451173676383,1.0273381002308042,0.0007199324431778937,0.0008009375042072553,-0.000837718065789414,-0.0005537732695635024,-0.00016006075296733235,0.00023513575627406318,0.000901777753983791,0.0,0.0,0.0,0.0,0.0,0.0,0.0,1.5974044799804688e-05,-0.0001545247123797555,-9.058031201636396e-05,-4.9957498987174276e-05,9.924432133101568e-06,-0.00012825351898282378,-1.1034365053452788e-05,-0.0007199324431778937,-0.0008009375042072553,0.000837718065789414,0.0005537732695635024,0.00016006075296733235,-0.00023513575627406318,-0.000901777753983791,0.7838374972343445,46.59957504272461,5.536709308624268,-19.511445999145508,-0.7784934639930725,-2.3522982597351074,0.20724813640117645,0
33,0.1600048542022705,-0.7838374972343445,-46.59957504272461,-5.536709308624268,19.511445999145508,0.7784934639930725,2.3522982597351074,-0.20724813640117645,0.0,0.0,0.0,0.0,0.0,0.0,0.0,-0.7840548122306708,-0.234140150952329,-0.39454561901357865,0.28600745259129734,0.1909390508646048,0.0954047096215998,-0.18818525420482216,0.8780769020256242,0.7556142741433206,-0.28246468485730436,-1.6690494039617263,0.1414086710850975,2.403573370886621,1.0273491345958576,0.878092876070424,0.7554597494309409,-0.2825552651693207,-1.6690993614607135,0.1414185955172306,2.4034451173676383,1.0273381002308042,0.0007199324431778937,0.0008009375042072553,-0.000837718065789414,-0.0005537732695635024,-0.00016006075296733235,0.00023513575627406318,0.000901777753983791,0.0,0.0,0.0,0.0,0.0,0.0,0.0,1.5974044799804688e-05,-0.0001545247123797555,-9.058031201636396e-05,-4.9957498987174276e-05,9.924432133101568e-06,-0.00012825351898282378,-1.1034365053452788e-05,-0.0007199324431778937,-0.0008009375042072553,0.000837718065789414,0.0005537732695635024,0.00016006075296733235,-0.00023513575627406318,-0.000901777753983791,0.7838374972343445,46.59957504272461,5.536709308624268,-19.511445999145508,-0.7784934639930725,-2.3522982597351074,0.20724813640117645,0
34,0.1649940013885498,-0.7560665011405945,-46.57577133178711,-5.564480304718018,19.511445999145508,0.7730002999305725,2.3660311698913574,-0.16604940593242645,0.0,0.0,0.0,0.0,0.0,0.0,0.0,-0.7952465013376526,-0.24623105221849592,-0.40705864052104523,0.2892682225045647,0.19157321490105794,0.09552685469123319,-0.1885857302924632,0.878074953183793,0.7556126066508879,-0.2824625770748403,-1.669049378838368,0.1414058968976581,2.403575100471227,1.027344556959139,0.878092876070424,0.7554597494309409,-0.2825552651693207,-1.6690993614607135,0.1414185955172306,2.4034451173676383,1.0273381002308042,-0.0002232991395574098,-0.00020119776814199624,8.837100853072929e-05,-0.0008897962407873507,0.00015747184897292214,-0.0002048138243168379,-0.0007372796274639232,0.0,0.0,0.0,0.0,0.0,0.0,0.0,1.7922886630938883e-05,-0.0001528572199470668,-9.268809448043092e-05,-4.998262234545692e-05,1.269861957250984e-05,-0.00012998310358858234,-6.456728334880424e-06,0.0002232991395574098,0.00020119776814199624,-8.837100853072929e-05,0.0008897962407873507,-0.00015747184897292214,0.0002048138243168379,0.0007372796274639232,0.7560665011405945,46.57577133178711,5.564480304718018,-19.511445999145508,-0.7730002999305725,-2.3660311698913574,0.16604940593242645,0
35,0.16999506950378418,-0.7560665011405945,-46.57577133178711,-5.564480304718018,19.511445999145508,0.7730002999305725,2.3660311698913574,-0.16604940593242645,0.0,0.0,0.0,0.0,0.0,0.0,0.0,-0.7952465013376526,-0.24623105221849592,-0.40705864052104523,0.2892682225045647,0.19157321490105794,0.09552685469123319,-0.1885857302924632,0.878074953183793,0.7556126066508879,-0.2824625770748403,-1.669049378838368,0.1414058968976581,2.403575100471227,1.027344556959139,0.878092876070424,0.7554597494309409,-0.2825552651693207,-1.6690993614607135,0.1414185955172306,2.4034451173676383,1.0273381002308042,-0.0002232991395574098,-0.00020119776814199624,8.837100853072929e-05,-0.0008897962407873507,0.00015747184897292214,-0.0002048138243168379,-0.0007372796274639232,0.0,0.0,0.0,0.0,0.0,0.0,0.0,1.7922886630938883e-05,-0.0001528572199470668,-9.268809448043092e-05,-4.998262234545692e-05,1.269861957250984e-05,-0.00012998310358858234,-6.456728334880424e-06,0.0002232991395574098,0.00020119776814199624,-8.837100853072929e-05,0.0008897962407873507,-0.00015747184897292214,0.0002048138243168379,0.0007372796274639232,0.7560665011405945,46.57577133178711,5.564480304718018,-19.511445999145508,-0.7730002999305725,-2.3660311698913574,0.16604940593242645,0
36,0.17493987083435059,-0.7322627902030945,-46.54800033569336,-5.536709308624268,19.487642288208008,0.7665916085243225,2.3596224784851074,-0.19351522624492645,0.0,0.0,0.0,0.0,0.0,0.0,0.0,-0.7831167224877471,-0.24520656617563066,-0.4004160717872121,0.2895147462001637,0.19139140098952873,0.0959298468206529,-0.18801972567762834,0.8780732827479378,0.7556106578090733,-0.28246475535868054,-1.6690484147187743,0.14140544005114847,2.403576401308112,1.0273476087169515,0.878092876070424,0.7554597494309409,-0.2825552651693207,-1.6690993614607135,0.1414185955172306,2.4034451173676383,1.0273381002308042,-0.00011248424489777226,-0.0004391738776040865,-0.000632863613016064,0.0003712936409758363,0.00038380578756966137,9.096944975598861e-05,0.0005849497350278284,0.0,0.0,0.0,0.0,0.0,0.0,0.0,1.9593322486133324e-05,-0.00015090837813247493,-9.050981064018249e-05,-5.0946741939172924e-05,1.3155466082132028e-05,-0.00013128394047345893,-9.508486147336015e-06,0.00011248424489777226,0.0004391738776040865,0.000632863613016064,-0.0003712936409758363,-0.00038380578756966137,-9.096944975598861e-05,-0.0005849497350278284,0.7322627902030945,46.54800033569336,5.536709308624268,-19.487642288208008,-0.7665916085243225,-2.3596224784851074,0.19351522624492645,0
37,0.17999267578125,-0.7322627902030945,-46.54800033569336,-5.536709308624268,19.487642288208008,0.7665916085243225,2.3596224784851074,-0.19351522624492645,0.0,0.0,0.0,0.0,0.0,0.0,0.0,-0.7831167224877471,-0.24520656617563066,-0.4004160717872121,0.2895147462001637,0.19139140098952873,0.0959298468206529,-0.18801972567762834,0.8780732827479378,0.7556106578090733,-0.28246475535868054,-1.6690484147187743,0.14140544005114847,2.403576401308112,1.0273476087169515,0.878092876070424,0.7554597494309409,-0.2825552651693207,-1.6690993614607135,0.1414185955172306,2.4034451173676383,1.0273381002308042,-0.00011248424489777226,-0.0004391738776040865,-0.000632863613016064,0.0003712936409758363,0.00038380578756966137,9.096944975598861e-05,0.0005849497350278284,0.0,0.0,0.0,0.0,0.0,0.0,0.0,1.9593322486133324e-05,-0.00015090837813247493,-9.050981064018249e-05,-5.0946741939172924e-05,1.3155466082132028e-05,-0.00013128394047345893,-9.508486147336015e-06,0.00011248424489777226,0.0004391738776040865,0.000632863613016064,-0.0003712936409758363,-0.00038380578756966137,-9.096944975598861e-05,-0.0005849497350278284,0.7322627902030945,46.54800033569336,5.536709308624268,-19.487642288208008,-0.7665916085243225,-2.3596224784851074,0.19351522624492645,0
38,0.18499231338500977,-0.7560665011405945,-46.62337875366211,-5.536709308624268,19.487642288208008,0.7849021553993225,2.3596224784851074,-0.22098104655742645,0.0,0.0,0.0,0.0,0.0,0.0,0.0,-0.7874960290411912,-0.24993613202160384,-0.40679227989834293,0.28989254406565673,0.19157463316941328,0.09583288171954388,-0.18665844660524472,0.878074953183793,0.7556159475226151,-0.2824625389502219,-1.6690501746087218,0.1414044213978497,2.4035753421578225,1.027350660474764,0.878092876070424,0.7554597494309409,-0.2825552651693207,-1.6690993614607135,0.1414185955172306,2.4034451173676383,1.0273381002308042,-0.00019188799145456568,0.0009052620104533077,-0.00035983807518369794,-0.0001575911427713241,-0.00026264739549036867,0.00020869878152205665,0.001262197623823679,0.0,0.0,0.0,0.0,0.0,0.0,0.0,1.7922886630938883e-05,-0.00015619809167422005,-9.27262190988376e-05,-4.918685199162276e-05,1.4174119380899741e-05,-0.00013022479018420796,-1.2560243959791606e-05,0.00019188799145456568,-0.0009052620104533077,0.00035983807518369794,0.0001575911427713241,0.00026264739549036867,-0.00020869878152205665,-0.001262197623823679,0.7560665011405945,46.62337875366211,5.536709308624268,-19.487642288208008,-0.7849021553993225,-2.3596224784851074,0.22098104655742645,0
39,0.19001030921936035,-0.7560665011405945,-46.62337875366211,-5.536709308624268,19.487642288208008,0.7849021553993225,2.3596224784851074,-0.22098104655742645,0.0,0.0,0.0,0.0,0.0,0.0,0.0,-0.7874960290411912,-0.24993613202160384,-0.40679227989834293,0.28989254406565673,0.19157463316941328,0.09583288171954388,-0.18665844660524472,0.878074953183793,0.7556159475226151,-0.2824625389502219,-1.6690501746087218,0.1414044213978497,2.4035753421578225,1.027350660474764,0.878092876070424,0.7554597494309409,-0.2825552651693207,-1.6690993614607135,0.1414185955172306,2.4034451173676383,1.0273381002308042,-0.00019188799145456568,0.0009052620104533077,-0.00035983807518369794,-0.0001575911427713241,-0.00026264739549036867,0.00020869878152205665,0.001262197623823679,0.0,0.0,0.0,0.0,0.0,0.0,0.0,1.7922886630938883e-05,-0.00015619809167422005,-9.27262190988376e-05,-4.918685199162276e-05,1.4174119380899741e-05,-0.00013022479018420796,-1.2560243959791606e-05,0.00019188799145456568,-0.0009052620104533077,0.00035983807518369794,0.0001575911427713241,0.00026264739549036867,-0.00020869878152205665,-0.001262197623823679,0.7560665011405945,46.62337875366211,5.536709308624268,-19.487642288208008,-0.7849021553993225,-2.3596224784851074,0.22098104655742645,0
40,0.19500517845153809,-0.8076412081718445,-46.57577133178711,-5.564480304718018,19.487642288208008,0.7849021553993225,2.3660311698913574,-0.15964071452617645,0.0,0.0,0.0,0.0,0.0,0.0,0.0,-0.7895537367291257,-0.2365585403549124,-0.4044991055269248,0.2814376476109491,0.19188330264257641,0.09517011207035649,-0.18617723674340247,0.8780785724614795,0.7556126066509045,-0.28246280665098794,-1.66905012163675,0.14140493368011434,2.4035728685336286,1.027343844882316,0.878092876070424,0.7554597494309409,-0.2825552651693207,-1.6690993614607135,0.1414185955172306,2.4034451173676383,1.0273381002308042,0.0006143775707932038,0.00019991703706808743,-7.28771656716208e-05,0.00040665206702847806,-0.0003744453336693049,-4.436843390261756e-05,-0.0008895461088240085,0.0,0.0,0.0,0.0,0.0,0.0,0.0,1.4303608944499224e-05,-0.00015285721996360913,-9.245851833278307e-05,-4.923982396354276e-05,1.3661837116263342e-05,-0.00012775116599028635,-5.744651511818688e-06,-0.0006143775707932038,-0.00019991703706808743,7.28771656716208e-05,-0.00040665206702847806,0.0003744453336693049,4.436843390261756e-05,0.0008895461088240085,0.8076412081718445,46.57577133178711,5.564480304718018,-19.487642288208008,-0.7849021553993225,-2.3660311698913574,0.15964071452617645,0
41,0.20001792907714844,-0.8076412081718445,-46.57577133178711,-5.564480304718018,19.487642288208008,0.7849021553993225,2.3660311698913574,-0.15964071452617645,0.0,0.0,0.0,0.0,0.0,0.0,0.0,-0.7895537367291257,-0.2365585403549124,-0.4044991055269248,0.2814376476109491,0.19188330264257641,0.09517011207035649,-0.18617723674340247,0.8780785724614795,0.7556126066509045,-0.28246280665098794,-1.66905012163675,0.14140493368011434,2.4035728685336286,1.027343844882316,0.878092876070424,0.7554597494309409,-0.2825552651693207,-1.6690993614607135,0.1414185955172306,2.4034451173676383,1.0273381002308042,0.0006143775707932038,0.00019991703706808743,-7.28771656716208e-05,0.00040665206702847806,-0.0003744453336693049,-4.436843390261756e-05,-0.0008895461088240085,0.0,0.0,0.0,0.0,0.0,0.0,0.0,1.4303608944499224e-05,-0.00015285721996360913,-9.245851833278307e-05,-4.923982396354276e-05,1.3661837116263342e-05,-0.00012775116599028635,-5.744651511818688e-06,-0.0006143775707932038,-0.00019991703706808743,7.28771656716208e-05,-0.00040665206702847806,0.0003744453336693049,4.436843390261756e-05,0.0008895461088240085,0.8076412081718445,46.57577133178711,5.564480304718018,-19.487642288208008,-0.7849021553993225,-2.3660311698913574,0.15964071452617645,0
42,0.2050032615661621,-0.7838374972343445,-46.54800033569336,-5.588284015655518,19.511445999145508,0.7730002999305725,2.3596224784851074,-0.22830526530742645,0.0,0.0,0.0,0.0,0.0,0.0,0.0,-0.7786364245247253,-0.2506697758401373,-0.3977596337429738,0.288023620820333,0.19183995337306228,0.0963464291399527,-0.1860200003158635,0.8780769020256242,0.7556106577727346,-0.2824611450579629,-1.6690496192327209,0.14140928111348264,2.4035722036039076,1.0273514742768473,0.878092876070424,0.7554597494309409,-0.2825552651693207,-1.6690993614607135,0.1414185955172306,2.4034451173676383,1.0273381002308042,0.00033545142607623626,-0.0008324069108362372,0.0002382276177592133,-0.0001894742315608202,-1.204965463517206e-05,4.427793730555661e-05,0.0019208633173994345,0.0,0.0,0.0,0.0,0.0,0.0,0.0,1.5974044799804688e-05,-0.0001509083417937651,-9.41201113578427e-05,-4.974222799258854e-05,9.314403747961997e-06,-0.00012708623626922488,-1.3374046043068688e-05,-0.00033545142607623626,0.0008324069108362372,-0.0002382276177592133,0.0001894742315608202,1.204965463517206e-05,-4.427793730555661e-05,-0.0019208633173994345,0.7838374972343445,46.54800033569336,5.588284015655518,-19.511445999145508,-0.7730002999305725,-2.3596224784851074,0.22830526530742645,0
43,0.20998835563659668,-0.7838374972343445,-46.54800033569336,-5.588284015655518,19.511445999145508,0.7730002999305725,2.3596224784851074,-0.22830526530742645,0.0,0.0,0.0,0.0,0.0,0.0,0.0,-0.7786364245247253,-0.2506697758401373,-0.3977596337429738,0.288023620820333,0.19183995337306228,0.0963464291399527,-0.1860200003158635,0.8780769020256242,0.7556106577727346,-0.2824611450579629,-1.6690496192327209,0.14140928111348264,2.4035722036039076,1.0273514742768473,0.878092876070424,0.7554597494309409,-0.2825552651693207,-1.6690993614607135,0.1414185955172306,2.4034451173676383,1.0273381002308042,0.00033545142607623626,-0.0008324069108362372,0.0002382276177592133,-0.0001894742315608202,-1.204965463517206e-05,4.427793730555661e-05,0.0019208633173994345,0.0,0.0,0.0,0.0,0.0,0.0,0.0,1.5974044799804688e-05,-0.0001509083417937651,-9.41201113578427e-05,-4.974222799258854e-05,9.314403747961997e-06,-0.00012708623626922488,-1.3374046043068688e-05,-0.00033545142607623626,0.0008324069108362372,-0.0002382276177592133,0.0001894742315608202,1.204965463517206e-05,-4.427793730555661e-05,-0.0019208633173994345,0.7838374972343445,46.54800033569336,5.588284015655518,-19.511445999145508,-0.7730002999305725,-2.3596224784851074,0.22830526530742645,0
44,0.2150261402130127,-0.7838374972343445,-46.54800033569336,-5.588284015655518,19.511445999145508,0.7730002999305725,2.3596224784851074,-0.22830526530742645,0.0,0.0,0.0,0.0,0.0,0.0,0.0,-0.7786364245247253,-0.2506697758401373,-0.3977596337429738,0.288023620820333,0.19183995337306228,0.0963464291399527,-0.1860200003158635,0.8780769020256242,0.7556106577727346,-0.2824611450579629,-1.6690496192327209,0.14140928111348264,2.4035722036039076,1.0273514742768473,0.878092876070424,0.7554597494309409,-0.2825552651693207,-1.6690993614607135,0.1414185955172306,2.4034451173676383,1.0273381002308042,0.00033545142607623626,-0.0008324069108362372,0.0002382276177592133,-0.0001894742315608202,-1.204965463517206e-05,4.427793730555661e-05,0.0019208633173994345,0.0,0.0,0.0,0.0,0.0,0.0,0.0,1.5974044799804688e-05,-0.0001509083417937651,-9.41201113578427e-05,-4.974222799258854e-05,9.314403747961997e-06,-0.00012708623626922488,-1.3374046043068688e-05,-0.00033545142607623626,0.0008324069108362372,-0.0002382276177592133,0.0001894742315608202,1.204965463517206e-05,-4.427793730555661e-05,-0.0019208633173994345,0.7838374972343445,46.54800033569336,5.588284015655518,-19.511445999145508,-0.7730002999305725,-2.3596224784851074,0.22830526530742645,0
45,0.2200145721435547,-0.7838374972343445,-46.54800033569336,-5.588284015655518,19.511445999145508,0.7730002999305725,2.3596224784851074,-0.22830526530742645,0.0,0.0,0.0,0.0,0.0,0.0,0.0,-0.7786364245247253,-0.2506697758401373,-0.3977596337429738,0.288023620820333,0.19183995337306228,0.0963464291399527,-0.1860200003158635,0.8780769020256242,0.7556106577727346,-0.2824611450579629,-1.6690496192327209,0.14140928111348264,2.4035722036039076,1.0273514742768473,0.878092876070424,0.7554597494309409,-0.2825552651693207,-1.6690993614607135,0.1414185955172306,2.4034451173676383,1.0273381002308042,0.00033545142607623626,-0.0008324069108362372,0.0002382276177592133,-0.0001894742315608202,-1.204965463517206e-05,4.427793730555661e-05,0.0019208633173994345,0.0,0.0,0.0,0.0,0.0,0.0,0.0,1.5974044799804688e-05,-0.0001509083417937651,-9.41201113578427e-05,-4.974222799258854e-05,9.314403747961997e-06,-0.00012708623626922488,-1.3374046043068688e-05,-0.00033545142607623626,0.0008324069108362372,-0.0002382276177592133,0.0001894742315608202,1.204965463517206e-05,-4.427793730555661e-05,-0.0019208633173994345,0.7838374972343445,46.54800033569336,5.588284015655518,-19.511445999145508,-0.7730002999305725,-2.3596224784851074,0.22830526530742645,0
46,0.22501826286315918,-0.8354122042655945,-46.54800033569336,-5.612087726593018,19.487642288208008,0.7784934639930725,2.3660311698913574,-0.19351522624492645,0.0,0.0,0.0,0.0,0.0,0.0,0.0,-0.7811187791834963,-0.24055025462760282,-0.4003587600470439,0.28043083072983377,0.19138956505723007,0.09500241679612594,-0.1865935236137087,0.8780805213033106,0.7556106578090732,-0.28245947462215754,-1.669048017174139,0.14140528557403204,2.403572511857749,1.0273476087169515,0.878092876070424,0.7554597494309409,-0.2825552651693207,-1.6690993614607135,0.1414185955172306,2.4034451173676383,1.0273381002308042,0.0009779666807070734,-0.0007195683767852284,0.000908727530397293,-0.0002959338320916481,-0.00018339947586188497,-0.0002560554401809908,0.0002076798633916011,0.0,0.0,0.0,0.0,0.0,0.0,0.0,1.2354767113365028e-05,-0.0001509083781323639,-9.579054716318813e-05,-5.134428657438406e-05,1.3309943198563934e-05,-0.00012739449011078818,-9.508486147336015e-06,-0.0009779666807070734,0.0007195683767852284,-0.000908727530397293,0.0002959338320916481,0.00018339947586188497,0.0002560554401809908,-0.0002076798633916011,0.8354122042655945,46.54800033569336,5.612087726593018,-19.487642288208008,-0.7784934639930725,-2.3660311698913574,0.19351522624492645,0
47,0.2300090789794922,-0.8354122042655945,-46.54800033569336,-5.612087726593018,19.487642288208008,0.7784934639930725,2.3660311698913574,-0.19351522624492645,0.0,0.0,0.0,0.0,0.0,0.0,0.0,-0.7811187791834963,-0.24055025462760282,-0.4003587600470439,0.28043083072983377,0.19138956505723007,0.09500241679612594,-0.1865935236137087,0.8780805213033106,0.7556106578090732,-0.28245947462215754,-1.669048017174139,0.14140528557403204,2.403572511857749,1.0273476087169515,0.878092876070424,0.7554597494309409,-0.2825552651693207,-1.6690993614607135,0.1414185955172306,2.4034451173676383,1.0273381002308042,0.0009779666807070734,-0.0007195683767852284,0.000908727530397293,-0.0002959338320916481,-0.00018339947586188497,-0.0002560554401809908,0.0002076798633916011,0.0,0.0,0.0,0.0,0.0,0.0,0.0,1.2354767113365028e-05,-0.0001509083781323639,-9.579054716318813e-05,-5.134428657438406e-05,1.3309943198563934e-05,-0.00012739449011078818,-9.508486147336015e-06,-0.0009779666807070734,0.0007195683767852284,-0.000908727530397293,0.0002959338320916481,0.00018339947586188497,0.0002560554401809908,-0.0002076798633916011,0.8354122042655945,46.54800033569336,5.612087726593018,-19.487642288208008,-0.7784934639930725,-2.3660311698913574,0.19351522624492645,0
48,0.23499679565429688,-0.8076412081718445,-46.57577133178711,-5.612087726593018,19.459871292114258,0.7730002999305725,2.3596224784851074,-0.22830526530742645,0.0,0.0,0.0,0.0,0.0,0.0,0.0,-0.7871622186947861,-0.25334870206013077,-0.40566336920346957,0.2876811250787695,0.19159673437906763,0.09630360199989482,-0.18751225525254311,0.8780785724614795,0.7556126066509045,-0.2824587554418346,-1.6690467864337664,0.14140590027616742,2.4035732228237436,1.0273514742768473,0.878092876070424,0.7554597494309409,-0.2825552651693207,-1.6690993614607135,0.1414185955172306,2.4034451173676383,1.0273381002308042,-0.00010212940940942716,-0.00013822965111382865,0.0003941385404550912,0.000976305602940815,0.0003243453907644988,1.729805591922464e-05,0.0018259805497583925,0.0,0.0,0.0,0.0,0.0,0.0,0.0,1.4303608944499224e-05,-0.00015285721996360913,-9.650972748614928e-05,-5.257502694711036e-05,1.2695241063176432e-05,-0.00012810545610530966,-1.3374046043068688e-05,0.00010212940940942716,0.00013822965111382865,-0.0003941385404550912,-0.000976305602940815,-0.0003243453907644988,-1.729805591922464e-05,-0.0018259805497583925,0.8076412081718445,46.57577133178711,5.612087726593018,-19.459871292114258,-0.7730002999305725,-2.3596224784851074,0.22830526530742645,0
49,0.240004301071167,-0.8076412081718445,-46.57577133178711,-5.612087726593018,19.459871292114258,0.7730002999305725,2.3596224784851074,-0.22830526530742645,0.0,0.0,0.0,0.0,0.0,0.0,0.0,-0.7871622186947861,-0.25334870206013077,-0.40566336920346957,0.2876811250787695,0.19159673437906763,0.09630360199989482,-0.18751225525254311,0.8780785724614795,0.7556126066509045,-0.2824587554418346,-1.6690467864337664,0.14140590027616742,2.4035732228237436,1.0273514742768473,0.878092876070424,0.7554597494309409,-0.2825552651693207,-1.6690993614607135,0.1414185955172306,2.4034451173676383,1.0273381002308042,-0.00010212940940942716,-0.00013822965111382865,0.0003941385404550912,0.000976305602940815,0.0003243453907644988,1.729805591922464e-05,0.0018259805497583925,0.0,0.0,0.0,0.0,0.0,0.0,0.0,1.4303608944499224e-05,-0.00015285721996360913,-9.650972748614928e-05,-5.257502694711036e-05,1.2695241063176432e-05,-0.00012810545610530966,-1.3374046043068688e-05,0.00010212940940942716,0.00013822965111382865,-0.0003941385404550912,-0.000976305602940815,-0.0003243453907644988,-1.729805591922464e-05,-0.0018259805497583925,0.8076412081718445,46.57577133178711,5.612087726593018,-19.459871292114258,-0.7730002999305725,-2.3596224784851074,0.22830526530742645,0
50,0.24501609802246094,-0.8076412081718445,-46.52419662475586,-5.564480304718018,19.511445999145508,0.7730002999305725,2.3660311698913574,-0.21457235515117645,0.0,0.0,0.0,0.0,0.0,0.0,0.0,-0.7854131476074838,-0.2533561814447415,-0.40631588689984105,0.2895737949797627,0.19161338737618366,0.09601573014788874,-0.1879140845395685,0.8780785724614795,0.7556089873732181,-0.2824627350394109,-1.6690518333562536,0.1414058691926646,2.4035729832929795,1.0273499483979411,0.878092876070424,0.7554597494309409,-0.2825552651693207,-1.6690993614607135,0.1414185955172306,2.4034451173676383,1.0273381002308042,0.0001062175817350195,-0.0016311680228293132,-0.0007851921198256908,-0.00040172366262722765,-0.00012576687838613746,-4.2126588355654015e-05,0.0009507392536084647,0.0,0.0,0.0,0.0,0.0,0.0,0.0,1.4303608944499224e-05,-0.0001492379422772805,-9.253012990984022e-05,-4.7528104459848564e-05,1.2726324566003644e-05,-0.00012786592534119734,-1.1848167136951915e-05,-0.0001062175817350195,0.0016311680228293132,0.0007851921198256908,0.00040172366262722765,0.00012576687838613746,4.2126588355654015e-05,-0.0009507392536084647,0.8076412081718445,46.52419662475586,5.564480304718018,-19.511445999145508,-0.7730002999305725,-2.3660311698913574,0.21457235515117645,0
51,0.24999618530273438,-0.8076412081718445,-46.52419662475586,-5.564480304718018,19.511445999145508,0.7730002999305725,2.3660311698913574,-0.21457235515117645,0.0,0.0,0.0,0.0,0.0,0.0,0.0,-0.7854131476074838,-0.2533561814447415,-0.40631588689984105,0.2895737949797627,0.19161338737618366,0.09601573014788874,-0.1879140845395685,0.8780785724614795,0.7556089873732181,-0.2824627350394109,-1.6690518333562536,0.1414058691926646,2.4035729832929795,1.0273499483979411,0.878092876070424,0.7554597494309409,-0.2825552651693207,-1.6690993614607135,0.1414185955172306,2.4034451173676383,1.0273381002308042,0.0001062175817350195,-0.0016311680228293132,-0.0007851921198256908,-0.00040172366262722765,-0.00012576687838613746,-4.2126588355654015e-05,0.0009507392536084647,0.0,0.0,0.0,0.0,0.0,0.0,0.0,1.4303608944499224e-05,-0.0001492379422772805,-9.253012990984022e-05,-4.7528104459848564e-05,1.2726324566003644e-05,-0.00012786592534119734,-1.1848167136951915e-05,-0.0001062175817350195,0.0016311680228293132,0.0007851921198256908,0.00040172366262722765,0.00012576687838613746,4.2126588355654015e-05,-0.0009507392536084647,0.8076412081718445,46.52419662475586,5.564480304718018,-19.511445999145508,-0.7730002999305725,-2.3660311698913574,0.21457235515117645,0
52,0.2549915313720703,-0.8354122042655945,-46.54800033569336,-5.564480304718018,19.459871292114258,0.7849021553993225,2.3596224784851074,-0.21457235515117645,0.0,0.0,0.0,0.0,0.0,0.0,0.0,-0.7866662643322532,-0.25321931858539565,-0.4075844472314588,0.2897616369197348,0.19119855847277628,0.09615193569781638,-0.18861292533241675,0.8780805213033106,0.7556106578090733,-0.2824627890015523,-1.6690478964301008,0.14140654612869788,2.4035726394715926,1.0273499483979411,0.878092876070424,0.7554597494309409,-0.2825552651693207,-1.6690993614607135,0.1414185955172306,2.4034451173676383,1.0273381002308042,0.0006871000312226077,-0.0009109454926141109,-0.0005424505852595469,0.000697018856299362,-0.00028309734073923615,0.00012379155696051264,0.0016901588616572195,0.0,0.0,0.0,0.0,0.0,0.0,0.0,1.2354767113365028e-05,-0.00015090837813247493,-9.247616776841827e-05,-5.146503061270735e-05,1.2049388532719973e-05,-0.00012752210395428065,-1.1848167136951915e-05,-0.0006871000312226077,0.0009109454926141109,0.0005424505852595469,-0.000697018856299362,0.00028309734073923615,-0.00012379155696051264,-0.0016901588616572195,0.8354122042655945,46.54800033569336,5.564480304718018,-19.459871292114258,-0.7849021553993225,-2.3596224784851074,0.21457235515117645,0
53,0.25999879837036133,-0.8354122042655945,-46.54800033569336,-5.564480304718018,19.459871292114258,0.7849021553993225,2.3596224784851074,-0.21457235515117645,0.0,0.0,0.0,0.0,0.0,0.0,0.0,-0.7866662643322532,-0.25321931858539565,-0.4075844472314588,0.2897616369197348,0.19119855847277628,0.09615193569781638,-0.18861292533241675,0.8780805213033106,0.7556106578090733,-0.2824627890015523,-1.6690478964301008,0.14140654612869788,2.4035726394715926,1.0273499483979411,0.878092876070424,0.7554597494309409,-0.2825552651693207,-1.6690993614607135,0.1414185955172306,2.4034451173676383,1.0273381002308042,0.0006871000312226077,-0.0009109454926141109,-0.0005424505852595469,0.000697018856299362,-0.00028309734073923615,0.00012379155696051264,0.0016901588616572195,0.0,0.0,0.0,0.0,0.0,0.0,0.0,1.2354767113365028e-05,-0.00015090837813247493,-9.247616776841827e-05,-5.146503061270735e-05,1.2049388532719973e-05,-0.00012752210395428065,-1.1848167136951915e-05,-0.0006871000312226077,0.0009109454926141109,0.0005424505852595469,-0.000697018856299362,0.00028309734073923615,-0.00012379155696051264,-0.0016901588616572195,0.8354122042655945,46.54800033569336,5.564480304718018,-19.459871292114258,-0.7849021553993225,-2.3596224784851074,0.21457235515117645,0
54,0.2650144100189209,-0.7560665011405945,-46.57577133178711,-5.588284015655518,19.535249710083008,0.7784934639930725,2.3522982597351074,-0.15964071452617645,0.0,0.0,0.0,0.0,0.0,0.0,0.0,-0.7847954961829999,-0.2524631911631832,-0.4018496392393372,0.289663257523645,0.19148206040055862,0.09609226309194413,-0.18775910847262314,0.878074953183793,0.7556123682323254,-0.28246114505796294,-1.669051043282169,0.14140742848211735,2.4035731117181443,1.027343844882316,0.878092876070424,0.7554597494309409,-0.2825552651693207,-1.6690993614607135,0.1414185955172306,2.4034451173676383,1.0273381002308042,-0.0010051504249950164,-9.558642825740892e-05,0.0005833686431489063,-0.0011919787302029756,7.657058555749215e-05,0.0003696136867020082,-0.0013825837291724802,0.0,0.0,0.0,0.0,0.0,0.0,0.0,1.7922886630938883e-05,-0.00015261880138450756,-9.41201113577872e-05,-4.831817854444864e-05,1.116703511325201e-05,-0.00012799435050592223,-5.744651511818688e-06,0.0010051504249950164,9.558642825740892e-05,-0.0005833686431489063,0.0011919787302029756,-7.657058555749215e-05,-0.0003696136867020082,0.0013825837291724802,0.7560665011405945,46.57577133178711,5.588284015655518,-19.535249710083008,-0.7784934639930725,-2.3522982597351074,0.15964071452617645,0
55,0.27001190185546875,-0.7560665011405945,-46.57577133178711,-5.588284015655518,19.535249710083008,0.7784934639930725,2.3522982597351074,-0.15964071452617645,0.0,0.0,0.0,0.0,0.0,0.0,0.0,-0.7847954961829999,-0.2524631911631832,-0.4018496392393372,0.289663257523645,0.19148206040055862,0.09609226309194413,-0.18775910847262314,0.878074953183793,0.7556123682323254,-0.28246114505796294,-1.669051043282169,0.14140742848211735,2.4035731117181443,1.027343844882316,0.878092876070424,0.7554597494309409,-0.2825552651693207,-1.6690993614607135,0.1414185955172306,2.4034451173676383,1.0273381002308042,-0.0010051504249950164,-9.558642825740892e-05,0.0005833686431489063,-0.0011919787302029756,7.657058555749215e-05,0.0003696136867020082,-0.0013825837291724802,0.0,0.0,0.0,0.0,0.0,0.0,0.0,1.7922886630938883e-05,-0.00015261880138450756,-9.41201113577872e-05,-4.831817854444864e-05,1.116703511325201e-05,-0.00012799435050592223,-5.744651511818688e-06,0.0010051504249950164,9.558642825740892e-05,-0.0005833686431489063,0.0011919787302029756,-7.657058555749215e-05,-0.0003696136867020082,0.0013825837291724802,0.7560665011405945,46.57577133178711,5.588284015655518,-19.535249710083008,-0.7784934639930725,-2.3522982597351074,0.15964071452617645,0
56,0.27495765686035156,-0.8354122042655945,-46.59957504272461,-5.588284015655518,19.535249710083008,0.7849021553993225,2.3724398612976074,-0.20724813640117645,0.0,0.0,0.0,0.0,0.0,0.0,0.0,-0.7824514669072596,-0.2483558172537649,-0.39863503202358846,0.2889739605703632,0.19189405147896993,0.0955948323697529,-0.1873043175148689,0.8780805213033106,0.7556142761042676,-0.2824582045622039,-1.6690533005690074,0.14140459082529724,2.4035742838988288,1.0273491345958576,0.878092876070424,0.7554597494309409,-0.2825552651693207,-1.6690993614607135,0.1414185955172306,2.4034451173676383,1.0273381002308042,0.002037837303325846,0.0008436745255540142,0.00030021419312022753,-0.001106673287419646,-0.0001961125285979366,-0.0003004007824751414,0.0012940877664336127,0.0,0.0,0.0,0.0,0.0,0.0,0.0,1.2354767113365028e-05,-0.00015452667332671588,-9.706060711683895e-05,-4.606089170611227e-05,1.400469193335585e-05,-0.00012916653119043886,-1.1034365053452788e-05,-0.002037837303325846,-0.0008436745255540142,-0.00030021419312022753,0.001106673287419646,0.0001961125285979366,0.0003004007824751414,-0.0012940877664336127,0.8354122042655945,46.59957504272461,5.588284015655518,-19.535249710083008,-0.7849021553993225,-2.3724398612976074,0.20724813640117645,0
57,0.2799985408782959,-0.8354122042655945,-46.59957504272461,-5.588284015655518,19.535249710083008,0.7849021553993225,2.3724398612976074,-0.20724813640117645,0.0,0.0,0.0,0.0,0.0,0.0,0.0,-0.7824514669072596,-0.2483558172537649,-0.39863503202358846,0.2889739605703632,0.19189405147896993,0.0955948323697529,-0.1873043175148689,0.8780805213033106,0.7556142761042676,-0.2824582045622039,-1.6690533005690074,0.14140459082529724,2.4035742838988288,1.0273491345958576,0.878092876070424,0.7554597494309409,-0.2825552651693207,-1.6690993614607135,0.1414185955172306,2.4034451173676383,1.0273381002308042,0.002037837303325846,0.0008436745255540142,0.00030021419312022753,-0.001106673287419646,-0.0001961125285979366,-0.0003004007824751414,0.0012940877664336127,0.0,0.0,0.0,0.0,0.0,0.0,0.0,1.2354767113365028e-05,-0.00015452667332671588,-9.706060711683895e-05,-4.606089170611227e-05,1.400469193335585e-05,-0.00012916653119043886,-1.1034365053452788e-05,-0.002037837303325846,-0.0008436745255540142,-0.00030021419312022753,0.001106673287419646,0.0001961125285979366,0.0003004007824751414,-0.0012940877664336127,0.8354122042655945,46.59957504272461,5.588284015655518,-19.535249710083008,-0.7849021553993225,-2.3724398612976074,0.20724813640117645,0
58,0.2850039005279541,-0.7560665011405945,-46.54800033569336,-5.588284015655518,19.487642288208008,0.7903953194618225,2.3660311698913574,-0.20083944499492645,0.0,0.0,0.0,0.0,0.0,0.0,0.0,-0.8069775590987938,-0.25386835631175914,-0.41917158627847423,0.2894261641216818,0.19275060856090406,0.09608716967278602,-0.18699837054010177,0.878074953183793,0.7556106578090679,-0.2824611185504604,-1.6690477074339332,0.14140594840070211,2.4035758069144335,1.0273484225190348,0.878092876070424,0.7554597494309409,-0.2825552651693207,-1.6690993614607135,0.1414185955172306,2.4034451173676383,1.0273381002308042,-0.0007321318466448895,-0.0007981276073171364,4.305020555810397e-05,-9.17110905933084e-05,-0.0006413843314919709,-0.00020868466070703715,0.0005358685917647126,0.0,0.0,0.0,0.0,0.0,0.0,0.0,1.7922886630938883e-05,-0.00015090837812703484,-9.41466188603135e-05,-5.165402678031228e-05,1.2647116528485824e-05,-0.00013068954679518185,-1.0322288230613097e-05,0.0007321318466448895,0.0007981276073171364,-4.305020555810397e-05,9.17110905933084e-05,0.0006413843314919709,0.00020868466070703715,-0.0005358685917647126,0.7560665011405945,46.54800033569336,5.588284015655518,-19.487642288208008,-0.7903953194618225,-2.3660311698913574,0.20083944499492645,0
59,0.290006160736084,-0.7560665011405945,-46.54800033569336,-5.588284015655518,19.487642288208008,0.7903953194618225,2.3660311698913574,-0.20083944499492645,0.0,0.0,0.0,0.0,0.0,0.0,0.0,-0.8069775590987938,-0.25386835631175914,-0.41917158627847423,0.2894261641216818,0.19275060856090406,0.09608716967278602,-0.18699837054010177,0.878074953183793,0.7556106578090679,-0.2824611185504604,-1.6690477074339332,0.14140594840070211,2.4035758069144335,1.0273484225190348,0.878092876070424,0.7554597494309409,-0.2825552651693207,-1.6690993614607135,0.1414185955172306,2.4034451173676383,1.0273381002308042,-0.0007321318466448895,-0.0007981276073171364,4.305020555810397e-05,-9.17110905933084e-05,-0.0006413843314919709,-0.00020868466070703715,0.0005358685917647126,0.0,0.0,0.0,0.0,0.0,0.0,0.0,1.7922886630938883e-05,-0.00015090837812703484,-9.41466188603135e-05,-5.165402678031228e-05,1.2647116528485824e-05,-0.00013068954679518185,-1.0322288230613097e-05,0.0007321318466448895,0.0007981276073171364,-4.305020555810397e-05,9.17110905933084e-05,0.0006413843314919709,0.00020868466070703715,-0.0005358685917647126,0.7560665011405945,46.54800033569336,5.588284015655518,-19.487642288208008,-0.7903953194618225,-2.3660311698913574,0.20083944499492645,0
60,0.29499292373657227,-0.8076412081718445,-46.54800033569336,-5.588284015655518,19.487642288208008,0.7784934639930725,2.3660311698913574,-0.22830526530742645,0.0,0.0,0.0,0.0,0.0,0.0,0.0,-0.7714677402482646,-0.2547500358176993,-0.39539569011911624,0.2928131897432,0.19229705437400493,0.09636600969987137,-0.18745842009910832,0.8780785724614795,0.7556106578090733,-0.2824611359005964,-1.6690486793012174,0.14140727147617105,2.4035756906185974,1.0273514876858483,0.878092876070424,0.7554597494309409,-0.2825552651693207,-1.6690993614607135,0.1414185955172306,2.4034451173676383,1.0273381002308042,0.00096304410299301,-0.0008692612582124421,0.000665817434774767,0.0005477504244534068,-0.00023936908383129056,-7.56410329007904e-05,0.0020597186310095327,0.0,0.0,0.0,0.0,0.0,0.0,0.0,1.4303608944499224e-05,-0.00015090837813247493,-9.412926872431893e-05,-5.0682159496107104e-05,1.1324041059551648e-05,-0.00013057325095910954,-1.3387455044089336e-05,-0.00096304410299301,0.0008692612582124421,-0.000665817434774767,-0.0005477504244534068,0.00023936908383129056,7.56410329007904e-05,-0.0020597186310095327,0.8076412081718445,46.54800033569336,5.588284015655518,-19.487642288208008,-0.7784934639930725,-2.3660311698913574,0.22830526530742645,0
61,0.29999256134033203,-0.8076412081718445,-46.54800033569336,-5.588284015655518,19.487642288208008,0.7784934639930725,2.3660311698913574,-0.22830526530742645,0.0,0.0,0.0,0.0,0.0,0.0,0.0,-0.7714677402482646,-0.2547500358176993,-0.39539569011911624,0.2928131897432,0.19229705437400493,0.09636600969987137,-0.18745842009910832,0.8780785724614795,0.7556106578090733,-0.2824611359005964,-1.6690486793012174,0.14140727147617105,2.4035756906185974,1.0273514876858483,0.878092876070424,0.7554597494309409,-0.2825552651693207,-1.6690993614607135,0.1414185955172306,2.4034451173676383,1.0273381002308042,0.00096304410299301,-0.0008692612582124421,0.000665817434774767,0.0005477504244534068,-0.00023936908383129056,-7.56410329007904e-05,0.0020597186310095327,0.0,0.0,0.0,0.0,0.0,0.0,0.0,1.4303608944499224e-05,-0.00015090837813247493,-9.412926872431893e-05,-5.0682159496107104e-05,1.1324041059551648e-05,-0.00013057325095910954,-1.3387455044089336e-05,-0.00096304410299301,0.0008692612582124421,-0.000665817434774767,-0.0005477504244534068,0.00023936908383129056,7.56410329007904e-05,-0.0020597186310095327,0.8076412081718445,46.54800033569336,5.588284015655518,-19.487642288208008,-0.7784934639930725,-2.3660311698913574,0.22830526530742645,0
62,0.3049898147583008,-0.8076412081718445,-46.54800033569336,-5.588284015655518,19.487642288208008,0.7784934639930725,2.3660311698913574,-0.22830526530742645,0.0,0.0,0.0,0.0,0.0,0.0,0.0,-0.7714677402482646,-0.2547500358176993,-0.39539569011911624,0.2928131897432,0.19229705437400493,0.09636600969987137,-0.18745842009910832,0.8780785724614795,0.7556106578090733,-0.2824611359005964,-1.6690486793012174,0.14140727147617105,2.4035756906185974,1.0273514876858483,0.878092876070424,0.7554597494309409,-0.2825552651693207,-1.6690993614607135,0.1414185955172306,2.4034451173676383,1.0273381002308042,0.00096304410299301,-0.0008692612582124421,0.000665817434774767,0.0005477504244534068,-0.00023936908383129056,-7.56410329007904e-05,0.0020597186310095327,0.0,0.0,0.0,0.0,0.0,0.0,0.0,1.4303608944499224e-05,-0.00015090837813247493,-9.412926872431893e-05,-5.0682159496107104e-05,1.1324041059551648e-05,-0.00013057325095910954,-1.3387455044089336e-05,-0.00096304410299301,0.0008692612582124421,-0.000665817434774767,-0.0005477504244534068,0.00023936908383129056,7.56410329007904e-05,-0.0020597186310095327,0.8076412081718445,46.54800033569336,5.588284015655518,-19.487642288208008,-0.7784934639930725,-2.3660311698913574,0.22830526530742645,0
63,0.30998992919921875,-0.8076412081718445,-46.54800033569336,-5.588284015655518,19.487642288208008,0.7784934639930725,2.3660311698913574,-0.22830526530742645,0.0,0.0,0.0,0.0,0.0,0.0,0.0,-0.7714677402482646,-0.2547500358176993,-0.39539569011911624,0.2928131897432,0.19229705437400493,0.09636600969987137,-0.18745842009910832,0.8780785724614795,0.7556106578090733,-0.2824611359005964,-1.6690486793012174,0.14140727147617105,2.4035756906185974,1.0273514876858483,0.878092876070424,0.7554597494309409,-0.2825552651693207,-1.6690993614607135,0.1414185955172306,2.4034451173676383,1.0273381002308042,0.00096304410299301,-0.0008692612582124421,0.000665817434774767,0.0005477504244534068,-0.00023936908383129056,-7.56410329007904e-05,0.0020597186310095327,0.0,0.0,0.0,0.0,0.0,0.0,0.0,1.4303608944499224e-05,-0.00015090837813247493,-9.412926872431893e-05,-5.0682159496107104e-05,1.1324041059551648e-05,-0.00013057325095910954,-1.3387455044089336e-05,-0.00096304410299301,0.0008692612582124421,-0.000665817434774767,-0.0005477504244534068,0.00023936908383129056,7.56410329007904e-05,-0.0020597186310095327,0.8076412081718445,46.54800033569336,5.588284015655518,-19.487642288208008,-0.7784934639930725,-2.3660311698913574,0.22830526530742645,0
64,0.31500959396362305,-0.8076412081718445,-46.54800033569336,-5.588284015655518,19.511445999145508,0.7784934639930725,2.3724398612976074,-0.16604940593242645,0.0,0.0,0.0,0.0,0.0,0.0,0.0,-0.7783379447096799,-0.260487208186866,-0.40096542516559297,0.29587152874111594,0.1922348516619512,0.09638630166909815,-0.1866906493434773,0.8780785724614795,0.7556106573730083,-0.28246114502162234,-1.6690496103942611,0.14140455608781033,2.403574995031082,1.0273445569592148,0.878092876070424,0.7554597494309409,-0.2825552651693207,-1.6690993614607135,0.1414185955172306,2.4034451173676383,1.0273381002308042,0.0013388533750705372,-0.0008975675080481839,0.00037925753709238465,2.9369211240881754e-05,3.4396318094987183e-06,-0.0004400456366626633,-0.0012487269344703528,0.0,0.0,0.0,0.0,0.0,0.0,0.0,1.4303608944499224e-05,-0.000150907942067402,-9.412014769838439e-05,-4.9751066452330406e-05,1.4039429420270588e-05,-0.0001298776634435228,-6.456728410597634e-06,-0.0013388533750705372,0.0008975675080481839,-0.00037925753709238465,-2.9369211240881754e-05,-3.4396318094987183e-06,0.0004400456366626633,0.0012487269344703528,0.8076412081718445,46.54800033569336,5.588284015655518,-19.511445999145508,-0.7784934639930725,-2.3724398612976074,0.16604940593242645,0
65,0.3200063705444336,-0.8076412081718445,-46.54800033569336,-5.588284015655518,19.511445999145508,0.7784934639930725,2.3724398612976074,-0.16604940593242645,0.0,0.0,0.0,0.0,0.0,0.0,0.0,-0.7783379447096799,-0.260487208186866,-0.40096542516559297,0.29587152874111594,0.1922348516619512,0.09638630166909815,-0.1866906493434773,0.8780785724614795,0.7556106573730083,-0.28246114502162234,-1.6690496103942611,0.14140455608781033,2.403574995031082,1.0273445569592148,0.878092876070424,0.7554597494309409,-0.2825552651693207,-1.6690993614607135,0.1414185955172306,2.4034451173676383,1.0273381002308042,0.0013388533750705372,-0.0008975675080481839,0.00037925753709238465,2.9369211240881754e-05,3.4396318094987183e-06,-0.0004400456366626633,-0.0012487269344703528,0.0,0.0,0.0,0.0,0.0,0.0,0.0,1.4303608944499224e-05,-0.000150907942067402,-9.412014769838439e-05,-4.9751066452330406e-05,1.4039429420270588e-05,-0.0001298776634435228,-6.456728410597634e-06,-0.0013388533750705372,0.0008975675080481839,-0.00037925753709238465,-2.9369211240881754e-05,-3.4396318094987183e-06,0.0004400456366626633,0.0012487269344703528,0.8076412081718445,46.54800033569336,5.588284015655518,-19.511445999145508,-0.7784934639930725,-2.3724398612976074,0.16604940593242645,0
66,0.32500696182250977,-0.8076412081718445,-46.57577133178711,-5.564480304718018,19.511445999145508,0.7665916085243225,2.3660311698913574,-0.15231649577617645,0.0,0.0,0.0,0.0,0.0,0.0,0.0,-0.7847023386440933,-0.2467369867857311,-0.4033259157674797,0.2886295135459241,0.19220805089924295,0.09491043761491305,-0.1872341253239869,0.8780785724614795,0.7556125271780374,-0.28246281451272104,-1.669051620761824,0.14141011745159546,2.4035715732591547,1.0273430310802327,0.878092876070424,0.7554597494309409,-0.2825552651693207,-1.6690993614607135,0.1414185955172306,2.4034451173676383,1.0273381002308042,0.0006542317066092944,0.00015028836873089607,-0.00015379330971742515,-0.0007108311864080521,0.0003027443676174309,3.2744469786835495e-05,-0.0012318148760397745,0.0,0.0,0.0,0.0,0.0,0.0,0.0,1.4303608944499224e-05,-0.00015277774709654413,-9.245065659968521e-05,-4.774069888946464e-05,8.478065635142418e-06,-0.00012645589151638603,-4.930849428541606e-06,-0.0006542317066092944,-0.00015028836873089607,0.00015379330971742515,0.0007108311864080521,-0.0003027443676174309,-3.2744469786835495e-05,0.0012318148760397745,0.8076412081718445,46.57577133178711,5.564480304718018,-19.511445999145508,-0.7665916085243225,-2.3660311698913574,0.15231649577617645,0
67,0.33000659942626953,-0.8076412081718445,-46.57577133178711,-5.564480304718018,19.511445999145508,0.7665916085243225,2.3660311698913574,-0.15231649577617645,0.0,0.0,0.0,0.0,0.0,0.0,0.0,-0.7847023386440933,-0.2467369867857311,-0.4033259157674797,0.2886295135459241,0.19220805089924295,0.09491043761491305,-0.1872341253239869,0.8780785724614795,0.7556125271780374,-0.28246281451272104,-1.669051620761824,0.14141011745159546,2.4035715732591547,1.0273430310802327,0.878092876070424,0.7554597494309409,-0.2825552651693207,-1.6690993614607135,0.1414185955172306,2.4034451173676383,1.0273381002308042,0.0006542317066092944,0.00015028836873089607,-0.00015379330971742515,-0.0007108311864080521,0.0003027443676174309,3.2744469786835495e-05,-0.0012318148760397745,0.0,0.0,0.0,0.0,0.0,0.0,0.0,1.4303608944499224e-05,-0.00015277774709654413,-9.245065659968521e-05,-4.774069888946464e-05,8.478065635142418e-06,-0.00012645589151638603,-4.930849428541606e-06,-0.0006542317066092944,-0.00015028836873089607,0.00015379330971742515,0.0007108311864080521,-0.0003027443676174309,-3.2744469786835495e-05,0.0012318148760397745,0.8076412081718445,46.57577133178711,5.564480304718018,-19.511445999145508,-0.7665916085243225,-2.3660311698913574,0.15231649577617645,0
68,0.33498501777648926,-0.8076412081718445,-46.57577133178711,-5.612087726593018,19.535249710083008,0.7784934639930725,2.3596224784851074,-0.20083944499492645,0.0,0.0,0.0,0.0,0.0,0.0,0.0,-0.7876548260033581,-0.25726620814148404,-0.4068366811166998,0.29574942843592,0.19189899607989477,0.09680834759586193,-0.1871205165176024,0.8780785724614795,0.755612606650755,-0.28245939413181087,-1.6690542267875508,0.14140832216975913,2.403572221002847,1.0273487845620624,0.878092876070424,0.7554597494309409,-0.2825552651693207,-1.6690993614607135,0.1414185955172306,2.4034451173676383,1.0273381002308042,0.0004295059308575434,-0.00013874010075950273,0.0004983571492843143,-0.0005702020582520494,-0.00013355796805079932,0.00010165318662454416,-4.960885269115513e-05,0.0,0.0,0.0,0.0,0.0,0.0,0.0,1.4303608944499224e-05,-0.0001528572198141731,-9.587103750985371e-05,-4.513467316269448e-05,1.0273347471473349e-05,-0.00012710363520884727,-1.0684331258170587e-05,-0.0004295059308575434,0.00013874010075950273,-0.0004983571492843143,0.0005702020582520494,0.00013355796805079932,-0.00010165318662454416,4.960885269115513e-05,0.8076412081718445,46.57577133178711,5.612087726593018,-19.535249710083008,-0.7784934639930725,-2.3596224784851074,0.20083944499492645,0
69,0.33995819091796875,-0.8076412081718445,-46.57577133178711,-5.612087726593018,19.535249710083008,0.7784934639930725,2.3596224784851074,-0.20083944499492645,0.0,0.0,0.0,0.0,0.0,0.0,0.0,-0.7876548260033581,-0.25726620814148404,-0.4068366811166998,0.29574942843592,0.19189899607989477,0.09680834759586193,-0.1871205165176024,0.8780785724614795,0.755612606650755,-0.28245939413181087,-1.6690542267875508,0.14140832216975913,2.403572221002847,1.0273487845620624,0.878092876070424,0.7554597494309409,-0.2825552651693207,-1.6690993614607135,0.1414185955172306,2.4034451173676383,1.0273381002308042,0.0004295059308575434,-0.00013874010075950273,0.0004983571492843143,-0.0005702020582520494,-0.00013355796805079932,0.00010165318662454416,-4.960885269115513e-05,0.0,0.0,0.0,0.0,0.0,0.0,0.0,1.4303608944499224e-05,-0.0001528572198141731,-9.587103750985371e-05,-4.513467316269448e-05,1.0273347471473349e-05,-0.00012710363520884727,-1.0684331258170587e-05,-0.0004295059308575434,0.00013874010075950273,-0.0004983571492843143,0.0005702020582520494,0.00013355796805079932,-0.00010165318662454416,4.960885269115513e-05,0.8076412081718445,46.57577133178711,5.612087726593018,-19.535249710083008,-0.7784934639930725,-2.3596224784851074,0.20083944499492645,0
70,0.3450288772583008,-0.8076412081718445,-46.59957504272461,-5.588284015655518,19.487642288208008,0.7730002999305725,2.3660311698913574,-0.16604940593242645,0.0,0.0,0.0,0.0,0.0,0.0,0.0,-0.7823687616414277,-0.2438438598551579,-0.4029650462819316,0.28999745808057376,0.19130511084825258,0.09550815922575664,-0.18784778323516416,0.8780785724614795,0.7556142770867598,-0.2824609066389793,-1.6690499509939665,0.14140473225773265,2.403572549488648,1.0273445569611828,0.878092876070424,0.7554597494309409,-0.2825552651693207,-1.6690993614607135,0.1414185955172306,2.4034451173676383,1.0273381002308042,0.0006493931577334533,0.0006520505756497789,-0.00022373753099776152,0.0001620290501589956,6.883963600953987e-05,-8.924092252298008e-05,-0.0009099897885498405,0.0,0.0,0.0,0.0,0.0,0.0,0.0,1.4303608944499224e-05,-0.0001545276558189146,-9.435853034139852e-05,-4.941046674700189e-05,1.386325949795375e-05,-0.00012743212100962964,-6.456730378578968e-06,-0.0006493931577334533,-0.0006520505756497789,0.00022373753099776152,-0.0001620290501589956,-6.883963600953987e-05,8.924092252298008e-05,0.0009099897885498405,0.8076412081718445,46.59957504272461,5.588284015655518,-19.487642288208008,-0.7730002999305725,-2.3660311698913574,0.16604940593242645,0
71,0.3500337600708008,-0.8076412081718445,-46.59957504272461,-5.588284015655518,19.487642288208008,0.7730002999305725,2.3660311698913574,-0.16604940593242645,0.0,0.0,0.0,0.0,0.0,0.0,0.0,-0.7823687616414277,-0.2438438598551579,-0.4029650462819316,0.28999745808057376,0.19130511084825258,0.09550815922575664,-0.18784778323516416,0.8780785724614795,0.7556142770867598,-0.2824609066389793,-1.6690499509939665,0.14140473225773265,2.403572549488648,1.0273445569611828,0.878092876070424,0.7554597494309409,-0.2825552651693207,-1.6690993614607135,0.1414185955172306,2.4034451173676383,1.0273381002308042,0.0006493931577334533,0.0006520505756497789,-0.00022373753099776152,0.0001620290501589956,6.883963600953987e-05,-8.924092252298008e-05,-0.0009099897885498405,0.0,0.0,0.0,0.0,0.0,0.0,0.0,1.4303608944499224e-05,-0.0001545276558189146,-9.435853034139852e-05,-4.941046674700189e-05,1.386325949795375e-05,-0.00012743212100962964,-6.456730378578968e-06,-0.0006493931577334533,-0.0006520505756497789,0.00022373753099776152,-0.0001620290501589956,-6.883963600953987e-05,8.924092252298008e-05,0.0009099897885498405,0.8076412081718445,46.59957504272461,5.588284015655518,-19.487642288208008,-0.7730002999305725,-2.3660311698913574,0.16604940593242645,0
72,0.3549938201904297,-0.7560665011405945,-46.54800033569336,-5.588284015655518,19.487642288208008,0.7730002999305725,2.3660311698913574,-0.18710653483867645,0.0,0.0,0.0,0.0,0.0,0.0,0.0,-0.785759756126504,-0.25149312025004217,-0.4075654994633841,0.29275432191900974,0.19136332113990812,0.09592548280316038,-0.18920569908927784,0.878074953183793,0.7556106578090733,-0.28246106558380724,-1.66904781594141,0.1414058565854196,2.4035760488898217,1.0273468966401285,0.878092876070424,0.7554597494309409,-0.2825552651693207,-1.6690993614607135,0.1414185955172306,2.4034451173676383,1.0273381002308042,-0.0009957719547918772,-0.0006524733449873797,0.00014580791427906144,-0.00014293648511448016,0.0001547254636322261,-9.892218794162935e-05,3.363593407051503e-05,0.0,0.0,0.0,0.0,0.0,0.0,0.0,1.7922886630938883e-05,-0.00015090837813247493,-9.419958551348806e-05,-5.1545519303530796e-05,1.2738931811001608e-05,-0.0001309315221833529,-8.796409324274279e-06,0.0009957719547918772,0.0006524733449873797,-0.00014580791427906144,0.00014293648511448016,-0.0001547254636322261,9.892218794162935e-05,-3.363593407051503e-05,0.7560665011405945,46.54800033569336,5.588284015655518,-19.487642288208008,-0.7730002999305725,-2.3660311698913574,0.18710653483867645,0
73,0.3599536418914795,-0.7560665011405945,-46.54800033569336,-5.588284015655518,19.487642288208008,0.7730002999305725,2.3660311698913574,-0.18710653483867645,0.0,0.0,0.0,0.0,0.0,0.0,0.0,-0.785759756126504,-0.25149312025004217,-0.4075654994633841,0.29275432191900974,0.19136332113990812,0.09592548280316038,-0.18920569908927784,0.878074953183793,0.7556106578090733,-0.28246106558380724,-1.66904781594141,0.1414058565854196,2.4035760488898217,1.0273468966401285,0.878092876070424,0.7554597494309409,-0.2825552651693207,-1.6690993614607135,0.1414185955172306,2.4034451173676383,1.0273381002308042,-0.0009957719547918772,-0.0006524733449873797,0.00014580791427906144,-0.00014293648511448016,0.0001547254636322261,-9.892218794162935e-05,3.363593407051503e-05,0.0,0.0,0.0,0.0,0.0,0.0,0.0,1.7922886630938883e-05,-0.00015090837813247493,-9.419958551348806e-05,-5.1545519303530796e-05,1.2738931811001608e-05,-0.0001309315221833529,-8.796409324274279e-06,0.0009957719547918772,0.0006524733449873797,-0.00014580791427906144,0.00014293648511448016,-0.0001547254636322261,9.892218794162935e-05,-3.363593407051503e-05,0.7560665011405945,46.54800033569336,5.588284015655518,-19.487642288208008,-0.7730002999305725,-2.3660311698913574,0.18710653483867645,0
74,0.3650057315826416,-0.8354122042655945,-46.57577133178711,-5.588284015655518,19.487642288208008,0.7784934639930725,2.3596224784851074,-0.22830526530742645,0.0,0.0,0.0,0.0,0.0,0.0,0.0,-0.7938707331039516,-0.2452370977492478,-0.41188506792968277,0.28936783186103576,0.191213198093142,0.09585575172419539,-0.18961197472628974,0.8780805213033106,0.7556126066509045,-0.2824611449476506,-1.6690485292968094,0.14140441929903352,2.403576538429785,1.0273514742768473,0.878092876070424,0.7554597494309409,-0.2825552651693207,-1.6690993614607135,0.1414185955172306,2.4034451173676383,1.0273381002308042,0.00050652107575732,0.0004802768272039907,5.6390746204725086e-05,0.00028971811526454184,-0.00016723275602732084,4.118558891266611e-05,0.0011463616149057824,0.0,0.0,0.0,0.0,0.0,0.0,0.0,1.2354767113365028e-05,-0.00015285721996360913,-9.412022167010203e-05,-5.083216390411316e-05,1.4176218197076151e-05,-0.0001314210621465861,-1.3374046043068688e-05,-0.00050652107575732,-0.0004802768272039907,-5.6390746204725086e-05,-0.00028971811526454184,0.00016723275602732084,-4.118558891266611e-05,-0.0011463616149057824,0.8354122042655945,46.57577133178711,5.588284015655518,-19.487642288208008,-0.7784934639930725,-2.3596224784851074,0.22830526530742645,0
75,0.3699917793273926,-0.8354122042655945,-46.57577133178711,-5.588284015655518,19.487642288208008,0.7784934639930725,2.3596224784851074,-0.22830526530742645,0.0,0.0,0.0,0.0,0.0,0.0,0.0,-0.7938707331039516,-0.2452370977492478,-0.41188506792968277,0.28936783186103576,0.191213198093142,0.09585575172419539,-0.18961197472628974,0.8780805213033106,0.7556126066509045,-0.2824611449476506,-1.6690485292968094,0.14140441929903352,2.403576538429785,1.0273514742768473,0.878092876070424,0.7554597494309409,-0.2825552651693207,-1.6690993614607135,0.1414185955172306,2.4034451173676383,1.0273381002308042,0.00050652107575732,0.0004802768272039907,5.6390746204725086e-05,0.00028971811526454184,-0.00016723275602732084,4.118558891266611e-05,0.0011463616149057824,0.0,0.0,0.0,0.0,0.0,0.0,0.0,1.2354767113365028e-05,-0.00015285721996360913,-9.412022167010203e-05,-5.083216390411316e-05,1.4176218197076151e-05,-0.0001314210621465861,-1.3374046043068688e-05,-0.00050652107575732,-0.0004802768272039907,-5.6390746204725086e-05,-0.00028971811526454184,0.00016723275602732084,-4.118558891266611e-05,-0.0011463616149057824,0.8354122042655945,46.57577133178711,5.588284015655518,-19.487642288208008,-0.7784934639930725,-2.3596224784851074,0.22830526530742645,0
76,0.37505602836608887,-0.8076412081718445,-46.57577133178711,-5.588284015655518,19.487642288208008,0.7730002999305725,2.3596224784851074,-0.16604940593242645,0.0,0.0,0.0,0.0,0.0,0.0,0.0,-0.7936568461633725,-0.2445927546727876,-0.40919989137291984,0.2909314960378828,0.19097547019641906,0.0961088036303194,-0.1911241288591719,0.8780785724614795,0.7556126066509045,-0.28246034705892586,-1.6690505722737607,0.14140945170739833,2.4035732225548943,1.0273446776401483,0.878092876070424,0.7554597494309409,-0.2825552651693207,-1.6690993614607135,0.1414185955172306,2.4034451173676383,1.0273381002308042,-0.00032550228647552644,0.00014001392703190375,0.00048165006958318657,0.0003441807112530422,0.0001127844391154469,0.00024988417304157545,-0.0012913923461929397,0.0,0.0,0.0,0.0,0.0,0.0,0.0,1.4303608944499224e-05,-0.00015285721996360913,-9.491811039485931e-05,-4.8789186952724606e-05,9.143809832273808e-06,-0.00012810518725592246,-6.577409344066254e-06,0.00032550228647552644,-0.00014001392703190375,-0.00048165006958318657,-0.0003441807112530422,-0.0001127844391154469,-0.00024988417304157545,0.0012913923461929397,0.8076412081718445,46.57577133178711,5.588284015655518,-19.487642288208008,-0.7730002999305725,-2.3596224784851074,0.16604940593242645,0
77,0.3800027370452881,-0.8076412081718445,-46.57577133178711,-5.588284015655518,19.487642288208008,0.7730002999305725,2.3596224784851074,-0.16604940593242645,0.0,0.0,0.0,0.0,0.0,0.0,0.0,-0.7936568461633725,-0.2445927546727876,-0.40919989137291984,0.2909314960378828,0.19097547019641906,0.0961088036303194,-0.1911241288591719,0.8780785724614795,0.7556126066509045,-0.28246034705892586,-1.6690505722737607,0.14140945170739833,2.4035732225548943,1.0273446776401483,0.878092876070424,0.7554597494309409,-0.2825552651693207,-1.6690993614607135,0.1414185955172306,2.4034451173676383,1.0273381002308042,-0.00032550228647552644,0.00014001392703190375,0.00048165006958318657,0.0003441807112530422,0.0001127844391154469,0.00024988417304157545,-0.0012913923461929397,0.0,0.0,0.0,0.0,0.0,0.0,0.0,1.4303608944499224e-05,-0.00015285721996360913,-9.491811039485931e-05,-4.8789186952724606e-05,9.143809832273808e-06,-0.00012810518725592246,-6.577409344066254e-06,0.00032550228647552644,-0.00014001392703190375,-0.00048165006958318657,-0.0003441807112530422,-0.0001127844391154469,-0.00024988417304157545,0.0012913923461929397,0.8076412081718445,46.57577133178711,5.588284015655518,-19.487642288208008,-0.7730002999305725,-2.3596224784851074,0.16604940593242645,0
78,0.38495826721191406,-0.8354122042655945,-46.59957504272461,-5.564480304718018,19.511445999145508,0.7665916085243225,2.3596224784851074,-0.20724813640117645,0.0,0.0,0.0,0.0,0.0,0.0,0.0,-0.7903601830290755,-0.2451395125033923,-0.40340196457274247,0.2912930363084985,0.19129179490601972,0.0966593676200035,-0.19165499494026236,0.8780805213033106,0.7556141711229469,-0.28246201095230533,-1.6690493687414023,0.14140977627659346,2.403573627861798,1.0273491345960848,0.878092876070424,0.7554597494309409,-0.2825552651693207,-1.6690993614607135,0.1414185955172306,2.4034451173676383,1.0273381002308042,0.0010709641791469716,0.0006060200686684217,-0.000298989249012393,-0.000479470043647831,0.00037239183058883417,8.706824178588884e-05,0.0011726426383805305,0.0,0.0,0.0,0.0,0.0,0.0,0.0,1.2354767113365028e-05,-0.00015442169200607925,-9.325421701539272e-05,-4.999271931116489e-05,8.819240637142345e-06,-0.0001285104941595172,-1.1034365280604419e-05,-0.0010709641791469716,-0.0006060200686684217,0.000298989249012393,0.000479470043647831,-0.00037239183058883417,-8.706824178588884e-05,-0.0011726426383805305,0.8354122042655945,46.59957504272461,5.564480304718018,-19.511445999145508,-0.7665916085243225,-2.3596224784851074,0.20724813640117645,0
79,0.38999223709106445,-0.8354122042655945,-46.59957504272461,-5.564480304718018,19.511445999145508,0.7665916085243225,2.3596224784851074,-0.20724813640117645,0.0,0.0,0.0,0.0,0.0,0.0,0.0,-0.7903601830290755,-0.2451395125033923,-0.40340196457274247,0.2912930363084985,0.19129179490601972,0.0966593676200035,-0.19165499494026236,0.8780805213033106,0.7556141711229469,-0.28246201095230533,-1.6690493687414023,0.14140977627659346,2.403573627861798,1.0273491345960848,0.878092876070424,0.7554597494309409,-0.2825552651693207,-1.6690993614607135,0.1414185955172306,2.4034451173676383,1.0273381002308042,0.0010709641791469716,0.0006060200686684217,-0.000298989249012393,-0.000479470043647831,0.00037239183058883417,8.706824178588884e-05,0.0011726426383805305,0.0,0.0,0.0,0.0,0.0,0.0,0.0,1.2354767113365028e-05,-0.00015442169200607925,-9.325421701539272e-05,-4.999271931116489e-05,8.819240637142345e-06,-0.0001285104941595172,-1.1034365280604419e-05,-0.0010709641791469716,-0.0006060200686684217,0.000298989249012393,0.000479470043647831,-0.00037239183058883417,-8.706824178588884e-05,-0.0011726426383805305,0.8354122042655945,46.59957504272461,5.564480304718018,-19.511445999145508,-0.7665916085243225,-2.3596224784851074,0.20724813640117645,0
80,0.39494919776916504,-0.7838374972343445,-46.54800033569336,-5.564480304718018,19.511445999145508,0.7730002999305725,2.3596224784851074,-0.17978231608867645,0.0,0.0,0.0,0.0,0.0,0.0,0.0,-0.786789854878898,-0.2485831078909943,-0.3986819373721125,0.29220023711110227,0.19131866061379693,0.09624948871712087,-0.19081537454897968,0.8780769020256242,0.755609942552738,-0.2824628154529876,-1.6690515183187764,0.14140941721797617,2.403573355085145,1.0273461230650482,0.878092876070424,0.7554597494309409,-0.2825552651693207,-1.6690993614607135,0.1414185955172306,2.4034451173676383,1.0273381002308042,-4.516462922785204e-05,-0.0007652545972432718,-0.0001765002984070382,-0.0005291627137704768,0.00014918076185070462,2.0069273700561297e-06,-0.0008345072916595093,0.0,0.0,0.0,0.0,0.0,0.0,0.0,1.5974044799804688e-05,-0.0001501931217970931,-9.24497163330984e-05,-4.784314193706507e-05,9.17829925442537e-06,-0.00012823771750669621,-8.02283424405914e-06,4.516462922785204e-05,0.0007652545972432718,0.0001765002984070382,0.0005291627137704768,-0.00014918076185070462,-2.0069273700561297e-06,0.0008345072916595093,0.7838374972343445,46.54800033569336,5.564480304718018,-19.511445999145508,-0.7730002999305725,-2.3596224784851074,0.17978231608867645,0
