rezayati/contactInterpretation/dataset/franka_main/labeled_data/link4/d8_6.csv
index,time,tau_J0,tau_J1,tau_J2,tau_J3,tau_J4,tau_J5,tau_J6,tau_J_d0,tau_J_d1,tau_J_d2,tau_J_d3,tau_J_d4,tau_J_d5,tau_J_d6,tau_ext0,tau_ext1,tau_ext2,tau_ext3,tau_ext4,tau_ext5,tau_ext6,q0,q1,q2,q3,q4,q5,q6,q_d0,q_d1,q_d2,q_d3,q_d4,q_d5,q_d6,dq0,dq1,dq2,dq3,dq4,dq5,dq6,dq_d0,dq_d1,dq_d2,dq_d3,dq_d4,dq_d5,dq_d6,e0,e1,e2,e3,e4,e5,e6,de0,de1,de2,de3,de4,de5,de6,etau_J0,etau_J1,etau_J2,etau_J3,etau_J4,etau_J5,etau_J6,label
1,0.0,0.005652248859405518,-18.253320693969727,0.9418671131134033,18.099092483520508,0.7610984444618225,2.2360262870788574,-0.16604940593242645,0.0,0.0,0.0,0.0,0.0,0.0,0.0,0.026617246795614686,0.3484123223138174,0.16129575244937647,0.4568203917479546,0.3387854862560091,0.06459119260759336,-0.19557738904820687,-0.6089716347853342,-0.0573458995175989,-0.6665389341825348,-2.594644605726493,-0.055680594892290686,2.507958873801761,0.8763144943171913,-0.6090851748156966,-0.05753196718556838,-0.666603097082616,-2.5945565370258534,-0.05562143941554,2.507976027223799,0.8763108487046415,-0.0008332580545710572,-0.001465476906533,-0.0007485202081753589,-0.0003460035446214232,3.223079747940391e-05,0.0006850965730067622,-0.001493123287074469,0.0,0.0,0.0,0.0,0.0,0.0,0.0,-0.00011354003036234683,-0.00018606766796948337,-6.4162900081155e-05,8.806870063970962e-05,5.9155476750685776e-05,1.7153422037896604e-05,-3.6456125498407488e-06,0.0008332580545710572,0.001465476906533,0.0007485202081753589,0.0003460035446214232,-3.223079747940391e-05,-0.0006850965730067622,0.001493123287074469,-0.005652248859405518,18.253320693969727,-0.9418671131134033,-18.099092483520508,-0.7610984444618225,-2.2360262870788574,0.16604940593242645,0
2,0.004899501800537109,-0.018151462078094482,-18.328699111938477,0.9934418201446533,18.071321487426758,0.7610984444618225,2.2488436698913574,-0.17337362468242645,0.0,0.0,0.0,0.0,0.0,0.0,0.0,0.02939691032327259,0.3491262251785847,0.16197078922957,0.457059192484348,0.33777729638881043,0.0645961868981198,-0.19537138554242303,-0.608969964349479,-0.05734060980405723,-0.6665426310355733,-2.5946447987503327,-0.05567857103809569,2.5079574496481154,0.876315426340694,-0.6090851748156966,-0.05753196718556838,-0.666603097082616,-2.5945565370258534,-0.05562143941554,2.507976027223799,0.8763108487046415,0.0006734386145597507,0.00015988256337005056,-0.0007059203840196111,0.00016791825118021451,-0.0001882021590528258,-5.267245986174185e-05,-0.001036575012823339,0.0,0.0,0.0,0.0,0.0,0.0,0.0,-0.00011521046621754127,-0.00019135738151115217,-6.046604704268432e-05,8.826172447928826e-05,5.713162255568949e-05,1.8577575683575986e-05,-4.577636052549572e-06,-0.0006734386145597507,-0.00015988256337005056,0.0007059203840196111,-0.00016791825118021451,0.0001882021590528258,5.267245986174185e-05,0.001036575012823339,0.018151462078094482,18.328699111938477,-0.9934418201446533,-18.071321487426758,-0.7610984444618225,-2.2488436698913574,0.17337362468242645,0
3,0.009888887405395508,-0.018151462078094482,-18.328699111938477,0.9934418201446533,18.071321487426758,0.7610984444618225,2.2488436698913574,-0.17337362468242645,0.0,0.0,0.0,0.0,0.0,0.0,0.0,0.02939691032327259,0.3491262251785847,0.16197078922957,0.457059192484348,0.33777729638881043,0.0645961868981198,-0.19537138554242303,-0.608969964349479,-0.05734060980405723,-0.6665426310355733,-2.5946447987503327,-0.05567857103809569,2.5079574496481154,0.876315426340694,-0.6090851748156966,-0.05753196718556838,-0.666603097082616,-2.5945565370258534,-0.05562143941554,2.507976027223799,0.8763108487046415,0.0006734386145597507,0.00015988256337005056,-0.0007059203840196111,0.00016791825118021451,-0.0001882021590528258,-5.267245986174185e-05,-0.001036575012823339,0.0,0.0,0.0,0.0,0.0,0.0,0.0,-0.00011521046621754127,-0.00019135738151115217,-6.046604704268432e-05,8.826172447928826e-05,5.713162255568949e-05,1.8577575683575986e-05,-4.577636052549572e-06,-0.0006734386145597507,-0.00015988256337005056,0.0007059203840196111,-0.00016791825118021451,0.0001882021590528258,5.267245986174185e-05,0.001036575012823339,0.018151462078094482,18.328699111938477,-0.9934418201446533,-18.071321487426758,-0.7610984444618225,-2.2488436698913574,0.17337362468242645,0
4,0.01488351821899414,0.005652248859405518,-18.304895401000977,1.0410492420196533,18.047517776489258,0.7665916085243225,2.2424349784851074,-0.21457235515117645,0.0,0.0,0.0,0.0,0.0,0.0,0.0,0.028940805406277154,0.3494452123989822,0.16562912671091642,0.45513201127828407,0.3374304713868363,0.06477228368472031,-0.196583089674341,-0.6089716347853342,-0.057342280239912495,-0.6665462063391318,-2.5946433588946305,-0.05568097259551985,2.5079581617249382,0.8763200039780801,-0.6090851748156966,-0.05753196718556838,-0.666603097082616,-2.5945565370258534,-0.05562143941554,2.507976027223799,0.8763108487046415,0.0010255507667812378,-0.0006205845452896673,-0.0003222442514610883,0.0007720285771267125,-0.00028153366658481717,0.00026736628395052927,0.0007895271416170157,0.0,0.0,0.0,0.0,0.0,0.0,0.0,-0.00011354003036234683,-0.00018968694565588834,-5.689074348425027e-05,8.682186877706499e-05,5.953317997985097e-05,1.7865498860736295e-05,-9.155273438588019e-06,-0.0010255507667812378,0.0006205845452896673,0.0003222442514610883,-0.0007720285771267125,0.00028153366658481717,-0.00026736628395052927,-0.0007895271416170157,-0.005652248859405518,18.304895401000977,-1.0410492420196533,-18.047517776489258,-0.7665916085243225,-2.2424349784851074,0.21457235515117645,0
5,0.01989126205444336,0.005652248859405518,-18.304895401000977,1.0410492420196533,18.047517776489258,0.7665916085243225,2.2424349784851074,-0.21457235515117645,0.0,0.0,0.0,0.0,0.0,0.0,0.0,0.028940805406277154,0.3494452123989822,0.16562912671091642,0.45513201127828407,0.3374304713868363,0.06477228368472031,-0.196583089674341,-0.6089716347853342,-0.057342280239912495,-0.6665462063391318,-2.5946433588946305,-0.05568097259551985,2.5079581617249382,0.8763200039780801,-0.6090851748156966,-0.05753196718556838,-0.666603097082616,-2.5945565370258534,-0.05562143941554,2.507976027223799,0.8763108487046415,0.0010255507667812378,-0.0006205845452896673,-0.0003222442514610883,0.0007720285771267125,-0.00028153366658481717,0.00026736628395052927,0.0007895271416170157,0.0,0.0,0.0,0.0,0.0,0.0,0.0,-0.00011354003036234683,-0.00018968694565588834,-5.689074348425027e-05,8.682186877706499e-05,5.953317997985097e-05,1.7865498860736295e-05,-9.155273438588019e-06,-0.0010255507667812378,0.0006205845452896673,0.0003222442514610883,-0.0007720285771267125,0.00028153366658481717,-0.00026736628395052927,-0.0007895271416170157,-0.005652248859405518,18.304895401000977,-1.0410492420196533,-18.047517776489258,-0.7665916085243225,-2.2424349784851074,0.21457235515117645,0
6,0.024886131286621094,0.10880166292190552,-18.328699111938477,1.0410492420196533,18.099092483520508,0.7665916085243225,2.2424349784851074,-0.16604940593242645,0.0,0.0,0.0,0.0,0.0,0.0,0.0,0.033366803837607914,0.34487604272794165,0.17748691922707607,0.45473134692378164,0.337924418068413,0.06539176937879228,-0.1962551191876202,-0.6089788733407071,-0.05734060980405723,-0.6665462063047893,-2.594646977123864,-0.05568203186149169,2.5079581617249382,0.8763142593265683,-0.6090851748156966,-0.05753196718556838,-0.666603097082616,-2.5945565370258534,-0.05562143941554,2.507976027223799,0.8763108487046415,-0.00028348581763841074,8.949467343553976e-05,0.0004648156911343569,-0.00023071948811265985,-0.00020821405841695456,0.00045655758905895896,-0.0008590543566749595,0.0,0.0,0.0,0.0,0.0,0.0,0.0,-0.00010630147498946751,-0.00019135738151115217,-5.689077782666807e-05,9.044009801062458e-05,6.0592445951690443e-05,1.7865498860736295e-05,-3.4106219267693305e-06,0.00028348581763841074,-8.949467343553976e-05,-0.0004648156911343569,0.00023071948811265985,0.00020821405841695456,-0.00045655758905895896,0.0008590543566749595,-0.10880166292190552,18.328699111938477,-1.0410492420196533,-18.099092483520508,-0.7665916085243225,-2.2424349784851074,0.16604940593242645,0
7,0.02989029884338379,0.10880166292190552,-18.328699111938477,1.0410492420196533,18.099092483520508,0.7665916085243225,2.2424349784851074,-0.16604940593242645,0.0,0.0,0.0,0.0,0.0,0.0,0.0,0.033366803837607914,0.34487604272794165,0.17748691922707607,0.45473134692378164,0.337924418068413,0.06539176937879228,-0.1962551191876202,-0.6089788733407071,-0.05734060980405723,-0.6665462063047893,-2.594646977123864,-0.05568203186149169,2.5079581617249382,0.8763142593265683,-0.6090851748156966,-0.05753196718556838,-0.666603097082616,-2.5945565370258534,-0.05562143941554,2.507976027223799,0.8763108487046415,-0.00028348581763841074,8.949467343553976e-05,0.0004648156911343569,-0.00023071948811265985,-0.00020821405841695456,0.00045655758905895896,-0.0008590543566749595,0.0,0.0,0.0,0.0,0.0,0.0,0.0,-0.00010630147498946751,-0.00019135738151115217,-5.689077782666807e-05,9.044009801062458e-05,6.0592445951690443e-05,1.7865498860736295e-05,-3.4106219267693305e-06,0.00028348581763841074,-8.949467343553976e-05,-0.0004648156911343569,0.00023071948811265985,0.00020821405841695456,-0.00045655758905895896,0.0008590543566749595,-0.10880166292190552,18.328699111938477,-1.0410492420196533,-18.099092483520508,-0.7665916085243225,-2.2424349784851074,0.16604940593242645,0
8,0.03488945960998535,0.10880166292190552,-18.328699111938477,1.0410492420196533,18.099092483520508,0.7665916085243225,2.2424349784851074,-0.16604940593242645,0.0,0.0,0.0,0.0,0.0,0.0,0.0,0.033366803837607914,0.34487604272794165,0.17748691922707607,0.45473134692378164,0.337924418068413,0.06539176937879228,-0.1962551191876202,-0.6089788733407071,-0.05734060980405723,-0.6665462063047893,-2.594646977123864,-0.05568203186149169,2.5079581617249382,0.8763142593265683,-0.6090851748156966,-0.05753196718556838,-0.666603097082616,-2.5945565370258534,-0.05562143941554,2.507976027223799,0.8763108487046415,-0.00028348581763841074,8.949467343553976e-05,0.0004648156911343569,-0.00023071948811265985,-0.00020821405841695456,0.00045655758905895896,-0.0008590543566749595,0.0,0.0,0.0,0.0,0.0,0.0,0.0,-0.00010630147498946751,-0.00019135738151115217,-5.689077782666807e-05,9.044009801062458e-05,6.0592445951690443e-05,1.7865498860736295e-05,-3.4106219267693305e-06,0.00028348581763841074,-8.949467343553976e-05,-0.0004648156911343569,0.00023071948811265985,0.00020821405841695456,-0.00045655758905895896,0.0008590543566749595,-0.10880166292190552,18.328699111938477,-1.0410492420196533,-18.099092483520508,-0.7665916085243225,-2.2424349784851074,0.16604940593242645,0
9,0.03983759880065918,0.10880166292190552,-18.328699111938477,1.0410492420196533,18.099092483520508,0.7665916085243225,2.2424349784851074,-0.16604940593242645,0.0,0.0,0.0,0.0,0.0,0.0,0.0,0.033366803837607914,0.34487604272794165,0.17748691922707607,0.45473134692378164,0.337924418068413,0.06539176937879228,-0.1962551191876202,-0.6089788733407071,-0.05734060980405723,-0.6665462063047893,-2.594646977123864,-0.05568203186149169,2.5079581617249382,0.8763142593265683,-0.6090851748156966,-0.05753196718556838,-0.666603097082616,-2.5945565370258534,-0.05562143941554,2.507976027223799,0.8763108487046415,-0.00028348581763841074,8.949467343553976e-05,0.0004648156911343569,-0.00023071948811265985,-0.00020821405841695456,0.00045655758905895896,-0.0008590543566749595,0.0,0.0,0.0,0.0,0.0,0.0,0.0,-0.00010630147498946751,-0.00019135738151115217,-5.689077782666807e-05,9.044009801062458e-05,6.0592445951690443e-05,1.7865498860736295e-05,-3.4106219267693305e-06,0.00028348581763841074,-8.949467343553976e-05,-0.0004648156911343569,0.00023071948811265985,0.00020821405841695456,-0.00045655758905895896,0.0008590543566749595,-0.10880166292190552,18.328699111938477,-1.0410492420196533,-18.099092483520508,-0.7665916085243225,-2.2424349784851074,0.16604940593242645,0
10,0.04488325119018555,0.05722695589065552,-18.304895401000977,1.0410492420196533,18.071321487426758,0.7665916085243225,2.2424349784851074,-0.22830526530742645,0.0,0.0,0.0,0.0,0.0,0.0,0.0,0.03541188605461338,0.34984429431201314,0.18344883399826492,0.45081832463304483,0.338743071733435,0.06425897047177932,-0.1946421956567133,-0.6089752540630207,-0.057342280239912495,-0.666546206340455,-2.594645037835086,-0.055682392735596935,2.5079581617249382,0.876321529371805,-0.6090851748156966,-0.05753196718556838,-0.666603097082616,-2.5945565370258534,-0.05562143941554,2.507976027223799,0.8763108487046415,0.00030126570363487286,0.00018760132981011172,0.0001894300791002264,0.0004415692457294936,-0.00011726746767955115,0.0003248237487633742,0.001471640575414116,0.0,0.0,0.0,0.0,0.0,0.0,0.0,-0.00010992075267590717,-0.00018968694565588834,-5.689074216097545e-05,8.850080923261672e-05,6.095332005693482e-05,1.7865498860736295e-05,-1.0680667163476265e-05,-0.00030126570363487286,-0.00018760132981011172,-0.0001894300791002264,-0.0004415692457294936,0.00011726746767955115,-0.0003248237487633742,-0.001471640575414116,-0.05722695589065552,18.304895401000977,-1.0410492420196533,-18.071321487426758,-0.7665916085243225,-2.2424349784851074,0.22830526530742645,0
11,0.04993033409118652,0.05722695589065552,-18.304895401000977,1.0410492420196533,18.071321487426758,0.7665916085243225,2.2424349784851074,-0.22830526530742645,0.0,0.0,0.0,0.0,0.0,0.0,0.0,0.03541188605461338,0.34984429431201314,0.18344883399826492,0.45081832463304483,0.338743071733435,0.06425897047177932,-0.1946421956567133,-0.6089752540630207,-0.057342280239912495,-0.666546206340455,-2.594645037835086,-0.055682392735596935,2.5079581617249382,0.876321529371805,-0.6090851748156966,-0.05753196718556838,-0.666603097082616,-2.5945565370258534,-0.05562143941554,2.507976027223799,0.8763108487046415,0.00030126570363487286,0.00018760132981011172,0.0001894300791002264,0.0004415692457294936,-0.00011726746767955115,0.0003248237487633742,0.001471640575414116,0.0,0.0,0.0,0.0,0.0,0.0,0.0,-0.00010992075267590717,-0.00018968694565588834,-5.689074216097545e-05,8.850080923261672e-05,6.095332005693482e-05,1.7865498860736295e-05,-1.0680667163476265e-05,-0.00030126570363487286,-0.00018760132981011172,-0.0001894300791002264,-0.0004415692457294936,0.00011726746767955115,-0.0003248237487633742,-0.001471640575414116,-0.05722695589065552,18.304895401000977,-1.0410492420196533,-18.071321487426758,-0.7665916085243225,-2.2424349784851074,0.22830526530742645,0
12,0.054883718490600586,0.08103066682815552,-18.253320693969727,1.0410492420196533,18.047517776489258,0.7610984444618225,2.2424349784851074,-0.20724813640117645,0.0,0.0,0.0,0.0,0.0,0.0,0.0,0.040302760398677175,0.3598169536663074,0.1879436239561806,0.44982736154153125,0.33901302470594197,0.0640641061855483,-0.19547338759993088,-0.608976924498876,-0.0573458995175989,-0.6665459723370349,-2.5946432625255986,-0.055681742792629246,2.5079581617249382,0.8763191901759941,-0.6090851748156966,-0.05753196718556838,-0.666603097082616,-2.5945565370258534,-0.05562143941554,2.507976027223799,0.8763108487046415,-0.0008754367448296059,0.0002969022936632085,-0.0009790792007112593,0.0006952523250526922,9.962014297944522e-05,0.00034004523330181935,0.0007664880039306468,0.0,0.0,0.0,0.0,0.0,0.0,0.0,-0.00010825031682060171,-0.00018606766796948337,-5.712474558106084e-05,8.672549974519939e-05,6.030337708924638e-05,1.7865498860736295e-05,-8.341471352646401e-06,0.0008754367448296059,-0.0002969022936632085,0.0009790792007112593,-0.0006952523250526922,-9.962014297944522e-05,-0.00034004523330181935,-0.0007664880039306468,-0.08103066682815552,18.253320693969727,-1.0410492420196533,-18.047517776489258,-0.7610984444618225,-2.2424349784851074,0.20724813640117645,0
13,0.059885501861572266,0.08103066682815552,-18.253320693969727,1.0410492420196533,18.047517776489258,0.7610984444618225,2.2424349784851074,-0.20724813640117645,0.0,0.0,0.0,0.0,0.0,0.0,0.0,0.040302760398677175,0.3598169536663074,0.1879436239561806,0.44982736154153125,0.33901302470594197,0.0640641061855483,-0.19547338759993088,-0.608976924498876,-0.0573458995175989,-0.6665459723370349,-2.5946432625255986,-0.055681742792629246,2.5079581617249382,0.8763191901759941,-0.6090851748156966,-0.05753196718556838,-0.666603097082616,-2.5945565370258534,-0.05562143941554,2.507976027223799,0.8763108487046415,-0.0008754367448296059,0.0002969022936632085,-0.0009790792007112593,0.0006952523250526922,9.962014297944522e-05,0.00034004523330181935,0.0007664880039306468,0.0,0.0,0.0,0.0,0.0,0.0,0.0,-0.00010825031682060171,-0.00018606766796948337,-5.712474558106084e-05,8.672549974519939e-05,6.030337708924638e-05,1.7865498860736295e-05,-8.341471352646401e-06,0.0008754367448296059,-0.0002969022936632085,0.0009790792007112593,-0.0006952523250526922,-9.962014297944522e-05,-0.00034004523330181935,-0.0007664880039306468,-0.08103066682815552,18.253320693969727,-1.0410492420196533,-18.047517776489258,-0.7610984444618225,-2.2424349784851074,0.20724813640117645,0
14,0.06488776206970215,0.005652248859405518,-18.328699111938477,0.9934418201446533,18.047517776489258,0.7665916085243225,2.2360262870788574,-0.17978231608867645,0.0,0.0,0.0,0.0,0.0,0.0,0.0,0.045650192686815805,0.3630982315222232,0.19338611295342573,0.454120882648012,0.3389926601571634,0.0647272637008092,-0.19318996227868224,-0.6089716347853342,-0.05734060980405723,-0.6665428653604263,-2.594643100647961,-0.05568226108696365,2.507958873801761,0.8763161384181842,-0.6090851748156966,-0.05753196718556838,-0.666603097082616,-2.5945565370258534,-0.05562143941554,2.507976027223799,0.8763108487046415,0.0009164043769256785,0.001774280075612314,-7.245163538037745e-05,0.0006466049238444551,-0.0002194967862027545,0.0005052153126684103,-0.00041705740752343647,0.0,0.0,0.0,0.0,0.0,0.0,0.0,-0.00011354003036234683,-0.00019135738151115217,-6.023172218971862e-05,8.656362210768265e-05,6.0821671423648416e-05,1.7153422037896604e-05,-5.289713542744323e-06,-0.0009164043769256785,-0.001774280075612314,7.245163538037745e-05,-0.0006466049238444551,0.0002194967862027545,-0.0005052153126684103,0.00041705740752343647,-0.005652248859405518,18.328699111938477,-0.9934418201446533,-18.047517776489258,-0.7665916085243225,-2.2360262870788574,0.17978231608867645,0
15,0.06989312171936035,0.005652248859405518,-18.328699111938477,0.9934418201446533,18.047517776489258,0.7665916085243225,2.2360262870788574,-0.17978231608867645,0.0,0.0,0.0,0.0,0.0,0.0,0.0,0.045650192686815805,0.3630982315222232,0.19338611295342573,0.454120882648012,0.3389926601571634,0.0647272637008092,-0.19318996227868224,-0.6089716347853342,-0.05734060980405723,-0.6665428653604263,-2.594643100647961,-0.05568226108696365,2.507958873801761,0.8763161384181842,-0.6090851748156966,-0.05753196718556838,-0.666603097082616,-2.5945565370258534,-0.05562143941554,2.507976027223799,0.8763108487046415,0.0009164043769256785,0.001774280075612314,-7.245163538037745e-05,0.0006466049238444551,-0.0002194967862027545,0.0005052153126684103,-0.00041705740752343647,0.0,0.0,0.0,0.0,0.0,0.0,0.0,-0.00011354003036234683,-0.00019135738151115217,-6.023172218971862e-05,8.656362210768265e-05,6.0821671423648416e-05,1.7153422037896604e-05,-5.289713542744323e-06,-0.0009164043769256785,-0.001774280075612314,7.245163538037745e-05,-0.0006466049238444551,0.0002194967862027545,-0.0005052153126684103,0.00041705740752343647,-0.005652248859405518,18.328699111938477,-0.9934418201446533,-18.047517776489258,-0.7665916085243225,-2.2360262870788574,0.17978231608867645,0
16,0.0748908519744873,0.005652248859405518,-18.328699111938477,0.9696381092071533,18.071321487426758,0.7610984444618225,2.2552523612976074,-0.22098104655742645,0.0,0.0,0.0,0.0,0.0,0.0,0.0,0.04698708233474069,0.3640149042206041,0.19275231388441622,0.45726381685237455,0.33883262204979897,0.06457311188814945,-0.19465084720403575,-0.6089716347853342,-0.05734060980405723,-0.6665411950328887,-2.594644958119826,-0.05568126930950166,2.5079567375712926,0.876320716054903,-0.6090851748156966,-0.05753196718556838,-0.666603097082616,-2.5945565370258534,-0.05562143941554,2.507976027223799,0.8763108487046415,0.0008990743558320104,0.00030062365994003776,0.00022869915177540007,0.00033935227133409133,0.00021426576502220197,-0.00044632831417797846,0.00037920966788126725,0.0,0.0,0.0,0.0,0.0,0.0,0.0,-0.00011354003036234683,-0.00019135738151115217,-6.190204972733593e-05,8.842109397244613e-05,5.9829893961659e-05,1.9289652506415678e-05,-9.867350261538732e-06,-0.0008990743558320104,-0.00030062365994003776,-0.00022869915177540007,-0.00033935227133409133,-0.00021426576502220197,0.00044632831417797846,-0.00037920966788126725,-0.005652248859405518,18.328699111938477,-0.9696381092071533,-18.071321487426758,-0.7610984444618225,-2.2552523612976074,0.22098104655742645,0
17,0.07989740371704102,0.005652248859405518,-18.328699111938477,0.9696381092071533,18.071321487426758,0.7610984444618225,2.2552523612976074,-0.22098104655742645,0.0,0.0,0.0,0.0,0.0,0.0,0.0,0.04698708233474069,0.3640149042206041,0.19275231388441622,0.45726381685237455,0.33883262204979897,0.06457311188814945,-0.19465084720403575,-0.6089716347853342,-0.05734060980405723,-0.6665411950328887,-2.594644958119826,-0.05568126930950166,2.5079567375712926,0.876320716054903,-0.6090851748156966,-0.05753196718556838,-0.666603097082616,-2.5945565370258534,-0.05562143941554,2.507976027223799,0.8763108487046415,0.0008990743558320104,0.00030062365994003776,0.00022869915177540007,0.00033935227133409133,0.00021426576502220197,-0.00044632831417797846,0.00037920966788126725,0.0,0.0,0.0,0.0,0.0,0.0,0.0,-0.00011354003036234683,-0.00019135738151115217,-6.190204972733593e-05,8.842109397244613e-05,5.9829893961659e-05,1.9289652506415678e-05,-9.867350261538732e-06,-0.0008990743558320104,-0.00030062365994003776,-0.00022869915177540007,-0.00033935227133409133,-0.00021426576502220197,0.00044632831417797846,-0.00037920966788126725,-0.005652248859405518,18.328699111938477,-0.9696381092071533,-18.071321487426758,-0.7610984444618225,-2.2552523612976074,0.22098104655742645,0
18,0.08488774299621582,0.03342324495315552,-18.352502822875977,1.0410492420196533,18.047517776489258,0.7610984444618225,2.2552523612976074,-0.16604940593242645,0.0,0.0,0.0,0.0,0.0,0.0,0.0,0.050068421576662796,0.36292084008425257,0.1892967783243983,0.45442794763906924,0.3386056162502449,0.06410354346869136,-0.19649781932875965,-0.6089735836271654,-0.05733893936820197,-0.6665462060194628,-2.594643367072499,-0.05568130435800969,2.5079567375712926,0.876314612539278,-0.6090851748156966,-0.05753196718556838,-0.666603097082616,-2.5945565370258534,-0.05562143941554,2.507976027223799,0.8763108487046415,0.00015830275064053126,0.00027036764911269776,-0.0013935723113325726,0.0009360580031402549,-4.2612498324446145e-05,-0.0002425836923613661,-0.0008116377653415509,0.0,0.0,0.0,0.0,0.0,0.0,0.0,-0.00011159118853121264,-0.000193027817366416,-5.689106315320824e-05,8.683004664566951e-05,5.986494246969232e-05,1.9289652506415678e-05,-3.7638346365165276e-06,-0.00015830275064053126,-0.00027036764911269776,0.0013935723113325726,-0.0009360580031402549,4.2612498324446145e-05,0.0002425836923613661,0.0008116377653415509,-0.03342324495315552,18.352502822875977,-1.0410492420196533,-18.047517776489258,-0.7610984444618225,-2.2552523612976074,0.16604940593242645,0
19,0.08989143371582031,0.03342324495315552,-18.352502822875977,1.0410492420196533,18.047517776489258,0.7610984444618225,2.2552523612976074,-0.16604940593242645,0.0,0.0,0.0,0.0,0.0,0.0,0.0,0.050068421576662796,0.36292084008425257,0.1892967783243983,0.45442794763906924,0.3386056162502449,0.06410354346869136,-0.19649781932875965,-0.6089735836271654,-0.05733893936820197,-0.6665462060194628,-2.594643367072499,-0.05568130435800969,2.5079567375712926,0.876314612539278,-0.6090851748156966,-0.05753196718556838,-0.666603097082616,-2.5945565370258534,-0.05562143941554,2.507976027223799,0.8763108487046415,0.00015830275064053126,0.00027036764911269776,-0.0013935723113325726,0.0009360580031402549,-4.2612498324446145e-05,-0.0002425836923613661,-0.0008116377653415509,0.0,0.0,0.0,0.0,0.0,0.0,0.0,-0.00011159118853121264,-0.000193027817366416,-5.689106315320824e-05,8.683004664566951e-05,5.986494246969232e-05,1.9289652506415678e-05,-3.7638346365165276e-06,-0.00015830275064053126,-0.00027036764911269776,0.0013935723113325726,-0.0009360580031402549,4.2612498324446145e-05,0.0002425836923613661,0.0008116377653415509,-0.03342324495315552,18.352502822875977,-1.0410492420196533,-18.047517776489258,-0.7610984444618225,-2.2552523612976074,0.16604940593242645,0
20,0.09488868713378906,-0.018151462078094482,-18.352502822875977,0.9696381092071533,18.047517776489258,0.7665916085243225,2.2488436698913574,-0.22098104655742645,0.0,0.0,0.0,0.0,0.0,0.0,0.0,0.035876154539981234,0.3478988106361618,0.1742598097168789,0.4577440749087376,0.33894879122199106,0.06476705120313904,-0.19582872222369208,-0.608969964349479,-0.05733893936820197,-0.6665409609938014,-2.5946433588609854,-0.0556823526006178,2.5079574496481154,0.876320716054903,-0.6090851748156966,-0.05753196718556838,-0.666603097082616,-2.5945565370258534,-0.05562143941554,2.507976027223799,0.8763108487046415,0.000804564464224951,-0.0004684986838930607,-0.0005891562275165758,0.0010771732350922654,-0.000244280799158889,-2.744466799423547e-05,0.0007496061686370012,0.0,0.0,0.0,0.0,0.0,0.0,0.0,-0.00011521046621754127,-0.000193027817366416,-6.213608881455723e-05,8.682183513197828e-05,6.091318507780302e-05,1.8577575683575986e-05,-9.867350261538732e-06,-0.000804564464224951,0.0004684986838930607,0.0005891562275165758,-0.0010771732350922654,0.000244280799158889,2.744466799423547e-05,-0.0007496061686370012,0.018151462078094482,18.352502822875977,-0.9696381092071533,-18.047517776489258,-0.7665916085243225,-2.2488436698913574,0.22098104655742645,0
21,0.09989047050476074,-0.018151462078094482,-18.352502822875977,0.9696381092071533,18.047517776489258,0.7665916085243225,2.2488436698913574,-0.22098104655742645,0.0,0.0,0.0,0.0,0.0,0.0,0.0,0.035876154539981234,0.3478988106361618,0.1742598097168789,0.4577440749087376,0.33894879122199106,0.06476705120313904,-0.19582872222369208,-0.608969964349479,-0.05733893936820197,-0.6665409609938014,-2.5946433588609854,-0.0556823526006178,2.5079574496481154,0.876320716054903,-0.6090851748156966,-0.05753196718556838,-0.666603097082616,-2.5945565370258534,-0.05562143941554,2.507976027223799,0.8763108487046415,0.000804564464224951,-0.0004684986838930607,-0.0005891562275165758,0.0010771732350922654,-0.000244280799158889,-2.744466799423547e-05,0.0007496061686370012,0.0,0.0,0.0,0.0,0.0,0.0,0.0,-0.00011521046621754127,-0.000193027817366416,-6.213608881455723e-05,8.682183513197828e-05,6.091318507780302e-05,1.8577575683575986e-05,-9.867350261538732e-06,-0.000804564464224951,0.0004684986838930607,0.0005891562275165758,-0.0010771732350922654,0.000244280799158889,2.744466799423547e-05,-0.0007496061686370012,0.018151462078094482,18.352502822875977,-0.9696381092071533,-18.047517776489258,-0.7665916085243225,-2.2488436698913574,0.22098104655742645,0
22,0.10483598709106445,0.03342324495315552,-18.328699111938477,0.9696381092071533,18.099092483520508,0.7665916085243225,2.2360262870788574,-0.15231649577617645,0.0,0.0,0.0,0.0,0.0,0.0,0.0,0.0360359628329661,0.3472561653293585,0.17335222090679964,0.4513308688084518,0.3381212071789792,0.0639413158388273,-0.19765065151285702,-0.6089735836271654,-0.05734060980405723,-0.6665404843545142,-2.594644690479338,-0.05567907998198486,2.507958873801761,0.8763129689228019,-0.6090851748156966,-0.05753196718556838,-0.666603097082616,-2.5945565370258534,-0.05562143941554,2.507976027223799,0.8763108487046415,-0.0004177016760721257,0.00011861198608874742,-0.0006279664788552801,-0.0007687799069095201,-0.00017823498986635107,0.0007150522386063311,-0.0018131431782671206,0.0,0.0,0.0,0.0,0.0,0.0,0.0,-0.00011159118853121264,-0.00019135738151115217,-6.26127281018185e-05,8.815345348445192e-05,5.764056644486093e-05,1.7153422037896604e-05,-2.1202181603729997e-06,0.0004177016760721257,-0.00011861198608874742,0.0006279664788552801,0.0007687799069095201,0.00017823498986635107,-0.0007150522386063311,0.0018131431782671206,-0.03342324495315552,18.328699111938477,-0.9696381092071533,-18.099092483520508,-0.7665916085243225,-2.2360262870788574,0.15231649577617645,0
23,0.10988855361938477,0.03342324495315552,-18.328699111938477,0.9696381092071533,18.099092483520508,0.7665916085243225,2.2360262870788574,-0.15231649577617645,0.0,0.0,0.0,0.0,0.0,0.0,0.0,0.0360359628329661,0.3472561653293585,0.17335222090679964,0.4513308688084518,0.3381212071789792,0.0639413158388273,-0.19765065151285702,-0.6089735836271654,-0.05734060980405723,-0.6665404843545142,-2.594644690479338,-0.05567907998198486,2.507958873801761,0.8763129689228019,-0.6090851748156966,-0.05753196718556838,-0.666603097082616,-2.5945565370258534,-0.05562143941554,2.507976027223799,0.8763108487046415,-0.0004177016760721257,0.00011861198608874742,-0.0006279664788552801,-0.0007687799069095201,-0.00017823498986635107,0.0007150522386063311,-0.0018131431782671206,0.0,0.0,0.0,0.0,0.0,0.0,0.0,-0.00011159118853121264,-0.00019135738151115217,-6.26127281018185e-05,8.815345348445192e-05,5.764056644486093e-05,1.7153422037896604e-05,-2.1202181603729997e-06,0.0004177016760721257,-0.00011861198608874742,0.0006279664788552801,0.0007687799069095201,0.00017823498986635107,-0.0007150522386063311,0.0018131431782671206,-0.03342324495315552,18.328699111938477,-0.9696381092071533,-18.099092483520508,-0.7665916085243225,-2.2360262870788574,0.15231649577617645,0
24,0.11488628387451172,0.03342324495315552,-18.304895401000977,0.9934418201446533,18.071321487426758,0.7546897530555725,2.2424349784851074,-0.17337362468242645,0.0,0.0,0.0,0.0,0.0,0.0,0.0,0.03753887934045515,0.34797115846728954,0.17445737097503325,0.4518798798269209,0.33773236254120326,0.06411552559006678,-0.1962028530468368,-0.6089735836271654,-0.057342280239912495,-0.6665428654647328,-2.5946443452431343,-0.055677874364226436,2.5079581617249382,0.8763154263406968,-0.6090851748156966,-0.05753196718556838,-0.666603097082616,-2.5945565370258534,-0.05562143941554,2.507976027223799,0.8763108487046415,-4.372011556307876e-05,0.0003945267753838576,-0.0002567781476108206,-3.349929059813352e-05,0.00017574888553964342,0.00015189443763823936,-0.000790779221993407,0.0,0.0,0.0,0.0,0.0,0.0,0.0,-0.00011159118853121264,-0.00018968694565588834,-6.023161788315523e-05,8.7808217280827e-05,5.6434948686436004e-05,1.7865498860736295e-05,-4.577636055325129e-06,4.372011556307876e-05,-0.0003945267753838576,0.0002567781476108206,3.349929059813352e-05,-0.00017574888553964342,-0.00015189443763823936,0.000790779221993407,-0.03342324495315552,18.304895401000977,-0.9934418201446533,-18.071321487426758,-0.7546897530555725,-2.2424349784851074,0.17337362468242645,0
25,0.1219778060913086,0.03342324495315552,-18.304895401000977,0.9934418201446533,18.071321487426758,0.7546897530555725,2.2424349784851074,-0.17337362468242645,0.0,0.0,0.0,0.0,0.0,0.0,0.0,0.03753887934045515,0.34797115846728954,0.17445737097503325,0.4518798798269209,0.33773236254120326,0.06411552559006678,-0.1962028530468368,-0.6089735836271654,-0.057342280239912495,-0.6665428654647328,-2.5946443452431343,-0.055677874364226436,2.5079581617249382,0.8763154263406968,-0.6090851748156966,-0.05753196718556838,-0.666603097082616,-2.5945565370258534,-0.05562143941554,2.507976027223799,0.8763108487046415,-4.372011556307876e-05,0.0003945267753838576,-0.0002567781476108206,-3.349929059813352e-05,0.00017574888553964342,0.00015189443763823936,-0.000790779221993407,0.0,0.0,0.0,0.0,0.0,0.0,0.0,-0.00011159118853121264,-0.00018968694565588834,-6.023161788315523e-05,8.7808217280827e-05,5.6434948686436004e-05,1.7865498860736295e-05,-4.577636055325129e-06,4.372011556307876e-05,-0.0003945267753838576,0.0002567781476108206,3.349929059813352e-05,-0.00017574888553964342,-0.00015189443763823936,0.000790779221993407,-0.03342324495315552,18.304895401000977,-0.9934418201446533,-18.071321487426758,-0.7546897530555725,-2.2424349784851074,0.17337362468242645,0
26,0.12488269805908203,0.05722695589065552,-18.328699111938477,1.0688202381134033,18.071321487426758,0.7427878975868225,2.2488436698913574,-0.22830526530742645,0.0,0.0,0.0,0.0,0.0,0.0,0.0,0.041462258856488445,0.34558891934180136,0.17940119261244494,0.45542721651547585,0.3373246895873362,0.06472282609570722,-0.19551966389788705,-0.6089752540630207,-0.05734060980405723,-0.6665481455525158,-2.5946429685896213,-0.05567868322019849,2.5079574496481154,0.8763215167750341,-0.6090851748156966,-0.05753196718556838,-0.666603097082616,-2.5945565370258534,-0.05562143941554,2.507976027223799,0.8763108487046415,-0.00015965736248454247,0.0008379765830344377,-0.0010397870831343825,0.00021293013165381622,0.0007963390595441374,-2.6597136524046855e-05,0.0011239664588654056,0.0,0.0,0.0,0.0,0.0,0.0,0.0,-0.00010992075267590717,-0.00019135738151115217,-5.495153010015574e-05,8.643156376786365e-05,5.7243804658491104e-05,1.8577575683575986e-05,-1.0668070392627627e-05,0.00015965736248454247,-0.0008379765830344377,0.0010397870831343825,-0.00021293013165381622,-0.0007963390595441374,2.6597136524046855e-05,-0.0011239664588654056,-0.05722695589065552,18.328699111938477,-1.0688202381134033,-18.071321487426758,-0.7427878975868225,-2.2488436698913574,0.22830526530742645,0
27,0.12989377975463867,0.05722695589065552,-18.328699111938477,1.0688202381134033,18.071321487426758,0.7427878975868225,2.2488436698913574,-0.22830526530742645,0.0,0.0,0.0,0.0,0.0,0.0,0.0,0.041462258856488445,0.34558891934180136,0.17940119261244494,0.45542721651547585,0.3373246895873362,0.06472282609570722,-0.19551966389788705,-0.6089752540630207,-0.05734060980405723,-0.6665481455525158,-2.5946429685896213,-0.05567868322019849,2.5079574496481154,0.8763215167750341,-0.6090851748156966,-0.05753196718556838,-0.666603097082616,-2.5945565370258534,-0.05562143941554,2.507976027223799,0.8763108487046415,-0.00015965736248454247,0.0008379765830344377,-0.0010397870831343825,0.00021293013165381622,0.0007963390595441374,-2.6597136524046855e-05,0.0011239664588654056,0.0,0.0,0.0,0.0,0.0,0.0,0.0,-0.00010992075267590717,-0.00019135738151115217,-5.495153010015574e-05,8.643156376786365e-05,5.7243804658491104e-05,1.8577575683575986e-05,-1.0668070392627627e-05,0.00015965736248454247,-0.0008379765830344377,0.0010397870831343825,-0.00021293013165381622,-0.0007963390595441374,2.6597136524046855e-05,-0.0011239664588654056,-0.05722695589065552,18.328699111938477,-1.0688202381134033,-18.071321487426758,-0.7427878975868225,-2.2488436698913574,0.22830526530742645,0
28,0.13489651679992676,0.05722695589065552,-18.328699111938477,1.0688202381134033,18.071321487426758,0.7427878975868225,2.2488436698913574,-0.22830526530742645,0.0,0.0,0.0,0.0,0.0,0.0,0.0,0.041462258856488445,0.34558891934180136,0.17940119261244494,0.45542721651547585,0.3373246895873362,0.06472282609570722,-0.19551966389788705,-0.6089752540630207,-0.05734060980405723,-0.6665481455525158,-2.5946429685896213,-0.05567868322019849,2.5079574496481154,0.8763215167750341,-0.6090851748156966,-0.05753196718556838,-0.666603097082616,-2.5945565370258534,-0.05562143941554,2.507976027223799,0.8763108487046415,-0.00015965736248454247,0.0008379765830344377,-0.0010397870831343825,0.00021293013165381622,0.0007963390595441374,-2.6597136524046855e-05,0.0011239664588654056,0.0,0.0,0.0,0.0,0.0,0.0,0.0,-0.00010992075267590717,-0.00019135738151115217,-5.495153010015574e-05,8.643156376786365e-05,5.7243804658491104e-05,1.8577575683575986e-05,-1.0668070392627627e-05,0.00015965736248454247,-0.0008379765830344377,0.0010397870831343825,-0.00021293013165381622,-0.0007963390595441374,2.6597136524046855e-05,-0.0011239664588654056,-0.05722695589065552,18.328699111938477,-1.0688202381134033,-18.071321487426758,-0.7427878975868225,-2.2488436698913574,0.22830526530742645,0
29,0.1398930549621582,0.05722695589065552,-18.328699111938477,1.0688202381134033,18.071321487426758,0.7427878975868225,2.2488436698913574,-0.22830526530742645,0.0,0.0,0.0,0.0,0.0,0.0,0.0,0.041462258856488445,0.34558891934180136,0.17940119261244494,0.45542721651547585,0.3373246895873362,0.06472282609570722,-0.19551966389788705,-0.6089752540630207,-0.05734060980405723,-0.6665481455525158,-2.5946429685896213,-0.05567868322019849,2.5079574496481154,0.8763215167750341,-0.6090851748156966,-0.05753196718556838,-0.666603097082616,-2.5945565370258534,-0.05562143941554,2.507976027223799,0.8763108487046415,-0.00015965736248454247,0.0008379765830344377,-0.0010397870831343825,0.00021293013165381622,0.0007963390595441374,-2.6597136524046855e-05,0.0011239664588654056,0.0,0.0,0.0,0.0,0.0,0.0,0.0,-0.00010992075267590717,-0.00019135738151115217,-5.495153010015574e-05,8.643156376786365e-05,5.7243804658491104e-05,1.8577575683575986e-05,-1.0668070392627627e-05,0.00015965736248454247,-0.0008379765830344377,0.0010397870831343825,-0.00021293013165381622,-0.0007963390595441374,2.6597136524046855e-05,-0.0011239664588654056,-0.05722695589065552,18.328699111938477,-1.0688202381134033,-18.071321487426758,-0.7427878975868225,-2.2488436698913574,0.22830526530742645,0
30,0.14841914176940918,0.16037636995315552,-18.304895401000977,1.0688202381134033,18.071321487426758,0.7546897530555725,2.2488436698913574,-0.16604940593242645,0.0,0.0,0.0,0.0,0.0,0.0,0.0,0.047096565429630005,0.3540483157468212,0.1920512939386263,0.4565279039763434,0.33726254323700067,0.06479205014559385,-0.1970354627051258,-0.6089824922974011,-0.057342280239912495,-0.6665481522933371,-2.594644042843766,-0.05567786334706415,2.5079574496481154,0.8763142549658929,-0.6090851748156966,-0.05753196718556838,-0.666603097082616,-2.5945565370258534,-0.05562143941554,2.507976027223799,0.8763108487046415,-0.0014821098071248111,0.00024171600254239953,-0.000283288280721427,0.0004507433186511809,0.00025878158621025403,-9.354861647703368e-05,-0.0008757911576248936,0.0,0.0,0.0,0.0,0.0,0.0,0.0,-0.0001026825182954827,-0.00018968694565588834,-5.494478927892121e-05,8.750581791261425e-05,5.642393152414937e-05,1.8577575683575986e-05,-3.4062612513929835e-06,0.0014821098071248111,-0.00024171600254239953,0.000283288280721427,-0.0004507433186511809,-0.00025878158621025403,9.354861647703368e-05,0.0008757911576248936,-0.16037636995315552,18.304895401000977,-1.0688202381134033,-18.071321487426758,-0.7546897530555725,-2.2488436698913574,0.16604940593242645,0
31,0.1498875617980957,0.16037636995315552,-18.304895401000977,1.0688202381134033,18.071321487426758,0.7546897530555725,2.2488436698913574,-0.16604940593242645,0.0,0.0,0.0,0.0,0.0,0.0,0.0,0.047096565429630005,0.3540483157468212,0.1920512939386263,0.4565279039763434,0.33726254323700067,0.06479205014559385,-0.1970354627051258,-0.6089824922974011,-0.057342280239912495,-0.6665481522933371,-2.594644042843766,-0.05567786334706415,2.5079574496481154,0.8763142549658929,-0.6090851748156966,-0.05753196718556838,-0.666603097082616,-2.5945565370258534,-0.05562143941554,2.507976027223799,0.8763108487046415,-0.0014821098071248111,0.00024171600254239953,-0.000283288280721427,0.0004507433186511809,0.00025878158621025403,-9.354861647703368e-05,-0.0008757911576248936,0.0,0.0,0.0,0.0,0.0,0.0,0.0,-0.0001026825182954827,-0.00018968694565588834,-5.494478927892121e-05,8.750581791261425e-05,5.642393152414937e-05,1.8577575683575986e-05,-3.4062612513929835e-06,0.0014821098071248111,-0.00024171600254239953,0.000283288280721427,-0.0004507433186511809,-0.00025878158621025403,9.354861647703368e-05,0.0008757911576248936,-0.16037636995315552,18.304895401000977,-1.0688202381134033,-18.071321487426758,-0.7546897530555725,-2.2488436698913574,0.16604940593242645,0
32,0.1569833755493164,0.05722695589065552,-18.277124404907227,1.0172455310821533,18.047517776489258,0.7546897530555725,2.2552523612976074,-0.17337362468242645,0.0,0.0,0.0,0.0,0.0,0.0,0.0,0.04415981671471775,0.358817651401661,0.19057383291790586,0.45799684872089164,0.3378536813139961,0.06497402569256977,-0.19552178019555252,-0.6089752540630189,-0.057344229081743636,-0.6665445359045836,-2.594642651859298,-0.05568103080587804,2.5079567375712926,0.8763154263393429,-0.6090851748156966,-0.05753196718556838,-0.666603097082616,-2.5945565370258534,-0.05562143941554,2.507976027223799,0.8763108487046415,0.0006263483925221313,-0.00022150882214171227,0.0004800420857400671,0.0008762003926664843,0.00023127310136947384,-0.00012653560875721133,-0.0013491725642767914,0.0,0.0,0.0,0.0,0.0,0.0,0.0,-0.00010992075267768353,-0.0001877381038247472,-5.8561178032379146e-05,8.611483344456161e-05,5.95913903380374e-05,1.9289652506415678e-05,-4.577634701408151e-06,-0.0006263483925221313,0.00022150882214171227,-0.0004800420857400671,-0.0008762003926664843,-0.00023127310136947384,0.00012653560875721133,0.0013491725642767914,-0.05722695589065552,18.277124404907227,-1.0172455310821533,-18.047517776489258,-0.7546897530555725,-2.2552523612976074,0.17337362468242645,0
33,0.1598832607269287,0.05722695589065552,-18.277124404907227,1.0172455310821533,18.047517776489258,0.7546897530555725,2.2552523612976074,-0.17337362468242645,0.0,0.0,0.0,0.0,0.0,0.0,0.0,0.04415981671471775,0.358817651401661,0.19057383291790586,0.45799684872089164,0.3378536813139961,0.06497402569256977,-0.19552178019555252,-0.6089752540630189,-0.057344229081743636,-0.6665445359045836,-2.594642651859298,-0.05568103080587804,2.5079567375712926,0.8763154263393429,-0.6090851748156966,-0.05753196718556838,-0.666603097082616,-2.5945565370258534,-0.05562143941554,2.507976027223799,0.8763108487046415,0.0006263483925221313,-0.00022150882214171227,0.0004800420857400671,0.0008762003926664843,0.00023127310136947384,-0.00012653560875721133,-0.0013491725642767914,0.0,0.0,0.0,0.0,0.0,0.0,0.0,-0.00010992075267768353,-0.0001877381038247472,-5.8561178032379146e-05,8.611483344456161e-05,5.95913903380374e-05,1.9289652506415678e-05,-4.577634701408151e-06,-0.0006263483925221313,0.00022150882214171227,-0.0004800420857400671,-0.0008762003926664843,-0.00023127310136947384,0.00012653560875721133,0.0013491725642767914,-0.05722695589065552,18.277124404907227,-1.0172455310821533,-18.047517776489258,-0.7546897530555725,-2.2552523612976074,0.17337362468242645,0
34,0.16489100456237793,0.005652248859405518,-18.304895401000977,0.9934418201446533,18.122896194458008,0.7546897530555725,2.2488436698913574,-0.22098104655742645,0.0,0.0,0.0,0.0,0.0,0.0,0.0,0.043692523679573825,0.3583840709479084,0.1912975567319669,0.45730258451649747,0.3380879802054298,0.06572337049336703,-0.19685526145307514,-0.6089716347853342,-0.057342280239912495,-0.6665428654687446,-2.5946486312490156,-0.055681057110306166,2.5079574496481154,0.8763207029729508,-0.6090851748156966,-0.05753196718556838,-0.666603097082616,-2.5945565370258534,-0.05562143941554,2.507976027223799,0.8763108487046415,0.0008757929994998047,-0.00014600798833715016,3.0264913141291595e-05,-0.0012332603896926923,0.0003143970422980308,-5.13231713672436e-05,0.0014772363352647958,0.0,0.0,0.0,0.0,0.0,0.0,0.0,-0.00011354003036234683,-0.00018968694565588834,-6.023161387136433e-05,9.209422316214244e-05,5.961769476616613e-05,1.8577575683575986e-05,-9.854268309350545e-06,-0.0008757929994998047,0.00014600798833715016,-3.0264913141291595e-05,0.0012332603896926923,-0.0003143970422980308,5.13231713672436e-05,-0.0014772363352647958,-0.005652248859405518,18.304895401000977,-0.9934418201446533,-18.122896194458008,-0.7546897530555725,-2.2488436698913574,0.22098104655742645,0
35,0.16988468170166016,0.005652248859405518,-18.304895401000977,0.9934418201446533,18.122896194458008,0.7546897530555725,2.2488436698913574,-0.22098104655742645,0.0,0.0,0.0,0.0,0.0,0.0,0.0,0.043692523679573825,0.3583840709479084,0.1912975567319669,0.45730258451649747,0.3380879802054298,0.06572337049336703,-0.19685526145307514,-0.6089716347853342,-0.057342280239912495,-0.6665428654687446,-2.5946486312490156,-0.055681057110306166,2.5079574496481154,0.8763207029729508,-0.6090851748156966,-0.05753196718556838,-0.666603097082616,-2.5945565370258534,-0.05562143941554,2.507976027223799,0.8763108487046415,0.0008757929994998047,-0.00014600798833715016,3.0264913141291595e-05,-0.0012332603896926923,0.0003143970422980308,-5.13231713672436e-05,0.0014772363352647958,0.0,0.0,0.0,0.0,0.0,0.0,0.0,-0.00011354003036234683,-0.00018968694565588834,-6.023161387136433e-05,9.209422316214244e-05,5.961769476616613e-05,1.8577575683575986e-05,-9.854268309350545e-06,-0.0008757929994998047,0.00014600798833715016,-3.0264913141291595e-05,0.0012332603896926923,-0.0003143970422980308,5.13231713672436e-05,-0.0014772363352647958,-0.005652248859405518,18.304895401000977,-0.9934418201446533,-18.122896194458008,-0.7546897530555725,-2.2488436698913574,0.22098104655742645,0
36,0.1748828887939453,-0.018151462078094482,-18.376306533813477,0.8942596912384033,18.071321487426758,0.7546897530555725,2.2424349784851074,-0.20083944499492645,0.0,0.0,0.0,0.0,0.0,0.0,0.0,0.04626379517134994,0.3621552289525993,0.19201927496480672,0.4547383289428439,0.33788215463290466,0.06551658802964243,-0.1949169604071678,-0.608969964349479,-0.057337268932346704,-0.6665359053193477,-2.5946450110304147,-0.05568000132154171,2.5079581617249382,0.8763184766455498,-0.6090851748156966,-0.05753196718556838,-0.666603097082616,-2.5945565370258534,-0.05562143941554,2.507976027223799,0.8763108487046415,0.001083793925796757,0.0020113603800199385,0.0015135791835785885,5.415128700961241e-05,0.00021685485168903575,0.00016309665152586486,0.00021170507588117384,0.0,0.0,0.0,0.0,0.0,0.0,0.0,-0.00011521046621754127,-0.00019469825322167983,-6.71917632683039e-05,8.847400456124532e-05,5.8561906001709796e-05,1.7865498860736295e-05,-7.627940908361275e-06,-0.001083793925796757,-0.0020113603800199385,-0.0015135791835785885,-5.415128700961241e-05,-0.00021685485168903575,-0.00016309665152586486,-0.00021170507588117384,0.018151462078094482,18.376306533813477,-0.8942596912384033,-18.071321487426758,-0.7546897530555725,-2.2424349784851074,0.20083944499492645,0
37,0.1798844337463379,-0.018151462078094482,-18.376306533813477,0.8942596912384033,18.071321487426758,0.7546897530555725,2.2424349784851074,-0.20083944499492645,0.0,0.0,0.0,0.0,0.0,0.0,0.0,0.04626379517134994,0.3621552289525993,0.19201927496480672,0.4547383289428439,0.33788215463290466,0.06551658802964243,-0.1949169604071678,-0.608969964349479,-0.057337268932346704,-0.6665359053193477,-2.5946450110304147,-0.05568000132154171,2.5079581617249382,0.8763184766455498,-0.6090851748156966,-0.05753196718556838,-0.666603097082616,-2.5945565370258534,-0.05562143941554,2.507976027223799,0.8763108487046415,0.001083793925796757,0.0020113603800199385,0.0015135791835785885,5.415128700961241e-05,0.00021685485168903575,0.00016309665152586486,0.00021170507588117384,0.0,0.0,0.0,0.0,0.0,0.0,0.0,-0.00011521046621754127,-0.00019469825322167983,-6.71917632683039e-05,8.847400456124532e-05,5.8561906001709796e-05,1.7865498860736295e-05,-7.627940908361275e-06,-0.001083793925796757,-0.0020113603800199385,-0.0015135791835785885,-5.415128700961241e-05,-0.00021685485168903575,-0.00016309665152586486,-0.00021170507588117384,0.018151462078094482,18.376306533813477,-0.8942596912384033,-18.071321487426758,-0.7546897530555725,-2.2424349784851074,0.20083944499492645,0
38,0.18488359451293945,0.005652248859405518,-18.328699111938477,1.0172455310821533,18.071321487426758,0.7730002999305725,2.2424349784851074,-0.17337362468242645,0.0,0.0,0.0,0.0,0.0,0.0,0.0,0.04567240594354778,0.3568006035679388,0.18629692029851994,0.45644463263740265,0.337903216543764,0.0658191108207389,-0.1953335429505595,-0.608971400781914,-0.05734060980405723,-0.6665445357976025,-2.594645034055722,-0.055682982136508366,2.5079581617249382,0.8763143667032239,-0.6090851748156966,-0.05753196718556838,-0.666603097082616,-2.5945565370258534,-0.05562143941554,2.507976027223799,0.8763108487046415,-0.00015209322879389687,-5.57545945515161e-05,-0.0010992277422890652,0.0003878817204568363,-0.00037763946600164237,0.00018347526301650826,-0.0008970085042625354,0.0,0.0,0.0,0.0,0.0,0.0,0.0,-0.00011377403378254325,-0.00019135738151115217,-5.85612850134698e-05,8.84970298686838e-05,6.15427209683661e-05,1.7865498860736295e-05,-3.5179985824473903e-06,0.00015209322879389687,5.57545945515161e-05,0.0010992277422890652,-0.0003878817204568363,0.00037763946600164237,-0.00018347526301650826,0.0008970085042625354,-0.005652248859405518,18.328699111938477,-1.0172455310821533,-18.071321487426758,-0.7730002999305725,-2.2424349784851074,0.17337362468242645,0
39,0.18990039825439453,0.005652248859405518,-18.328699111938477,1.0172455310821533,18.071321487426758,0.7730002999305725,2.2424349784851074,-0.17337362468242645,0.0,0.0,0.0,0.0,0.0,0.0,0.0,0.04567240594354778,0.3568006035679388,0.18629692029851994,0.45644463263740265,0.337903216543764,0.0658191108207389,-0.1953335429505595,-0.608971400781914,-0.05734060980405723,-0.6665445357976025,-2.594645034055722,-0.055682982136508366,2.5079581617249382,0.8763143667032239,-0.6090851748156966,-0.05753196718556838,-0.666603097082616,-2.5945565370258534,-0.05562143941554,2.507976027223799,0.8763108487046415,-0.00015209322879389687,-5.57545945515161e-05,-0.0010992277422890652,0.0003878817204568363,-0.00037763946600164237,0.00018347526301650826,-0.0008970085042625354,0.0,0.0,0.0,0.0,0.0,0.0,0.0,-0.00011377403378254325,-0.00019135738151115217,-5.85612850134698e-05,8.84970298686838e-05,6.15427209683661e-05,1.7865498860736295e-05,-3.5179985824473903e-06,0.00015209322879389687,5.57545945515161e-05,0.0010992277422890652,-0.0003878817204568363,0.00037763946600164237,-0.00018347526301650826,0.0008970085042625354,-0.005652248859405518,18.328699111938477,-1.0172455310821533,-18.071321487426758,-0.7730002999305725,-2.2424349784851074,0.17337362468242645,0
40,0.19489002227783203,0.08103066682815552,-18.328699111938477,0.9696381092071533,18.047517776489258,0.7665916085243225,2.2552523612976074,-0.20724813640117645,0.0,0.0,0.0,0.0,0.0,0.0,0.0,0.03955890763238628,0.3525089710410812,0.18179999676573053,0.45373362168640147,0.3380407925610919,0.06485455354682136,-0.19512500878625275,-0.608976924497555,-0.05734060980405723,-0.6665411689968429,-2.5946432568217386,-0.05567906743320806,2.5079567375712926,0.8763191901700151,-0.6090851748156966,-0.05753196718556838,-0.666603097082616,-2.5945565370258534,-0.05562143941554,2.507976027223799,0.8763108487046415,-0.0014404006097461265,-0.000700306440405185,0.00031775421616786834,0.0007238903036870879,-0.00011871127584198263,-0.00041390343853955864,0.0010779728652921346,0.0,0.0,0.0,0.0,0.0,0.0,0.0,-0.00010825031814154507,-0.00019135738151115217,-6.192808577309972e-05,8.671979588514844e-05,5.762801766805853e-05,1.9289652506415678e-05,-8.341465373651324e-06,0.0014404006097461265,0.000700306440405185,-0.00031775421616786834,-0.0007238903036870879,0.00011871127584198263,0.00041390343853955864,-0.0010779728652921346,-0.08103066682815552,18.328699111938477,-0.9696381092071533,-18.047517776489258,-0.7665916085243225,-2.2552523612976074,0.20724813640117645,0
41,0.19990158081054688,0.08103066682815552,-18.328699111938477,0.9696381092071533,18.047517776489258,0.7665916085243225,2.2552523612976074,-0.20724813640117645,0.0,0.0,0.0,0.0,0.0,0.0,0.0,0.03955890763238628,0.3525089710410812,0.18179999676573053,0.45373362168640147,0.3380407925610919,0.06485455354682136,-0.19512500878625275,-0.608976924497555,-0.05734060980405723,-0.6665411689968429,-2.5946432568217386,-0.05567906743320806,2.5079567375712926,0.8763191901700151,-0.6090851748156966,-0.05753196718556838,-0.666603097082616,-2.5945565370258534,-0.05562143941554,2.507976027223799,0.8763108487046415,-0.0014404006097461265,-0.000700306440405185,0.00031775421616786834,0.0007238903036870879,-0.00011871127584198263,-0.00041390343853955864,0.0010779728652921346,0.0,0.0,0.0,0.0,0.0,0.0,0.0,-0.00010825031814154507,-0.00019135738151115217,-6.192808577309972e-05,8.671979588514844e-05,5.762801766805853e-05,1.9289652506415678e-05,-8.341465373651324e-06,0.0014404006097461265,0.000700306440405185,-0.00031775421616786834,-0.0007238903036870879,0.00011871127584198263,0.00041390343853955864,-0.0010779728652921346,-0.08103066682815552,18.328699111938477,-0.9696381092071533,-18.047517776489258,-0.7665916085243225,-2.2552523612976074,0.20724813640117645,0
42,0.20489025115966797,0.05722695589065552,-18.304895401000977,0.9934418201446533,18.099092483520508,0.7546897530555725,2.2424349784851074,-0.17978231608867645,0.0,0.0,0.0,0.0,0.0,0.0,0.0,0.037805588678137554,0.3497222722629552,0.18080153688873443,0.45259719766124684,0.3382294149859656,0.06424230879892921,-0.19340957079442328,-0.6089752540630207,-0.057342280239912495,-0.6665407507710223,-2.5946469833869807,-0.055681069802331215,2.5079581617249382,0.8763161383643491,-0.6090851748156966,-0.05753196718556838,-0.666603097082616,-2.5945565370258534,-0.05562143941554,2.507976027223799,0.8763108487046415,-0.0003502172681041113,-0.000740875080596622,0.0003099771857340229,-0.0005116437961146312,0.0004033286968593562,0.0001673100350409673,-0.0014389946678597463,0.0,0.0,0.0,0.0,0.0,0.0,0.0,-0.00010992075267590717,-0.00018968694565588834,-6.234631159374171e-05,9.044636112731652e-05,5.963038679121513e-05,1.7865498860736295e-05,-5.28965970758577e-06,0.0003502172681041113,0.000740875080596622,-0.0003099771857340229,0.0005116437961146312,-0.0004033286968593562,-0.0001673100350409673,0.0014389946678597463,-0.05722695589065552,18.304895401000977,-0.9934418201446533,-18.099092483520508,-0.7546897530555725,-2.2424349784851074,0.17978231608867645,0
43,0.21000361442565918,0.05722695589065552,-18.304895401000977,0.9934418201446533,18.099092483520508,0.7546897530555725,2.2424349784851074,-0.17978231608867645,0.0,0.0,0.0,0.0,0.0,0.0,0.0,0.037805588678137554,0.3497222722629552,0.18080153688873443,0.45259719766124684,0.3382294149859656,0.06424230879892921,-0.19340957079442328,-0.6089752540630207,-0.057342280239912495,-0.6665407507710223,-2.5946469833869807,-0.055681069802331215,2.5079581617249382,0.8763161383643491,-0.6090851748156966,-0.05753196718556838,-0.666603097082616,-2.5945565370258534,-0.05562143941554,2.507976027223799,0.8763108487046415,-0.0003502172681041113,-0.000740875080596622,0.0003099771857340229,-0.0005116437961146312,0.0004033286968593562,0.0001673100350409673,-0.0014389946678597463,0.0,0.0,0.0,0.0,0.0,0.0,0.0,-0.00010992075267590717,-0.00018968694565588834,-6.234631159374171e-05,9.044636112731652e-05,5.963038679121513e-05,1.7865498860736295e-05,-5.28965970758577e-06,0.0003502172681041113,0.000740875080596622,-0.0003099771857340229,0.0005116437961146312,-0.0004033286968593562,-0.0001673100350409673,0.0014389946678597463,-0.05722695589065552,18.304895401000977,-0.9934418201446533,-18.099092483520508,-0.7546897530555725,-2.2424349784851074,0.17978231608867645,0
44,0.214888334274292,0.10880166292190552,-18.304895401000977,1.0410492420196533,18.071321487426758,0.7610984444618225,2.2488436698913574,-0.15231649577617645,0.0,0.0,0.0,0.0,0.0,0.0,0.0,0.03552607371564677,0.34737328208646845,0.17982226941442087,0.45369358226645573,0.3385850387851984,0.06398947446687961,-0.19640194148118473,-0.6089788733407071,-0.057342280239912495,-0.6665461802924718,-2.5946449348160576,-0.05568161006178662,2.5079574496481154,0.8763130866603716,-0.6090851748156966,-0.05753196718556838,-0.666603097082616,-2.5945565370258534,-0.05562143941554,2.507976027223799,0.8763108487046415,-0.001263648613057782,-0.0002782692435398114,-0.0008591453062004905,0.00018800267606616152,9.286762192805295e-05,6.98912299953884e-05,-0.0011339275616706846,0.0,0.0,0.0,0.0,0.0,0.0,0.0,-0.00010630147498946751,-0.00018968694565588834,-5.6916790144190266e-05,8.839779020419769e-05,6.0170646246617e-05,1.8577575683575986e-05,-2.2379557300666875e-06,0.001263648613057782,0.0002782692435398114,0.0008591453062004905,-0.00018800267606616152,-9.286762192805295e-05,-6.98912299953884e-05,0.0011339275616706846,-0.10880166292190552,18.304895401000977,-1.0410492420196533,-18.071321487426758,-0.7610984444618225,-2.2488436698913574,0.15231649577617645,0
45,0.21988844871520996,0.10880166292190552,-18.304895401000977,1.0410492420196533,18.071321487426758,0.7610984444618225,2.2488436698913574,-0.15231649577617645,0.0,0.0,0.0,0.0,0.0,0.0,0.0,0.03552607371564677,0.34737328208646845,0.17982226941442087,0.45369358226645573,0.3385850387851984,0.06398947446687961,-0.19640194148118473,-0.6089788733407071,-0.057342280239912495,-0.6665461802924718,-2.5946449348160576,-0.05568161006178662,2.5079574496481154,0.8763130866603716,-0.6090851748156966,-0.05753196718556838,-0.666603097082616,-2.5945565370258534,-0.05562143941554,2.507976027223799,0.8763108487046415,-0.001263648613057782,-0.0002782692435398114,-0.0008591453062004905,0.00018800267606616152,9.286762192805295e-05,6.98912299953884e-05,-0.0011339275616706846,0.0,0.0,0.0,0.0,0.0,0.0,0.0,-0.00010630147498946751,-0.00018968694565588834,-5.6916790144190266e-05,8.839779020419769e-05,6.0170646246617e-05,1.8577575683575986e-05,-2.2379557300666875e-06,0.001263648613057782,0.0002782692435398114,0.0008591453062004905,-0.00018800267606616152,-9.286762192805295e-05,-6.98912299953884e-05,0.0011339275616706846,-0.10880166292190552,18.304895401000977,-1.0410492420196533,-18.071321487426758,-0.7610984444618225,-2.2488436698913574,0.15231649577617645,0
46,0.22488617897033691,0.005652248859405518,-18.277124404907227,1.0172455310821533,18.071321487426758,0.7610984444618225,2.2488436698913574,-0.22098104655742645,0.0,0.0,0.0,0.0,0.0,0.0,0.0,0.03585039880072367,0.3497329630832354,0.17828076507463797,0.45612063862459834,0.3389869114045946,0.06437927455450204,-0.19490702658226808,-0.6089716347853342,-0.057344229081743636,-0.666544535904453,-2.5946422713327157,-0.055681782329653165,2.5079574496481154,0.876320716054903,-0.6090851748156966,-0.05753196718556838,-0.666603097082616,-2.5945565370258534,-0.05562143941554,2.507976027223799,0.8763108487046415,0.0010074166979021693,-0.00035821545978120784,-0.0001224001424400203,0.0006088479211879026,6.359482431446004e-05,-0.0001665077502754931,0.0007085590290981884,0.0,0.0,0.0,0.0,0.0,0.0,0.0,-0.00011354003036234683,-0.0001877381038247472,-5.8561178163052396e-05,8.573430686231731e-05,6.034291411316506e-05,1.8577575683575986e-05,-9.867350261538732e-06,-0.0010074166979021693,0.00035821545978120784,0.0001224001424400203,-0.0006088479211879026,-6.359482431446004e-05,0.0001665077502754931,-0.0007085590290981884,-0.005652248859405518,18.277124404907227,-1.0172455310821533,-18.071321487426758,-0.7610984444618225,-2.2488436698913574,0.22098104655742645,0
47,0.22988557815551758,0.005652248859405518,-18.277124404907227,1.0172455310821533,18.071321487426758,0.7610984444618225,2.2488436698913574,-0.22098104655742645,0.0,0.0,0.0,0.0,0.0,0.0,0.0,0.03585039880072367,0.3497329630832354,0.17828076507463797,0.45612063862459834,0.3389869114045946,0.06437927455450204,-0.19490702658226808,-0.6089716347853342,-0.057344229081743636,-0.666544535904453,-2.5946422713327157,-0.055681782329653165,2.5079574496481154,0.876320716054903,-0.6090851748156966,-0.05753196718556838,-0.666603097082616,-2.5945565370258534,-0.05562143941554,2.507976027223799,0.8763108487046415,0.0010074166979021693,-0.00035821545978120784,-0.0001224001424400203,0.0006088479211879026,6.359482431446004e-05,-0.0001665077502754931,0.0007085590290981884,0.0,0.0,0.0,0.0,0.0,0.0,0.0,-0.00011354003036234683,-0.0001877381038247472,-5.8561178163052396e-05,8.573430686231731e-05,6.034291411316506e-05,1.8577575683575986e-05,-9.867350261538732e-06,-0.0010074166979021693,0.00035821545978120784,0.0001224001424400203,-0.0006088479211879026,-6.359482431446004e-05,0.0001665077502754931,-0.0007085590290981884,-0.005652248859405518,18.277124404907227,-1.0172455310821533,-18.071321487426758,-0.7610984444618225,-2.2488436698913574,0.22098104655742645,0
48,0.23488593101501465,0.05722695589065552,-18.277124404907227,1.0172455310821533,18.099092483520508,0.7546897530555725,2.2488436698913574,-0.17337362468242645,0.0,0.0,0.0,0.0,0.0,0.0,0.0,0.04623266876424929,0.3589796400183942,0.18996721626783739,0.4549282479675281,0.33818139816013,0.06396439224856765,-0.19620346375758688,-0.6089752540630207,-0.057344229081743636,-0.6665445357976025,-2.594646957372281,-0.05568071105840461,2.5079574496481154,0.8763154263413614,-0.6090851748156966,-0.05753196718556838,-0.666603097082616,-2.5945565370258534,-0.05562143941554,2.507976027223799,0.8763108487046415,8.709661178126597e-05,5.1814262186205075e-05,0.0004752824958898613,-0.0006892235652898474,7.765664614473426e-07,1.1147047116579952e-05,-0.0012873076383600828,0.0,0.0,0.0,0.0,0.0,0.0,0.0,-0.00010992075267590717,-0.0001877381038247472,-5.85612850134698e-05,9.042034642758878e-05,5.92716428646084e-05,1.8577575683575986e-05,-4.577636719904632e-06,-8.709661178126597e-05,-5.1814262186205075e-05,-0.0004752824958898613,0.0006892235652898474,-7.765664614473426e-07,-1.1147047116579952e-05,0.0012873076383600828,-0.05722695589065552,18.277124404907227,-1.0172455310821533,-18.099092483520508,-0.7546897530555725,-2.2488436698913574,0.17337362468242645,0
49,0.23988652229309082,0.05722695589065552,-18.277124404907227,1.0172455310821533,18.099092483520508,0.7546897530555725,2.2488436698913574,-0.17337362468242645,0.0,0.0,0.0,0.0,0.0,0.0,0.0,0.04623266876424929,0.3589796400183942,0.18996721626783739,0.4549282479675281,0.33818139816013,0.06396439224856765,-0.19620346375758688,-0.6089752540630207,-0.057344229081743636,-0.6665445357976025,-2.594646957372281,-0.05568071105840461,2.5079574496481154,0.8763154263413614,-0.6090851748156966,-0.05753196718556838,-0.666603097082616,-2.5945565370258534,-0.05562143941554,2.507976027223799,0.8763108487046415,8.709661178126597e-05,5.1814262186205075e-05,0.0004752824958898613,-0.0006892235652898474,7.765664614473426e-07,1.1147047116579952e-05,-0.0012873076383600828,0.0,0.0,0.0,0.0,0.0,0.0,0.0,-0.00010992075267590717,-0.0001877381038247472,-5.85612850134698e-05,9.042034642758878e-05,5.92716428646084e-05,1.8577575683575986e-05,-4.577636719904632e-06,-8.709661178126597e-05,-5.1814262186205075e-05,-0.0004752824958898613,0.0006892235652898474,-7.765664614473426e-07,-1.1147047116579952e-05,0.0012873076383600828,-0.05722695589065552,18.277124404907227,-1.0172455310821533,-18.099092483520508,-0.7546897530555725,-2.2488436698913574,0.17337362468242645,0
50,0.2449803352355957,0.05722695589065552,-18.277124404907227,1.0172455310821533,18.099092483520508,0.7546897530555725,2.2488436698913574,-0.17337362468242645,0.0,0.0,0.0,0.0,0.0,0.0,0.0,0.04623266876424929,0.3589796400183942,0.18996721626783739,0.4549282479675281,0.33818139816013,0.06396439224856765,-0.19620346375758688,-0.6089752540630207,-0.057344229081743636,-0.6665445357976025,-2.594646957372281,-0.05568071105840461,2.5079574496481154,0.8763154263413614,-0.6090851748156966,-0.05753196718556838,-0.666603097082616,-2.5945565370258534,-0.05562143941554,2.507976027223799,0.8763108487046415,8.709661178126597e-05,5.1814262186205075e-05,0.0004752824958898613,-0.0006892235652898474,7.765664614473426e-07,1.1147047116579952e-05,-0.0012873076383600828,0.0,0.0,0.0,0.0,0.0,0.0,0.0,-0.00010992075267590717,-0.0001877381038247472,-5.85612850134698e-05,9.042034642758878e-05,5.92716428646084e-05,1.8577575683575986e-05,-4.577636719904632e-06,-8.709661178126597e-05,-5.1814262186205075e-05,-0.0004752824958898613,0.0006892235652898474,-7.765664614473426e-07,-1.1147047116579952e-05,0.0012873076383600828,-0.05722695589065552,18.277124404907227,-1.0172455310821533,-18.099092483520508,-0.7546897530555725,-2.2488436698913574,0.17337362468242645,0
51,0.24988627433776855,0.05722695589065552,-18.277124404907227,1.0172455310821533,18.099092483520508,0.7546897530555725,2.2488436698913574,-0.17337362468242645,0.0,0.0,0.0,0.0,0.0,0.0,0.0,0.04623266876424929,0.3589796400183942,0.18996721626783739,0.4549282479675281,0.33818139816013,0.06396439224856765,-0.19620346375758688,-0.6089752540630207,-0.057344229081743636,-0.6665445357976025,-2.594646957372281,-0.05568071105840461,2.5079574496481154,0.8763154263413614,-0.6090851748156966,-0.05753196718556838,-0.666603097082616,-2.5945565370258534,-0.05562143941554,2.507976027223799,0.8763108487046415,8.709661178126597e-05,5.1814262186205075e-05,0.0004752824958898613,-0.0006892235652898474,7.765664614473426e-07,1.1147047116579952e-05,-0.0012873076383600828,0.0,0.0,0.0,0.0,0.0,0.0,0.0,-0.00010992075267590717,-0.0001877381038247472,-5.85612850134698e-05,9.042034642758878e-05,5.92716428646084e-05,1.8577575683575986e-05,-4.577636719904632e-06,-8.709661178126597e-05,-5.1814262186205075e-05,-0.0004752824958898613,0.0006892235652898474,-7.765664614473426e-07,-1.1147047116579952e-05,0.0012873076383600828,-0.05722695589065552,18.277124404907227,-1.0172455310821533,-18.099092483520508,-0.7546897530555725,-2.2488436698913574,0.17337362468242645,0
52,0.2548842430114746,0.05722695589065552,-18.304895401000977,1.0410492420196533,18.071321487426758,0.7546897530555725,2.2424349784851074,-0.18710653483867645,0.0,0.0,0.0,0.0,0.0,0.0,0.0,0.04426399369384764,0.3550041889047939,0.1909682498442477,0.45964255558233985,0.33770355428396565,0.06504129601192457,-0.1969942702162887,-0.6089752540630207,-0.057342280239912495,-0.6665462063404546,-2.5946443197461244,-0.05568067384414477,2.5079581617249382,0.876316951735751,-0.6090851748156966,-0.05753196718556838,-0.666603097082616,-2.5945565370258534,-0.05562143941554,2.507976027223799,0.8763108487046415,0.00013917972332638473,-0.000565067376114577,1.1930492883308978e-05,-7.858702205221597e-07,0.0003432977797440622,9.588775651745065e-05,0.00050415759278707,0.0,0.0,0.0,0.0,0.0,0.0,0.0,-0.00010992075267590717,-0.00018968694565588834,-5.689074216141954e-05,8.778272027099021e-05,5.923442860476802e-05,1.7865498860736295e-05,-6.103031109483403e-06,-0.00013917972332638473,0.000565067376114577,-1.1930492883308978e-05,7.858702205221597e-07,-0.0003432977797440622,-9.588775651745065e-05,-0.00050415759278707,-0.05722695589065552,18.304895401000977,-1.0410492420196533,-18.071321487426758,-0.7546897530555725,-2.2424349784851074,0.18710653483867645,0
53,0.2598876953125,0.05722695589065552,-18.304895401000977,1.0410492420196533,18.071321487426758,0.7546897530555725,2.2424349784851074,-0.18710653483867645,0.0,0.0,0.0,0.0,0.0,0.0,0.0,0.04426399369384764,0.3550041889047939,0.1909682498442477,0.45964255558233985,0.33770355428396565,0.06504129601192457,-0.1969942702162887,-0.6089752540630207,-0.057342280239912495,-0.6665462063404546,-2.5946443197461244,-0.05568067384414477,2.5079581617249382,0.876316951735751,-0.6090851748156966,-0.05753196718556838,-0.666603097082616,-2.5945565370258534,-0.05562143941554,2.507976027223799,0.8763108487046415,0.00013917972332638473,-0.000565067376114577,1.1930492883308978e-05,-7.858702205221597e-07,0.0003432977797440622,9.588775651745065e-05,0.00050415759278707,0.0,0.0,0.0,0.0,0.0,0.0,0.0,-0.00010992075267590717,-0.00018968694565588834,-5.689074216141954e-05,8.778272027099021e-05,5.923442860476802e-05,1.7865498860736295e-05,-6.103031109483403e-06,-0.00013917972332638473,0.000565067376114577,-1.1930492883308978e-05,7.858702205221597e-07,-0.0003432977797440622,-9.588775651745065e-05,-0.00050415759278707,-0.05722695589065552,18.304895401000977,-1.0410492420196533,-18.071321487426758,-0.7546897530555725,-2.2424349784851074,0.18710653483867645,0
54,0.2598876953125,0.05722695589065552,-18.304895401000977,1.0410492420196533,18.071321487426758,0.7546897530555725,2.2424349784851074,-0.18710653483867645,0.0,0.0,0.0,0.0,0.0,0.0,0.0,0.04426399369384764,0.3550041889047939,0.1909682498442477,0.45964255558233985,0.33770355428396565,0.06504129601192457,-0.1969942702162887,-0.6089752540630207,-0.057342280239912495,-0.6665462063404546,-2.5946443197461244,-0.05568067384414477,2.5079581617249382,0.876316951735751,-0.6090851748156966,-0.05753196718556838,-0.666603097082616,-2.5945565370258534,-0.05562143941554,2.507976027223799,0.8763108487046415,0.00013917972332638473,-0.000565067376114577,1.1930492883308978e-05,-7.858702205221597e-07,0.0003432977797440622,9.588775651745065e-05,0.00050415759278707,0.0,0.0,0.0,0.0,0.0,0.0,0.0,-0.00010992075267590717,-0.00018968694565588834,-5.689074216141954e-05,8.778272027099021e-05,5.923442860476802e-05,1.7865498860736295e-05,-6.103031109483403e-06,-0.00013917972332638473,0.000565067376114577,-1.1930492883308978e-05,7.858702205221597e-07,-0.0003432977797440622,-9.588775651745065e-05,-0.00050415759278707,-0.05722695589065552,18.304895401000977,-1.0410492420196533,-18.071321487426758,-0.7546897530555725,-2.2424349784851074,0.18710653483867645,0
55,0.26988792419433594,0.03342324495315552,-18.328699111938477,0.9934418201446533,18.099092483520508,0.7610984444618225,2.2552523612976074,-0.22830526530742645,0.0,0.0,0.0,0.0,0.0,0.0,0.0,0.04184343784406321,0.35530472077711867,0.19303410680770858,0.46181956272617986,0.33792095033617653,0.0650156802760615,-0.19285217733396542,-0.6089735836271654,-0.05734060980405723,-0.6665427874676045,-2.5946467218002525,-0.0556785748609484,2.5079567375712926,0.8763215298569863,-0.6090851748156966,-0.05753196718556838,-0.666603097082616,-2.5945565370258534,-0.05562143941554,2.507976027223799,0.8763108487046415,8.868282693864755e-05,5.59843984567589e-05,0.00010364371756111878,0.00019081259988996727,0.00010806085870652665,-0.000315872715727012,0.0007794635879828344,0.0,0.0,0.0,0.0,0.0,0.0,0.0,-0.00011159118853121264,-0.00019135738151115217,-6.030961501146681e-05,9.018477439903805e-05,5.713544540839749e-05,1.9289652506415678e-05,-1.0681152344815814e-05,-8.868282693864755e-05,-5.59843984567589e-05,-0.00010364371756111878,-0.00019081259988996727,-0.00010806085870652665,0.000315872715727012,-0.0007794635879828344,-0.03342324495315552,18.328699111938477,-0.9934418201446533,-18.099092483520508,-0.7610984444618225,-2.2552523612976074,0.22830526530742645,0
56,0.27492833137512207,0.03342324495315552,-18.328699111938477,0.9934418201446533,18.099092483520508,0.7610984444618225,2.2552523612976074,-0.22830526530742645,0.0,0.0,0.0,0.0,0.0,0.0,0.0,0.04184343784406321,0.35530472077711867,0.19303410680770858,0.46181956272617986,0.33792095033617653,0.0650156802760615,-0.19285217733396542,-0.6089735836271654,-0.05734060980405723,-0.6665427874676045,-2.5946467218002525,-0.0556785748609484,2.5079567375712926,0.8763215298569863,-0.6090851748156966,-0.05753196718556838,-0.666603097082616,-2.5945565370258534,-0.05562143941554,2.507976027223799,0.8763108487046415,8.868282693864755e-05,5.59843984567589e-05,0.00010364371756111878,0.00019081259988996727,0.00010806085870652665,-0.000315872715727012,0.0007794635879828344,0.0,0.0,0.0,0.0,0.0,0.0,0.0,-0.00011159118853121264,-0.00019135738151115217,-6.030961501146681e-05,9.018477439903805e-05,5.713544540839749e-05,1.9289652506415678e-05,-1.0681152344815814e-05,-8.868282693864755e-05,-5.59843984567589e-05,-0.00010364371756111878,-0.00019081259988996727,-0.00010806085870652665,0.000315872715727012,-0.0007794635879828344,-0.03342324495315552,18.328699111938477,-0.9934418201446533,-18.099092483520508,-0.7610984444618225,-2.2552523612976074,0.22830526530742645,0
57,0.2798912525177002,-0.018151462078094482,-18.328699111938477,0.9418671131134033,18.071321487426758,0.7665916085243225,2.2488436698913574,-0.21457235515117645,0.0,0.0,0.0,0.0,0.0,0.0,0.0,0.03098175080547125,0.3507681992681241,0.18293774292330692,0.46158484486322404,0.3380206391298567,0.0647204750483645,-0.1948345115037345,-0.608969964349479,-0.05734060980405723,-0.6665392461906179,-2.5946422827744726,-0.05568237957489555,2.5079574496481154,0.8763200025245299,-0.6090851748156966,-0.05753196718556838,-0.666603097082616,-2.5945565370258534,-0.05562143941554,2.507976027223799,0.8763108487046415,0.00047710047279514407,6.853135401716614e-05,0.00013562745000590887,0.0004448923451807523,-2.457264953132301e-05,0.00019201026483780327,0.0007671711433207737,0.0,0.0,0.0,0.0,0.0,0.0,0.0,-0.00011521046621754127,-0.00019135738151115217,-6.385089199811844e-05,8.57457486191926e-05,6.094015935555197e-05,1.8577575683575986e-05,-9.153819888418901e-06,-0.00047710047279514407,-6.853135401716614e-05,-0.00013562745000590887,-0.0004448923451807523,2.457264953132301e-05,-0.00019201026483780327,-0.0007671711433207737,0.018151462078094482,18.328699111938477,-0.9418671131134033,-18.071321487426758,-0.7665916085243225,-2.2488436698913574,0.21457235515117645,0
58,0.28488588333129883,-0.018151462078094482,-18.328699111938477,0.9418671131134033,18.071321487426758,0.7665916085243225,2.2488436698913574,-0.21457235515117645,0.0,0.0,0.0,0.0,0.0,0.0,0.0,0.03098175080547125,0.3507681992681241,0.18293774292330692,0.46158484486322404,0.3380206391298567,0.0647204750483645,-0.1948345115037345,-0.608969964349479,-0.05734060980405723,-0.6665392461906179,-2.5946422827744726,-0.05568237957489555,2.5079574496481154,0.8763200025245299,-0.6090851748156966,-0.05753196718556838,-0.666603097082616,-2.5945565370258534,-0.05562143941554,2.507976027223799,0.8763108487046415,0.00047710047279514407,6.853135401716614e-05,0.00013562745000590887,0.0004448923451807523,-2.457264953132301e-05,0.00019201026483780327,0.0007671711433207737,0.0,0.0,0.0,0.0,0.0,0.0,0.0,-0.00011521046621754127,-0.00019135738151115217,-6.385089199811844e-05,8.57457486191926e-05,6.094015935555197e-05,1.8577575683575986e-05,-9.153819888418901e-06,-0.00047710047279514407,-6.853135401716614e-05,-0.00013562745000590887,-0.0004448923451807523,2.457264953132301e-05,-0.00019201026483780327,-0.0007671711433207737,0.018151462078094482,18.328699111938477,-0.9418671131134033,-18.071321487426758,-0.7665916085243225,-2.2488436698913574,0.21457235515117645,0
59,0.2898857593536377,0.005652248859405518,-18.304895401000977,0.9418671131134033,18.047517776489258,0.7665916085243225,2.2488436698913574,-0.22098104655742645,0.0,0.0,0.0,0.0,0.0,0.0,0.0,0.034735410779397846,0.3537326312519215,0.18119653201342195,0.456846523473537,0.3380836359562454,0.0648772931620909,-0.19635427265971478,-0.6089716347853342,-0.057342280239912495,-0.6665371400532787,-2.594643358530499,-0.05568132764423069,2.5079574496481154,0.8763207160548949,-0.6090851748156966,-0.05753196718556838,-0.666603097082616,-2.5945565370258534,-0.05562143941554,2.507976027223799,0.8763108487046415,0.00023265268636745627,-7.199343902568895e-06,-0.0005288503437311416,0.000564935133367359,2.0896259710681994e-05,-1.661013729803552e-05,0.0006050875975000053,0.0,0.0,0.0,0.0,0.0,0.0,0.0,-0.00011354003036234683,-0.00018968694565588834,-6.595702933731573e-05,8.682150464567329e-05,5.988822869069238e-05,1.8577575683575986e-05,-9.867350253434104e-06,-0.00023265268636745627,7.199343902568895e-06,0.0005288503437311416,-0.000564935133367359,-2.0896259710681994e-05,1.661013729803552e-05,-0.0006050875975000053,-0.005652248859405518,18.304895401000977,-0.9418671131134033,-18.047517776489258,-0.7665916085243225,-2.2488436698913574,0.22098104655742645,0
60,0.29488682746887207,0.005652248859405518,-18.304895401000977,0.9418671131134033,18.047517776489258,0.7665916085243225,2.2488436698913574,-0.22098104655742645,0.0,0.0,0.0,0.0,0.0,0.0,0.0,0.034735410779397846,0.3537326312519215,0.18119653201342195,0.456846523473537,0.3380836359562454,0.0648772931620909,-0.19635427265971478,-0.6089716347853342,-0.057342280239912495,-0.6665371400532787,-2.594643358530499,-0.05568132764423069,2.5079574496481154,0.8763207160548949,-0.6090851748156966,-0.05753196718556838,-0.666603097082616,-2.5945565370258534,-0.05562143941554,2.507976027223799,0.8763108487046415,0.00023265268636745627,-7.199343902568895e-06,-0.0005288503437311416,0.000564935133367359,2.0896259710681994e-05,-1.661013729803552e-05,0.0006050875975000053,0.0,0.0,0.0,0.0,0.0,0.0,0.0,-0.00011354003036234683,-0.00018968694565588834,-6.595702933731573e-05,8.682150464567329e-05,5.988822869069238e-05,1.8577575683575986e-05,-9.867350253434104e-06,-0.00023265268636745627,7.199343902568895e-06,0.0005288503437311416,-0.000564935133367359,-2.0896259710681994e-05,1.661013729803552e-05,-0.0006050875975000053,-0.005652248859405518,18.304895401000977,-0.9418671131134033,-18.047517776489258,-0.7665916085243225,-2.2488436698913574,0.22098104655742645,0
61,0.29988908767700195,0.005652248859405518,-18.304895401000977,0.9418671131134033,18.099092483520508,0.7491965889930725,2.2424349784851074,-0.17978231608867645,0.0,0.0,0.0,0.0,0.0,0.0,0.0,0.03622885282778526,0.3505904804840206,0.17584926268906192,0.4605947397879851,0.33800475843018174,0.0661581545945175,-0.19650107426420152,-0.6089716347853342,-0.057342280239912495,-0.666539246179169,-2.594644001994495,-0.05567620152958331,2.5079581617249382,0.8763161384181842,-0.6090851748156966,-0.05753196718556838,-0.666603097082616,-2.5945565370258534,-0.05562143941554,2.507976027223799,0.8763108487046415,0.0003384971575772452,-9.476329752724062e-05,0.0008314047151285325,-0.00022057897457436506,0.0004979354635823989,0.00013964739936595194,-0.0014029061020535275,0.0,0.0,0.0,0.0,0.0,0.0,0.0,-0.00011354003036234683,-0.00018968694565588834,-6.385090344696032e-05,8.746496864153741e-05,5.4762114043309384e-05,1.7865498860736295e-05,-5.289713542744323e-06,-0.0003384971575772452,9.476329752724062e-05,-0.0008314047151285325,0.00022057897457436506,-0.0004979354635823989,-0.00013964739936595194,0.0014029061020535275,-0.005652248859405518,18.304895401000977,-0.9418671131134033,-18.099092483520508,-0.7491965889930725,-2.2424349784851074,0.17978231608867645,0
62,0.3048880100250244,0.005652248859405518,-18.304895401000977,0.9418671131134033,18.099092483520508,0.7491965889930725,2.2424349784851074,-0.17978231608867645,0.0,0.0,0.0,0.0,0.0,0.0,0.0,0.03622885282778526,0.3505904804840206,0.17584926268906192,0.4605947397879851,0.33800475843018174,0.0661581545945175,-0.19650107426420152,-0.6089716347853342,-0.057342280239912495,-0.666539246179169,-2.594644001994495,-0.05567620152958331,2.5079581617249382,0.8763161384181842,-0.6090851748156966,-0.05753196718556838,-0.666603097082616,-2.5945565370258534,-0.05562143941554,2.507976027223799,0.8763108487046415,0.0003384971575772452,-9.476329752724062e-05,0.0008314047151285325,-0.00022057897457436506,0.0004979354635823989,0.00013964739936595194,-0.0014029061020535275,0.0,0.0,0.0,0.0,0.0,0.0,0.0,-0.00011354003036234683,-0.00018968694565588834,-6.385090344696032e-05,8.746496864153741e-05,5.4762114043309384e-05,1.7865498860736295e-05,-5.289713542744323e-06,-0.0003384971575772452,9.476329752724062e-05,-0.0008314047151285325,0.00022057897457436506,-0.0004979354635823989,-0.00013964739936595194,0.0014029061020535275,-0.005652248859405518,18.304895401000977,-0.9418671131134033,-18.099092483520508,-0.7491965889930725,-2.2424349784851074,0.17978231608867645,0
63,0.30987048149108887,0.03342324495315552,-18.304895401000977,1.0410492420196533,18.099092483520508,0.7665916085243225,2.2360262870788574,-0.19351522624492645,0.0,0.0,0.0,0.0,0.0,0.0,0.0,0.029321690815697434,0.3536262450990227,0.17060033938643784,0.4588815116589155,0.3375972504368418,0.06525602159247353,-0.1986401593622415,-0.6089735836271654,-0.057342280239912495,-0.6665462034515239,-2.5946446128833305,-0.0556813149637801,2.507958873801761,0.8763176642970906,-0.6090851748156966,-0.05753196718556838,-0.666603097082616,-2.5945565370258534,-0.05562143941554,2.507976027223799,0.8763108487046415,-7.894504384200209e-05,-5.9559448006273725e-05,-0.0010756444586343648,-0.0003174661629846876,-0.00015087075465873632,0.00043997019179895685,0.00011593761938134134,0.0,0.0,0.0,0.0,0.0,0.0,0.0,-0.00011159118853121264,-0.00018968694565588834,-5.6893631092069796e-05,8.80758574770546e-05,5.987554824010005e-05,1.7153422037896604e-05,-6.815592449083141e-06,7.894504384200209e-05,5.9559448006273725e-05,0.0010756444586343648,0.0003174661629846876,0.00015087075465873632,-0.00043997019179895685,-0.00011593761938134134,-0.03342324495315552,18.304895401000977,-1.0410492420196533,-18.099092483520508,-0.7665916085243225,-2.2360262870788574,0.19351522624492645,0
64,0.31488776206970215,0.03342324495315552,-18.304895401000977,1.0410492420196533,18.099092483520508,0.7665916085243225,2.2360262870788574,-0.19351522624492645,0.0,0.0,0.0,0.0,0.0,0.0,0.0,0.029321690815697434,0.3536262450990227,0.17060033938643784,0.4588815116589155,0.3375972504368418,0.06525602159247353,-0.1986401593622415,-0.6089735836271654,-0.057342280239912495,-0.6665462034515239,-2.5946446128833305,-0.0556813149637801,2.507958873801761,0.8763176642970906,-0.6090851748156966,-0.05753196718556838,-0.666603097082616,-2.5945565370258534,-0.05562143941554,2.507976027223799,0.8763108487046415,-7.894504384200209e-05,-5.9559448006273725e-05,-0.0010756444586343648,-0.0003174661629846876,-0.00015087075465873632,0.00043997019179895685,0.00011593761938134134,0.0,0.0,0.0,0.0,0.0,0.0,0.0,-0.00011159118853121264,-0.00018968694565588834,-5.6893631092069796e-05,8.80758574770546e-05,5.987554824010005e-05,1.7153422037896604e-05,-6.815592449083141e-06,7.894504384200209e-05,5.9559448006273725e-05,0.0010756444586343648,0.0003174661629846876,0.00015087075465873632,-0.00043997019179895685,-0.00011593761938134134,-0.03342324495315552,18.304895401000977,-1.0410492420196533,-18.099092483520508,-0.7665916085243225,-2.2360262870788574,0.19351522624492645,0
65,0.31989598274230957,0.03342324495315552,-18.304895401000977,1.0410492420196533,18.071321487426758,0.7610984444618225,2.2488436698913574,-0.22830526530742645,0.0,0.0,0.0,0.0,0.0,0.0,0.0,0.03230491686617622,0.35520706422878223,0.17813871016956914,0.4581893552638917,0.33741133813073354,0.06451575637163014,-0.1984603728368601,-0.6089735836271654,-0.057342280239912495,-0.6665459713740416,-2.594644344962753,-0.05568059364252652,2.5079574496481154,0.8763215284034361,-0.6090851748156966,-0.05753196718556838,-0.666603097082616,-2.5945565370258534,-0.05562143941554,2.507976027223799,0.8763108487046415,0.0006809082598117353,2.387412288928302e-05,-0.0003408988692874548,0.00011877075009369452,7.118567188773396e-05,9.221625382210876e-05,0.001189877886681055,0.0,0.0,0.0,0.0,0.0,0.0,0.0,-0.00011159118853121264,-0.00018968694565588834,-5.712570857441257e-05,8.780793689977529e-05,5.915422698651862e-05,1.8577575683575986e-05,-1.0679698794646697e-05,-0.0006809082598117353,-2.387412288928302e-05,0.0003408988692874548,-0.00011877075009369452,-7.118567188773396e-05,-9.221625382210876e-05,-0.001189877886681055,-0.03342324495315552,18.304895401000977,-1.0410492420196533,-18.071321487426758,-0.7610984444618225,-2.2488436698913574,0.22830526530742645,0
66,0.3248918056488037,0.03342324495315552,-18.304895401000977,1.0410492420196533,18.071321487426758,0.7610984444618225,2.2488436698913574,-0.22830526530742645,0.0,0.0,0.0,0.0,0.0,0.0,0.0,0.03230491686617622,0.35520706422878223,0.17813871016956914,0.4581893552638917,0.33741133813073354,0.06451575637163014,-0.1984603728368601,-0.6089735836271654,-0.057342280239912495,-0.6665459713740416,-2.594644344962753,-0.05568059364252652,2.5079574496481154,0.8763215284034361,-0.6090851748156966,-0.05753196718556838,-0.666603097082616,-2.5945565370258534,-0.05562143941554,2.507976027223799,0.8763108487046415,0.0006809082598117353,2.387412288928302e-05,-0.0003408988692874548,0.00011877075009369452,7.118567188773396e-05,9.221625382210876e-05,0.001189877886681055,0.0,0.0,0.0,0.0,0.0,0.0,0.0,-0.00011159118853121264,-0.00018968694565588834,-5.712570857441257e-05,8.780793689977529e-05,5.915422698651862e-05,1.8577575683575986e-05,-1.0679698794646697e-05,-0.0006809082598117353,-2.387412288928302e-05,0.0003408988692874548,-0.00011877075009369452,-7.118567188773396e-05,-9.221625382210876e-05,-0.001189877886681055,-0.03342324495315552,18.304895401000977,-1.0410492420196533,-18.071321487426758,-0.7610984444618225,-2.2488436698913574,0.22830526530742645,0
67,0.32991719245910645,0.05722695589065552,-18.328699111938477,0.9934418201446533,18.099092483520508,0.7730002999305725,2.2552523612976074,-0.18710653483867645,0.0,0.0,0.0,0.0,0.0,0.0,0.0,0.03252543754662135,0.3498812747379535,0.1834181104367355,0.46013196997950095,0.33760013608620654,0.06493716984583818,-0.19798727505437194,-0.6089752540630207,-0.05734060980405723,-0.6665428654674183,-2.59464484090985,-0.05568310334602465,2.5079567375712926,0.8763169520587539,-0.6090851748156966,-0.05753196718556838,-0.666603097082616,-2.5945565370258534,-0.05562143941554,2.507976027223799,0.8763108487046415,0.0001444794681890848,-2.4674869285672743e-05,0.0014098806833917478,-0.0004012261926212051,-0.0005384948391596796,-0.00014203501051672144,-0.0008437462773137335,0.0,0.0,0.0,0.0,0.0,0.0,0.0,-0.00010992075267590717,-0.00019135738151115217,-6.023161519774778e-05,8.830388399649891e-05,6.166393048465113e-05,1.9289652506415678e-05,-6.103354112441117e-06,-0.0001444794681890848,2.4674869285672743e-05,-0.0014098806833917478,0.0004012261926212051,0.0005384948391596796,0.00014203501051672144,0.0008437462773137335,-0.05722695589065552,18.328699111938477,-0.9934418201446533,-18.099092483520508,-0.7730002999305725,-2.2552523612976074,0.18710653483867645,0
68,0.3349039554595947,0.05722695589065552,-18.328699111938477,0.9934418201446533,18.099092483520508,0.7730002999305725,2.2552523612976074,-0.18710653483867645,0.0,0.0,0.0,0.0,0.0,0.0,0.0,0.03252543754662135,0.3498812747379535,0.1834181104367355,0.46013196997950095,0.33760013608620654,0.06493716984583818,-0.19798727505437194,-0.6089752540630207,-0.05734060980405723,-0.6665428654674183,-2.59464484090985,-0.05568310334602465,2.5079567375712926,0.8763169520587539,-0.6090851748156966,-0.05753196718556838,-0.666603097082616,-2.5945565370258534,-0.05562143941554,2.507976027223799,0.8763108487046415,0.0001444794681890848,-2.4674869285672743e-05,0.0014098806833917478,-0.0004012261926212051,-0.0005384948391596796,-0.00014203501051672144,-0.0008437462773137335,0.0,0.0,0.0,0.0,0.0,0.0,0.0,-0.00010992075267590717,-0.00019135738151115217,-6.023161519774778e-05,8.830388399649891e-05,6.166393048465113e-05,1.9289652506415678e-05,-6.103354112441117e-06,-0.0001444794681890848,2.4674869285672743e-05,-0.0014098806833917478,0.0004012261926212051,0.0005384948391596796,0.00014203501051672144,0.0008437462773137335,-0.05722695589065552,18.328699111938477,-0.9934418201446533,-18.099092483520508,-0.7730002999305725,-2.2552523612976074,0.18710653483867645,0
69,0.33988451957702637,0.05722695589065552,-18.328699111938477,0.9934418201446533,18.099092483520508,0.7730002999305725,2.2552523612976074,-0.18710653483867645,0.0,0.0,0.0,0.0,0.0,0.0,0.0,0.03252543754662135,0.3498812747379535,0.1834181104367355,0.46013196997950095,0.33760013608620654,0.06493716984583818,-0.19798727505437194,-0.6089752540630207,-0.05734060980405723,-0.6665428654674183,-2.59464484090985,-0.05568310334602465,2.5079567375712926,0.8763169520587539,-0.6090851748156966,-0.05753196718556838,-0.666603097082616,-2.5945565370258534,-0.05562143941554,2.507976027223799,0.8763108487046415,0.0001444794681890848,-2.4674869285672743e-05,0.0014098806833917478,-0.0004012261926212051,-0.0005384948391596796,-0.00014203501051672144,-0.0008437462773137335,0.0,0.0,0.0,0.0,0.0,0.0,0.0,-0.00010992075267590717,-0.00019135738151115217,-6.023161519774778e-05,8.830388399649891e-05,6.166393048465113e-05,1.9289652506415678e-05,-6.103354112441117e-06,-0.0001444794681890848,2.4674869285672743e-05,-0.0014098806833917478,0.0004012261926212051,0.0005384948391596796,0.00014203501051672144,0.0008437462773137335,-0.05722695589065552,18.328699111938477,-0.9934418201446533,-18.099092483520508,-0.7730002999305725,-2.2552523612976074,0.18710653483867645,0
70,0.34488534927368164,0.05722695589065552,-18.328699111938477,0.9934418201446533,18.099092483520508,0.7730002999305725,2.2552523612976074,-0.18710653483867645,0.0,0.0,0.0,0.0,0.0,0.0,0.0,0.03252543754662135,0.3498812747379535,0.1834181104367355,0.46013196997950095,0.33760013608620654,0.06493716984583818,-0.19798727505437194,-0.6089752540630207,-0.05734060980405723,-0.6665428654674183,-2.59464484090985,-0.05568310334602465,2.5079567375712926,0.8763169520587539,-0.6090851748156966,-0.05753196718556838,-0.666603097082616,-2.5945565370258534,-0.05562143941554,2.507976027223799,0.8763108487046415,0.0001444794681890848,-2.4674869285672743e-05,0.0014098806833917478,-0.0004012261926212051,-0.0005384948391596796,-0.00014203501051672144,-0.0008437462773137335,0.0,0.0,0.0,0.0,0.0,0.0,0.0,-0.00010992075267590717,-0.00019135738151115217,-6.023161519774778e-05,8.830388399649891e-05,6.166393048465113e-05,1.9289652506415678e-05,-6.103354112441117e-06,-0.0001444794681890848,2.4674869285672743e-05,-0.0014098806833917478,0.0004012261926212051,0.0005384948391596796,0.00014203501051672144,0.0008437462773137335,-0.05722695589065552,18.328699111938477,-0.9934418201446533,-18.099092483520508,-0.7730002999305725,-2.2552523612976074,0.18710653483867645,0
71,0.3498969078063965,0.08103066682815552,-18.328699111938477,1.0172455310821533,18.099092483520508,0.7546897530555725,2.2296175956726074,-0.21457235515117645,0.0,0.0,0.0,0.0,0.0,0.0,0.0,0.028610812312900174,0.3513124720257433,0.18144154901915588,0.45872233392035344,0.33813381722563,0.06486535255202609,-0.19790683909107204,-0.608976924498876,-0.05734060980405723,-0.6665445359045999,-2.5946467539272025,-0.05568107014561965,2.507959585878584,0.8763200024706937,-0.6090851748156966,-0.05753196718556838,-0.666603097082616,-2.5945565370258534,-0.05562143941554,2.507976027223799,0.8763108487046415,-0.001232591919695656,0.00018652571365205934,-9.697883842057737e-05,-0.00020775344524522922,0.00021312286303521312,0.0007522797731502256,0.0012991125170929666,0.0,0.0,0.0,0.0,0.0,0.0,0.0,-0.00010825031682060171,-0.00019135738151115217,-5.856117801605887e-05,9.021690134902727e-05,5.963073007964753e-05,1.6441345215056913e-05,-9.153766052261147e-06,0.001232591919695656,-0.00018652571365205934,9.697883842057737e-05,0.00020775344524522922,-0.00021312286303521312,-0.0007522797731502256,-0.0012991125170929666,-0.08103066682815552,18.328699111938477,-1.0172455310821533,-18.099092483520508,-0.7546897530555725,-2.2296175956726074,0.21457235515117645,0
72,0.3548884391784668,0.08103066682815552,-18.328699111938477,1.0172455310821533,18.099092483520508,0.7546897530555725,2.2296175956726074,-0.21457235515117645,0.0,0.0,0.0,0.0,0.0,0.0,0.0,0.028610812312900174,0.3513124720257433,0.18144154901915588,0.45872233392035344,0.33813381722563,0.06486535255202609,-0.19790683909107204,-0.608976924498876,-0.05734060980405723,-0.6665445359045999,-2.5946467539272025,-0.05568107014561965,2.507959585878584,0.8763200024706937,-0.6090851748156966,-0.05753196718556838,-0.666603097082616,-2.5945565370258534,-0.05562143941554,2.507976027223799,0.8763108487046415,-0.001232591919695656,0.00018652571365205934,-9.697883842057737e-05,-0.00020775344524522922,0.00021312286303521312,0.0007522797731502256,0.0012991125170929666,0.0,0.0,0.0,0.0,0.0,0.0,0.0,-0.00010825031682060171,-0.00019135738151115217,-5.856117801605887e-05,9.021690134902727e-05,5.963073007964753e-05,1.6441345215056913e-05,-9.153766052261147e-06,0.001232591919695656,-0.00018652571365205934,9.697883842057737e-05,0.00020775344524522922,-0.00021312286303521312,-0.0007522797731502256,-0.0012991125170929666,-0.08103066682815552,18.328699111938477,-1.0172455310821533,-18.099092483520508,-0.7546897530555725,-2.2296175956726074,0.21457235515117645,0
73,0.35988306999206543,0.005652248859405518,-18.304895401000977,0.9934418201446533,18.099092483520508,0.7610984444618225,2.2424349784851074,-0.22830526530742645,0.0,0.0,0.0,0.0,0.0,0.0,0.0,0.03531997936130163,0.35345379820714995,0.1879421223106305,0.45860080627018035,0.33739885435354156,0.0644237920940608,-0.19660210392795352,-0.6089716347853342,-0.057342280239912495,-0.6665428654687446,-2.5946439934199765,-0.05568070463625563,2.5079581617249382,0.8763215298569779,-0.6090851748156966,-0.05753196718556838,-0.666603097082616,-2.5945565370258534,-0.05562143941554,2.507976027223799,0.8763108487046415,0.0009457034410294029,9.422290602957575e-05,-0.00018408485360043577,-0.00047085317104750865,-2.803063334784416e-05,0.0002423579434861137,0.0008554774660581216,0.0,0.0,0.0,0.0,0.0,0.0,0.0,-0.00011354003036234683,-0.00018968694565588834,-6.023161387136433e-05,8.74563941231088e-05,5.926522071562912e-05,1.7865498860736295e-05,-1.0681152336378119e-05,-0.0009457034410294029,-9.422290602957575e-05,0.00018408485360043577,0.00047085317104750865,2.803063334784416e-05,-0.0002423579434861137,-0.0008554774660581216,-0.005652248859405518,18.304895401000977,-0.9934418201446533,-18.099092483520508,-0.7610984444618225,-2.2424349784851074,0.22830526530742645,0
74,0.3648831844329834,0.005652248859405518,-18.304895401000977,0.9934418201446533,18.099092483520508,0.7610984444618225,2.2424349784851074,-0.22830526530742645,0.0,0.0,0.0,0.0,0.0,0.0,0.0,0.03531997936130163,0.35345379820714995,0.1879421223106305,0.45860080627018035,0.33739885435354156,0.0644237920940608,-0.19660210392795352,-0.6089716347853342,-0.057342280239912495,-0.6665428654687446,-2.5946439934199765,-0.05568070463625563,2.5079581617249382,0.8763215298569779,-0.6090851748156966,-0.05753196718556838,-0.666603097082616,-2.5945565370258534,-0.05562143941554,2.507976027223799,0.8763108487046415,0.0009457034410294029,9.422290602957575e-05,-0.00018408485360043577,-0.00047085317104750865,-2.803063334784416e-05,0.0002423579434861137,0.0008554774660581216,0.0,0.0,0.0,0.0,0.0,0.0,0.0,-0.00011354003036234683,-0.00018968694565588834,-6.023161387136433e-05,8.74563941231088e-05,5.926522071562912e-05,1.7865498860736295e-05,-1.0681152336378119e-05,-0.0009457034410294029,-9.422290602957575e-05,0.00018408485360043577,0.00047085317104750865,2.803063334784416e-05,-0.0002423579434861137,-0.0008554774660581216,-0.005652248859405518,18.304895401000977,-0.9934418201446533,-18.099092483520508,-0.7610984444618225,-2.2424349784851074,0.22830526530742645,0
75,0.36988162994384766,0.05722695589065552,-18.328699111938477,0.9696381092071533,18.047517776489258,0.7610984444618225,2.2552523612976074,-0.18710653483867645,0.0,0.0,0.0,0.0,0.0,0.0,0.0,0.03836411248351716,0.35569293420916387,0.1873957043913542,0.45644766769096257,0.33689140548108,0.06380740175194771,-0.19758400906694132,-0.6089752540630207,-0.05734060980405723,-0.6665390890021072,-2.5946433579342756,-0.05567858266753775,2.5079567375712926,0.8763169520587621,-0.6090851748156966,-0.05753196718556838,-0.666603097082616,-2.5945565370258534,-0.05562143941554,2.507976027223799,0.8763108487046415,-0.0005512315586718585,0.0005506592863110336,2.803503147831651e-06,0.0005687189819574313,0.00019967124357194327,-0.000340037839524818,-0.0008277699266727307,0.0,0.0,0.0,0.0,0.0,0.0,0.0,-0.00010992075267590717,-0.00019135738151115217,-6.40080805087706e-05,8.682090842215828e-05,5.714325199775161e-05,1.9289652506415678e-05,-6.103354120656768e-06,0.0005512315586718585,-0.0005506592863110336,-2.803503147831651e-06,-0.0005687189819574313,-0.00019967124357194327,0.000340037839524818,0.0008277699266727307,-0.05722695589065552,18.328699111938477,-0.9696381092071533,-18.047517776489258,-0.7610984444618225,-2.2552523612976074,0.18710653483867645,0
76,0.37488555908203125,0.05722695589065552,-18.328699111938477,0.9696381092071533,18.047517776489258,0.7610984444618225,2.2552523612976074,-0.18710653483867645,0.0,0.0,0.0,0.0,0.0,0.0,0.0,0.03836411248351716,0.35569293420916387,0.1873957043913542,0.45644766769096257,0.33689140548108,0.06380740175194771,-0.19758400906694132,-0.6089752540630207,-0.05734060980405723,-0.6665390890021072,-2.5946433579342756,-0.05567858266753775,2.5079567375712926,0.8763169520587621,-0.6090851748156966,-0.05753196718556838,-0.666603097082616,-2.5945565370258534,-0.05562143941554,2.507976027223799,0.8763108487046415,-0.0005512315586718585,0.0005506592863110336,2.803503147831651e-06,0.0005687189819574313,0.00019967124357194327,-0.000340037839524818,-0.0008277699266727307,0.0,0.0,0.0,0.0,0.0,0.0,0.0,-0.00010992075267590717,-0.00019135738151115217,-6.40080805087706e-05,8.682090842215828e-05,5.714325199775161e-05,1.9289652506415678e-05,-6.103354120656768e-06,0.0005512315586718585,-0.0005506592863110336,-2.803503147831651e-06,-0.0005687189819574313,-0.00019967124357194327,0.000340037839524818,0.0008277699266727307,-0.05722695589065552,18.328699111938477,-0.9696381092071533,-18.047517776489258,-0.7610984444618225,-2.2552523612976074,0.18710653483867645,0
77,0.37988758087158203,0.08103066682815552,-18.328699111938477,0.9934418201446533,18.099092483520508,0.7610984444618225,2.2488436698913574,-0.21457235515117645,0.0,0.0,0.0,0.0,0.0,0.0,0.0,0.03485622473296995,0.3522188042894053,0.17900555258063816,0.45933334232648637,0.3376942353923054,0.06405367116338732,-0.19811047588052827,-0.608976924498876,-0.05734060980405723,-0.6665419034427951,-2.5946440019245056,-0.055680585787853794,2.5079574496481154,0.8763168250636911,-0.6090851748156966,-0.05753196718556838,-0.666603097082616,-2.5945565370258534,-0.05562143941554,2.507976027223799,0.8763108487046415,-0.0017200294976887063,0.0002341301736207291,-0.0007690930342719044,-0.0005250927937494068,0.00025538377548355517,-1.0294360649764911e-05,0.0010985571217502113,0.0,0.0,0.0,0.0,0.0,0.0,0.0,-0.00010825031682060171,-0.00019135738151115217,-6.11936398209334e-05,8.746489865218976e-05,5.914637231379388e-05,1.8577575683575986e-05,-5.976359049641999e-06,0.0017200294976887063,-0.0002341301736207291,0.0007690930342719044,0.0005250927937494068,-0.00025538377548355517,1.0294360649764911e-05,-0.0010985571217502113,-0.08103066682815552,18.328699111938477,-0.9934418201446533,-18.099092483520508,-0.7610984444618225,-2.2488436698913574,0.21457235515117645,0
78,0.3848865032196045,0.08103066682815552,-18.328699111938477,0.9934418201446533,18.099092483520508,0.7610984444618225,2.2488436698913574,-0.21457235515117645,0.0,0.0,0.0,0.0,0.0,0.0,0.0,0.03485622473296995,0.3522188042894053,0.17900555258063816,0.45933334232648637,0.3376942353923054,0.06405367116338732,-0.19811047588052827,-0.608976924498876,-0.05734060980405723,-0.6665419034427951,-2.5946440019245056,-0.055680585787853794,2.5079574496481154,0.8763168250636911,-0.6090851748156966,-0.05753196718556838,-0.666603097082616,-2.5945565370258534,-0.05562143941554,2.507976027223799,0.8763108487046415,-0.0017200294976887063,0.0002341301736207291,-0.0007690930342719044,-0.0005250927937494068,0.00025538377548355517,-1.0294360649764911e-05,0.0010985571217502113,0.0,0.0,0.0,0.0,0.0,0.0,0.0,-0.00010825031682060171,-0.00019135738151115217,-6.11936398209334e-05,8.746489865218976e-05,5.914637231379388e-05,1.8577575683575986e-05,-5.976359049641999e-06,0.0017200294976887063,-0.0002341301736207291,0.0007690930342719044,0.0005250927937494068,-0.00025538377548355517,1.0294360649764911e-05,-0.0010985571217502113,-0.08103066682815552,18.328699111938477,-0.9934418201446533,-18.099092483520508,-0.7610984444618225,-2.2488436698913574,0.21457235515117645,0
79,0.38988232612609863,0.03342324495315552,-18.328699111938477,0.9934418201446533,18.023714065551758,0.7610984444618225,2.2552523612976074,-0.20724813640117645,0.0,0.0,0.0,0.0,0.0,0.0,0.0,0.03700241055936698,0.35517822392083764,0.179884956304781,0.45229985708740716,0.33795017062732413,0.06284098674365914,-0.19747063033122395,-0.6089735836271654,-0.05734060980405723,-0.6665426311032355,-2.594639601993027,-0.0556814275095643,2.5079567375712926,0.876318836945342,-0.6090851748156966,-0.05753196718556838,-0.666603097082616,-2.5945565370258534,-0.05562143941554,2.507976027223799,0.8763108487046415,2.420464832027808e-05,0.00028613405305887187,-0.0004815861759146249,0.0008232019191846833,4.285772702368837e-05,-0.00026287955235791867,-0.00012915572685908076,0.0,0.0,0.0,0.0,0.0,0.0,0.0,-0.00011159118853121264,-0.00019135738151115217,-6.0465979380475154e-05,8.3064967173474e-05,5.9988094024299166e-05,1.9289652506415678e-05,-7.988240700473881e-06,-2.420464832027808e-05,-0.00028613405305887187,0.0004815861759146249,-0.0008232019191846833,-4.285772702368837e-05,0.00026287955235791867,0.00012915572685908076,-0.03342324495315552,18.328699111938477,-0.9934418201446533,-18.023714065551758,-0.7610984444618225,-2.2552523612976074,0.20724813640117645,0
