rezayati/contactInterpretation/dataset/franka_main/labeled_data/link4/d8_7.csv
index,time,tau_J0,tau_J1,tau_J2,tau_J3,tau_J4,tau_J5,tau_J6,tau_J_d0,tau_J_d1,tau_J_d2,tau_J_d3,tau_J_d4,tau_J_d5,tau_J_d6,tau_ext0,tau_ext1,tau_ext2,tau_ext3,tau_ext4,tau_ext5,tau_ext6,q0,q1,q2,q3,q4,q5,q6,q_d0,q_d1,q_d2,q_d3,q_d4,q_d5,q_d6,dq0,dq1,dq2,dq3,dq4,dq5,dq6,dq_d0,dq_d1,dq_d2,dq_d3,dq_d4,dq_d5,dq_d6,e0,e1,e2,e3,e4,e5,e6,de0,de1,de2,de3,de4,de5,de6,etau_J0,etau_J1,etau_J2,etau_J3,etau_J4,etau_J5,etau_J6,label
1,0.0,-0.14510458707809448,-12.072290420532227,1.3147919178009033,21.717256546020508,0.3738303780555725,2.5335726737976074,-0.21457235515117645,0.0,0.0,0.0,0.0,0.0,0.0,0.0,-0.16005672061552556,0.33867582208831487,0.11799653912251776,0.45468639420992313,-0.15969291401364866,0.12637009718401337,-0.20979904862727886,0.1728326417771879,-0.4875308100647158,-0.11140174974685783,-1.946698116018061,0.13361098865888643,2.595549647702111,0.9452484245217508,0.1728802376190821,-0.48752024683155326,-0.11147110072896137,-1.9463801863486305,0.1336059019074957,2.595550359778934,0.9452445589611904,-0.0005609197033441221,0.0018156413122042473,2.0859748311779632e-05,0.0009799328254164242,7.831004909380065e-05,-0.00029272465259520656,0.0008435142781884073,0.0,0.0,0.0,0.0,0.0,0.0,0.0,4.759584189420463e-05,1.0563233162563801e-05,-6.935098210353319e-05,0.0003179296694304501,-5.086751390742661e-06,7.120768228396912e-07,-3.865560560423198e-06,0.0005609197033441221,-0.0018156413122042473,-2.0859748311779632e-05,-0.0009799328254164242,-7.831004909380065e-05,0.00029272465259520656,-0.0008435142781884073,0.14510458707809448,12.072290420532227,-1.3147919178009033,-21.717256546020508,-0.3738303780555725,-2.5335726737976074,0.21457235515117645,0
2,0.004996776580810547,-0.14510458707809448,-12.072290420532227,1.3147919178009033,21.717256546020508,0.3738303780555725,2.5335726737976074,-0.21457235515117645,0.0,0.0,0.0,0.0,0.0,0.0,0.0,-0.16005672061552556,0.33867582208831487,0.11799653912251776,0.45468639420992313,-0.15969291401364866,0.12637009718401337,-0.20979904862727886,0.1728326417771879,-0.4875308100647158,-0.11140174974685783,-1.946698116018061,0.13361098865888643,2.595549647702111,0.9452484245217508,0.1728802376190821,-0.48752024683155326,-0.11147110072896137,-1.9463801863486305,0.1336059019074957,2.595550359778934,0.9452445589611904,-0.0005609197033441221,0.0018156413122042473,2.0859748311779632e-05,0.0009799328254164242,7.831004909380065e-05,-0.00029272465259520656,0.0008435142781884073,0.0,0.0,0.0,0.0,0.0,0.0,0.0,4.759584189420463e-05,1.0563233162563801e-05,-6.935098210353319e-05,0.0003179296694304501,-5.086751390742661e-06,7.120768228396912e-07,-3.865560560423198e-06,0.0005609197033441221,-0.0018156413122042473,-2.0859748311779632e-05,-0.0009799328254164242,-7.831004909380065e-05,0.00029272465259520656,-0.0008435142781884073,0.14510458707809448,12.072290420532227,-1.3147919178009033,-21.717256546020508,-0.3738303780555725,-2.5335726737976074,0.21457235515117645,0
3,0.009996652603149414,-0.22445029020309448,-12.048486709594727,1.2909882068634033,21.717256546020508,0.3793235421180725,2.5271639823913574,-0.22830526530742645,0.0,0.0,0.0,0.0,0.0,0.0,0.0,-0.1632101849107155,0.32618617502066516,0.11855092334456989,0.4583092373849045,-0.15969037075576534,0.12712768209710687,-0.21027536533269744,0.17283857831002583,-0.48753256716713406,-0.11140007941949759,-1.946698116018061,0.13361073372560772,2.595550359778934,0.9452499504006571,0.1728802376190821,-0.48752024683155326,-0.11147110072896137,-1.9463801863486305,0.1336059019074957,2.595550359778934,0.9452445589611904,0.0009978509200037004,0.0006813214169244043,0.0005137332569159951,0.0007440324095362085,-0.00015667242307458435,3.705393119853389e-05,0.0013723525234754462,0.0,0.0,0.0,0.0,0.0,0.0,0.0,4.1659309056280014e-05,1.2320335580795483e-05,-7.102130946377849e-05,0.0003179296694304501,-4.831818112033259e-06,0.0,-5.3914394666509935e-06,-0.0009978509200037004,-0.0006813214169244043,-0.0005137332569159951,-0.0007440324095362085,0.00015667242307458435,-3.705393119853389e-05,-0.0013723525234754462,0.22445029020309448,12.048486709594727,-1.2909882068634033,-21.717256546020508,-0.3793235421180725,-2.5271639823913574,0.22830526530742645,0
4,0.014995098114013672,-0.22445029020309448,-12.048486709594727,1.2909882068634033,21.717256546020508,0.3793235421180725,2.5271639823913574,-0.22830526530742645,0.0,0.0,0.0,0.0,0.0,0.0,0.0,-0.1632101849107155,0.32618617502066516,0.11855092334456989,0.4583092373849045,-0.15969037075576534,0.12712768209710687,-0.21027536533269744,0.17283857831002583,-0.48753256716713406,-0.11140007941949759,-1.946698116018061,0.13361073372560772,2.595550359778934,0.9452499504006571,0.1728802376190821,-0.48752024683155326,-0.11147110072896137,-1.9463801863486305,0.1336059019074957,2.595550359778934,0.9452445589611904,0.0009978509200037004,0.0006813214169244043,0.0005137332569159951,0.0007440324095362085,-0.00015667242307458435,3.705393119853389e-05,0.0013723525234754462,0.0,0.0,0.0,0.0,0.0,0.0,0.0,4.1659309056280014e-05,1.2320335580795483e-05,-7.102130946377849e-05,0.0003179296694304501,-4.831818112033259e-06,0.0,-5.3914394666509935e-06,-0.0009978509200037004,-0.0006813214169244043,-0.0005137332569159951,-0.0007440324095362085,0.00015667242307458435,-3.705393119853389e-05,-0.0013723525234754462,0.22445029020309448,12.048486709594727,-1.2909882068634033,-21.717256546020508,-0.3793235421180725,-2.5271639823913574,0.22830526530742645,0
5,0.019994020462036133,-0.17287558317184448,-12.024682998657227,1.2909882068634033,21.741060256958008,0.3738303780555725,2.5271639823913574,-0.22830526530742645,0.0,0.0,0.0,0.0,0.0,0.0,0.0,-0.15966887818744982,0.33686211431628144,0.12719278288806635,0.4498263310184472,-0.1603963763274472,0.12599154221323197,-0.21084945451524065,0.17283425821391624,-0.4875341522195145,-0.11140007931098664,-1.9466998129448696,0.13361134407917655,2.5955503466969816,0.9452499504006571,0.1728802376190821,-0.48752024683155326,-0.11147110072896137,-1.9463801863486305,0.1336059019074957,2.595550359778934,0.9452445589611904,0.0004806790120591618,0.0004986811071734395,0.0006447986977156988,2.1627276232735072e-05,0.00010183595562549232,-1.2583369883129013e-05,0.0008663694118067939,0.0,0.0,0.0,0.0,0.0,0.0,0.0,4.597940516587462e-05,1.3905387961254956e-05,-7.102141797472872e-05,0.0003196265962390754,-5.442171680858365e-06,1.3081952410232134e-08,-5.3914394666509935e-06,-0.0004806790120591618,-0.0004986811071734395,-0.0006447986977156988,-2.1627276232735072e-05,-0.00010183595562549232,1.2583369883129013e-05,-0.0008663694118067939,0.17287558317184448,12.024682998657227,-1.2909882068634033,-21.741060256958008,-0.3738303780555725,-2.5271639823913574,0.22830526530742645,0
6,0.02499675750732422,-0.17287558317184448,-12.024682998657227,1.2909882068634033,21.741060256958008,0.3738303780555725,2.5271639823913574,-0.22830526530742645,0.0,0.0,0.0,0.0,0.0,0.0,0.0,-0.15966887818744982,0.33686211431628144,0.12719278288806635,0.4498263310184472,-0.1603963763274472,0.12599154221323197,-0.21084945451524065,0.17283425821391624,-0.4875341522195145,-0.11140007931098664,-1.9466998129448696,0.13361134407917655,2.5955503466969816,0.9452499504006571,0.1728802376190821,-0.48752024683155326,-0.11147110072896137,-1.9463801863486305,0.1336059019074957,2.595550359778934,0.9452445589611904,0.0004806790120591618,0.0004986811071734395,0.0006447986977156988,2.1627276232735072e-05,0.00010183595562549232,-1.2583369883129013e-05,0.0008663694118067939,0.0,0.0,0.0,0.0,0.0,0.0,0.0,4.597940516587462e-05,1.3905387961254956e-05,-7.102141797472872e-05,0.0003196265962390754,-5.442171680858365e-06,1.3081952410232134e-08,-5.3914394666509935e-06,-0.0004806790120591618,-0.0004986811071734395,-0.0006447986977156988,-2.1627276232735072e-05,-0.00010183595562549232,1.2583369883129013e-05,-0.0008663694118067939,0.17287558317184448,12.024682998657227,-1.2909882068634033,-21.741060256958008,-0.3738303780555725,-2.5271639823913574,0.22830526530742645,0
7,0.03061079978942871,-0.09352988004684448,-12.000879287719727,1.3425629138946533,21.768831253051758,0.3674216866493225,2.5335726737976074,-0.17978231608867645,0.0,0.0,0.0,0.0,0.0,0.0,0.0,-0.15662527220075173,0.3375032077556778,0.12777808112586606,0.45051170679072755,-0.16037049490202718,0.125758913240309,-0.21171656800912528,0.17282868130585163,-0.48753582523471034,-0.1114037249690392,-1.9467017352957972,0.13361205615599947,2.5955496477020867,0.945244558961855,0.1728802376190821,-0.48752024683155326,-0.11147110072896137,-1.9463801863486305,0.1336059019074957,2.595550359778934,0.9452445589611904,-0.0008084639373296656,0.0008012348813871111,-0.00014589019330360937,-0.00017443288260542288,0.0002360275525303733,-0.0003739285735891497,-0.0006511566987968204,0.0,0.0,0.0,0.0,0.0,0.0,0.0,5.155631323047749e-05,1.5578403157079368e-05,-6.737575992216138e-05,0.00032154894716662774,-6.154248503781323e-06,7.120768472645977e-07,-6.645795025406187e-13,0.0008084639373296656,-0.0008012348813871111,0.00014589019330360937,0.00017443288260542288,-0.0002360275525303733,0.0003739285735891497,0.0006511566987968204,0.09352988004684448,12.000879287719727,-1.3425629138946533,-21.768831253051758,-0.3674216866493225,-2.5335726737976074,0.17978231608867645,0
8,0.03501605987548828,-0.09352988004684448,-12.000879287719727,1.3425629138946533,21.768831253051758,0.3674216866493225,2.5335726737976074,-0.17978231608867645,0.0,0.0,0.0,0.0,0.0,0.0,0.0,-0.15662527220075173,0.3375032077556778,0.12777808112586606,0.45051170679072755,-0.16037049490202718,0.125758913240309,-0.21171656800912528,0.17282868130585163,-0.48753582523471034,-0.1114037249690392,-1.9467017352957972,0.13361205615599947,2.5955496477020867,0.945244558961855,0.1728802376190821,-0.48752024683155326,-0.11147110072896137,-1.9463801863486305,0.1336059019074957,2.595550359778934,0.9452445589611904,-0.0008084639373296656,0.0008012348813871111,-0.00014589019330360937,-0.00017443288260542288,0.0002360275525303733,-0.0003739285735891497,-0.0006511566987968204,0.0,0.0,0.0,0.0,0.0,0.0,0.0,5.155631323047749e-05,1.5578403157079368e-05,-6.737575992216138e-05,0.00032154894716662774,-6.154248503781323e-06,7.120768472645977e-07,-6.645795025406187e-13,0.0008084639373296656,-0.0008012348813871111,0.00014589019330360937,0.00017443288260542288,-0.0002360275525303733,0.0003739285735891497,0.0006511566987968204,0.09352988004684448,12.000879287719727,-1.3425629138946533,-21.768831253051758,-0.3674216866493225,-2.5335726737976074,0.17978231608867645,0
9,0.04002499580383301,-0.14510458707809448,-11.901697158813477,1.2909882068634033,21.792634963989258,0.3674216866493225,2.5143465995788574,-0.15964071452617645,0.0,0.0,0.0,0.0,0.0,0.0,0.0,-0.15789047124378028,0.3442795595379761,0.12041659963404373,0.4503492688446546,-0.15992157874684698,0.12547802563522426,-0.21107977334724648,0.17283230980010678,-0.4875456012597603,-0.11140007931113495,-1.9467034057316026,0.13361205615599947,2.5955517839325797,0.9452423210061258,0.1728802376190821,-0.48752024683155326,-0.11147110072896137,-1.9463801863486305,0.1336059019074957,2.595550359778934,0.9452445589611904,-1.9543272621847317e-05,-0.0012436714542808727,0.0011179486718754079,-0.0013244839047959326,0.00018430119135537222,0.00021187225369348294,-0.0019493201385838248,0.0,0.0,0.0,0.0,0.0,0.0,0.0,4.792781897533516e-05,2.5354428207058355e-05,-7.10214178264168e-05,0.0003232193829720842,-6.154248503781323e-06,-1.4241536456793824e-06,2.2379550645990065e-06,1.9543272621847317e-05,0.0012436714542808727,-0.0011179486718754079,0.0013244839047959326,-0.00018430119135537222,-0.00021187225369348294,0.0019493201385838248,0.14510458707809448,11.901697158813477,-1.2909882068634033,-21.792634963989258,-0.3674216866493225,-2.5143465995788574,0.15964071452617645,0
10,0.045023441314697266,-0.14510458707809448,-11.901697158813477,1.2909882068634033,21.792634963989258,0.3674216866493225,2.5143465995788574,-0.15964071452617645,0.0,0.0,0.0,0.0,0.0,0.0,0.0,-0.15789047124378028,0.3442795595379761,0.12041659963404373,0.4503492688446546,-0.15992157874684698,0.12547802563522426,-0.21107977334724648,0.17283230980010678,-0.4875456012597603,-0.11140007931113495,-1.9467034057316026,0.13361205615599947,2.5955517839325797,0.9452423210061258,0.1728802376190821,-0.48752024683155326,-0.11147110072896137,-1.9463801863486305,0.1336059019074957,2.595550359778934,0.9452445589611904,-1.9543272621847317e-05,-0.0012436714542808727,0.0011179486718754079,-0.0013244839047959326,0.00018430119135537222,0.00021187225369348294,-0.0019493201385838248,0.0,0.0,0.0,0.0,0.0,0.0,0.0,4.792781897533516e-05,2.5354428207058355e-05,-7.10214178264168e-05,0.0003232193829720842,-6.154248503781323e-06,-1.4241536456793824e-06,2.2379550645990065e-06,1.9543272621847317e-05,0.0012436714542808727,-0.0011179486718754079,0.0013244839047959326,-0.00018430119135537222,-0.00021187225369348294,0.0019493201385838248,0.14510458707809448,11.901697158813477,-1.2909882068634033,-21.792634963989258,-0.3674216866493225,-2.5143465995788574,0.15964071452617645,0
11,0.04999971389770508,-0.12130087614059448,-11.949304580688477,1.2671844959259033,21.768831253051758,0.3674216866493225,2.5143465995788574,-0.16604940593242645,0.0,0.0,0.0,0.0,0.0,0.0,0.0,-0.15824647648315926,0.3389435718662717,0.11936871309495575,0.4600854457821437,-0.16000450254605564,0.12672624587952627,-0.2107055379772376,0.17283063014771827,-0.4875402592306632,-0.11139840887513076,-1.9467017353320861,0.13361205615599947,2.5955517839325797,0.9452430330829488,0.1728802376190821,-0.48752024683155326,-0.11147110072896137,-1.9463801863486305,0.1336059019074957,2.595550359778934,0.9452445589611904,-0.001095550018200048,0.00016716169027507712,0.0012436743285130028,-0.0004082541457417695,0.0001502420962977897,0.00022074700896825613,-0.0015854191944009125,0.0,0.0,0.0,0.0,0.0,0.0,0.0,4.9607471363843914e-05,2.001239910992547e-05,-7.269185383060317e-05,0.00032154898345559957,-6.154248503781323e-06,-1.4241536456793824e-06,1.525878241648293e-06,0.001095550018200048,-0.00016716169027507712,-0.0012436743285130028,0.0004082541457417695,-0.0001502420962977897,-0.00022074700896825613,0.0015854191944009125,0.12130087614059448,11.949304580688477,-1.2671844959259033,-21.768831253051758,-0.3674216866493225,-2.5143465995788574,0.16604940593242645,0
12,0.05499577522277832,-0.12130087614059448,-11.949304580688477,1.2671844959259033,21.768831253051758,0.3674216866493225,2.5143465995788574,-0.16604940593242645,0.0,0.0,0.0,0.0,0.0,0.0,0.0,-0.15824647648315926,0.3389435718662717,0.11936871309495575,0.4600854457821437,-0.16000450254605564,0.12672624587952627,-0.2107055379772376,0.17283063014771827,-0.4875402592306632,-0.11139840887513076,-1.9467017353320861,0.13361205615599947,2.5955517839325797,0.9452430330829488,0.1728802376190821,-0.48752024683155326,-0.11147110072896137,-1.9463801863486305,0.1336059019074957,2.595550359778934,0.9452445589611904,-0.001095550018200048,0.00016716169027507712,0.0012436743285130028,-0.0004082541457417695,0.0001502420962977897,0.00022074700896825613,-0.0015854191944009125,0.0,0.0,0.0,0.0,0.0,0.0,0.0,4.9607471363843914e-05,2.001239910992547e-05,-7.269185383060317e-05,0.00032154898345559957,-6.154248503781323e-06,-1.4241536456793824e-06,1.525878241648293e-06,0.001095550018200048,-0.00016716169027507712,-0.0012436743285130028,0.0004082541457417695,-0.0001502420962977897,-0.00022074700896825613,0.0015854191944009125,0.12130087614059448,11.949304580688477,-1.2671844959259033,-21.768831253051758,-0.3674216866493225,-2.5143465995788574,0.16604940593242645,0
13,0.059995174407958984,-0.19667929410934448,-11.949304580688477,1.2671844959259033,21.768831253051758,0.3738303780555725,2.5207552909851074,-0.15964071452617645,0.0,0.0,0.0,0.0,0.0,0.0,0.0,-0.15766940247562586,0.35003958867355217,0.12015737936113904,0.4586880764850521,-0.16061023868493637,0.1256420339228935,-0.21103194217736496,0.17283602613995672,-0.4875397539417482,-0.11139840887513076,-1.9467017352957476,0.13361134407917655,2.595551071855757,0.9452423210061258,0.1728802376190821,-0.48752024683155326,-0.11147110072896137,-1.9463801863486305,0.1336059019074957,2.595550359778934,0.9452445589611904,0.0006638526576841524,-0.00016914974896755868,0.0007794724099944197,-0.0005422277018872111,-1.551327998610641e-05,0.0001314516043446163,-0.0016557257796548544,0.0,0.0,0.0,0.0,0.0,0.0,0.0,4.421147912539447e-05,1.950711019493845e-05,-7.269185383060317e-05,0.0003215489471171118,-5.442171680858365e-06,-7.120768228396912e-07,2.2379550645990065e-06,-0.0006638526576841524,0.00016914974896755868,-0.0007794724099944197,0.0005422277018872111,1.551327998610641e-05,-0.0001314516043446163,0.0016557257796548544,0.19667929410934448,11.949304580688477,-1.2671844959259033,-21.768831253051758,-0.3738303780555725,-2.5207552909851074,0.15964071452617645,0
14,0.06499743461608887,-0.19667929410934448,-11.949304580688477,1.2671844959259033,21.768831253051758,0.3738303780555725,2.5207552909851074,-0.15964071452617645,0.0,0.0,0.0,0.0,0.0,0.0,0.0,-0.15766940247562586,0.35003958867355217,0.12015737936113904,0.4586880764850521,-0.16061023868493637,0.1256420339228935,-0.21103194217736496,0.17283602613995672,-0.4875397539417482,-0.11139840887513076,-1.9467017352957476,0.13361134407917655,2.595551071855757,0.9452423210061258,0.1728802376190821,-0.48752024683155326,-0.11147110072896137,-1.9463801863486305,0.1336059019074957,2.595550359778934,0.9452445589611904,0.0006638526576841524,-0.00016914974896755868,0.0007794724099944197,-0.0005422277018872111,-1.551327998610641e-05,0.0001314516043446163,-0.0016557257796548544,0.0,0.0,0.0,0.0,0.0,0.0,0.0,4.421147912539447e-05,1.950711019493845e-05,-7.269185383060317e-05,0.0003215489471171118,-5.442171680858365e-06,-7.120768228396912e-07,2.2379550645990065e-06,-0.0006638526576841524,0.00016914974896755868,-0.0007794724099944197,0.0005422277018872111,1.551327998610641e-05,-0.0001314516043446163,0.0016557257796548544,0.19667929410934448,11.949304580688477,-1.2671844959259033,-21.768831253051758,-0.3738303780555725,-2.5207552909851074,0.15964071452617645,0
15,0.06999468803405762,-0.19667929410934448,-12.000879287719727,1.3425629138946533,21.768831253051758,0.3738303780555725,2.5335726737976074,-0.17978231608867645,0.0,0.0,0.0,0.0,0.0,0.0,0.0,-0.15291328415423558,0.3547475964101914,0.12464482590833886,0.45772554989830494,-0.1609428470883568,0.12529883046053372,-0.2109192335033255,0.17283594711553849,-0.4875358570384959,-0.11140369858867244,-1.9467017352957474,0.1336145428617795,2.595548588063982,0.945244558961855,0.1728802376190821,-0.48752024683155326,-0.11147110072896137,-1.9463801863486305,0.1336059019074957,2.595550359778934,0.9452445589611904,0.0012432320700674442,0.0007050441633462651,-0.0007439515135171478,-0.0006253242664313561,1.386608792385423e-06,-0.00020151103525885365,-0.0006022272791738865,0.0,0.0,0.0,0.0,0.0,0.0,0.0,4.429050354362585e-05,1.5610206942628935e-05,-6.740214028892744e-05,0.00032154894711688975,-8.640954283822833e-06,1.7717149520812825e-06,-6.645795025406187e-13,-0.0012432320700674442,-0.0007050441633462651,0.0007439515135171478,0.0006253242664313561,-1.386608792385423e-06,0.00020151103525885365,0.0006022272791738865,0.19667929410934448,12.000879287719727,-1.3425629138946533,-21.768831253051758,-0.3738303780555725,-2.5335726737976074,0.17978231608867645,0
16,0.07499408721923828,-0.19667929410934448,-12.000879287719727,1.3425629138946533,21.768831253051758,0.3738303780555725,2.5335726737976074,-0.17978231608867645,0.0,0.0,0.0,0.0,0.0,0.0,0.0,-0.15291328415423558,0.3547475964101914,0.12464482590833886,0.45772554989830494,-0.1609428470883568,0.12529883046053372,-0.2109192335033255,0.17283594711553849,-0.4875358570384959,-0.11140369858867244,-1.9467017352957474,0.1336145428617795,2.595548588063982,0.945244558961855,0.1728802376190821,-0.48752024683155326,-0.11147110072896137,-1.9463801863486305,0.1336059019074957,2.595550359778934,0.9452445589611904,0.0012432320700674442,0.0007050441633462651,-0.0007439515135171478,-0.0006253242664313561,1.386608792385423e-06,-0.00020151103525885365,-0.0006022272791738865,0.0,0.0,0.0,0.0,0.0,0.0,0.0,4.429050354362585e-05,1.5610206942628935e-05,-6.740214028892744e-05,0.00032154894711688975,-8.640954283822833e-06,1.7717149520812825e-06,-6.645795025406187e-13,-0.0012432320700674442,-0.0007050441633462651,0.0007439515135171478,0.0006253242664313561,-1.386608792385423e-06,0.00020151103525885365,0.0006022272791738865,0.19667929410934448,12.000879287719727,-1.3425629138946533,-21.768831253051758,-0.3738303780555725,-2.5335726737976074,0.17978231608867645,0
17,0.08133101463317871,-0.19667929410934448,-12.000879287719727,1.3425629138946533,21.768831253051758,0.3738303780555725,2.5335726737976074,-0.17978231608867645,0.0,0.0,0.0,0.0,0.0,0.0,0.0,-0.15291328415423558,0.3547475964101914,0.12464482590833886,0.45772554989830494,-0.1609428470883568,0.12529883046053372,-0.2109192335033255,0.17283594711553849,-0.4875358570384959,-0.11140369858867244,-1.9467017352957474,0.1336145428617795,2.595548588063982,0.945244558961855,0.1728802376190821,-0.48752024683155326,-0.11147110072896137,-1.9463801863486305,0.1336059019074957,2.595550359778934,0.9452445589611904,0.0012432320700674442,0.0007050441633462651,-0.0007439515135171478,-0.0006253242664313561,1.386608792385423e-06,-0.00020151103525885365,-0.0006022272791738865,0.0,0.0,0.0,0.0,0.0,0.0,0.0,4.429050354362585e-05,1.5610206942628935e-05,-6.740214028892744e-05,0.00032154894711688975,-8.640954283822833e-06,1.7717149520812825e-06,-6.645795025406187e-13,-0.0012432320700674442,-0.0007050441633462651,0.0007439515135171478,0.0006253242664313561,-1.386608792385423e-06,0.00020151103525885365,0.0006022272791738865,0.19667929410934448,12.000879287719727,-1.3425629138946533,-21.768831253051758,-0.3738303780555725,-2.5335726737976074,0.17978231608867645,0
18,0.08499360084533691,-0.19667929410934448,-12.000879287719727,1.3425629138946533,21.768831253051758,0.3738303780555725,2.5335726737976074,-0.17978231608867645,0.0,0.0,0.0,0.0,0.0,0.0,0.0,-0.15291328415423558,0.3547475964101914,0.12464482590833886,0.45772554989830494,-0.1609428470883568,0.12529883046053372,-0.2109192335033255,0.17283594711553849,-0.4875358570384959,-0.11140369858867244,-1.9467017352957474,0.1336145428617795,2.595548588063982,0.945244558961855,0.1728802376190821,-0.48752024683155326,-0.11147110072896137,-1.9463801863486305,0.1336059019074957,2.595550359778934,0.9452445589611904,0.0012432320700674442,0.0007050441633462651,-0.0007439515135171478,-0.0006253242664313561,1.386608792385423e-06,-0.00020151103525885365,-0.0006022272791738865,0.0,0.0,0.0,0.0,0.0,0.0,0.0,4.429050354362585e-05,1.5610206942628935e-05,-6.740214028892744e-05,0.00032154894711688975,-8.640954283822833e-06,1.7717149520812825e-06,-6.645795025406187e-13,-0.0012432320700674442,-0.0007050441633462651,0.0007439515135171478,0.0006253242664313561,-1.386608792385423e-06,0.00020151103525885365,0.0006022272791738865,0.19667929410934448,12.000879287719727,-1.3425629138946533,-21.768831253051758,-0.3738303780555725,-2.5335726737976074,0.17978231608867645,0
19,0.08999371528625488,-0.17287558317184448,-12.000879287719727,1.3425629138946533,21.741060256958008,0.3793235421180725,2.5335726737976074,-0.22098104655742645,0.0,0.0,0.0,0.0,0.0,0.0,0.0,-0.15345952667478382,0.352289925053963,0.12109220873033509,0.4545919778417259,-0.16083603387044496,0.12557816457704096,-0.2113392809360947,0.1728344866085679,-0.4875361595187161,-0.11140369858867244,-1.9466997864539164,0.13361073374567128,2.5955496476961293,0.9452491365985738,0.1728802376190821,-0.48752024683155326,-0.11147110072896137,-1.9463801863486305,0.1336059019074957,2.595550359778934,0.9452445589611904,0.0006498550584058267,0.0001720809416606294,-0.00027736498753235244,-0.00016497187023458074,-0.0002424881193298943,-0.00021907562063540288,0.0007560979694959778,0.0,0.0,0.0,0.0,0.0,0.0,0.0,4.5751010514211155e-05,1.591268716283345e-05,-6.740214028892744e-05,0.0003196001052858666,-4.831838175595182e-06,7.120828047213479e-07,-4.5776373833739115e-06,-0.0006498550584058267,-0.0001720809416606294,0.00027736498753235244,0.00016497187023458074,0.0002424881193298943,0.00021907562063540288,-0.0007560979694959778,0.17287558317184448,12.000879287719727,-1.3425629138946533,-21.741060256958008,-0.3793235421180725,-2.5335726737976074,0.22098104655742645,0
20,0.09499764442443848,-0.17287558317184448,-12.000879287719727,1.3425629138946533,21.741060256958008,0.3793235421180725,2.5335726737976074,-0.22098104655742645,0.0,0.0,0.0,0.0,0.0,0.0,0.0,-0.15345952667478382,0.352289925053963,0.12109220873033509,0.4545919778417259,-0.16083603387044496,0.12557816457704096,-0.2113392809360947,0.1728344866085679,-0.4875361595187161,-0.11140369858867244,-1.9466997864539164,0.13361073374567128,2.5955496476961293,0.9452491365985738,0.1728802376190821,-0.48752024683155326,-0.11147110072896137,-1.9463801863486305,0.1336059019074957,2.595550359778934,0.9452445589611904,0.0006498550584058267,0.0001720809416606294,-0.00027736498753235244,-0.00016497187023458074,-0.0002424881193298943,-0.00021907562063540288,0.0007560979694959778,0.0,0.0,0.0,0.0,0.0,0.0,0.0,4.5751010514211155e-05,1.591268716283345e-05,-6.740214028892744e-05,0.0003196001052858666,-4.831838175595182e-06,7.120828047213479e-07,-4.5776373833739115e-06,-0.0006498550584058267,-0.0001720809416606294,0.00027736498753235244,0.00016497187023458074,0.0002424881193298943,0.00021907562063540288,-0.0007560979694959778,0.17287558317184448,12.000879287719727,-1.3425629138946533,-21.741060256958008,-0.3793235421180725,-2.5335726737976074,0.22098104655742645,0
21,0.10000181198120117,-0.17287558317184448,-12.000879287719727,1.2909882068634033,21.741060256958008,0.3674216866493225,2.5143465995788574,-0.17978231608867645,0.0,0.0,0.0,0.0,0.0,0.0,0.0,-0.15484874418811714,0.3500376895441341,0.12037145692655703,0.4524605970465924,-0.1603662245492306,0.12580454166243688,-0.21194048361113685,0.1728342504014311,-0.48753652370789075,-0.11140007931098603,-1.9466997864539164,0.1336120561559998,2.5955517839325797,0.945244558961855,0.1728802376190821,-0.48752024683155326,-0.11147110072896137,-1.9463801863486305,0.1336059019074957,2.595550359778934,0.9452445589611904,0.000672557342857881,0.00023361003902341073,0.0006240540452042687,0.00017453931570788757,0.00025636928450354686,0.0003402344873826641,-0.00035031959546338414,0.0,0.0,0.0,0.0,0.0,0.0,0.0,4.598721765100566e-05,1.6276876337484314e-05,-7.102141797533934e-05,0.0003196001052858666,-6.15424850411439e-06,-1.4241536456793824e-06,-6.645795025406187e-13,-0.000672557342857881,-0.00023361003902341073,-0.0006240540452042687,-0.00017453931570788757,-0.00025636928450354686,-0.0003402344873826641,0.00035031959546338414,0.17287558317184448,12.000879287719727,-1.2909882068634033,-21.741060256958008,-0.3674216866493225,-2.5143465995788574,0.17978231608867645,0
22,0.10500788688659668,-0.17287558317184448,-12.000879287719727,1.2909882068634033,21.741060256958008,0.3674216866493225,2.5143465995788574,-0.17978231608867645,0.0,0.0,0.0,0.0,0.0,0.0,0.0,-0.15484874418811714,0.3500376895441341,0.12037145692655703,0.4524605970465924,-0.1603662245492306,0.12580454166243688,-0.21194048361113685,0.1728342504014311,-0.48753652370789075,-0.11140007931098603,-1.9466997864539164,0.1336120561559998,2.5955517839325797,0.945244558961855,0.1728802376190821,-0.48752024683155326,-0.11147110072896137,-1.9463801863486305,0.1336059019074957,2.595550359778934,0.9452445589611904,0.000672557342857881,0.00023361003902341073,0.0006240540452042687,0.00017453931570788757,0.00025636928450354686,0.0003402344873826641,-0.00035031959546338414,0.0,0.0,0.0,0.0,0.0,0.0,0.0,4.598721765100566e-05,1.6276876337484314e-05,-7.102141797533934e-05,0.0003196001052858666,-6.15424850411439e-06,-1.4241536456793824e-06,-6.645795025406187e-13,-0.000672557342857881,-0.00023361003902341073,-0.0006240540452042687,-0.00017453931570788757,-0.00025636928450354686,-0.0003402344873826641,0.00035031959546338414,0.17287558317184448,12.000879287719727,-1.2909882068634033,-21.741060256958008,-0.3674216866493225,-2.5143465995788574,0.17978231608867645,0
23,0.11000275611877441,-0.14510458707809448,-12.000879287719727,1.2909882068634033,21.717256546020508,0.3674216866493225,2.5207552909851074,-0.22098104655742645,0.0,0.0,0.0,0.0,0.0,0.0,0.0,-0.15437228472275635,0.3410575250532704,0.11958380699500723,0.45268592678248265,-0.16023039612315623,0.12557994046361387,-0.21030415016209378,0.1728323093680812,-0.4875379277596729,-0.11140007931098603,-1.946698116018061,0.1336120561559995,2.595551071855757,0.9452491235166216,0.1728802376190821,-0.48752024683155326,-0.11147110072896137,-1.9463801863486305,0.1336059019074957,2.595550359778934,0.9452445589611904,-0.0002450978605882167,4.413339734518807e-05,0.0006495454674795659,0.0007409699915275688,0.0003383912425907099,0.00031792580239809593,0.0014169957700712794,0.0,0.0,0.0,0.0,0.0,0.0,0.0,4.792825100091713e-05,1.7680928119656603e-05,-7.102141797533934e-05,0.0003179296694304501,-6.154248503809079e-06,-7.120768228396912e-07,-4.564555431185724e-06,0.0002450978605882167,-4.413339734518807e-05,-0.0006495454674795659,-0.0007409699915275688,-0.0003383912425907099,-0.00031792580239809593,-0.0014169957700712794,0.14510458707809448,12.000879287719727,-1.2909882068634033,-21.717256546020508,-0.3674216866493225,-2.5207552909851074,0.22098104655742645,0
24,0.11500406265258789,-0.14510458707809448,-12.000879287719727,1.2909882068634033,21.717256546020508,0.3674216866493225,2.5207552909851074,-0.22098104655742645,0.0,0.0,0.0,0.0,0.0,0.0,0.0,-0.15437228472275635,0.3410575250532704,0.11958380699500723,0.45268592678248265,-0.16023039612315623,0.12557994046361387,-0.21030415016209378,0.1728323093680812,-0.4875379277596729,-0.11140007931098603,-1.946698116018061,0.1336120561559995,2.595551071855757,0.9452491235166216,0.1728802376190821,-0.48752024683155326,-0.11147110072896137,-1.9463801863486305,0.1336059019074957,2.595550359778934,0.9452445589611904,-0.0002450978605882167,4.413339734518807e-05,0.0006495454674795659,0.0007409699915275688,0.0003383912425907099,0.00031792580239809593,0.0014169957700712794,0.0,0.0,0.0,0.0,0.0,0.0,0.0,4.792825100091713e-05,1.7680928119656603e-05,-7.102141797533934e-05,0.0003179296694304501,-6.154248503809079e-06,-7.120768228396912e-07,-4.564555431185724e-06,0.0002450978605882167,-4.413339734518807e-05,-0.0006495454674795659,-0.0007409699915275688,-0.0003383912425907099,-0.00031792580239809593,-0.0014169957700712794,0.14510458707809448,12.000879287719727,-1.2909882068634033,-21.717256546020508,-0.3674216866493225,-2.5207552909851074,0.22098104655742645,0
25,0.11999702453613281,-0.19667929410934448,-12.000879287719727,1.3425629138946533,21.768831253051758,0.3619285225868225,2.5271639823913574,-0.22098104655742645,0.0,0.0,0.0,0.0,0.0,0.0,0.0,-0.1524697053136181,0.34032415720318154,0.1232331170645415,0.450945752724928,-0.16021324709967974,0.12617923394806846,-0.20894898986618635,0.17283615704431887,-0.4875358217037941,-0.11140370151848465,-1.9467017352957474,0.133612666507562,2.595550359778934,0.9452491365985,0.1728802376190821,-0.48752024683155326,-0.11147110072896137,-1.9463801863486305,0.1336059019074957,2.595550359778934,0.9452445589611904,0.0009630888538754213,0.00043963531600075254,-0.0007272134971930764,-0.00026513892186839146,0.0004512673950943799,3.1089863083218826e-05,0.0010713823231604718,0.0,0.0,0.0,0.0,0.0,0.0,0.0,4.40805747632389e-05,1.55748722408533e-05,-6.739921047671515e-05,0.00032154894711688975,-6.7646000663224015e-06,0.0,-4.57763730954408e-06,-0.0009630888538754213,-0.00043963531600075254,0.0007272134971930764,0.00026513892186839146,-0.0004512673950943799,-3.1089863083218826e-05,-0.0010713823231604718,0.19667929410934448,12.000879287719727,-1.3425629138946533,-21.768831253051758,-0.3619285225868225,-2.5271639823913574,0.22098104655742645,0
26,0.12500548362731934,-0.19667929410934448,-12.000879287719727,1.3425629138946533,21.768831253051758,0.3619285225868225,2.5271639823913574,-0.22098104655742645,0.0,0.0,0.0,0.0,0.0,0.0,0.0,-0.1524697053136181,0.34032415720318154,0.1232331170645415,0.450945752724928,-0.16021324709967974,0.12617923394806846,-0.20894898986618635,0.17283615704431887,-0.4875358217037941,-0.11140370151848465,-1.9467017352957474,0.133612666507562,2.595550359778934,0.9452491365985,0.1728802376190821,-0.48752024683155326,-0.11147110072896137,-1.9463801863486305,0.1336059019074957,2.595550359778934,0.9452445589611904,0.0009630888538754213,0.00043963531600075254,-0.0007272134971930764,-0.00026513892186839146,0.0004512673950943799,3.1089863083218826e-05,0.0010713823231604718,0.0,0.0,0.0,0.0,0.0,0.0,0.0,4.40805747632389e-05,1.55748722408533e-05,-6.739921047671515e-05,0.00032154894711688975,-6.7646000663224015e-06,0.0,-4.57763730954408e-06,-0.0009630888538754213,-0.00043963531600075254,0.0007272134971930764,0.00026513892186839146,-0.0004512673950943799,-3.1089863083218826e-05,-0.0010713823231604718,0.19667929410934448,12.000879287719727,-1.3425629138946533,-21.768831253051758,-0.3619285225868225,-2.5271639823913574,0.22098104655742645,0
27,0.12999773025512695,-0.12130087614059448,-12.024682998657227,1.3147919178009033,21.768831253051758,0.3738303780555725,2.5335726737976074,-0.21457235515117645,0.0,0.0,0.0,0.0,0.0,0.0,0.0,-0.15456868433809706,0.3379786916300314,0.12365158659974586,0.4504760862025705,-0.16052509179290775,0.12652199025782002,-0.20855999525341865,0.17283063014900515,-0.48753650263198195,-0.11140174974685783,-1.9467017352957474,0.13361134407917657,2.595549647702111,0.9452484246872941,0.1728802376190821,-0.48752024683155326,-0.11147110072896137,-1.9463801863486305,0.1336059019074957,2.595550359778934,0.9452445589611904,-0.0013862327770999654,0.0008067781214915314,0.00013997464571354794,-0.0006174248671900504,-2.2921898681796544e-05,-0.0002689681408630576,0.0005065227242735985,0.0,0.0,0.0,0.0,0.0,0.0,0.0,4.960747007695665e-05,1.625580042868835e-05,-6.935098210353319e-05,0.00032154894711688975,-5.442171680886121e-06,7.120768228396912e-07,-3.865726103668976e-06,0.0013862327770999654,-0.0008067781214915314,-0.00013997464571354794,0.0006174248671900504,2.2921898681796544e-05,0.0002689681408630576,-0.0005065227242735985,0.12130087614059448,12.024682998657227,-1.3147919178009033,-21.768831253051758,-0.3738303780555725,-2.5335726737976074,0.21457235515117645,0
28,0.13499712944030762,-0.12130087614059448,-12.024682998657227,1.3147919178009033,21.768831253051758,0.3738303780555725,2.5335726737976074,-0.21457235515117645,0.0,0.0,0.0,0.0,0.0,0.0,0.0,-0.15456868433809706,0.3379786916300314,0.12365158659974586,0.4504760862025705,-0.16052509179290775,0.12652199025782002,-0.20855999525341865,0.17283063014900515,-0.48753650263198195,-0.11140174974685783,-1.9467017352957474,0.13361134407917657,2.595549647702111,0.9452484246872941,0.1728802376190821,-0.48752024683155326,-0.11147110072896137,-1.9463801863486305,0.1336059019074957,2.595550359778934,0.9452445589611904,-0.0013862327770999654,0.0008067781214915314,0.00013997464571354794,-0.0006174248671900504,-2.2921898681796544e-05,-0.0002689681408630576,0.0005065227242735985,0.0,0.0,0.0,0.0,0.0,0.0,0.0,4.960747007695665e-05,1.625580042868835e-05,-6.935098210353319e-05,0.00032154894711688975,-5.442171680886121e-06,7.120768228396912e-07,-3.865726103668976e-06,0.0013862327770999654,-0.0008067781214915314,-0.00013997464571354794,0.0006174248671900504,2.2921898681796544e-05,0.0002689681408630576,-0.0005065227242735985,0.12130087614059448,12.024682998657227,-1.3147919178009033,-21.768831253051758,-0.3738303780555725,-2.5335726737976074,0.21457235515117645,0
29,0.14143800735473633,-0.14510458707809448,-11.973108291625977,1.3147919178009033,21.768831253051758,0.3674216866493225,2.5271639823913574,-0.20724813640117645,0.0,0.0,0.0,0.0,0.0,0.0,0.0,-0.15505261084335442,0.3427411163478576,0.12320637316269896,0.44766715203677426,-0.15978906807823184,0.12614190986442003,-0.20882419101503866,0.17283256304018782,-0.4875377703330151,-0.11140174974684129,-1.9467017352957474,0.1336120561559995,2.595550359778934,0.9452476107196685,0.1728802376190821,-0.48752024683155326,-0.11147110072896137,-1.9463801863486305,0.1336059019074957,2.595550359778934,0.9452445589611904,0.0004033531175656409,-5.70733395880074e-05,-1.928416176816617e-05,-0.0008661470192381777,-0.001864851299155968,6.215421398266671e-05,0.0001492441648199179,0.0,0.0,0.0,0.0,0.0,0.0,0.0,4.7674578894291164e-05,1.752350146183579e-05,-6.935098212007551e-05,0.00032154894711688975,-6.154248503809079e-06,0.0,-3.0517584780342943e-06,-0.0004033531175656409,5.70733395880074e-05,1.928416176816617e-05,0.0008661470192381777,0.001864851299155968,-6.215421398266671e-05,-0.0001492441648199179,0.14510458707809448,11.973108291625977,-1.3147919178009033,-21.768831253051758,-0.3674216866493225,-2.5271639823913574,0.20724813640117645,0
30,0.14499354362487793,-0.14510458707809448,-11.973108291625977,1.3147919178009033,21.768831253051758,0.3674216866493225,2.5271639823913574,-0.20724813640117645,0.0,0.0,0.0,0.0,0.0,0.0,0.0,-0.15505261084335442,0.3427411163478576,0.12320637316269896,0.44766715203677426,-0.15978906807823184,0.12614190986442003,-0.20882419101503866,0.17283256304018782,-0.4875377703330151,-0.11140174974684129,-1.9467017352957474,0.1336120561559995,2.595550359778934,0.9452476107196685,0.1728802376190821,-0.48752024683155326,-0.11147110072896137,-1.9463801863486305,0.1336059019074957,2.595550359778934,0.9452445589611904,0.0004033531175656409,-5.70733395880074e-05,-1.928416176816617e-05,-0.0008661470192381777,-0.001864851299155968,6.215421398266671e-05,0.0001492441648199179,0.0,0.0,0.0,0.0,0.0,0.0,0.0,4.7674578894291164e-05,1.752350146183579e-05,-6.935098212007551e-05,0.00032154894711688975,-6.154248503809079e-06,0.0,-3.0517584780342943e-06,-0.0004033531175656409,5.70733395880074e-05,1.928416176816617e-05,0.0008661470192381777,0.001864851299155968,-6.215421398266671e-05,-0.0001492441648199179,0.14510458707809448,11.973108291625977,-1.3147919178009033,-21.768831253051758,-0.3674216866493225,-2.5271639823913574,0.20724813640117645,0
31,0.1500084400177002,-0.12130087614059448,-12.000879287719727,1.3147919178009033,21.741060256958008,0.3674216866493225,2.5207552909851074,-0.18710653483867645,0.0,0.0,0.0,0.0,0.0,0.0,0.0,-0.1518163056436849,0.3447270470487929,0.12569401261333263,0.45027554424067084,-0.16029192618983268,0.1262479612284709,-0.21005875876646232,0.1728313388181491,-0.48753584737129185,-0.11140174974684129,-1.9466997864539164,0.1336120561559995,2.595551071855757,0.945246458893021,0.1728802376190821,-0.48752024683155326,-0.11147110072896137,-1.9463801863486305,0.1336059019074957,2.595550359778934,0.9452445589611904,-0.0007719399920126282,0.0010757562135204075,0.00013983892816064745,0.0002463694636282308,6.291597740310325e-05,-0.0001419363722685289,-0.0008337784249711565,0.0,0.0,0.0,0.0,0.0,0.0,0.0,4.8898800933006026e-05,1.5600539738591657e-05,-6.935098212007551e-05,0.0003196001052858666,-6.154248503809079e-06,-7.120768228396912e-07,-1.8999318305290558e-06,0.0007719399920126282,-0.0010757562135204075,-0.00013983892816064745,-0.0002463694636282308,-6.291597740310325e-05,0.0001419363722685289,0.0008337784249711565,0.12130087614059448,12.000879287719727,-1.3147919178009033,-21.741060256958008,-0.3674216866493225,-2.5207552909851074,0.18710653483867645,0
32,0.15499496459960938,-0.12130087614059448,-12.000879287719727,1.3147919178009033,21.741060256958008,0.3674216866493225,2.5207552909851074,-0.18710653483867645,0.0,0.0,0.0,0.0,0.0,0.0,0.0,-0.1518163056436849,0.3447270470487929,0.12569401261333263,0.45027554424067084,-0.16029192618983268,0.1262479612284709,-0.21005875876646232,0.1728313388181491,-0.48753584737129185,-0.11140174974684129,-1.9466997864539164,0.1336120561559995,2.595551071855757,0.945246458893021,0.1728802376190821,-0.48752024683155326,-0.11147110072896137,-1.9463801863486305,0.1336059019074957,2.595550359778934,0.9452445589611904,-0.0007719399920126282,0.0010757562135204075,0.00013983892816064745,0.0002463694636282308,6.291597740310325e-05,-0.0001419363722685289,-0.0008337784249711565,0.0,0.0,0.0,0.0,0.0,0.0,0.0,4.8898800933006026e-05,1.5600539738591657e-05,-6.935098212007551e-05,0.0003196001052858666,-6.154248503809079e-06,-7.120768228396912e-07,-1.8999318305290558e-06,0.0007719399920126282,-0.0010757562135204075,-0.00013983892816064745,-0.0002463694636282308,-6.291597740310325e-05,0.0001419363722685289,0.0008337784249711565,0.12130087614059448,12.000879287719727,-1.3147919178009033,-21.741060256958008,-0.3674216866493225,-2.5207552909851074,0.18710653483867645,0
33,0.15499496459960938,-0.12130087614059448,-12.000879287719727,1.3147919178009033,21.741060256958008,0.3674216866493225,2.5207552909851074,-0.18710653483867645,0.0,0.0,0.0,0.0,0.0,0.0,0.0,-0.1518163056436849,0.3447270470487929,0.12569401261333263,0.45027554424067084,-0.16029192618983268,0.1262479612284709,-0.21005875876646232,0.1728313388181491,-0.48753584737129185,-0.11140174974684129,-1.9466997864539164,0.1336120561559995,2.595551071855757,0.945246458893021,0.1728802376190821,-0.48752024683155326,-0.11147110072896137,-1.9463801863486305,0.1336059019074957,2.595550359778934,0.9452445589611904,-0.0007719399920126282,0.0010757562135204075,0.00013983892816064745,0.0002463694636282308,6.291597740310325e-05,-0.0001419363722685289,-0.0008337784249711565,0.0,0.0,0.0,0.0,0.0,0.0,0.0,4.8898800933006026e-05,1.5600539738591657e-05,-6.935098212007551e-05,0.0003196001052858666,-6.154248503809079e-06,-7.120768228396912e-07,-1.8999318305290558e-06,0.0007719399920126282,-0.0010757562135204075,-0.00013983892816064745,-0.0002463694636282308,-6.291597740310325e-05,0.0001419363722685289,0.0008337784249711565,0.12130087614059448,12.000879287719727,-1.3147919178009033,-21.741060256958008,-0.3674216866493225,-2.5207552909851074,0.18710653483867645,0
34,0.16501808166503906,-0.17287558317184448,-12.000879287719727,1.3147919178009033,21.717256546020508,0.3738303780555725,2.5207552909851074,-0.15964071452617645,0.0,0.0,0.0,0.0,0.0,0.0,0.0,-0.15729487955142,0.34400942695532166,0.11578780103916336,0.4520112735027694,-0.16035617582384104,0.1260161328185775,-0.20983822080756082,0.17283427959926895,-0.4875360582990751,-0.11140174974684129,-1.946698116018061,0.13361134407917657,2.595551071855757,0.945242321012257,0.1728802376190821,-0.48752024683155326,-0.11147110072896137,-1.9463801863486305,0.1336059019074957,2.595550359778934,0.9452445589611904,-0.00020435410254743697,0.0009508749605418289,-0.0002825178132619602,0.00033181137647389535,-0.00014911997053750628,0.00031221681791352606,-0.0014694620211663741,0.0,0.0,0.0,0.0,0.0,0.0,0.0,4.595801981316372e-05,1.581146752183127e-05,-6.935098212007551e-05,0.0003179296694304501,-5.442171680886121e-06,-7.120768228396912e-07,2.237948933392353e-06,0.00020435410254743697,-0.0009508749605418289,0.0002825178132619602,-0.00033181137647389535,0.00014911997053750628,-0.00031221681791352606,0.0014694620211663741,0.17287558317184448,12.000879287719727,-1.3147919178009033,-21.717256546020508,-0.3738303780555725,-2.5207552909851074,0.15964071452617645,0
35,0.1699991226196289,-0.17287558317184448,-12.000879287719727,1.3147919178009033,21.717256546020508,0.3738303780555725,2.5207552909851074,-0.15964071452617645,0.0,0.0,0.0,0.0,0.0,0.0,0.0,-0.15729487955142,0.34400942695532166,0.11578780103916336,0.4520112735027694,-0.16035617582384104,0.1260161328185775,-0.20983822080756082,0.17283427959926895,-0.4875360582990751,-0.11140174974684129,-1.946698116018061,0.13361134407917657,2.595551071855757,0.945242321012257,0.1728802376190821,-0.48752024683155326,-0.11147110072896137,-1.9463801863486305,0.1336059019074957,2.595550359778934,0.9452445589611904,-0.00020435410254743697,0.0009508749605418289,-0.0002825178132619602,0.00033181137647389535,-0.00014911997053750628,0.00031221681791352606,-0.0014694620211663741,0.0,0.0,0.0,0.0,0.0,0.0,0.0,4.595801981316372e-05,1.581146752183127e-05,-6.935098212007551e-05,0.0003179296694304501,-5.442171680886121e-06,-7.120768228396912e-07,2.237948933392353e-06,0.00020435410254743697,-0.0009508749605418289,0.0002825178132619602,-0.00033181137647389535,0.00014911997053750628,-0.00031221681791352606,0.0014694620211663741,0.17287558317184448,12.000879287719727,-1.3147919178009033,-21.717256546020508,-0.3738303780555725,-2.5207552909851074,0.15964071452617645,0
36,0.17500090599060059,-0.14510458707809448,-11.949304580688477,1.2909882068634033,21.768831253051758,0.3793235421180725,2.5271639823913574,-0.17978231608867645,0.0,0.0,0.0,0.0,0.0,0.0,0.0,-0.15516938812422268,0.34991753548701093,0.1260166303760732,0.45065006160983356,-0.16118598730827957,0.1255635872669705,-0.2089876922090554,0.172832541006959,-0.487541637521551,-0.11140007931098603,-1.9467017352957474,0.1336107337276141,2.595550359778934,0.945244558961855,0.1728802376190821,-0.48752024683155326,-0.11147110072896137,-1.9463801863486305,0.1336059019074957,2.595550359778934,0.9452445589611904,-0.0007936162546302214,-0.0002118266215556967,0.0007126649718569097,-0.0008648005622346716,-0.00018168818147315828,6.295229487265183e-05,-0.0009118787118820857,0.0,0.0,0.0,0.0,0.0,0.0,0.0,4.7696612123115933e-05,2.1390689997735635e-05,-7.102141797533934e-05,0.00032154894711688975,-4.831820118400554e-06,0.0,-6.645795025406187e-13,0.0007936162546302214,0.0002118266215556967,-0.0007126649718569097,0.0008648005622346716,0.00018168818147315828,-6.295229487265183e-05,0.0009118787118820857,0.14510458707809448,11.949304580688477,-1.2909882068634033,-21.768831253051758,-0.3793235421180725,-2.5271639823913574,0.17978231608867645,0
37,0.1800088882446289,-0.14510458707809448,-11.949304580688477,1.2909882068634033,21.768831253051758,0.3793235421180725,2.5271639823913574,-0.17978231608867645,0.0,0.0,0.0,0.0,0.0,0.0,0.0,-0.15516938812422268,0.34991753548701093,0.1260166303760732,0.45065006160983356,-0.16118598730827957,0.1255635872669705,-0.2089876922090554,0.172832541006959,-0.487541637521551,-0.11140007931098603,-1.9467017352957474,0.1336107337276141,2.595550359778934,0.945244558961855,0.1728802376190821,-0.48752024683155326,-0.11147110072896137,-1.9463801863486305,0.1336059019074957,2.595550359778934,0.9452445589611904,-0.0007936162546302214,-0.0002118266215556967,0.0007126649718569097,-0.0008648005622346716,-0.00018168818147315828,6.295229487265183e-05,-0.0009118787118820857,0.0,0.0,0.0,0.0,0.0,0.0,0.0,4.7696612123115933e-05,2.1390689997735635e-05,-7.102141797533934e-05,0.00032154894711688975,-4.831820118400554e-06,0.0,-6.645795025406187e-13,0.0007936162546302214,0.0002118266215556967,-0.0007126649718569097,0.0008648005622346716,0.00018168818147315828,-6.295229487265183e-05,0.0009118787118820857,0.14510458707809448,11.949304580688477,-1.2909882068634033,-21.768831253051758,-0.3793235421180725,-2.5271639823913574,0.17978231608867645,0
38,0.18499183654785156,-0.17287558317184448,-12.000879287719727,1.3425629138946533,21.741060256958008,0.3619285225868225,2.5399813652038574,-0.16604940593242645,0.0,0.0,0.0,0.0,0.0,0.0,0.0,-0.1578195809365314,0.3396893520836631,0.12588348296477983,0.4593624626021463,-0.16096056173925624,0.12677975178226045,-0.20824385385146685,0.17283637921395376,-0.48753796336523736,-0.11140369858867244,-1.9466997864539164,0.133612666507562,2.5955489356252883,0.9452430330829488,0.1728802376190821,-0.48752024683155326,-0.11147110072896137,-1.9463801863486305,0.1336059019074957,2.595550359778934,0.9452445589611904,0.00022997057605178887,0.00036660907372037567,-0.0005701903117369305,0.00042708244790907833,0.0004712874554110335,-0.00028768126848068964,-0.0014472097770516692,0.0,0.0,0.0,0.0,0.0,0.0,0.0,4.385840512835526e-05,1.7716533684097868e-05,-6.740214028892744e-05,0.0003196001052858666,-6.7646000663224015e-06,1.4241536456793824e-06,1.525878241648293e-06,-0.00022997057605178887,-0.00036660907372037567,0.0005701903117369305,-0.00042708244790907833,-0.0004712874554110335,0.00028768126848068964,0.0014472097770516692,0.17287558317184448,12.000879287719727,-1.3425629138946533,-21.741060256958008,-0.3619285225868225,-2.5399813652038574,0.16604940593242645,0
39,0.19002199172973633,-0.17287558317184448,-12.000879287719727,1.3425629138946533,21.741060256958008,0.3619285225868225,2.5399813652038574,-0.16604940593242645,0.0,0.0,0.0,0.0,0.0,0.0,0.0,-0.1578195809365314,0.3396893520836631,0.12588348296477983,0.4593624626021463,-0.16096056173925624,0.12677975178226045,-0.20824385385146685,0.17283637921395376,-0.48753796336523736,-0.11140369858867244,-1.9466997864539164,0.133612666507562,2.5955489356252883,0.9452430330829488,0.1728802376190821,-0.48752024683155326,-0.11147110072896137,-1.9463801863486305,0.1336059019074957,2.595550359778934,0.9452445589611904,0.00022997057605178887,0.00036660907372037567,-0.0005701903117369305,0.00042708244790907833,0.0004712874554110335,-0.00028768126848068964,-0.0014472097770516692,0.0,0.0,0.0,0.0,0.0,0.0,0.0,4.385840512835526e-05,1.7716533684097868e-05,-6.740214028892744e-05,0.0003196001052858666,-6.7646000663224015e-06,1.4241536456793824e-06,1.525878241648293e-06,-0.00022997057605178887,-0.00036660907372037567,0.0005701903117369305,-0.00042708244790907833,-0.0004712874554110335,0.00028768126848068964,0.0014472097770516692,0.17287558317184448,12.000879287719727,-1.3425629138946533,-21.741060256958008,-0.3619285225868225,-2.5399813652038574,0.16604940593242645,0
40,0.19499421119689941,-0.17287558317184448,-12.000879287719727,1.3425629138946533,21.741060256958008,0.3619285225868225,2.5399813652038574,-0.16604940593242645,0.0,0.0,0.0,0.0,0.0,0.0,0.0,-0.1578195809365314,0.3396893520836631,0.12588348296477983,0.4593624626021463,-0.16096056173925624,0.12677975178226045,-0.20824385385146685,0.17283637921395376,-0.48753796336523736,-0.11140369858867244,-1.9466997864539164,0.133612666507562,2.5955489356252883,0.9452430330829488,0.1728802376190821,-0.48752024683155326,-0.11147110072896137,-1.9463801863486305,0.1336059019074957,2.595550359778934,0.9452445589611904,0.00022997057605178887,0.00036660907372037567,-0.0005701903117369305,0.00042708244790907833,0.0004712874554110335,-0.00028768126848068964,-0.0014472097770516692,0.0,0.0,0.0,0.0,0.0,0.0,0.0,4.385840512835526e-05,1.7716533684097868e-05,-6.740214028892744e-05,0.0003196001052858666,-6.7646000663224015e-06,1.4241536456793824e-06,1.525878241648293e-06,-0.00022997057605178887,-0.00036660907372037567,0.0005701903117369305,-0.00042708244790907833,-0.0004712874554110335,0.00028768126848068964,0.0014472097770516692,0.17287558317184448,12.000879287719727,-1.3425629138946533,-21.741060256958008,-0.3619285225868225,-2.5399813652038574,0.16604940593242645,0
41,0.20000267028808594,-0.17287558317184448,-12.000879287719727,1.3425629138946533,21.741060256958008,0.3619285225868225,2.5399813652038574,-0.16604940593242645,0.0,0.0,0.0,0.0,0.0,0.0,0.0,-0.1578195809365314,0.3396893520836631,0.12588348296477983,0.4593624626021463,-0.16096056173925624,0.12677975178226045,-0.20824385385146685,0.17283637921395376,-0.48753796336523736,-0.11140369858867244,-1.9466997864539164,0.133612666507562,2.5955489356252883,0.9452430330829488,0.1728802376190821,-0.48752024683155326,-0.11147110072896137,-1.9463801863486305,0.1336059019074957,2.595550359778934,0.9452445589611904,0.00022997057605178887,0.00036660907372037567,-0.0005701903117369305,0.00042708244790907833,0.0004712874554110335,-0.00028768126848068964,-0.0014472097770516692,0.0,0.0,0.0,0.0,0.0,0.0,0.0,4.385840512835526e-05,1.7716533684097868e-05,-6.740214028892744e-05,0.0003196001052858666,-6.7646000663224015e-06,1.4241536456793824e-06,1.525878241648293e-06,-0.00022997057605178887,-0.00036660907372037567,0.0005701903117369305,-0.00042708244790907833,-0.0004712874554110335,0.00028768126848068964,0.0014472097770516692,0.17287558317184448,12.000879287719727,-1.3425629138946533,-21.741060256958008,-0.3619285225868225,-2.5399813652038574,0.16604940593242645,0
42,0.20499658584594727,-0.12130087614059448,-12.048486709594727,1.2909882068634033,21.717256546020508,0.3674216866493225,2.5271639823913574,-0.24112264811992645,0.0,0.0,0.0,0.0,0.0,0.0,0.0,-0.15713451410579088,0.3519599822305727,0.12637517840845436,0.4511398223561591,-0.16107862028107775,0.12617123717518852,-0.2084474843258205,0.17283087511122902,-0.4875332616202722,-0.11140007931098603,-1.946698116018061,0.1336120561559995,2.595550359778934,0.9452510213415932,0.1728802376190821,-0.48752024683155326,-0.11147110072896137,-1.9463801863486305,0.1336059019074957,2.595550359778934,0.9452445589611904,-0.0006988700820482073,0.0013633635437665394,0.0008791481816652214,0.00043734831950769857,0.00015696460130840638,7.8046660772278e-05,0.001500966110210001,0.0,0.0,0.0,0.0,0.0,0.0,0.0,4.9362507853090154e-05,1.3014788718956893e-05,-7.102141797533934e-05,0.0003179296694304501,-6.154248503809079e-06,0.0,-6.462380402805223e-06,0.0006988700820482073,-0.0013633635437665394,-0.0008791481816652214,-0.00043734831950769857,-0.00015696460130840638,-7.8046660772278e-05,-0.001500966110210001,0.12130087614059448,12.048486709594727,-1.2909882068634033,-21.717256546020508,-0.3674216866493225,-2.5271639823913574,0.24112264811992645,0
43,0.20999360084533691,-0.12130087614059448,-12.048486709594727,1.2909882068634033,21.717256546020508,0.3674216866493225,2.5271639823913574,-0.24112264811992645,0.0,0.0,0.0,0.0,0.0,0.0,0.0,-0.15713451410579088,0.3519599822305727,0.12637517840845436,0.4511398223561591,-0.16107862028107775,0.12617123717518852,-0.2084474843258205,0.17283087511122902,-0.4875332616202722,-0.11140007931098603,-1.946698116018061,0.1336120561559995,2.595550359778934,0.9452510213415932,0.1728802376190821,-0.48752024683155326,-0.11147110072896137,-1.9463801863486305,0.1336059019074957,2.595550359778934,0.9452445589611904,-0.0006988700820482073,0.0013633635437665394,0.0008791481816652214,0.00043734831950769857,0.00015696460130840638,7.8046660772278e-05,0.001500966110210001,0.0,0.0,0.0,0.0,0.0,0.0,0.0,4.9362507853090154e-05,1.3014788718956893e-05,-7.102141797533934e-05,0.0003179296694304501,-6.154248503809079e-06,0.0,-6.462380402805223e-06,0.0006988700820482073,-0.0013633635437665394,-0.0008791481816652214,-0.00043734831950769857,-0.00015696460130840638,-7.8046660772278e-05,-0.001500966110210001,0.12130087614059448,12.048486709594727,-1.2909882068634033,-21.717256546020508,-0.3674216866493225,-2.5271639823913574,0.24112264811992645,0
44,0.2149956226348877,-0.12130087614059448,-12.024682998657227,1.3663666248321533,21.717256546020508,0.3738303780555725,2.5335726737976074,-0.19351522624492645,0.0,0.0,0.0,0.0,0.0,0.0,0.0,-0.1553470733453858,0.3429613776289275,0.1258020377269661,0.45435821053635883,-0.1610512993932834,0.12666274181668133,-0.21076843407296011,0.17283063014904906,-0.4875341770825086,-0.1114053690245277,-1.946698116018061,0.13361134407917657,2.595549647702111,0.9452460848387675,0.1728802376190821,-0.48752024683155326,-0.11147110072896137,-1.9463801863486305,0.1336059019074957,2.595550359778934,0.9452445589611904,-0.0007347040505286549,0.0002461001607373934,-0.0012045601459862258,0.0009293403955439004,-5.126774175262952e-06,-6.066736176933817e-05,-0.0007372886689211404,0.0,0.0,0.0,0.0,0.0,0.0,0.0,4.960747003304733e-05,1.3930250955362933e-05,-6.573170443366361e-05,0.0003179296694304501,-5.442171680886121e-06,7.120768228396912e-07,-1.5258775770687905e-06,0.0007347040505286549,-0.0002461001607373934,0.0012045601459862258,-0.0009293403955439004,5.126774175262952e-06,6.066736176933817e-05,0.0007372886689211404,0.12130087614059448,12.024682998657227,-1.3663666248321533,-21.717256546020508,-0.3738303780555725,-2.5335726737976074,0.19351522624492645,0
45,0.22001266479492188,-0.12130087614059448,-12.024682998657227,1.3663666248321533,21.717256546020508,0.3738303780555725,2.5335726737976074,-0.19351522624492645,0.0,0.0,0.0,0.0,0.0,0.0,0.0,-0.1553470733453858,0.3429613776289275,0.1258020377269661,0.45435821053635883,-0.1610512993932834,0.12666274181668133,-0.21076843407296011,0.17283063014904906,-0.4875341770825086,-0.1114053690245277,-1.946698116018061,0.13361134407917657,2.595549647702111,0.9452460848387675,0.1728802376190821,-0.48752024683155326,-0.11147110072896137,-1.9463801863486305,0.1336059019074957,2.595550359778934,0.9452445589611904,-0.0007347040505286549,0.0002461001607373934,-0.0012045601459862258,0.0009293403955439004,-5.126774175262952e-06,-6.066736176933817e-05,-0.0007372886689211404,0.0,0.0,0.0,0.0,0.0,0.0,0.0,4.960747003304733e-05,1.3930250955362933e-05,-6.573170443366361e-05,0.0003179296694304501,-5.442171680886121e-06,7.120768228396912e-07,-1.5258775770687905e-06,0.0007347040505286549,-0.0002461001607373934,0.0012045601459862258,-0.0009293403955439004,5.126774175262952e-06,6.066736176933817e-05,0.0007372886689211404,0.12130087614059448,12.024682998657227,-1.3663666248321533,-21.717256546020508,-0.3738303780555725,-2.5335726737976074,0.19351522624492645,0
46,0.22501015663146973,-0.17287558317184448,-11.973108291625977,1.3425629138946533,21.717256546020508,0.3674216866493225,2.5271639823913574,-0.17337362468242645,0.0,0.0,0.0,0.0,0.0,0.0,0.0,-0.15644258954150247,0.3418121130660191,0.1232910457827616,0.4517065860917632,-0.16072467463475246,0.12625404624621187,-0.21163389943049044,0.1728342581739082,-0.48753847222315055,-0.11140369858867244,-1.946698116018061,0.1336120561559995,2.595550359778934,0.9452438468850322,0.1728802376190821,-0.48752024683155326,-0.11147110072896137,-1.9463801863486305,0.1336059019074957,2.595550359778934,0.9452445589611904,0.000391290622150992,-0.0009137978667838488,-0.0004449588134995821,0.0006031813274212506,0.00021804303628364887,-3.375130481986394e-05,-0.0013472216208204586,0.0,0.0,0.0,0.0,0.0,0.0,0.0,4.597944517389929e-05,1.8225391597292973e-05,-6.740214028892744e-05,0.0003179296694304501,-6.154248503809079e-06,0.0,7.120761582601887e-07,-0.000391290622150992,0.0009137978667838488,0.0004449588134995821,-0.0006031813274212506,-0.00021804303628364887,3.375130481986394e-05,0.0013472216208204586,0.17287558317184448,11.973108291625977,-1.3425629138946533,-21.717256546020508,-0.3674216866493225,-2.5271639823913574,0.17337362468242645,0
47,0.2299973964691162,-0.17287558317184448,-11.973108291625977,1.3425629138946533,21.717256546020508,0.3674216866493225,2.5271639823913574,-0.17337362468242645,0.0,0.0,0.0,0.0,0.0,0.0,0.0,-0.15644258954150247,0.3418121130660191,0.1232910457827616,0.4517065860917632,-0.16072467463475246,0.12625404624621187,-0.21163389943049044,0.1728342581739082,-0.48753847222315055,-0.11140369858867244,-1.946698116018061,0.1336120561559995,2.595550359778934,0.9452438468850322,0.1728802376190821,-0.48752024683155326,-0.11147110072896137,-1.9463801863486305,0.1336059019074957,2.595550359778934,0.9452445589611904,0.000391290622150992,-0.0009137978667838488,-0.0004449588134995821,0.0006031813274212506,0.00021804303628364887,-3.375130481986394e-05,-0.0013472216208204586,0.0,0.0,0.0,0.0,0.0,0.0,0.0,4.597944517389929e-05,1.8225391597292973e-05,-6.740214028892744e-05,0.0003179296694304501,-6.154248503809079e-06,0.0,7.120761582601887e-07,-0.000391290622150992,0.0009137978667838488,0.0004449588134995821,-0.0006031813274212506,-0.00021804303628364887,3.375130481986394e-05,0.0013472216208204586,0.17287558317184448,11.973108291625977,-1.3425629138946533,-21.717256546020508,-0.3674216866493225,-2.5271639823913574,0.17337362468242645,0
48,0.23499345779418945,-0.17287558317184448,-11.973108291625977,1.3147919178009033,21.693452835083008,0.3619285225868225,2.5271639823913574,-0.19351522624492645,0.0,0.0,0.0,0.0,0.0,0.0,0.0,-0.1559030858410684,0.3430867660652445,0.12660612208853028,0.449748238516141,-0.16075138830016827,0.12580587630522522,-0.21216542308215758,0.1728342581739576,-0.4875377788834985,-0.11140174974684129,-1.9466964455822058,0.133612666507562,2.595550359778934,0.9452460848407613,0.1728802376190821,-0.48752024683155326,-0.11147110072896137,-1.9463801863486305,0.1336059019074957,2.595550359778934,0.9452445589611904,0.000781805819605072,-0.00036754776215119824,-0.00018365705784480685,0.0012300457787006876,0.00026146722308242285,-3.080722784626042e-05,-0.0002708895981222086,0.0,0.0,0.0,0.0,0.0,0.0,0.0,4.597944512452212e-05,1.753205194521268e-05,-6.935098212007551e-05,0.00031625923357525565,-6.7646000663224015e-06,0.0,-1.5258795709183204e-06,-0.000781805819605072,0.00036754776215119824,0.00018365705784480685,-0.0012300457787006876,-0.00026146722308242285,3.080722784626042e-05,0.0002708895981222086,0.17287558317184448,11.973108291625977,-1.3147919178009033,-21.693452835083008,-0.3619285225868225,-2.5271639823913574,0.19351522624492645,0
49,0.23999714851379395,-0.17287558317184448,-11.973108291625977,1.3147919178009033,21.693452835083008,0.3619285225868225,2.5271639823913574,-0.19351522624492645,0.0,0.0,0.0,0.0,0.0,0.0,0.0,-0.1559030858410684,0.3430867660652445,0.12660612208853028,0.449748238516141,-0.16075138830016827,0.12580587630522522,-0.21216542308215758,0.1728342581739576,-0.4875377788834985,-0.11140174974684129,-1.9466964455822058,0.133612666507562,2.595550359778934,0.9452460848407613,0.1728802376190821,-0.48752024683155326,-0.11147110072896137,-1.9463801863486305,0.1336059019074957,2.595550359778934,0.9452445589611904,0.000781805819605072,-0.00036754776215119824,-0.00018365705784480685,0.0012300457787006876,0.00026146722308242285,-3.080722784626042e-05,-0.0002708895981222086,0.0,0.0,0.0,0.0,0.0,0.0,0.0,4.597944512452212e-05,1.753205194521268e-05,-6.935098212007551e-05,0.00031625923357525565,-6.7646000663224015e-06,0.0,-1.5258795709183204e-06,-0.000781805819605072,0.00036754776215119824,0.00018365705784480685,-0.0012300457787006876,-0.00026146722308242285,3.080722784626042e-05,0.0002708895981222086,0.17287558317184448,11.973108291625977,-1.3147919178009033,-21.693452835083008,-0.3619285225868225,-2.5271639823913574,0.19351522624492645,0
50,0.2451167106628418,-0.12130087614059448,-11.973108291625977,1.2909882068634033,21.741060256958008,0.3674216866493225,2.5271639823913574,-0.18710653483867645,0.0,0.0,0.0,0.0,0.0,0.0,0.0,-0.15489528917199563,0.3407109276528593,0.12840949589625222,0.4490528085111433,-0.1611928922927189,0.1256046666649219,-0.21182051197871837,0.17283157509981992,-0.48753988020257677,-0.11140007931098603,-1.9466997864539164,0.1336120561559995,2.595550359778934,0.9452453727639384,0.1728802376190821,-0.48752024683155326,-0.11147110072896137,-1.9463801863486305,0.1336059019074957,2.595550359778934,0.9452445589611904,-0.0006980515297442654,-0.00048109589326812913,0.0006204456231611583,-0.0005048252537147407,0.00028469259279001983,-8.61055011385669e-05,-0.00042265858405268747,0.0,0.0,0.0,0.0,0.0,0.0,0.0,4.866251926219367e-05,1.9633371023508595e-05,-7.102141797533934e-05,0.0003196001052858666,-6.154248503809079e-06,0.0,-8.138027479676069e-07,0.0006980515297442654,0.00048109589326812913,-0.0006204456231611583,0.0005048252537147407,-0.00028469259279001983,8.61055011385669e-05,0.00042265858405268747,0.12130087614059448,11.973108291625977,-1.2909882068634033,-21.741060256958008,-0.3674216866493225,-2.5271639823913574,0.18710653483867645,0
51,0.25000643730163574,-0.12130087614059448,-11.973108291625977,1.2909882068634033,21.741060256958008,0.3674216866493225,2.5271639823913574,-0.18710653483867645,0.0,0.0,0.0,0.0,0.0,0.0,0.0,-0.15489528917199563,0.3407109276528593,0.12840949589625222,0.4490528085111433,-0.1611928922927189,0.1256046666649219,-0.21182051197871837,0.17283157509981992,-0.48753988020257677,-0.11140007931098603,-1.9466997864539164,0.1336120561559995,2.595550359778934,0.9452453727639384,0.1728802376190821,-0.48752024683155326,-0.11147110072896137,-1.9463801863486305,0.1336059019074957,2.595550359778934,0.9452445589611904,-0.0006980515297442654,-0.00048109589326812913,0.0006204456231611583,-0.0005048252537147407,0.00028469259279001983,-8.61055011385669e-05,-0.00042265858405268747,0.0,0.0,0.0,0.0,0.0,0.0,0.0,4.866251926219367e-05,1.9633371023508595e-05,-7.102141797533934e-05,0.0003196001052858666,-6.154248503809079e-06,0.0,-8.138027479676069e-07,0.0006980515297442654,0.00048109589326812913,-0.0006204456231611583,0.0005048252537147407,-0.00028469259279001983,8.61055011385669e-05,0.00042265858405268747,0.12130087614059448,11.973108291625977,-1.2909882068634033,-21.741060256958008,-0.3674216866493225,-2.5271639823913574,0.18710653483867645,0
52,0.25499534606933594,-0.19667929410934448,-12.000879287719727,1.3663666248321533,21.741060256958008,0.3674216866493225,2.5207552909851074,-0.17337362468242645,0.0,0.0,0.0,0.0,0.0,0.0,0.0,-0.155972926088218,0.33551311111701637,0.12699347892929472,0.4516190650868762,-0.161376832496824,0.12634117321549704,-0.21058956574262885,0.17283592958715946,-0.4875379303025353,-0.1114053690245277,-1.9467019322211283,0.1336120561559995,2.595551071855757,0.9452438468850322,0.1728802376190821,-0.48752024683155326,-0.11147110072896137,-1.9463801863486305,0.1336059019074957,2.595550359778934,0.9452445589611904,0.0008066052271985654,0.0005527131613381131,-0.0012100278685996417,0.000318004922757478,0.00020316030977026163,0.00023629915844416107,-0.0009381732926458106,0.0,0.0,0.0,0.0,0.0,0.0,0.0,4.430803192265187e-05,1.768347098202172e-05,-6.573170443366361e-05,0.00032174587249778064,-6.154248503809079e-06,-7.120768228396912e-07,7.120761582601887e-07,-0.0008066052271985654,-0.0005527131613381131,0.0012100278685996417,-0.000318004922757478,-0.00020316030977026163,-0.00023629915844416107,0.0009381732926458106,0.19667929410934448,12.000879287719727,-1.3663666248321533,-21.741060256958008,-0.3674216866493225,-2.5207552909851074,0.17337362468242645,0
53,0.2600061893463135,-0.19667929410934448,-12.000879287719727,1.3663666248321533,21.741060256958008,0.3674216866493225,2.5207552909851074,-0.17337362468242645,0.0,0.0,0.0,0.0,0.0,0.0,0.0,-0.155972926088218,0.33551311111701637,0.12699347892929472,0.4516190650868762,-0.161376832496824,0.12634117321549704,-0.21058956574262885,0.17283592958715946,-0.4875379303025353,-0.1114053690245277,-1.9467019322211283,0.1336120561559995,2.595551071855757,0.9452438468850322,0.1728802376190821,-0.48752024683155326,-0.11147110072896137,-1.9463801863486305,0.1336059019074957,2.595550359778934,0.9452445589611904,0.0008066052271985654,0.0005527131613381131,-0.0012100278685996417,0.000318004922757478,0.00020316030977026163,0.00023629915844416107,-0.0009381732926458106,0.0,0.0,0.0,0.0,0.0,0.0,0.0,4.430803192265187e-05,1.768347098202172e-05,-6.573170443366361e-05,0.00032174587249778064,-6.154248503809079e-06,-7.120768228396912e-07,7.120761582601887e-07,-0.0008066052271985654,-0.0005527131613381131,0.0012100278685996417,-0.000318004922757478,-0.00020316030977026163,-0.00023629915844416107,0.0009381732926458106,0.19667929410934448,12.000879287719727,-1.3663666248321533,-21.741060256958008,-0.3674216866493225,-2.5207552909851074,0.17337362468242645,0
54,0.2649955749511719,-0.14510458707809448,-11.949304580688477,1.2909882068634033,21.741060256958008,0.3674216866493225,2.5271639823913574,-0.17978231608867645,0.0,0.0,0.0,0.0,0.0,0.0,0.0,-0.1575173554717086,0.34172769146770116,0.12499141699304019,0.4476068847798473,-0.16108712318292465,0.12587627561637757,-0.20920178097645256,0.1728323103041937,-0.4875423270236777,-0.11140007941949759,-1.9466997864660294,0.1336120561559995,2.595550359778934,0.945244558961855,0.1728802376190821,-0.48752024683155326,-0.11147110072896137,-1.9463801863486305,0.1336059019074957,2.595550359778934,0.9452445589611904,-0.0003205525920245242,-0.0005965582035872163,0.0006831832740499937,4.089375488467286e-05,-0.009224980547441648,0.00017767298394356042,-0.0008056185154399494,0.0,0.0,0.0,0.0,0.0,0.0,0.0,4.7927314888424055e-05,2.2080192124462883e-05,-7.102130946377849e-05,0.00031960011739884386,-6.154248503809079e-06,0.0,-6.645795025406187e-13,0.0003205525920245242,0.0005965582035872163,-0.0006831832740499937,-4.089375488467286e-05,0.009224980547441648,-0.00017767298394356042,0.0008056185154399494,0.14510458707809448,11.949304580688477,-1.2909882068634033,-21.741060256958008,-0.3674216866493225,-2.5271639823913574,0.17978231608867645,0
55,0.2699921131134033,-0.14510458707809448,-11.949304580688477,1.2909882068634033,21.741060256958008,0.3674216866493225,2.5271639823913574,-0.17978231608867645,0.0,0.0,0.0,0.0,0.0,0.0,0.0,-0.1575173554717086,0.34172769146770116,0.12499141699304019,0.4476068847798473,-0.16108712318292465,0.12587627561637757,-0.20920178097645256,0.1728323103041937,-0.4875423270236777,-0.11140007941949759,-1.9466997864660294,0.1336120561559995,2.595550359778934,0.945244558961855,0.1728802376190821,-0.48752024683155326,-0.11147110072896137,-1.9463801863486305,0.1336059019074957,2.595550359778934,0.9452445589611904,-0.0003205525920245242,-0.0005965582035872163,0.0006831832740499937,4.089375488467286e-05,-0.009224980547441648,0.00017767298394356042,-0.0008056185154399494,0.0,0.0,0.0,0.0,0.0,0.0,0.0,4.7927314888424055e-05,2.2080192124462883e-05,-7.102130946377849e-05,0.00031960011739884386,-6.154248503809079e-06,0.0,-6.645795025406187e-13,0.0003205525920245242,0.0005965582035872163,-0.0006831832740499937,-4.089375488467286e-05,0.009224980547441648,-0.00017767298394356042,0.0008056185154399494,0.14510458707809448,11.949304580688477,-1.2909882068634033,-21.741060256958008,-0.3674216866493225,-2.5271639823913574,0.17978231608867645,0
56,0.2750980854034424,-0.19667929410934448,-11.973108291625977,1.3147919178009033,21.768831253051758,0.3738303780555725,2.5207552909851074,-0.20724813640117645,0.0,0.0,0.0,0.0,0.0,0.0,0.0,-0.15809790173791682,0.34062058370723425,0.12262320759828584,0.4529435321258366,-0.16064056420329428,0.12702211957874568,-0.20807753895681833,0.17283594622690043,-0.4875401402473272,-0.11140175072344556,-1.9467017352957474,0.13361134407917657,2.595551071855757,0.9452476107196676,0.1728802376190821,-0.48752024683155326,-0.11147110072896137,-1.9463801863486305,0.1336059019074957,2.595550359778934,0.9452445589611904,0.0012103590719299276,0.0003316606264068903,-0.00011549697307641253,-0.00043068415960685814,-0.0005179088253830702,0.0002940111868075108,0.000472531266512843,0.0,0.0,0.0,0.0,0.0,0.0,0.0,4.429139218167788e-05,1.9893415773963863e-05,-6.935000551580583e-05,0.00032154894711688975,-5.442171680886121e-06,-7.120768228396912e-07,-3.051758477146116e-06,-0.0012103590719299276,-0.0003316606264068903,0.00011549697307641253,0.00043068415960685814,0.0005179088253830702,-0.0002940111868075108,-0.000472531266512843,0.19667929410934448,11.973108291625977,-1.3147919178009033,-21.768831253051758,-0.3738303780555725,-2.5207552909851074,0.20724813640117645,0
57,0.28000545501708984,-0.19667929410934448,-11.973108291625977,1.3147919178009033,21.768831253051758,0.3738303780555725,2.5207552909851074,-0.20724813640117645,0.0,0.0,0.0,0.0,0.0,0.0,0.0,-0.15809790173791682,0.34062058370723425,0.12262320759828584,0.4529435321258366,-0.16064056420329428,0.12702211957874568,-0.20807753895681833,0.17283594622690043,-0.4875401402473272,-0.11140175072344556,-1.9467017352957474,0.13361134407917657,2.595551071855757,0.9452476107196676,0.1728802376190821,-0.48752024683155326,-0.11147110072896137,-1.9463801863486305,0.1336059019074957,2.595550359778934,0.9452445589611904,0.0012103590719299276,0.0003316606264068903,-0.00011549697307641253,-0.00043068415960685814,-0.0005179088253830702,0.0002940111868075108,0.000472531266512843,0.0,0.0,0.0,0.0,0.0,0.0,0.0,4.429139218167788e-05,1.9893415773963863e-05,-6.935000551580583e-05,0.00032154894711688975,-5.442171680886121e-06,-7.120768228396912e-07,-3.051758477146116e-06,-0.0012103590719299276,-0.0003316606264068903,0.00011549697307641253,0.00043068415960685814,0.0005179088253830702,-0.0002940111868075108,-0.000472531266512843,0.19667929410934448,11.973108291625977,-1.3147919178009033,-21.768831253051758,-0.3738303780555725,-2.5207552909851074,0.20724813640117645,0
58,0.28499293327331543,-0.17287558317184448,-11.973108291625977,1.3147919178009033,21.741060256958008,0.3793235421180725,2.5207552909851074,-0.20083944499492645,0.0,0.0,0.0,0.0,0.0,0.0,0.0,-0.15880029344674265,0.35240778089763075,0.12092628516882832,0.4484965580862246,-0.16156518622932298,0.12576907510825744,-0.20834133056022602,0.17283448563650114,-0.4875399802584233,-0.1114017497468468,-1.9466997864539164,0.1336107337276141,2.59555107137124,0.9452468986428446,0.1728802376190821,-0.48752024683155326,-0.11147110072896137,-1.9463801863486305,0.1336059019074957,2.595550359778934,0.9452445589611904,-4.59136401360133e-05,0.0005259357110032449,-0.0004958454555966007,-0.00035965692324954986,-0.00034693807047973064,-2.4296625962133448e-05,-0.00018355342870277725,0.0,0.0,0.0,0.0,0.0,0.0,0.0,4.575198258097157e-05,1.9733426870061077e-05,-6.935098211456603e-05,0.0003196001052858666,-4.831820118400554e-06,-7.115923059686224e-07,-2.3396816541954024e-06,4.59136401360133e-05,-0.0005259357110032449,0.0004958454555966007,0.00035965692324954986,0.00034693807047973064,2.4296625962133448e-05,0.00018355342870277725,0.17287558317184448,11.973108291625977,-1.3147919178009033,-21.741060256958008,-0.3793235421180725,-2.5207552909851074,0.20083944499492645,0
59,0.2900044918060303,-0.17287558317184448,-11.973108291625977,1.3147919178009033,21.741060256958008,0.3793235421180725,2.5207552909851074,-0.20083944499492645,0.0,0.0,0.0,0.0,0.0,0.0,0.0,-0.15880029344674265,0.35240778089763075,0.12092628516882832,0.4484965580862246,-0.16156518622932298,0.12576907510825744,-0.20834133056022602,0.17283448563650114,-0.4875399802584233,-0.1114017497468468,-1.9466997864539164,0.1336107337276141,2.59555107137124,0.9452468986428446,0.1728802376190821,-0.48752024683155326,-0.11147110072896137,-1.9463801863486305,0.1336059019074957,2.595550359778934,0.9452445589611904,-4.59136401360133e-05,0.0005259357110032449,-0.0004958454555966007,-0.00035965692324954986,-0.00034693807047973064,-2.4296625962133448e-05,-0.00018355342870277725,0.0,0.0,0.0,0.0,0.0,0.0,0.0,4.575198258097157e-05,1.9733426870061077e-05,-6.935098211456603e-05,0.0003196001052858666,-4.831820118400554e-06,-7.115923059686224e-07,-2.3396816541954024e-06,4.59136401360133e-05,-0.0005259357110032449,0.0004958454555966007,0.00035965692324954986,0.00034693807047973064,2.4296625962133448e-05,0.00018355342870277725,0.17287558317184448,11.973108291625977,-1.3147919178009033,-21.741060256958008,-0.3793235421180725,-2.5207552909851074,0.20083944499492645,0
60,0.29500699043273926,-0.14510458707809448,-11.973108291625977,1.3147919178009033,21.768831253051758,0.3738303780555725,2.5335726737976074,-0.17978231608867645,0.0,0.0,0.0,0.0,0.0,0.0,0.0,-0.16024591074435487,0.34156400151361044,0.1207089535111738,0.4592318553035081,-0.16125924384111523,0.12636262146529692,-0.20951596187418134,0.17283327178252708,-0.4875408209721402,-0.11140174974684129,-1.9467017352957474,0.13361134407917657,2.5955496477021085,0.945244558961855,0.1728802376190821,-0.48752024683155326,-0.11147110072896137,-1.9463801863486305,0.1336059019074957,2.595550359778934,0.9452445589611904,-0.000400437944412163,0.0001123526135071463,-0.0005328787228112142,-0.00029390785687261853,-2.873567244769962e-05,-0.00019346339211232782,-0.0011693029574828978,0.0,0.0,0.0,0.0,0.0,0.0,0.0,4.6965836555029616e-05,2.0574140586926415e-05,-6.935098212007551e-05,0.00032154894711688975,-5.442171680886121e-06,7.120768255042265e-07,-6.645795025406187e-13,0.000400437944412163,-0.0001123526135071463,0.0005328787228112142,0.00029390785687261853,2.873567244769962e-05,0.00019346339211232782,0.0011693029574828978,0.14510458707809448,11.973108291625977,-1.3147919178009033,-21.768831253051758,-0.3738303780555725,-2.5335726737976074,0.17978231608867645,0
61,0.3000004291534424,-0.14510458707809448,-11.973108291625977,1.3147919178009033,21.768831253051758,0.3738303780555725,2.5335726737976074,-0.17978231608867645,0.0,0.0,0.0,0.0,0.0,0.0,0.0,-0.16024591074435487,0.34156400151361044,0.1207089535111738,0.4592318553035081,-0.16125924384111523,0.12636262146529692,-0.20951596187418134,0.17283327178252708,-0.4875408209721402,-0.11140174974684129,-1.9467017352957474,0.13361134407917657,2.5955496477021085,0.945244558961855,0.1728802376190821,-0.48752024683155326,-0.11147110072896137,-1.9463801863486305,0.1336059019074957,2.595550359778934,0.9452445589611904,-0.000400437944412163,0.0001123526135071463,-0.0005328787228112142,-0.00029390785687261853,-2.873567244769962e-05,-0.00019346339211232782,-0.0011693029574828978,0.0,0.0,0.0,0.0,0.0,0.0,0.0,4.6965836555029616e-05,2.0574140586926415e-05,-6.935098212007551e-05,0.00032154894711688975,-5.442171680886121e-06,7.120768255042265e-07,-6.645795025406187e-13,0.000400437944412163,-0.0001123526135071463,0.0005328787228112142,0.00029390785687261853,2.873567244769962e-05,0.00019346339211232782,0.0011693029574828978,0.14510458707809448,11.973108291625977,-1.3147919178009033,-21.768831253051758,-0.3738303780555725,-2.5335726737976074,0.17978231608867645,0
62,0.3050053119659424,-0.17287558317184448,-12.000879287719727,1.3147919178009033,21.768831253051758,0.3857322335243225,2.5271639823913574,-0.18710653483867645,0.0,0.0,0.0,0.0,0.0,0.0,0.0,-0.15644826695845987,0.3513702426366169,0.1254732690365575,0.45483210868058976,-0.16142538392046113,0.12567797417109622,-0.21050455075814128,0.17283432820383726,-0.4875361337136854,-0.11140174974684129,-1.9467017352957474,0.13361002165079117,2.595550359778934,0.9452453727639384,0.1728802376190821,-0.48752024683155326,-0.11147110072896137,-1.9463801863486305,0.1336059019074957,2.595550359778934,0.9452445589611904,0.0006358817082116534,0.0003008791866312901,0.00017734840640249659,-0.0008372579312879615,-0.0003790606634000395,1.8232573179324791e-06,-0.0004698616189205856,0.0,0.0,0.0,0.0,0.0,0.0,0.0,4.590941524484915e-05,1.5886882132165603e-05,-6.935098212007551e-05,0.00032154894711688975,-4.119743295477596e-06,0.0,-8.138027479676069e-07,-0.0006358817082116534,-0.0003008791866312901,-0.00017734840640249659,0.0008372579312879615,0.0003790606634000395,-1.8232573179324791e-06,0.0004698616189205856,0.17287558317184448,12.000879287719727,-1.3147919178009033,-21.768831253051758,-0.3857322335243225,-2.5271639823913574,0.18710653483867645,0
63,0.31000709533691406,-0.17287558317184448,-12.000879287719727,1.3147919178009033,21.768831253051758,0.3857322335243225,2.5271639823913574,-0.18710653483867645,0.0,0.0,0.0,0.0,0.0,0.0,0.0,-0.15644826695845987,0.3513702426366169,0.1254732690365575,0.45483210868058976,-0.16142538392046113,0.12567797417109622,-0.21050455075814128,0.17283432820383726,-0.4875361337136854,-0.11140174974684129,-1.9467017352957474,0.13361002165079117,2.595550359778934,0.9452453727639384,0.1728802376190821,-0.48752024683155326,-0.11147110072896137,-1.9463801863486305,0.1336059019074957,2.595550359778934,0.9452445589611904,0.0006358817082116534,0.0003008791866312901,0.00017734840640249659,-0.0008372579312879615,-0.0003790606634000395,1.8232573179324791e-06,-0.0004698616189205856,0.0,0.0,0.0,0.0,0.0,0.0,0.0,4.590941524484915e-05,1.5886882132165603e-05,-6.935098212007551e-05,0.00032154894711688975,-4.119743295477596e-06,0.0,-8.138027479676069e-07,-0.0006358817082116534,-0.0003008791866312901,-0.00017734840640249659,0.0008372579312879615,0.0003790606634000395,-1.8232573179324791e-06,0.0004698616189205856,0.17287558317184448,12.000879287719727,-1.3147919178009033,-21.768831253051758,-0.3857322335243225,-2.5271639823913574,0.18710653483867645,0
64,0.3150036334991455,-0.12130087614059448,-12.072290420532227,1.3147919178009033,21.741060256958008,0.3738303780555725,2.5335726737976074,-0.20724813640117645,0.0,0.0,0.0,0.0,0.0,0.0,0.0,-0.15912027011765464,0.34255780563160826,0.1210928467356153,0.4589758113979918,-0.1609248192635456,0.12647732039320803,-0.21055669109681127,0.17283063403635784,-0.48753081145607535,-0.11140174974684129,-1.9466997864539164,0.13361134407917657,2.595549647702111,0.9452476107196676,0.1728802376190821,-0.48752024683155326,-0.11147110072896137,-1.9463801863486305,0.1336059019074957,2.595550359778934,0.9452445589611904,-0.0007263294868343016,0.0016890677880287636,0.00013819103454573982,0.0004016437544484359,-1.845309884090877e-05,-0.0003306349717766316,2.0295791020671045e-07,0.0,0.0,0.0,0.0,0.0,0.0,0.0,4.9603582724266904e-05,1.0564624522091393e-05,-6.935098212007551e-05,0.0003196001052858666,-5.442171680886121e-06,7.120768228396912e-07,-3.051758477146116e-06,0.0007263294868343016,-0.0016890677880287636,-0.00013819103454573982,-0.0004016437544484359,1.845309884090877e-05,0.0003306349717766316,-2.0295791020671045e-07,0.12130087614059448,12.072290420532227,-1.3147919178009033,-21.741060256958008,-0.3738303780555725,-2.5335726737976074,0.20724813640117645,0
65,0.3200113773345947,-0.12130087614059448,-12.072290420532227,1.3147919178009033,21.741060256958008,0.3738303780555725,2.5335726737976074,-0.20724813640117645,0.0,0.0,0.0,0.0,0.0,0.0,0.0,-0.15912027011765464,0.34255780563160826,0.1210928467356153,0.4589758113979918,-0.1609248192635456,0.12647732039320803,-0.21055669109681127,0.17283063403635784,-0.48753081145607535,-0.11140174974684129,-1.9466997864539164,0.13361134407917657,2.595549647702111,0.9452476107196676,0.1728802376190821,-0.48752024683155326,-0.11147110072896137,-1.9463801863486305,0.1336059019074957,2.595550359778934,0.9452445589611904,-0.0007263294868343016,0.0016890677880287636,0.00013819103454573982,0.0004016437544484359,-1.845309884090877e-05,-0.0003306349717766316,2.0295791020671045e-07,0.0,0.0,0.0,0.0,0.0,0.0,0.0,4.9603582724266904e-05,1.0564624522091393e-05,-6.935098212007551e-05,0.0003196001052858666,-5.442171680886121e-06,7.120768228396912e-07,-3.051758477146116e-06,0.0007263294868343016,-0.0016890677880287636,-0.00013819103454573982,-0.0004016437544484359,1.845309884090877e-05,0.0003306349717766316,-2.0295791020671045e-07,0.12130087614059448,12.072290420532227,-1.3147919178009033,-21.741060256958008,-0.3738303780555725,-2.5335726737976074,0.20724813640117645,0
66,0.3249983787536621,-0.12130087614059448,-12.072290420532227,1.3147919178009033,21.741060256958008,0.3738303780555725,2.5335726737976074,-0.20724813640117645,0.0,0.0,0.0,0.0,0.0,0.0,0.0,-0.15912027011765464,0.34255780563160826,0.1210928467356153,0.4589758113979918,-0.1609248192635456,0.12647732039320803,-0.21055669109681127,0.17283063403635784,-0.48753081145607535,-0.11140174974684129,-1.9466997864539164,0.13361134407917657,2.595549647702111,0.9452476107196676,0.1728802376190821,-0.48752024683155326,-0.11147110072896137,-1.9463801863486305,0.1336059019074957,2.595550359778934,0.9452445589611904,-0.0007263294868343016,0.0016890677880287636,0.00013819103454573982,0.0004016437544484359,-1.845309884090877e-05,-0.0003306349717766316,2.0295791020671045e-07,0.0,0.0,0.0,0.0,0.0,0.0,0.0,4.9603582724266904e-05,1.0564624522091393e-05,-6.935098212007551e-05,0.0003196001052858666,-5.442171680886121e-06,7.120768228396912e-07,-3.051758477146116e-06,0.0007263294868343016,-0.0016890677880287636,-0.00013819103454573982,-0.0004016437544484359,1.845309884090877e-05,0.0003306349717766316,-2.0295791020671045e-07,0.12130087614059448,12.072290420532227,-1.3147919178009033,-21.741060256958008,-0.3738303780555725,-2.5335726737976074,0.20724813640117645,0
67,0.3300302028656006,-0.12130087614059448,-12.072290420532227,1.3147919178009033,21.741060256958008,0.3738303780555725,2.5335726737976074,-0.20724813640117645,0.0,0.0,0.0,0.0,0.0,0.0,0.0,-0.15912027011765464,0.34255780563160826,0.1210928467356153,0.4589758113979918,-0.1609248192635456,0.12647732039320803,-0.21055669109681127,0.17283063403635784,-0.48753081145607535,-0.11140174974684129,-1.9466997864539164,0.13361134407917657,2.595549647702111,0.9452476107196676,0.1728802376190821,-0.48752024683155326,-0.11147110072896137,-1.9463801863486305,0.1336059019074957,2.595550359778934,0.9452445589611904,-0.0007263294868343016,0.0016890677880287636,0.00013819103454573982,0.0004016437544484359,-1.845309884090877e-05,-0.0003306349717766316,2.0295791020671045e-07,0.0,0.0,0.0,0.0,0.0,0.0,0.0,4.9603582724266904e-05,1.0564624522091393e-05,-6.935098212007551e-05,0.0003196001052858666,-5.442171680886121e-06,7.120768228396912e-07,-3.051758477146116e-06,0.0007263294868343016,-0.0016890677880287636,-0.00013819103454573982,-0.0004016437544484359,1.845309884090877e-05,0.0003306349717766316,-2.0295791020671045e-07,0.12130087614059448,12.072290420532227,-1.3147919178009033,-21.741060256958008,-0.3738303780555725,-2.5335726737976074,0.20724813640117645,0
68,0.3350043296813965,-0.17287558317184448,-12.000879287719727,1.3147919178009033,21.717256546020508,0.3793235421180725,2.5271639823913574,-0.18710653483867645,0.0,0.0,0.0,0.0,0.0,0.0,0.0,-0.15794425081342975,0.3484913091562771,0.12204761225754868,0.450937422059521,-0.16083817983880974,0.12536352733348152,-0.21075055637344212,0.17283424946137688,-0.4875358252228272,-0.1114017526766535,-1.946698116018061,0.1336107337276141,2.5955493001408048,0.9452453727639384,0.1728802376190821,-0.48752024683155326,-0.11147110072896137,-1.9463801863486305,0.1336059019074957,2.595550359778934,0.9452445589611904,-4.3728471454395616e-05,-8.593396317962057e-05,0.0004478358245490593,0.0006479253389518747,-0.00023344637753872237,2.9271667377231218e-05,-0.0003795814256354533,0.0,0.0,0.0,0.0,0.0,0.0,0.0,4.598815770523457e-05,1.5578391273918246e-05,-6.934805230786323e-05,0.0003179296694304501,-4.831820118400554e-06,1.0596381292415913e-06,-8.138027479676069e-07,4.3728471454395616e-05,8.593396317962057e-05,-0.0004478358245490593,-0.0006479253389518747,0.00023344637753872237,-2.9271667377231218e-05,0.0003795814256354533,0.17287558317184448,12.000879287719727,-1.3147919178009033,-21.717256546020508,-0.3793235421180725,-2.5271639823913574,0.18710653483867645,0
69,0.34009647369384766,-0.17287558317184448,-12.000879287719727,1.3147919178009033,21.717256546020508,0.3793235421180725,2.5271639823913574,-0.18710653483867645,0.0,0.0,0.0,0.0,0.0,0.0,0.0,-0.15794425081342975,0.3484913091562771,0.12204761225754868,0.450937422059521,-0.16083817983880974,0.12536352733348152,-0.21075055637344212,0.17283424946137688,-0.4875358252228272,-0.1114017526766535,-1.946698116018061,0.1336107337276141,2.5955493001408048,0.9452453727639384,0.1728802376190821,-0.48752024683155326,-0.11147110072896137,-1.9463801863486305,0.1336059019074957,2.595550359778934,0.9452445589611904,-4.3728471454395616e-05,-8.593396317962057e-05,0.0004478358245490593,0.0006479253389518747,-0.00023344637753872237,2.9271667377231218e-05,-0.0003795814256354533,0.0,0.0,0.0,0.0,0.0,0.0,0.0,4.598815770523457e-05,1.5578391273918246e-05,-6.934805230786323e-05,0.0003179296694304501,-4.831820118400554e-06,1.0596381292415913e-06,-8.138027479676069e-07,4.3728471454395616e-05,8.593396317962057e-05,-0.0004478358245490593,-0.0006479253389518747,0.00023344637753872237,-2.9271667377231218e-05,0.0003795814256354533,0.17287558317184448,12.000879287719727,-1.3147919178009033,-21.717256546020508,-0.3793235421180725,-2.5271639823913574,0.18710653483867645,0
70,0.3451662063598633,-0.17287558317184448,-11.973108291625977,1.3147919178009033,21.717256546020508,0.3674216866493225,2.5207552909851074,-0.21457235515117645,0.0,0.0,0.0,0.0,0.0,0.0,0.0,-0.16056561794312094,0.33142721637370204,0.12018026442831264,0.457138766504105,-0.16027454629425245,0.12685258571790456,-0.21056858384042454,0.17283424942535286,-0.48753847543294815,-0.11140174974685783,-1.946698116018061,0.1336120561559995,2.595551071849775,0.9452484245217508,0.1728802376190821,-0.48752024683155326,-0.11147110072896137,-1.9463801863486305,0.1336059019074957,2.595550359778934,0.9452445589611904,0.000349842444133589,-0.0008908625739521227,-0.0003399198023471428,0.0010306322855022337,0.00010878217952592523,0.0003374179326441401,0.0005804415176356309,0.0,0.0,0.0,0.0,0.0,0.0,0.0,4.598819372925167e-05,1.8228601394887356e-05,-6.935098210353319e-05,0.0003179296694304501,-6.154248503809079e-06,-7.120708409580345e-07,-3.865560560423198e-06,-0.000349842444133589,0.0008908625739521227,0.0003399198023471428,-0.0010306322855022337,-0.00010878217952592523,-0.0003374179326441401,-0.0005804415176356309,0.17287558317184448,11.973108291625977,-1.3147919178009033,-21.717256546020508,-0.3674216866493225,-2.5207552909851074,0.21457235515117645,0
71,0.350006103515625,-0.17287558317184448,-11.973108291625977,1.3147919178009033,21.717256546020508,0.3674216866493225,2.5207552909851074,-0.21457235515117645,0.0,0.0,0.0,0.0,0.0,0.0,0.0,-0.16056561794312094,0.33142721637370204,0.12018026442831264,0.457138766504105,-0.16027454629425245,0.12685258571790456,-0.21056858384042454,0.17283424942535286,-0.48753847543294815,-0.11140174974685783,-1.946698116018061,0.1336120561559995,2.595551071849775,0.9452484245217508,0.1728802376190821,-0.48752024683155326,-0.11147110072896137,-1.9463801863486305,0.1336059019074957,2.595550359778934,0.9452445589611904,0.000349842444133589,-0.0008908625739521227,-0.0003399198023471428,0.0010306322855022337,0.00010878217952592523,0.0003374179326441401,0.0005804415176356309,0.0,0.0,0.0,0.0,0.0,0.0,0.0,4.598819372925167e-05,1.8228601394887356e-05,-6.935098210353319e-05,0.0003179296694304501,-6.154248503809079e-06,-7.120708409580345e-07,-3.865560560423198e-06,-0.000349842444133589,0.0008908625739521227,0.0003399198023471428,-0.0010306322855022337,-0.00010878217952592523,-0.0003374179326441401,-0.0005804415176356309,0.17287558317184448,11.973108291625977,-1.3147919178009033,-21.717256546020508,-0.3674216866493225,-2.5207552909851074,0.21457235515117645,0
72,0.3549952507019043,-0.12130087614059448,-11.973108291625977,1.3147919178009033,21.741060256958008,0.3793235421180725,2.5207552909851074,-0.22830526530742645,0.0,0.0,0.0,0.0,0.0,0.0,0.0,-0.15340539966388142,0.34760205061957145,0.13420895323698545,0.44859479685294396,-0.16119673385483801,0.12454832007315376,-0.21167022744435388,0.17283133910468582,-0.4875384995113334,-0.11140174974684129,-1.9466997864539164,0.1336107337276141,2.595551071855757,0.9452499504006571,0.1728802376190821,-0.48752024683155326,-0.11147110072896137,-1.9463801863486305,0.1336059019074957,2.595550359778934,0.9452445589611904,-0.0010878298588692912,-5.697137866900912e-05,0.0006304395082377395,0.00024140320707814503,-0.00010150987688332181,0.00016408170187731913,0.0012047149803199762,0.0,0.0,0.0,0.0,0.0,0.0,0.0,4.8898514396295e-05,1.8252679780117465e-05,-6.935098212007551e-05,0.0003196001052858666,-4.831820118400554e-06,-7.120768228396912e-07,-5.3914394666509935e-06,0.0010878298588692912,5.697137866900912e-05,-0.0006304395082377395,-0.00024140320707814503,0.00010150987688332181,-0.00016408170187731913,-0.0012047149803199762,0.12130087614059448,11.973108291625977,-1.3147919178009033,-21.741060256958008,-0.3793235421180725,-2.5207552909851074,0.22830526530742645,0
73,0.35999464988708496,-0.12130087614059448,-11.973108291625977,1.3147919178009033,21.741060256958008,0.3793235421180725,2.5207552909851074,-0.22830526530742645,0.0,0.0,0.0,0.0,0.0,0.0,0.0,-0.15340539966388142,0.34760205061957145,0.13420895323698545,0.44859479685294396,-0.16119673385483801,0.12454832007315376,-0.21167022744435388,0.17283133910468582,-0.4875384995113334,-0.11140174974684129,-1.9466997864539164,0.1336107337276141,2.595551071855757,0.9452499504006571,0.1728802376190821,-0.48752024683155326,-0.11147110072896137,-1.9463801863486305,0.1336059019074957,2.595550359778934,0.9452445589611904,-0.0010878298588692912,-5.697137866900912e-05,0.0006304395082377395,0.00024140320707814503,-0.00010150987688332181,0.00016408170187731913,0.0012047149803199762,0.0,0.0,0.0,0.0,0.0,0.0,0.0,4.8898514396295e-05,1.8252679780117465e-05,-6.935098212007551e-05,0.0003196001052858666,-4.831820118400554e-06,-7.120768228396912e-07,-5.3914394666509935e-06,0.0010878298588692912,5.697137866900912e-05,-0.0006304395082377395,-0.00024140320707814503,0.00010150987688332181,-0.00016408170187731913,-0.0012047149803199762,0.12130087614059448,11.973108291625977,-1.3147919178009033,-21.741060256958008,-0.3793235421180725,-2.5207552909851074,0.22830526530742645,0
74,0.36499571800231934,-0.19667929410934448,-11.973108291625977,1.3147919178009033,21.717256546020508,0.3738303780555725,2.5271639823913574,-0.24112264811992645,0.0,0.0,0.0,0.0,0.0,0.0,0.0,-0.16267193076449632,0.33888380686415204,0.12300818554550061,0.45467575719368136,-0.15978340498222005,0.12498267519127548,-0.21348064285518337,0.17283592094527858,-0.487538501116431,-0.11140174974684129,-1.946698116018061,0.13361134407917657,2.595550359778934,0.9452514952353122,0.1728802376190821,-0.48752024683155326,-0.11147110072896137,-1.9463801863486305,0.1336059019074957,2.595550359778934,0.9452445589611904,0.0007234807793934727,-0.0002892612280406807,-2.746920043596071e-05,0.0006196351733424064,4.831865880825334e-06,-0.00018977012167785938,0.0011544402504582321,0.0,0.0,0.0,0.0,0.0,0.0,0.0,4.431667380352944e-05,1.8254284877727844e-05,-6.935098212007551e-05,0.0003179296694304501,-5.442171680886121e-06,0.0,-6.936274121738251e-06,-0.0007234807793934727,0.0002892612280406807,2.746920043596071e-05,-0.0006196351733424064,-4.831865880825334e-06,0.00018977012167785938,-0.0011544402504582321,0.19667929410934448,11.973108291625977,-1.3147919178009033,-21.717256546020508,-0.3738303780555725,-2.5271639823913574,0.24112264811992645,0
75,0.3700118064880371,-0.19667929410934448,-11.973108291625977,1.3147919178009033,21.717256546020508,0.3738303780555725,2.5271639823913574,-0.24112264811992645,0.0,0.0,0.0,0.0,0.0,0.0,0.0,-0.16267193076449632,0.33888380686415204,0.12300818554550061,0.45467575719368136,-0.15978340498222005,0.12498267519127548,-0.21348064285518337,0.17283592094527858,-0.487538501116431,-0.11140174974684129,-1.946698116018061,0.13361134407917657,2.595550359778934,0.9452514952353122,0.1728802376190821,-0.48752024683155326,-0.11147110072896137,-1.9463801863486305,0.1336059019074957,2.595550359778934,0.9452445589611904,0.0007234807793934727,-0.0002892612280406807,-2.746920043596071e-05,0.0006196351733424064,4.831865880825334e-06,-0.00018977012167785938,0.0011544402504582321,0.0,0.0,0.0,0.0,0.0,0.0,0.0,4.431667380352944e-05,1.8254284877727844e-05,-6.935098212007551e-05,0.0003179296694304501,-5.442171680886121e-06,0.0,-6.936274121738251e-06,-0.0007234807793934727,0.0002892612280406807,2.746920043596071e-05,-0.0006196351733424064,-4.831865880825334e-06,0.00018977012167785938,-0.0011544402504582321,0.19667929410934448,11.973108291625977,-1.3147919178009033,-21.717256546020508,-0.3738303780555725,-2.5271639823913574,0.24112264811992645,0
76,0.3749966621398926,-0.17287558317184448,-11.973108291625977,1.3425629138946533,21.741060256958008,0.3738303780555725,2.5207552909851074,-0.22830526530742645,0.0,0.0,0.0,0.0,0.0,0.0,0.0,-0.16471226748414894,0.3336910371568635,0.11995550254962026,0.45861906986728107,-0.1597969583166303,0.12576713101900946,-0.21536009531578823,0.1728343369109142,-0.4875378780702965,-0.11140369858867244,-1.9466997864539164,0.13361134407917657,2.595551071855757,0.9452499504013383,0.1728802376190821,-0.48752024683155326,-0.11147110072896137,-1.9463801863486305,0.1336059019074957,2.595550359778934,0.9452445589611904,0.0003172216646825034,-0.00010810766960208739,-0.0010728800240795374,0.0001597166426834923,1.588426978403508e-05,0.00039069100499968245,0.0006328778485223817,0.0,0.0,0.0,0.0,0.0,0.0,0.0,4.590070816790082e-05,1.763123874326533e-05,-6.740214028892744e-05,0.0003196001052858666,-5.442171680886121e-06,-7.120768228396912e-07,-5.391440147883841e-06,-0.0003172216646825034,0.00010810766960208739,0.0010728800240795374,-0.0001597166426834923,-1.588426978403508e-05,-0.00039069100499968245,-0.0006328778485223817,0.17287558317184448,11.973108291625977,-1.3425629138946533,-21.741060256958008,-0.3738303780555725,-2.5207552909851074,0.22830526530742645,0
77,0.37999677658081055,-0.17287558317184448,-11.973108291625977,1.3425629138946533,21.741060256958008,0.3738303780555725,2.5207552909851074,-0.22830526530742645,0.0,0.0,0.0,0.0,0.0,0.0,0.0,-0.16471226748414894,0.3336910371568635,0.11995550254962026,0.45861906986728107,-0.1597969583166303,0.12576713101900946,-0.21536009531578823,0.1728343369109142,-0.4875378780702965,-0.11140369858867244,-1.9466997864539164,0.13361134407917657,2.595551071855757,0.9452499504013383,0.1728802376190821,-0.48752024683155326,-0.11147110072896137,-1.9463801863486305,0.1336059019074957,2.595550359778934,0.9452445589611904,0.0003172216646825034,-0.00010810766960208739,-0.0010728800240795374,0.0001597166426834923,1.588426978403508e-05,0.00039069100499968245,0.0006328778485223817,0.0,0.0,0.0,0.0,0.0,0.0,0.0,4.590070816790082e-05,1.763123874326533e-05,-6.740214028892744e-05,0.0003196001052858666,-5.442171680886121e-06,-7.120768228396912e-07,-5.391440147883841e-06,-0.0003172216646825034,0.00010810766960208739,0.0010728800240795374,-0.0001597166426834923,-1.588426978403508e-05,-0.00039069100499968245,-0.0006328778485223817,0.17287558317184448,11.973108291625977,-1.3425629138946533,-21.741060256958008,-0.3738303780555725,-2.5207552909851074,0.22830526530742645,0
78,0.3849945068359375,-0.19667929410934448,-11.973108291625977,1.3147919178009033,21.717256546020508,0.3857322335243225,2.5143465995788574,-0.17337362468242645,0.0,0.0,0.0,0.0,0.0,0.0,0.0,-0.1619209852096987,0.3473770397787725,0.12095445019065319,0.4492362296185111,-0.1601411716873087,0.12488361816717357,-0.2175406127425065,0.17283615650472886,-0.4875398795610541,-0.11140174974684129,-1.946698116018061,0.13361002165079117,2.5955517839325797,0.9452438468850322,0.1728802376190821,-0.48752024683155326,-0.11147110072896137,-1.9463801863486305,0.1336059019074957,2.595550359778934,0.9452445589611904,0.0006422282174009835,0.0001474150303125773,-0.00017634135743205723,0.0002978434925848381,-0.0006205456268744066,0.0004289804477126211,-0.0012967227181002754,0.0,0.0,0.0,0.0,0.0,0.0,0.0,4.408111435325046e-05,1.9632729500840274e-05,-6.935098212007551e-05,0.0003179296694304501,-4.119743295477596e-06,-1.4241536456793824e-06,7.120761582601887e-07,-0.0006422282174009835,-0.0001474150303125773,0.00017634135743205723,-0.0002978434925848381,0.0006205456268744066,-0.0004289804477126211,0.0012967227181002754,0.19667929410934448,11.973108291625977,-1.3147919178009033,-21.717256546020508,-0.3857322335243225,-2.5143465995788574,0.17337362468242645,0
79,0.3900012969970703,-0.19667929410934448,-11.973108291625977,1.3147919178009033,21.717256546020508,0.3857322335243225,2.5143465995788574,-0.17337362468242645,0.0,0.0,0.0,0.0,0.0,0.0,0.0,-0.1619209852096987,0.3473770397787725,0.12095445019065319,0.4492362296185111,-0.1601411716873087,0.12488361816717357,-0.2175406127425065,0.17283615650472886,-0.4875398795610541,-0.11140174974684129,-1.946698116018061,0.13361002165079117,2.5955517839325797,0.9452438468850322,0.1728802376190821,-0.48752024683155326,-0.11147110072896137,-1.9463801863486305,0.1336059019074957,2.595550359778934,0.9452445589611904,0.0006422282174009835,0.0001474150303125773,-0.00017634135743205723,0.0002978434925848381,-0.0006205456268744066,0.0004289804477126211,-0.0012967227181002754,0.0,0.0,0.0,0.0,0.0,0.0,0.0,4.408111435325046e-05,1.9632729500840274e-05,-6.935098212007551e-05,0.0003179296694304501,-4.119743295477596e-06,-1.4241536456793824e-06,7.120761582601887e-07,-0.0006422282174009835,-0.0001474150303125773,0.00017634135743205723,-0.0002978434925848381,0.0006205456268744066,-0.0004289804477126211,0.0012967227181002754,0.19667929410934448,11.973108291625977,-1.3147919178009033,-21.717256546020508,-0.3857322335243225,-2.5143465995788574,0.17337362468242645,0
80,0.39499449729919434,-0.14510458707809448,-11.949304580688477,1.2909882068634033,21.768831253051758,0.3793235421180725,2.5335726737976074,-0.15231649577617645,0.0,0.0,0.0,0.0,0.0,0.0,0.0,-0.1636005043107839,0.3516279573043927,0.11811436299003196,0.4442881822102195,-0.16049707555506887,0.12458666076754285,-0.21529857363761962,0.17283262428141247,-0.4875425174791387,-0.11140007934715655,-1.9467017352957474,0.1336107337276141,2.595549647702111,0.9452415072040425,0.1728802376190821,-0.48752024683155326,-0.11147110072896137,-1.9463801863486305,0.1336059019074957,2.595550359778934,0.9452445589611904,-0.0003096820560069081,-0.0002505956960114531,5.0786265424553326e-05,-0.0011457916372812182,-0.00014552743137929034,-0.00011487568114546798,-0.002035469634434094,0.0,0.0,0.0,0.0,0.0,0.0,0.0,4.761333766964415e-05,2.2270647585420633e-05,-7.102138180481443e-05,0.00032154894711688975,-4.831820118400554e-06,7.120768228396912e-07,3.0517571478760885e-06,0.0003096820560069081,0.0002505956960114531,-5.0786265424553326e-05,0.0011457916372812182,0.00014552743137929034,0.00011487568114546798,0.002035469634434094,0.14510458707809448,11.949304580688477,-1.2909882068634033,-21.768831253051758,-0.3793235421180725,-2.5335726737976074,0.15231649577617645,0
