rezayati/contactInterpretation/dataset/franka_main/labeled_data/link4/d8_8.csv
index,time,tau_J0,tau_J1,tau_J2,tau_J3,tau_J4,tau_J5,tau_J6,tau_J_d0,tau_J_d1,tau_J_d2,tau_J_d3,tau_J_d4,tau_J_d5,tau_J_d6,tau_ext0,tau_ext1,tau_ext2,tau_ext3,tau_ext4,tau_ext5,tau_ext6,q0,q1,q2,q3,q4,q5,q6,q_d0,q_d1,q_d2,q_d3,q_d4,q_d5,q_d6,dq0,dq1,dq2,dq3,dq4,dq5,dq6,dq_d0,dq_d1,dq_d2,dq_d3,dq_d4,dq_d5,dq_d6,e0,e1,e2,e3,e4,e5,e6,de0,de1,de2,de3,de4,de5,de6,etau_J0,etau_J1,etau_J2,etau_J3,etau_J4,etau_J5,etau_J6,label
1,0.0,-0.3236324191093445,-22.748254776000977,-0.1253325641155243,14.108003616333008,0.08177715539932251,2.1453890800476074,-0.38577598333358765,0.0,0.0,0.0,0.0,0.0,0.0,0.0,-0.32223507291000814,0.010017223100896635,-0.17274903045128448,0.2640488500560595,-0.15034026687997668,-0.04768228618949641,-0.3759982003019611,1.6755773441888648,0.052105888522869286,0.02995977642336283,-2.7523797767868623,0.03425621204574902,2.766372722678714,0.7691809021565648,1.6754973547542302,0.052104326824870026,0.029969505109285054,-2.752394845125968,0.0342448039870148,2.7663679543071322,0.7691630533470046,-7.912750184415976e-06,-0.001010123048792235,0.0016729418450434428,0.0010078547981961165,-3.20930282271619e-05,-0.00035781168258082545,3.8440774557296514e-05,0.0,0.0,0.0,0.0,0.0,0.0,0.0,-7.998943463460861e-05,-1.5616979992597035e-06,9.728685922222313e-06,-1.5068339105805961e-05,-1.1408058734216353e-05,-4.768371581587161e-06,-1.784880956012813e-05,7.912750184415976e-06,0.001010123048792235,-0.0016729418450434428,-0.0010078547981961165,3.20930282271619e-05,0.00035781168258082545,-3.8440774557296514e-05,0.3236324191093445,22.748254776000977,0.1253325641155243,-14.108003616333008,-0.08177715539932251,-2.1453890800476074,0.38577598333358765,0
2,0.00577545166015625,-0.3514034152030945,-22.748254776000977,-0.1253325641155243,14.108003616333008,0.08177715539932251,2.1389803886413574,-0.37204307317733765,0.0,0.0,0.0,0.0,0.0,0.0,0.0,-0.3276478524117973,0.015216274799495512,-0.17463174112655255,0.2610768972488279,-0.15044085078231628,-0.04876578410059057,-0.3775971635075076,1.67557929302935,0.052103755281681985,0.029959773502084005,-2.7523797486364385,0.03425621204574903,2.7663734347555367,0.7691825682739988,1.6754973547542302,0.052104326824870026,0.029969505109285054,-2.752394845125968,0.0342448039870148,2.7663679543071322,0.7691630533470046,-0.00013902179308665437,-0.0007636745222298589,0.00045200026736145425,0.00042766953823212157,7.22125955821833e-05,-0.0002219209049106461,-0.0005548040271459954,0.0,0.0,0.0,0.0,0.0,0.0,0.0,-8.193827511981944e-05,5.715431880409794e-07,9.731607201048792e-06,-1.5096489529575763e-05,-1.1408058734230231e-05,-5.480448404426852e-06,-1.9514926994146364e-05,0.00013902179308665437,0.0007636745222298589,-0.00045200026736145425,-0.00042766953823212157,-7.22125955821833e-05,0.0002219209049106461,0.0005548040271459954,0.3514034152030945,22.748254776000977,0.1253325641155243,-14.108003616333008,-0.08177715539932251,-2.1389803886413574,0.37204307317733765,0
3,0.01000356674194336,-0.3514034152030945,-22.748254776000977,-0.1253325641155243,14.108003616333008,0.08177715539932251,2.1389803886413574,-0.37204307317733765,0.0,0.0,0.0,0.0,0.0,0.0,0.0,-0.3276478524117973,0.015216274799495512,-0.17463174112655255,0.2610768972488279,-0.15044085078231628,-0.04876578410059057,-0.3775971635075076,1.67557929302935,0.052103755281681985,0.029959773502084005,-2.7523797486364385,0.03425621204574903,2.7663734347555367,0.7691825682739988,1.6754973547542302,0.052104326824870026,0.029969505109285054,-2.752394845125968,0.0342448039870148,2.7663679543071322,0.7691630533470046,-0.00013902179308665437,-0.0007636745222298589,0.00045200026736145425,0.00042766953823212157,7.22125955821833e-05,-0.0002219209049106461,-0.0005548040271459954,0.0,0.0,0.0,0.0,0.0,0.0,0.0,-8.193827511981944e-05,5.715431880409794e-07,9.731607201048792e-06,-1.5096489529575763e-05,-1.1408058734230231e-05,-5.480448404426852e-06,-1.9514926994146364e-05,0.00013902179308665437,0.0007636745222298589,-0.00045200026736145425,-0.00042766953823212157,-7.22125955821833e-05,0.0002219209049106461,0.0005548040271459954,0.3514034152030945,22.748254776000977,0.1253325641155243,-14.108003616333008,-0.08177715539932251,-2.1389803886413574,0.37204307317733765,0
4,0.01530003547668457,-0.3514034152030945,-22.748254776000977,-0.1253325641155243,14.108003616333008,0.08177715539932251,2.1389803886413574,-0.37204307317733765,0.0,0.0,0.0,0.0,0.0,0.0,0.0,-0.3276478524117973,0.015216274799495512,-0.17463174112655255,0.2610768972488279,-0.15044085078231628,-0.04876578410059057,-0.3775971635075076,1.67557929302935,0.052103755281681985,0.029959773502084005,-2.7523797486364385,0.03425621204574903,2.7663734347555367,0.7691825682739988,1.6754973547542302,0.052104326824870026,0.029969505109285054,-2.752394845125968,0.0342448039870148,2.7663679543071322,0.7691630533470046,-0.00013902179308665437,-0.0007636745222298589,0.00045200026736145425,0.00042766953823212157,7.22125955821833e-05,-0.0002219209049106461,-0.0005548040271459954,0.0,0.0,0.0,0.0,0.0,0.0,0.0,-8.193827511981944e-05,5.715431880409794e-07,9.731607201048792e-06,-1.5096489529575763e-05,-1.1408058734230231e-05,-5.480448404426852e-06,-1.9514926994146364e-05,0.00013902179308665437,0.0007636745222298589,-0.00045200026736145425,-0.00042766953823212157,-7.22125955821833e-05,0.0002219209049106461,0.0005548040271459954,0.3514034152030945,22.748254776000977,0.1253325641155243,-14.108003616333008,-0.08177715539932251,-2.1389803886413574,0.37204307317733765,0
5,0.020011425018310547,-0.3236324191093445,-22.748254776000977,-0.07375786453485489,14.155611038208008,0.07628399133682251,2.1389803886413574,-0.38577598333358765,0.0,0.0,0.0,0.0,0.0,0.0,0.0,-0.32192070501496384,0.012474562166901706,-0.16702438505973005,0.26870646780242335,-0.15178373828293312,-0.048146597073612254,-0.37772674951371293,1.675577344187519,0.05210588861921736,0.02995615426096933,-2.752382870861732,0.03425682239731153,2.7663734347555367,0.7691840859341392,1.6754973547542302,0.052104326824870026,0.029969505109285054,-2.752394845125968,0.0342448039870148,2.7663679543071322,0.7691630533470046,-0.0003322708098068333,-0.0006647276680162024,-0.0005673715733208321,-0.0001284193753588119,0.00028452479112316923,-0.00010895057832605811,2.7709660493290908e-05,0.0,0.0,0.0,0.0,0.0,0.0,0.0,-7.998943328879626e-05,-1.5617943473350548e-06,1.3350848315722003e-05,-1.197426423615866e-05,-1.2018410296729676e-05,-5.480448404426852e-06,-2.1032587134595104e-05,0.0003322708098068333,0.0006647276680162024,0.0005673715733208321,0.0001284193753588119,-0.00028452479112316923,0.00010895057832605811,-2.7709660493290908e-05,0.3236324191093445,22.748254776000977,0.07375786453485489,-14.155611038208008,-0.07628399133682251,-2.1389803886413574,0.38577598333358765,0
6,0.024991750717163086,-0.3236324191093445,-22.748254776000977,-0.07375786453485489,14.155611038208008,0.07628399133682251,2.1389803886413574,-0.38577598333358765,0.0,0.0,0.0,0.0,0.0,0.0,0.0,-0.32192070501496384,0.012474562166901706,-0.16702438505973005,0.26870646780242335,-0.15178373828293312,-0.048146597073612254,-0.37772674951371293,1.675577344187519,0.05210588861921736,0.02995615426096933,-2.752382870861732,0.03425682239731153,2.7663734347555367,0.7691840859341392,1.6754973547542302,0.052104326824870026,0.029969505109285054,-2.752394845125968,0.0342448039870148,2.7663679543071322,0.7691630533470046,-0.0003322708098068333,-0.0006647276680162024,-0.0005673715733208321,-0.0001284193753588119,0.00028452479112316923,-0.00010895057832605811,2.7709660493290908e-05,0.0,0.0,0.0,0.0,0.0,0.0,0.0,-7.998943328879626e-05,-1.5617943473350548e-06,1.3350848315722003e-05,-1.197426423615866e-05,-1.2018410296729676e-05,-5.480448404426852e-06,-2.1032587134595104e-05,0.0003322708098068333,0.0006647276680162024,0.0005673715733208321,0.0001284193753588119,-0.00028452479112316923,0.00010895057832605811,-2.7709660493290908e-05,0.3236324191093445,22.748254776000977,0.07375786453485489,-14.155611038208008,-0.07628399133682251,-2.1389803886413574,0.38577598333358765,0
7,0.029986858367919922,-0.3236324191093445,-22.748254776000977,-0.07375786453485489,14.155611038208008,0.07628399133682251,2.1389803886413574,-0.38577598333358765,0.0,0.0,0.0,0.0,0.0,0.0,0.0,-0.32192070501496384,0.012474562166901706,-0.16702438505973005,0.26870646780242335,-0.15178373828293312,-0.048146597073612254,-0.37772674951371293,1.675577344187519,0.05210588861921736,0.02995615426096933,-2.752382870861732,0.03425682239731153,2.7663734347555367,0.7691840859341392,1.6754973547542302,0.052104326824870026,0.029969505109285054,-2.752394845125968,0.0342448039870148,2.7663679543071322,0.7691630533470046,-0.0003322708098068333,-0.0006647276680162024,-0.0005673715733208321,-0.0001284193753588119,0.00028452479112316923,-0.00010895057832605811,2.7709660493290908e-05,0.0,0.0,0.0,0.0,0.0,0.0,0.0,-7.998943328879626e-05,-1.5617943473350548e-06,1.3350848315722003e-05,-1.197426423615866e-05,-1.2018410296729676e-05,-5.480448404426852e-06,-2.1032587134595104e-05,0.0003322708098068333,0.0006647276680162024,0.0005673715733208321,0.0001284193753588119,-0.00028452479112316923,0.00010895057832605811,-2.7709660493290908e-05,0.3236324191093445,22.748254776000977,0.07375786453485489,-14.155611038208008,-0.07628399133682251,-2.1389803886413574,0.38577598333358765,0
8,0.0349879264831543,-0.3236324191093445,-22.748254776000977,-0.07375786453485489,14.155611038208008,0.07628399133682251,2.1389803886413574,-0.38577598333358765,0.0,0.0,0.0,0.0,0.0,0.0,0.0,-0.32192070501496384,0.012474562166901706,-0.16702438505973005,0.26870646780242335,-0.15178373828293312,-0.048146597073612254,-0.37772674951371293,1.675577344187519,0.05210588861921736,0.02995615426096933,-2.752382870861732,0.03425682239731153,2.7663734347555367,0.7691840859341392,1.6754973547542302,0.052104326824870026,0.029969505109285054,-2.752394845125968,0.0342448039870148,2.7663679543071322,0.7691630533470046,-0.0003322708098068333,-0.0006647276680162024,-0.0005673715733208321,-0.0001284193753588119,0.00028452479112316923,-0.00010895057832605811,2.7709660493290908e-05,0.0,0.0,0.0,0.0,0.0,0.0,0.0,-7.998943328879626e-05,-1.5617943473350548e-06,1.3350848315722003e-05,-1.197426423615866e-05,-1.2018410296729676e-05,-5.480448404426852e-06,-2.1032587134595104e-05,0.0003322708098068333,0.0006647276680162024,0.0005673715733208321,0.0001284193753588119,-0.00028452479112316923,0.00010895057832605811,-2.7709660493290908e-05,0.3236324191093445,22.748254776000977,0.07375786453485489,-14.155611038208008,-0.07628399133682251,-2.1389803886413574,0.38577598333358765,0
9,0.03998613357543945,-0.3236324191093445,-22.772058486938477,-0.09756157547235489,14.108003616333008,0.08818584680557251,2.1389803886413574,-0.39218467473983765,0.0,0.0,0.0,0.0,0.0,0.0,0.0,-0.3310547912071554,0.01347166666077304,-0.1724657060311899,0.26988360948917084,-0.15143230189100274,-0.048710374936047046,-0.37701877710965875,1.675577344187519,0.05210755892260158,0.029957850952417157,-2.7523797767738376,0.034255499968926115,2.7663734347555367,0.76918280469703,1.6754973547542302,0.052104326824870026,0.029969505109285054,-2.752394845125968,0.0342448039870148,2.7663679543071322,0.7691630533470046,-0.000371356996842356,-0.0002960094165065699,0.00021835880520826886,0.0007426174433237402,-0.00023296092022402913,-0.0072503836230710115,0.0009378209022239678,0.0,0.0,0.0,0.0,0.0,0.0,0.0,-7.998943328879626e-05,-3.2320977315508648e-06,1.1654156867896975e-05,-1.5068352130498397e-05,-1.0695981911314212e-05,-5.480448404426852e-06,-1.9751350025409842e-05,0.000371356996842356,0.0002960094165065699,-0.00021835880520826886,-0.0007426174433237402,0.00023296092022402913,0.0072503836230710115,-0.0009378209022239678,0.3236324191093445,22.772058486938477,0.09756157547235489,-14.108003616333008,-0.08818584680557251,-2.1389803886413574,0.39218467473983765,0
10,0.04498744010925293,-0.3236324191093445,-22.772058486938477,-0.09756157547235489,14.108003616333008,0.08818584680557251,2.1389803886413574,-0.39218467473983765,0.0,0.0,0.0,0.0,0.0,0.0,0.0,-0.3310547912071554,0.01347166666077304,-0.1724657060311899,0.26988360948917084,-0.15143230189100274,-0.048710374936047046,-0.37701877710965875,1.675577344187519,0.05210755892260158,0.029957850952417157,-2.7523797767738376,0.034255499968926115,2.7663734347555367,0.76918280469703,1.6754973547542302,0.052104326824870026,0.029969505109285054,-2.752394845125968,0.0342448039870148,2.7663679543071322,0.7691630533470046,-0.000371356996842356,-0.0002960094165065699,0.00021835880520826886,0.0007426174433237402,-0.00023296092022402913,-0.0072503836230710115,0.0009378209022239678,0.0,0.0,0.0,0.0,0.0,0.0,0.0,-7.998943328879626e-05,-3.2320977315508648e-06,1.1654156867896975e-05,-1.5068352130498397e-05,-1.0695981911314212e-05,-5.480448404426852e-06,-1.9751350025409842e-05,0.000371356996842356,0.0002960094165065699,-0.00021835880520826886,-0.0007426174433237402,0.00023296092022402913,0.0072503836230710115,-0.0009378209022239678,0.3236324191093445,22.772058486938477,0.09756157547235489,-14.108003616333008,-0.08818584680557251,-2.1389803886413574,0.39218467473983765,0
11,0.04998373985290527,-0.3236324191093445,-22.772058486938477,-0.09756157547235489,14.131807327270508,0.08177715539932251,2.1325716972351074,-0.38577598333358765,0.0,0.0,0.0,0.0,0.0,0.0,0.0,-0.33184091389408193,0.011901876365992704,-0.17259398240271373,0.2708346719571392,-0.15147840489102465,-0.048591367332395066,-0.3742523064543526,1.6755773530178366,0.05210755028789826,0.02995853453567007,-2.7523806235119435,0.03425621204574903,2.76637414683236,0.7691819618014143,1.6754973547542302,0.052104326824870026,0.029969505109285054,-2.752394845125968,0.0342448039870148,2.7663679543071322,0.7691630533470046,-3.6655856349790274e-05,-0.0003701039021421114,0.0004015970615571172,-0.00012066692489381751,-3.687330248403667e-05,-0.000264699803485649,0.0010116680015952177,0.0,0.0,0.0,0.0,0.0,0.0,0.0,-7.999826360638451e-05,-3.2234630282373944e-06,1.0970573614984408e-05,-1.422161402464539e-05,-1.1408058734230231e-05,-6.192525227710632e-06,-1.8908454409660713e-05,3.6655856349790274e-05,0.0003701039021421114,-0.0004015970615571172,0.00012066692489381751,3.687330248403667e-05,0.000264699803485649,-0.0010116680015952177,0.3236324191093445,22.772058486938477,0.09756157547235489,-14.131807327270508,-0.08177715539932251,-2.1325716972351074,0.38577598333358765,0
12,0.054986000061035156,-0.3236324191093445,-22.772058486938477,-0.09756157547235489,14.131807327270508,0.08177715539932251,2.1325716972351074,-0.38577598333358765,0.0,0.0,0.0,0.0,0.0,0.0,0.0,-0.33184091389408193,0.011901876365992704,-0.17259398240271373,0.2708346719571392,-0.15147840489102465,-0.048591367332395066,-0.3742523064543526,1.6755773530178366,0.05210755028789826,0.02995853453567007,-2.7523806235119435,0.03425621204574903,2.76637414683236,0.7691819618014143,1.6754973547542302,0.052104326824870026,0.029969505109285054,-2.752394845125968,0.0342448039870148,2.7663679543071322,0.7691630533470046,-3.6655856349790274e-05,-0.0003701039021421114,0.0004015970615571172,-0.00012066692489381751,-3.687330248403667e-05,-0.000264699803485649,0.0010116680015952177,0.0,0.0,0.0,0.0,0.0,0.0,0.0,-7.999826360638451e-05,-3.2234630282373944e-06,1.0970573614984408e-05,-1.422161402464539e-05,-1.1408058734230231e-05,-6.192525227710632e-06,-1.8908454409660713e-05,3.6655856349790274e-05,0.0003701039021421114,-0.0004015970615571172,0.00012066692489381751,3.687330248403667e-05,0.000264699803485649,-0.0010116680015952177,0.3236324191093445,22.772058486938477,0.09756157547235489,-14.131807327270508,-0.08177715539932251,-2.1325716972351074,0.38577598333358765,0
13,0.05998682975769043,-0.2720577120780945,-22.819665908813477,-0.04995415359735489,14.131807327270508,0.07628399133682251,2.1325716972351074,-0.34457725286483765,0.0,0.0,0.0,0.0,0.0,0.0,0.0,-0.3279576675860501,0.015615929238516136,-0.17034414680401874,0.2642221862652457,-0.15168356188933624,-0.05070612735068714,-0.3712303749324119,1.6755737258910288,0.05210876622791421,0.02995448379305596,-2.752381447670283,0.03425682239731153,2.76637414683236,0.7691763637716844,1.6754973547542302,0.052104326824870026,0.029969505109285054,-2.752394845125968,0.0342448039870148,2.7663679543071322,0.7691630533470046,-0.0009554612441691526,0.0007514801249820165,-0.0004100829738480469,0.00026745398345569136,6.669456590049615e-05,0.00024907815139159746,-0.0007105788739391089,0.0,0.0,0.0,0.0,0.0,0.0,0.0,-7.637113679859198e-05,-4.439403044183277e-06,1.5021316229092002e-05,-1.339745568529338e-05,-1.2018410296729676e-05,-6.192525227710632e-06,-1.3310424679779942e-05,0.0009554612441691526,-0.0007514801249820165,0.0004100829738480469,-0.00026745398345569136,-6.669456590049615e-05,-0.00024907815139159746,0.0007105788739391089,0.2720577120780945,22.819665908813477,0.04995415359735489,-14.131807327270508,-0.07628399133682251,-2.1325716972351074,0.34457725286483765,0
14,0.0649878978729248,-0.2720577120780945,-22.819665908813477,-0.04995415359735489,14.131807327270508,0.07628399133682251,2.1325716972351074,-0.34457725286483765,0.0,0.0,0.0,0.0,0.0,0.0,0.0,-0.3279576675860501,0.015615929238516136,-0.17034414680401874,0.2642221862652457,-0.15168356188933624,-0.05070612735068714,-0.3712303749324119,1.6755737258910288,0.05210876622791421,0.02995448379305596,-2.752381447670283,0.03425682239731153,2.76637414683236,0.7691763637716844,1.6754973547542302,0.052104326824870026,0.029969505109285054,-2.752394845125968,0.0342448039870148,2.7663679543071322,0.7691630533470046,-0.0009554612441691526,0.0007514801249820165,-0.0004100829738480469,0.00026745398345569136,6.669456590049615e-05,0.00024907815139159746,-0.0007105788739391089,0.0,0.0,0.0,0.0,0.0,0.0,0.0,-7.637113679859198e-05,-4.439403044183277e-06,1.5021316229092002e-05,-1.339745568529338e-05,-1.2018410296729676e-05,-6.192525227710632e-06,-1.3310424679779942e-05,0.0009554612441691526,-0.0007514801249820165,0.0004100829738480469,-0.00026745398345569136,-6.669456590049615e-05,-0.00024907815139159746,0.0007105788739391089,0.2720577120780945,22.819665908813477,0.04995415359735489,-14.131807327270508,-0.07628399133682251,-2.1325716972351074,0.34457725286483765,0
15,0.06999373435974121,-0.3236324191093445,-22.772058486938477,-0.07375786453485489,14.155611038208008,0.08177715539932251,2.1453890800476074,-0.34457725286483765,0.0,0.0,0.0,0.0,0.0,0.0,0.0,-0.3239211484638823,0.017842068448346952,-0.16882829237991612,0.2603673892812963,-0.15196619495240643,-0.05173471120280268,-0.3695233514891016,1.6755773441875244,0.052107559055070585,0.029956154333100102,-2.7523831180731055,0.03425621204574903,2.766372722678714,0.7691763245739028,1.6754973547542302,0.052104326824870026,0.029969505109285054,-2.752394845125968,0.0342448039870148,2.7663679543071322,0.7691630533470046,0.0008308825953309313,-0.00019411580576121268,-0.0004363725708274494,-0.00048801404494483826,-0.00013898223597712608,-0.00041985445107034893,-0.0006280668398807099,0.0,0.0,0.0,0.0,0.0,0.0,0.0,-7.998943329412533e-05,-3.23223020055885e-06,1.3350776184951896e-05,-1.1727052862564591e-05,-1.1408058734230231e-05,-4.768371581587161e-06,-1.3271226898203814e-05,-0.0008308825953309313,0.00019411580576121268,0.0004363725708274494,0.00048801404494483826,0.00013898223597712608,0.00041985445107034893,0.0006280668398807099,0.3236324191093445,22.772058486938477,0.07375786453485489,-14.155611038208008,-0.08177715539932251,-2.1453890800476074,0.34457725286483765,0
16,0.0749976634979248,-0.3236324191093445,-22.772058486938477,-0.07375786453485489,14.155611038208008,0.08177715539932251,2.1453890800476074,-0.34457725286483765,0.0,0.0,0.0,0.0,0.0,0.0,0.0,-0.3239211484638823,0.017842068448346952,-0.16882829237991612,0.2603673892812963,-0.15196619495240643,-0.05173471120280268,-0.3695233514891016,1.6755773441875244,0.052107559055070585,0.029956154333100102,-2.7523831180731055,0.03425621204574903,2.766372722678714,0.7691763245739028,1.6754973547542302,0.052104326824870026,0.029969505109285054,-2.752394845125968,0.0342448039870148,2.7663679543071322,0.7691630533470046,0.0008308825953309313,-0.00019411580576121268,-0.0004363725708274494,-0.00048801404494483826,-0.00013898223597712608,-0.00041985445107034893,-0.0006280668398807099,0.0,0.0,0.0,0.0,0.0,0.0,0.0,-7.998943329412533e-05,-3.23223020055885e-06,1.3350776184951896e-05,-1.1727052862564591e-05,-1.1408058734230231e-05,-4.768371581587161e-06,-1.3271226898203814e-05,-0.0008308825953309313,0.00019411580576121268,0.0004363725708274494,0.00048801404494483826,0.00013898223597712608,0.00041985445107034893,0.0006280668398807099,0.3236324191093445,22.772058486938477,0.07375786453485489,-14.155611038208008,-0.08177715539932251,-2.1453890800476074,0.34457725286483765,0
17,0.07999444007873535,-0.3236324191093445,-22.772058486938477,-0.07375786453485489,14.155611038208008,0.08177715539932251,2.1389803886413574,-0.35098594427108765,0.0,0.0,0.0,0.0,0.0,0.0,0.0,-0.32465218469941987,0.01808863874729599,-0.1715802340891047,0.2623985073411547,-0.15201400842091894,-0.051828800543970176,-0.3672041288052047,1.675577344187519,0.05210755614070992,0.02995615422490457,-2.75238311811079,0.03425621204574903,2.7663734347555367,0.7691770365966694,1.6754973547542302,0.052104326824870026,0.029969505109285054,-2.752394845125968,0.0342448039870148,2.7663679543071322,0.7691630533470046,-0.0005946325729266797,-5.997181101535454e-06,5.028833640338812e-05,-0.00042336641724866726,6.008692065676206e-05,-9.233070860301499e-05,-0.0005139728722755835,0.0,0.0,0.0,0.0,0.0,0.0,0.0,-7.998943328879626e-05,-3.2293158398963295e-06,1.335088438048429e-05,-1.1727015178042421e-05,-1.1408058734230231e-05,-5.480448404426852e-06,-1.3983249664728525e-05,0.0005946325729266797,5.997181101535454e-06,-5.028833640338812e-05,0.00042336641724866726,-6.008692065676206e-05,9.233070860301499e-05,0.0005139728722755835,0.3236324191093445,22.772058486938477,0.07375786453485489,-14.155611038208008,-0.08177715539932251,-2.1389803886413574,0.35098594427108765,0
18,0.0853426456451416,-0.3236324191093445,-22.772058486938477,-0.07375786453485489,14.155611038208008,0.08177715539932251,2.1389803886413574,-0.35098594427108765,0.0,0.0,0.0,0.0,0.0,0.0,0.0,-0.32465218469941987,0.01808863874729599,-0.1715802340891047,0.2623985073411547,-0.15201400842091894,-0.051828800543970176,-0.3672041288052047,1.675577344187519,0.05210755614070992,0.02995615422490457,-2.75238311811079,0.03425621204574903,2.7663734347555367,0.7691770365966694,1.6754973547542302,0.052104326824870026,0.029969505109285054,-2.752394845125968,0.0342448039870148,2.7663679543071322,0.7691630533470046,-0.0005946325729266797,-5.997181101535454e-06,5.028833640338812e-05,-0.00042336641724866726,6.008692065676206e-05,-9.233070860301499e-05,-0.0005139728722755835,0.0,0.0,0.0,0.0,0.0,0.0,0.0,-7.998943328879626e-05,-3.2293158398963295e-06,1.335088438048429e-05,-1.1727015178042421e-05,-1.1408058734230231e-05,-5.480448404426852e-06,-1.3983249664728525e-05,0.0005946325729266797,5.997181101535454e-06,-5.028833640338812e-05,0.00042336641724866726,-6.008692065676206e-05,9.233070860301499e-05,0.0005139728722755835,0.3236324191093445,22.772058486938477,0.07375786453485489,-14.155611038208008,-0.08177715539932251,-2.1389803886413574,0.35098594427108765,0
19,0.08998799324035645,-0.3514034152030945,-22.795862197875977,-0.09756157547235489,14.108003616333008,0.08818584680557251,2.1453890800476074,-0.35098594427108765,0.0,0.0,0.0,0.0,0.0,0.0,0.0,-0.3227648973549257,0.019057071524322452,-0.16401515659803861,0.265518572906455,-0.1521913987216517,-0.05116369385577252,-0.3655825109455086,1.67557929302935,0.052109220687609356,0.029957824660759223,-2.752379746714525,0.034255499968926115,2.766372722678714,0.769177036596669,1.6754973547542302,0.052104326824870026,0.029969505109285054,-2.752394845125968,0.0342448039870148,2.7663679543071322,0.7691630533470046,0.0008258602249821418,0.0007388859171806546,0.00042747149270447494,0.0007252911199725502,-0.00016777762162530245,-0.00034594183344104827,-0.0006680724465619983,0.0,0.0,0.0,0.0,0.0,0.0,0.0,-8.193827511981944e-05,-4.893862739330235e-06,1.1680448525831083e-05,-1.509841144331503e-05,-1.0695981911314212e-05,-4.768371581587161e-06,-1.3983249664395458e-05,-0.0008258602249821418,-0.0007388859171806546,-0.00042747149270447494,-0.0007252911199725502,0.00016777762162530245,0.00034594183344104827,0.0006680724465619983,0.3514034152030945,22.795862197875977,0.09756157547235489,-14.108003616333008,-0.08818584680557251,-2.1453890800476074,0.35098594427108765,0
20,0.09498858451843262,-0.3514034152030945,-22.795862197875977,-0.09756157547235489,14.108003616333008,0.08818584680557251,2.1453890800476074,-0.35098594427108765,0.0,0.0,0.0,0.0,0.0,0.0,0.0,-0.3227648973549257,0.019057071524322452,-0.16401515659803861,0.265518572906455,-0.1521913987216517,-0.05116369385577252,-0.3655825109455086,1.67557929302935,0.052109220687609356,0.029957824660759223,-2.752379746714525,0.034255499968926115,2.766372722678714,0.769177036596669,1.6754973547542302,0.052104326824870026,0.029969505109285054,-2.752394845125968,0.0342448039870148,2.7663679543071322,0.7691630533470046,0.0008258602249821418,0.0007388859171806546,0.00042747149270447494,0.0007252911199725502,-0.00016777762162530245,-0.00034594183344104827,-0.0006680724465619983,0.0,0.0,0.0,0.0,0.0,0.0,0.0,-8.193827511981944e-05,-4.893862739330235e-06,1.1680448525831083e-05,-1.509841144331503e-05,-1.0695981911314212e-05,-4.768371581587161e-06,-1.3983249664395458e-05,-0.0008258602249821418,-0.0007388859171806546,-0.00042747149270447494,-0.0007252911199725502,0.00016777762162530245,0.00034594183344104827,0.0006680724465619983,0.3514034152030945,22.795862197875977,0.09756157547235489,-14.108003616333008,-0.08818584680557251,-2.1453890800476074,0.35098594427108765,0
21,0.10000133514404297,-0.3514034152030945,-22.772058486938477,-0.1253325641155243,14.131807327270508,0.07628399133682251,2.1325716972351074,-0.37845176458358765,0.0,0.0,0.0,0.0,0.0,0.0,0.0,-0.33098140395884895,0.016845115612818675,-0.16914268363949156,0.26595007237744533,-0.15145773092937684,-0.0507772246809886,-0.36441496614586655,1.6755792931383662,0.052106767925995556,0.029959773502067515,-2.752381447674763,0.03425682239731153,2.76637414683236,0.7691801014364337,1.6754973547542302,0.052104326824870026,0.029969505109285054,-2.752394845125968,0.0342448039870148,2.7663679543071322,0.7691630533470046,-6.089176840732479e-05,-0.0002976293328487272,0.0008634101744918678,-3.9596144613382784e-05,0.00022959414895906206,2.2011973735519357e-05,0.00062528870428622,0.0,0.0,0.0,0.0,0.0,0.0,0.0,-8.19383841359489e-05,-2.4411011255304205e-06,9.731607217539073e-06,-1.3397451205321431e-05,-1.2018410296729676e-05,-6.192525227710632e-06,-1.7048089429039237e-05,6.089176840732479e-05,0.0002976293328487272,-0.0008634101744918678,3.9596144613382784e-05,-0.00022959414895906206,-2.2011973735519357e-05,-0.00062528870428622,0.3514034152030945,22.772058486938477,0.1253325641155243,-14.131807327270508,-0.07628399133682251,-2.1325716972351074,0.37845176458358765,0
22,0.10499191284179688,-0.3514034152030945,-22.772058486938477,-0.1253325641155243,14.131807327270508,0.07628399133682251,2.1325716972351074,-0.37845176458358765,0.0,0.0,0.0,0.0,0.0,0.0,0.0,-0.33098140395884895,0.016845115612818675,-0.16914268363949156,0.26595007237744533,-0.15145773092937684,-0.0507772246809886,-0.36441496614586655,1.6755792931383662,0.052106767925995556,0.029959773502067515,-2.752381447674763,0.03425682239731153,2.76637414683236,0.7691801014364337,1.6754973547542302,0.052104326824870026,0.029969505109285054,-2.752394845125968,0.0342448039870148,2.7663679543071322,0.7691630533470046,-6.089176840732479e-05,-0.0002976293328487272,0.0008634101744918678,-3.9596144613382784e-05,0.00022959414895906206,2.2011973735519357e-05,0.00062528870428622,0.0,0.0,0.0,0.0,0.0,0.0,0.0,-8.19383841359489e-05,-2.4411011255304205e-06,9.731607217539073e-06,-1.3397451205321431e-05,-1.2018410296729676e-05,-6.192525227710632e-06,-1.7048089429039237e-05,6.089176840732479e-05,0.0002976293328487272,-0.0008634101744918678,3.9596144613382784e-05,-0.00022959414895906206,-2.2011973735519357e-05,-0.00062528870428622,0.3514034152030945,22.772058486938477,0.1253325641155243,-14.131807327270508,-0.07628399133682251,-2.1325716972351074,0.37845176458358765,0
23,0.10999226570129395,-0.2998287081718445,-22.819665908813477,-0.09756157547235489,14.131807327270508,0.07628399133682251,2.1389803886413574,-0.35831016302108765,0.0,0.0,0.0,0.0,0.0,0.0,0.0,-0.3296379634235687,0.015218695339970592,-0.16877694990770925,0.26659400576597836,-0.151560069894867,-0.05097099486032751,-0.3645538853091783,1.675575674078713,0.052110898958891476,0.029957850952417087,-2.7523807027627356,0.03425682239731153,2.7663734347555367,0.7691814217717806,1.6754973547542302,0.052104326824870026,0.029969505109285054,-2.752394845125968,0.0342448039870148,2.7663679543071322,0.7691630533470046,-0.0008767931851880741,0.00104327485732287,0.00039728001735069013,0.00027109755658125855,0.0001878577472727772,-0.0002616406766027741,0.00011857566152229894,0.0,0.0,0.0,0.0,0.0,0.0,0.0,-7.831932448287837e-05,-6.572134021450016e-06,1.1654156867966364e-05,-1.4142363232494404e-05,-1.2018410296729676e-05,-5.480448404426852e-06,-1.8368424775982994e-05,0.0008767931851880741,-0.00104327485732287,-0.00039728001735069013,-0.00027109755658125855,-0.0001878577472727772,0.0002616406766027741,-0.00011857566152229894,0.2998287081718445,22.819665908813477,0.09756157547235489,-14.131807327270508,-0.07628399133682251,-2.1389803886413574,0.35831016302108765,0
24,0.11499595642089844,-0.2998287081718445,-22.819665908813477,-0.09756157547235489,14.131807327270508,0.07628399133682251,2.1389803886413574,-0.35831016302108765,0.0,0.0,0.0,0.0,0.0,0.0,0.0,-0.3296379634235687,0.015218695339970592,-0.16877694990770925,0.26659400576597836,-0.151560069894867,-0.05097099486032751,-0.3645538853091783,1.675575674078713,0.052110898958891476,0.029957850952417087,-2.7523807027627356,0.03425682239731153,2.7663734347555367,0.7691814217717806,1.6754973547542302,0.052104326824870026,0.029969505109285054,-2.752394845125968,0.0342448039870148,2.7663679543071322,0.7691630533470046,-0.0008767931851880741,0.00104327485732287,0.00039728001735069013,0.00027109755658125855,0.0001878577472727772,-0.0002616406766027741,0.00011857566152229894,0.0,0.0,0.0,0.0,0.0,0.0,0.0,-7.831932448287837e-05,-6.572134021450016e-06,1.1654156867966364e-05,-1.4142363232494404e-05,-1.2018410296729676e-05,-5.480448404426852e-06,-1.8368424775982994e-05,0.0008767931851880741,-0.00104327485732287,-0.00039728001735069013,-0.00027109755658125855,-0.0001878577472727772,0.0002616406766027741,-0.00011857566152229894,0.2998287081718445,22.819665908813477,0.09756157547235489,-14.131807327270508,-0.07628399133682251,-2.1389803886413574,0.35831016302108765,0
25,0.11999702453613281,-0.3236324191093445,-22.748254776000977,-0.09756157547235489,14.155611038208008,0.08177715539932251,2.1389803886413574,-0.34457725286483765,0.0,0.0,0.0,0.0,0.0,0.0,0.0,-0.33094685102119387,0.019046376761618557,-0.17170665009222227,0.2614737090188485,-0.15153043964492194,-0.05143579936476099,-0.3635700878802054,1.6755773441875195,0.05210580961831102,0.02995783342469465,-2.752382293946399,0.03425656691414339,2.7663734347555367,0.7691763245265663,1.6754973547542302,0.052104326824870026,0.029969505109285054,-2.752394845125968,0.0342448039870148,2.7663679543071322,0.7691630533470046,0.0001771688033029914,-0.0007916822374775379,-0.00034014926493531103,-0.0005320536079685005,7.397063883711558e-05,6.742358904504974e-06,-0.0005283916210449092,0.0,0.0,0.0,0.0,0.0,0.0,0.0,-7.998943328924035e-05,-1.4827934409974985e-06,1.167168459040302e-05,-1.2551179568998094e-05,-1.1762927128587675e-05,-5.480448404426852e-06,-1.3271179561624713e-05,-0.0001771688033029914,0.0007916822374775379,0.00034014926493531103,0.0005320536079685005,-7.397063883711558e-05,-6.742358904504974e-06,0.0005283916210449092,0.3236324191093445,22.748254776000977,0.09756157547235489,-14.155611038208008,-0.08177715539932251,-2.1389803886413574,0.34457725286483765,0
26,0.1249842643737793,-0.3236324191093445,-22.748254776000977,-0.09756157547235489,14.155611038208008,0.08177715539932251,2.1389803886413574,-0.34457725286483765,0.0,0.0,0.0,0.0,0.0,0.0,0.0,-0.33094685102119387,0.019046376761618557,-0.17170665009222227,0.2614737090188485,-0.15153043964492194,-0.05143579936476099,-0.3635700878802054,1.6755773441875195,0.05210580961831102,0.02995783342469465,-2.752382293946399,0.03425656691414339,2.7663734347555367,0.7691763245265663,1.6754973547542302,0.052104326824870026,0.029969505109285054,-2.752394845125968,0.0342448039870148,2.7663679543071322,0.7691630533470046,0.0001771688033029914,-0.0007916822374775379,-0.00034014926493531103,-0.0005320536079685005,7.397063883711558e-05,6.742358904504974e-06,-0.0005283916210449092,0.0,0.0,0.0,0.0,0.0,0.0,0.0,-7.998943328924035e-05,-1.4827934409974985e-06,1.167168459040302e-05,-1.2551179568998094e-05,-1.1762927128587675e-05,-5.480448404426852e-06,-1.3271179561624713e-05,-0.0001771688033029914,0.0007916822374775379,0.00034014926493531103,0.0005320536079685005,-7.397063883711558e-05,-6.742358904504974e-06,0.0005283916210449092,0.3236324191093445,22.748254776000977,0.09756157547235489,-14.155611038208008,-0.08177715539932251,-2.1389803886413574,0.34457725286483765,0
27,0.130018949508667,-0.3236324191093445,-22.748254776000977,-0.09756157547235489,14.155611038208008,0.08177715539932251,2.1389803886413574,-0.34457725286483765,0.0,0.0,0.0,0.0,0.0,0.0,0.0,-0.33094685102119387,0.019046376761618557,-0.17170665009222227,0.2614737090188485,-0.15153043964492194,-0.05143579936476099,-0.3635700878802054,1.6755773441875195,0.05210580961831102,0.02995783342469465,-2.752382293946399,0.03425656691414339,2.7663734347555367,0.7691763245265663,1.6754973547542302,0.052104326824870026,0.029969505109285054,-2.752394845125968,0.0342448039870148,2.7663679543071322,0.7691630533470046,0.0001771688033029914,-0.0007916822374775379,-0.00034014926493531103,-0.0005320536079685005,7.397063883711558e-05,6.742358904504974e-06,-0.0005283916210449092,0.0,0.0,0.0,0.0,0.0,0.0,0.0,-7.998943328924035e-05,-1.4827934409974985e-06,1.167168459040302e-05,-1.2551179568998094e-05,-1.1762927128587675e-05,-5.480448404426852e-06,-1.3271179561624713e-05,-0.0001771688033029914,0.0007916822374775379,0.00034014926493531103,0.0005320536079685005,-7.397063883711558e-05,-6.742358904504974e-06,0.0005283916210449092,0.3236324191093445,22.748254776000977,0.09756157547235489,-14.155611038208008,-0.08177715539932251,-2.1389803886413574,0.34457725286483765,0
28,0.13500738143920898,-0.3236324191093445,-22.748254776000977,-0.09756157547235489,14.155611038208008,0.08177715539932251,2.1389803886413574,-0.34457725286483765,0.0,0.0,0.0,0.0,0.0,0.0,0.0,-0.33094685102119387,0.019046376761618557,-0.17170665009222227,0.2614737090188485,-0.15153043964492194,-0.05143579936476099,-0.3635700878802054,1.6755773441875195,0.05210580961831102,0.02995783342469465,-2.752382293946399,0.03425656691414339,2.7663734347555367,0.7691763245265663,1.6754973547542302,0.052104326824870026,0.029969505109285054,-2.752394845125968,0.0342448039870148,2.7663679543071322,0.7691630533470046,0.0001771688033029914,-0.0007916822374775379,-0.00034014926493531103,-0.0005320536079685005,7.397063883711558e-05,6.742358904504974e-06,-0.0005283916210449092,0.0,0.0,0.0,0.0,0.0,0.0,0.0,-7.998943328924035e-05,-1.4827934409974985e-06,1.167168459040302e-05,-1.2551179568998094e-05,-1.1762927128587675e-05,-5.480448404426852e-06,-1.3271179561624713e-05,-0.0001771688033029914,0.0007916822374775379,0.00034014926493531103,0.0005320536079685005,-7.397063883711558e-05,-6.742358904504974e-06,0.0005283916210449092,0.3236324191093445,22.748254776000977,0.09756157547235489,-14.155611038208008,-0.08177715539932251,-2.1389803886413574,0.34457725286483765,0
29,0.14000630378723145,-0.3752071261405945,-22.795862197875977,-0.09756157547235489,14.131807327270508,0.06987529993057251,2.1389803886413574,-0.33084434270858765,0.0,0.0,0.0,0.0,0.0,0.0,0.0,-0.3329874181676158,0.02085185222978827,-0.1768902769381754,0.2523536864725811,-0.15115667789910806,-0.053101771203477956,-0.3637683164848624,1.6755809634652055,0.052109220614030866,0.02995782466090764,-2.7523814385036114,0.034257534480144174,2.7663734347555367,0.7691748422474474,1.6754973547542302,0.052104326824870026,0.029969505109285054,-2.752394845125968,0.0342448039870148,2.7663679543071322,0.7691630533470046,0.0006437611492926597,0.00019869295375017447,-0.00034689399359828354,3.0462812416374026e-05,0.0004792100849339185,0.0030139803104116377,-0.0018113173515789853,0.0,0.0,0.0,0.0,0.0,0.0,0.0,-8.360871097523592e-05,-4.893789160839712e-06,1.1680448377415081e-05,-1.3406622356715303e-05,-1.2730493129373133e-05,-5.480448404426852e-06,-1.1788900442732952e-05,-0.0006437611492926597,-0.00019869295375017447,0.00034689399359828354,-3.0462812416374026e-05,-0.0004792100849339185,-0.0030139803104116377,0.0018113173515789853,0.3752071261405945,22.795862197875977,0.09756157547235489,-14.131807327270508,-0.06987529993057251,-2.1389803886413574,0.33084434270858765,0
30,0.145033597946167,-0.3752071261405945,-22.795862197875977,-0.09756157547235489,14.131807327270508,0.06987529993057251,2.1389803886413574,-0.33084434270858765,0.0,0.0,0.0,0.0,0.0,0.0,0.0,-0.3329874181676158,0.02085185222978827,-0.1768902769381754,0.2523536864725811,-0.15115667789910806,-0.053101771203477956,-0.3637683164848624,1.6755809634652055,0.052109220614030866,0.02995782466090764,-2.7523814385036114,0.034257534480144174,2.7663734347555367,0.7691748422474474,1.6754973547542302,0.052104326824870026,0.029969505109285054,-2.752394845125968,0.0342448039870148,2.7663679543071322,0.7691630533470046,0.0006437611492926597,0.00019869295375017447,-0.00034689399359828354,3.0462812416374026e-05,0.0004792100849339185,0.0030139803104116377,-0.0018113173515789853,0.0,0.0,0.0,0.0,0.0,0.0,0.0,-8.360871097523592e-05,-4.893789160839712e-06,1.1680448377415081e-05,-1.3406622356715303e-05,-1.2730493129373133e-05,-5.480448404426852e-06,-1.1788900442732952e-05,-0.0006437611492926597,-0.00019869295375017447,0.00034689399359828354,-3.0462812416374026e-05,-0.0004792100849339185,-0.0030139803104116377,0.0018113173515789853,0.3752071261405945,22.795862197875977,0.09756157547235489,-14.131807327270508,-0.06987529993057251,-2.1389803886413574,0.33084434270858765,0
31,0.15003538131713867,-0.3514034152030945,-22.795862197875977,-0.09756157547235489,14.131807327270508,0.08177715539932251,2.1389803886413574,-0.35098594427108765,0.0,0.0,0.0,0.0,0.0,0.0,0.0,-0.33504666494832186,0.013489052885502442,-0.18199435194957744,0.26248700260131297,-0.15138398211547288,-0.049513716533254974,-0.3642548083781829,1.67557929302935,0.05210922646816314,0.029957824660759223,-2.752381447674918,0.03425621648092788,2.7663734347555367,0.7691802155111391,1.6754973547542302,0.052104326824870026,0.029969505109285054,-2.752394845125968,0.0342448039870148,2.7663679543071322,0.7691630533470046,3.684232066303723e-05,0.00035353429053793596,-0.0005948608120607791,0.0004108272989494098,0.00010240603332314438,-0.00012459319654660575,-0.0005882308524570162,0.0,0.0,0.0,0.0,0.0,0.0,0.0,-8.193827511981944e-05,-4.899643293115874e-06,1.1680448525831083e-05,-1.3397451049890208e-05,-1.1412493913079413e-05,-5.480448404426852e-06,-1.716216413449878e-05,-3.684232066303723e-05,-0.00035353429053793596,0.0005948608120607791,-0.0004108272989494098,-0.00010240603332314438,0.00012459319654660575,0.0005882308524570162,0.3514034152030945,22.795862197875977,0.09756157547235489,-14.131807327270508,-0.08177715539932251,-2.1389803886413574,0.35098594427108765,0
32,0.15578627586364746,-0.3514034152030945,-22.795862197875977,-0.09756157547235489,14.131807327270508,0.08177715539932251,2.1389803886413574,-0.35098594427108765,0.0,0.0,0.0,0.0,0.0,0.0,0.0,-0.33504666494832186,0.013489052885502442,-0.18199435194957744,0.26248700260131297,-0.15138398211547288,-0.049513716533254974,-0.3642548083781829,1.67557929302935,0.05210922646816314,0.029957824660759223,-2.752381447674918,0.03425621648092788,2.7663734347555367,0.7691802155111391,1.6754973547542302,0.052104326824870026,0.029969505109285054,-2.752394845125968,0.0342448039870148,2.7663679543071322,0.7691630533470046,3.684232066303723e-05,0.00035353429053793596,-0.0005948608120607791,0.0004108272989494098,0.00010240603332314438,-0.00012459319654660575,-0.0005882308524570162,0.0,0.0,0.0,0.0,0.0,0.0,0.0,-8.193827511981944e-05,-4.899643293115874e-06,1.1680448525831083e-05,-1.3397451049890208e-05,-1.1412493913079413e-05,-5.480448404426852e-06,-1.716216413449878e-05,-3.684232066303723e-05,-0.00035353429053793596,0.0005948608120607791,-0.0004108272989494098,-0.00010240603332314438,0.00012459319654660575,0.0005882308524570162,0.3514034152030945,22.795862197875977,0.09756157547235489,-14.131807327270508,-0.08177715539932251,-2.1389803886413574,0.35098594427108765,0
33,0.1600325107574463,-0.24825400114059448,-22.720483779907227,-0.09756157547235489,14.155611038208008,0.07628399133682251,2.1389803886413574,-0.39218467473983765,0.0,0.0,0.0,0.0,0.0,0.0,0.0,-0.32487539536929183,0.026812297770491936,-0.17014272975558337,0.2540054573150875,-0.15225040877111715,-0.051526245553891174,-0.3634916400107148,1.6755720544739774,0.05210393978941191,0.02995806128568003,-2.75238311811079,0.034256822397336566,2.7663734347555367,0.7691816142513328,1.6754973547542302,0.052104326824870026,0.029969505109285054,-2.752394845125968,0.0342448039870148,2.7663679543071322,0.7691630533470046,-0.0016251200273818037,-0.0009145831954151556,0.0008397647621563004,-0.0003033362459138992,0.00022149418627547535,0.0008358930637689566,0.0008418465436755993,0.0,0.0,0.0,0.0,0.0,0.0,0.0,-7.469971974716216e-05,3.8703545811313855e-07,1.1443823605024328e-05,-1.1727015178042421e-05,-1.2018410321765205e-05,-5.480448404426852e-06,-1.8560904328168704e-05,0.0016251200273818037,0.0009145831954151556,-0.0008397647621563004,0.0003033362459138992,-0.00022149418627547535,-0.0008358930637689566,-0.0008418465436755993,0.24825400114059448,22.720483779907227,0.09756157547235489,-14.155611038208008,-0.07628399133682251,-2.1389803886413574,0.39218467473983765,0
34,0.16503310203552246,-0.24825400114059448,-22.720483779907227,-0.09756157547235489,14.155611038208008,0.07628399133682251,2.1389803886413574,-0.39218467473983765,0.0,0.0,0.0,0.0,0.0,0.0,0.0,-0.32487539536929183,0.026812297770491936,-0.17014272975558337,0.2540054573150875,-0.15225040877111715,-0.051526245553891174,-0.3634916400107148,1.6755720544739774,0.05210393978941191,0.02995806128568003,-2.75238311811079,0.034256822397336566,2.7663734347555367,0.7691816142513328,1.6754973547542302,0.052104326824870026,0.029969505109285054,-2.752394845125968,0.0342448039870148,2.7663679543071322,0.7691630533470046,-0.0016251200273818037,-0.0009145831954151556,0.0008397647621563004,-0.0003033362459138992,0.00022149418627547535,0.0008358930637689566,0.0008418465436755993,0.0,0.0,0.0,0.0,0.0,0.0,0.0,-7.469971974716216e-05,3.8703545811313855e-07,1.1443823605024328e-05,-1.1727015178042421e-05,-1.2018410321765205e-05,-5.480448404426852e-06,-1.8560904328168704e-05,0.0016251200273818037,0.0009145831954151556,-0.0008397647621563004,0.0003033362459138992,-0.00022149418627547535,-0.0008358930637689566,-0.0008418465436755993,0.24825400114059448,22.720483779907227,0.09756157547235489,-14.155611038208008,-0.07628399133682251,-2.1389803886413574,0.39218467473983765,0
35,0.16999292373657227,-0.24825400114059448,-22.795862197875977,-0.04995415359735489,14.155611038208008,0.08818584680557251,2.1453890800476074,-0.39218467473983765,0.0,0.0,0.0,0.0,0.0,0.0,0.0,-0.3321385876771024,0.015902821551937632,-0.17834747312124588,0.2686472284050441,-0.15135486137597703,-0.04738370343504516,-0.3644524795150827,1.6755720544739774,0.05210851546003939,0.029954486747745142,-2.75238311811079,0.034255499968926115,2.766372722678714,0.7691816142333878,1.6754973547542302,0.052104326824870026,0.029969505109285054,-2.752394845125968,0.0342448039870148,2.7663679543071322,0.7691630533470046,-0.001723536858878261,0.0005146365056720428,-0.0007676819610073251,-0.0003609946899496647,-0.0002663396365832914,-0.00048426672765435855,0.0007763968790093804,0.0,0.0,0.0,0.0,0.0,0.0,0.0,-7.469971974716216e-05,-4.188635169363741e-06,1.501836153991118e-05,-1.1727015178042421e-05,-1.0695981911314212e-05,-4.768371581587161e-06,-1.8560886383189867e-05,0.001723536858878261,-0.0005146365056720428,0.0007676819610073251,0.0003609946899496647,0.0002663396365832914,0.00048426672765435855,-0.0007763968790093804,0.24825400114059448,22.795862197875977,0.04995415359735489,-14.155611038208008,-0.08818584680557251,-2.1453890800476074,0.39218467473983765,0
36,0.175004243850708,-0.24825400114059448,-22.795862197875977,-0.04995415359735489,14.155611038208008,0.08818584680557251,2.1453890800476074,-0.39218467473983765,0.0,0.0,0.0,0.0,0.0,0.0,0.0,-0.3321385876771024,0.015902821551937632,-0.17834747312124588,0.2686472284050441,-0.15135486137597703,-0.04738370343504516,-0.3644524795150827,1.6755720544739774,0.05210851546003939,0.029954486747745142,-2.75238311811079,0.034255499968926115,2.766372722678714,0.7691816142333878,1.6754973547542302,0.052104326824870026,0.029969505109285054,-2.752394845125968,0.0342448039870148,2.7663679543071322,0.7691630533470046,-0.001723536858878261,0.0005146365056720428,-0.0007676819610073251,-0.0003609946899496647,-0.0002663396365832914,-0.00048426672765435855,0.0007763968790093804,0.0,0.0,0.0,0.0,0.0,0.0,0.0,-7.469971974716216e-05,-4.188635169363741e-06,1.501836153991118e-05,-1.1727015178042421e-05,-1.0695981911314212e-05,-4.768371581587161e-06,-1.8560886383189867e-05,0.001723536858878261,-0.0005146365056720428,0.0007676819610073251,0.0003609946899496647,0.0002663396365832914,0.00048426672765435855,-0.0007763968790093804,0.24825400114059448,22.795862197875977,0.04995415359735489,-14.155611038208008,-0.08818584680557251,-2.1453890800476074,0.39218467473983765,0
37,0.18000030517578125,-0.2998287081718445,-22.772058486938477,-0.09756157547235489,14.108003616333008,0.08177715539932251,2.1325716972351074,-0.36471885442733765,0.0,0.0,0.0,0.0,0.0,0.0,0.0,-0.3278772847961133,0.015040943239838855,-0.17607936906791696,0.2706013536998031,-0.1516632971223025,-0.047257807413054756,-0.3664533408893123,1.6755756737516638,0.05210755906308465,0.029959954393259335,-2.752379529990183,0.03425621204574903,2.76637414683236,0.7691785624755753,1.6754973547542302,0.052104326824870026,0.029969505109285054,-2.752394845125968,0.0342448039870148,2.7663679543071322,0.7691630533470046,-0.00030353542019807936,-0.0005364819984224488,6.052710595490658e-05,0.0007914131744113037,-0.00016142640934149838,3.03180579974405e-08,9.862259246636029e-05,0.0,0.0,0.0,0.0,0.0,0.0,0.0,-7.831899743360182e-05,-3.2322382146274253e-06,9.550716025718414e-06,-1.531513578489907e-05,-1.1408058734230231e-05,-6.192525227710632e-06,-1.5509128570623254e-05,0.00030353542019807936,0.0005364819984224488,-6.052710595490658e-05,-0.0007914131744113037,0.00016142640934149838,-3.03180579974405e-08,-9.862259246636029e-05,0.2998287081718445,22.772058486938477,0.09756157547235489,-14.108003616333008,-0.08177715539932251,-2.1325716972351074,0.36471885442733765,0
38,0.18499493598937988,-0.2998287081718445,-22.772058486938477,-0.09756157547235489,14.108003616333008,0.08177715539932251,2.1325716972351074,-0.36471885442733765,0.0,0.0,0.0,0.0,0.0,0.0,0.0,-0.3278772847961133,0.015040943239838855,-0.17607936906791696,0.2706013536998031,-0.1516632971223025,-0.047257807413054756,-0.3664533408893123,1.6755756737516638,0.05210755906308465,0.029959954393259335,-2.752379529990183,0.03425621204574903,2.76637414683236,0.7691785624755753,1.6754973547542302,0.052104326824870026,0.029969505109285054,-2.752394845125968,0.0342448039870148,2.7663679543071322,0.7691630533470046,-0.00030353542019807936,-0.0005364819984224488,6.052710595490658e-05,0.0007914131744113037,-0.00016142640934149838,3.03180579974405e-08,9.862259246636029e-05,0.0,0.0,0.0,0.0,0.0,0.0,0.0,-7.831899743360182e-05,-3.2322382146274253e-06,9.550716025718414e-06,-1.531513578489907e-05,-1.1408058734230231e-05,-6.192525227710632e-06,-1.5509128570623254e-05,0.00030353542019807936,0.0005364819984224488,-6.052710595490658e-05,-0.0007914131744113037,0.00016142640934149838,-3.03180579974405e-08,-9.862259246636029e-05,0.2998287081718445,22.772058486938477,0.09756157547235489,-14.108003616333008,-0.08177715539932251,-2.1325716972351074,0.36471885442733765,0
39,0.189985990524292,-0.3236324191093445,-22.819665908813477,-0.07375786453485489,14.155611038208008,0.07628399133682251,2.1389803886413574,-0.35831016302108765,0.0,0.0,0.0,0.0,0.0,0.0,0.0,-0.3251942010104933,0.019744604097486816,-0.17685293073053546,0.2674904320930828,-0.15182173707701102,-0.04849465538646168,-0.36689402431285,1.6755775826060981,0.05211063623717873,0.02995615423692636,-2.752383090637295,0.03425682239731153,2.7663734347555367,0.7691778503987523,1.6754973547542302,0.052104326824870026,0.029969505109285054,-2.752394845125968,0.0342448039870148,2.7663679543071322,0.7691630533470046,-0.0002594961399481483,0.0011615478687830433,-0.00028180336393246317,-0.0001664212829342319,1.406351633294331e-06,-1.408207063424582e-05,-0.0009113861769207079,0.0,0.0,0.0,0.0,0.0,0.0,0.0,-8.022785186789783e-05,-6.309412308704021e-06,1.3350872358694477e-05,-1.1754488673076935e-05,-1.2018410296729676e-05,-5.480448404426852e-06,-1.479705174767254e-05,0.0002594961399481483,-0.0011615478687830433,0.00028180336393246317,0.0001664212829342319,-1.406351633294331e-06,1.408207063424582e-05,0.0009113861769207079,0.3236324191093445,22.819665908813477,0.07375786453485489,-14.155611038208008,-0.07628399133682251,-2.1389803886413574,0.35831016302108765,0
40,0.19500041007995605,-0.3236324191093445,-22.819665908813477,-0.07375786453485489,14.155611038208008,0.07628399133682251,2.1389803886413574,-0.35831016302108765,0.0,0.0,0.0,0.0,0.0,0.0,0.0,-0.3251942010104933,0.019744604097486816,-0.17685293073053546,0.2674904320930828,-0.15182173707701102,-0.04849465538646168,-0.36689402431285,1.6755775826060981,0.05211063623717873,0.02995615423692636,-2.752383090637295,0.03425682239731153,2.7663734347555367,0.7691778503987523,1.6754973547542302,0.052104326824870026,0.029969505109285054,-2.752394845125968,0.0342448039870148,2.7663679543071322,0.7691630533470046,-0.0002594961399481483,0.0011615478687830433,-0.00028180336393246317,-0.0001664212829342319,1.406351633294331e-06,-1.408207063424582e-05,-0.0009113861769207079,0.0,0.0,0.0,0.0,0.0,0.0,0.0,-8.022785186789783e-05,-6.309412308704021e-06,1.3350872358694477e-05,-1.1754488673076935e-05,-1.2018410296729676e-05,-5.480448404426852e-06,-1.479705174767254e-05,0.0002594961399481483,-0.0011615478687830433,0.00028180336393246317,0.0001664212829342319,-1.406351633294331e-06,1.408207063424582e-05,0.0009113861769207079,0.3236324191093445,22.819665908813477,0.07375786453485489,-14.155611038208008,-0.07628399133682251,-2.1389803886413574,0.35831016302108765,0
41,0.20004868507385254,-0.3236324191093445,-22.772058486938477,-0.04995415359735489,14.155611038208008,0.08177715539932251,2.1197543144226074,-0.37845176458358765,0.0,0.0,0.0,0.0,0.0,0.0,0.0,-0.32543106393845955,0.018943038556557556,-0.175357767869488,0.26199642029936865,-0.15256266427328194,-0.04989234448912975,-0.36869977315839897,1.6755773530191826,0.05210755906562684,0.029954562700087742,-2.7523828705225766,0.03425621204574903,2.7663755709860056,0.7691800883544815,1.6754973547542302,0.052104326824870026,0.029969505109285054,-2.752394845125968,0.0342448039870148,2.7663679543071322,0.7691630533470046,-0.00042038976428646595,-7.195688684617984e-05,-0.0013077710423791647,-0.0008440428663972709,-6.13862974687031e-05,0.0004902898004203141,2.5657924061535825e-05,0.0,0.0,0.0,0.0,0.0,0.0,0.0,-7.999826495241891e-05,-3.232240756816107e-06,1.4942409197311879e-05,-1.1974603391529115e-05,-1.1408058734230231e-05,-7.616678873390015e-06,-1.703500747685105e-05,0.00042038976428646595,7.195688684617984e-05,0.0013077710423791647,0.0008440428663972709,6.13862974687031e-05,-0.0004902898004203141,-2.5657924061535825e-05,0.3236324191093445,22.772058486938477,0.04995415359735489,-14.155611038208008,-0.08177715539932251,-2.1197543144226074,0.37845176458358765,0
42,0.20505404472351074,-0.3236324191093445,-22.772058486938477,-0.04995415359735489,14.155611038208008,0.08177715539932251,2.1197543144226074,-0.37845176458358765,0.0,0.0,0.0,0.0,0.0,0.0,0.0,-0.32543106393845955,0.018943038556557556,-0.175357767869488,0.26199642029936865,-0.15256266427328194,-0.04989234448912975,-0.36869977315839897,1.6755773530191826,0.05210755906562684,0.029954562700087742,-2.7523828705225766,0.03425621204574903,2.7663755709860056,0.7691800883544815,1.6754973547542302,0.052104326824870026,0.029969505109285054,-2.752394845125968,0.0342448039870148,2.7663679543071322,0.7691630533470046,-0.00042038976428646595,-7.195688684617984e-05,-0.0013077710423791647,-0.0008440428663972709,-6.13862974687031e-05,0.0004902898004203141,2.5657924061535825e-05,0.0,0.0,0.0,0.0,0.0,0.0,0.0,-7.999826495241891e-05,-3.232240756816107e-06,1.4942409197311879e-05,-1.1974603391529115e-05,-1.1408058734230231e-05,-7.616678873390015e-06,-1.703500747685105e-05,0.00042038976428646595,7.195688684617984e-05,0.0013077710423791647,0.0008440428663972709,6.13862974687031e-05,-0.0004902898004203141,-2.5657924061535825e-05,0.3236324191093445,22.772058486938477,0.04995415359735489,-14.155611038208008,-0.08177715539932251,-2.1197543144226074,0.37845176458358765,0
43,0.21001935005187988,-0.3752071261405945,-22.772058486938477,-0.1253325641155243,14.108003616333008,0.08177715539932251,2.1453890800476074,-0.38577598333358765,0.0,0.0,0.0,0.0,0.0,0.0,0.0,-0.32662968126541847,0.014420756339235414,-0.17231003517903962,0.26104198856373384,-0.15291026152638587,-0.050490552314849946,-0.3700024305225098,1.6755809634652552,0.052107556140709985,0.029959776423808288,-2.7523797680803157,0.03425621204574903,2.766372722678714,0.7691809022103999,1.6754973547542302,0.052104326824870026,0.029969505109285054,-2.752394845125968,0.0342448039870148,2.7663679543071322,0.7691630533470046,0.0014184636409196511,-0.000258054141273233,0.000305149729578378,0.0002324145136213812,-8.812426193728038e-05,-0.0004299459744642791,0.0005806997474648462,0.0,0.0,0.0,0.0,0.0,0.0,0.0,-8.360871102497391e-05,-3.2293158399587796e-06,9.728685476766141e-06,-1.5077045652400756e-05,-1.1408058734230231e-05,-4.768371581587161e-06,-1.7848863395286685e-05,-0.0014184636409196511,0.000258054141273233,-0.000305149729578378,-0.0002324145136213812,8.812426193728038e-05,0.0004299459744642791,-0.0005806997474648462,0.3752071261405945,22.772058486938477,0.1253325641155243,-14.108003616333008,-0.08177715539932251,-2.1453890800476074,0.38577598333358765,0
44,0.21498727798461914,-0.3752071261405945,-22.772058486938477,-0.1253325641155243,14.108003616333008,0.08177715539932251,2.1453890800476074,-0.38577598333358765,0.0,0.0,0.0,0.0,0.0,0.0,0.0,-0.32662968126541847,0.014420756339235414,-0.17231003517903962,0.26104198856373384,-0.15291026152638587,-0.050490552314849946,-0.3700024305225098,1.6755809634652552,0.052107556140709985,0.029959776423808288,-2.7523797680803157,0.03425621204574903,2.766372722678714,0.7691809022103999,1.6754973547542302,0.052104326824870026,0.029969505109285054,-2.752394845125968,0.0342448039870148,2.7663679543071322,0.7691630533470046,0.0014184636409196511,-0.000258054141273233,0.000305149729578378,0.0002324145136213812,-8.812426193728038e-05,-0.0004299459744642791,0.0005806997474648462,0.0,0.0,0.0,0.0,0.0,0.0,0.0,-8.360871102497391e-05,-3.2293158399587796e-06,9.728685476766141e-06,-1.5077045652400756e-05,-1.1408058734230231e-05,-4.768371581587161e-06,-1.7848863395286685e-05,-0.0014184636409196511,0.000258054141273233,-0.000305149729578378,-0.0002324145136213812,8.812426193728038e-05,0.0004299459744642791,-0.0005806997474648462,0.3752071261405945,22.772058486938477,0.1253325641155243,-14.108003616333008,-0.08177715539932251,-2.1453890800476074,0.38577598333358765,0
45,0.21999430656433105,-0.3514034152030945,-22.795862197875977,-0.07375786453485489,14.108003616333008,0.07628399133682251,2.1389803886413574,-0.41324180364608765,0.0,0.0,0.0,0.0,0.0,0.0,0.0,-0.32329038560826723,0.013438025624320905,-0.1727833846708725,0.2615211112498369,-0.1528309575249834,-0.05000611531277859,-0.36966709903276046,1.6755792940104963,0.05210922646816335,0.02995615422492045,-2.752379777239028,0.03425682239731153,2.7663734347555367,0.7691839539143777,1.6754973547542302,0.052104326824870026,0.029969505109285054,-2.752394845125968,0.0342448039870148,2.7663679543071322,0.7691630533470046,0.0006699261387635366,0.00031083569228849663,-0.00015658459500360788,0.0006231491008278837,0.00014252391027026254,-0.00011191056374201142,0.0016525636156400458,0.0,0.0,0.0,0.0,0.0,0.0,0.0,-8.193925626609477e-05,-4.899643293324041e-06,1.3350884364604632e-05,-1.5067886939945652e-05,-1.2018410296729676e-05,-5.480448404426852e-06,-2.0900567373027812e-05,-0.0006699261387635366,-0.00031083569228849663,0.00015658459500360788,-0.0006231491008278837,-0.00014252391027026254,0.00011191056374201142,-0.0016525636156400458,0.3514034152030945,22.795862197875977,0.07375786453485489,-14.108003616333008,-0.07628399133682251,-2.1389803886413574,0.41324180364608765,0
46,0.22498559951782227,-0.3514034152030945,-22.795862197875977,-0.07375786453485489,14.108003616333008,0.07628399133682251,2.1389803886413574,-0.41324180364608765,0.0,0.0,0.0,0.0,0.0,0.0,0.0,-0.32329038560826723,0.013438025624320905,-0.1727833846708725,0.2615211112498369,-0.1528309575249834,-0.05000611531277859,-0.36966709903276046,1.6755792940104963,0.05210922646816335,0.02995615422492045,-2.752379777239028,0.03425682239731153,2.7663734347555367,0.7691839539143777,1.6754973547542302,0.052104326824870026,0.029969505109285054,-2.752394845125968,0.0342448039870148,2.7663679543071322,0.7691630533470046,0.0006699261387635366,0.00031083569228849663,-0.00015658459500360788,0.0006231491008278837,0.00014252391027026254,-0.00011191056374201142,0.0016525636156400458,0.0,0.0,0.0,0.0,0.0,0.0,0.0,-8.193925626609477e-05,-4.899643293324041e-06,1.3350884364604632e-05,-1.5067886939945652e-05,-1.2018410296729676e-05,-5.480448404426852e-06,-2.0900567373027812e-05,-0.0006699261387635366,-0.00031083569228849663,0.00015658459500360788,-0.0006231491008278837,-0.00014252391027026254,0.00011191056374201142,-0.0016525636156400458,0.3514034152030945,22.795862197875977,0.07375786453485489,-14.108003616333008,-0.07628399133682251,-2.1389803886413574,0.41324180364608765,0
47,0.2299964427947998,-0.3752071261405945,-22.772058486938477,-0.09756157547235489,14.155611038208008,0.08177715539932251,2.1325716972351074,-0.40591758489608765,0.0,0.0,0.0,0.0,0.0,0.0,0.0,-0.3366739292982289,0.011466675664933968,-0.1840056646804121,0.2609675248184072,-0.15135825586556542,-0.050378573873482296,-0.3714981496943361,1.6755809899561642,0.05210755895871293,0.029957824660759223,-2.752383117733944,0.03425621204574903,2.76637414683236,0.7691831401122939,1.6754973547542302,0.052104326824870026,0.029969505109285054,-2.752394845125968,0.0342448039870148,2.7663679543071322,0.7691630533470046,0.0004123057022164811,-0.0006601507105303029,-0.0008697867172011214,-0.0005025914313231192,9.358100636555942e-05,0.00015658774103431358,0.0015922713391128883,0.0,0.0,0.0,0.0,0.0,0.0,0.0,-8.363520193399587e-05,-3.232133842900886e-06,1.1680448525831083e-05,-1.1727392024152294e-05,-1.1408058734230231e-05,-6.192525227710632e-06,-2.008676528930664e-05,-0.0004123057022164811,0.0006601507105303029,0.0008697867172011214,0.0005025914313231192,-9.358100636555942e-05,-0.00015658774103431358,-0.0015922713391128883,0.3752071261405945,22.772058486938477,0.09756157547235489,-14.155611038208008,-0.08177715539932251,-2.1325716972351074,0.40591758489608765,0
48,0.23505449295043945,-0.3752071261405945,-22.772058486938477,-0.09756157547235489,14.155611038208008,0.08177715539932251,2.1325716972351074,-0.40591758489608765,0.0,0.0,0.0,0.0,0.0,0.0,0.0,-0.3366739292982289,0.011466675664933968,-0.1840056646804121,0.2609675248184072,-0.15135825586556542,-0.050378573873482296,-0.3714981496943361,1.6755809899561642,0.05210755895871293,0.029957824660759223,-2.752383117733944,0.03425621204574903,2.76637414683236,0.7691831401122939,1.6754973547542302,0.052104326824870026,0.029969505109285054,-2.752394845125968,0.0342448039870148,2.7663679543071322,0.7691630533470046,0.0004123057022164811,-0.0006601507105303029,-0.0008697867172011214,-0.0005025914313231192,9.358100636555942e-05,0.00015658774103431358,0.0015922713391128883,0.0,0.0,0.0,0.0,0.0,0.0,0.0,-8.363520193399587e-05,-3.232133842900886e-06,1.1680448525831083e-05,-1.1727392024152294e-05,-1.1408058734230231e-05,-6.192525227710632e-06,-2.008676528930664e-05,-0.0004123057022164811,0.0006601507105303029,0.0008697867172011214,0.0005025914313231192,-9.358100636555942e-05,-0.00015658774103431358,-0.0015922713391128883,0.3752071261405945,22.772058486938477,0.09756157547235489,-14.155611038208008,-0.08177715539932251,-2.1325716972351074,0.40591758489608765,0
49,0.23999571800231934,-0.3514034152030945,-22.819665908813477,-0.07375786453485489,14.080232620239258,0.08818584680557251,2.1325716972351074,-0.36471885442733765,0.0,0.0,0.0,0.0,0.0,0.0,0.0,-0.33396662390353155,0.015056588380111997,-0.1832850589823017,0.25965554759362564,-0.1516829006927698,-0.05088140844475571,-0.3712104679913728,1.6755792940105463,0.052110899565498324,0.02995615422490396,-2.75237758113579,0.034255499968926115,2.76637414683236,0.7691785624755753,1.6754973547542302,0.052104326824870026,0.029969505109285054,-2.752394845125968,0.0342448039870148,2.7663679543071322,0.7691630533470046,-0.00016931583131307685,0.0009414894787310587,-0.0010221396648585272,0.0011149758599943937,-0.00014491227075204806,-1.0483735523807753e-05,0.00013416597762529165,0.0,0.0,0.0,0.0,0.0,0.0,0.0,-8.193925631605481e-05,-6.5727406282981016e-06,1.3350884381094913e-05,-1.7263990178317812e-05,-1.0695981911314212e-05,-6.192525227710632e-06,-1.5509128570623254e-05,0.00016931583131307685,-0.0009414894787310587,0.0010221396648585272,-0.0011149758599943937,0.00014491227075204806,1.0483735523807753e-05,-0.00013416597762529165,0.3514034152030945,22.819665908813477,0.07375786453485489,-14.080232620239258,-0.08818584680557251,-2.1325716972351074,0.36471885442733765,0
50,0.24503445625305176,-0.3514034152030945,-22.819665908813477,-0.07375786453485489,14.080232620239258,0.08818584680557251,2.1325716972351074,-0.36471885442733765,0.0,0.0,0.0,0.0,0.0,0.0,0.0,-0.33396662390353155,0.015056588380111997,-0.1832850589823017,0.25965554759362564,-0.1516829006927698,-0.05088140844475571,-0.3712104679913728,1.6755792940105463,0.052110899565498324,0.02995615422490396,-2.75237758113579,0.034255499968926115,2.76637414683236,0.7691785624755753,1.6754973547542302,0.052104326824870026,0.029969505109285054,-2.752394845125968,0.0342448039870148,2.7663679543071322,0.7691630533470046,-0.00016931583131307685,0.0009414894787310587,-0.0010221396648585272,0.0011149758599943937,-0.00014491227075204806,-1.0483735523807753e-05,0.00013416597762529165,0.0,0.0,0.0,0.0,0.0,0.0,0.0,-8.193925631605481e-05,-6.5727406282981016e-06,1.3350884381094913e-05,-1.7263990178317812e-05,-1.0695981911314212e-05,-6.192525227710632e-06,-1.5509128570623254e-05,0.00016931583131307685,-0.0009414894787310587,0.0010221396648585272,-0.0011149758599943937,0.00014491227075204806,1.0483735523807753e-05,-0.00013416597762529165,0.3514034152030945,22.819665908813477,0.07375786453485489,-14.080232620239258,-0.08818584680557251,-2.1325716972351074,0.36471885442733765,0
51,0.25003957748413086,-0.3514034152030945,-22.819665908813477,-0.07375786453485489,14.080232620239258,0.08818584680557251,2.1325716972351074,-0.36471885442733765,0.0,0.0,0.0,0.0,0.0,0.0,0.0,-0.33396662390353155,0.015056588380111997,-0.1832850589823017,0.25965554759362564,-0.1516829006927698,-0.05088140844475571,-0.3712104679913728,1.6755792940105463,0.052110899565498324,0.02995615422490396,-2.75237758113579,0.034255499968926115,2.76637414683236,0.7691785624755753,1.6754973547542302,0.052104326824870026,0.029969505109285054,-2.752394845125968,0.0342448039870148,2.7663679543071322,0.7691630533470046,-0.00016931583131307685,0.0009414894787310587,-0.0010221396648585272,0.0011149758599943937,-0.00014491227075204806,-1.0483735523807753e-05,0.00013416597762529165,0.0,0.0,0.0,0.0,0.0,0.0,0.0,-8.193925631605481e-05,-6.5727406282981016e-06,1.3350884381094913e-05,-1.7263990178317812e-05,-1.0695981911314212e-05,-6.192525227710632e-06,-1.5509128570623254e-05,0.00016931583131307685,-0.0009414894787310587,0.0010221396648585272,-0.0011149758599943937,0.00014491227075204806,1.0483735523807753e-05,-0.00013416597762529165,0.3514034152030945,22.819665908813477,0.07375786453485489,-14.080232620239258,-0.08818584680557251,-2.1325716972351074,0.36471885442733765,0
52,0.2550039291381836,-0.3514034152030945,-22.819665908813477,-0.07375786453485489,14.080232620239258,0.08818584680557251,2.1325716972351074,-0.36471885442733765,0.0,0.0,0.0,0.0,0.0,0.0,0.0,-0.33396662390353155,0.015056588380111997,-0.1832850589823017,0.25965554759362564,-0.1516829006927698,-0.05088140844475571,-0.3712104679913728,1.6755792940105463,0.052110899565498324,0.02995615422490396,-2.75237758113579,0.034255499968926115,2.76637414683236,0.7691785624755753,1.6754973547542302,0.052104326824870026,0.029969505109285054,-2.752394845125968,0.0342448039870148,2.7663679543071322,0.7691630533470046,-0.00016931583131307685,0.0009414894787310587,-0.0010221396648585272,0.0011149758599943937,-0.00014491227075204806,-1.0483735523807753e-05,0.00013416597762529165,0.0,0.0,0.0,0.0,0.0,0.0,0.0,-8.193925631605481e-05,-6.5727406282981016e-06,1.3350884381094913e-05,-1.7263990178317812e-05,-1.0695981911314212e-05,-6.192525227710632e-06,-1.5509128570623254e-05,0.00016931583131307685,-0.0009414894787310587,0.0010221396648585272,-0.0011149758599943937,0.00014491227075204806,1.0483735523807753e-05,-0.00013416597762529165,0.3514034152030945,22.819665908813477,0.07375786453485489,-14.080232620239258,-0.08818584680557251,-2.1325716972351074,0.36471885442733765,0
53,0.25998806953430176,-0.3514034152030945,-22.795862197875977,-0.09756157547235489,14.080232620239258,0.07628399133682251,2.1325716972351074,-0.38577598333358765,0.0,0.0,0.0,0.0,0.0,0.0,0.0,-0.33088725722309187,0.01683088101363927,-0.18085585420037356,0.2600532985222917,-0.15136003525967126,-0.0510179415872903,-0.3681469103328458,1.6755792930293554,0.052109229502968604,0.02995782498534759,-2.7523778282827993,0.03425682288409945,2.76637414683236,0.7691809021565648,1.6754973547542302,0.052104326824870026,0.029969505109285054,-2.752394845125968,0.0342448039870148,2.7663679543071322,0.7691630533470046,0.0009575370870073273,0.0003791787817544433,0.0001897986097903655,0.0010564030731893819,0.00035911923777151307,9.06033023585251e-05,0.0008096383217709582,0.0,0.0,0.0,0.0,0.0,0.0,0.0,-8.193827512514851e-05,-4.902678098578361e-06,1.1680123937464482e-05,-1.7016843168793372e-05,-1.2018897084652147e-05,-6.192525227710632e-06,-1.784880956012813e-05,-0.0009575370870073273,-0.0003791787817544433,-0.0001897986097903655,-0.0010564030731893819,-0.00035911923777151307,-9.06033023585251e-05,-0.0008096383217709582,0.3514034152030945,22.795862197875977,0.09756157547235489,-14.080232620239258,-0.07628399133682251,-2.1325716972351074,0.38577598333358765,0
54,0.2649972438812256,-0.3514034152030945,-22.795862197875977,-0.09756157547235489,14.080232620239258,0.07628399133682251,2.1325716972351074,-0.38577598333358765,0.0,0.0,0.0,0.0,0.0,0.0,0.0,-0.33088725722309187,0.01683088101363927,-0.18085585420037356,0.2600532985222917,-0.15136003525967126,-0.0510179415872903,-0.3681469103328458,1.6755792930293554,0.052109229502968604,0.02995782498534759,-2.7523778282827993,0.03425682288409945,2.76637414683236,0.7691809021565648,1.6754973547542302,0.052104326824870026,0.029969505109285054,-2.752394845125968,0.0342448039870148,2.7663679543071322,0.7691630533470046,0.0009575370870073273,0.0003791787817544433,0.0001897986097903655,0.0010564030731893819,0.00035911923777151307,9.06033023585251e-05,0.0008096383217709582,0.0,0.0,0.0,0.0,0.0,0.0,0.0,-8.193827512514851e-05,-4.902678098578361e-06,1.1680123937464482e-05,-1.7016843168793372e-05,-1.2018897084652147e-05,-6.192525227710632e-06,-1.784880956012813e-05,-0.0009575370870073273,-0.0003791787817544433,-0.0001897986097903655,-0.0010564030731893819,-0.00035911923777151307,-9.06033023585251e-05,-0.0008096383217709582,0.3514034152030945,22.795862197875977,0.09756157547235489,-14.080232620239258,-0.07628399133682251,-2.1325716972351074,0.38577598333358765,0
55,0.2702789306640625,-0.2720577120780945,-22.772058486938477,-0.04995415359735489,14.155611038208008,0.08818584680557251,2.1389803886413574,-0.35831016302108765,0.0,0.0,0.0,0.0,0.0,0.0,0.0,-0.32354819542072927,0.012584391578400893,-0.17641975839084043,0.2623687516430724,-0.15083627663015467,-0.049941112794804544,-0.36754967183321946,1.67557444016557,0.052106847950589584,0.02995448378905053,-2.752383108953423,0.03425549996892886,2.7663734347555367,0.7691778510447747,1.6754973547542302,0.052104326824870026,0.029969505109285054,-2.752394845125968,0.0342448039870148,2.7663679543071322,0.7691630533470046,-0.0001548887550254241,-0.0004978211013145702,-6.616133472173935e-05,-0.0003905150786442367,-0.00018867123812751666,-6.541416240112829e-05,-0.0004635861003654601,0.0,0.0,0.0,0.0,0.0,0.0,0.0,-7.708541133966129e-05,-2.5211257195581482e-06,1.5021320234523405e-05,-1.173617254490722e-05,-1.0695981914062014e-05,-5.480448404426852e-06,-1.4797697770019269e-05,0.0001548887550254241,0.0004978211013145702,6.616133472173935e-05,0.0003905150786442367,0.00018867123812751666,6.541416240112829e-05,0.0004635861003654601,0.2720577120780945,22.772058486938477,0.04995415359735489,-14.155611038208008,-0.08818584680557251,-2.1389803886413574,0.35831016302108765,0
56,0.2750368118286133,-0.2720577120780945,-22.772058486938477,-0.04995415359735489,14.155611038208008,0.08818584680557251,2.1389803886413574,-0.35831016302108765,0.0,0.0,0.0,0.0,0.0,0.0,0.0,-0.32354819542072927,0.012584391578400893,-0.17641975839084043,0.2623687516430724,-0.15083627663015467,-0.049941112794804544,-0.36754967183321946,1.67557444016557,0.052106847950589584,0.02995448378905053,-2.752383108953423,0.03425549996892886,2.7663734347555367,0.7691778510447747,1.6754973547542302,0.052104326824870026,0.029969505109285054,-2.752394845125968,0.0342448039870148,2.7663679543071322,0.7691630533470046,-0.0001548887550254241,-0.0004978211013145702,-6.616133472173935e-05,-0.0003905150786442367,-0.00018867123812751666,-6.541416240112829e-05,-0.0004635861003654601,0.0,0.0,0.0,0.0,0.0,0.0,0.0,-7.708541133966129e-05,-2.5211257195581482e-06,1.5021320234523405e-05,-1.173617254490722e-05,-1.0695981914062014e-05,-5.480448404426852e-06,-1.4797697770019269e-05,0.0001548887550254241,0.0004978211013145702,6.616133472173935e-05,0.0003905150786442367,0.00018867123812751666,6.541416240112829e-05,0.0004635861003654601,0.2720577120780945,22.772058486938477,0.04995415359735489,-14.155611038208008,-0.08818584680557251,-2.1389803886413574,0.35831016302108765,0
57,0.27999424934387207,-0.3236324191093445,-22.772058486938477,-0.04995415359735489,14.155611038208008,0.08177715539932251,2.1389803886413574,-0.33084434270858765,0.0,0.0,0.0,0.0,0.0,0.0,0.0,-0.3260867752537945,0.018077691869886964,-0.1791619193021588,0.25758435425312765,-0.14954273631972406,-0.050156847616374,-0.36784174060226105,1.6755773441996318,0.05210518866665309,0.0299544837890487,-2.7523831177714735,0.03425621204574903,2.7663734347555367,0.7691751925530674,1.6754973547542302,0.052104326824870026,0.029969505109285054,-2.752394845125968,0.0342448039870148,2.7663679543071322,0.7691630533470046,-2.9324795489376118e-05,-6.453199982634961e-05,-7.568879549820462e-05,-0.0005544467408157027,-8.372660772954233e-05,-0.00031628647042969237,-0.001572055911480883,0.0,0.0,0.0,0.0,0.0,0.0,0.0,-7.99894454015515e-05,-8.618417830646985e-07,1.5021320236355273e-05,-1.172735449461726e-05,-1.1408058734230231e-05,-5.480448404426852e-06,-1.2139206062800056e-05,2.9324795489376118e-05,6.453199982634961e-05,7.568879549820462e-05,0.0005544467408157027,8.372660772954233e-05,0.00031628647042969237,0.001572055911480883,0.3236324191093445,22.772058486938477,0.04995415359735489,-14.155611038208008,-0.08177715539932251,-2.1389803886413574,0.33084434270858765,0
58,0.28505516052246094,-0.3236324191093445,-22.772058486938477,-0.04995415359735489,14.155611038208008,0.08177715539932251,2.1389803886413574,-0.33084434270858765,0.0,0.0,0.0,0.0,0.0,0.0,0.0,-0.3260867752537945,0.018077691869886964,-0.1791619193021588,0.25758435425312765,-0.14954273631972406,-0.050156847616374,-0.36784174060226105,1.6755773441996318,0.05210518866665309,0.0299544837890487,-2.7523831177714735,0.03425621204574903,2.7663734347555367,0.7691751925530674,1.6754973547542302,0.052104326824870026,0.029969505109285054,-2.752394845125968,0.0342448039870148,2.7663679543071322,0.7691630533470046,-2.9324795489376118e-05,-6.453199982634961e-05,-7.568879549820462e-05,-0.0005544467408157027,-8.372660772954233e-05,-0.00031628647042969237,-0.001572055911480883,0.0,0.0,0.0,0.0,0.0,0.0,0.0,-7.99894454015515e-05,-8.618417830646985e-07,1.5021320236355273e-05,-1.172735449461726e-05,-1.1408058734230231e-05,-5.480448404426852e-06,-1.2139206062800056e-05,2.9324795489376118e-05,6.453199982634961e-05,7.568879549820462e-05,0.0005544467408157027,8.372660772954233e-05,0.00031628647042969237,0.001572055911480883,0.3236324191093445,22.772058486938477,0.04995415359735489,-14.155611038208008,-0.08177715539932251,-2.1389803886413574,0.33084434270858765,0
59,0.2900354862213135,-0.3236324191093445,-22.795862197875977,-0.09756157547235489,14.131807327270508,0.07628399133682251,2.1453890800476074,-0.37845176458358765,0.0,0.0,0.0,0.0,0.0,0.0,0.0,-0.3252444509885076,0.015135879713720239,-0.17318675874378572,0.259515866743581,-0.14970341342573343,-0.04925022355087105,-0.3694683747642792,1.675577344187519,0.052109228523041895,0.029957824660759223,-2.7523814476749346,0.03425682239731153,2.766372722678714,0.7691832805130685,1.6754973547542302,0.052104326824870026,0.029969505109285054,-2.752394845125968,0.0342448039870148,2.7663679543071322,0.7691630533470046,5.823787126994388e-05,0.00036296884706311054,0.00028132892077520886,-1.3061137605354021e-06,-7.568180999865991e-06,-0.00020166048874333106,0.00031302675535049075,0.0,0.0,0.0,0.0,0.0,0.0,0.0,-7.998943328879626e-05,-4.90169817186914e-06,1.1680448525831083e-05,-1.3397451033458907e-05,-1.2018410296729676e-05,-4.768371581587161e-06,-2.022716606386865e-05,-5.823787126994388e-05,-0.00036296884706311054,-0.00028132892077520886,1.3061137605354021e-06,7.568180999865991e-06,0.00020166048874333106,-0.00031302675535049075,0.3236324191093445,22.795862197875977,0.09756157547235489,-14.131807327270508,-0.07628399133682251,-2.1453890800476074,0.37845176458358765,0
60,0.2949941158294678,-0.3236324191093445,-22.795862197875977,-0.09756157547235489,14.131807327270508,0.07628399133682251,2.1453890800476074,-0.37845176458358765,0.0,0.0,0.0,0.0,0.0,0.0,0.0,-0.3252444509885076,0.015135879713720239,-0.17318675874378572,0.259515866743581,-0.14970341342573343,-0.04925022355087105,-0.3694683747642792,1.675577344187519,0.052109228523041895,0.029957824660759223,-2.7523814476749346,0.03425682239731153,2.766372722678714,0.7691832805130685,1.6754973547542302,0.052104326824870026,0.029969505109285054,-2.752394845125968,0.0342448039870148,2.7663679543071322,0.7691630533470046,5.823787126994388e-05,0.00036296884706311054,0.00028132892077520886,-1.3061137605354021e-06,-7.568180999865991e-06,-0.00020166048874333106,0.00031302675535049075,0.0,0.0,0.0,0.0,0.0,0.0,0.0,-7.998943328879626e-05,-4.90169817186914e-06,1.1680448525831083e-05,-1.3397451033458907e-05,-1.2018410296729676e-05,-4.768371581587161e-06,-2.022716606386865e-05,-5.823787126994388e-05,-0.00036296884706311054,-0.00028132892077520886,1.3061137605354021e-06,7.568180999865991e-06,0.00020166048874333106,-0.00031302675535049075,0.3236324191093445,22.795862197875977,0.09756157547235489,-14.131807327270508,-0.07628399133682251,-2.1453890800476074,0.37845176458358765,0
61,0.29999852180480957,-0.3236324191093445,-22.772058486938477,-0.09756157547235489,14.131807327270508,0.07628399133682251,2.1325716972351074,-0.34457725286483765,0.0,0.0,0.0,0.0,0.0,0.0,0.0,-0.32975639943500445,0.01979764742033993,-0.17616055741567532,0.2594759929819808,-0.15028046661935807,-0.048450744734550556,-0.3707213278145845,1.6755774236603787,0.05210755906710991,0.029957824660759223,-2.7523814466574503,0.03425682239731153,2.76637414683236,0.7691763245378659,1.6754973547542302,0.052104326824870026,0.029969505109285054,-2.752394845125968,0.0342448039870148,2.7663679543071322,0.7691630533470046,-0.001075121964442771,0.00033391375701489074,-0.0008031043181029588,0.0003376892883512445,0.00025799239602473386,0.00029440244760996226,-0.0011709685583223873,0.0,0.0,0.0,0.0,0.0,0.0,0.0,-8.006890614842277e-05,-3.232242239886718e-06,1.1680448525831083e-05,-1.3398468517777928e-05,-1.2018410296729676e-05,-6.192525227710632e-06,-1.3271190861252613e-05,0.001075121964442771,-0.00033391375701489074,0.0008031043181029588,-0.0003376892883512445,-0.00025799239602473386,-0.00029440244760996226,0.0011709685583223873,0.3236324191093445,22.772058486938477,0.09756157547235489,-14.131807327270508,-0.07628399133682251,-2.1325716972351074,0.34457725286483765,0
62,0.30501365661621094,-0.3236324191093445,-22.772058486938477,-0.09756157547235489,14.131807327270508,0.07628399133682251,2.1325716972351074,-0.34457725286483765,0.0,0.0,0.0,0.0,0.0,0.0,0.0,-0.32975639943500445,0.01979764742033993,-0.17616055741567532,0.2594759929819808,-0.15028046661935807,-0.048450744734550556,-0.3707213278145845,1.6755774236603787,0.05210755906710991,0.029957824660759223,-2.7523814466574503,0.03425682239731153,2.76637414683236,0.7691763245378659,1.6754973547542302,0.052104326824870026,0.029969505109285054,-2.752394845125968,0.0342448039870148,2.7663679543071322,0.7691630533470046,-0.001075121964442771,0.00033391375701489074,-0.0008031043181029588,0.0003376892883512445,0.00025799239602473386,0.00029440244760996226,-0.0011709685583223873,0.0,0.0,0.0,0.0,0.0,0.0,0.0,-8.006890614842277e-05,-3.232242239886718e-06,1.1680448525831083e-05,-1.3398468517777928e-05,-1.2018410296729676e-05,-6.192525227710632e-06,-1.3271190861252613e-05,0.001075121964442771,-0.00033391375701489074,0.0008031043181029588,-0.0003376892883512445,-0.00025799239602473386,-0.00029440244760996226,0.0011709685583223873,0.3236324191093445,22.772058486938477,0.09756157547235489,-14.131807327270508,-0.07628399133682251,-2.1325716972351074,0.34457725286483765,0
63,0.3099849224090576,-0.3236324191093445,-22.795862197875977,-0.09756157547235489,14.155611038208008,0.07628399133682251,2.1389803886413574,-0.35098594427108765,0.0,0.0,0.0,0.0,0.0,0.0,0.0,-0.33053702521128,0.016411538589248865,-0.1755005353167981,0.26237434389773034,-0.15069077459217176,-0.04734157721433785,-0.37011209290752617,1.6755773441879676,0.0521092031653216,0.029957824660759223,-2.752380892870713,0.03425682239731153,2.7663734347555367,0.7691802155110572,1.6754973547542302,0.052104326824870026,0.029969505109285054,-2.752394845125968,0.0342448039870148,2.7663679543071322,0.7691630533470046,-0.0008805035103107514,0.00034391275712750705,-0.000581575291903525,-0.0004049848537845839,0.00043493845276760683,-0.00014636620508587153,-0.0004955650001416931,0.0,0.0,0.0,0.0,0.0,0.0,0.0,-7.998943373732637e-05,-4.876340451577532e-06,1.1680448525831083e-05,-1.3952255255134105e-05,-1.2018410296729676e-05,-5.480448404426852e-06,-1.716216405256432e-05,0.0008805035103107514,-0.00034391275712750705,0.000581575291903525,0.0004049848537845839,-0.00043493845276760683,0.00014636620508587153,0.0004955650001416931,0.3236324191093445,22.795862197875977,0.09756157547235489,-14.155611038208008,-0.07628399133682251,-2.1389803886413574,0.35098594427108765,0
64,0.31499338150024414,-0.3236324191093445,-22.795862197875977,-0.09756157547235489,14.155611038208008,0.07628399133682251,2.1389803886413574,-0.35098594427108765,0.0,0.0,0.0,0.0,0.0,0.0,0.0,-0.33053702521128,0.016411538589248865,-0.1755005353167981,0.26237434389773034,-0.15069077459217176,-0.04734157721433785,-0.37011209290752617,1.6755773441879676,0.0521092031653216,0.029957824660759223,-2.752380892870713,0.03425682239731153,2.7663734347555367,0.7691802155110572,1.6754973547542302,0.052104326824870026,0.029969505109285054,-2.752394845125968,0.0342448039870148,2.7663679543071322,0.7691630533470046,-0.0008805035103107514,0.00034391275712750705,-0.000581575291903525,-0.0004049848537845839,0.00043493845276760683,-0.00014636620508587153,-0.0004955650001416931,0.0,0.0,0.0,0.0,0.0,0.0,0.0,-7.998943373732637e-05,-4.876340451577532e-06,1.1680448525831083e-05,-1.3952255255134105e-05,-1.2018410296729676e-05,-5.480448404426852e-06,-1.716216405256432e-05,0.0008805035103107514,-0.00034391275712750705,0.000581575291903525,0.0004049848537845839,-0.00043493845276760683,0.00014636620508587153,0.0004955650001416931,0.3236324191093445,22.795862197875977,0.09756157547235489,-14.155611038208008,-0.07628399133682251,-2.1389803886413574,0.35098594427108765,0
65,0.3199946880340576,-0.3514034152030945,-22.748254776000977,-0.09756157547235489,14.131807327270508,0.08177715539932251,2.1389803886413574,-0.35831016302108765,0.0,0.0,0.0,0.0,0.0,0.0,0.0,-0.32891539279142074,0.02181319159121081,-0.17346434001096625,0.25844676189333926,-0.15118534167882877,-0.04777469287007351,-0.36880376008199806,1.67557929302935,0.05210565148398328,0.029957824660759223,-2.752381447670748,0.03425621204574903,2.7663734347555367,0.769177850404734,1.6754973547542302,0.052104326824870026,0.029969505109285054,-2.752394845125968,0.0342448039870148,2.7663679543071322,0.7691630533470046,0.0006717211217732872,-0.0006932016232407249,0.0007318294020338534,-0.00023147627459298408,8.028860004897981e-05,-3.5245922158732213e-05,-2.8028913510765306e-06,0.0,0.0,0.0,0.0,0.0,0.0,0.0,-8.193827511981944e-05,-1.324659113254023e-06,1.1680448525831083e-05,-1.3397455219887888e-05,-1.1408058734230231e-05,-5.480448404426852e-06,-1.4797057729332153e-05,-0.0006717211217732872,0.0006932016232407249,-0.0007318294020338534,0.00023147627459298408,-8.028860004897981e-05,3.5245922158732213e-05,2.8028913510765306e-06,0.3514034152030945,22.748254776000977,0.09756157547235489,-14.131807327270508,-0.08177715539932251,-2.1389803886413574,0.35831016302108765,0
66,0.3249976634979248,-0.3514034152030945,-22.748254776000977,-0.09756157547235489,14.131807327270508,0.08177715539932251,2.1389803886413574,-0.35831016302108765,0.0,0.0,0.0,0.0,0.0,0.0,0.0,-0.32891539279142074,0.02181319159121081,-0.17346434001096625,0.25844676189333926,-0.15118534167882877,-0.04777469287007351,-0.36880376008199806,1.67557929302935,0.05210565148398328,0.029957824660759223,-2.752381447670748,0.03425621204574903,2.7663734347555367,0.769177850404734,1.6754973547542302,0.052104326824870026,0.029969505109285054,-2.752394845125968,0.0342448039870148,2.7663679543071322,0.7691630533470046,0.0006717211217732872,-0.0006932016232407249,0.0007318294020338534,-0.00023147627459298408,8.028860004897981e-05,-3.5245922158732213e-05,-2.8028913510765306e-06,0.0,0.0,0.0,0.0,0.0,0.0,0.0,-8.193827511981944e-05,-1.324659113254023e-06,1.1680448525831083e-05,-1.3397455219887888e-05,-1.1408058734230231e-05,-5.480448404426852e-06,-1.4797057729332153e-05,-0.0006717211217732872,0.0006932016232407249,-0.0007318294020338534,0.00023147627459298408,-8.028860004897981e-05,3.5245922158732213e-05,2.8028913510765306e-06,0.3514034152030945,22.748254776000977,0.09756157547235489,-14.131807327270508,-0.08177715539932251,-2.1389803886413574,0.35831016302108765,0
67,0.32999444007873535,-0.3236324191093445,-22.795862197875977,-0.1253325641155243,14.155611038208008,0.08177715539932251,2.1389803886413574,-0.35098594427108765,0.0,0.0,0.0,0.0,0.0,0.0,0.0,-0.33390276117959394,0.018537215356554726,-0.174584043037055,0.264055072640028,-0.15060666336825348,-0.04663793241750373,-0.3672656599827221,1.675577344187519,0.05210843633736798,0.029960562251803546,-2.75238311811079,0.03425621204574903,2.7663734347555367,0.7691770385347361,1.6754973547542302,0.052104326824870026,0.029969505109285054,-2.752394845125968,0.0342448039870148,2.7663679543071322,0.7691630533470046,0.00015876134397841768,0.00036309012379258225,0.0010001259250371174,-0.0003247932633697206,7.176844289590883e-05,9.209373119712584e-05,-0.00040596986775182667,0.0,0.0,0.0,0.0,0.0,0.0,0.0,-7.998943328879626e-05,-4.109512497955936e-06,8.942857481507305e-06,-1.1727015178042421e-05,-1.1408058734230231e-05,-5.480448404426852e-06,-1.3985187731435644e-05,-0.00015876134397841768,-0.00036309012379258225,-0.0010001259250371174,0.0003247932633697206,-7.176844289590883e-05,-9.209373119712584e-05,0.00040596986775182667,0.3236324191093445,22.795862197875977,0.1253325641155243,-14.155611038208008,-0.08177715539932251,-2.1389803886413574,0.35098594427108765,0
68,0.3350036144256592,-0.3236324191093445,-22.795862197875977,-0.1253325641155243,14.155611038208008,0.08177715539932251,2.1389803886413574,-0.35098594427108765,0.0,0.0,0.0,0.0,0.0,0.0,0.0,-0.33390276117959394,0.018537215356554726,-0.174584043037055,0.264055072640028,-0.15060666336825348,-0.04663793241750373,-0.3672656599827221,1.675577344187519,0.05210843633736798,0.029960562251803546,-2.75238311811079,0.03425621204574903,2.7663734347555367,0.7691770385347361,1.6754973547542302,0.052104326824870026,0.029969505109285054,-2.752394845125968,0.0342448039870148,2.7663679543071322,0.7691630533470046,0.00015876134397841768,0.00036309012379258225,0.0010001259250371174,-0.0003247932633697206,7.176844289590883e-05,9.209373119712584e-05,-0.00040596986775182667,0.0,0.0,0.0,0.0,0.0,0.0,0.0,-7.998943328879626e-05,-4.109512497955936e-06,8.942857481507305e-06,-1.1727015178042421e-05,-1.1408058734230231e-05,-5.480448404426852e-06,-1.3985187731435644e-05,-0.00015876134397841768,-0.00036309012379258225,-0.0010001259250371174,0.0003247932633697206,-7.176844289590883e-05,-9.209373119712584e-05,0.00040596986775182667,0.3236324191093445,22.795862197875977,0.1253325641155243,-14.155611038208008,-0.08177715539932251,-2.1389803886413574,0.35098594427108765,0
69,0.34001827239990234,-0.3514034152030945,-22.772058486938477,-0.1253325641155243,14.131807327270508,0.08177715539932251,2.1389803886413574,-0.35831016302108765,0.0,0.0,0.0,0.0,0.0,0.0,0.0,-0.3308127531741249,0.021329420864059652,-0.1724340836217931,0.26279159790339274,-0.1508052335404734,-0.04665256591787036,-0.36754282004312655,1.67557929302935,0.052107550247293175,0.02995977350652003,-2.752381447674935,0.03425621204574903,2.7663734347555367,0.7691778503987633,1.6754973547542302,0.052104326824870026,0.029969505109285054,-2.752394845125968,0.0342448039870148,2.7663679543071322,0.7691630533470046,0.000875865848356914,-0.00027474105946480754,0.0011355384023111097,0.00029186487752611565,3.0327957421771603e-05,9.230774308837932e-05,-0.0007139880458131143,0.0,0.0,0.0,0.0,0.0,0.0,0.0,-8.193827511981944e-05,-3.2234224231486586e-06,9.731602765024328e-06,-1.3397451033014818e-05,-1.1408058734230231e-05,-5.480448404426852e-06,-1.4797051758663748e-05,-0.000875865848356914,0.00027474105946480754,-0.0011355384023111097,-0.00029186487752611565,-3.0327957421771603e-05,-9.230774308837932e-05,0.0007139880458131143,0.3514034152030945,22.772058486938477,0.1253325641155243,-14.131807327270508,-0.08177715539932251,-2.1389803886413574,0.35831016302108765,0
70,0.34502506256103516,-0.3514034152030945,-22.772058486938477,-0.1253325641155243,14.131807327270508,0.08177715539932251,2.1389803886413574,-0.35831016302108765,0.0,0.0,0.0,0.0,0.0,0.0,0.0,-0.3308127531741249,0.021329420864059652,-0.1724340836217931,0.26279159790339274,-0.1508052335404734,-0.04665256591787036,-0.36754282004312655,1.67557929302935,0.052107550247293175,0.02995977350652003,-2.752381447674935,0.03425621204574903,2.7663734347555367,0.7691778503987633,1.6754973547542302,0.052104326824870026,0.029969505109285054,-2.752394845125968,0.0342448039870148,2.7663679543071322,0.7691630533470046,0.000875865848356914,-0.00027474105946480754,0.0011355384023111097,0.00029186487752611565,3.0327957421771603e-05,9.230774308837932e-05,-0.0007139880458131143,0.0,0.0,0.0,0.0,0.0,0.0,0.0,-8.193827511981944e-05,-3.2234224231486586e-06,9.731602765024328e-06,-1.3397451033014818e-05,-1.1408058734230231e-05,-5.480448404426852e-06,-1.4797051758663748e-05,-0.000875865848356914,0.00027474105946480754,-0.0011355384023111097,-0.00029186487752611565,-3.0327957421771603e-05,-9.230774308837932e-05,0.0007139880458131143,0.3514034152030945,22.772058486938477,0.1253325641155243,-14.131807327270508,-0.08177715539932251,-2.1389803886413574,0.35831016302108765,0
71,0.35006141662597656,-0.3236324191093445,-22.795862197875977,-0.09756157547235489,14.131807327270508,0.08177715539932251,2.1325716972351074,-0.34457725286483765,0.0,0.0,0.0,0.0,0.0,0.0,0.0,-0.3274094989450791,0.022973137856808563,-0.17179121889525825,0.26047434663650443,-0.1506554971426245,-0.04669446857364214,-0.3697056545384302,1.675577344187519,0.05210899145248202,0.029957824660759247,-2.75238144462248,0.03425621204574903,2.76637414683236,0.769176442257416,1.6754973547542302,0.052104326824870026,0.029969505109285054,-2.752394845125968,0.0342448039870148,2.7663679543071322,0.7691630533470046,0.00032630552194708575,0.0006068943805888702,0.00018843793169235942,-0.00010833263156714837,-8.056281820748933e-06,0.00022930944548807627,-0.0013083798276002903,0.0,0.0,0.0,0.0,0.0,0.0,0.0,-7.998943328879626e-05,-4.664627611991601e-06,1.1680448525806797e-05,-1.3400503488192328e-05,-1.1408058734230231e-05,-6.192525227710632e-06,-1.3388910411360477e-05,-0.00032630552194708575,-0.0006068943805888702,-0.00018843793169235942,0.00010833263156714837,8.056281820748933e-06,-0.00022930944548807627,0.0013083798276002903,0.3236324191093445,22.795862197875977,0.09756157547235489,-14.131807327270508,-0.08177715539932251,-2.1325716972351074,0.34457725286483765,0
72,0.3551476001739502,-0.3236324191093445,-22.795862197875977,-0.09756157547235489,14.131807327270508,0.08177715539932251,2.1325716972351074,-0.34457725286483765,0.0,0.0,0.0,0.0,0.0,0.0,0.0,-0.3274094989450791,0.022973137856808563,-0.17179121889525825,0.26047434663650443,-0.1506554971426245,-0.04669446857364214,-0.3697056545384302,1.675577344187519,0.05210899145248202,0.029957824660759247,-2.75238144462248,0.03425621204574903,2.76637414683236,0.769176442257416,1.6754973547542302,0.052104326824870026,0.029969505109285054,-2.752394845125968,0.0342448039870148,2.7663679543071322,0.7691630533470046,0.00032630552194708575,0.0006068943805888702,0.00018843793169235942,-0.00010833263156714837,-8.056281820748933e-06,0.00022930944548807627,-0.0013083798276002903,0.0,0.0,0.0,0.0,0.0,0.0,0.0,-7.998943328879626e-05,-4.664627611991601e-06,1.1680448525806797e-05,-1.3400503488192328e-05,-1.1408058734230231e-05,-6.192525227710632e-06,-1.3388910411360477e-05,-0.00032630552194708575,-0.0006068943805888702,-0.00018843793169235942,0.00010833263156714837,8.056281820748933e-06,-0.00022930944548807627,0.0013083798276002903,0.3236324191093445,22.795862197875977,0.09756157547235489,-14.131807327270508,-0.08177715539932251,-2.1325716972351074,0.34457725286483765,0
73,0.36005258560180664,-0.3236324191093445,-22.795862197875977,-0.09756157547235489,14.131807327270508,0.08177715539932251,2.1325716972351074,-0.34457725286483765,0.0,0.0,0.0,0.0,0.0,0.0,0.0,-0.3274094989450791,0.022973137856808563,-0.17179121889525825,0.26047434663650443,-0.1506554971426245,-0.04669446857364214,-0.3697056545384302,1.675577344187519,0.05210899145248202,0.029957824660759247,-2.75238144462248,0.03425621204574903,2.76637414683236,0.769176442257416,1.6754973547542302,0.052104326824870026,0.029969505109285054,-2.752394845125968,0.0342448039870148,2.7663679543071322,0.7691630533470046,0.00032630552194708575,0.0006068943805888702,0.00018843793169235942,-0.00010833263156714837,-8.056281820748933e-06,0.00022930944548807627,-0.0013083798276002903,0.0,0.0,0.0,0.0,0.0,0.0,0.0,-7.998943328879626e-05,-4.664627611991601e-06,1.1680448525806797e-05,-1.3400503488192328e-05,-1.1408058734230231e-05,-6.192525227710632e-06,-1.3388910411360477e-05,-0.00032630552194708575,-0.0006068943805888702,-0.00018843793169235942,0.00010833263156714837,8.056281820748933e-06,-0.00022930944548807627,0.0013083798276002903,0.3236324191093445,22.795862197875977,0.09756157547235489,-14.131807327270508,-0.08177715539932251,-2.1325716972351074,0.34457725286483765,0
74,0.3650031089782715,-0.3236324191093445,-22.795862197875977,-0.09756157547235489,14.131807327270508,0.08177715539932251,2.1325716972351074,-0.34457725286483765,0.0,0.0,0.0,0.0,0.0,0.0,0.0,-0.3274094989450791,0.022973137856808563,-0.17179121889525825,0.26047434663650443,-0.1506554971426245,-0.04669446857364214,-0.3697056545384302,1.675577344187519,0.05210899145248202,0.029957824660759247,-2.75238144462248,0.03425621204574903,2.76637414683236,0.769176442257416,1.6754973547542302,0.052104326824870026,0.029969505109285054,-2.752394845125968,0.0342448039870148,2.7663679543071322,0.7691630533470046,0.00032630552194708575,0.0006068943805888702,0.00018843793169235942,-0.00010833263156714837,-8.056281820748933e-06,0.00022930944548807627,-0.0013083798276002903,0.0,0.0,0.0,0.0,0.0,0.0,0.0,-7.998943328879626e-05,-4.664627611991601e-06,1.1680448525806797e-05,-1.3400503488192328e-05,-1.1408058734230231e-05,-6.192525227710632e-06,-1.3388910411360477e-05,-0.00032630552194708575,-0.0006068943805888702,-0.00018843793169235942,0.00010833263156714837,8.056281820748933e-06,-0.00022930944548807627,0.0013083798276002903,0.3236324191093445,22.795862197875977,0.09756157547235489,-14.131807327270508,-0.08177715539932251,-2.1325716972351074,0.34457725286483765,0
75,0.36998510360717773,-0.3236324191093445,-22.795862197875977,-0.09756157547235489,14.131807327270508,0.08177715539932251,2.1325716972351074,-0.34457725286483765,0.0,0.0,0.0,0.0,0.0,0.0,0.0,-0.3274094989450791,0.022973137856808563,-0.17179121889525825,0.26047434663650443,-0.1506554971426245,-0.04669446857364214,-0.3697056545384302,1.675577344187519,0.05210899145248202,0.029957824660759247,-2.75238144462248,0.03425621204574903,2.76637414683236,0.769176442257416,1.6754973547542302,0.052104326824870026,0.029969505109285054,-2.752394845125968,0.0342448039870148,2.7663679543071322,0.7691630533470046,0.00032630552194708575,0.0006068943805888702,0.00018843793169235942,-0.00010833263156714837,-8.056281820748933e-06,0.00022930944548807627,-0.0013083798276002903,0.0,0.0,0.0,0.0,0.0,0.0,0.0,-7.998943328879626e-05,-4.664627611991601e-06,1.1680448525806797e-05,-1.3400503488192328e-05,-1.1408058734230231e-05,-6.192525227710632e-06,-1.3388910411360477e-05,-0.00032630552194708575,-0.0006068943805888702,-0.00018843793169235942,0.00010833263156714837,8.056281820748933e-06,-0.00022930944548807627,0.0013083798276002903,0.3236324191093445,22.795862197875977,0.09756157547235489,-14.131807327270508,-0.08177715539932251,-2.1325716972351074,0.34457725286483765,0
76,0.3749868869781494,-0.3236324191093445,-22.795862197875977,-0.07375786453485489,14.179414749145508,0.08177715539932251,2.1389803886413574,-0.36471885442733765,0.0,0.0,0.0,0.0,0.0,0.0,0.0,-0.3248407158160196,0.0203200219953548,-0.17148706144482892,0.2625028797359062,-0.15058957893636307,-0.04657904151820826,-0.37114928570510675,1.675577344187519,0.05210922950162691,0.02995836272416485,-2.7523847874160894,0.03425621204574903,2.7663734362090873,0.7691785624762398,1.6754973547542302,0.052104326824870026,0.029969505109285054,-2.752394845125968,0.0342448039870148,2.7663679543071322,0.7691630533470046,-5.461131088256764e-05,0.0005980767923543498,-0.0001360414112705347,-0.001174820683365938,-1.4233275627975045e-05,-0.00016993855230057763,-0.0006057697798529634,0.0,0.0,0.0,0.0,0.0,0.0,0.0,-7.998943328879626e-05,-4.902676756880775e-06,1.1142385120205267e-05,-1.0057709878719123e-05,-1.1408058734230231e-05,-5.481901955040058e-06,-1.5509129235202757e-05,5.461131088256764e-05,-0.0005980767923543498,0.0001360414112705347,0.001174820683365938,1.4233275627975045e-05,0.00016993855230057763,0.0006057697798529634,0.3236324191093445,22.795862197875977,0.07375786453485489,-14.179414749145508,-0.08177715539932251,-2.1389803886413574,0.36471885442733765,0
77,0.37998414039611816,-0.3236324191093445,-22.795862197875977,-0.07375786453485489,14.179414749145508,0.08177715539932251,2.1389803886413574,-0.36471885442733765,0.0,0.0,0.0,0.0,0.0,0.0,0.0,-0.3248407158160196,0.0203200219953548,-0.17148706144482892,0.2625028797359062,-0.15058957893636307,-0.04657904151820826,-0.37114928570510675,1.675577344187519,0.05210922950162691,0.02995836272416485,-2.7523847874160894,0.03425621204574903,2.7663734362090873,0.7691785624762398,1.6754973547542302,0.052104326824870026,0.029969505109285054,-2.752394845125968,0.0342448039870148,2.7663679543071322,0.7691630533470046,-5.461131088256764e-05,0.0005980767923543498,-0.0001360414112705347,-0.001174820683365938,-1.4233275627975045e-05,-0.00016993855230057763,-0.0006057697798529634,0.0,0.0,0.0,0.0,0.0,0.0,0.0,-7.998943328879626e-05,-4.902676756880775e-06,1.1142385120205267e-05,-1.0057709878719123e-05,-1.1408058734230231e-05,-5.481901955040058e-06,-1.5509129235202757e-05,5.461131088256764e-05,-0.0005980767923543498,0.0001360414112705347,0.001174820683365938,1.4233275627975045e-05,0.00016993855230057763,0.0006057697798529634,0.3236324191093445,22.795862197875977,0.07375786453485489,-14.179414749145508,-0.08177715539932251,-2.1389803886413574,0.36471885442733765,0
78,0.384990930557251,-0.3236324191093445,-22.772058486938477,-0.09756157547235489,14.108003616333008,0.07628399133682251,2.1453890800476074,-0.35831016302108765,0.0,0.0,0.0,0.0,0.0,0.0,0.0,-0.32364002365738836,0.026329236053461588,-0.17184011963242865,0.25647570545502646,-0.15031645746281766,-0.04778837221801139,-0.3716036239526357,1.675579489954731,0.05210471449262661,0.029957824673226264,-2.7523797772390735,0.03425682255957417,2.7663727226787223,0.7691789148820491,1.6754973547542302,0.052104326824870026,0.029969505109285054,-2.752394845125968,0.0342448039870148,2.7663679543071322,0.7691630533470046,0.00022544786238095176,0.00038333223232154135,0.0003141982233676851,0.0002805760963798471,5.555300862685927e-05,-0.0001867299210287285,-0.0006460250629598543,0.0,0.0,0.0,0.0,0.0,0.0,0.0,-8.213520050071033e-05,-3.8766775658366504e-07,1.1680436058789795e-05,-1.5067886894648552e-05,-1.20185725593705e-05,-4.768371590024856e-06,-1.5861535044514596e-05,-0.00022544786238095176,-0.00038333223232154135,-0.0003141982233676851,-0.0002805760963798471,-5.555300862685927e-05,0.0001867299210287285,0.0006460250629598543,0.3236324191093445,22.772058486938477,0.09756157547235489,-14.108003616333008,-0.07628399133682251,-2.1453890800476074,0.35831016302108765,0
79,0.3900325298309326,-0.3236324191093445,-22.772058486938477,-0.09756157547235489,14.108003616333008,0.07628399133682251,2.1453890800476074,-0.35831016302108765,0.0,0.0,0.0,0.0,0.0,0.0,0.0,-0.32364002365738836,0.026329236053461588,-0.17184011963242865,0.25647570545502646,-0.15031645746281766,-0.04778837221801139,-0.3716036239526357,1.675579489954731,0.05210471449262661,0.029957824673226264,-2.7523797772390735,0.03425682255957417,2.7663727226787223,0.7691789148820491,1.6754973547542302,0.052104326824870026,0.029969505109285054,-2.752394845125968,0.0342448039870148,2.7663679543071322,0.7691630533470046,0.00022544786238095176,0.00038333223232154135,0.0003141982233676851,0.0002805760963798471,5.555300862685927e-05,-0.0001867299210287285,-0.0006460250629598543,0.0,0.0,0.0,0.0,0.0,0.0,0.0,-8.213520050071033e-05,-3.8766775658366504e-07,1.1680436058789795e-05,-1.5067886894648552e-05,-1.20185725593705e-05,-4.768371590024856e-06,-1.5861535044514596e-05,-0.00022544786238095176,-0.00038333223232154135,-0.0003141982233676851,-0.0002805760963798471,-5.555300862685927e-05,0.0001867299210287285,0.0006460250629598543,0.3236324191093445,22.772058486938477,0.09756157547235489,-14.108003616333008,-0.07628399133682251,-2.1453890800476074,0.35831016302108765,0
