rezayati/contactInterpretation/dataset/franka_main/labeled_data/link6/b10_8.csv
index,time,tau_J0,tau_J1,tau_J2,tau_J3,tau_J4,tau_J5,tau_J6,tau_J_d0,tau_J_d1,tau_J_d2,tau_J_d3,tau_J_d4,tau_J_d5,tau_J_d6,tau_ext0,tau_ext1,tau_ext2,tau_ext3,tau_ext4,tau_ext5,tau_ext6,q0,q1,q2,q3,q4,q5,q6,q_d0,q_d1,q_d2,q_d3,q_d4,q_d5,q_d6,dq0,dq1,dq2,dq3,dq4,dq5,dq6,dq_d0,dq_d1,dq_d2,dq_d3,dq_d4,dq_d5,dq_d6,e0,e1,e2,e3,e4,e5,e6,de0,de1,de2,de3,de4,de5,de6,etau_J0,etau_J1,etau_J2,etau_J3,etau_J4,etau_J5,etau_J6,label
1,0.0,-0.4783565402030945,-22.748254776000977,-0.1491362750530243,14.056428909301758,0.1531882882118225,2.1261630058288574,-0.39950889348983765,0.0,0.0,0.0,0.0,0.0,0.0,0.0,-0.4446452607271981,0.015039858691486652,-0.20861515947995812,0.18526461459672883,-0.07923802295217994,-0.05102113037448832,-0.4045182334673016,1.6757263269906986,0.05228804787627437,0.03009883208568575,-2.7522601652894965,0.03430619917284781,2.76634124188953,0.7691967287888991,1.6754973547542302,0.052104326824870026,0.029969505109285054,-2.752394845125968,0.0342448039870148,2.7663679543071322,0.7691630533470046,0.00047877746659068373,-0.0007123542952176348,0.0013355317730187157,7.792936878547163e-06,-9.8572998708385e-05,0.0005391211844243148,-0.000572914112846081,0.0,0.0,0.0,0.0,0.0,0.0,0.0,-0.00022897223646833886,-0.00018372105140434386,-0.00012932697640069546,-0.0001346798364716406,-6.139518583300752e-05,2.67124176023259e-05,-3.3675441894476243e-05,-0.00047877746659068373,0.0007123542952176348,-0.0013355317730187157,-7.792936878547163e-06,9.8572998708385e-05,-0.0005391211844243148,0.000572914112846081,0.4783565402030945,22.748254776000977,0.1491362750530243,-14.056428909301758,-0.1531882882118225,-2.1261630058288574,0.39950889348983765,0
2,0.004461765289306641,-0.4783565402030945,-22.748254776000977,-0.1491362750530243,14.056428909301758,0.1531882882118225,2.1261630058288574,-0.39950889348983765,0.0,0.0,0.0,0.0,0.0,0.0,0.0,-0.4446452607271981,0.015039858691486652,-0.20861515947995812,0.18526461459672883,-0.07923802295217994,-0.05102113037448832,-0.4045182334673016,1.6757263269906986,0.05228804787627437,0.03009883208568575,-2.7522601652894965,0.03430619917284781,2.76634124188953,0.7691967287888991,1.6754973547542302,0.052104326824870026,0.029969505109285054,-2.752394845125968,0.0342448039870148,2.7663679543071322,0.7691630533470046,0.00047877746659068373,-0.0007123542952176348,0.0013355317730187157,7.792936878547163e-06,-9.8572998708385e-05,0.0005391211844243148,-0.000572914112846081,0.0,0.0,0.0,0.0,0.0,0.0,0.0,-0.00022897223646833886,-0.00018372105140434386,-0.00012932697640069546,-0.0001346798364716406,-6.139518583300752e-05,2.67124176023259e-05,-3.3675441894476243e-05,-0.00047877746659068373,0.0007123542952176348,-0.0013355317730187157,-7.792936878547163e-06,9.8572998708385e-05,-0.0005391211844243148,0.000572914112846081,0.4783565402030945,22.748254776000977,0.1491362750530243,-14.056428909301758,-0.1531882882118225,-2.1261630058288574,0.39950889348983765,0
3,0.009444475173950195,-0.4267818331718445,-22.819665908813477,-0.1253325641155243,14.032625198364258,0.1595969796180725,2.1389803886413574,-0.40591758489608765,0.0,0.0,0.0,0.0,0.0,0.0,0.0,-0.448234508208723,0.010844975807546352,-0.20753805787257842,0.19027049534947224,-0.07885190682092282,-0.04999736749015715,-0.4064720095882617,1.6757228747169688,0.05229305918384016,0.030096127714122144,-2.7522587177524076,0.03430651540465547,2.7663398177358838,0.7691959001031039,1.6754973547542302,0.052104326824870026,0.029969505109285054,-2.752394845125968,0.0342448039870148,2.7663679543071322,0.7691630533470046,-0.0006642645452059335,0.0005614101758417677,0.00016074008686104663,0.0007997063432591719,-0.0002741802250349791,-0.00015460322586801172,-0.0003919353081938095,0.0,0.0,0.0,0.0,0.0,0.0,0.0,-0.0002255199627385629,-0.00018873235897013535,-0.00012662260483708998,-0.00013612737356050175,-6.171141764067106e-05,2.813657124844937e-05,-3.284675609926957e-05,0.0006642645452059335,-0.0005614101758417677,-0.00016074008686104663,-0.0007997063432591719,0.0002741802250349791,0.00015460322586801172,0.0003919353081938095,0.4267818331718445,22.819665908813477,0.1253325641155243,-14.032625198364258,-0.1595969796180725,-2.1389803886413574,0.40591758489608765,0
4,0.014447450637817383,-0.4267818331718445,-22.819665908813477,-0.1253325641155243,14.032625198364258,0.1595969796180725,2.1389803886413574,-0.40591758489608765,0.0,0.0,0.0,0.0,0.0,0.0,0.0,-0.448234508208723,0.010844975807546352,-0.20753805787257842,0.19027049534947224,-0.07885190682092282,-0.04999736749015715,-0.4064720095882617,1.6757228747169688,0.05229305918384016,0.030096127714122144,-2.7522587177524076,0.03430651540465547,2.7663398177358838,0.7691959001031039,1.6754973547542302,0.052104326824870026,0.029969505109285054,-2.752394845125968,0.0342448039870148,2.7663679543071322,0.7691630533470046,-0.0006642645452059335,0.0005614101758417677,0.00016074008686104663,0.0007997063432591719,-0.0002741802250349791,-0.00015460322586801172,-0.0003919353081938095,0.0,0.0,0.0,0.0,0.0,0.0,0.0,-0.0002255199627385629,-0.00018873235897013535,-0.00012662260483708998,-0.00013612737356050175,-6.171141764067106e-05,2.813657124844937e-05,-3.284675609926957e-05,0.0006642645452059335,-0.0005614101758417677,-0.00016074008686104663,-0.0007997063432591719,0.0002741802250349791,0.00015460322586801172,0.0003919353081938095,0.4267818331718445,22.819665908813477,0.1253325641155243,-14.032625198364258,-0.1595969796180725,-2.1389803886413574,0.40591758489608765,0
5,0.019444704055786133,-0.4505855441093445,-22.819665908813477,-0.1253325641155243,14.080232620239258,0.1531882882118225,2.1325716972351074,-0.38577598333358765,0.0,0.0,0.0,0.0,0.0,0.0,0.0,-0.4456835578176935,0.009702817319913447,-0.20695756820856429,0.19251300485364015,-0.0788065724306966,-0.04974481759611346,-0.40641841102994786,1.6757264442898405,0.05229400623541826,0.030094969226468305,-2.7522598568251486,0.0343058170463261,2.766340529812707,0.7691947363123088,1.6754973547542302,0.052104326824870026,0.029969505109285054,-2.752394845125968,0.0342448039870148,2.7663679543071322,0.7691630533470046,0.00048633084518958736,0.0007773274030294955,3.6102061338017017e-05,-0.00022924952192428322,2.5610061139566944e-05,0.00040185427268552286,-0.0007484508662355258,0.0,0.0,0.0,0.0,0.0,0.0,0.0,-0.000229089535610294,-0.00018967941054823245,-0.00012546411718325143,-0.000134988300819483,-6.101305931129758e-05,2.742449442516559e-05,-3.168296530420278e-05,-0.00048633084518958736,-0.0007773274030294955,-3.6102061338017017e-05,0.00022924952192428322,-2.5610061139566944e-05,-0.00040185427268552286,0.0007484508662355258,0.4505855441093445,22.819665908813477,0.1253325641155243,-14.080232620239258,-0.1531882882118225,-2.1325716972351074,0.38577598333358765,0
6,0.024441003799438477,-0.4505855441093445,-22.819665908813477,-0.1253325641155243,14.080232620239258,0.1531882882118225,2.1325716972351074,-0.38577598333358765,0.0,0.0,0.0,0.0,0.0,0.0,0.0,-0.4456835578176935,0.009702817319913447,-0.20695756820856429,0.19251300485364015,-0.0788065724306966,-0.04974481759611346,-0.40641841102994786,1.6757264442898405,0.05229400623541826,0.030094969226468305,-2.7522598568251486,0.0343058170463261,2.766340529812707,0.7691947363123088,1.6754973547542302,0.052104326824870026,0.029969505109285054,-2.752394845125968,0.0342448039870148,2.7663679543071322,0.7691630533470046,0.00048633084518958736,0.0007773274030294955,3.6102061338017017e-05,-0.00022924952192428322,2.5610061139566944e-05,0.00040185427268552286,-0.0007484508662355258,0.0,0.0,0.0,0.0,0.0,0.0,0.0,-0.000229089535610294,-0.00018967941054823245,-0.00012546411718325143,-0.000134988300819483,-6.101305931129758e-05,2.742449442516559e-05,-3.168296530420278e-05,-0.00048633084518958736,-0.0007773274030294955,-3.6102061338017017e-05,0.00022924952192428322,-2.5610061139566944e-05,-0.00040185427268552286,0.0007484508662355258,0.4505855441093445,22.819665908813477,0.1253325641155243,-14.080232620239258,-0.1531882882118225,-2.1325716972351074,0.38577598333358765,0
7,0.029439687728881836,-0.4029781222343445,-22.795862197875977,-0.1729399859905243,14.032625198364258,0.1476951241493225,2.1517977714538574,-0.37204307317733765,0.0,0.0,0.0,0.0,0.0,0.0,0.0,-0.44478540752297946,0.012689442023543877,-0.20864068438357758,0.18872534536268468,-0.07902555735399423,-0.04980405886406133,-0.40451441257080994,1.675720515164605,0.052291389078108666,0.03010018081080575,-2.7522587078301775,0.034306413759864866,2.7663394532203673,0.7691926217516167,1.6754973547542302,0.052104326824870026,0.029969505109285054,-2.752394845125968,0.0342448039870148,2.7663679543071322,0.7691630533470046,-0.001139975825970192,-6.986411342165611e-05,0.0012275318814194709,0.0004226932835580299,0.00015985842614411384,-0.0005279958345361858,-0.001079147461793962,0.0,0.0,0.0,0.0,0.0,0.0,0.0,-0.00022316041037484524,-0.00018706225323864012,-0.00013067570152069594,-0.00013613729579065037,-6.160977285006586e-05,2.8501086764887162e-05,-2.9568404612101418e-05,0.001139975825970192,6.986411342165611e-05,-0.0012275318814194709,-0.0004226932835580299,-0.00015985842614411384,0.0005279958345361858,0.001079147461793962,0.4029781222343445,22.795862197875977,0.1729399859905243,-14.032625198364258,-0.1476951241493225,-2.1517977714538574,0.37204307317733765,0
8,0.03444194793701172,-0.4029781222343445,-22.795862197875977,-0.1729399859905243,14.032625198364258,0.1476951241493225,2.1517977714538574,-0.37204307317733765,0.0,0.0,0.0,0.0,0.0,0.0,0.0,-0.44478540752297946,0.012689442023543877,-0.20864068438357758,0.18872534536268468,-0.07902555735399423,-0.04980405886406133,-0.40451441257080994,1.675720515164605,0.052291389078108666,0.03010018081080575,-2.7522587078301775,0.034306413759864866,2.7663394532203673,0.7691926217516167,1.6754973547542302,0.052104326824870026,0.029969505109285054,-2.752394845125968,0.0342448039870148,2.7663679543071322,0.7691630533470046,-0.001139975825970192,-6.986411342165611e-05,0.0012275318814194709,0.0004226932835580299,0.00015985842614411384,-0.0005279958345361858,-0.001079147461793962,0.0,0.0,0.0,0.0,0.0,0.0,0.0,-0.00022316041037484524,-0.00018706225323864012,-0.00013067570152069594,-0.00013613729579065037,-6.160977285006586e-05,2.8501086764887162e-05,-2.9568404612101418e-05,0.001139975825970192,6.986411342165611e-05,-0.0012275318814194709,-0.0004226932835580299,-0.00015985842614411384,0.0005279958345361858,0.001079147461793962,0.4029781222343445,22.795862197875977,0.1729399859905243,-14.032625198364258,-0.1476951241493225,-2.1517977714538574,0.37204307317733765,0
9,0.040236473083496094,-0.4267818331718445,-22.795862197875977,-0.1253325641155243,14.056428909301758,0.1531882882118225,2.1389803886413574,-0.39950889348983765,0.0,0.0,0.0,0.0,0.0,0.0,0.0,-0.4409264943642857,0.012902197726695246,-0.20842696191042862,0.1912103276367422,-0.07946003763616949,-0.04856351205914868,-0.4039204451504268,1.6757226565361294,0.052293519614037484,0.030096849656898038,-2.7522604119684706,0.03430597475757354,2.766339817741865,0.7691967267916826,1.6754973547542302,0.052104326824870026,0.029969505109285054,-2.752394845125968,0.0342448039870148,2.7663679543071322,0.7691630533470046,-0.00038392519779035784,0.0004803878134531852,0.0002860815103025806,0.00017456405484897916,9.502521937832363e-05,-6.527005382896988e-05,-0.0007156182358388789,0.0,0.0,0.0,0.0,0.0,0.0,0.0,-0.0002253017818991676,-0.0001891927891674583,-0.0001273445476129842,-0.0001344331574975044,-6.11707705587411e-05,2.8136565267011804e-05,-3.367344467797295e-05,0.00038392519779035784,-0.0004803878134531852,-0.0002860815103025806,-0.00017456405484897916,-9.502521937832363e-05,6.527005382896988e-05,0.0007156182358388789,0.4267818331718445,22.795862197875977,0.1253325641155243,-14.056428909301758,-0.1531882882118225,-2.1389803886413574,0.39950889348983765,0
10,0.04443955421447754,-0.4267818331718445,-22.795862197875977,-0.1253325641155243,14.056428909301758,0.1531882882118225,2.1389803886413574,-0.39950889348983765,0.0,0.0,0.0,0.0,0.0,0.0,0.0,-0.4409264943642857,0.012902197726695246,-0.20842696191042862,0.1912103276367422,-0.07946003763616949,-0.04856351205914868,-0.4039204451504268,1.6757226565361294,0.052293519614037484,0.030096849656898038,-2.7522604119684706,0.03430597475757354,2.766339817741865,0.7691967267916826,1.6754973547542302,0.052104326824870026,0.029969505109285054,-2.752394845125968,0.0342448039870148,2.7663679543071322,0.7691630533470046,-0.00038392519779035784,0.0004803878134531852,0.0002860815103025806,0.00017456405484897916,9.502521937832363e-05,-6.527005382896988e-05,-0.0007156182358388789,0.0,0.0,0.0,0.0,0.0,0.0,0.0,-0.0002253017818991676,-0.0001891927891674583,-0.0001273445476129842,-0.0001344331574975044,-6.11707705587411e-05,2.8136565267011804e-05,-3.367344467797295e-05,0.00038392519779035784,-0.0004803878134531852,-0.0002860815103025806,-0.00017456405484897916,-9.502521937832363e-05,6.527005382896988e-05,0.0007156182358388789,0.4267818331718445,22.795862197875977,0.1253325641155243,-14.056428909301758,-0.1531882882118225,-2.1389803886413574,0.39950889348983765,0
11,0.0494379997253418,-0.4029781222343445,-22.772058486938477,-0.1729399859905243,14.032625198364258,0.1595969796180725,2.1453890800476074,-0.37204307317733765,0.0,0.0,0.0,0.0,0.0,0.0,0.0,-0.44004104603628236,0.010981680235212067,-0.2093816553141174,0.18933150655258363,-0.07927332232645895,-0.047919890990286006,-0.40532312101665247,1.6757226373723506,0.052289718324158435,0.030098127216360387,-2.752257341435524,0.03430521448971373,2.766339105659061,0.7691936420926769,1.6754973547542302,0.052104326824870026,0.029969505109285054,-2.752394845125968,0.0342448039870148,2.7663679543071322,0.7691630533470046,-0.0006503325099898949,-0.0004985652425176354,0.001260592113095977,0.0006926652446584753,-0.00016144063016393557,-0.00013194937772920736,-0.0017445194495433062,0.0,0.0,0.0,0.0,0.0,0.0,0.0,-0.00022528261812038153,-0.00018539149928840926,-0.00012862210707533309,-0.00013750369044407407,-6.041050269892795e-05,2.8848648071289062e-05,-3.0588745672299744e-05,0.0006503325099898949,0.0004985652425176354,-0.001260592113095977,-0.0006926652446584753,0.00016144063016393557,0.00013194937772920736,0.0017445194495433062,0.4029781222343445,22.772058486938477,0.1729399859905243,-14.032625198364258,-0.1595969796180725,-2.1453890800476074,0.37204307317733765,0
12,0.054439544677734375,-0.4029781222343445,-22.772058486938477,-0.1729399859905243,14.032625198364258,0.1595969796180725,2.1453890800476074,-0.37204307317733765,0.0,0.0,0.0,0.0,0.0,0.0,0.0,-0.44004104603628236,0.010981680235212067,-0.2093816553141174,0.18933150655258363,-0.07927332232645895,-0.047919890990286006,-0.40532312101665247,1.6757226373723506,0.052289718324158435,0.030098127216360387,-2.752257341435524,0.03430521448971373,2.766339105659061,0.7691936420926769,1.6754973547542302,0.052104326824870026,0.029969505109285054,-2.752394845125968,0.0342448039870148,2.7663679543071322,0.7691630533470046,-0.0006503325099898949,-0.0004985652425176354,0.001260592113095977,0.0006926652446584753,-0.00016144063016393557,-0.00013194937772920736,-0.0017445194495433062,0.0,0.0,0.0,0.0,0.0,0.0,0.0,-0.00022528261812038153,-0.00018539149928840926,-0.00012862210707533309,-0.00013750369044407407,-6.041050269892795e-05,2.8848648071289062e-05,-3.0588745672299744e-05,0.0006503325099898949,0.0004985652425176354,-0.001260592113095977,-0.0006926652446584753,0.00016144063016393557,0.00013194937772920736,0.0017445194495433062,0.4029781222343445,22.772058486938477,0.1729399859905243,-14.032625198364258,-0.1595969796180725,-2.1453890800476074,0.37204307317733765,0
13,0.060648441314697266,-0.4029781222343445,-22.772058486938477,-0.1491362750530243,14.056428909301758,0.1595969796180725,2.1517977714538574,-0.36471885442733765,0.0,0.0,0.0,0.0,0.0,0.0,0.0,-0.44303618710422427,0.006049944492529898,-0.21360789668560007,0.1921320203973636,-0.07841592788788375,-0.046199885533059225,-0.40510471406207954,1.6757224225469458,0.052290428600813274,0.030096405670510057,-2.752261130192235,0.034306274875796114,2.766338511319808,0.769192749691024,1.6754973547542302,0.052104326824870026,0.029969505109285054,-2.752394845125968,0.0342448039870148,2.7663679543071322,0.7691630533470046,-0.0008597082498721875,-0.0008508028405001722,0.0004026450461337367,0.0002995824117916345,-0.0001725501122796481,-0.00021229413119274904,-0.0017128399600499992,0.0,0.0,0.0,0.0,0.0,0.0,0.0,-0.00022506779271558308,-0.00018610177594324817,-0.0001269005612250032,-0.00013371493373304233,-6.14708887813134e-05,2.944298732421302e-05,-2.969634401939203e-05,0.0008597082498721875,0.0008508028405001722,-0.0004026450461337367,-0.0002995824117916345,0.0001725501122796481,0.00021229413119274904,0.0017128399600499992,0.4029781222343445,22.772058486938477,0.1491362750530243,-14.056428909301758,-0.1595969796180725,-2.1517977714538574,0.36471885442733765,0
14,0.0644388198852539,-0.4029781222343445,-22.772058486938477,-0.1491362750530243,14.056428909301758,0.1595969796180725,2.1517977714538574,-0.36471885442733765,0.0,0.0,0.0,0.0,0.0,0.0,0.0,-0.44303618710422427,0.006049944492529898,-0.21360789668560007,0.1921320203973636,-0.07841592788788375,-0.046199885533059225,-0.40510471406207954,1.6757224225469458,0.052290428600813274,0.030096405670510057,-2.752261130192235,0.034306274875796114,2.766338511319808,0.769192749691024,1.6754973547542302,0.052104326824870026,0.029969505109285054,-2.752394845125968,0.0342448039870148,2.7663679543071322,0.7691630533470046,-0.0008597082498721875,-0.0008508028405001722,0.0004026450461337367,0.0002995824117916345,-0.0001725501122796481,-0.00021229413119274904,-0.0017128399600499992,0.0,0.0,0.0,0.0,0.0,0.0,0.0,-0.00022506779271558308,-0.00018610177594324817,-0.0001269005612250032,-0.00013371493373304233,-6.14708887813134e-05,2.944298732421302e-05,-2.969634401939203e-05,0.0008597082498721875,0.0008508028405001722,-0.0004026450461337367,-0.0002995824117916345,0.0001725501122796481,0.00021229413119274904,0.0017128399600499992,0.4029781222343445,22.772058486938477,0.1491362750530243,-14.056428909301758,-0.1595969796180725,-2.1517977714538574,0.36471885442733765,0
15,0.06943988800048828,-0.4783565402030945,-22.720483779907227,-0.09756157547235489,14.056428909301758,0.1531882882118225,2.1389803886413574,-0.37204307317733765,0.0,0.0,0.0,0.0,0.0,0.0,0.0,-0.43956499331885873,0.008139237428251173,-0.20969084656120746,0.18887261242608303,-0.07856732656350826,-0.045494494561057294,-0.4035909333132916,1.6757262464992067,0.05228609903845283,0.03009449450688963,-2.7522589050771753,0.03430734604582794,2.766339817736548,0.7691903454939246,1.6754973547542302,0.052104326824870026,0.029969505109285054,-2.752394845125968,0.0342448039870148,2.7663679543071322,0.7691630533470046,0.0008356655931231429,-0.0019237882403534373,-0.0008711008912284258,-1.43774371499863e-05,0.00026082942462979917,5.1550259023312076e-05,-0.0013372645169125378,0.0,0.0,0.0,0.0,0.0,0.0,0.0,-0.00022889174497642273,-0.00018177221358280093,-0.0001249893976045767,-0.0001359400487928042,-6.254205881314062e-05,2.8136570584091913e-05,-2.729214691998827e-05,-0.0008356655931231429,0.0019237882403534373,0.0008711008912284258,1.43774371499863e-05,-0.00026082942462979917,-5.1550259023312076e-05,0.0013372645169125378,0.4783565402030945,22.720483779907227,0.09756157547235489,-14.056428909301758,-0.1531882882118225,-2.1389803886413574,0.37204307317733765,0
16,0.0744469165802002,-0.4783565402030945,-22.720483779907227,-0.09756157547235489,14.056428909301758,0.1531882882118225,2.1389803886413574,-0.37204307317733765,0.0,0.0,0.0,0.0,0.0,0.0,0.0,-0.43956499331885873,0.008139237428251173,-0.20969084656120746,0.18887261242608303,-0.07856732656350826,-0.045494494561057294,-0.4035909333132916,1.6757262464992067,0.05228609903845283,0.03009449450688963,-2.7522589050771753,0.03430734604582794,2.766339817736548,0.7691903454939246,1.6754973547542302,0.052104326824870026,0.029969505109285054,-2.752394845125968,0.0342448039870148,2.7663679543071322,0.7691630533470046,0.0008356655931231429,-0.0019237882403534373,-0.0008711008912284258,-1.43774371499863e-05,0.00026082942462979917,5.1550259023312076e-05,-0.0013372645169125378,0.0,0.0,0.0,0.0,0.0,0.0,0.0,-0.00022889174497642273,-0.00018177221358280093,-0.0001249893976045767,-0.0001359400487928042,-6.254205881314062e-05,2.8136570584091913e-05,-2.729214691998827e-05,-0.0008356655931231429,0.0019237882403534373,0.0008711008912284258,1.43774371499863e-05,-0.00026082942462979917,-5.1550259023312076e-05,0.0013372645169125378,0.4783565402030945,22.720483779907227,0.09756157547235489,-14.056428909301758,-0.1531882882118225,-2.1389803886413574,0.37204307317733765,0
17,0.07956218719482422,-0.4505855441093445,-22.819665908813477,-0.1491362750530243,14.008821487426758,0.1476951241493225,2.1389803886413574,-0.39218467473983765,0.0,0.0,0.0,0.0,0.0,0.0,0.0,-0.4387195747304932,0.005643766989302156,-0.20784716247173618,0.19240378170033903,-0.07834474077599479,-0.04469241789372297,-0.4040667551206939,1.6757245390111197,0.05229329630759875,0.03009574897948978,-2.752255637301098,0.03430641820367494,2.7663398177358838,0.769195787002395,1.6754973547542302,0.052104326824870026,0.029969505109285054,-2.752394845125968,0.0342448039870148,2.7663679543071322,0.7691630533470046,0.00023087466722714113,0.0003806098069984646,0.0005303963481434013,0.0016465917629339118,0.00024058112229841932,0.00011795497441308488,-0.0011065051492011309,0.0,0.0,0.0,0.0,0.0,0.0,0.0,-0.00022718425688950106,-0.00018896948272872222,-0.00012624387020472583,-0.0001392078248700912,-6.161421666014272e-05,2.813657124844937e-05,-3.2733655390360106e-05,-0.00023087466722714113,-0.0003806098069984646,-0.0005303963481434013,-0.0016465917629339118,-0.00024058112229841932,-0.00011795497441308488,0.0011065051492011309,0.4505855441093445,22.819665908813477,0.1491362750530243,-14.008821487426758,-0.1476951241493225,-2.1389803886413574,0.39218467473983765,0
18,0.08473849296569824,-0.4505855441093445,-22.819665908813477,-0.1491362750530243,14.008821487426758,0.1476951241493225,2.1389803886413574,-0.39218467473983765,0.0,0.0,0.0,0.0,0.0,0.0,0.0,-0.4387195747304932,0.005643766989302156,-0.20784716247173618,0.19240378170033903,-0.07834474077599479,-0.04469241789372297,-0.4040667551206939,1.6757245390111197,0.05229329630759875,0.03009574897948978,-2.752255637301098,0.03430641820367494,2.7663398177358838,0.769195787002395,1.6754973547542302,0.052104326824870026,0.029969505109285054,-2.752394845125968,0.0342448039870148,2.7663679543071322,0.7691630533470046,0.00023087466722714113,0.0003806098069984646,0.0005303963481434013,0.0016465917629339118,0.00024058112229841932,0.00011795497441308488,-0.0011065051492011309,0.0,0.0,0.0,0.0,0.0,0.0,0.0,-0.00022718425688950106,-0.00018896948272872222,-0.00012624387020472583,-0.0001392078248700912,-6.161421666014272e-05,2.813657124844937e-05,-3.2733655390360106e-05,-0.00023087466722714113,-0.0003806098069984646,-0.0005303963481434013,-0.0016465917629339118,-0.00024058112229841932,-0.00011795497441308488,0.0011065051492011309,0.4505855441093445,22.819665908813477,0.1491362750530243,-14.008821487426758,-0.1476951241493225,-2.1389803886413574,0.39218467473983765,0
19,0.0902411937713623,-0.4505855441093445,-22.819665908813477,-0.1491362750530243,14.008821487426758,0.1476951241493225,2.1389803886413574,-0.39218467473983765,0.0,0.0,0.0,0.0,0.0,0.0,0.0,-0.4387195747304932,0.005643766989302156,-0.20784716247173618,0.19240378170033903,-0.07834474077599479,-0.04469241789372297,-0.4040667551206939,1.6757245390111197,0.05229329630759875,0.03009574897948978,-2.752255637301098,0.03430641820367494,2.7663398177358838,0.769195787002395,1.6754973547542302,0.052104326824870026,0.029969505109285054,-2.752394845125968,0.0342448039870148,2.7663679543071322,0.7691630533470046,0.00023087466722714113,0.0003806098069984646,0.0005303963481434013,0.0016465917629339118,0.00024058112229841932,0.00011795497441308488,-0.0011065051492011309,0.0,0.0,0.0,0.0,0.0,0.0,0.0,-0.00022718425688950106,-0.00018896948272872222,-0.00012624387020472583,-0.0001392078248700912,-6.161421666014272e-05,2.813657124844937e-05,-3.2733655390360106e-05,-0.00023087466722714113,-0.0003806098069984646,-0.0005303963481434013,-0.0016465917629339118,-0.00024058112229841932,-0.00011795497441308488,0.0011065051492011309,0.4505855441093445,22.819665908813477,0.1491362750530243,-14.008821487426758,-0.1476951241493225,-2.1389803886413574,0.39218467473983765,0
20,0.09444737434387207,-0.4505855441093445,-22.819665908813477,-0.1491362750530243,14.008821487426758,0.1476951241493225,2.1389803886413574,-0.39218467473983765,0.0,0.0,0.0,0.0,0.0,0.0,0.0,-0.4387195747304932,0.005643766989302156,-0.20784716247173618,0.19240378170033903,-0.07834474077599479,-0.04469241789372297,-0.4040667551206939,1.6757245390111197,0.05229329630759875,0.03009574897948978,-2.752255637301098,0.03430641820367494,2.7663398177358838,0.769195787002395,1.6754973547542302,0.052104326824870026,0.029969505109285054,-2.752394845125968,0.0342448039870148,2.7663679543071322,0.7691630533470046,0.00023087466722714113,0.0003806098069984646,0.0005303963481434013,0.0016465917629339118,0.00024058112229841932,0.00011795497441308488,-0.0011065051492011309,0.0,0.0,0.0,0.0,0.0,0.0,0.0,-0.00022718425688950106,-0.00018896948272872222,-0.00012624387020472583,-0.0001392078248700912,-6.161421666014272e-05,2.813657124844937e-05,-3.2733655390360106e-05,-0.00023087466722714113,-0.0003806098069984646,-0.0005303963481434013,-0.0016465917629339118,-0.00024058112229841932,-0.00011795497441308488,0.0011065051492011309,0.4505855441093445,22.819665908813477,0.1491362750530243,-14.008821487426758,-0.1476951241493225,-2.1389803886413574,0.39218467473983765,0
21,0.09944343566894531,-0.4505855441093445,-22.772058486938477,-0.1253325641155243,14.056428909301758,0.1531882882118225,2.1389803886413574,-0.37845176458358765,0.0,0.0,0.0,0.0,0.0,0.0,0.0,-0.4400243911752949,0.0042592563383188255,-0.21027603243782278,0.1904852360201554,-0.07883543759294674,-0.045778356730029626,-0.4060177707150025,1.6757243329717348,0.0522897183134682,0.03009425878187149,-2.7522601647116702,0.03430580778934175,2.7663398177358838,0.7691943934684805,1.6754973547542302,0.052104326824870026,0.029969505109285054,-2.752394845125968,0.0342448039870148,2.7663679543071322,0.7691630533470046,0.0001464148729366727,-0.0012265977784131135,-1.5744898282471248e-05,0.00015876497165505553,-9.904209265804861e-05,-9.984418849767614e-05,-0.0009641868316961063,0.0,0.0,0.0,0.0,0.0,0.0,0.0,-0.00022697821750461422,-0.00018539148859817584,-0.00012475367258643622,-0.00013468041429787192,-6.100380232695185e-05,2.813657124844937e-05,-3.1340121475875726e-05,-0.0001464148729366727,0.0012265977784131135,1.5744898282471248e-05,-0.00015876497165505553,9.904209265804861e-05,9.984418849767614e-05,0.0009641868316961063,0.4505855441093445,22.772058486938477,0.1253325641155243,-14.056428909301758,-0.1531882882118225,-2.1389803886413574,0.37845176458358765,0
22,0.10444402694702148,-0.4505855441093445,-22.772058486938477,-0.1253325641155243,14.056428909301758,0.1531882882118225,2.1389803886413574,-0.37845176458358765,0.0,0.0,0.0,0.0,0.0,0.0,0.0,-0.4400243911752949,0.0042592563383188255,-0.21027603243782278,0.1904852360201554,-0.07883543759294674,-0.045778356730029626,-0.4060177707150025,1.6757243329717348,0.0522897183134682,0.03009425878187149,-2.7522601647116702,0.03430580778934175,2.7663398177358838,0.7691943934684805,1.6754973547542302,0.052104326824870026,0.029969505109285054,-2.752394845125968,0.0342448039870148,2.7663679543071322,0.7691630533470046,0.0001464148729366727,-0.0012265977784131135,-1.5744898282471248e-05,0.00015876497165505553,-9.904209265804861e-05,-9.984418849767614e-05,-0.0009641868316961063,0.0,0.0,0.0,0.0,0.0,0.0,0.0,-0.00022697821750461422,-0.00018539148859817584,-0.00012475367258643622,-0.00013468041429787192,-6.100380232695185e-05,2.813657124844937e-05,-3.1340121475875726e-05,-0.0001464148729366727,0.0012265977784131135,1.5744898282471248e-05,-0.00015876497165505553,9.904209265804861e-05,9.984418849767614e-05,0.0009641868316961063,0.4505855441093445,22.772058486938477,0.1253325641155243,-14.056428909301758,-0.1531882882118225,-2.1389803886413574,0.37845176458358765,0
23,0.10944724082946777,-0.4783565402030945,-22.795862197875977,-0.1253325641155243,14.080232620239258,0.1531882882118225,2.1325716972351074,-0.41965049505233765,0.0,0.0,0.0,0.0,0.0,0.0,0.0,-0.43798454318513985,0.0013907659183412834,-0.20946331772941487,0.19537873051275473,-0.07919947496626316,-0.04478813087917936,-0.4050404540809183,1.6757255311263781,0.05229162561913864,0.0300941043330812,-2.7522603461965707,0.03430915510534835,2.766340529812707,0.7691957529457017,1.6754973547542302,0.052104326824870026,0.029969505109285054,-2.752394845125968,0.0342448039870148,2.7663679543071322,0.7691630533470046,0.0014040449183611418,4.9827805920146884e-05,-0.00034861736772009375,-0.000628376934708762,0.00017437665578685395,-0.0005796302092516208,0.0006815939606606668,0.0,0.0,0.0,0.0,0.0,0.0,0.0,-0.00022817637214789244,-0.00018729879426861162,-0.00012459922379614782,-0.0001344989293974308,-6.435111833354851e-05,2.742449442516559e-05,-3.2699598697116805e-05,-0.0014040449183611418,-4.9827805920146884e-05,0.00034861736772009375,0.000628376934708762,-0.00017437665578685395,0.0005796302092516208,-0.0006815939606606668,0.4783565402030945,22.795862197875977,0.1253325641155243,-14.080232620239258,-0.1531882882118225,-2.1325716972351074,0.41965049505233765,0
24,0.11523818969726562,-0.4783565402030945,-22.795862197875977,-0.1253325641155243,14.080232620239258,0.1531882882118225,2.1325716972351074,-0.41965049505233765,0.0,0.0,0.0,0.0,0.0,0.0,0.0,-0.43798454318513985,0.0013907659183412834,-0.20946331772941487,0.19537873051275473,-0.07919947496626316,-0.04478813087917936,-0.4050404540809183,1.6757255311263781,0.05229162561913864,0.0300941043330812,-2.7522603461965707,0.03430915510534835,2.766340529812707,0.7691957529457017,1.6754973547542302,0.052104326824870026,0.029969505109285054,-2.752394845125968,0.0342448039870148,2.7663679543071322,0.7691630533470046,0.0014040449183611418,4.9827805920146884e-05,-0.00034861736772009375,-0.000628376934708762,0.00017437665578685395,-0.0005796302092516208,0.0006815939606606668,0.0,0.0,0.0,0.0,0.0,0.0,0.0,-0.00022817637214789244,-0.00018729879426861162,-0.00012459922379614782,-0.0001344989293974308,-6.435111833354851e-05,2.742449442516559e-05,-3.2699598697116805e-05,-0.0014040449183611418,-4.9827805920146884e-05,0.00034861736772009375,0.000628376934708762,-0.00017437665578685395,0.0005796302092516208,-0.0006815939606606668,0.4783565402030945,22.795862197875977,0.1253325641155243,-14.080232620239258,-0.1531882882118225,-2.1325716972351074,0.41965049505233765,0
25,0.11944389343261719,-0.4783565402030945,-22.819665908813477,-0.09756157547235489,14.056428909301758,0.1412864327430725,2.1453890800476074,-0.40591758489608765,0.0,0.0,0.0,0.0,0.0,0.0,0.0,-0.44063684217060745,0.009216841767995625,-0.21406265617973633,0.18720557473861513,-0.07827590432108945,-0.04792367455796485,-0.40400831385957237,1.6757287368545306,0.05229313810614215,0.030094205018197876,-2.752260237968896,0.03430716528535282,2.766339105659061,0.7691973274713035,1.6754973547542302,0.052104326824870026,0.029969505109285054,-2.752394845125968,0.0342448039870148,2.7663679543071322,0.7691630533470046,0.0004799011117540803,0.0008661339166736382,-0.00046664934686866836,0.00028312167973798823,0.0005038099419000617,-0.00035381057063095907,1.4358520434745599e-05,0.0,0.0,0.0,0.0,0.0,0.0,0.0,-0.0002313821003003813,-0.0001888112812721207,-0.00012469990891282243,-0.0001346071570722529,-6.236129833801785e-05,2.8848648071289062e-05,-3.4274124298905306e-05,-0.0004799011117540803,-0.0008661339166736382,0.00046664934686866836,-0.00028312167973798823,-0.0005038099419000617,0.00035381057063095907,-1.4358520434745599e-05,0.4783565402030945,22.819665908813477,0.09756157547235489,-14.056428909301758,-0.1412864327430725,-2.1453890800476074,0.40591758489608765,0
26,0.12444281578063965,-0.4783565402030945,-22.819665908813477,-0.09756157547235489,14.056428909301758,0.1412864327430725,2.1453890800476074,-0.40591758489608765,0.0,0.0,0.0,0.0,0.0,0.0,0.0,-0.44063684217060745,0.009216841767995625,-0.21406265617973633,0.18720557473861513,-0.07827590432108945,-0.04792367455796485,-0.40400831385957237,1.6757287368545306,0.05229313810614215,0.030094205018197876,-2.752260237968896,0.03430716528535282,2.766339105659061,0.7691973274713035,1.6754973547542302,0.052104326824870026,0.029969505109285054,-2.752394845125968,0.0342448039870148,2.7663679543071322,0.7691630533470046,0.0004799011117540803,0.0008661339166736382,-0.00046664934686866836,0.00028312167973798823,0.0005038099419000617,-0.00035381057063095907,1.4358520434745599e-05,0.0,0.0,0.0,0.0,0.0,0.0,0.0,-0.0002313821003003813,-0.0001888112812721207,-0.00012469990891282243,-0.0001346071570722529,-6.236129833801785e-05,2.8848648071289062e-05,-3.4274124298905306e-05,-0.0004799011117540803,-0.0008661339166736382,0.00046664934686866836,-0.00028312167973798823,-0.0005038099419000617,0.00035381057063095907,-1.4358520434745599e-05,0.4783565402030945,22.819665908813477,0.09756157547235489,-14.056428909301758,-0.1412864327430725,-2.1453890800476074,0.40591758489608765,0
27,0.12944269180297852,-0.4783565402030945,-22.748254776000977,-0.07375786453485489,14.056428909301758,0.1531882882118225,2.1453890800476074,-0.37845176458358765,0.0,0.0,0.0,0.0,0.0,0.0,0.0,-0.4436492421844125,0.005674636718957251,-0.21321591851423533,0.1911214204638553,-0.07793939371986129,-0.04693244408615369,-0.40383574795879573,1.6757279156530769,0.05228804787671989,0.0300927480810764,-2.7522601378873213,0.0343058078436269,2.766339105659061,0.7691943787177196,1.6754973547542302,0.052104326824870026,0.029969505109285054,-2.752394845125968,0.0342448039870148,2.7663679543071322,0.7691630533470046,0.000310157573774266,-0.001175162766760135,-0.001254983386922495,0.0004547746921255153,4.0412305296888985e-05,-0.00019033551523255364,-0.001430794712219605,0.0,0.0,0.0,0.0,0.0,0.0,0.0,-0.00023056089884665454,-0.00018372105184986248,-0.00012324297179134788,-0.0001347072386468362,-6.100385661209767e-05,2.8848648071289062e-05,-3.132537071492969e-05,-0.000310157573774266,0.001175162766760135,0.001254983386922495,-0.0004547746921255153,-4.0412305296888985e-05,0.00019033551523255364,0.001430794712219605,0.4783565402030945,22.748254776000977,0.07375786453485489,-14.056428909301758,-0.1531882882118225,-2.1453890800476074,0.37845176458358765,0
28,0.13443970680236816,-0.4783565402030945,-22.748254776000977,-0.07375786453485489,14.056428909301758,0.1531882882118225,2.1453890800476074,-0.37845176458358765,0.0,0.0,0.0,0.0,0.0,0.0,0.0,-0.4436492421844125,0.005674636718957251,-0.21321591851423533,0.1911214204638553,-0.07793939371986129,-0.04693244408615369,-0.40383574795879573,1.6757279156530769,0.05228804787671989,0.0300927480810764,-2.7522601378873213,0.0343058078436269,2.766339105659061,0.7691943787177196,1.6754973547542302,0.052104326824870026,0.029969505109285054,-2.752394845125968,0.0342448039870148,2.7663679543071322,0.7691630533470046,0.000310157573774266,-0.001175162766760135,-0.001254983386922495,0.0004547746921255153,4.0412305296888985e-05,-0.00019033551523255364,-0.001430794712219605,0.0,0.0,0.0,0.0,0.0,0.0,0.0,-0.00023056089884665454,-0.00018372105184986248,-0.00012324297179134788,-0.0001347072386468362,-6.100385661209767e-05,2.8848648071289062e-05,-3.132537071492969e-05,-0.000310157573774266,0.001175162766760135,0.001254983386922495,-0.0004547746921255153,-4.0412305296888985e-05,0.00019033551523255364,0.001430794712219605,0.4783565402030945,22.748254776000977,0.07375786453485489,-14.056428909301758,-0.1531882882118225,-2.1453890800476074,0.37845176458358765,0
29,0.1394505500793457,-0.4783565402030945,-22.819665908813477,-0.1253325641155243,14.056428909301758,0.1531882882118225,2.1325716972351074,-0.42605918645858765,0.0,0.0,0.0,0.0,0.0,0.0,0.0,-0.44406259239564555,0.011474853003518201,-0.21048035066926563,0.19003014112095368,-0.07831275356452165,-0.046970616799559724,-0.40447491877091774,1.6757256146689843,0.05229313810480501,0.030094007443679932,-2.7522604614722805,0.034306872394574854,2.766340529812707,0.769199290723953,1.6754973547542302,0.052104326824870026,0.029969505109285054,-2.752394845125968,0.0342448039870148,2.7663679543071322,0.7691630533470046,0.0005083849226570993,0.0010340076635371649,-3.0424536639015887e-05,0.00043807697565959405,3.740866144358664e-05,0.0003062431465295084,0.00046707095667016023,0.0,0.0,0.0,0.0,0.0,0.0,0.0,-0.0002282599147540587,-0.00018881127993498198,-0.0001245023343948784,-0.00013438365368756422,-6.20684075600536e-05,2.742449442516559e-05,-3.623737694835594e-05,-0.0005083849226570993,-0.0010340076635371649,3.0424536639015887e-05,-0.00043807697565959405,-3.740866144358664e-05,-0.0003062431465295084,-0.00046707095667016023,0.4783565402030945,22.819665908813477,0.1253325641155243,-14.056428909301758,-0.1531882882118225,-2.1325716972351074,0.42605918645858765,0
30,0.144439697265625,-0.4783565402030945,-22.819665908813477,-0.1253325641155243,14.056428909301758,0.1531882882118225,2.1325716972351074,-0.42605918645858765,0.0,0.0,0.0,0.0,0.0,0.0,0.0,-0.44406259239564555,0.011474853003518201,-0.21048035066926563,0.19003014112095368,-0.07831275356452165,-0.046970616799559724,-0.40447491877091774,1.6757256146689843,0.05229313810480501,0.030094007443679932,-2.7522604614722805,0.034306872394574854,2.766340529812707,0.769199290723953,1.6754973547542302,0.052104326824870026,0.029969505109285054,-2.752394845125968,0.0342448039870148,2.7663679543071322,0.7691630533470046,0.0005083849226570993,0.0010340076635371649,-3.0424536639015887e-05,0.00043807697565959405,3.740866144358664e-05,0.0003062431465295084,0.00046707095667016023,0.0,0.0,0.0,0.0,0.0,0.0,0.0,-0.0002282599147540587,-0.00018881127993498198,-0.0001245023343948784,-0.00013438365368756422,-6.20684075600536e-05,2.742449442516559e-05,-3.623737694835594e-05,-0.0005083849226570993,-0.0010340076635371649,3.0424536639015887e-05,-0.00043807697565959405,-3.740866144358664e-05,-0.0003062431465295084,-0.00046707095667016023,0.4783565402030945,22.819665908813477,0.1253325641155243,-14.056428909301758,-0.1531882882118225,-2.1325716972351074,0.42605918645858765,0
31,0.144439697265625,-0.4783565402030945,-22.819665908813477,-0.1253325641155243,14.056428909301758,0.1531882882118225,2.1325716972351074,-0.42605918645858765,0.0,0.0,0.0,0.0,0.0,0.0,0.0,-0.44406259239564555,0.011474853003518201,-0.21048035066926563,0.19003014112095368,-0.07831275356452165,-0.046970616799559724,-0.40447491877091774,1.6757256146689843,0.05229313810480501,0.030094007443679932,-2.7522604614722805,0.034306872394574854,2.766340529812707,0.769199290723953,1.6754973547542302,0.052104326824870026,0.029969505109285054,-2.752394845125968,0.0342448039870148,2.7663679543071322,0.7691630533470046,0.0005083849226570993,0.0010340076635371649,-3.0424536639015887e-05,0.00043807697565959405,3.740866144358664e-05,0.0003062431465295084,0.00046707095667016023,0.0,0.0,0.0,0.0,0.0,0.0,0.0,-0.0002282599147540587,-0.00018881127993498198,-0.0001245023343948784,-0.00013438365368756422,-6.20684075600536e-05,2.742449442516559e-05,-3.623737694835594e-05,-0.0005083849226570993,-0.0010340076635371649,3.0424536639015887e-05,-0.00043807697565959405,-3.740866144358664e-05,-0.0003062431465295084,-0.00046707095667016023,0.4783565402030945,22.819665908813477,0.1253325641155243,-14.056428909301758,-0.1531882882118225,-2.1325716972351074,0.42605918645858765,0
32,0.15453028678894043,-0.4029781222343445,-22.795862197875977,-0.1253325641155243,14.032625198364258,0.1476951241493225,2.1517977714538574,-0.41324180364608765,0.0,0.0,0.0,0.0,0.0,0.0,0.0,-0.44111876258682103,0.015424597176358643,-0.20794491625842648,0.18698148638743411,-0.07949435020077586,-0.04742206271092144,-0.40589263767597894,1.675721049267757,0.052291388748133404,0.030094349406414412,-2.7522592090767333,0.03430641376179936,2.766338393582238,0.769195080113997,1.6754973547542302,0.052104326824870026,0.029969505109285054,-2.752394845125968,0.0342448039870148,2.7663679543071322,0.7691630533470046,-0.0006864092466427392,0.00012490980362647733,0.00014487534819978973,0.0005096506277305129,0.00021088011676759122,-0.00041805184411370635,0.00011351861548459774,0.0,0.0,0.0,0.0,0.0,0.0,0.0,-0.00022369451352677316,-0.00018706192326337773,-0.00012484429712935827,-0.00013563604923483297,-6.160977478456009e-05,2.9560724894128754e-05,-3.202676699232132e-05,0.0006864092466427392,-0.00012490980362647733,-0.00014487534819978973,-0.0005096506277305129,-0.00021088011676759122,0.00041805184411370635,-0.00011351861548459774,0.4029781222343445,22.795862197875977,0.1253325641155243,-14.032625198364258,-0.1476951241493225,-2.1517977714538574,0.41324180364608765,0
33,0.1594409942626953,-0.4029781222343445,-22.795862197875977,-0.1253325641155243,14.032625198364258,0.1476951241493225,2.1517977714538574,-0.41324180364608765,0.0,0.0,0.0,0.0,0.0,0.0,0.0,-0.44111876258682103,0.015424597176358643,-0.20794491625842648,0.18698148638743411,-0.07949435020077586,-0.04742206271092144,-0.40589263767597894,1.675721049267757,0.052291388748133404,0.030094349406414412,-2.7522592090767333,0.03430641376179936,2.766338393582238,0.769195080113997,1.6754973547542302,0.052104326824870026,0.029969505109285054,-2.752394845125968,0.0342448039870148,2.7663679543071322,0.7691630533470046,-0.0006864092466427392,0.00012490980362647733,0.00014487534819978973,0.0005096506277305129,0.00021088011676759122,-0.00041805184411370635,0.00011351861548459774,0.0,0.0,0.0,0.0,0.0,0.0,0.0,-0.00022369451352677316,-0.00018706192326337773,-0.00012484429712935827,-0.00013563604923483297,-6.160977478456009e-05,2.9560724894128754e-05,-3.202676699232132e-05,0.0006864092466427392,-0.00012490980362647733,-0.00014487534819978973,-0.0005096506277305129,-0.00021088011676759122,0.00041805184411370635,-0.00011351861548459774,0.4029781222343445,22.795862197875977,0.1253325641155243,-14.032625198364258,-0.1476951241493225,-2.1517977714538574,0.41324180364608765,0
34,0.16444063186645508,-0.4267818331718445,-22.819665908813477,-0.09756157547235489,14.056428909301758,0.1476951241493225,2.1389803886413574,-0.38577598333358765,0.0,0.0,0.0,0.0,0.0,0.0,0.0,-0.4419189310393613,0.009744368040656854,-0.20990416004971965,0.1913072787959446,-0.07914468064301877,-0.04653407112887984,-0.4050529864282934,1.6757227157349783,0.05229329594673469,0.03009302423636661,-2.7522611167116784,0.034306418140879175,2.7663398177358838,0.7691909294549919,1.6754973547542302,0.052104326824870026,0.029969505109285054,-2.752394845125968,0.0342448039870148,2.7663679543071322,0.7691630533470046,-0.00019927280776004712,0.00027209416583735645,-0.00023167138083419553,9.899110729848793e-05,0.0003600994959119664,2.5912012579262547e-06,-0.0009666300464237097,0.0,0.0,0.0,0.0,0.0,0.0,0.0,-0.00022536098074810162,-0.00018896912186466136,-0.0001235191270815561,-0.00013372841428971327,-6.161415386437413e-05,2.813657124844937e-05,-2.787610798726803e-05,0.00019927280776004712,-0.00027209416583735645,0.00023167138083419553,-9.899110729848793e-05,-0.0003600994959119664,-2.5912012579262547e-06,0.0009666300464237097,0.4267818331718445,22.819665908813477,0.09756157547235489,-14.056428909301758,-0.1476951241493225,-2.1389803886413574,0.38577598333358765,0
35,0.169464111328125,-0.4267818331718445,-22.819665908813477,-0.09756157547235489,14.056428909301758,0.1476951241493225,2.1389803886413574,-0.38577598333358765,0.0,0.0,0.0,0.0,0.0,0.0,0.0,-0.4419189310393613,0.009744368040656854,-0.20990416004971965,0.1913072787959446,-0.07914468064301877,-0.04653407112887984,-0.4050529864282934,1.6757227157349783,0.05229329594673469,0.03009302423636661,-2.7522611167116784,0.034306418140879175,2.7663398177358838,0.7691909294549919,1.6754973547542302,0.052104326824870026,0.029969505109285054,-2.752394845125968,0.0342448039870148,2.7663679543071322,0.7691630533470046,-0.00019927280776004712,0.00027209416583735645,-0.00023167138083419553,9.899110729848793e-05,0.0003600994959119664,2.5912012579262547e-06,-0.0009666300464237097,0.0,0.0,0.0,0.0,0.0,0.0,0.0,-0.00022536098074810162,-0.00018896912186466136,-0.0001235191270815561,-0.00013372841428971327,-6.161415386437413e-05,2.813657124844937e-05,-2.787610798726803e-05,0.00019927280776004712,-0.00027209416583735645,0.00023167138083419553,-9.899110729848793e-05,-0.0003600994959119664,-2.5912012579262547e-06,0.0009666300464237097,0.4267818331718445,22.819665908813477,0.09756157547235489,-14.056428909301758,-0.1476951241493225,-2.1389803886413574,0.38577598333358765,0
36,0.17444729804992676,-0.4505855441093445,-22.847436904907227,-0.1491362750530243,14.032625198364258,0.1650901436805725,2.1389803886413574,-0.38577598333358765,0.0,0.0,0.0,0.0,0.0,0.0,0.0,-0.44521309614652066,0.0037573484672401175,-0.21119497737472276,0.19505048280718454,-0.0783245558015971,-0.04573154056061595,-0.4053906559157222,1.675726049250325,0.05229500802700784,0.030096484628615416,-2.7522592295528203,0.03430803112417202,2.7663398177358838,0.7691950488101856,1.6754973547542302,0.052104326824870026,0.029969505109285054,-2.752394845125968,0.0342448039870148,2.7663679543071322,0.7691630533470046,0.00030433929373350983,0.0008266802658420134,0.0003744765361936257,0.0010529569249909155,-0.00044931527295496705,4.692799652743475e-06,-0.0015333238589921245,0.0,0.0,0.0,0.0,0.0,0.0,0.0,-0.00022869449609475012,-0.00019068120213781153,-0.00012697951933036272,-0.00013561557314778483,-6.322713715722211e-05,2.813657124844937e-05,-3.199546318100044e-05,-0.00030433929373350983,-0.0008266802658420134,-0.0003744765361936257,-0.0010529569249909155,0.00044931527295496705,-4.692799652743475e-06,0.0015333238589921245,0.4505855441093445,22.847436904907227,0.1491362750530243,-14.032625198364258,-0.1650901436805725,-2.1389803886413574,0.38577598333358765,0
37,0.17945599555969238,-0.4505855441093445,-22.847436904907227,-0.1491362750530243,14.032625198364258,0.1650901436805725,2.1389803886413574,-0.38577598333358765,0.0,0.0,0.0,0.0,0.0,0.0,0.0,-0.44521309614652066,0.0037573484672401175,-0.21119497737472276,0.19505048280718454,-0.0783245558015971,-0.04573154056061595,-0.4053906559157222,1.675726049250325,0.05229500802700784,0.030096484628615416,-2.7522592295528203,0.03430803112417202,2.7663398177358838,0.7691950488101856,1.6754973547542302,0.052104326824870026,0.029969505109285054,-2.752394845125968,0.0342448039870148,2.7663679543071322,0.7691630533470046,0.00030433929373350983,0.0008266802658420134,0.0003744765361936257,0.0010529569249909155,-0.00044931527295496705,4.692799652743475e-06,-0.0015333238589921245,0.0,0.0,0.0,0.0,0.0,0.0,0.0,-0.00022869449609475012,-0.00019068120213781153,-0.00012697951933036272,-0.00013561557314778483,-6.322713715722211e-05,2.813657124844937e-05,-3.199546318100044e-05,-0.00030433929373350983,-0.0008266802658420134,-0.0003744765361936257,-0.0010529569249909155,0.00044931527295496705,-4.692799652743475e-06,0.0015333238589921245,0.4505855441093445,22.847436904907227,0.1491362750530243,-14.032625198364258,-0.1650901436805725,-2.1389803886413574,0.38577598333358765,0
38,0.1844043731689453,-0.4783565402030945,-22.748254776000977,-0.1491362750530243,14.056428909301758,0.1531882882118225,2.1453890800476074,-0.41324180364608765,0.0,0.0,0.0,0.0,0.0,0.0,0.0,-0.4420564238447386,0.015326814134519393,-0.20995020112931143,0.18243917668211915,-0.07883214792177122,-0.048223837931934334,-0.4068456750540026,1.6757255321535518,0.0522882846391689,0.030098824397960112,-2.7522611536050525,0.03430899724381526,2.766339105659061,0.769198258489877,1.6754973547542302,0.052104326824870026,0.029969505109285054,-2.752394845125968,0.0342448039870148,2.7663679543071322,0.7691630533470046,0.0008079862813127199,-0.0008301978983220958,0.00016631199226610016,-0.0005449027262047913,-6.52430363527613e-05,-0.00039017366966403967,-0.00027073439940409217,0.0,0.0,0.0,0.0,0.0,0.0,0.0,-0.00022817739932157188,-0.0001839578142988768,-0.00012931928867505882,-0.0001336915209155798,-6.419325680045995e-05,2.8848648071289062e-05,-3.5205142872363204e-05,-0.0008079862813127199,0.0008301978983220958,-0.00016631199226610016,0.0005449027262047913,6.52430363527613e-05,0.00039017366966403967,0.00027073439940409217,0.4783565402030945,22.748254776000977,0.1491362750530243,-14.056428909301758,-0.1531882882118225,-2.1453890800476074,0.41324180364608765,0
39,0.18981099128723145,-0.4783565402030945,-22.748254776000977,-0.1491362750530243,14.056428909301758,0.1531882882118225,2.1453890800476074,-0.41324180364608765,0.0,0.0,0.0,0.0,0.0,0.0,0.0,-0.4420564238447386,0.015326814134519393,-0.20995020112931143,0.18243917668211915,-0.07883214792177122,-0.048223837931934334,-0.4068456750540026,1.6757255321535518,0.0522882846391689,0.030098824397960112,-2.7522611536050525,0.03430899724381526,2.766339105659061,0.769198258489877,1.6754973547542302,0.052104326824870026,0.029969505109285054,-2.752394845125968,0.0342448039870148,2.7663679543071322,0.7691630533470046,0.0008079862813127199,-0.0008301978983220958,0.00016631199226610016,-0.0005449027262047913,-6.52430363527613e-05,-0.00039017366966403967,-0.00027073439940409217,0.0,0.0,0.0,0.0,0.0,0.0,0.0,-0.00022817739932157188,-0.0001839578142988768,-0.00012931928867505882,-0.0001336915209155798,-6.419325680045995e-05,2.8848648071289062e-05,-3.5205142872363204e-05,-0.0008079862813127199,0.0008301978983220958,-0.00016631199226610016,0.0005449027262047913,6.52430363527613e-05,0.00039017366966403967,0.00027073439940409217,0.4783565402030945,22.748254776000977,0.1491362750530243,-14.056428909301758,-0.1531882882118225,-2.1453890800476074,0.41324180364608765,0
40,0.1944408416748047,-0.4505855441093445,-22.819665908813477,-0.1253325641155243,14.056428909301758,0.1531882882118225,2.1389803886413574,-0.43338340520858765,0.0,0.0,0.0,0.0,0.0,0.0,0.0,-0.43949663314887377,0.002554544552364554,-0.20903397589578193,0.19241564256344362,-0.07891750929649623,-0.046576160724798144,-0.4086684974947014,1.6757244136383784,0.052293059185176696,0.03009399619847276,-2.7522586481811437,0.03430581673179118,2.7663398177358838,0.7692004969848496,1.6754973547542302,0.052104326824870026,0.029969505109285054,-2.752394845125968,0.0342448039870148,2.7663679543071322,0.7691630533470046,0.0002818614423794107,0.0004070138428853885,0.00018462701093016908,0.00031450680761537295,0.00012316831168457295,-0.00011551868910033307,0.0005656194812827858,0.0,0.0,0.0,0.0,0.0,0.0,0.0,-0.0002270588841482013,-0.0001887323603066704,-0.0001244910891877067,-0.00013619694482436273,-6.1012744776378636e-05,2.813657124844937e-05,-3.74436378449694e-05,-0.0002818614423794107,-0.0004070138428853885,-0.00018462701093016908,-0.00031450680761537295,-0.00012316831168457295,0.00011551868910033307,-0.0005656194812827858,0.4505855441093445,22.819665908813477,0.1253325641155243,-14.056428909301758,-0.1531882882118225,-2.1389803886413574,0.43338340520858765,0
41,0.20025420188903809,-0.4505855441093445,-22.819665908813477,-0.1253325641155243,14.056428909301758,0.1531882882118225,2.1389803886413574,-0.43338340520858765,0.0,0.0,0.0,0.0,0.0,0.0,0.0,-0.43949663314887377,0.002554544552364554,-0.20903397589578193,0.19241564256344362,-0.07891750929649623,-0.046576160724798144,-0.4086684974947014,1.6757244136383784,0.052293059185176696,0.03009399619847276,-2.7522586481811437,0.03430581673179118,2.7663398177358838,0.7692004969848496,1.6754973547542302,0.052104326824870026,0.029969505109285054,-2.752394845125968,0.0342448039870148,2.7663679543071322,0.7691630533470046,0.0002818614423794107,0.0004070138428853885,0.00018462701093016908,0.00031450680761537295,0.00012316831168457295,-0.00011551868910033307,0.0005656194812827858,0.0,0.0,0.0,0.0,0.0,0.0,0.0,-0.0002270588841482013,-0.0001887323603066704,-0.0001244910891877067,-0.00013619694482436273,-6.1012744776378636e-05,2.813657124844937e-05,-3.74436378449694e-05,-0.0002818614423794107,-0.0004070138428853885,-0.00018462701093016908,-0.00031450680761537295,-0.00012316831168457295,0.00011551868910033307,-0.0005656194812827858,0.4505855441093445,22.819665908813477,0.1253325641155243,-14.056428909301758,-0.1531882882118225,-2.1389803886413574,0.43338340520858765,0
42,0.2044391632080078,-0.4267818331718445,-22.772058486938477,-0.1253325641155243,14.056428909301758,0.1531882882118225,2.1389803886413574,-0.43338340520858765,0.0,0.0,0.0,0.0,0.0,0.0,0.0,-0.4444660687533146,0.017960535011555045,-0.2147775737225931,0.17682297495971666,-0.0776073590180464,-0.050405159419863524,-0.41042307646180354,1.6757250480654968,0.052289797557872116,0.03009471769220221,-2.7522582364246677,0.03430901036712367,2.7663398177358838,0.7692004926242019,1.6754973547542302,0.052104326824870026,0.029969505109285054,-2.752394845125968,0.0342448039870148,2.7663679543071322,0.7691630533470046,-0.0008935538563946168,-0.00017999324147070054,0.0001078172991987566,0.00010196850661134815,0.00012445703806658926,0.0006918630312979703,0.0009884356578667743,0.0,0.0,0.0,0.0,0.0,0.0,0.0,-0.00022769331126659687,-0.00018547073300208966,-0.00012521258291715506,-0.00013660870130038916,-6.420638010887214e-05,2.813657124844937e-05,-3.743927719723761e-05,0.0008935538563946168,0.00017999324147070054,-0.0001078172991987566,-0.00010196850661134815,-0.00012445703806658926,-0.0006918630312979703,-0.0009884356578667743,0.4267818331718445,22.772058486938477,0.1253325641155243,-14.056428909301758,-0.1531882882118225,-2.1389803886413574,0.43338340520858765,0
43,0.20943784713745117,-0.4267818331718445,-22.772058486938477,-0.1253325641155243,14.056428909301758,0.1531882882118225,2.1389803886413574,-0.43338340520858765,0.0,0.0,0.0,0.0,0.0,0.0,0.0,-0.4444660687533146,0.017960535011555045,-0.2147775737225931,0.17682297495971666,-0.0776073590180464,-0.050405159419863524,-0.41042307646180354,1.6757250480654968,0.052289797557872116,0.03009471769220221,-2.7522582364246677,0.03430901036712367,2.7663398177358838,0.7692004926242019,1.6754973547542302,0.052104326824870026,0.029969505109285054,-2.752394845125968,0.0342448039870148,2.7663679543071322,0.7691630533470046,-0.0008935538563946168,-0.00017999324147070054,0.0001078172991987566,0.00010196850661134815,0.00012445703806658926,0.0006918630312979703,0.0009884356578667743,0.0,0.0,0.0,0.0,0.0,0.0,0.0,-0.00022769331126659687,-0.00018547073300208966,-0.00012521258291715506,-0.00013660870130038916,-6.420638010887214e-05,2.813657124844937e-05,-3.743927719723761e-05,0.0008935538563946168,0.00017999324147070054,-0.0001078172991987566,-0.00010196850661134815,-0.00012445703806658926,-0.0006918630312979703,-0.0009884356578667743,0.4267818331718445,22.772058486938477,0.1253325641155243,-14.056428909301758,-0.1531882882118225,-2.1389803886413574,0.43338340520858765,0
44,0.21443748474121094,-0.4783565402030945,-22.819665908813477,-0.1491362750530243,14.056428909301758,0.1650901436805725,2.1325716972351074,-0.40591758489608765,0.0,0.0,0.0,0.0,0.0,0.0,0.0,-0.4431989737766094,0.006315339553059854,-0.21431604664277593,0.18697277807463433,-0.07745729739667305,-0.04665734254443022,-0.40955600444538626,1.6757262582056776,0.052293059184287505,0.030096731241656488,-2.752258260653564,0.034304603668499405,2.766340529812707,0.7691974452270154,1.6754973547542302,0.052104326824870026,0.029969505109285054,-2.752394845125968,0.0342448039870148,2.7663679543071322,0.7691630533470046,0.0008792118008796433,0.00044726121930638405,9.635705680137384e-06,-0.0002352509875836064,-0.00048485058364809106,0.00020795600156927425,0.00030537265339201995,0.0,0.0,0.0,0.0,0.0,0.0,0.0,-0.0002289034514473265,-0.0001887323594174789,-0.00012722613237143438,-0.0001365844724041665,-5.979968148460413e-05,2.742449442516559e-05,-3.439188001075344e-05,-0.0008792118008796433,-0.00044726121930638405,-9.635705680137384e-06,0.0002352509875836064,0.00048485058364809106,-0.00020795600156927425,-0.00030537265339201995,0.4783565402030945,22.819665908813477,0.1491362750530243,-14.056428909301758,-0.1650901436805725,-2.1325716972351074,0.40591758489608765,0
45,0.21944212913513184,-0.4783565402030945,-22.819665908813477,-0.1491362750530243,14.056428909301758,0.1650901436805725,2.1325716972351074,-0.40591758489608765,0.0,0.0,0.0,0.0,0.0,0.0,0.0,-0.4431989737766094,0.006315339553059854,-0.21431604664277593,0.18697277807463433,-0.07745729739667305,-0.04665734254443022,-0.40955600444538626,1.6757262582056776,0.052293059184287505,0.030096731241656488,-2.752258260653564,0.034304603668499405,2.766340529812707,0.7691974452270154,1.6754973547542302,0.052104326824870026,0.029969505109285054,-2.752394845125968,0.0342448039870148,2.7663679543071322,0.7691630533470046,0.0008792118008796433,0.00044726121930638405,9.635705680137384e-06,-0.0002352509875836064,-0.00048485058364809106,0.00020795600156927425,0.00030537265339201995,0.0,0.0,0.0,0.0,0.0,0.0,0.0,-0.0002289034514473265,-0.0001887323594174789,-0.00012722613237143438,-0.0001365844724041665,-5.979968148460413e-05,2.742449442516559e-05,-3.439188001075344e-05,-0.0008792118008796433,-0.00044726121930638405,-9.635705680137384e-06,0.0002352509875836064,0.00048485058364809106,-0.00020795600156927425,-0.00030537265339201995,0.4783565402030945,22.819665908813477,0.1491362750530243,-14.056428909301758,-0.1650901436805725,-2.1325716972351074,0.40591758489608765,0
46,0.2244551181793213,-0.4267818331718445,-22.772058486938477,-0.1491362750530243,14.032625198364258,0.1595969796180725,2.1389803886413574,-0.42605918645858765,0.0,0.0,0.0,0.0,0.0,0.0,0.0,-0.4399655830973162,0.009147711137458776,-0.2161589680557777,0.18710023594244088,-0.0780083137709894,-0.04686298159517639,-0.4063232669467556,1.67572479968951,0.052289718312129634,0.030096625221739372,-2.752257097151569,0.034305091818882964,2.7663398177358838,0.769199670100817,1.6754973547542302,0.052104326824870026,0.029969505109285054,-2.752394845125968,0.0342448039870148,2.7663679543071322,0.7691630533470046,-0.0005280347907495982,-0.00037492934067561486,0.0005973152378390511,0.0006236642366791114,-0.0002743914283832121,-0.00013698867375204122,0.0010947258782100283,0.0,0.0,0.0,0.0,0.0,0.0,0.0,-0.0002274449352797081,-0.0001853914872596077,-0.0001271201124543181,-0.00013774797439891628,-6.028783186816378e-05,2.813657124844937e-05,-3.661675381239071e-05,0.0005280347907495982,0.00037492934067561486,-0.0005973152378390511,-0.0006236642366791114,0.0002743914283832121,0.00013698867375204122,-0.0010947258782100283,0.4267818331718445,22.772058486938477,0.1491362750530243,-14.032625198364258,-0.1595969796180725,-2.1389803886413574,0.42605918645858765,0
47,0.2294631004333496,-0.4267818331718445,-22.772058486938477,-0.1491362750530243,14.032625198364258,0.1595969796180725,2.1389803886413574,-0.42605918645858765,0.0,0.0,0.0,0.0,0.0,0.0,0.0,-0.4399655830973162,0.009147711137458776,-0.2161589680557777,0.18710023594244088,-0.0780083137709894,-0.04686298159517639,-0.4063232669467556,1.67572479968951,0.052289718312129634,0.030096625221739372,-2.752257097151569,0.034305091818882964,2.7663398177358838,0.769199670100817,1.6754973547542302,0.052104326824870026,0.029969505109285054,-2.752394845125968,0.0342448039870148,2.7663679543071322,0.7691630533470046,-0.0005280347907495982,-0.00037492934067561486,0.0005973152378390511,0.0006236642366791114,-0.0002743914283832121,-0.00013698867375204122,0.0010947258782100283,0.0,0.0,0.0,0.0,0.0,0.0,0.0,-0.0002274449352797081,-0.0001853914872596077,-0.0001271201124543181,-0.00013774797439891628,-6.028783186816378e-05,2.813657124844937e-05,-3.661675381239071e-05,0.0005280347907495982,0.00037492934067561486,-0.0005973152378390511,-0.0006236642366791114,0.0002743914283832121,0.00013698867375204122,-0.0010947258782100283,0.4267818331718445,22.772058486938477,0.1491362750530243,-14.032625198364258,-0.1595969796180725,-2.1389803886413574,0.42605918645858765,0
48,0.23444318771362305,-0.4267818331718445,-22.819665908813477,-0.1253325641155243,14.032625198364258,0.1650901436805725,2.1325716972351074,-0.42605918645858765,0.0,0.0,0.0,0.0,0.0,0.0,0.0,-0.4446522128138751,0.0096811160913053,-0.21808656689986344,0.18801629745551268,-0.0779923709988412,-0.047242202876611974,-0.4033697227365326,1.6757229464614827,0.05229337486769953,0.030096946321731745,-2.7522587364360973,0.03430464313430792,2.766340529812707,0.7691996657400925,1.6754973547542302,0.052104326824870026,0.029969505109285054,-2.752394845125968,0.0342448039870148,2.7663679543071322,0.7691630533470046,-0.000616178431423436,0.0010504482639182298,9.809347409616358e-05,0.0007696358673766205,-0.00027342319741876137,0.00014211459083287624,0.0011519512710614346,0.0,0.0,0.0,0.0,0.0,0.0,0.0,-0.00022559170725244826,-0.00018904804282950105,-0.00012744121244669115,-0.00013610868987079527,-5.9839147293121175e-05,2.742449442516559e-05,-3.6612393087831485e-05,0.000616178431423436,-0.0010504482639182298,-9.809347409616358e-05,-0.0007696358673766205,0.00027342319741876137,-0.00014211459083287624,-0.0011519512710614346,0.4267818331718445,22.819665908813477,0.1253325641155243,-14.032625198364258,-0.1650901436805725,-2.1325716972351074,0.42605918645858765,0
49,0.23952698707580566,-0.4267818331718445,-22.819665908813477,-0.1253325641155243,14.032625198364258,0.1650901436805725,2.1325716972351074,-0.42605918645858765,0.0,0.0,0.0,0.0,0.0,0.0,0.0,-0.4446522128138751,0.0096811160913053,-0.21808656689986344,0.18801629745551268,-0.0779923709988412,-0.047242202876611974,-0.4033697227365326,1.6757229464614827,0.05229337486769953,0.030096946321731745,-2.7522587364360973,0.03430464313430792,2.766340529812707,0.7691996657400925,1.6754973547542302,0.052104326824870026,0.029969505109285054,-2.752394845125968,0.0342448039870148,2.7663679543071322,0.7691630533470046,-0.000616178431423436,0.0010504482639182298,9.809347409616358e-05,0.0007696358673766205,-0.00027342319741876137,0.00014211459083287624,0.0011519512710614346,0.0,0.0,0.0,0.0,0.0,0.0,0.0,-0.00022559170725244826,-0.00018904804282950105,-0.00012744121244669115,-0.00013610868987079527,-5.9839147293121175e-05,2.742449442516559e-05,-3.6612393087831485e-05,0.000616178431423436,-0.0010504482639182298,-9.809347409616358e-05,-0.0007696358673766205,0.00027342319741876137,-0.00014211459083287624,-0.0011519512710614346,0.4267818331718445,22.819665908813477,0.1253325641155243,-14.032625198364258,-0.1650901436805725,-2.1325716972351074,0.42605918645858765,0
50,0.24444103240966797,-0.4029781222343445,-22.795862197875977,-0.09756157547235489,14.080232620239258,0.1531882882118225,2.1325716972351074,-0.42605918645858765,0.0,0.0,0.0,0.0,0.0,0.0,0.0,-0.44626166378294657,0.008772569662663402,-0.21819527773319053,0.18987724178240387,-0.0779817915089417,-0.047379696422784494,-0.40203153464982394,1.6757224177425452,0.052291388749766944,0.030092138835025654,-2.7522620495058003,0.03430597427170099,2.766340529812707,0.769198610408754,1.6754973547542302,0.052104326824870026,0.029969505109285054,-2.752394845125968,0.0342448039870148,2.7663679543071322,0.7691630533470046,-0.001231498903071965,0.0003652378456583147,-0.0010370288201016027,-0.00041655902215239943,3.35381855727454e-05,0.00038167055231344544,0.0007741396671017954,0.0,0.0,0.0,0.0,0.0,0.0,0.0,-0.000225062988314928,-0.00018706192489691825,-0.00012263372574060002,-0.00013279562016776936,-6.117028468619057e-05,2.742449442516559e-05,-3.555706174940276e-05,0.001231498903071965,-0.0003652378456583147,0.0010370288201016027,0.00041655902215239943,-3.35381855727454e-05,-0.00038167055231344544,-0.0007741396671017954,0.4029781222343445,22.795862197875977,0.09756157547235489,-14.080232620239258,-0.1531882882118225,-2.1325716972351074,0.42605918645858765,0
51,0.24948906898498535,-0.4029781222343445,-22.795862197875977,-0.09756157547235489,14.080232620239258,0.1531882882118225,2.1325716972351074,-0.42605918645858765,0.0,0.0,0.0,0.0,0.0,0.0,0.0,-0.44626166378294657,0.008772569662663402,-0.21819527773319053,0.18987724178240387,-0.0779817915089417,-0.047379696422784494,-0.40203153464982394,1.6757224177425452,0.052291388749766944,0.030092138835025654,-2.7522620495058003,0.03430597427170099,2.766340529812707,0.769198610408754,1.6754973547542302,0.052104326824870026,0.029969505109285054,-2.752394845125968,0.0342448039870148,2.7663679543071322,0.7691630533470046,-0.001231498903071965,0.0003652378456583147,-0.0010370288201016027,-0.00041655902215239943,3.35381855727454e-05,0.00038167055231344544,0.0007741396671017954,0.0,0.0,0.0,0.0,0.0,0.0,0.0,-0.000225062988314928,-0.00018706192489691825,-0.00012263372574060002,-0.00013279562016776936,-6.117028468619057e-05,2.742449442516559e-05,-3.555706174940276e-05,0.001231498903071965,-0.0003652378456583147,0.0010370288201016027,0.00041655902215239943,-3.35381855727454e-05,-0.00038167055231344544,-0.0007741396671017954,0.4029781222343445,22.795862197875977,0.09756157547235489,-14.080232620239258,-0.1531882882118225,-2.1325716972351074,0.42605918645858765,0
52,0.254486083984375,-0.4029781222343445,-22.795862197875977,-0.09756157547235489,14.080232620239258,0.1531882882118225,2.1325716972351074,-0.42605918645858765,0.0,0.0,0.0,0.0,0.0,0.0,0.0,-0.44626166378294657,0.008772569662663402,-0.21819527773319053,0.18987724178240387,-0.0779817915089417,-0.047379696422784494,-0.40203153464982394,1.6757224177425452,0.052291388749766944,0.030092138835025654,-2.7522620495058003,0.03430597427170099,2.766340529812707,0.769198610408754,1.6754973547542302,0.052104326824870026,0.029969505109285054,-2.752394845125968,0.0342448039870148,2.7663679543071322,0.7691630533470046,-0.001231498903071965,0.0003652378456583147,-0.0010370288201016027,-0.00041655902215239943,3.35381855727454e-05,0.00038167055231344544,0.0007741396671017954,0.0,0.0,0.0,0.0,0.0,0.0,0.0,-0.000225062988314928,-0.00018706192489691825,-0.00012263372574060002,-0.00013279562016776936,-6.117028468619057e-05,2.742449442516559e-05,-3.555706174940276e-05,0.001231498903071965,-0.0003652378456583147,0.0010370288201016027,0.00041655902215239943,-3.35381855727454e-05,-0.00038167055231344544,-0.0007741396671017954,0.4029781222343445,22.795862197875977,0.09756157547235489,-14.080232620239258,-0.1531882882118225,-2.1325716972351074,0.42605918645858765,0
53,0.25948643684387207,-0.4029781222343445,-22.795862197875977,-0.09756157547235489,14.080232620239258,0.1531882882118225,2.1325716972351074,-0.42605918645858765,0.0,0.0,0.0,0.0,0.0,0.0,0.0,-0.44626166378294657,0.008772569662663402,-0.21819527773319053,0.18987724178240387,-0.0779817915089417,-0.047379696422784494,-0.40203153464982394,1.6757224177425452,0.052291388749766944,0.030092138835025654,-2.7522620495058003,0.03430597427170099,2.766340529812707,0.769198610408754,1.6754973547542302,0.052104326824870026,0.029969505109285054,-2.752394845125968,0.0342448039870148,2.7663679543071322,0.7691630533470046,-0.001231498903071965,0.0003652378456583147,-0.0010370288201016027,-0.00041655902215239943,3.35381855727454e-05,0.00038167055231344544,0.0007741396671017954,0.0,0.0,0.0,0.0,0.0,0.0,0.0,-0.000225062988314928,-0.00018706192489691825,-0.00012263372574060002,-0.00013279562016776936,-6.117028468619057e-05,2.742449442516559e-05,-3.555706174940276e-05,0.001231498903071965,-0.0003652378456583147,0.0010370288201016027,0.00041655902215239943,-3.35381855727454e-05,-0.00038167055231344544,-0.0007741396671017954,0.4029781222343445,22.795862197875977,0.09756157547235489,-14.080232620239258,-0.1531882882118225,-2.1325716972351074,0.42605918645858765,0
54,0.26445865631103516,-0.4029781222343445,-22.720483779907227,-0.1253325641155243,14.032625198364258,0.1595969796180725,2.1389803886413574,-0.40591758489608765,0.0,0.0,0.0,0.0,0.0,0.0,0.0,-0.44239059643177886,0.013926144141040243,-0.2135337768820796,0.18507558366587187,-0.07915112683300893,-0.04872965793852704,-0.4044720099753728,1.6757224758183225,0.052286099034443236,0.030096209757251434,-2.7522572609409557,0.03430509149462963,2.7663398177358838,0.7691963840754694,1.6754973547542302,0.052104326824870026,0.029969505109285054,-2.752394845125968,0.0342448039870148,2.7663679543071322,0.7691630533470046,-0.0006473447084955421,-0.001561577118870016,-4.244693979368424e-05,0.0004488450615553321,-9.575876305006774e-05,-0.0002442015161249176,-0.00011636815183449624,0.0,0.0,0.0,0.0,0.0,0.0,0.0,-0.00022512106409222632,-0.00018177220957320966,-0.00012670464796638026,-0.0001375841850124182,-6.028750761483126e-05,2.813657124844937e-05,-3.3330728464786574e-05,0.0006473447084955421,0.001561577118870016,4.244693979368424e-05,-0.0004488450615553321,9.575876305006774e-05,0.0002442015161249176,0.00011636815183449624,0.4029781222343445,22.720483779907227,0.1253325641155243,-14.032625198364258,-0.1595969796180725,-2.1389803886413574,0.40591758489608765,0
55,0.26946425437927246,-0.4029781222343445,-22.720483779907227,-0.1253325641155243,14.032625198364258,0.1595969796180725,2.1389803886413574,-0.40591758489608765,0.0,0.0,0.0,0.0,0.0,0.0,0.0,-0.44239059643177886,0.013926144141040243,-0.2135337768820796,0.18507558366587187,-0.07915112683300893,-0.04872965793852704,-0.4044720099753728,1.6757224758183225,0.052286099034443236,0.030096209757251434,-2.7522572609409557,0.03430509149462963,2.7663398177358838,0.7691963840754694,1.6754973547542302,0.052104326824870026,0.029969505109285054,-2.752394845125968,0.0342448039870148,2.7663679543071322,0.7691630533470046,-0.0006473447084955421,-0.001561577118870016,-4.244693979368424e-05,0.0004488450615553321,-9.575876305006774e-05,-0.0002442015161249176,-0.00011636815183449624,0.0,0.0,0.0,0.0,0.0,0.0,0.0,-0.00022512106409222632,-0.00018177220957320966,-0.00012670464796638026,-0.0001375841850124182,-6.028750761483126e-05,2.813657124844937e-05,-3.3330728464786574e-05,0.0006473447084955421,0.001561577118870016,4.244693979368424e-05,-0.0004488450615553321,9.575876305006774e-05,0.0002442015161249176,0.00011636815183449624,0.4029781222343445,22.720483779907227,0.1253325641155243,-14.032625198364258,-0.1595969796180725,-2.1389803886413574,0.40591758489608765,0
56,0.27445268630981445,-0.4267818331718445,-22.819665908813477,-0.1253325641155243,14.080232620239258,0.1531882882118225,2.1453890800476074,-0.39950889348983765,0.0,0.0,0.0,0.0,0.0,0.0,0.0,-0.4415728736677201,0.011948702954447943,-0.21382460050947807,0.18919330664843506,-0.07877591691856593,-0.04906686319903616,-0.40617473815859434,1.6757219914389436,0.05229305918384016,0.03009644653212517,-2.752260352633681,0.034306869473773136,2.766339105659061,0.7691963662035426,1.6754973547542302,0.052104326824870026,0.029969505109285054,-2.752394845125968,0.0342448039870148,2.7663679543071322,0.7691630533470046,-0.00018283790934914252,0.0009412792506768676,8.506452249304503e-05,-2.4462456947109932e-05,0.00010987152820346311,-0.0003307056769815626,8.46278916018033e-05,0.0,0.0,0.0,0.0,0.0,0.0,0.0,-0.00022463668471339737,-0.00018873235897013535,-0.00012694142284011556,-0.00013449249228703053,-6.206548675833506e-05,2.8848648071289062e-05,-3.3312856537959235e-05,0.00018283790934914252,-0.0009412792506768676,-8.506452249304503e-05,2.4462456947109932e-05,-0.00010987152820346311,0.0003307056769815626,-8.46278916018033e-05,0.4267818331718445,22.819665908813477,0.1253325641155243,-14.080232620239258,-0.1531882882118225,-2.1453890800476074,0.39950889348983765,0
57,0.2794673442840576,-0.4267818331718445,-22.819665908813477,-0.1253325641155243,14.080232620239258,0.1531882882118225,2.1453890800476074,-0.39950889348983765,0.0,0.0,0.0,0.0,0.0,0.0,0.0,-0.4415728736677201,0.011948702954447943,-0.21382460050947807,0.18919330664843506,-0.07877591691856593,-0.04906686319903616,-0.40617473815859434,1.6757219914389436,0.05229305918384016,0.03009644653212517,-2.752260352633681,0.034306869473773136,2.766339105659061,0.7691963662035426,1.6754973547542302,0.052104326824870026,0.029969505109285054,-2.752394845125968,0.0342448039870148,2.7663679543071322,0.7691630533470046,-0.00018283790934914252,0.0009412792506768676,8.506452249304503e-05,-2.4462456947109932e-05,0.00010987152820346311,-0.0003307056769815626,8.46278916018033e-05,0.0,0.0,0.0,0.0,0.0,0.0,0.0,-0.00022463668471339737,-0.00018873235897013535,-0.00012694142284011556,-0.00013449249228703053,-6.206548675833506e-05,2.8848648071289062e-05,-3.3312856537959235e-05,0.00018283790934914252,-0.0009412792506768676,-8.506452249304503e-05,2.4462456947109932e-05,-0.00010987152820346311,0.0003307056769815626,-8.46278916018033e-05,0.4267818331718445,22.819665908813477,0.1253325641155243,-14.080232620239258,-0.1531882882118225,-2.1453890800476074,0.39950889348983765,0
58,0.28444933891296387,-0.4267818331718445,-22.772058486938477,-0.1253325641155243,14.032625198364258,0.1531882882118225,2.1261630058288574,-0.39218467473983765,0.0,0.0,0.0,0.0,0.0,0.0,0.0,-0.44161680165313566,0.01422578849090499,-0.21244503451194488,0.1875212323154479,-0.07843580727799407,-0.04963835969133143,-0.406049318208151,1.6757219924560782,0.05229187840816733,0.03009474151383754,-2.752257315985695,0.03430629409245566,2.76634124188953,0.7691959149688475,1.6754973547542302,0.052104326824870026,0.029969505109285054,-2.752394845125968,0.0342448039870148,2.7663679543071322,0.7691630533470046,-0.0006680656764249475,-0.0006382745641686148,0.00030672814848924356,0.0006232439540437224,0.00026172786269840426,0.0005810089470361887,-0.00028529713451161767,0.0,0.0,0.0,0.0,0.0,0.0,0.0,-0.00022463770184799614,-0.00018755158329730737,-0.00012523640455248605,-0.00013752914027298502,-6.149010544086175e-05,2.67124176023259e-05,-3.286162184290564e-05,0.0006680656764249475,0.0006382745641686148,-0.00030672814848924356,-0.0006232439540437224,-0.00026172786269840426,-0.0005810089470361887,0.00028529713451161767,0.4267818331718445,22.772058486938477,0.1253325641155243,-14.032625198364258,-0.1531882882118225,-2.1261630058288574,0.39218467473983765,0
59,0.28944921493530273,-0.4267818331718445,-22.772058486938477,-0.1253325641155243,14.032625198364258,0.1531882882118225,2.1261630058288574,-0.39218467473983765,0.0,0.0,0.0,0.0,0.0,0.0,0.0,-0.44161680165313566,0.01422578849090499,-0.21244503451194488,0.1875212323154479,-0.07843580727799407,-0.04963835969133143,-0.406049318208151,1.6757219924560782,0.05229187840816733,0.03009474151383754,-2.752257315985695,0.03430629409245566,2.76634124188953,0.7691959149688475,1.6754973547542302,0.052104326824870026,0.029969505109285054,-2.752394845125968,0.0342448039870148,2.7663679543071322,0.7691630533470046,-0.0006680656764249475,-0.0006382745641686148,0.00030672814848924356,0.0006232439540437224,0.00026172786269840426,0.0005810089470361887,-0.00028529713451161767,0.0,0.0,0.0,0.0,0.0,0.0,0.0,-0.00022463770184799614,-0.00018755158329730737,-0.00012523640455248605,-0.00013752914027298502,-6.149010544086175e-05,2.67124176023259e-05,-3.286162184290564e-05,0.0006680656764249475,0.0006382745641686148,-0.00030672814848924356,-0.0006232439540437224,-0.00026172786269840426,-0.0005810089470361887,0.00028529713451161767,0.4267818331718445,22.772058486938477,0.1253325641155243,-14.032625198364258,-0.1531882882118225,-2.1261630058288574,0.39218467473983765,0
60,0.2944934368133545,-0.4505855441093445,-22.772058486938477,-0.1253325641155243,14.032625198364258,0.1595969796180725,2.1197543144226074,-0.38577598333358765,0.0,0.0,0.0,0.0,0.0,0.0,0.0,-0.4446162943931337,0.012799287732037232,-0.21064667177753837,0.19161087904821775,-0.07788938546291156,-0.04849015804011874,-0.40396977387643196,1.675723619019247,0.05228971832432344,0.03009471784075515,-2.7522573155758163,0.034305132711145665,2.7663419539663527,0.7691952072712861,1.6754973547542302,0.052104326824870026,0.029969505109285054,-2.752394845125968,0.0342448039870148,2.7663679543071322,0.7691630533470046,-0.00014280339002050853,-0.0004651419154779213,-9.770650331371037e-05,0.000561442990549255,-0.000136651077947481,0.000658048255547759,-0.00025122676642062934,0.0,0.0,0.0,0.0,0.0,0.0,0.0,-0.00022626426501681784,-0.00018539149945341615,-0.00012521273147009584,-0.0001375295501517826,-6.0328724130864764e-05,2.600034077948621e-05,-3.215392428146391e-05,0.00014280339002050853,0.0004651419154779213,9.770650331371037e-05,-0.000561442990549255,0.000136651077947481,-0.000658048255547759,0.00025122676642062934,0.4505855441093445,22.772058486938477,0.1253325641155243,-14.032625198364258,-0.1595969796180725,-2.1197543144226074,0.38577598333358765,0
61,0.29950881004333496,-0.4505855441093445,-22.772058486938477,-0.1253325641155243,14.032625198364258,0.1595969796180725,2.1197543144226074,-0.38577598333358765,0.0,0.0,0.0,0.0,0.0,0.0,0.0,-0.4446162943931337,0.012799287732037232,-0.21064667177753837,0.19161087904821775,-0.07788938546291156,-0.04849015804011874,-0.40396977387643196,1.675723619019247,0.05228971832432344,0.03009471784075515,-2.7522573155758163,0.034305132711145665,2.7663419539663527,0.7691952072712861,1.6754973547542302,0.052104326824870026,0.029969505109285054,-2.752394845125968,0.0342448039870148,2.7663679543071322,0.7691630533470046,-0.00014280339002050853,-0.0004651419154779213,-9.770650331371037e-05,0.000561442990549255,-0.000136651077947481,0.000658048255547759,-0.00025122676642062934,0.0,0.0,0.0,0.0,0.0,0.0,0.0,-0.00022626426501681784,-0.00018539149945341615,-0.00012521273147009584,-0.0001375295501517826,-6.0328724130864764e-05,2.600034077948621e-05,-3.215392428146391e-05,0.00014280339002050853,0.0004651419154779213,9.770650331371037e-05,-0.000561442990549255,0.000136651077947481,-0.000658048255547759,0.00025122676642062934,0.4505855441093445,22.772058486938477,0.1253325641155243,-14.032625198364258,-0.1595969796180725,-2.1197543144226074,0.38577598333358765,0
62,0.304462194442749,-0.4505855441093445,-22.795862197875977,-0.1491362750530243,14.056428909301758,0.1476951241493225,2.1325716972351074,-0.37845176458358765,0.0,0.0,0.0,0.0,0.0,0.0,0.0,-0.4443352994033619,0.013469425010655525,-0.2100750434977627,0.18900414212993227,-0.07783757999230044,-0.049104235467282036,-0.401745411813197,1.6757265502847642,0.0522913890727626,0.03009780614736365,-2.7522612001724585,0.03431067218075375,2.766340529812707,0.7691912145010045,1.6754973547542302,0.052104326824870026,0.029969505109285054,-2.752394845125968,0.0342448039870148,2.7663679543071322,0.7691630533470046,3.06739192257284e-05,0.000144167451809625,0.0005430229892221966,0.0001329661589152624,0.00021769910348214225,-4.272288592157235e-05,-0.0006991637626867581,0.0,0.0,0.0,0.0,0.0,0.0,0.0,-0.00022919553053402097,-0.00018706224789257625,-0.00012830103807859664,-0.00013364495350964845,-6.586819373895214e-05,2.742449442516559e-05,-2.8161153999839428e-05,-3.06739192257284e-05,-0.000144167451809625,-0.0005430229892221966,-0.0001329661589152624,-0.00021769910348214225,4.272288592157235e-05,0.0006991637626867581,0.4505855441093445,22.795862197875977,0.1491362750530243,-14.056428909301758,-0.1476951241493225,-2.1325716972351074,0.37845176458358765,0
63,0.30943965911865234,-0.4505855441093445,-22.795862197875977,-0.1491362750530243,14.056428909301758,0.1476951241493225,2.1325716972351074,-0.37845176458358765,0.0,0.0,0.0,0.0,0.0,0.0,0.0,-0.4443352994033619,0.013469425010655525,-0.2100750434977627,0.18900414212993227,-0.07783757999230044,-0.049104235467282036,-0.401745411813197,1.6757265502847642,0.0522913890727626,0.03009780614736365,-2.7522612001724585,0.03431067218075375,2.766340529812707,0.7691912145010045,1.6754973547542302,0.052104326824870026,0.029969505109285054,-2.752394845125968,0.0342448039870148,2.7663679543071322,0.7691630533470046,3.06739192257284e-05,0.000144167451809625,0.0005430229892221966,0.0001329661589152624,0.00021769910348214225,-4.272288592157235e-05,-0.0006991637626867581,0.0,0.0,0.0,0.0,0.0,0.0,0.0,-0.00022919553053402097,-0.00018706224789257625,-0.00012830103807859664,-0.00013364495350964845,-6.586819373895214e-05,2.742449442516559e-05,-2.8161153999839428e-05,-3.06739192257284e-05,-0.000144167451809625,-0.0005430229892221966,-0.0001329661589152624,-0.00021769910348214225,4.272288592157235e-05,0.0006991637626867581,0.4505855441093445,22.795862197875977,0.1491362750530243,-14.056428909301758,-0.1476951241493225,-2.1325716972351074,0.37845176458358765,0
64,0.31445813179016113,-0.4505855441093445,-22.772058486938477,-0.09756157547235489,14.056428909301758,0.1531882882118225,2.1389803886413574,-0.37204307317733765,0.0,0.0,0.0,0.0,0.0,0.0,0.0,-0.44677987070130054,0.01065470379851731,-0.2114185082376071,0.19308649888722032,-0.0781610346348794,-0.04871989773298517,-0.4006746467120599,1.6757243005325793,0.05228974559345265,0.03009429318874925,-2.7522586848108728,0.03430585600535975,2.7663398177358838,0.7691936797594034,1.6754973547542302,0.052104326824870026,0.029969505109285054,-2.752394845125968,0.0342448039870148,2.7663679543071322,0.7691630533470046,0.00028478614995909926,-0.0006522235714184395,-0.0005199064175822162,0.0002860300453676773,6.849480114115274e-06,1.6316442294091046e-05,-0.0013325821485345576,0.0,0.0,0.0,0.0,0.0,0.0,0.0,-0.0002269457783490303,-0.00018541876858262085,-0.00012478807946419632,-0.000136160315095335,-6.10520183449495e-05,2.813657124844937e-05,-3.062641239881536e-05,-0.00028478614995909926,0.0006522235714184395,0.0005199064175822162,-0.0002860300453676773,-6.849480114115274e-06,-1.6316442294091046e-05,0.0013325821485345576,0.4505855441093445,22.772058486938477,0.09756157547235489,-14.056428909301758,-0.1531882882118225,-2.1389803886413574,0.37204307317733765,0
65,0.319460391998291,-0.4505855441093445,-22.772058486938477,-0.09756157547235489,14.056428909301758,0.1531882882118225,2.1389803886413574,-0.37204307317733765,0.0,0.0,0.0,0.0,0.0,0.0,0.0,-0.44677987070130054,0.01065470379851731,-0.2114185082376071,0.19308649888722032,-0.0781610346348794,-0.04871989773298517,-0.4006746467120599,1.6757243005325793,0.05228974559345265,0.03009429318874925,-2.7522586848108728,0.03430585600535975,2.7663398177358838,0.7691936797594034,1.6754973547542302,0.052104326824870026,0.029969505109285054,-2.752394845125968,0.0342448039870148,2.7663679543071322,0.7691630533470046,0.00028478614995909926,-0.0006522235714184395,-0.0005199064175822162,0.0002860300453676773,6.849480114115274e-06,1.6316442294091046e-05,-0.0013325821485345576,0.0,0.0,0.0,0.0,0.0,0.0,0.0,-0.0002269457783490303,-0.00018541876858262085,-0.00012478807946419632,-0.000136160315095335,-6.10520183449495e-05,2.813657124844937e-05,-3.062641239881536e-05,-0.00028478614995909926,0.0006522235714184395,0.0005199064175822162,-0.0002860300453676773,-6.849480114115274e-06,-1.6316442294091046e-05,0.0013325821485345576,0.4505855441093445,22.772058486938477,0.09756157547235489,-14.056428909301758,-0.1531882882118225,-2.1389803886413574,0.37204307317733765,0
66,0.3244767189025879,-0.4267818331718445,-22.795862197875977,-0.09756157547235489,14.056428909301758,0.1476951241493225,2.1517977714538574,-0.38577598333358765,0.0,0.0,0.0,0.0,0.0,0.0,0.0,-0.4487342320864251,0.013143530994233285,-0.21154883337633681,0.19002170333706692,-0.07826869655948461,-0.04876449933368002,-0.40101621923171543,1.6757221590974056,0.052291389072916535,0.030092761538031757,-2.7522611577378577,0.03430653269860014,2.766338393582238,0.7691920283569137,1.6754973547542302,0.052104326824870026,0.029969505109285054,-2.752394845125968,0.0342448039870148,2.7663679543071322,0.7691630533470046,0.00010167205379191725,0.00032558120422370465,-0.0011507852651059063,3.7310150479499826e-05,0.00025778524730322115,-0.0003891790737523332,-0.0014879734295195801,0.0,0.0,0.0,0.0,0.0,0.0,0.0,-0.00022480434317539988,-0.00018706224804650867,-0.00012325642874670348,-0.00013368738811037062,-6.172871158533627e-05,2.9560724894128754e-05,-2.8975009909060212e-05,-0.00010167205379191725,-0.00032558120422370465,0.0011507852651059063,-3.7310150479499826e-05,-0.00025778524730322115,0.0003891790737523332,0.0014879734295195801,0.4267818331718445,22.795862197875977,0.09756157547235489,-14.056428909301758,-0.1476951241493225,-2.1517977714538574,0.38577598333358765,0
67,0.3294668197631836,-0.4267818331718445,-22.795862197875977,-0.09756157547235489,14.056428909301758,0.1476951241493225,2.1517977714538574,-0.38577598333358765,0.0,0.0,0.0,0.0,0.0,0.0,0.0,-0.4487342320864251,0.013143530994233285,-0.21154883337633681,0.19002170333706692,-0.07826869655948461,-0.04876449933368002,-0.40101621923171543,1.6757221590974056,0.052291389072916535,0.030092761538031757,-2.7522611577378577,0.03430653269860014,2.766338393582238,0.7691920283569137,1.6754973547542302,0.052104326824870026,0.029969505109285054,-2.752394845125968,0.0342448039870148,2.7663679543071322,0.7691630533470046,0.00010167205379191725,0.00032558120422370465,-0.0011507852651059063,3.7310150479499826e-05,0.00025778524730322115,-0.0003891790737523332,-0.0014879734295195801,0.0,0.0,0.0,0.0,0.0,0.0,0.0,-0.00022480434317539988,-0.00018706224804650867,-0.00012325642874670348,-0.00013368738811037062,-6.172871158533627e-05,2.9560724894128754e-05,-2.8975009909060212e-05,-0.00010167205379191725,-0.00032558120422370465,0.0011507852651059063,-3.7310150479499826e-05,-0.00025778524730322115,0.0003891790737523332,0.0014879734295195801,0.4267818331718445,22.795862197875977,0.09756157547235489,-14.056428909301758,-0.1476951241493225,-2.1517977714538574,0.38577598333358765,0
68,0.334442138671875,-0.4267818331718445,-22.795862197875977,-0.09756157547235489,14.080232620239258,0.1531882882118225,2.1453890800476074,-0.40591758489608765,0.0,0.0,0.0,0.0,0.0,0.0,0.0,-0.4449201085502931,0.01018130266071249,-0.20987499554009018,0.19159589807680513,-0.07819604252711697,-0.047417695474949347,-0.404229464800279,1.6757243257930823,0.05229138874798673,0.030092866649079453,-2.752261802600304,0.03430580389568471,2.766339105659061,0.7691974447245782,1.6754973547542302,0.052104326824870026,0.029969505109285054,-2.752394845125968,0.0342448039870148,2.7663679543071322,0.7691630533470046,-0.0008371259935796626,-4.384629898882586e-05,-0.00010259679784425432,-0.0004154449205263935,-1.0605158565826728e-05,-8.01499576641797e-05,-0.0004170208304391377,0.0,0.0,0.0,0.0,0.0,0.0,0.0,-0.00022697103885205294,-0.0001870619231167034,-0.00012336153979439907,-0.000133042525664262,-6.099990866990923e-05,2.8848648071289062e-05,-3.4391377573550486e-05,0.0008371259935796626,4.384629898882586e-05,0.00010259679784425432,0.0004154449205263935,1.0605158565826728e-05,8.01499576641797e-05,0.0004170208304391377,0.4267818331718445,22.795862197875977,0.09756157547235489,-14.080232620239258,-0.1531882882118225,-2.1453890800476074,0.40591758489608765,0
69,0.3394887447357178,-0.4267818331718445,-22.795862197875977,-0.09756157547235489,14.080232620239258,0.1531882882118225,2.1453890800476074,-0.40591758489608765,0.0,0.0,0.0,0.0,0.0,0.0,0.0,-0.4449201085502931,0.01018130266071249,-0.20987499554009018,0.19159589807680513,-0.07819604252711697,-0.047417695474949347,-0.404229464800279,1.6757243257930823,0.05229138874798673,0.030092866649079453,-2.752261802600304,0.03430580389568471,2.766339105659061,0.7691974447245782,1.6754973547542302,0.052104326824870026,0.029969505109285054,-2.752394845125968,0.0342448039870148,2.7663679543071322,0.7691630533470046,-0.0008371259935796626,-4.384629898882586e-05,-0.00010259679784425432,-0.0004154449205263935,-1.0605158565826728e-05,-8.01499576641797e-05,-0.0004170208304391377,0.0,0.0,0.0,0.0,0.0,0.0,0.0,-0.00022697103885205294,-0.0001870619231167034,-0.00012336153979439907,-0.000133042525664262,-6.099990866990923e-05,2.8848648071289062e-05,-3.4391377573550486e-05,0.0008371259935796626,4.384629898882586e-05,0.00010259679784425432,0.0004154449205263935,1.0605158565826728e-05,8.01499576641797e-05,0.0004170208304391377,0.4267818331718445,22.795862197875977,0.09756157547235489,-14.080232620239258,-0.1531882882118225,-2.1453890800476074,0.40591758489608765,0
70,0.34450531005859375,-0.4267818331718445,-22.795862197875977,-0.1491362750530243,14.032625198364258,0.1531882882118225,2.1389803886413574,-0.41965049505233765,0.0,0.0,0.0,0.0,0.0,0.0,0.0,-0.4452598489531308,0.008812288444682351,-0.20957638641494708,0.19020915936108837,-0.07827380026708798,-0.046802522718860866,-0.4053834115488354,1.6757241724557626,0.05229162551087942,0.030098755761627644,-2.752259239646745,0.034310066372314346,2.7663398177358838,0.7691978977398397,1.6754973547542302,0.052104326824870026,0.029969505109285054,-2.752394845125968,0.0342448039870148,2.7663679543071322,0.7691630533470046,-0.00022345312137148562,-0.00020017051386515844,0.00017837344415001015,0.0005612689101710137,-7.45099245209787e-05,3.6179184739496054e-05,0.0005626752647338805,0.0,0.0,0.0,0.0,0.0,0.0,0.0,-0.0002268177015323225,-0.00018729868600939753,-0.00012925065234259056,-0.00013560547922297772,-6.52623852995457e-05,2.813657124844937e-05,-3.484439283507612e-05,0.00022345312137148562,0.00020017051386515844,-0.00017837344415001015,-0.0005612689101710137,7.45099245209787e-05,-3.6179184739496054e-05,-0.0005626752647338805,0.4267818331718445,22.795862197875977,0.1491362750530243,-14.032625198364258,-0.1531882882118225,-2.1389803886413574,0.41965049505233765,0
71,0.349454402923584,-0.4267818331718445,-22.795862197875977,-0.1491362750530243,14.032625198364258,0.1531882882118225,2.1389803886413574,-0.41965049505233765,0.0,0.0,0.0,0.0,0.0,0.0,0.0,-0.4452598489531308,0.008812288444682351,-0.20957638641494708,0.19020915936108837,-0.07827380026708798,-0.046802522718860866,-0.4053834115488354,1.6757241724557626,0.05229162551087942,0.030098755761627644,-2.752259239646745,0.034310066372314346,2.7663398177358838,0.7691978977398397,1.6754973547542302,0.052104326824870026,0.029969505109285054,-2.752394845125968,0.0342448039870148,2.7663679543071322,0.7691630533470046,-0.00022345312137148562,-0.00020017051386515844,0.00017837344415001015,0.0005612689101710137,-7.45099245209787e-05,3.6179184739496054e-05,0.0005626752647338805,0.0,0.0,0.0,0.0,0.0,0.0,0.0,-0.0002268177015323225,-0.00018729868600939753,-0.00012925065234259056,-0.00013560547922297772,-6.52623852995457e-05,2.813657124844937e-05,-3.484439283507612e-05,0.00022345312137148562,0.00020017051386515844,-0.00017837344415001015,-0.0005612689101710137,7.45099245209787e-05,-3.6179184739496054e-05,-0.0005626752647338805,0.4267818331718445,22.795862197875977,0.1491362750530243,-14.032625198364258,-0.1531882882118225,-2.1389803886413574,0.41965049505233765,0
72,0.35445070266723633,-0.4505855441093445,-22.772058486938477,-0.1491362750530243,14.056428909301758,0.1595969796180725,2.1453890800476074,-0.43338340520858765,0.0,0.0,0.0,0.0,0.0,0.0,0.0,-0.4411514482076864,0.015481523315006454,-0.21100967032585635,0.18588142725575577,-0.07854049154617572,-0.047409192112830026,-0.40499710687680623,1.675724562494679,0.05229043184992607,0.030095745194041373,-2.752260167661978,0.034309363081735815,2.766339105659061,0.7692003791873883,1.6754973547542302,0.052104326824870026,0.029969505109285054,-2.752394845125968,0.0342448039870148,2.7663679543071322,0.7691630533470046,0.00036327800502287055,-0.00021371770705425763,0.0007311114879792977,-0.0002424164457060864,-0.0001597714194455629,-0.0002217944637917084,0.0013735486489547875,0.0,0.0,0.0,0.0,0.0,0.0,0.0,-0.00022720774044882042,-0.00018610502505604642,-0.0001262400847563197,-0.0001346774639903181,-6.455909472101451e-05,2.8848648071289062e-05,-3.732584038362852e-05,-0.00036327800502287055,0.00021371770705425763,-0.0007311114879792977,0.0002424164457060864,0.0001597714194455629,0.0002217944637917084,-0.0013735486489547875,0.4505855441093445,22.772058486938477,0.1491362750530243,-14.056428909301758,-0.1595969796180725,-2.1453890800476074,0.43338340520858765,0
73,0.35946083068847656,-0.4505855441093445,-22.772058486938477,-0.1491362750530243,14.056428909301758,0.1595969796180725,2.1453890800476074,-0.43338340520858765,0.0,0.0,0.0,0.0,0.0,0.0,0.0,-0.4411514482076864,0.015481523315006454,-0.21100967032585635,0.18588142725575577,-0.07854049154617572,-0.047409192112830026,-0.40499710687680623,1.675724562494679,0.05229043184992607,0.030095745194041373,-2.752260167661978,0.034309363081735815,2.766339105659061,0.7692003791873883,1.6754973547542302,0.052104326824870026,0.029969505109285054,-2.752394845125968,0.0342448039870148,2.7663679543071322,0.7691630533470046,0.00036327800502287055,-0.00021371770705425763,0.0007311114879792977,-0.0002424164457060864,-0.0001597714194455629,-0.0002217944637917084,0.0013735486489547875,0.0,0.0,0.0,0.0,0.0,0.0,0.0,-0.00022720774044882042,-0.00018610502505604642,-0.0001262400847563197,-0.0001346774639903181,-6.455909472101451e-05,2.8848648071289062e-05,-3.732584038362852e-05,-0.00036327800502287055,0.00021371770705425763,-0.0007311114879792977,0.0002424164457060864,0.0001597714194455629,0.0002217944637917084,-0.0013735486489547875,0.4505855441093445,22.772058486938477,0.1491362750530243,-14.056428909301758,-0.1595969796180725,-2.1453890800476074,0.43338340520858765,0
74,0.3644416332244873,-0.4505855441093445,-22.772058486938477,-0.1491362750530243,14.056428909301758,0.1595969796180725,2.1453890800476074,-0.43338340520858765,0.0,0.0,0.0,0.0,0.0,0.0,0.0,-0.4411514482076864,0.015481523315006454,-0.21100967032585635,0.18588142725575577,-0.07854049154617572,-0.047409192112830026,-0.40499710687680623,1.675724562494679,0.05229043184992607,0.030095745194041373,-2.752260167661978,0.034309363081735815,2.766339105659061,0.7692003791873883,1.6754973547542302,0.052104326824870026,0.029969505109285054,-2.752394845125968,0.0342448039870148,2.7663679543071322,0.7691630533470046,0.00036327800502287055,-0.00021371770705425763,0.0007311114879792977,-0.0002424164457060864,-0.0001597714194455629,-0.0002217944637917084,0.0013735486489547875,0.0,0.0,0.0,0.0,0.0,0.0,0.0,-0.00022720774044882042,-0.00018610502505604642,-0.0001262400847563197,-0.0001346774639903181,-6.455909472101451e-05,2.8848648071289062e-05,-3.732584038362852e-05,-0.00036327800502287055,0.00021371770705425763,-0.0007311114879792977,0.0002424164457060864,0.0001597714194455629,0.0002217944637917084,-0.0013735486489547875,0.4505855441093445,22.772058486938477,0.1491362750530243,-14.056428909301758,-0.1595969796180725,-2.1453890800476074,0.43338340520858765,0
75,0.36945128440856934,-0.4505855441093445,-22.772058486938477,-0.1491362750530243,14.056428909301758,0.1595969796180725,2.1453890800476074,-0.43338340520858765,0.0,0.0,0.0,0.0,0.0,0.0,0.0,-0.4411514482076864,0.015481523315006454,-0.21100967032585635,0.18588142725575577,-0.07854049154617572,-0.047409192112830026,-0.40499710687680623,1.675724562494679,0.05229043184992607,0.030095745194041373,-2.752260167661978,0.034309363081735815,2.766339105659061,0.7692003791873883,1.6754973547542302,0.052104326824870026,0.029969505109285054,-2.752394845125968,0.0342448039870148,2.7663679543071322,0.7691630533470046,0.00036327800502287055,-0.00021371770705425763,0.0007311114879792977,-0.0002424164457060864,-0.0001597714194455629,-0.0002217944637917084,0.0013735486489547875,0.0,0.0,0.0,0.0,0.0,0.0,0.0,-0.00022720774044882042,-0.00018610502505604642,-0.0001262400847563197,-0.0001346774639903181,-6.455909472101451e-05,2.8848648071289062e-05,-3.732584038362852e-05,-0.00036327800502287055,0.00021371770705425763,-0.0007311114879792977,0.0002424164457060864,0.0001597714194455629,0.0002217944637917084,-0.0013735486489547875,0.4505855441093445,22.772058486938477,0.1491362750530243,-14.056428909301758,-0.1595969796180725,-2.1453890800476074,0.43338340520858765,0
76,0.37444591522216797,-0.4267818331718445,-22.819665908813477,-0.09756157547235489,14.080232620239258,0.1531882882118225,2.1389803886413574,-0.40591758489608765,0.0,0.0,0.0,0.0,0.0,0.0,0.0,-0.43755446815577476,0.009391317960910193,-0.20997869630894603,0.1946153891909412,-0.07859393130991645,-0.04585137273610102,-0.4038118894335526,1.6757221600910976,0.05229305919592399,0.030092994031388775,-2.7522627963264577,0.03430901043939093,2.7663398177358838,0.7691974450635395,1.6754973547542302,0.052104326824870026,0.029969505109285054,-2.752394845125968,0.0342448039870148,2.7663679543071322,0.7691630533470046,-0.00024053568016317394,0.0007732788746402874,-0.0008597674737210821,5.257210657437257e-05,-5.775115373315773e-06,-6.654143056218496e-05,0.0007126187812526199,0.0,0.0,0.0,0.0,0.0,0.0,0.0,-0.00022480533686741744,-0.00018873237105396234,-0.00012348892210372123,-0.00013204879951045356,-6.420645237612682e-05,2.813657124844937e-05,-3.4391716534853956e-05,0.00024053568016317394,-0.0007732788746402874,0.0008597674737210821,-5.257210657437257e-05,5.775115373315773e-06,6.654143056218496e-05,-0.0007126187812526199,0.4267818331718445,22.819665908813477,0.09756157547235489,-14.080232620239258,-0.1531882882118225,-2.1389803886413574,0.40591758489608765,0
77,0.3795194625854492,-0.4267818331718445,-22.819665908813477,-0.09756157547235489,14.080232620239258,0.1531882882118225,2.1389803886413574,-0.40591758489608765,0.0,0.0,0.0,0.0,0.0,0.0,0.0,-0.43755446815577476,0.009391317960910193,-0.20997869630894603,0.1946153891909412,-0.07859393130991645,-0.04585137273610102,-0.4038118894335526,1.6757221600910976,0.05229305919592399,0.030092994031388775,-2.7522627963264577,0.03430901043939093,2.7663398177358838,0.7691974450635395,1.6754973547542302,0.052104326824870026,0.029969505109285054,-2.752394845125968,0.0342448039870148,2.7663679543071322,0.7691630533470046,-0.00024053568016317394,0.0007732788746402874,-0.0008597674737210821,5.257210657437257e-05,-5.775115373315773e-06,-6.654143056218496e-05,0.0007126187812526199,0.0,0.0,0.0,0.0,0.0,0.0,0.0,-0.00022480533686741744,-0.00018873237105396234,-0.00012348892210372123,-0.00013204879951045356,-6.420645237612682e-05,2.813657124844937e-05,-3.4391716534853956e-05,0.00024053568016317394,-0.0007732788746402874,0.0008597674737210821,-5.257210657437257e-05,5.775115373315773e-06,6.654143056218496e-05,-0.0007126187812526199,0.4267818331718445,22.819665908813477,0.09756157547235489,-14.080232620239258,-0.1531882882118225,-2.1389803886413574,0.40591758489608765,0
78,0.3844623565673828,-0.4505855441093445,-22.772058486938477,-0.07375786453485489,14.056428909301758,0.1531882882118225,2.1453890800476074,-0.45352500677108765,0.0,0.0,0.0,0.0,0.0,0.0,0.0,-0.44174017603294163,0.012955006386288128,-0.21676663920398617,0.19167383877095204,-0.0786574240062652,-0.047212497095336696,-0.40298824502198133,1.6757238220560027,0.05228995507502418,0.030090377855538336,-2.752260879513839,0.034306874509948654,2.766339105659061,0.7691995560082484,1.6754973547542302,0.052104326824870026,0.029969505109285054,-2.752394845125968,0.0342448039870148,2.7663679543071322,0.7691630533470046,-8.510835378584567e-05,-0.0006462267407633697,-0.0016020057936984525,0.00025580122703409405,-0.00018078873444670235,-0.00022185599602679988,0.00159434728581826,0.0,0.0,0.0,0.0,0.0,0.0,0.0,-0.00022646730177244834,-0.00018562825015415452,-0.00012087274625328243,-0.00013396561212930536,-6.207052293385334e-05,2.8848648071289062e-05,-3.650266124377577e-05,8.510835378584567e-05,0.0006462267407633697,0.0016020057936984525,-0.00025580122703409405,0.00018078873444670235,0.00022185599602679988,-0.00159434728581826,0.4505855441093445,22.772058486938477,0.07375786453485489,-14.056428909301758,-0.1531882882118225,-2.1453890800476074,0.45352500677108765,0
79,0.3894615173339844,-0.4505855441093445,-22.772058486938477,-0.07375786453485489,14.056428909301758,0.1531882882118225,2.1453890800476074,-0.45352500677108765,0.0,0.0,0.0,0.0,0.0,0.0,0.0,-0.44174017603294163,0.012955006386288128,-0.21676663920398617,0.19167383877095204,-0.0786574240062652,-0.047212497095336696,-0.40298824502198133,1.6757238220560027,0.05228995507502418,0.030090377855538336,-2.752260879513839,0.034306874509948654,2.766339105659061,0.7691995560082484,1.6754973547542302,0.052104326824870026,0.029969505109285054,-2.752394845125968,0.0342448039870148,2.7663679543071322,0.7691630533470046,-8.510835378584567e-05,-0.0006462267407633697,-0.0016020057936984525,0.00025580122703409405,-0.00018078873444670235,-0.00022185599602679988,0.00159434728581826,0.0,0.0,0.0,0.0,0.0,0.0,0.0,-0.00022646730177244834,-0.00018562825015415452,-0.00012087274625328243,-0.00013396561212930536,-6.207052293385334e-05,2.8848648071289062e-05,-3.650266124377577e-05,8.510835378584567e-05,0.0006462267407633697,0.0016020057936984525,-0.00025580122703409405,0.00018078873444670235,0.00022185599602679988,-0.00159434728581826,0.4505855441093445,22.772058486938477,0.07375786453485489,-14.056428909301758,-0.1531882882118225,-2.1453890800476074,0.45352500677108765,0
