rezayati/contactInterpretation/dataset/franka_main/labeled_data/link6/b10_7.csv
index,time,tau_J0,tau_J1,tau_J2,tau_J3,tau_J4,tau_J5,tau_J6,tau_J_d0,tau_J_d1,tau_J_d2,tau_J_d3,tau_J_d4,tau_J_d5,tau_J_d6,tau_ext0,tau_ext1,tau_ext2,tau_ext3,tau_ext4,tau_ext5,tau_ext6,q0,q1,q2,q3,q4,q5,q6,q_d0,q_d1,q_d2,q_d3,q_d4,q_d5,q_d6,dq0,dq1,dq2,dq3,dq4,dq5,dq6,dq_d0,dq_d1,dq_d2,dq_d3,dq_d4,dq_d5,dq_d6,e0,e1,e2,e3,e4,e5,e6,de0,de1,de2,de3,de4,de5,de6,etau_J0,etau_J1,etau_J2,etau_J3,etau_J4,etau_J5,etau_J6,label
1,0.0,-0.22445029020309448,-11.873926162719727,1.0172455310821533,21.768831253051758,0.4150291085243225,2.5335726737976074,-0.33725303411483765,0.0,0.0,0.0,0.0,0.0,0.0,0.0,-0.24083102729897185,0.4469593891454281,-0.17566780460247172,0.46421330957090406,-0.11562743347891284,0.13805833877503929,-0.313329953956573,0.17304311947250062,-0.4875255376665215,-0.11133827575605808,-1.946586698331331,0.13344857571522362,2.5953915747305416,0.94526223600541,0.1728802376190821,-0.48752024683155326,-0.11147110072896137,-1.9463801863486305,0.1336059019074957,2.595550359778934,0.9452445589611904,-0.0010152251356312476,-0.0004677128915733932,-0.0005316982559846934,-0.0003889855251079226,9.617833650958299e-05,0.00027670829323083184,0.0007620754625648616,0.0,0.0,0.0,0.0,0.0,0.0,0.0,-0.00016288185341850614,5.290834968252334e-06,-0.00013282497290328932,0.00020651198270038584,0.00015732619227207256,0.00015878504839239582,-1.7677044219621685e-05,0.0010152251356312476,0.0004677128915733932,0.0005316982559846934,0.0003889855251079226,-9.617833650958299e-05,-0.00027670829323083184,-0.0007620754625648616,0.22445029020309448,11.873926162719727,-1.0172455310821533,-21.768831253051758,-0.4150291085243225,-2.5335726737976074,0.33725303411483765,0
2,0.004995584487915039,-0.2720577120780945,-11.901697158813477,0.9696381092071533,21.768831253051758,0.4150291085243225,2.5399813652038574,-0.29605430364608765,0.0,0.0,0.0,0.0,0.0,0.0,0.0,-0.24670650220254872,0.4452563982931605,-0.18534228331832894,0.46397803482843575,-0.11569198057036424,0.13766641339053234,-0.3152821593127622,0.1730467141274195,-0.4875235888246904,-0.11133492698276176,-1.9465866986583795,0.13344857571522392,2.5953908510253907,0.9452607900949486,0.1728802376190821,-0.48752024683155326,-0.11147110072896137,-1.9463801863486305,0.1336059019074957,2.595550359778934,0.9452445589611904,-0.0002585762143991395,0.00022637987540773523,0.0005907665766070744,-0.0007751715624626077,0.0002957391529760523,-0.00022813358288095278,-0.0004418787374051439,0.0,0.0,0.0,0.0,0.0,0.0,0.0,-0.0001664765083373987,3.3419931371181377e-06,-0.00013617374619960543,0.00020651230974899626,0.00015732619227176725,0.00015950875354331373,-1.6231133758148886e-05,0.0002585762143991395,-0.00022637987540773523,-0.0005907665766070744,0.0007751715624626077,-0.0002957391529760523,0.00022813358288095278,0.0004418787374051439,0.2720577120780945,11.901697158813477,-0.9696381092071533,-21.768831253051758,-0.4150291085243225,-2.5399813652038574,0.29605430364608765,0
3,0.009996891021728516,-0.2720577120780945,-11.901697158813477,0.9696381092071533,21.768831253051758,0.4150291085243225,2.5399813652038574,-0.29605430364608765,0.0,0.0,0.0,0.0,0.0,0.0,0.0,-0.24670650220254872,0.4452563982931605,-0.18534228331832894,0.46397803482843575,-0.11569198057036424,0.13766641339053234,-0.3152821593127622,0.1730467141274195,-0.4875235888246904,-0.11133492698276176,-1.9465866986583795,0.13344857571522392,2.5953908510253907,0.9452607900949486,0.1728802376190821,-0.48752024683155326,-0.11147110072896137,-1.9463801863486305,0.1336059019074957,2.595550359778934,0.9452445589611904,-0.0002585762143991395,0.00022637987540773523,0.0005907665766070744,-0.0007751715624626077,0.0002957391529760523,-0.00022813358288095278,-0.0004418787374051439,0.0,0.0,0.0,0.0,0.0,0.0,0.0,-0.0001664765083373987,3.3419931371181377e-06,-0.00013617374619960543,0.00020651230974899626,0.00015732619227176725,0.00015950875354331373,-1.6231133758148886e-05,0.0002585762143991395,-0.00022637987540773523,-0.0005907665766070744,0.0007751715624626077,-0.0002957391529760523,0.00022813358288095278,0.0004418787374051439,0.2720577120780945,11.901697158813477,-0.9696381092071533,-21.768831253051758,-0.4150291085243225,-2.5399813652038574,0.29605430364608765,0
4,0.014999628067016602,-0.24825400114059448,-11.850122451782227,0.9934418201446533,21.792634963989258,0.4150291085243225,2.5399813652038574,-0.30978721380233765,0.0,0.0,0.0,0.0,0.0,0.0,0.0,-0.25183904951736624,0.43349923315977557,-0.19057983673433387,0.4719954111260097,-0.11543768669857392,0.13865780891136495,-0.3163147456730947,0.17304690813099047,-0.48752720810237676,-0.11133517587760919,-1.9465883687671879,0.13344853622408068,2.595390864053435,0.9452593799178446,0.1728802376190821,-0.48752024683155326,-0.11147110072896137,-1.9463801863486305,0.1336059019074957,2.595550359778934,0.9452445589611904,-0.0007616887904380654,-0.0008576223463183517,-0.0006161531500780496,-0.00040512376344612643,0.0002179461224154772,0.00012273738902883515,-7.234140498596916e-05,0.0,0.0,0.0,0.0,0.0,0.0,0.0,-0.0001666705119083567,6.961270823502286e-06,-0.0001359248513521788,0.00020818241855735664,0.00015736568341501167,0.00015949572549889268,-1.4820956654171269e-05,0.0007616887904380654,0.0008576223463183517,0.0006161531500780496,0.00040512376344612643,-0.0002179461224154772,-0.00012273738902883515,7.234140498596916e-05,0.24825400114059448,11.850122451782227,-0.9934418201446533,-21.792634963989258,-0.4150291085243225,-2.5399813652038574,0.30978721380233765,0
5,0.020015239715576172,-0.24825400114059448,-11.850122451782227,0.9934418201446533,21.792634963989258,0.4150291085243225,2.5399813652038574,-0.30978721380233765,0.0,0.0,0.0,0.0,0.0,0.0,0.0,-0.25183904951736624,0.43349923315977557,-0.19057983673433387,0.4719954111260097,-0.11543768669857392,0.13865780891136495,-0.3163147456730947,0.17304690813099047,-0.48752720810237676,-0.11133517587760919,-1.9465883687671879,0.13344853622408068,2.595390864053435,0.9452593799178446,0.1728802376190821,-0.48752024683155326,-0.11147110072896137,-1.9463801863486305,0.1336059019074957,2.595550359778934,0.9452445589611904,-0.0007616887904380654,-0.0008576223463183517,-0.0006161531500780496,-0.00040512376344612643,0.0002179461224154772,0.00012273738902883515,-7.234140498596916e-05,0.0,0.0,0.0,0.0,0.0,0.0,0.0,-0.0001666705119083567,6.961270823502286e-06,-0.0001359248513521788,0.00020818241855735664,0.00015736568341501167,0.00015949572549889268,-1.4820956654171269e-05,0.0007616887904380654,0.0008576223463183517,0.0006161531500780496,0.00040512376344612643,-0.0002179461224154772,-0.00012273738902883515,7.234140498596916e-05,0.24825400114059448,11.850122451782227,-0.9934418201446533,-21.792634963989258,-0.4150291085243225,-2.5399813652038574,0.30978721380233765,0
6,0.025014162063598633,-0.24825400114059448,-11.925500869750977,1.0410492420196533,21.768831253051758,0.4150291085243225,2.5537142753601074,-0.26858848333358765,0.0,0.0,0.0,0.0,0.0,0.0,0.0,-0.24731270173550018,0.4391319965662944,-0.1853697969424151,0.46887039578753315,-0.11578168447863811,0.13790756174098853,-0.3168405693141726,0.17304643460344507,-0.48752191838883513,-0.11133851674129507,-1.946586698331331,0.13344857555248602,2.595389298982581,0.9452544263158934,0.1728802376190821,-0.48752024683155326,-0.11147110072896137,-1.9463801863486305,0.1336059019074957,2.595550359778934,0.9452445589611904,-2.551525556934901e-05,0.0010784892906721937,-0.0006091410972747245,-0.0005572852527877801,0.00018675433782929706,-0.0006527082147681857,-0.0009790439291151017,0.0,0.0,0.0,0.0,0.0,0.0,0.0,-0.0001661969843629596,1.6715572818681856e-06,-0.00013258398766630153,0.00020651198270038584,0.00015732635500967374,0.00016106079635314074,-9.867354702985942e-06,2.551525556934901e-05,-0.0010784892906721937,0.0006091410972747245,0.0005572852527877801,-0.00018675433782929706,0.0006527082147681857,0.0009790439291151017,0.24825400114059448,11.925500869750977,-1.0410492420196533,-21.768831253051758,-0.4150291085243225,-2.5537142753601074,0.26858848333358765,0
7,0.03000950813293457,-0.24825400114059448,-11.925500869750977,1.0410492420196533,21.768831253051758,0.4150291085243225,2.5537142753601074,-0.26858848333358765,0.0,0.0,0.0,0.0,0.0,0.0,0.0,-0.24731270173550018,0.4391319965662944,-0.1853697969424151,0.46887039578753315,-0.11578168447863811,0.13790756174098853,-0.3168405693141726,0.17304643460344507,-0.48752191838883513,-0.11133851674129507,-1.946586698331331,0.13344857555248602,2.595389298982581,0.9452544263158934,0.1728802376190821,-0.48752024683155326,-0.11147110072896137,-1.9463801863486305,0.1336059019074957,2.595550359778934,0.9452445589611904,-2.551525556934901e-05,0.0010784892906721937,-0.0006091410972747245,-0.0005572852527877801,0.00018675433782929706,-0.0006527082147681857,-0.0009790439291151017,0.0,0.0,0.0,0.0,0.0,0.0,0.0,-0.0001661969843629596,1.6715572818681856e-06,-0.00013258398766630153,0.00020651198270038584,0.00015732635500967374,0.00016106079635314074,-9.867354702985942e-06,2.551525556934901e-05,-0.0010784892906721937,0.0006091410972747245,0.0005572852527877801,-0.00018675433782929706,0.0006527082147681857,0.0009790439291151017,0.24825400114059448,11.925500869750977,-1.0410492420196533,-21.768831253051758,-0.4150291085243225,-2.5537142753601074,0.26858848333358765,0
8,0.03500771522521973,-0.24825400114059448,-11.850122451782227,1.0410492420196533,21.792634963989258,0.4150291085243225,2.5399813652038574,-0.28964561223983765,0.0,0.0,0.0,0.0,0.0,0.0,0.0,-0.2458559080174617,0.44780767800014,-0.1821808825207833,0.46763061838674913,-0.11577912681641664,0.1376272002020982,-0.31458203886872615,0.173044396511351,-0.48752720810237676,-0.11133993731866217,-1.946588368767186,0.13344845724179327,2.595386625554605,0.9452612848832853,0.1728802376190821,-0.48752024683155326,-0.11147110072896137,-1.9463801863486305,0.1336059019074957,2.595550359778934,0.9452445589611904,-0.000105423110646995,-0.00030551539135258176,0.0002834949401869325,-0.00047682248057151104,0.00017422611371146693,-0.0002566653913054403,-0.000986032072068587,0.0,0.0,0.0,0.0,0.0,0.0,0.0,-0.00016415889226889524,6.961270823502286e-06,-0.00013116341029920098,0.00020818241855558028,0.00015744466570241644,0.0001637342243290263,-1.672592209489565e-05,0.000105423110646995,0.00030551539135258176,-0.0002834949401869325,0.00047682248057151104,-0.00017422611371146693,0.0002566653913054403,0.000986032072068587,0.24825400114059448,11.850122451782227,-1.0410492420196533,-21.792634963989258,-0.4150291085243225,-2.5399813652038574,0.28964561223983765,0
9,0.040001869201660156,-0.24825400114059448,-11.850122451782227,1.0410492420196533,21.792634963989258,0.4150291085243225,2.5399813652038574,-0.28964561223983765,0.0,0.0,0.0,0.0,0.0,0.0,0.0,-0.2458559080174617,0.44780767800014,-0.1821808825207833,0.46763061838674913,-0.11577912681641664,0.1376272002020982,-0.31458203886872615,0.173044396511351,-0.48752720810237676,-0.11133993731866217,-1.946588368767186,0.13344845724179327,2.595386625554605,0.9452612848832853,0.1728802376190821,-0.48752024683155326,-0.11147110072896137,-1.9463801863486305,0.1336059019074957,2.595550359778934,0.9452445589611904,-0.000105423110646995,-0.00030551539135258176,0.0002834949401869325,-0.00047682248057151104,0.00017422611371146693,-0.0002566653913054403,-0.000986032072068587,0.0,0.0,0.0,0.0,0.0,0.0,0.0,-0.00016415889226889524,6.961270823502286e-06,-0.00013116341029920098,0.00020818241855558028,0.00015744466570241644,0.0001637342243290263,-1.672592209489565e-05,0.000105423110646995,0.00030551539135258176,-0.0002834949401869325,0.00047682248057151104,-0.00017422611371146693,0.0002566653913054403,0.000986032072068587,0.24825400114059448,11.850122451782227,-1.0410492420196533,-21.792634963989258,-0.4150291085243225,-2.5399813652038574,0.28964561223983765,0
10,0.044995784759521484,-0.19667929410934448,-11.850122451782227,1.0926239490509033,21.741060256958008,0.4214377999305725,2.5335726737976074,-0.34457725286483765,0.0,0.0,0.0,0.0,0.0,0.0,0.0,-0.2427246543791058,0.44529835419253755,-0.17447343376369664,0.46945506700009315,-0.1157446942734841,0.13780097730556354,-0.315039375754897,0.17304282406013605,-0.48752720810237676,-0.11134213602700063,-1.9465854647452372,0.13344786363773223,2.59539145696912,0.9452641215944675,0.1728802376190821,-0.48752024683155326,-0.11147110072896137,-1.9463801863486305,0.1336059019074957,2.595550359778934,0.9452445589611904,-0.000303351368959904,-0.0006307348563198241,-0.0008773301019941498,0.00037683655608659726,-5.022227279141853e-05,0.00023888794269208744,0.0013742425647908082,0.0,0.0,0.0,0.0,0.0,0.0,0.0,-0.00016258644105393572,6.961270823502286e-06,-0.00012896470196073484,0.00020527839660666736,0.0001580382697634608,0.00015890280981389893,-1.9562633277070418e-05,0.000303351368959904,0.0006307348563198241,0.0008773301019941498,-0.00037683655608659726,5.022227279141853e-05,-0.00023888794269208744,-0.0013742425647908082,0.19667929410934448,11.850122451782227,-1.0926239490509033,-21.741060256958008,-0.4214377999305725,-2.5335726737976074,0.34457725286483765,0
11,0.04999852180480957,-0.19667929410934448,-11.850122451782227,1.0926239490509033,21.741060256958008,0.4214377999305725,2.5335726737976074,-0.34457725286483765,0.0,0.0,0.0,0.0,0.0,0.0,0.0,-0.2427246543791058,0.44529835419253755,-0.17447343376369664,0.46945506700009315,-0.1157446942734841,0.13780097730556354,-0.315039375754897,0.17304282406013605,-0.48752720810237676,-0.11134213602700063,-1.9465854647452372,0.13344786363773223,2.59539145696912,0.9452641215944675,0.1728802376190821,-0.48752024683155326,-0.11147110072896137,-1.9463801863486305,0.1336059019074957,2.595550359778934,0.9452445589611904,-0.000303351368959904,-0.0006307348563198241,-0.0008773301019941498,0.00037683655608659726,-5.022227279141853e-05,0.00023888794269208744,0.0013742425647908082,0.0,0.0,0.0,0.0,0.0,0.0,0.0,-0.00016258644105393572,6.961270823502286e-06,-0.00012896470196073484,0.00020527839660666736,0.0001580382697634608,0.00015890280981389893,-1.9562633277070418e-05,0.000303351368959904,0.0006307348563198241,0.0008773301019941498,-0.00037683655608659726,5.022227279141853e-05,-0.00023888794269208744,-0.0013742425647908082,0.19667929410934448,11.850122451782227,-1.0926239490509033,-21.741060256958008,-0.4214377999305725,-2.5335726737976074,0.34457725286483765,0
12,0.054999589920043945,-0.24825400114059448,-11.901697158813477,1.0410492420196533,21.741060256958008,0.4095359444618225,2.5399813652038574,-0.27591270208358765,0.0,0.0,0.0,0.0,0.0,0.0,0.0,-0.2448038507461854,0.43177208735884565,-0.17826572454460998,0.4782167743543857,-0.11481689200413521,0.13957123270822613,-0.31638108164320305,0.17304509707988722,-0.4875235888246904,-0.11133851771562796,-1.9465847494935373,0.13344598576737687,2.595390864052836,0.9452563262520051,0.1728802376190821,-0.48752024683155326,-0.11147110072896137,-1.9463801863486305,0.1336059019074957,2.595550359778934,0.9452445589611904,0.0004918235219195839,-1.0620766784977486e-06,0.0003294396313616866,0.000717614472460695,0.00045846217539411864,8.120210688879422e-05,-0.0013410515397903184,0.0,0.0,0.0,0.0,0.0,0.0,0.0,-0.00016485946080510572,3.3419931371181377e-06,-0.00013258301333340938,0.00020456314490679972,0.00015991614011881539,0.00015949572609796903,-1.1767290814646003e-05,-0.0004918235219195839,1.0620766784977486e-06,-0.0003294396313616866,-0.000717614472460695,-0.00045846217539411864,-8.120210688879422e-05,0.0013410515397903184,0.24825400114059448,11.901697158813477,-1.0410492420196533,-21.741060256958008,-0.4095359444618225,-2.5399813652038574,0.27591270208358765,0
13,0.06049489974975586,-0.24825400114059448,-11.901697158813477,1.0410492420196533,21.741060256958008,0.4095359444618225,2.5399813652038574,-0.27591270208358765,0.0,0.0,0.0,0.0,0.0,0.0,0.0,-0.2448038507461854,0.43177208735884565,-0.17826572454460998,0.4782167743543857,-0.11481689200413521,0.13957123270822613,-0.31638108164320305,0.17304509707988722,-0.4875235888246904,-0.11133851771562796,-1.9465847494935373,0.13344598576737687,2.595390864052836,0.9452563262520051,0.1728802376190821,-0.48752024683155326,-0.11147110072896137,-1.9463801863486305,0.1336059019074957,2.595550359778934,0.9452445589611904,0.0004918235219195839,-1.0620766784977486e-06,0.0003294396313616866,0.000717614472460695,0.00045846217539411864,8.120210688879422e-05,-0.0013410515397903184,0.0,0.0,0.0,0.0,0.0,0.0,0.0,-0.00016485946080510572,3.3419931371181377e-06,-0.00013258301333340938,0.00020456314490679972,0.00015991614011881539,0.00015949572609796903,-1.1767290814646003e-05,-0.0004918235219195839,1.0620766784977486e-06,-0.0003294396313616866,-0.000717614472460695,-0.00045846217539411864,-8.120210688879422e-05,0.0013410515397903184,0.24825400114059448,11.901697158813477,-1.0410492420196533,-21.741060256958008,-0.4095359444618225,-2.5399813652038574,0.27591270208358765,0
14,0.06499910354614258,-0.22445029020309448,-11.901697158813477,0.9934418201446533,21.768831253051758,0.4214377999305725,2.5463900566101074,-0.30978721380233765,0.0,0.0,0.0,0.0,0.0,0.0,0.0,-0.2412580882536952,0.43362035373430996,-0.17241588595795768,0.47491831943872104,-0.11494882565626982,0.13976513141635047,-0.3175285231726702,0.17304461834810733,-0.4875235888246904,-0.11133446882868275,-1.946586698331331,0.1334446641876723,2.5953901520305207,0.9452590458390564,0.1728802376190821,-0.48752024683155326,-0.11147110072896137,-1.9463801863486305,0.1336059019074957,2.595550359778934,0.9452445589611904,9.79787719028799e-05,-0.0002215244052059838,0.0006807073210341652,-0.00020884512420460335,-0.00012659392582620372,-0.0004047546314109779,0.00017860654992686776,0.0,0.0,0.0,0.0,0.0,0.0,0.0,-0.00016438072902522083,3.3419931371181377e-06,-0.00013663190027861372,0.00020651198270038584,0.0001612377198233761,0.0001602077484132991,-1.448687786598235e-05,-9.79787719028799e-05,0.0002215244052059838,-0.0006807073210341652,0.00020884512420460335,0.00012659392582620372,0.0004047546314109779,-0.00017860654992686776,0.22445029020309448,11.901697158813477,-0.9934418201446533,-21.768831253051758,-0.4214377999305725,-2.5463900566101074,0.30978721380233765,0
15,0.06999945640563965,-0.22445029020309448,-11.901697158813477,0.9934418201446533,21.768831253051758,0.4214377999305725,2.5463900566101074,-0.30978721380233765,0.0,0.0,0.0,0.0,0.0,0.0,0.0,-0.2412580882536952,0.43362035373430996,-0.17241588595795768,0.47491831943872104,-0.11494882565626982,0.13976513141635047,-0.3175285231726702,0.17304461834810733,-0.4875235888246904,-0.11133446882868275,-1.946586698331331,0.1334446641876723,2.5953901520305207,0.9452590458390564,0.1728802376190821,-0.48752024683155326,-0.11147110072896137,-1.9463801863486305,0.1336059019074957,2.595550359778934,0.9452445589611904,9.79787719028799e-05,-0.0002215244052059838,0.0006807073210341652,-0.00020884512420460335,-0.00012659392582620372,-0.0004047546314109779,0.00017860654992686776,0.0,0.0,0.0,0.0,0.0,0.0,0.0,-0.00016438072902522083,3.3419931371181377e-06,-0.00013663190027861372,0.00020651198270038584,0.0001612377198233761,0.0001602077484132991,-1.448687786598235e-05,-9.79787719028799e-05,0.0002215244052059838,-0.0006807073210341652,0.00020884512420460335,0.00012659392582620372,0.0004047546314109779,-0.00017860654992686776,0.22445029020309448,11.901697158813477,-0.9934418201446533,-21.768831253051758,-0.4214377999305725,-2.5463900566101074,0.30978721380233765,0
16,0.07500076293945312,-0.2720577120780945,-11.873926162719727,0.9934418201446533,21.768831253051758,0.4095359444618225,2.5335726737976074,-0.35098594427108765,0.0,0.0,0.0,0.0,0.0,0.0,0.0,-0.23821106327015312,0.44308832110042345,-0.1699587625080514,0.466367073568094,-0.11531673265249684,0.1389418045361609,-0.31757115368581085,0.1730457691714741,-0.4875255376665215,-0.11133479039062916,-1.946586698331331,0.13344918604872544,2.5953915761303317,0.9452646729035487,0.1728802376190821,-0.48752024683155326,-0.11147110072896137,-1.9463801863486305,0.1336059019074957,2.595550359778934,0.9452445589611904,0.000238387677246613,-0.00039921966634211454,0.0008922915607511977,-0.000477479126355812,0.00025382035236397137,0.0003023489098097526,0.0013999033025048888,0.0,0.0,0.0,0.0,0.0,0.0,0.0,-0.0001655315523919898,5.290834968252334e-06,-0.00013631033833221007,0.00020651198270038584,0.00015671585877025107,0.00015878364860233418,-2.011394235823527e-05,-0.000238387677246613,0.00039921966634211454,-0.0008922915607511977,0.000477479126355812,-0.00025382035236397137,-0.0003023489098097526,-0.0013999033025048888,0.2720577120780945,11.873926162719727,-0.9934418201446533,-21.768831253051758,-0.4095359444618225,-2.5335726737976074,0.35098594427108765,0
17,0.0800011157989502,-0.2720577120780945,-11.873926162719727,0.9934418201446533,21.768831253051758,0.4095359444618225,2.5335726737976074,-0.35098594427108765,0.0,0.0,0.0,0.0,0.0,0.0,0.0,-0.23821106327015312,0.44308832110042345,-0.1699587625080514,0.466367073568094,-0.11531673265249684,0.1389418045361609,-0.31757115368581085,0.1730457691714741,-0.4875255376665215,-0.11133479039062916,-1.946586698331331,0.13344918604872544,2.5953915761303317,0.9452646729035487,0.1728802376190821,-0.48752024683155326,-0.11147110072896137,-1.9463801863486305,0.1336059019074957,2.595550359778934,0.9452445589611904,0.000238387677246613,-0.00039921966634211454,0.0008922915607511977,-0.000477479126355812,0.00025382035236397137,0.0003023489098097526,0.0013999033025048888,0.0,0.0,0.0,0.0,0.0,0.0,0.0,-0.0001655315523919898,5.290834968252334e-06,-0.00013631033833221007,0.00020651198270038584,0.00015671585877025107,0.00015878364860233418,-2.011394235823527e-05,-0.000238387677246613,0.00039921966634211454,-0.0008922915607511977,0.000477479126355812,-0.00025382035236397137,-0.0003023489098097526,-0.0013999033025048888,0.2720577120780945,11.873926162719727,-0.9934418201446533,-21.768831253051758,-0.4095359444618225,-2.5335726737976074,0.35098594427108765,0
18,0.08500337600708008,-0.24825400114059448,-11.925500869750977,0.9934418201446533,21.741060256958008,0.4150291085243225,2.5271639823913574,-0.28964561223983765,0.0,0.0,0.0,0.0,0.0,0.0,0.0,-0.24224150489335772,0.4308633330653161,-0.17239497130650305,0.4702853480424058,-0.11582880301861907,0.13965304652400795,-0.3179370853503413,0.17304407550178133,-0.48752191838883513,-0.1113344655787249,-1.9465847494894999,0.13344857132731902,2.595392288207154,0.9452569018015448,0.1728802376190821,-0.48752024683155326,-0.11147110072896137,-1.9463801863486305,0.1336059019074957,2.595550359778934,0.9452445589611904,-7.58873538354794e-05,0.00039416176187267375,0.00030492664590653693,0.0006401050521287605,0.00014090067400988397,0.0005579600630546757,-0.00019725113199014092,0.0,0.0,0.0,0.0,0.0,0.0,0.0,-0.00016383788269921928,1.6715572818681856e-06,-0.0001366351502364721,0.00020456314086936267,0.0001573305801766678,0.00015807157177993858,-1.234284035434019e-05,7.58873538354794e-05,-0.00039416176187267375,-0.00030492664590653693,-0.0006401050521287605,-0.00014090067400988397,-0.0005579600630546757,0.00019725113199014092,0.24825400114059448,11.925500869750977,-0.9934418201446533,-21.741060256958008,-0.4150291085243225,-2.5271639823913574,0.28964561223983765,0
19,0.09118795394897461,-0.24825400114059448,-11.925500869750977,0.9934418201446533,21.741060256958008,0.4150291085243225,2.5271639823913574,-0.28964561223983765,0.0,0.0,0.0,0.0,0.0,0.0,0.0,-0.24224150489335772,0.4308633330653161,-0.17239497130650305,0.4702853480424058,-0.11582880301861907,0.13965304652400795,-0.3179370853503413,0.17304407550178133,-0.48752191838883513,-0.1113344655787249,-1.9465847494894999,0.13344857132731902,2.595392288207154,0.9452569018015448,0.1728802376190821,-0.48752024683155326,-0.11147110072896137,-1.9463801863486305,0.1336059019074957,2.595550359778934,0.9452445589611904,-7.58873538354794e-05,0.00039416176187267375,0.00030492664590653693,0.0006401050521287605,0.00014090067400988397,0.0005579600630546757,-0.00019725113199014092,0.0,0.0,0.0,0.0,0.0,0.0,0.0,-0.00016383788269921928,1.6715572818681856e-06,-0.0001366351502364721,0.00020456314086936267,0.0001573305801766678,0.00015807157177993858,-1.234284035434019e-05,7.58873538354794e-05,-0.00039416176187267375,-0.00030492664590653693,-0.0006401050521287605,-0.00014090067400988397,-0.0005579600630546757,0.00019725113199014092,0.24825400114059448,11.925500869750977,-0.9934418201446533,-21.741060256958008,-0.4150291085243225,-2.5271639823913574,0.28964561223983765,0
20,0.09537982940673828,-0.24825400114059448,-11.925500869750977,0.9934418201446533,21.768831253051758,0.4150291085243225,2.5399813652038574,-0.34457725286483765,0.0,0.0,0.0,0.0,0.0,0.0,0.0,-0.24282385910483203,0.43355566913205384,-0.17614455375174706,0.4676838264389472,-0.11624630124367981,0.13903010348314238,-0.3168047775495718,0.17304690808952272,-0.48752191838883513,-0.11133446557689132,-1.946586698331331,0.1334485623347981,2.5953908641073435,0.9452630443247952,0.1728802376190821,-0.48752024683155326,-0.11147110072896137,-1.9463801863486305,0.1336059019074957,2.595550359778934,0.9452445589611904,0.0002847941931533828,0.0005405104573823284,-0.0002409575135260056,-0.0004052526247770904,-0.00010378466174598079,8.508385137220394e-05,0.0011689959628230534,0.0,0.0,0.0,0.0,0.0,0.0,0.0,-0.00016667047044061079,1.6715572818681856e-06,-0.00013663515207004706,0.00020651198270038584,0.00015733957269759014,0.0001594956715904594,-1.8485363604825444e-05,-0.0002847941931533828,-0.0005405104573823284,0.0002409575135260056,0.0004052526247770904,0.00010378466174598079,-8.508385137220394e-05,-0.0011689959628230534,0.24825400114059448,11.925500869750977,-0.9934418201446533,-21.768831253051758,-0.4150291085243225,-2.5399813652038574,0.34457725286483765,0
21,0.1000051498413086,-0.24825400114059448,-11.925500869750977,0.9934418201446533,21.768831253051758,0.4150291085243225,2.5399813652038574,-0.34457725286483765,0.0,0.0,0.0,0.0,0.0,0.0,0.0,-0.24282385910483203,0.43355566913205384,-0.17614455375174706,0.4676838264389472,-0.11624630124367981,0.13903010348314238,-0.3168047775495718,0.17304690808952272,-0.48752191838883513,-0.11133446557689132,-1.946586698331331,0.1334485623347981,2.5953908641073435,0.9452630443247952,0.1728802376190821,-0.48752024683155326,-0.11147110072896137,-1.9463801863486305,0.1336059019074957,2.595550359778934,0.9452445589611904,0.0002847941931533828,0.0005405104573823284,-0.0002409575135260056,-0.0004052526247770904,-0.00010378466174598079,8.508385137220394e-05,0.0011689959628230534,0.0,0.0,0.0,0.0,0.0,0.0,0.0,-0.00016667047044061079,1.6715572818681856e-06,-0.00013663515207004706,0.00020651198270038584,0.00015733957269759014,0.0001594956715904594,-1.8485363604825444e-05,-0.0002847941931533828,-0.0005405104573823284,0.0002409575135260056,0.0004052526247770904,0.00010378466174598079,-8.508385137220394e-05,-0.0011689959628230534,0.24825400114059448,11.925500869750977,-0.9934418201446533,-21.768831253051758,-0.4150291085243225,-2.5399813652038574,0.34457725286483765,0
22,0.10500621795654297,-0.24825400114059448,-11.925500869750977,0.9934418201446533,21.768831253051758,0.4150291085243225,2.5399813652038574,-0.34457725286483765,0.0,0.0,0.0,0.0,0.0,0.0,0.0,-0.24282385910483203,0.43355566913205384,-0.17614455375174706,0.4676838264389472,-0.11624630124367981,0.13903010348314238,-0.3168047775495718,0.17304690808952272,-0.48752191838883513,-0.11133446557689132,-1.946586698331331,0.1334485623347981,2.5953908641073435,0.9452630443247952,0.1728802376190821,-0.48752024683155326,-0.11147110072896137,-1.9463801863486305,0.1336059019074957,2.595550359778934,0.9452445589611904,0.0002847941931533828,0.0005405104573823284,-0.0002409575135260056,-0.0004052526247770904,-0.00010378466174598079,8.508385137220394e-05,0.0011689959628230534,0.0,0.0,0.0,0.0,0.0,0.0,0.0,-0.00016667047044061079,1.6715572818681856e-06,-0.00013663515207004706,0.00020651198270038584,0.00015733957269759014,0.0001594956715904594,-1.8485363604825444e-05,-0.0002847941931533828,-0.0005405104573823284,0.0002409575135260056,0.0004052526247770904,0.00010378466174598079,-8.508385137220394e-05,-0.0011689959628230534,0.24825400114059448,11.925500869750977,-0.9934418201446533,-21.768831253051758,-0.4150291085243225,-2.5399813652038574,0.34457725286483765,0
23,0.11000394821166992,-0.24825400114059448,-11.925500869750977,0.9934418201446533,21.768831253051758,0.4150291085243225,2.5399813652038574,-0.34457725286483765,0.0,0.0,0.0,0.0,0.0,0.0,0.0,-0.24282385910483203,0.43355566913205384,-0.17614455375174706,0.4676838264389472,-0.11624630124367981,0.13903010348314238,-0.3168047775495718,0.17304690808952272,-0.48752191838883513,-0.11133446557689132,-1.946586698331331,0.1334485623347981,2.5953908641073435,0.9452630443247952,0.1728802376190821,-0.48752024683155326,-0.11147110072896137,-1.9463801863486305,0.1336059019074957,2.595550359778934,0.9452445589611904,0.0002847941931533828,0.0005405104573823284,-0.0002409575135260056,-0.0004052526247770904,-0.00010378466174598079,8.508385137220394e-05,0.0011689959628230534,0.0,0.0,0.0,0.0,0.0,0.0,0.0,-0.00016667047044061079,1.6715572818681856e-06,-0.00013663515207004706,0.00020651198270038584,0.00015733957269759014,0.0001594956715904594,-1.8485363604825444e-05,-0.0002847941931533828,-0.0005405104573823284,0.0002409575135260056,0.0004052526247770904,0.00010378466174598079,-8.508385137220394e-05,-0.0011689959628230534,0.24825400114059448,11.925500869750977,-0.9934418201446533,-21.768831253051758,-0.4150291085243225,-2.5399813652038574,0.34457725286483765,0
24,0.11499881744384766,-0.24825400114059448,-11.873926162719727,0.9934418201446533,21.768831253051758,0.4150291085243225,2.5335726737976074,-0.32352012395858765,0.0,0.0,0.0,0.0,0.0,0.0,0.0,-0.24532611052571363,0.4341129729363809,-0.18551928601832263,0.4689798565923411,-0.116517661554981,0.13918651549597608,-0.31725265958725174,0.17304693424317252,-0.4875255376665215,-0.11133470233978583,-1.946586698331331,0.13344853622400515,2.595391576184167,0.9452616716371693,0.1728802376190821,-0.48752024683155326,-0.11147110072896137,-1.9463801863486305,0.1336059019074957,2.595550359778934,0.9452445589611904,-0.0005707144241332251,-0.000536583629670768,-0.00015088794351845875,0.00011689775006219638,8.99513103493877e-05,0.00016875364576133492,0.0007468328228188616,0.0,0.0,0.0,0.0,0.0,0.0,0.0,-0.0001666966240904122,5.290834968252334e-06,-0.00013639838917553493,0.00020651198270038584,0.0001573656834905346,0.00015878359476717563,-1.7112675978925296e-05,0.0005707144241332251,0.000536583629670768,0.00015088794351845875,-0.00011689775006219638,-8.99513103493877e-05,-0.00016875364576133492,-0.0007468328228188616,0.24825400114059448,11.873926162719727,-0.9934418201446533,-21.768831253051758,-0.4150291085243225,-2.5335726737976074,0.32352012395858765,0
25,0.11999917030334473,-0.24825400114059448,-11.873926162719727,0.9934418201446533,21.768831253051758,0.4150291085243225,2.5335726737976074,-0.32352012395858765,0.0,0.0,0.0,0.0,0.0,0.0,0.0,-0.24532611052571363,0.4341129729363809,-0.18551928601832263,0.4689798565923411,-0.116517661554981,0.13918651549597608,-0.31725265958725174,0.17304693424317252,-0.4875255376665215,-0.11133470233978583,-1.946586698331331,0.13344853622400515,2.595391576184167,0.9452616716371693,0.1728802376190821,-0.48752024683155326,-0.11147110072896137,-1.9463801863486305,0.1336059019074957,2.595550359778934,0.9452445589611904,-0.0005707144241332251,-0.000536583629670768,-0.00015088794351845875,0.00011689775006219638,8.99513103493877e-05,0.00016875364576133492,0.0007468328228188616,0.0,0.0,0.0,0.0,0.0,0.0,0.0,-0.0001666966240904122,5.290834968252334e-06,-0.00013639838917553493,0.00020651198270038584,0.0001573656834905346,0.00015878359476717563,-1.7112675978925296e-05,0.0005707144241332251,0.000536583629670768,0.00015088794351845875,-0.00011689775006219638,-8.99513103493877e-05,-0.00016875364576133492,-0.0007468328228188616,0.24825400114059448,11.873926162719727,-0.9934418201446533,-21.768831253051758,-0.4150291085243225,-2.5335726737976074,0.32352012395858765,0
26,0.1250014305114746,-0.22445029020309448,-11.850122451782227,0.9934418201446533,21.792634963989258,0.4214377999305725,2.5335726737976074,-0.31711143255233765,0.0,0.0,0.0,0.0,0.0,0.0,0.0,-0.24326546994262818,0.4323276714836434,-0.1782587429132586,0.4703887476461474,-0.11693213514310456,0.1387181010597967,-0.3169238974110903,0.17304242829263736,-0.48752720810237676,-0.11133446568559603,-1.946588368767186,0.1334478636383267,2.5953883972697787,0.9452610439517641,0.1728802376190821,-0.48752024683155326,-0.11147110072896137,-1.9463801863486305,0.1336059019074957,2.595550359778934,0.9452445589611904,-0.0008768716337922934,-0.0011797066385416985,0.00048644473650004817,-0.000635861918223324,-0.00022322303095449167,0.0003870247853599477,0.0009004775044188534,0.0,0.0,0.0,0.0,0.0,0.0,0.0,-0.00016219067355524586,6.961270823502286e-06,-0.00013663504336533516,0.00020818241855558028,0.00015803826916899189,0.0001619625091553445,-1.648499057371744e-05,0.0008768716337922934,0.0011797066385416985,-0.00048644473650004817,0.000635861918223324,0.00022322303095449167,-0.0003870247853599477,-0.0009004775044188534,0.22445029020309448,11.850122451782227,-0.9934418201446533,-21.792634963989258,-0.4214377999305725,-2.5335726737976074,0.31711143255233765,0
27,0.12999963760375977,-0.22445029020309448,-11.850122451782227,0.9934418201446533,21.792634963989258,0.4214377999305725,2.5335726737976074,-0.31711143255233765,0.0,0.0,0.0,0.0,0.0,0.0,0.0,-0.24326546994262818,0.4323276714836434,-0.1782587429132586,0.4703887476461474,-0.11693213514310456,0.1387181010597967,-0.3169238974110903,0.17304242829263736,-0.48752720810237676,-0.11133446568559603,-1.946588368767186,0.1334478636383267,2.5953883972697787,0.9452610439517641,0.1728802376190821,-0.48752024683155326,-0.11147110072896137,-1.9463801863486305,0.1336059019074957,2.595550359778934,0.9452445589611904,-0.0008768716337922934,-0.0011797066385416985,0.00048644473650004817,-0.000635861918223324,-0.00022322303095449167,0.0003870247853599477,0.0009004775044188534,0.0,0.0,0.0,0.0,0.0,0.0,0.0,-0.00016219067355524586,6.961270823502286e-06,-0.00013663504336533516,0.00020818241855558028,0.00015803826916899189,0.0001619625091553445,-1.648499057371744e-05,0.0008768716337922934,0.0011797066385416985,-0.00048644473650004817,0.000635861918223324,0.00022322303095449167,-0.0003870247853599477,-0.0009004775044188534,0.22445029020309448,11.850122451782227,-0.9934418201446533,-21.792634963989258,-0.4214377999305725,-2.5335726737976074,0.31711143255233765,0
28,0.13499784469604492,-0.2720577120780945,-11.850122451782227,1.0688202381134033,21.768831253051758,0.4214377999305725,2.5463900566101074,-0.32352012395858765,0.0,0.0,0.0,0.0,0.0,0.0,0.0,-0.24819624312954366,0.4326018552100121,-0.1840952716261224,0.4734867555033547,-0.11682816365615842,0.13916481684736573,-0.3159079680692156,0.17304600839430287,-0.48752720810237676,-0.11134191246347258,-1.946586698331331,0.13344679737753337,2.5953901505590258,0.9452605303881289,0.1728802376190821,-0.48752024683155326,-0.11147110072896137,-1.9463801863486305,0.1336059019074957,2.595550359778934,0.9452445589611904,0.0005960575470396943,-0.0007351112743527853,-0.0011229414013626015,7.142887626815397e-05,-0.00030288230045144365,-0.00032904194899163026,0.00020156126827012438,0.0,0.0,0.0,0.0,0.0,0.0,0.0,-0.00016577077522075823,6.961270823502286e-06,-0.00012918826548878604,0.00020651198270038584,0.00015910452996231728,0.000160209219908225,-1.5971426938432565e-05,-0.0005960575470396943,0.0007351112743527853,0.0011229414013626015,-7.142887626815397e-05,0.00030288230045144365,0.00032904194899163026,-0.00020156126827012438,0.2720577120780945,11.850122451782227,-1.0688202381134033,-21.768831253051758,-0.4214377999305725,-2.5463900566101074,0.32352012395858765,0
29,0.1399986743927002,-0.2720577120780945,-11.850122451782227,1.0688202381134033,21.768831253051758,0.4214377999305725,2.5463900566101074,-0.32352012395858765,0.0,0.0,0.0,0.0,0.0,0.0,0.0,-0.24819624312954366,0.4326018552100121,-0.1840952716261224,0.4734867555033547,-0.11682816365615842,0.13916481684736573,-0.3159079680692156,0.17304600839430287,-0.48752720810237676,-0.11134191246347258,-1.946586698331331,0.13344679737753337,2.5953901505590258,0.9452605303881289,0.1728802376190821,-0.48752024683155326,-0.11147110072896137,-1.9463801863486305,0.1336059019074957,2.595550359778934,0.9452445589611904,0.0005960575470396943,-0.0007351112743527853,-0.0011229414013626015,7.142887626815397e-05,-0.00030288230045144365,-0.00032904194899163026,0.00020156126827012438,0.0,0.0,0.0,0.0,0.0,0.0,0.0,-0.00016577077522075823,6.961270823502286e-06,-0.00012918826548878604,0.00020651198270038584,0.00015910452996231728,0.000160209219908225,-1.5971426938432565e-05,-0.0005960575470396943,0.0007351112743527853,0.0011229414013626015,-7.142887626815397e-05,0.00030288230045144365,0.00032904194899163026,-0.00020156126827012438,0.2720577120780945,11.850122451782227,-1.0688202381134033,-21.768831253051758,-0.4214377999305725,-2.5463900566101074,0.32352012395858765,0
30,0.1457374095916748,-0.22445029020309448,-11.850122451782227,1.0410492420196533,21.717256546020508,0.4150291085243225,2.5463900566101074,-0.27591270208358765,0.0,0.0,0.0,0.0,0.0,0.0,0.0,-0.24826059581384655,0.4404549426421478,-0.18449581617558575,0.470348257581445,-0.11690891319901793,0.13876370603694155,-0.3172994577162294,0.17304523693510332,-0.48752720810237676,-0.11133780938377782,-1.9465833174722236,0.13344857570920488,2.5953859134779953,0.9452586780071396,0.1728802376190821,-0.48752024683155326,-0.11147110072896137,-1.9463801863486305,0.1336059019074957,2.595550359778934,0.9452445589611904,-0.0007552046014337011,-0.0004795509797831295,-0.00011444391034929348,0.0009987116275857984,0.00013098873627304363,-0.0003038822949071103,-0.0010968414274184451,0.0,0.0,0.0,0.0,0.0,0.0,0.0,-0.0001649993160212082,6.961270823502286e-06,-0.00013329134518354213,0.00020313112359304775,0.00015732619829081362,0.00016444630093870316,-1.4119045949168019e-05,0.0007552046014337011,0.0004795509797831295,0.00011444391034929348,-0.0009987116275857984,-0.00013098873627304363,0.0003038822949071103,0.0010968414274184451,0.22445029020309448,11.850122451782227,-1.0410492420196533,-21.717256546020508,-0.4150291085243225,-2.5463900566101074,0.27591270208358765,0
31,0.15002870559692383,-0.22445029020309448,-11.850122451782227,1.0410492420196533,21.717256546020508,0.4150291085243225,2.5463900566101074,-0.27591270208358765,0.0,0.0,0.0,0.0,0.0,0.0,0.0,-0.24826059581384655,0.4404549426421478,-0.18449581617558575,0.470348257581445,-0.11690891319901793,0.13876370603694155,-0.3172994577162294,0.17304523693510332,-0.48752720810237676,-0.11133780938377782,-1.9465833174722236,0.13344857570920488,2.5953859134779953,0.9452586780071396,0.1728802376190821,-0.48752024683155326,-0.11147110072896137,-1.9463801863486305,0.1336059019074957,2.595550359778934,0.9452445589611904,-0.0007552046014337011,-0.0004795509797831295,-0.00011444391034929348,0.0009987116275857984,0.00013098873627304363,-0.0003038822949071103,-0.0010968414274184451,0.0,0.0,0.0,0.0,0.0,0.0,0.0,-0.0001649993160212082,6.961270823502286e-06,-0.00013329134518354213,0.00020313112359304775,0.00015732619829081362,0.00016444630093870316,-1.4119045949168019e-05,0.0007552046014337011,0.0004795509797831295,0.00011444391034929348,-0.0009987116275857984,-0.00013098873627304363,0.0003038822949071103,0.0010968414274184451,0.22445029020309448,11.850122451782227,-1.0410492420196533,-21.717256546020508,-0.4150291085243225,-2.5463900566101074,0.27591270208358765,0
32,0.15500116348266602,-0.22445029020309448,-11.850122451782227,1.0410492420196533,21.717256546020508,0.4150291085243225,2.5463900566101074,-0.27591270208358765,0.0,0.0,0.0,0.0,0.0,0.0,0.0,-0.24826059581384655,0.4404549426421478,-0.18449581617558575,0.470348257581445,-0.11690891319901793,0.13876370603694155,-0.3172994577162294,0.17304523693510332,-0.48752720810237676,-0.11133780938377782,-1.9465833174722236,0.13344857570920488,2.5953859134779953,0.9452586780071396,0.1728802376190821,-0.48752024683155326,-0.11147110072896137,-1.9463801863486305,0.1336059019074957,2.595550359778934,0.9452445589611904,-0.0007552046014337011,-0.0004795509797831295,-0.00011444391034929348,0.0009987116275857984,0.00013098873627304363,-0.0003038822949071103,-0.0010968414274184451,0.0,0.0,0.0,0.0,0.0,0.0,0.0,-0.0001649993160212082,6.961270823502286e-06,-0.00013329134518354213,0.00020313112359304775,0.00015732619829081362,0.00016444630093870316,-1.4119045949168019e-05,0.0007552046014337011,0.0004795509797831295,0.00011444391034929348,-0.0009987116275857984,-0.00013098873627304363,0.0003038822949071103,0.0010968414274184451,0.22445029020309448,11.850122451782227,-1.0410492420196533,-21.717256546020508,-0.4150291085243225,-2.5463900566101074,0.27591270208358765,0
33,0.16000604629516602,-0.19667929410934448,-11.873926162719727,1.0410492420196533,21.792634963989258,0.4214377999305725,2.5335726737976074,-0.26858848333358765,0.0,0.0,0.0,0.0,0.0,0.0,0.0,-0.24166389162695717,0.4387507843184614,-0.17306931195967873,0.4737086700623287,-0.11685372923943012,0.13983072124026077,-0.3177288332610893,0.17304045613194288,-0.4875255376665215,-0.11133784163286198,-1.946588368768532,0.13344786363840097,2.5953915717995892,0.945255557324474,0.1728802376190821,-0.48752024683155326,-0.11147110072896137,-1.9463801863486305,0.1336059019074957,2.595550359778934,0.9452445589611904,-0.000543892389470249,0.0003359321536353926,0.0002470117040530607,-0.00048728913813967403,-0.00014967783187531808,0.00019940902885462022,-0.0015444495128052718,0.0,0.0,0.0,0.0,0.0,0.0,0.0,-0.00016021851286077138,5.290834968252334e-06,-0.00013325909609938902,0.00020818241990139263,0.00015803826909471796,0.00015878797934476552,-1.0998363283554191e-05,0.000543892389470249,-0.0003359321536353926,-0.0002470117040530607,0.00048728913813967403,0.00014967783187531808,-0.00019940902885462022,0.0015444495128052718,0.19667929410934448,11.873926162719727,-1.0410492420196533,-21.792634963989258,-0.4214377999305725,-2.5335726737976074,0.26858848333358765,0
34,0.16502022743225098,-0.19667929410934448,-11.873926162719727,1.0410492420196533,21.792634963989258,0.4214377999305725,2.5335726737976074,-0.26858848333358765,0.0,0.0,0.0,0.0,0.0,0.0,0.0,-0.24166389162695717,0.4387507843184614,-0.17306931195967873,0.4737086700623287,-0.11685372923943012,0.13983072124026077,-0.3177288332610893,0.17304045613194288,-0.4875255376665215,-0.11133784163286198,-1.946588368768532,0.13344786363840097,2.5953915717995892,0.945255557324474,0.1728802376190821,-0.48752024683155326,-0.11147110072896137,-1.9463801863486305,0.1336059019074957,2.595550359778934,0.9452445589611904,-0.000543892389470249,0.0003359321536353926,0.0002470117040530607,-0.00048728913813967403,-0.00014967783187531808,0.00019940902885462022,-0.0015444495128052718,0.0,0.0,0.0,0.0,0.0,0.0,0.0,-0.00016021851286077138,5.290834968252334e-06,-0.00013325909609938902,0.00020818241990139263,0.00015803826909471796,0.00015878797934476552,-1.0998363283554191e-05,0.000543892389470249,-0.0003359321536353926,-0.0002470117040530607,0.00048728913813967403,0.00014967783187531808,-0.00019940902885462022,0.0015444495128052718,0.19667929410934448,11.873926162719727,-1.0410492420196533,-21.792634963989258,-0.4214377999305725,-2.5335726737976074,0.26858848333358765,0
35,0.17000532150268555,-0.22445029020309448,-11.873926162719727,1.0172455310821533,21.741060256958008,0.4150291085243225,2.5399813652038574,-0.26217979192733765,0.0,0.0,0.0,0.0,0.0,0.0,0.0,-0.24310845255153096,0.4329711953124208,-0.1755651421817035,0.47874023241227226,-0.11634487117505354,0.140345294585335,-0.3164669500570343,0.1730431382163503,-0.4875255376665215,-0.11133829318598418,-1.9465847494894999,0.13344822029493472,2.595390864107319,0.9452571335937738,0.1728802376190821,-0.48752024683155326,-0.11147110072896137,-1.9463801863486305,0.1336059019074957,2.595550359778934,0.9452445589611904,-0.0003697164496792632,-0.00040265246805978985,0.0006937951328139793,0.0006955291884190442,7.504631093548352e-05,-8.831864091157056e-05,-0.001978933434627128,0.0,0.0,0.0,0.0,0.0,0.0,0.0,-0.00016290059726820072,5.290834968252334e-06,-0.00013280754297718966,0.00020456314086936267,0.00015768161256096702,0.00015949567161488432,-1.2574632583417511e-05,0.0003697164496792632,0.00040265246805978985,-0.0006937951328139793,-0.0006955291884190442,-7.504631093548352e-05,8.831864091157056e-05,0.001978933434627128,0.22445029020309448,11.873926162719727,-1.0172455310821533,-21.741060256958008,-0.4150291085243225,-2.5399813652038574,0.26217979192733765,0
36,0.17499876022338867,-0.22445029020309448,-11.873926162719727,1.0172455310821533,21.741060256958008,0.4150291085243225,2.5399813652038574,-0.26217979192733765,0.0,0.0,0.0,0.0,0.0,0.0,0.0,-0.24310845255153096,0.4329711953124208,-0.1755651421817035,0.47874023241227226,-0.11634487117505354,0.140345294585335,-0.3164669500570343,0.1730431382163503,-0.4875255376665215,-0.11133829318598418,-1.9465847494894999,0.13344822029493472,2.595390864107319,0.9452571335937738,0.1728802376190821,-0.48752024683155326,-0.11147110072896137,-1.9463801863486305,0.1336059019074957,2.595550359778934,0.9452445589611904,-0.0003697164496792632,-0.00040265246805978985,0.0006937951328139793,0.0006955291884190442,7.504631093548352e-05,-8.831864091157056e-05,-0.001978933434627128,0.0,0.0,0.0,0.0,0.0,0.0,0.0,-0.00016290059726820072,5.290834968252334e-06,-0.00013280754297718966,0.00020456314086936267,0.00015768161256096702,0.00015949567161488432,-1.2574632583417511e-05,0.0003697164496792632,0.00040265246805978985,-0.0006937951328139793,-0.0006955291884190442,-7.504631093548352e-05,8.831864091157056e-05,0.001978933434627128,0.22445029020309448,11.873926162719727,-1.0172455310821533,-21.741060256958008,-0.4150291085243225,-2.5399813652038574,0.26217979192733765,0
37,0.18000030517578125,-0.24825400114059448,-11.901697158813477,1.0172455310821533,21.792634963989258,0.4214377999305725,2.5463900566101074,-0.31711143255233765,0.0,0.0,0.0,0.0,0.0,0.0,0.0,-0.24387449224313118,0.43653812283593707,-0.17971408544975928,0.47689488853815054,-0.11590543461959867,0.14016486459827088,-0.31604693326929384,0.17304479094321992,-0.4875235888246904,-0.11133616233191214,-1.946588368767186,0.13344786363639466,2.5953901518690157,0.9452603051311225,0.1728802376190821,-0.48752024683155326,-0.11147110072896137,-1.9463801863486305,0.1336059019074957,2.595550359778934,0.9452445589611904,0.00048222539796734536,-0.0002230931307996044,-0.00043374912897887433,-0.0006333612552578709,8.09916082729788e-05,-0.00017560040572338594,0.0005703595113500857,0.0,0.0,0.0,0.0,0.0,0.0,0.0,-0.00016455332413781165,3.3419931371181377e-06,-0.00013493839704922794,0.00020818241855558028,0.00015803827110102975,0.00016020790991833067,-1.574616993205158e-05,-0.00048222539796734536,0.0002230931307996044,0.00043374912897887433,0.0006333612552578709,-8.09916082729788e-05,0.00017560040572338594,-0.0005703595113500857,0.24825400114059448,11.901697158813477,-1.0172455310821533,-21.792634963989258,-0.4214377999305725,-2.5463900566101074,0.31711143255233765,0
38,0.18499994277954102,-0.24825400114059448,-11.901697158813477,1.0172455310821533,21.792634963989258,0.4214377999305725,2.5463900566101074,-0.31711143255233765,0.0,0.0,0.0,0.0,0.0,0.0,0.0,-0.24387449224313118,0.43653812283593707,-0.17971408544975928,0.47689488853815054,-0.11590543461959867,0.14016486459827088,-0.31604693326929384,0.17304479094321992,-0.4875235888246904,-0.11133616233191214,-1.946588368767186,0.13344786363639466,2.5953901518690157,0.9452603051311225,0.1728802376190821,-0.48752024683155326,-0.11147110072896137,-1.9463801863486305,0.1336059019074957,2.595550359778934,0.9452445589611904,0.00048222539796734536,-0.0002230931307996044,-0.00043374912897887433,-0.0006333612552578709,8.09916082729788e-05,-0.00017560040572338594,0.0005703595113500857,0.0,0.0,0.0,0.0,0.0,0.0,0.0,-0.00016455332413781165,3.3419931371181377e-06,-0.00013493839704922794,0.00020818241855558028,0.00015803827110102975,0.00016020790991833067,-1.574616993205158e-05,-0.00048222539796734536,0.0002230931307996044,0.00043374912897887433,0.0006333612552578709,-8.09916082729788e-05,0.00017560040572338594,-0.0005703595113500857,0.24825400114059448,11.901697158813477,-1.0172455310821533,-21.792634963989258,-0.4214377999305725,-2.5463900566101074,0.31711143255233765,0
39,0.18999552726745605,-0.2720577120780945,-11.873926162719727,1.0172455310821533,21.741060256958008,0.4150291085243225,2.5463900566101074,-0.29605430364608765,0.0,0.0,0.0,0.0,0.0,0.0,0.0,-0.2388312919227989,0.43850233655938387,-0.17418322653126608,0.47571260673946647,-0.11576477685634937,0.14042486230397733,-0.3154202732437165,0.1730458229864366,-0.4875255376665215,-0.11133614770488992,-1.9465847494894999,0.13344857571522392,2.5953901520305203,0.9452579652680386,0.1728802376190821,-0.48752024683155326,-0.11147110072896137,-1.9463801863486305,0.1336059019074957,2.595550359778934,0.9452445589611904,0.00040085690546164164,-0.0008092252440999933,-0.0002551174358317864,0.0008769015648878378,0.0001308218630083898,-0.00012684163424999575,-0.000439657616240707,0.0,0.0,0.0,0.0,0.0,0.0,0.0,-0.00016558536735447604,5.290834968252334e-06,-0.00013495302407144638,0.00020456314086936267,0.00015732619227176725,0.0001602077484137432,-1.3406306848207095e-05,-0.00040085690546164164,0.0008092252440999933,0.0002551174358317864,-0.0008769015648878378,-0.0001308218630083898,0.00012684163424999575,0.000439657616240707,0.2720577120780945,11.873926162719727,-1.0172455310821533,-21.741060256958008,-0.4150291085243225,-2.5463900566101074,0.29605430364608765,0
40,0.19499707221984863,-0.2720577120780945,-11.873926162719727,1.0172455310821533,21.741060256958008,0.4150291085243225,2.5463900566101074,-0.29605430364608765,0.0,0.0,0.0,0.0,0.0,0.0,0.0,-0.2388312919227989,0.43850233655938387,-0.17418322653126608,0.47571260673946647,-0.11576477685634937,0.14042486230397733,-0.3154202732437165,0.1730458229864366,-0.4875255376665215,-0.11133614770488992,-1.9465847494894999,0.13344857571522392,2.5953901520305203,0.9452579652680386,0.1728802376190821,-0.48752024683155326,-0.11147110072896137,-1.9463801863486305,0.1336059019074957,2.595550359778934,0.9452445589611904,0.00040085690546164164,-0.0008092252440999933,-0.0002551174358317864,0.0008769015648878378,0.0001308218630083898,-0.00012684163424999575,-0.000439657616240707,0.0,0.0,0.0,0.0,0.0,0.0,0.0,-0.00016558536735447604,5.290834968252334e-06,-0.00013495302407144638,0.00020456314086936267,0.00015732619227176725,0.0001602077484137432,-1.3406306848207095e-05,-0.00040085690546164164,0.0008092252440999933,0.0002551174358317864,-0.0008769015648878378,-0.0001308218630083898,0.00012684163424999575,0.000439657616240707,0.2720577120780945,11.873926162719727,-1.0172455310821533,-21.741060256958008,-0.4150291085243225,-2.5463900566101074,0.29605430364608765,0
41,0.1999974250793457,-0.19667929410934448,-11.901697158813477,0.9418671131134033,21.768831253051758,0.4095359444618225,2.5335726737976074,-0.33725303411483765,0.0,0.0,0.0,0.0,0.0,0.0,0.0,-0.2438088171350863,0.4372965528129075,-0.17834323340441888,0.47155421951107207,-0.11583391189142558,0.1397197573497399,-0.3143950420588371,0.17304117349764506,-0.4875235888246904,-0.11133084662400453,-1.946586698331331,0.1334491860667864,2.59539157569965,0.945262062330948,0.1728802376190821,-0.48752024683155326,-0.11147110072896137,-1.9463801863486305,0.1336059019074957,2.595550359778934,0.9452445589611904,-0.0013844067656254304,-0.00022887647412954938,0.0012450008654908815,-0.0004186694005964941,0.00023594335462910252,0.0001734181736630288,0.0014520803865402882,0.0,0.0,0.0,0.0,0.0,0.0,0.0,-0.00016093587856294556,3.3419931371181377e-06,-0.0001402541049568412,0.00020651198270038584,0.00015671584070928168,0.0001587840792840467,-1.7503369757587706e-05,0.0013844067656254304,0.00022887647412954938,-0.0012450008654908815,0.0004186694005964941,-0.00023594335462910252,-0.0001734181736630288,-0.0014520803865402882,0.19667929410934448,11.901697158813477,-0.9418671131134033,-21.768831253051758,-0.4095359444618225,-2.5335726737976074,0.33725303411483765,0
42,0.20499873161315918,-0.19667929410934448,-11.901697158813477,0.9418671131134033,21.768831253051758,0.4095359444618225,2.5335726737976074,-0.33725303411483765,0.0,0.0,0.0,0.0,0.0,0.0,0.0,-0.2438088171350863,0.4372965528129075,-0.17834323340441888,0.47155421951107207,-0.11583391189142558,0.1397197573497399,-0.3143950420588371,0.17304117349764506,-0.4875235888246904,-0.11133084662400453,-1.946586698331331,0.1334491860667864,2.59539157569965,0.945262062330948,0.1728802376190821,-0.48752024683155326,-0.11147110072896137,-1.9463801863486305,0.1336059019074957,2.595550359778934,0.9452445589611904,-0.0013844067656254304,-0.00022887647412954938,0.0012450008654908815,-0.0004186694005964941,0.00023594335462910252,0.0001734181736630288,0.0014520803865402882,0.0,0.0,0.0,0.0,0.0,0.0,0.0,-0.00016093587856294556,3.3419931371181377e-06,-0.0001402541049568412,0.00020651198270038584,0.00015671584070928168,0.0001587840792840467,-1.7503369757587706e-05,0.0013844067656254304,0.00022887647412954938,-0.0012450008654908815,0.0004186694005964941,-0.00023594335462910252,-0.0001734181736630288,-0.0014520803865402882,0.19667929410934448,11.901697158813477,-0.9418671131134033,-21.768831253051758,-0.4095359444618225,-2.5335726737976074,0.33725303411483765,0
43,0.20999932289123535,-0.24825400114059448,-11.901697158813477,0.9934418201446533,21.768831253051758,0.4150291085243225,2.5399813652038574,-0.28964561223983765,0.0,0.0,0.0,0.0,0.0,0.0,0.0,-0.24512942571668728,0.4394547143175696,-0.18147606384063864,0.4693361096495263,-0.11642182357692797,0.13952427912009122,-0.31459313953550755,0.17304620129668935,-0.4875235888246904,-0.11133454547219088,-1.946586698331331,0.1334485581636047,2.595387685192953,0.9452571683200097,0.1728802376190821,-0.48752024683155326,-0.11147110072896137,-1.9463801863486305,0.1336059019074957,2.595550359778934,0.9452445589611904,-7.973393496825268e-05,0.0006505543119834995,8.904180604097298e-05,9.810963168097567e-05,8.206617904885719e-05,0.00022470802576229896,-0.0007268553793329179,0.0,0.0,0.0,0.0,0.0,0.0,0.0,-0.0001659636776072393,3.3419931371181377e-06,-0.0001365552567704903,0.00020651198270038584,0.00015734374389098083,0.00016267458598084872,-1.2609358819304362e-05,7.973393496825268e-05,-0.0006505543119834995,-8.904180604097298e-05,-9.810963168097567e-05,-8.206617904885719e-05,-0.00022470802576229896,0.0007268553793329179,0.24825400114059448,11.901697158813477,-0.9934418201446533,-21.768831253051758,-0.4150291085243225,-2.5399813652038574,0.28964561223983765,0
44,0.2149980068206787,-0.24825400114059448,-11.901697158813477,0.9934418201446533,21.768831253051758,0.4150291085243225,2.5399813652038574,-0.28964561223983765,0.0,0.0,0.0,0.0,0.0,0.0,0.0,-0.24512942571668728,0.4394547143175696,-0.18147606384063864,0.4693361096495263,-0.11642182357692797,0.13952427912009122,-0.31459313953550755,0.17304620129668935,-0.4875235888246904,-0.11133454547219088,-1.946586698331331,0.1334485581636047,2.595387685192953,0.9452571683200097,0.1728802376190821,-0.48752024683155326,-0.11147110072896137,-1.9463801863486305,0.1336059019074957,2.595550359778934,0.9452445589611904,-7.973393496825268e-05,0.0006505543119834995,8.904180604097298e-05,9.810963168097567e-05,8.206617904885719e-05,0.00022470802576229896,-0.0007268553793329179,0.0,0.0,0.0,0.0,0.0,0.0,0.0,-0.0001659636776072393,3.3419931371181377e-06,-0.0001365552567704903,0.00020651198270038584,0.00015734374389098083,0.00016267458598084872,-1.2609358819304362e-05,7.973393496825268e-05,-0.0006505543119834995,-8.904180604097298e-05,-9.810963168097567e-05,-8.206617904885719e-05,-0.00022470802576229896,0.0007268553793329179,0.24825400114059448,11.901697158813477,-0.9934418201446533,-21.768831253051758,-0.4150291085243225,-2.5399813652038574,0.28964561223983765,0
45,0.2200019359588623,-0.24825400114059448,-11.901697158813477,0.9934418201446533,21.768831253051758,0.4150291085243225,2.5399813652038574,-0.28964561223983765,0.0,0.0,0.0,0.0,0.0,0.0,0.0,-0.24512942571668728,0.4394547143175696,-0.18147606384063864,0.4693361096495263,-0.11642182357692797,0.13952427912009122,-0.31459313953550755,0.17304620129668935,-0.4875235888246904,-0.11133454547219088,-1.946586698331331,0.1334485581636047,2.595387685192953,0.9452571683200097,0.1728802376190821,-0.48752024683155326,-0.11147110072896137,-1.9463801863486305,0.1336059019074957,2.595550359778934,0.9452445589611904,-7.973393496825268e-05,0.0006505543119834995,8.904180604097298e-05,9.810963168097567e-05,8.206617904885719e-05,0.00022470802576229896,-0.0007268553793329179,0.0,0.0,0.0,0.0,0.0,0.0,0.0,-0.0001659636776072393,3.3419931371181377e-06,-0.0001365552567704903,0.00020651198270038584,0.00015734374389098083,0.00016267458598084872,-1.2609358819304362e-05,7.973393496825268e-05,-0.0006505543119834995,-8.904180604097298e-05,-9.810963168097567e-05,-8.206617904885719e-05,-0.00022470802576229896,0.0007268553793329179,0.24825400114059448,11.901697158813477,-0.9934418201446533,-21.768831253051758,-0.4150291085243225,-2.5399813652038574,0.28964561223983765,0
46,0.2250075340270996,-0.24825400114059448,-11.901697158813477,0.9934418201446533,21.768831253051758,0.4150291085243225,2.5399813652038574,-0.28964561223983765,0.0,0.0,0.0,0.0,0.0,0.0,0.0,-0.24512942571668728,0.4394547143175696,-0.18147606384063864,0.4693361096495263,-0.11642182357692797,0.13952427912009122,-0.31459313953550755,0.17304620129668935,-0.4875235888246904,-0.11133454547219088,-1.946586698331331,0.1334485581636047,2.595387685192953,0.9452571683200097,0.1728802376190821,-0.48752024683155326,-0.11147110072896137,-1.9463801863486305,0.1336059019074957,2.595550359778934,0.9452445589611904,-7.973393496825268e-05,0.0006505543119834995,8.904180604097298e-05,9.810963168097567e-05,8.206617904885719e-05,0.00022470802576229896,-0.0007268553793329179,0.0,0.0,0.0,0.0,0.0,0.0,0.0,-0.0001659636776072393,3.3419931371181377e-06,-0.0001365552567704903,0.00020651198270038584,0.00015734374389098083,0.00016267458598084872,-1.2609358819304362e-05,7.973393496825268e-05,-0.0006505543119834995,-8.904180604097298e-05,-9.810963168097567e-05,-8.206617904885719e-05,-0.00022470802576229896,0.0007268553793329179,0.24825400114059448,11.901697158813477,-0.9934418201446533,-21.768831253051758,-0.4150291085243225,-2.5399813652038574,0.28964561223983765,0
47,0.23080945014953613,-0.2998287081718445,-11.925500869750977,0.9696381092071533,21.768831253051758,0.4269309639930725,2.5399813652038574,-0.30978721380233765,0.0,0.0,0.0,0.0,0.0,0.0,0.0,-0.2468545685834062,0.43801184287813394,-0.18382678011765707,0.4693850513330108,-0.11681671110804889,0.13992740572095344,-0.3155276254146171,0.17305055300482558,-0.48752191838883513,-0.11133279546596402,-1.946586698331331,0.1334472532868055,2.595387685186974,0.9452590637675313,0.1728802376190821,-0.48752024683155326,-0.11147110072896137,-1.9463801863486305,0.1336059019074957,2.595550359778934,0.9452445589611904,0.0008865199514192649,0.0010532385490467553,0.0007282316390267794,-0.00011788990379985993,-0.00012327629343083875,1.5660144113346808e-05,0.00037697804081233125,0.0,0.0,0.0,0.0,0.0,0.0,0.0,-0.00017031538574346916,1.6715572818681856e-06,-0.00013830526299735135,0.00020651198270038584,0.00015864862069017716,0.00016267459196006584,-1.4504806340909226e-05,-0.0008865199514192649,-0.0010532385490467553,-0.0007282316390267794,0.00011788990379985993,0.00012327629343083875,-1.5660144113346808e-05,-0.00037697804081233125,0.2998287081718445,11.925500869750977,-0.9696381092071533,-21.768831253051758,-0.4269309639930725,-2.5399813652038574,0.30978721380233765,0
48,0.23500514030456543,-0.2998287081718445,-11.925500869750977,0.9696381092071533,21.768831253051758,0.4269309639930725,2.5399813652038574,-0.30978721380233765,0.0,0.0,0.0,0.0,0.0,0.0,0.0,-0.2468545685834062,0.43801184287813394,-0.18382678011765707,0.4693850513330108,-0.11681671110804889,0.13992740572095344,-0.3155276254146171,0.17305055300482558,-0.48752191838883513,-0.11133279546596402,-1.946586698331331,0.1334472532868055,2.595387685186974,0.9452590637675313,0.1728802376190821,-0.48752024683155326,-0.11147110072896137,-1.9463801863486305,0.1336059019074957,2.595550359778934,0.9452445589611904,0.0008865199514192649,0.0010532385490467553,0.0007282316390267794,-0.00011788990379985993,-0.00012327629343083875,1.5660144113346808e-05,0.00037697804081233125,0.0,0.0,0.0,0.0,0.0,0.0,0.0,-0.00017031538574346916,1.6715572818681856e-06,-0.00013830526299735135,0.00020651198270038584,0.00015864862069017716,0.00016267459196006584,-1.4504806340909226e-05,-0.0008865199514192649,-0.0010532385490467553,-0.0007282316390267794,0.00011788990379985993,0.00012327629343083875,-1.5660144113346808e-05,-0.00037697804081233125,0.2998287081718445,11.925500869750977,-0.9696381092071533,-21.768831253051758,-0.4269309639930725,-2.5399813652038574,0.30978721380233765,0
49,0.23999762535095215,-0.2720577120780945,-11.901697158813477,1.0410492420196533,21.741060256958008,0.4095359444618225,2.5335726737976074,-0.26858848333358765,0.0,0.0,0.0,0.0,0.0,0.0,0.0,-0.24925575619147278,0.44126609826033153,-0.1835385033597927,0.46897070747283376,-0.11602923910291503,0.1399093580929006,-0.3158608680285069,0.17304575297408603,-0.4875235888246904,-0.11133806951848646,-1.9465847494894999,0.1334491860667864,2.595391575681705,0.945254548540188,0.1728802376190821,-0.48752024683155326,-0.11147110072896137,-1.9463801863486305,0.1336059019074957,2.595550359778934,0.9452445589611904,0.0003047593371834542,0.0005650044325731358,-0.0007351189646261489,0.0006470817384317647,0.0004602499220648523,0.00010027258895883063,-0.002072836113354538,0.0,0.0,0.0,0.0,0.0,0.0,0.0,-0.00016551535500392012,3.3419931371181377e-06,-0.00013303121047490707,0.00020456314086936267,0.00015671584070928168,0.0001587840972288035,-9.989578997560145e-06,-0.0003047593371834542,-0.0005650044325731358,0.0007351189646261489,-0.0006470817384317647,-0.0004602499220648523,-0.00010027258895883063,0.002072836113354538,0.2720577120780945,11.901697158813477,-1.0410492420196533,-21.741060256958008,-0.4095359444618225,-2.5335726737976074,0.26858848333358765,0
50,0.24495410919189453,-0.2720577120780945,-11.901697158813477,1.0410492420196533,21.741060256958008,0.4095359444618225,2.5335726737976074,-0.26858848333358765,0.0,0.0,0.0,0.0,0.0,0.0,0.0,-0.24925575619147278,0.44126609826033153,-0.1835385033597927,0.46897070747283376,-0.11602923910291503,0.1399093580929006,-0.3158608680285069,0.17304575297408603,-0.4875235888246904,-0.11133806951848646,-1.9465847494894999,0.1334491860667864,2.595391575681705,0.945254548540188,0.1728802376190821,-0.48752024683155326,-0.11147110072896137,-1.9463801863486305,0.1336059019074957,2.595550359778934,0.9452445589611904,0.0003047593371834542,0.0005650044325731358,-0.0007351189646261489,0.0006470817384317647,0.0004602499220648523,0.00010027258895883063,-0.002072836113354538,0.0,0.0,0.0,0.0,0.0,0.0,0.0,-0.00016551535500392012,3.3419931371181377e-06,-0.00013303121047490707,0.00020456314086936267,0.00015671584070928168,0.0001587840972288035,-9.989578997560145e-06,-0.0003047593371834542,-0.0005650044325731358,0.0007351189646261489,-0.0006470817384317647,-0.0004602499220648523,-0.00010027258895883063,0.002072836113354538,0.2720577120780945,11.901697158813477,-1.0410492420196533,-21.741060256958008,-0.4095359444618225,-2.5335726737976074,0.26858848333358765,0
51,0.25002360343933105,-0.22445029020309448,-11.826318740844727,1.0688202381134033,21.768831253051758,0.4214377999305725,2.5335726737976074,-0.32352012395858765,0.0,0.0,0.0,0.0,0.0,0.0,0.0,-0.24748216374084137,0.43997610043263863,-0.17857097842435624,0.4716713972806139,-0.11585934851154159,0.1395036078581007,-0.31690910777031817,0.1730424031217112,-0.48752887853823207,-0.11134188615796872,-1.946586698331331,0.13344774516497127,2.5953912181262866,0.9452605314855184,0.1728802376190821,-0.48752024683155326,-0.11147110072896137,-1.9463801863486305,0.1336059019074957,2.595550359778934,0.9452445589611904,-2.2266789398595563e-05,-0.0012073543000672888,-0.0010336865688148104,-0.00017551261501975462,-7.638507475710342e-05,0.00011014925027660747,0.0005026715823140876,0.0,0.0,0.0,0.0,0.0,0.0,0.0,-0.0001621655026290969,8.631706678807749e-06,-0.00012921457099264455,0.00020651198270038584,0.00015815674252442347,0.00015914165264740987,-1.597252432794516e-05,2.2266789398595563e-05,0.0012073543000672888,0.0010336865688148104,0.00017551261501975462,7.638507475710342e-05,-0.00011014925027660747,-0.0005026715823140876,0.22445029020309448,11.826318740844727,-1.0688202381134033,-21.768831253051758,-0.4214377999305725,-2.5335726737976074,0.32352012395858765,0
52,0.25500917434692383,-0.22445029020309448,-11.826318740844727,1.0688202381134033,21.768831253051758,0.4214377999305725,2.5335726737976074,-0.32352012395858765,0.0,0.0,0.0,0.0,0.0,0.0,0.0,-0.24748216374084137,0.43997610043263863,-0.17857097842435624,0.4716713972806139,-0.11585934851154159,0.1395036078581007,-0.31690910777031817,0.1730424031217112,-0.48752887853823207,-0.11134188615796872,-1.946586698331331,0.13344774516497127,2.5953912181262866,0.9452605314855184,0.1728802376190821,-0.48752024683155326,-0.11147110072896137,-1.9463801863486305,0.1336059019074957,2.595550359778934,0.9452445589611904,-2.2266789398595563e-05,-0.0012073543000672888,-0.0010336865688148104,-0.00017551261501975462,-7.638507475710342e-05,0.00011014925027660747,0.0005026715823140876,0.0,0.0,0.0,0.0,0.0,0.0,0.0,-0.0001621655026290969,8.631706678807749e-06,-0.00012921457099264455,0.00020651198270038584,0.00015815674252442347,0.00015914165264740987,-1.597252432794516e-05,2.2266789398595563e-05,0.0012073543000672888,0.0010336865688148104,0.00017551261501975462,7.638507475710342e-05,-0.00011014925027660747,-0.0005026715823140876,0.22445029020309448,11.826318740844727,-1.0688202381134033,-21.768831253051758,-0.4214377999305725,-2.5335726737976074,0.32352012395858765,0
53,0.2599966526031494,-0.17287558317184448,-11.873926162719727,1.0410492420196533,21.768831253051758,0.4214377999305725,2.5335726737976074,-0.26858848333358765,0.0,0.0,0.0,0.0,0.0,0.0,0.0,-0.24804665117174682,0.43723848057244574,-0.17964741288737876,0.4739248187305875,-0.11564489081521977,0.13910555955278422,-0.31720011257806263,0.17303878319593294,-0.4875255376665215,-0.11133993732668135,-1.946586698331331,0.1334477451643025,2.5953915761821458,0.9452544412126704,0.1728802376190821,-0.48752024683155326,-0.11147110072896137,-1.9463801863486305,0.1336059019074957,2.595550359778934,0.9452445589611904,-0.0012377634793029318,-0.0002749665016189627,-0.0002796427823451428,-0.0002648054204371447,-4.144754937388654e-05,0.0002467119646115105,-0.001381622340319139,0.0,0.0,0.0,0.0,0.0,0.0,0.0,-0.00015854557685082704,5.290834968252334e-06,-0.00013116340228001844,0.00020651198270038584,0.00015815674319319406,0.00015878359678822562,-9.882251480020088e-06,0.0012377634793029318,0.0002749665016189627,0.0002796427823451428,0.0002648054204371447,4.144754937388654e-05,-0.0002467119646115105,0.001381622340319139,0.17287558317184448,11.873926162719727,-1.0410492420196533,-21.768831253051758,-0.4214377999305725,-2.5335726737976074,0.26858848333358765,0
54,0.26500654220581055,-0.17287558317184448,-11.873926162719727,1.0410492420196533,21.768831253051758,0.4214377999305725,2.5335726737976074,-0.26858848333358765,0.0,0.0,0.0,0.0,0.0,0.0,0.0,-0.24804665117174682,0.43723848057244574,-0.17964741288737876,0.4739248187305875,-0.11564489081521977,0.13910555955278422,-0.31720011257806263,0.17303878319593294,-0.4875255376665215,-0.11133993732668135,-1.946586698331331,0.1334477451643025,2.5953915761821458,0.9452544412126704,0.1728802376190821,-0.48752024683155326,-0.11147110072896137,-1.9463801863486305,0.1336059019074957,2.595550359778934,0.9452445589611904,-0.0012377634793029318,-0.0002749665016189627,-0.0002796427823451428,-0.0002648054204371447,-4.144754937388654e-05,0.0002467119646115105,-0.001381622340319139,0.0,0.0,0.0,0.0,0.0,0.0,0.0,-0.00015854557685082704,5.290834968252334e-06,-0.00013116340228001844,0.00020651198270038584,0.00015815674319319406,0.00015878359678822562,-9.882251480020088e-06,0.0012377634793029318,0.0002749665016189627,0.0002796427823451428,0.0002648054204371447,4.144754937388654e-05,-0.0002467119646115105,0.001381622340319139,0.17287558317184448,11.873926162719727,-1.0410492420196533,-21.768831253051758,-0.4214377999305725,-2.5335726737976074,0.26858848333358765,0
55,0.26999616622924805,-0.24825400114059448,-11.850122451782227,1.0688202381134033,21.792634963989258,0.4214377999305725,2.5399813652038574,-0.32352012395858765,0.0,0.0,0.0,0.0,0.0,0.0,0.0,-0.24422696341888625,0.4489971036296596,-0.17930513677395427,0.46956964638532667,-0.115294261713807,0.13832508867886442,-0.31566127064472443,0.1730448609755124,-0.48752720810237676,-0.1113397552944426,-1.9465883697483324,0.1334478636381781,2.595390823407937,0.9452617371361456,0.1728802376190821,-0.48752024683155326,-0.11147110072896137,-1.9463801863486305,0.1336059019074957,2.595550359778934,0.9452445589611904,4.319183034169671e-05,-0.0002843426784214986,-0.0010203180514842122,-0.0006787698761829777,-7.056820608476142e-05,-8.791321954813106e-05,0.0005327217935641623,0.0,0.0,0.0,0.0,0.0,0.0,0.0,-0.0001646233564302768,6.961270823502286e-06,-0.00013134543451877312,0.00020818339970185562,0.00015803826931759524,0.00015953637099697104,-1.7178174955168046e-05,-4.319183034169671e-05,0.0002843426784214986,0.0010203180514842122,0.0006787698761829777,7.056820608476142e-05,8.791321954813106e-05,-0.0005327217935641623,0.24825400114059448,11.850122451782227,-1.0688202381134033,-21.792634963989258,-0.4214377999305725,-2.5399813652038574,0.32352012395858765,0
56,0.27500247955322266,-0.24825400114059448,-11.850122451782227,1.0688202381134033,21.792634963989258,0.4214377999305725,2.5399813652038574,-0.32352012395858765,0.0,0.0,0.0,0.0,0.0,0.0,0.0,-0.24422696341888625,0.4489971036296596,-0.17930513677395427,0.46956964638532667,-0.115294261713807,0.13832508867886442,-0.31566127064472443,0.1730448609755124,-0.48752720810237676,-0.1113397552944426,-1.9465883697483324,0.1334478636381781,2.595390823407937,0.9452617371361456,0.1728802376190821,-0.48752024683155326,-0.11147110072896137,-1.9463801863486305,0.1336059019074957,2.595550359778934,0.9452445589611904,4.319183034169671e-05,-0.0002843426784214986,-0.0010203180514842122,-0.0006787698761829777,-7.056820608476142e-05,-8.791321954813106e-05,0.0005327217935641623,0.0,0.0,0.0,0.0,0.0,0.0,0.0,-0.0001646233564302768,6.961270823502286e-06,-0.00013134543451877312,0.00020818339970185562,0.00015803826931759524,0.00015953637099697104,-1.7178174955168046e-05,-4.319183034169671e-05,0.0002843426784214986,0.0010203180514842122,0.0006787698761829777,7.056820608476142e-05,8.791321954813106e-05,-0.0005327217935641623,0.24825400114059448,11.850122451782227,-1.0688202381134033,-21.792634963989258,-0.4214377999305725,-2.5399813652038574,0.32352012395858765,0
57,0.2800142765045166,-0.24825400114059448,-11.925500869750977,0.9934418201446533,21.741060256958008,0.4269309639930725,2.5537142753601074,-0.31711143255233765,0.0,0.0,0.0,0.0,0.0,0.0,0.0,-0.2388493187318086,0.44065376751255325,-0.1698255246616966,0.47714750096647734,-0.11556701886984673,0.13912694520514057,-0.31567159734679495,0.17304409883556565,-0.48752191838883513,-0.11133668738067931,-1.9465847494895052,0.13344713481340878,2.595389338228208,0.9452598177593885,0.1728802376190821,-0.48752024683155326,-0.11147110072896137,-1.9463801863486305,0.1336059019074957,2.595550359778934,0.9452445589611904,0.0004272385730408869,0.0010753667206343756,0.0009210016962915018,0.0008584979608909677,-0.000520150608689212,-0.0005030325680713451,-0.00018490875750206383,0.0,0.0,0.0,0.0,0.0,0.0,0.0,-0.00016386121648354068,1.6715572818681856e-06,-0.00013441334828205587,0.00020456314087469174,0.00015876709408690903,0.00016102155072594826,-1.525879819808118e-05,-0.0004272385730408869,-0.0010753667206343756,-0.0009210016962915018,-0.0008584979608909677,0.000520150608689212,0.0005030325680713451,0.00018490875750206383,0.24825400114059448,11.925500869750977,-0.9934418201446533,-21.741060256958008,-0.4269309639930725,-2.5537142753601074,0.31711143255233765,0
58,0.28504514694213867,-0.24825400114059448,-11.925500869750977,0.9934418201446533,21.741060256958008,0.4269309639930725,2.5537142753601074,-0.31711143255233765,0.0,0.0,0.0,0.0,0.0,0.0,0.0,-0.2388493187318086,0.44065376751255325,-0.1698255246616966,0.47714750096647734,-0.11556701886984673,0.13912694520514057,-0.31567159734679495,0.17304409883556565,-0.48752191838883513,-0.11133668738067931,-1.9465847494895052,0.13344713481340878,2.595389338228208,0.9452598177593885,0.1728802376190821,-0.48752024683155326,-0.11147110072896137,-1.9463801863486305,0.1336059019074957,2.595550359778934,0.9452445589611904,0.0004272385730408869,0.0010753667206343756,0.0009210016962915018,0.0008584979608909677,-0.000520150608689212,-0.0005030325680713451,-0.00018490875750206383,0.0,0.0,0.0,0.0,0.0,0.0,0.0,-0.00016386121648354068,1.6715572818681856e-06,-0.00013441334828205587,0.00020456314087469174,0.00015876709408690903,0.00016102155072594826,-1.525879819808118e-05,-0.0004272385730408869,-0.0010753667206343756,-0.0009210016962915018,-0.0008584979608909677,0.000520150608689212,0.0005030325680713451,0.00018490875750206383,0.24825400114059448,11.925500869750977,-0.9934418201446533,-21.741060256958008,-0.4269309639930725,-2.5537142753601074,0.31711143255233765,0
59,0.2900390625,-0.24825400114059448,-11.901697158813477,0.9934418201446533,21.792634963989258,0.4150291085243225,2.5335726737976074,-0.30337852239608765,0.0,0.0,0.0,0.0,0.0,0.0,0.0,-0.24211129591132918,0.4451342105279342,-0.17489558823788448,0.4762816297797556,-0.11551829091564896,0.1393728854312109,-0.31776411002214106,0.17304690700958586,-0.4875235888246904,-0.11133478127329281,-1.946588368767186,0.13344857571455515,2.595391571823516,0.9452593839623056,0.1728802376190821,-0.48752024683155326,-0.11147110072896137,-1.9463801863486305,0.1336059019074957,2.595550359778934,0.9452445589611904,0.00010770374066874199,0.0003103247029160957,0.0005792373151939513,-0.00020145641716527935,6.292536052733932e-06,0.0001902427330821783,0.0002553357584543742,0.0,0.0,0.0,0.0,0.0,0.0,0.0,-0.00016666939050374863,3.3419931371181377e-06,-0.0001363194556685543,0.00020818241855558028,0.00015732619294053785,0.00015878795541812707,-1.4825001115159608e-05,-0.00010770374066874199,-0.0003103247029160957,-0.0005792373151939513,0.00020145641716527935,-6.292536052733932e-06,-0.0001902427330821783,-0.0002553357584543742,0.24825400114059448,11.901697158813477,-0.9934418201446533,-21.792634963989258,-0.4150291085243225,-2.5335726737976074,0.30337852239608765,0
60,0.2950162887573242,-0.24825400114059448,-11.901697158813477,0.9934418201446533,21.792634963989258,0.4150291085243225,2.5335726737976074,-0.30337852239608765,0.0,0.0,0.0,0.0,0.0,0.0,0.0,-0.24211129591132918,0.4451342105279342,-0.17489558823788448,0.4762816297797556,-0.11551829091564896,0.1393728854312109,-0.31776411002214106,0.17304690700958586,-0.4875235888246904,-0.11133478127329281,-1.946588368767186,0.13344857571455515,2.595391571823516,0.9452593839623056,0.1728802376190821,-0.48752024683155326,-0.11147110072896137,-1.9463801863486305,0.1336059019074957,2.595550359778934,0.9452445589611904,0.00010770374066874199,0.0003103247029160957,0.0005792373151939513,-0.00020145641716527935,6.292536052733932e-06,0.0001902427330821783,0.0002553357584543742,0.0,0.0,0.0,0.0,0.0,0.0,0.0,-0.00016666939050374863,3.3419931371181377e-06,-0.0001363194556685543,0.00020818241855558028,0.00015732619294053785,0.00015878795541812707,-1.4825001115159608e-05,-0.00010770374066874199,-0.0003103247029160957,-0.0005792373151939513,0.00020145641716527935,-6.292536052733932e-06,-0.0001902427330821783,-0.0002553357584543742,0.24825400114059448,11.901697158813477,-0.9934418201446533,-21.792634963989258,-0.4150291085243225,-2.5335726737976074,0.30337852239608765,0
61,0.30000972747802734,-0.24825400114059448,-11.901697158813477,0.9934418201446533,21.741060256958008,0.4214377999305725,2.5335726737976074,-0.26858848333358765,0.0,0.0,0.0,0.0,0.0,0.0,0.0,-0.23837978193331805,0.44314820143054084,-0.16703099231919324,0.4753724090756029,-0.11660754445847692,0.13875836606718486,-0.3160873828306727,0.17304407260144894,-0.4875235888246904,-0.11133659644472414,-1.9465847494894999,0.13344782398474278,2.5953915761841424,0.9452578058848224,0.1728802376190821,-0.48752024683155326,-0.11147110072896137,-1.9463801863486305,0.1336059019074957,2.595550359778934,0.9452445589611904,-2.2460998375597613e-05,-0.0002800376222178931,0.0009305721584833654,0.00027257381579215195,-5.524743616128975e-05,0.0002979650764393308,-0.0016831571557009504,0.0,0.0,0.0,0.0,0.0,0.0,0.0,-0.00016383498236682836,3.3419931371181377e-06,-0.0001345042842372246,0.00020456314086936267,0.00015807792275290833,0.00015878359479160054,-1.3246923632026508e-05,2.2460998375597613e-05,0.0002800376222178931,-0.0009305721584833654,-0.00027257381579215195,5.524743616128975e-05,-0.0002979650764393308,0.0016831571557009504,0.24825400114059448,11.901697158813477,-0.9934418201446533,-21.741060256958008,-0.4214377999305725,-2.5335726737976074,0.26858848333358765,0
62,0.3050081729888916,-0.24825400114059448,-11.901697158813477,0.9934418201446533,21.741060256958008,0.4214377999305725,2.5335726737976074,-0.26858848333358765,0.0,0.0,0.0,0.0,0.0,0.0,0.0,-0.23837978193331805,0.44314820143054084,-0.16703099231919324,0.4753724090756029,-0.11660754445847692,0.13875836606718486,-0.3160873828306727,0.17304407260144894,-0.4875235888246904,-0.11133659644472414,-1.9465847494894999,0.13344782398474278,2.5953915761841424,0.9452578058848224,0.1728802376190821,-0.48752024683155326,-0.11147110072896137,-1.9463801863486305,0.1336059019074957,2.595550359778934,0.9452445589611904,-2.2460998375597613e-05,-0.0002800376222178931,0.0009305721584833654,0.00027257381579215195,-5.524743616128975e-05,0.0002979650764393308,-0.0016831571557009504,0.0,0.0,0.0,0.0,0.0,0.0,0.0,-0.00016383498236682836,3.3419931371181377e-06,-0.0001345042842372246,0.00020456314086936267,0.00015807792275290833,0.00015878359479160054,-1.3246923632026508e-05,2.2460998375597613e-05,0.0002800376222178931,-0.0009305721584833654,-0.00027257381579215195,5.524743616128975e-05,-0.0002979650764393308,0.0016831571557009504,0.24825400114059448,11.901697158813477,-0.9934418201446533,-21.741060256958008,-0.4214377999305725,-2.5335726737976074,0.26858848333358765,0
63,0.3099997043609619,-0.2720577120780945,-11.925500869750977,0.9934418201446533,21.768831253051758,0.4333396553993225,2.5335726737976074,-0.32352012395858765,0.0,0.0,0.0,0.0,0.0,0.0,0.0,-0.24829985406795138,0.439688140358739,-0.18255710660416968,0.474324925892466,-0.11581451015521804,0.139205337670597,-0.3152106387469276,0.1730457550100652,-0.48752191838883513,-0.11133470235181464,-1.946586698331331,0.1334465409931051,2.595391571823516,0.9452608934365715,0.1728802376190821,-0.48752024683155326,-0.11147110072896137,-1.9463801863486305,0.1336059019074957,2.595550359778934,0.9452445589611904,0.00021116271901969573,0.0005450877378527162,-7.987952186723764e-05,-0.00035527169012055624,-0.0004736149224498697,0.00026580622100004893,0.0007747258122069258,0.0,0.0,0.0,0.0,0.0,0.0,0.0,-0.00016551739098308316,1.6715572818681856e-06,-0.00013639837714672642,0.00020651198270038584,0.0001593609143905883,0.00015878795541812707,-1.6334475381074576e-05,-0.00021116271901969573,-0.0005450877378527162,7.987952186723764e-05,0.00035527169012055624,0.0004736149224498697,-0.00026580622100004893,-0.0007747258122069258,0.2720577120780945,11.925500869750977,-0.9934418201446533,-21.768831253051758,-0.4333396553993225,-2.5335726737976074,0.32352012395858765,0
64,0.3150210380554199,-0.2720577120780945,-11.925500869750977,0.9934418201446533,21.768831253051758,0.4333396553993225,2.5335726737976074,-0.32352012395858765,0.0,0.0,0.0,0.0,0.0,0.0,0.0,-0.24829985406795138,0.439688140358739,-0.18255710660416968,0.474324925892466,-0.11581451015521804,0.139205337670597,-0.3152106387469276,0.1730457550100652,-0.48752191838883513,-0.11133470235181464,-1.946586698331331,0.1334465409931051,2.595391571823516,0.9452608934365715,0.1728802376190821,-0.48752024683155326,-0.11147110072896137,-1.9463801863486305,0.1336059019074957,2.595550359778934,0.9452445589611904,0.00021116271901969573,0.0005450877378527162,-7.987952186723764e-05,-0.00035527169012055624,-0.0004736149224498697,0.00026580622100004893,0.0007747258122069258,0.0,0.0,0.0,0.0,0.0,0.0,0.0,-0.00016551739098308316,1.6715572818681856e-06,-0.00013639837714672642,0.00020651198270038584,0.0001593609143905883,0.00015878795541812707,-1.6334475381074576e-05,-0.00021116271901969573,-0.0005450877378527162,7.987952186723764e-05,0.00035527169012055624,0.0004736149224498697,-0.00026580622100004893,-0.0007747258122069258,0.2720577120780945,11.925500869750977,-0.9934418201446533,-21.768831253051758,-0.4333396553993225,-2.5335726737976074,0.32352012395858765,0
65,0.32001590728759766,-0.24825400114059448,-11.901697158813477,1.0172455310821533,21.768831253051758,0.4214377999305725,2.5335726737976074,-0.30337852239608765,0.0,0.0,0.0,0.0,0.0,0.0,0.0,-0.24742953025985823,0.4358766103438932,-0.1813061159289547,0.47422763833146203,-0.11573856498636168,0.13947199411186512,-0.31634198400686464,0.1730461987365292,-0.4875235888246904,-0.11133613601408315,-1.946586698331331,0.13344750821811058,2.5953915756996255,0.9452588209518585,0.1728802376190821,-0.48752024683155326,-0.11147110072896137,-1.9463801863486305,0.1336059019074957,2.595550359778934,0.9452445589611904,-0.0005242429338984916,6.01199790290604e-05,-0.0005361509503718434,5.313072883018332e-05,-0.00023108771670138505,0.0003112066931876244,-0.00014075690136514568,0.0,0.0,0.0,0.0,0.0,0.0,0.0,-0.00016596111744709985,3.3419931371181377e-06,-0.0001349647148782135,0.00020651198270038584,0.00015839368938511122,0.0001587840793084716,-1.4261990668118507e-05,0.0005242429338984916,-6.01199790290604e-05,0.0005361509503718434,-5.313072883018332e-05,0.00023108771670138505,-0.0003112066931876244,0.00014075690136514568,0.24825400114059448,11.901697158813477,-1.0172455310821533,-21.768831253051758,-0.4214377999305725,-2.5335726737976074,0.30337852239608765,0
66,0.3250443935394287,-0.24825400114059448,-11.901697158813477,1.0172455310821533,21.768831253051758,0.4214377999305725,2.5335726737976074,-0.30337852239608765,0.0,0.0,0.0,0.0,0.0,0.0,0.0,-0.24742953025985823,0.4358766103438932,-0.1813061159289547,0.47422763833146203,-0.11573856498636168,0.13947199411186512,-0.31634198400686464,0.1730461987365292,-0.4875235888246904,-0.11133613601408315,-1.946586698331331,0.13344750821811058,2.5953915756996255,0.9452588209518585,0.1728802376190821,-0.48752024683155326,-0.11147110072896137,-1.9463801863486305,0.1336059019074957,2.595550359778934,0.9452445589611904,-0.0005242429338984916,6.01199790290604e-05,-0.0005361509503718434,5.313072883018332e-05,-0.00023108771670138505,0.0003112066931876244,-0.00014075690136514568,0.0,0.0,0.0,0.0,0.0,0.0,0.0,-0.00016596111744709985,3.3419931371181377e-06,-0.0001349647148782135,0.00020651198270038584,0.00015839368938511122,0.0001587840793084716,-1.4261990668118507e-05,0.0005242429338984916,-6.01199790290604e-05,0.0005361509503718434,-5.313072883018332e-05,0.00023108771670138505,-0.0003112066931876244,0.00014075690136514568,0.24825400114059448,11.901697158813477,-1.0172455310821533,-21.768831253051758,-0.4214377999305725,-2.5335726737976074,0.30337852239608765,0
67,0.33003878593444824,-0.24825400114059448,-11.901697158813477,1.0172455310821533,21.768831253051758,0.4214377999305725,2.5335726737976074,-0.30337852239608765,0.0,0.0,0.0,0.0,0.0,0.0,0.0,-0.24742953025985823,0.4358766103438932,-0.1813061159289547,0.47422763833146203,-0.11573856498636168,0.13947199411186512,-0.31634198400686464,0.1730461987365292,-0.4875235888246904,-0.11133613601408315,-1.946586698331331,0.13344750821811058,2.5953915756996255,0.9452588209518585,0.1728802376190821,-0.48752024683155326,-0.11147110072896137,-1.9463801863486305,0.1336059019074957,2.595550359778934,0.9452445589611904,-0.0005242429338984916,6.01199790290604e-05,-0.0005361509503718434,5.313072883018332e-05,-0.00023108771670138505,0.0003112066931876244,-0.00014075690136514568,0.0,0.0,0.0,0.0,0.0,0.0,0.0,-0.00016596111744709985,3.3419931371181377e-06,-0.0001349647148782135,0.00020651198270038584,0.00015839368938511122,0.0001587840793084716,-1.4261990668118507e-05,0.0005242429338984916,-6.01199790290604e-05,0.0005361509503718434,-5.313072883018332e-05,0.00023108771670138505,-0.0003112066931876244,0.00014075690136514568,0.24825400114059448,11.901697158813477,-1.0172455310821533,-21.768831253051758,-0.4214377999305725,-2.5335726737976074,0.30337852239608765,0
68,0.3350181579589844,-0.24825400114059448,-11.901697158813477,1.0172455310821533,21.768831253051758,0.4214377999305725,2.5335726737976074,-0.30337852239608765,0.0,0.0,0.0,0.0,0.0,0.0,0.0,-0.24742953025985823,0.4358766103438932,-0.1813061159289547,0.47422763833146203,-0.11573856498636168,0.13947199411186512,-0.31634198400686464,0.1730461987365292,-0.4875235888246904,-0.11133613601408315,-1.946586698331331,0.13344750821811058,2.5953915756996255,0.9452588209518585,0.1728802376190821,-0.48752024683155326,-0.11147110072896137,-1.9463801863486305,0.1336059019074957,2.595550359778934,0.9452445589611904,-0.0005242429338984916,6.01199790290604e-05,-0.0005361509503718434,5.313072883018332e-05,-0.00023108771670138505,0.0003112066931876244,-0.00014075690136514568,0.0,0.0,0.0,0.0,0.0,0.0,0.0,-0.00016596111744709985,3.3419931371181377e-06,-0.0001349647148782135,0.00020651198270038584,0.00015839368938511122,0.0001587840793084716,-1.4261990668118507e-05,0.0005242429338984916,-6.01199790290604e-05,0.0005361509503718434,-5.313072883018332e-05,0.00023108771670138505,-0.0003112066931876244,0.00014075690136514568,0.24825400114059448,11.901697158813477,-1.0172455310821533,-21.768831253051758,-0.4214377999305725,-2.5335726737976074,0.30337852239608765,0
69,0.3400001525878906,-0.24825400114059448,-11.925500869750977,0.9934418201446533,21.816438674926758,0.4150291085243225,2.5399813652038574,-0.27591270208358765,0.0,0.0,0.0,0.0,0.0,0.0,0.0,-0.24963476898226908,0.43645444226440794,-0.18277488324461616,0.471768810082757,-0.11608987061765089,0.13947906040774416,-0.3164930767277882,0.17304442275568616,-0.48752191838883513,-0.11133446557689132,-1.9465900392030415,0.13344537671392798,2.5953908641073413,0.9452586376175768,0.1728802376190821,-0.48752024683155326,-0.11147110072896137,-1.9463801863486305,0.1336059019074957,2.595550359778934,0.9452445589611904,-0.000299606076890753,0.0007741157037135018,0.0003439342274800859,-0.0013514370217761365,0.00026252543846117063,1.4294273871019583e-05,-0.0012155583815829628,0.0,0.0,0.0,0.0,0.0,0.0,0.0,-0.00016418513660404477,1.6715572818681856e-06,-0.00013663515207004706,0.00020985285441099677,0.0001605251935677121,0.00015949567159267986,-1.4078656386362631e-05,0.000299606076890753,-0.0007741157037135018,-0.0003439342274800859,0.0013514370217761365,-0.00026252543846117063,-1.4294273871019583e-05,0.0012155583815829628,0.24825400114059448,11.925500869750977,-0.9934418201446533,-21.816438674926758,-0.4150291085243225,-2.5399813652038574,0.27591270208358765,0
70,0.3450009822845459,-0.24825400114059448,-11.925500869750977,0.9934418201446533,21.816438674926758,0.4150291085243225,2.5399813652038574,-0.27591270208358765,0.0,0.0,0.0,0.0,0.0,0.0,0.0,-0.24963476898226908,0.43645444226440794,-0.18277488324461616,0.471768810082757,-0.11608987061765089,0.13947906040774416,-0.3164930767277882,0.17304442275568616,-0.48752191838883513,-0.11133446557689132,-1.9465900392030415,0.13344537671392798,2.5953908641073413,0.9452586376175768,0.1728802376190821,-0.48752024683155326,-0.11147110072896137,-1.9463801863486305,0.1336059019074957,2.595550359778934,0.9452445589611904,-0.000299606076890753,0.0007741157037135018,0.0003439342274800859,-0.0013514370217761365,0.00026252543846117063,1.4294273871019583e-05,-0.0012155583815829628,0.0,0.0,0.0,0.0,0.0,0.0,0.0,-0.00016418513660404477,1.6715572818681856e-06,-0.00013663515207004706,0.00020985285441099677,0.0001605251935677121,0.00015949567159267986,-1.4078656386362631e-05,0.000299606076890753,-0.0007741157037135018,-0.0003439342274800859,0.0013514370217761365,-0.00026252543846117063,-1.4294273871019583e-05,0.0012155583815829628,0.24825400114059448,11.925500869750977,-0.9934418201446533,-21.816438674926758,-0.4150291085243225,-2.5399813652038574,0.27591270208358765,0
71,0.34999847412109375,-0.2720577120780945,-11.901697158813477,1.0172455310821533,21.792634963989258,0.4095359444618225,2.5463900566101074,-0.34457725286483765,0.0,0.0,0.0,0.0,0.0,0.0,0.0,-0.24881499451492697,0.42990795003548615,-0.17979409640683003,0.47521286323831685,-0.11617318576370281,0.140130946304091,-0.31563109507074105,0.17304582197629415,-0.4875235888246904,-0.11133616231973484,-1.946588368767186,0.13344883062843874,2.595390152030521,0.945263969619459,0.1728802376190821,-0.48752024683155326,-0.11147110072896137,-1.9463801863486305,0.1336059019074957,2.595550359778934,0.9452445589611904,0.0005366011250149005,-0.0001792758621128366,0.00013779252552918584,-0.0006683622945217697,0.0004048236263250515,-0.0002317826015377746,0.0018381451859169069,0.0,0.0,0.0,0.0,0.0,0.0,0.0,-0.00016558435721203413,3.3419931371181377e-06,-0.00013493840922652878,0.00020818241855558028,0.00015707127905695284,0.000160207748412855,-1.9410658268603775e-05,-0.0005366011250149005,0.0001792758621128366,-0.00013779252552918584,0.0006683622945217697,-0.0004048236263250515,0.0002317826015377746,-0.0018381451859169069,0.2720577120780945,11.901697158813477,-1.0172455310821533,-21.792634963989258,-0.4095359444618225,-2.5463900566101074,0.34457725286483765,0
72,0.354999303817749,-0.2720577120780945,-11.901697158813477,1.0172455310821533,21.792634963989258,0.4095359444618225,2.5463900566101074,-0.34457725286483765,0.0,0.0,0.0,0.0,0.0,0.0,0.0,-0.24881499451492697,0.42990795003548615,-0.17979409640683003,0.47521286323831685,-0.11617318576370281,0.140130946304091,-0.31563109507074105,0.17304582197629415,-0.4875235888246904,-0.11133616231973484,-1.946588368767186,0.13344883062843874,2.595390152030521,0.945263969619459,0.1728802376190821,-0.48752024683155326,-0.11147110072896137,-1.9463801863486305,0.1336059019074957,2.595550359778934,0.9452445589611904,0.0005366011250149005,-0.0001792758621128366,0.00013779252552918584,-0.0006683622945217697,0.0004048236263250515,-0.0002317826015377746,0.0018381451859169069,0.0,0.0,0.0,0.0,0.0,0.0,0.0,-0.00016558435721203413,3.3419931371181377e-06,-0.00013493840922652878,0.00020818241855558028,0.00015707127905695284,0.000160207748412855,-1.9410658268603775e-05,-0.0005366011250149005,0.0001792758621128366,-0.00013779252552918584,0.0006683622945217697,-0.0004048236263250515,0.0002317826015377746,-0.0018381451859169069,0.2720577120780945,11.901697158813477,-1.0172455310821533,-21.792634963989258,-0.4095359444618225,-2.5463900566101074,0.34457725286483765,0
73,0.3600471019744873,-0.24825400114059448,-11.901697158813477,1.0410492420196533,21.741060256958008,0.4031272530555725,2.5399813652038574,-0.28232139348983765,0.0,0.0,0.0,0.0,0.0,0.0,0.0,-0.24331345877164043,0.44560662516861943,-0.17237924000929414,0.47027940442508914,-0.1164839878582243,0.13899365337459565,-0.31586763449138394,0.17304441367155357,-0.4875235888246904,-0.11133780644875033,-1.9465847494894999,0.13344989814160288,2.595389803015664,0.9452570428528182,0.1728802376190821,-0.48752024683155326,-0.11147110072896137,-1.9463801863486305,0.1336059019074957,2.595550359778934,0.9452445589611904,0.0003607305568502965,0.0007566236306292722,3.2149235346296203e-06,0.0009969419553593887,0.0005358236562477958,-7.652545107595074e-05,-0.0009299386660241476,0.0,0.0,0.0,0.0,0.0,0.0,0.0,-0.00016417605247145972,3.3419931371181377e-06,-0.00013329428021104095,0.00020456314086936267,0.0001560037658928093,0.00016055676326987012,-1.2483891627779187e-05,-0.0003607305568502965,-0.0007566236306292722,-3.2149235346296203e-06,-0.0009969419553593887,-0.0005358236562477958,7.652545107595074e-05,0.0009299386660241476,0.24825400114059448,11.901697158813477,-1.0410492420196533,-21.741060256958008,-0.4031272530555725,-2.5399813652038574,0.28232139348983765,0
74,0.36504292488098145,-0.24825400114059448,-11.901697158813477,1.0410492420196533,21.741060256958008,0.4031272530555725,2.5399813652038574,-0.28232139348983765,0.0,0.0,0.0,0.0,0.0,0.0,0.0,-0.24331345877164043,0.44560662516861943,-0.17237924000929414,0.47027940442508914,-0.1164839878582243,0.13899365337459565,-0.31586763449138394,0.17304441367155357,-0.4875235888246904,-0.11133780644875033,-1.9465847494894999,0.13344989814160288,2.595389803015664,0.9452570428528182,0.1728802376190821,-0.48752024683155326,-0.11147110072896137,-1.9463801863486305,0.1336059019074957,2.595550359778934,0.9452445589611904,0.0003607305568502965,0.0007566236306292722,3.2149235346296203e-06,0.0009969419553593887,0.0005358236562477958,-7.652545107595074e-05,-0.0009299386660241476,0.0,0.0,0.0,0.0,0.0,0.0,0.0,-0.00016417605247145972,3.3419931371181377e-06,-0.00013329428021104095,0.00020456314086936267,0.0001560037658928093,0.00016055676326987012,-1.2483891627779187e-05,-0.0003607305568502965,-0.0007566236306292722,-3.2149235346296203e-06,-0.0009969419553593887,-0.0005358236562477958,7.652545107595074e-05,0.0009299386660241476,0.24825400114059448,11.901697158813477,-1.0410492420196533,-21.741060256958008,-0.4031272530555725,-2.5399813652038574,0.28232139348983765,0
75,0.37001514434814453,-0.24825400114059448,-11.873926162719727,1.0688202381134033,21.768831253051758,0.4095359444618225,2.5335726737976074,-0.30978721380233765,0.0,0.0,0.0,0.0,0.0,0.0,0.0,-0.2520399180304628,0.4345272213088898,-0.18401208020796142,0.47878962172425915,-0.1160136841124174,0.14038418410655792,-0.3150536969899376,0.17304407280338768,-0.4875255376665215,-0.11134054450008138,-1.946586698331331,0.1334459872300118,2.595390515086497,0.9452590175311909,0.1728802376190821,-0.48752024683155326,-0.11147110072896137,-1.9463801863486305,0.1336059019074957,2.595550359778934,0.9452445589611904,8.515232719396551e-05,-0.00027139054908412234,-0.0012954109978640877,0.00021577522939438882,0.0002729111606628586,0.00013760180290561767,0.00016751092710081674,0.0,0.0,0.0,0.0,0.0,0.0,0.0,-0.00016383518430557187,5.290834968252334e-06,-0.0001305562288799883,0.00020651198270038584,0.00015991467748388555,0.0001598446924369057,-1.4458570000486226e-05,-8.515232719396551e-05,0.00027139054908412234,0.0012954109978640877,-0.00021577522939438882,-0.0002729111606628586,-0.00013760180290561767,-0.00016751092710081674,0.24825400114059448,11.873926162719727,-1.0688202381134033,-21.768831253051758,-0.4095359444618225,-2.5335726737976074,0.30978721380233765,0
76,0.3750627040863037,-0.24825400114059448,-11.873926162719727,1.0688202381134033,21.768831253051758,0.4095359444618225,2.5335726737976074,-0.30978721380233765,0.0,0.0,0.0,0.0,0.0,0.0,0.0,-0.2520399180304628,0.4345272213088898,-0.18401208020796142,0.47878962172425915,-0.1160136841124174,0.14038418410655792,-0.3150536969899376,0.17304407280338768,-0.4875255376665215,-0.11134054450008138,-1.946586698331331,0.1334459872300118,2.595390515086497,0.9452590175311909,0.1728802376190821,-0.48752024683155326,-0.11147110072896137,-1.9463801863486305,0.1336059019074957,2.595550359778934,0.9452445589611904,8.515232719396551e-05,-0.00027139054908412234,-0.0012954109978640877,0.00021577522939438882,0.0002729111606628586,0.00013760180290561767,0.00016751092710081674,0.0,0.0,0.0,0.0,0.0,0.0,0.0,-0.00016383518430557187,5.290834968252334e-06,-0.0001305562288799883,0.00020651198270038584,0.00015991467748388555,0.0001598446924369057,-1.4458570000486226e-05,-8.515232719396551e-05,0.00027139054908412234,0.0012954109978640877,-0.00021577522939438882,-0.0002729111606628586,-0.00013760180290561767,-0.00016751092710081674,0.24825400114059448,11.873926162719727,-1.0688202381134033,-21.768831253051758,-0.4095359444618225,-2.5335726737976074,0.30978721380233765,0
77,0.38001179695129395,-0.22445029020309448,-11.850122451782227,1.0410492420196533,21.741060256958008,0.4214377999305725,2.5463900566101074,-0.32352012395858765,0.0,0.0,0.0,0.0,0.0,0.0,0.0,-0.2443806998121897,0.4513222757879107,-0.1706928166105482,0.47057098628067917,-0.11660053679970647,0.13916534160600194,-0.31537271805166994,0.17304477322416045,-0.48752720810237676,-0.11133780648914333,-1.9465847494894999,0.1334478636203435,2.5953901520245313,0.9452652543226796,0.1728802376190821,-0.48752024683155326,-0.11147110072896137,-1.9463801863486305,0.1336059019074957,2.595550359778934,0.9452445589611904,-0.00038268952967227286,-0.0004604225926581179,2.262449405994004e-05,0.0004221568538578633,-0.00017531298809800834,-0.00031888736681019936,0.001175643176713786,0.0,0.0,0.0,0.0,0.0,0.0,0.0,-0.00016453560507834197,6.961270823502286e-06,-0.00013329423981803257,0.00020456314086936267,0.00015803828715219015,0.00016020775440273027,-2.0695361489186936e-05,0.00038268952967227286,0.0004604225926581179,-2.262449405994004e-05,-0.0004221568538578633,0.00017531298809800834,0.00031888736681019936,-0.001175643176713786,0.22445029020309448,11.850122451782227,-1.0410492420196533,-21.741060256958008,-0.4214377999305725,-2.5463900566101074,0.32352012395858765,0
78,0.38501858711242676,-0.22445029020309448,-11.850122451782227,1.0410492420196533,21.741060256958008,0.4214377999305725,2.5463900566101074,-0.32352012395858765,0.0,0.0,0.0,0.0,0.0,0.0,0.0,-0.2443806998121897,0.4513222757879107,-0.1706928166105482,0.47057098628067917,-0.11660053679970647,0.13916534160600194,-0.31537271805166994,0.17304477322416045,-0.48752720810237676,-0.11133780648914333,-1.9465847494894999,0.1334478636203435,2.5953901520245313,0.9452652543226796,0.1728802376190821,-0.48752024683155326,-0.11147110072896137,-1.9463801863486305,0.1336059019074957,2.595550359778934,0.9452445589611904,-0.00038268952967227286,-0.0004604225926581179,2.262449405994004e-05,0.0004221568538578633,-0.00017531298809800834,-0.00031888736681019936,0.001175643176713786,0.0,0.0,0.0,0.0,0.0,0.0,0.0,-0.00016453560507834197,6.961270823502286e-06,-0.00013329423981803257,0.00020456314086936267,0.00015803828715219015,0.00016020775440273027,-2.0695361489186936e-05,0.00038268952967227286,0.0004604225926581179,-2.262449405994004e-05,-0.0004221568538578633,0.00017531298809800834,0.00031888736681019936,-0.001175643176713786,0.22445029020309448,11.850122451782227,-1.0410492420196533,-21.741060256958008,-0.4214377999305725,-2.5463900566101074,0.32352012395858765,0
79,0.3899986743927002,-0.24825400114059448,-11.901697158813477,0.9696381092071533,21.768831253051758,0.4214377999305725,2.5463900566101074,-0.30337852239608765,0.0,0.0,0.0,0.0,0.0,0.0,0.0,-0.24702406703695273,0.44752525132835597,-0.17422882591246072,0.47195006013454244,-0.1157529397187752,0.14021369700192282,-0.3149639692467059,0.17304619838982346,-0.4875235888246904,-0.11133279514103626,-1.946586698331331,0.13344679737753326,2.595389092392392,0.9452615657382853,0.1728802376190821,-0.48752024683155326,-0.11147110072896137,-1.9463801863486305,0.1336059019074957,2.595550359778934,0.9452445589611904,7.772691049966311e-05,0.0009147996251541202,0.0012685130188674289,-0.0006625648656348022,-5.6518924179375826e-05,-0.0002212962708224443,-0.0006947595061374203,0.0,0.0,0.0,0.0,0.0,0.0,0.0,-0.0001659607707413524,3.3419931371181377e-06,-0.00013830558792510272,0.00020651198270038584,0.0001591045299624283,0.0001612673865420966,-1.7006777094930037e-05,-7.772691049966311e-05,-0.0009147996251541202,-0.0012685130188674289,0.0006625648656348022,5.6518924179375826e-05,0.0002212962708224443,0.0006947595061374203,0.24825400114059448,11.901697158813477,-0.9696381092071533,-21.768831253051758,-0.4214377999305725,-2.5463900566101074,0.30337852239608765,0
