rezayati/contactInterpretation/dataset/franka_main/labeled_data/link6/b10_4.csv
index,time,tau_J0,tau_J1,tau_J2,tau_J3,tau_J4,tau_J5,tau_J6,tau_J_d0,tau_J_d1,tau_J_d2,tau_J_d3,tau_J_d4,tau_J_d5,tau_J_d6,tau_ext0,tau_ext1,tau_ext2,tau_ext3,tau_ext4,tau_ext5,tau_ext6,q0,q1,q2,q3,q4,q5,q6,q_d0,q_d1,q_d2,q_d3,q_d4,q_d5,q_d6,dq0,dq1,dq2,dq3,dq4,dq5,dq6,dq_d0,dq_d1,dq_d2,dq_d3,dq_d4,dq_d5,dq_d6,e0,e1,e2,e3,e4,e5,e6,de0,de1,de2,de3,de4,de5,de6,etau_J0,etau_J1,etau_J2,etau_J3,etau_J4,etau_J5,etau_J6,label
1,0.0,-0.4267818331718445,-19.868005752563477,-0.3990752398967743,20.130342483520508,0.7903953194618225,2.4694857597351074,-0.24844686686992645,0.0,0.0,0.0,0.0,0.0,0.0,0.0,-0.39696636424923554,-0.10871385887795212,-0.22152067036095444,0.38054244536486764,0.2103230366354647,0.1022716525462214,-0.27120837442786355,1.2135206741659266,-0.2199847528142425,-0.007487437010067686,-2.604175584001271,-0.10901437444851907,2.468120968018483,0.8264789017754637,1.2134413937687574,-0.2202432315892585,-0.0075118285948192216,-2.6038483821997875,-0.10888392708698907,2.4681821257803174,0.826474908251239,0.0004536617368467867,0.0001584567619858403,-0.0005415544557980596,0.0004238265327726152,0.00011855740555357867,0.00016886039373288186,-0.000971085667505071,0.0,0.0,0.0,0.0,0.0,0.0,0.0,-7.928039716920132e-05,-0.0002584787750159745,-2.439158475153573e-05,0.0003272018014834899,0.00013044736152999226,6.115776183435173e-05,-3.9935242246436076e-06,-0.0004536617368467867,-0.0001584567619858403,0.0005415544557980596,-0.0004238265327726152,-0.00011855740555357867,-0.00016886039373288186,0.000971085667505071,0.4267818331718445,19.868005752563477,0.3990752398967743,-20.130342483520508,-0.7903953194618225,-2.4694857597351074,0.24844686686992645,0
2,0.004952669143676758,-0.4267818331718445,-19.868005752563477,-0.3990752398967743,20.130342483520508,0.7903953194618225,2.4694857597351074,-0.24844686686992645,0.0,0.0,0.0,0.0,0.0,0.0,0.0,-0.39696636424923554,-0.10871385887795212,-0.22152067036095444,0.38054244536486764,0.2103230366354647,0.1022716525462214,-0.27120837442786355,1.2135206741659266,-0.2199847528142425,-0.007487437010067686,-2.604175584001271,-0.10901437444851907,2.468120968018483,0.8264789017754637,1.2134413937687574,-0.2202432315892585,-0.0075118285948192216,-2.6038483821997875,-0.10888392708698907,2.4681821257803174,0.826474908251239,0.0004536617368467867,0.0001584567619858403,-0.0005415544557980596,0.0004238265327726152,0.00011855740555357867,0.00016886039373288186,-0.000971085667505071,0.0,0.0,0.0,0.0,0.0,0.0,0.0,-7.928039716920132e-05,-0.0002584787750159745,-2.439158475153573e-05,0.0003272018014834899,0.00013044736152999226,6.115776183435173e-05,-3.9935242246436076e-06,-0.0004536617368467867,-0.0001584567619858403,0.0005415544557980596,-0.0004238265327726152,-0.00011855740555357867,-0.00016886039373288186,0.000971085667505071,0.4267818331718445,19.868005752563477,0.3990752398967743,-20.130342483520508,-0.7903953194618225,-2.4694857597351074,0.24844686686992645,0
3,0.009959220886230469,-0.4267818331718445,-19.868005752563477,-0.4466826617717743,20.181917190551758,0.7903953194618225,2.4887118339538574,-0.23471395671367645,0.0,0.0,0.0,0.0,0.0,0.0,0.0,-0.39704867724362863,-0.107918232584461,-0.2209816562887088,0.37805070406386043,0.21022059203723953,0.10212044255958626,-0.27113854976050755,1.2135206741659266,-0.21998452546234948,-0.007481976310880305,-2.6041792124362892,-0.10901377910424367,2.4681191864523466,0.8264738356403173,1.2134413937687574,-0.2202432315892585,-0.0075118285948192216,-2.6038483821997875,-0.10888392708698907,2.4681821257803174,0.826474908251239,0.0002002029983269713,8.341733401233914e-05,0.0006508448861597358,-0.0009652376258369502,0.00020618728725390484,-0.0006653170898621017,-0.0016662531146929573,0.0,0.0,0.0,0.0,0.0,0.0,0.0,-7.928039716920132e-05,-0.0002587061269090085,-2.9852283938916133e-05,0.0003308302365017113,0.00012985201725460027,6.293932797074575e-05,1.0726109217484847e-06,-0.0002002029983269713,-8.341733401233914e-05,-0.0006508448861597358,0.0009652376258369502,-0.00020618728725390484,0.0006653170898621017,0.0016662531146929573,0.4267818331718445,19.868005752563477,0.4466826617717743,-20.181917190551758,-0.7903953194618225,-2.4887118339538574,0.23471395671367645,0
4,0.015001296997070312,-0.4267818331718445,-19.868005752563477,-0.4466826617717743,20.181917190551758,0.7903953194618225,2.4887118339538574,-0.23471395671367645,0.0,0.0,0.0,0.0,0.0,0.0,0.0,-0.39704867724362863,-0.107918232584461,-0.2209816562887088,0.37805070406386043,0.21022059203723953,0.10212044255958626,-0.27113854976050755,1.2135206741659266,-0.21998452546234948,-0.007481976310880305,-2.6041792124362892,-0.10901377910424367,2.4681191864523466,0.8264738356403173,1.2134413937687574,-0.2202432315892585,-0.0075118285948192216,-2.6038483821997875,-0.10888392708698907,2.4681821257803174,0.826474908251239,0.0002002029983269713,8.341733401233914e-05,0.0006508448861597358,-0.0009652376258369502,0.00020618728725390484,-0.0006653170898621017,-0.0016662531146929573,0.0,0.0,0.0,0.0,0.0,0.0,0.0,-7.928039716920132e-05,-0.0002587061269090085,-2.9852283938916133e-05,0.0003308302365017113,0.00012985201725460027,6.293932797074575e-05,1.0726109217484847e-06,-0.0002002029983269713,-8.341733401233914e-05,-0.0006508448861597358,0.0009652376258369502,-0.00020618728725390484,0.0006653170898621017,0.0016662531146929573,0.4267818331718445,19.868005752563477,0.4466826617717743,-20.181917190551758,-0.7903953194618225,-2.4887118339538574,0.23471395671367645,0
5,0.021145105361938477,-0.4267818331718445,-19.844202041625977,-0.3990752398967743,20.181917190551758,0.7968040108680725,2.4694857597351074,-0.24844686686992645,0.0,0.0,0.0,0.0,0.0,0.0,0.0,-0.4017666324742062,-0.10559954481480086,-0.22386787885953705,0.3769848603362678,0.21026172906287596,0.1016850880886679,-0.27065252766938414,1.2135206741659266,-0.21998349927605673,-0.0074853142480514915,-2.6041792124363408,-0.10901232643182147,2.4681209651114573,0.8264789053085735,1.2134413937687574,-0.2202432315892585,-0.0075118285948192216,-2.6038483821997875,-0.10888392708698907,2.4681821257803174,0.826474908251239,0.0002694410826060849,0.0001732961279215517,-0.0008665766970283087,-0.0005541597755487787,-0.00016320987686383487,0.00023880798213732758,-0.001277987773328936,0.0,0.0,0.0,0.0,0.0,0.0,0.0,-7.928039716920132e-05,-0.00025973231320175483,-2.6514346767730033e-05,0.00033083023655322563,0.0001283993448324,6.116066886008298e-05,-3.9970573344483284e-06,-0.0002694410826060849,-0.0001732961279215517,0.0008665766970283087,0.0005541597755487787,0.00016320987686383487,-0.00023880798213732758,0.001277987773328936,0.4267818331718445,19.844202041625977,0.3990752398967743,-20.181917190551758,-0.7968040108680725,-2.4694857597351074,0.24844686686992645,0
6,0.02494335174560547,-0.4267818331718445,-19.844202041625977,-0.3990752398967743,20.181917190551758,0.7968040108680725,2.4694857597351074,-0.24844686686992645,0.0,0.0,0.0,0.0,0.0,0.0,0.0,-0.4017666324742062,-0.10559954481480086,-0.22386787885953705,0.3769848603362678,0.21026172906287596,0.1016850880886679,-0.27065252766938414,1.2135206741659266,-0.21998349927605673,-0.0074853142480514915,-2.6041792124363408,-0.10901232643182147,2.4681209651114573,0.8264789053085735,1.2134413937687574,-0.2202432315892585,-0.0075118285948192216,-2.6038483821997875,-0.10888392708698907,2.4681821257803174,0.826474908251239,0.0002694410826060849,0.0001732961279215517,-0.0008665766970283087,-0.0005541597755487787,-0.00016320987686383487,0.00023880798213732758,-0.001277987773328936,0.0,0.0,0.0,0.0,0.0,0.0,0.0,-7.928039716920132e-05,-0.00025973231320175483,-2.6514346767730033e-05,0.00033083023655322563,0.0001283993448324,6.116066886008298e-05,-3.9970573344483284e-06,-0.0002694410826060849,-0.0001732961279215517,0.0008665766970283087,0.0005541597755487787,0.00016320987686383487,-0.00023880798213732758,0.001277987773328936,0.4267818331718445,19.844202041625977,0.3990752398967743,-20.181917190551758,-0.7968040108680725,-2.4694857597351074,0.24844686686992645,0
7,0.029998064041137695,-0.4267818331718445,-19.844202041625977,-0.3990752398967743,20.181917190551758,0.7968040108680725,2.4694857597351074,-0.26858848333358765,0.0,0.0,0.0,0.0,0.0,0.0,0.0,-0.39531342570719846,-0.10746971836176092,-0.21527898938037798,0.3802169311561449,0.20996251418909467,0.10221681100792529,-0.2704153012882157,1.2135206741659266,-0.2199863449765871,-0.007485305480316367,-2.6041792124363408,-0.10901402173966736,2.468120262560153,0.8264807909884517,1.2134413937687574,-0.2202432315892585,-0.0075118285948192216,-2.6038483821997875,-0.10888392708698907,2.4681821257803174,0.826474908251239,0.0010144726905662576,0.000273290063100006,-3.1904749702674986e-05,-0.0007822931635599778,4.097800110216583e-05,0.00020030473071987626,-0.00017567328260195822,0.0,0.0,0.0,0.0,0.0,0.0,0.0,-7.928039716920132e-05,-0.00025688661267139756,-2.6523114502854765e-05,0.00033083023655322563,0.00013009465267828368,6.186322016432655e-05,-5.8827372126923905e-06,-0.0010144726905662576,-0.000273290063100006,3.1904749702674986e-05,0.0007822931635599778,-4.097800110216583e-05,-0.00020030473071987626,0.00017567328260195822,0.4267818331718445,19.844202041625977,0.3990752398967743,-20.181917190551758,-0.7968040108680725,-2.4694857597351074,0.26858848333358765,0
8,0.03499889373779297,-0.4267818331718445,-19.844202041625977,-0.3990752398967743,20.181917190551758,0.7968040108680725,2.4694857597351074,-0.26858848333358765,0.0,0.0,0.0,0.0,0.0,0.0,0.0,-0.39531342570719846,-0.10746971836176092,-0.21527898938037798,0.3802169311561449,0.20996251418909467,0.10221681100792529,-0.2704153012882157,1.2135206741659266,-0.2199863449765871,-0.007485305480316367,-2.6041792124363408,-0.10901402173966736,2.468120262560153,0.8264807909884517,1.2134413937687574,-0.2202432315892585,-0.0075118285948192216,-2.6038483821997875,-0.10888392708698907,2.4681821257803174,0.826474908251239,0.0010144726905662576,0.000273290063100006,-3.1904749702674986e-05,-0.0007822931635599778,4.097800110216583e-05,0.00020030473071987626,-0.00017567328260195822,0.0,0.0,0.0,0.0,0.0,0.0,0.0,-7.928039716920132e-05,-0.00025688661267139756,-2.6523114502854765e-05,0.00033083023655322563,0.00013009465267828368,6.186322016432655e-05,-5.8827372126923905e-06,-0.0010144726905662576,-0.000273290063100006,3.1904749702674986e-05,0.0007822931635599778,-4.097800110216583e-05,-0.00020030473071987626,0.00017567328260195822,0.4267818331718445,19.844202041625977,0.3990752398967743,-20.181917190551758,-0.7968040108680725,-2.4694857597351074,0.26858848333358765,0
9,0.04001784324645996,-0.3514034152030945,-19.844202041625977,-0.3990752398967743,20.154146194458008,0.7968040108680725,2.4758944511413574,-0.28964561223983765,0.0,0.0,0.0,0.0,0.0,0.0,0.0,-0.3981418952852957,-0.10140827537982958,-0.21680056134076492,0.37672124544907704,0.21048342053922825,0.10152542792841446,-0.26945102030853085,1.2135153844523847,-0.2199860836244652,-0.0074853054802668725,-2.6041772635945097,-0.1090123643986293,2.4681206062413596,0.8264791135929248,1.2134413937687574,-0.2202432315892585,-0.0075118285948192216,-2.6038483821997875,-0.10888392708698907,2.4681821257803174,0.826474908251239,-0.0007030256911202829,0.0005058719366347859,-0.00037868363917310035,-0.00029025540638356125,-0.0001566612789880665,-0.00028418799903397245,0.0006621237231278678,0.0,0.0,0.0,0.0,0.0,0.0,0.0,-7.399068362734518e-05,-0.00025714796479328617,-2.6523114552349028e-05,0.00032888139472220246,0.00012843731164022265,6.151953895772166e-05,-4.2053416857701365e-06,0.0007030256911202829,-0.0005058719366347859,0.00037868363917310035,0.00029025540638356125,0.0001566612789880665,0.00028418799903397245,-0.0006621237231278678,0.3514034152030945,19.844202041625977,0.3990752398967743,-20.154146194458008,-0.7968040108680725,-2.4758944511413574,0.28964561223983765,0
10,0.04501032829284668,-0.3514034152030945,-19.844202041625977,-0.3990752398967743,20.154146194458008,0.7968040108680725,2.4758944511413574,-0.28964561223983765,0.0,0.0,0.0,0.0,0.0,0.0,0.0,-0.3981418952852957,-0.10140827537982958,-0.21680056134076492,0.37672124544907704,0.21048342053922825,0.10152542792841446,-0.26945102030853085,1.2135153844523847,-0.2199860836244652,-0.0074853054802668725,-2.6041772635945097,-0.1090123643986293,2.4681206062413596,0.8264791135929248,1.2134413937687574,-0.2202432315892585,-0.0075118285948192216,-2.6038483821997875,-0.10888392708698907,2.4681821257803174,0.826474908251239,-0.0007030256911202829,0.0005058719366347859,-0.00037868363917310035,-0.00029025540638356125,-0.0001566612789880665,-0.00028418799903397245,0.0006621237231278678,0.0,0.0,0.0,0.0,0.0,0.0,0.0,-7.399068362734518e-05,-0.00025714796479328617,-2.6523114552349028e-05,0.00032888139472220246,0.00012843731164022265,6.151953895772166e-05,-4.2053416857701365e-06,0.0007030256911202829,-0.0005058719366347859,0.00037868363917310035,0.00029025540638356125,0.0001566612789880665,0.00028418799903397245,-0.0006621237231278678,0.3514034152030945,19.844202041625977,0.3990752398967743,-20.154146194458008,-0.7968040108680725,-2.4758944511413574,0.28964561223983765,0
11,0.05001378059387207,-0.4029781222343445,-19.868005752563477,-0.4228789508342743,20.154146194458008,0.7968040108680725,2.4694857597351074,-0.28964561223983765,0.0,0.0,0.0,0.0,0.0,0.0,0.0,-0.3942216532411841,-0.11006291792023089,-0.21705552088736813,0.3833186699875853,0.2106738639880343,0.10248486091408279,-0.26997437933586144,1.2135190037300712,-0.21998262867830226,-0.007485765600021471,-2.604177263909446,-0.10901555966518654,2.4681213225232876,0.8264834841804971,1.2134413937687574,-0.2202432315892585,-0.0075118285948192216,-2.6038483821997875,-0.10888392708698907,2.4681821257803174,0.826474908251239,0.0003862159428822576,0.00041679609087677576,0.00026317918375253494,-0.00014010456764890097,-0.00019834838469335532,0.00012885391441976444,0.010311074903018176,0.0,0.0,0.0,0.0,0.0,0.0,0.0,-7.760996131378484e-05,-0.0002606029109562258,-2.606299479775056e-05,0.0003288817096582797,0.00013163257819746865,6.0803257029728996e-05,-8.575929258070047e-06,-0.0003862159428822576,-0.00041679609087677576,-0.00026317918375253494,0.00014010456764890097,0.00019834838469335532,-0.00012885391441976444,-0.010311074903018176,0.4029781222343445,19.868005752563477,0.4228789508342743,-20.154146194458008,-0.7968040108680725,-2.4694857597351074,0.28964561223983765,0
12,0.05499744415283203,-0.4029781222343445,-19.868005752563477,-0.4228789508342743,20.154146194458008,0.7968040108680725,2.4694857597351074,-0.28964561223983765,0.0,0.0,0.0,0.0,0.0,0.0,0.0,-0.3942216532411841,-0.11006291792023089,-0.21705552088736813,0.3833186699875853,0.2106738639880343,0.10248486091408279,-0.26997437933586144,1.2135190037300712,-0.21998262867830226,-0.007485765600021471,-2.604177263909446,-0.10901555966518654,2.4681213225232876,0.8264834841804971,1.2134413937687574,-0.2202432315892585,-0.0075118285948192216,-2.6038483821997875,-0.10888392708698907,2.4681821257803174,0.826474908251239,0.0003862159428822576,0.00041679609087677576,0.00026317918375253494,-0.00014010456764890097,-0.00019834838469335532,0.00012885391441976444,0.010311074903018176,0.0,0.0,0.0,0.0,0.0,0.0,0.0,-7.760996131378484e-05,-0.0002606029109562258,-2.606299479775056e-05,0.0003288817096582797,0.00013163257819746865,6.0803257029728996e-05,-8.575929258070047e-06,-0.0003862159428822576,-0.00041679609087677576,-0.00026317918375253494,0.00014010456764890097,0.00019834838469335532,-0.00012885391441976444,-0.010311074903018176,0.4029781222343445,19.868005752563477,0.4228789508342743,-20.154146194458008,-0.7968040108680725,-2.4694857597351074,0.28964561223983765,0
13,0.06000661849975586,-0.4029781222343445,-19.816431045532227,-0.4228789508342743,20.154146194458008,0.7968040108680725,2.4758944511413574,-0.30337852239608765,0.0,0.0,0.0,0.0,0.0,0.0,0.0,-0.38962827473542555,-0.10834966373717284,-0.21333102781746136,0.37717695892191544,0.20998929123070123,0.10154966709845825,-0.2711220587417741,1.2135190037300712,-0.21998767020697788,-0.007483635056438657,-2.604177263594512,-0.10901556017001184,2.468120257395284,0.8264848518086042,1.2134413937687574,-0.2202432315892585,-0.0075118285948192216,-2.6038483821997875,-0.10888392708698907,2.4681821257803174,0.826474908251239,3.5579782674499375e-05,-0.0013693892353978474,0.0005543476505178508,-0.0003955720577584106,-7.556008141912692e-05,-0.00010592861364894922,0.001881195251430753,0.0,0.0,0.0,0.0,0.0,0.0,0.0,-7.760996131378484e-05,-0.0002555613822806113,-2.819353838056423e-05,0.0003288813947244229,0.00013163308302276133,6.18683850333035e-05,-9.943557365166278e-06,-3.5579782674499375e-05,0.0013693892353978474,-0.0005543476505178508,0.0003955720577584106,7.556008141912692e-05,0.00010592861364894922,-0.001881195251430753,0.4029781222343445,19.816431045532227,0.4228789508342743,-20.154146194458008,-0.7968040108680725,-2.4758944511413574,0.30337852239608765,0
14,0.06500029563903809,-0.4029781222343445,-19.816431045532227,-0.4228789508342743,20.154146194458008,0.7968040108680725,2.4758944511413574,-0.30337852239608765,0.0,0.0,0.0,0.0,0.0,0.0,0.0,-0.38962827473542555,-0.10834966373717284,-0.21333102781746136,0.37717695892191544,0.20998929123070123,0.10154966709845825,-0.2711220587417741,1.2135190037300712,-0.21998767020697788,-0.007483635056438657,-2.604177263594512,-0.10901556017001184,2.468120257395284,0.8264848518086042,1.2134413937687574,-0.2202432315892585,-0.0075118285948192216,-2.6038483821997875,-0.10888392708698907,2.4681821257803174,0.826474908251239,3.5579782674499375e-05,-0.0013693892353978474,0.0005543476505178508,-0.0003955720577584106,-7.556008141912692e-05,-0.00010592861364894922,0.001881195251430753,0.0,0.0,0.0,0.0,0.0,0.0,0.0,-7.760996131378484e-05,-0.0002555613822806113,-2.819353838056423e-05,0.0003288813947244229,0.00013163308302276133,6.18683850333035e-05,-9.943557365166278e-06,-3.5579782674499375e-05,0.0013693892353978474,-0.0005543476505178508,0.0003955720577584106,7.556008141912692e-05,0.00010592861364894922,-0.001881195251430753,0.4029781222343445,19.816431045532227,0.4228789508342743,-20.154146194458008,-0.7968040108680725,-2.4758944511413574,0.30337852239608765,0
15,0.07002019882202148,-0.4029781222343445,-19.844202041625977,-0.4466826617717743,20.181917190551758,0.8022971749305725,2.4758944511413574,-0.30337852239608765,0.0,0.0,0.0,0.0,0.0,0.0,0.0,-0.3949281360839146,-0.1342727719982373,-0.2166947425296234,0.41254053045393835,0.2112411530139643,0.10748334233814069,-0.2720806426184666,1.2135190037300712,-0.21998426388202494,-0.00748199091171209,-2.604179212436341,-0.10901617003478926,2.468120610606001,0.8264818313841349,1.2134413937687574,-0.2202432315892585,-0.0075118285948192216,-2.6038483821997875,-0.10888392708698907,2.4681821257803174,0.826474908251239,-0.00030213927992684634,-0.0007400419430535789,0.00042282257874353844,-0.0012710042147923933,-0.00030485146389501916,5.5248045320571084e-05,0.0009746593912032349,0.0,0.0,0.0,0.0,0.0,0.0,0.0,-7.760996131378484e-05,-0.00025896770723354834,-2.9837683107131197e-05,0.0003308302365536697,0.0001322429478001902,6.151517431618458e-05,-6.923132895853001e-06,0.00030213927992684634,0.0007400419430535789,-0.00042282257874353844,0.0012710042147923933,0.00030485146389501916,-5.5248045320571084e-05,-0.0009746593912032349,0.4029781222343445,19.844202041625977,0.4466826617717743,-20.181917190551758,-0.8022971749305725,-2.4758944511413574,0.30337852239608765,0
16,0.0749971866607666,-0.4029781222343445,-19.844202041625977,-0.4466826617717743,20.181917190551758,0.8022971749305725,2.4758944511413574,-0.30337852239608765,0.0,0.0,0.0,0.0,0.0,0.0,0.0,-0.3949281360839146,-0.1342727719982373,-0.2166947425296234,0.41254053045393835,0.2112411530139643,0.10748334233814069,-0.2720806426184666,1.2135190037300712,-0.21998426388202494,-0.00748199091171209,-2.604179212436341,-0.10901617003478926,2.468120610606001,0.8264818313841349,1.2134413937687574,-0.2202432315892585,-0.0075118285948192216,-2.6038483821997875,-0.10888392708698907,2.4681821257803174,0.826474908251239,-0.00030213927992684634,-0.0007400419430535789,0.00042282257874353844,-0.0012710042147923933,-0.00030485146389501916,5.5248045320571084e-05,0.0009746593912032349,0.0,0.0,0.0,0.0,0.0,0.0,0.0,-7.760996131378484e-05,-0.00025896770723354834,-2.9837683107131197e-05,0.0003308302365536697,0.0001322429478001902,6.151517431618458e-05,-6.923132895853001e-06,0.00030213927992684634,0.0007400419430535789,-0.00042282257874353844,0.0012710042147923933,0.00030485146389501916,-5.5248045320571084e-05,-0.0009746593912032349,0.4029781222343445,19.844202041625977,0.4466826617717743,-20.181917190551758,-0.8022971749305725,-2.4758944511413574,0.30337852239608765,0
17,0.08001399040222168,-0.4029781222343445,-19.844202041625977,-0.3990752398967743,20.154146194458008,0.8022971749305725,2.4630770683288574,-0.28964561223983765,0.0,0.0,0.0,0.0,0.0,0.0,0.0,-0.39654725625993587,-0.10990905439683117,-0.21813747533814365,0.36963790865069035,0.2102673629694735,0.10170069509405365,-0.27293569042761584,1.2135190037300712,-0.21998403335906602,-0.0074853054804153545,-2.604177263481456,-0.1090161703593118,2.4681220211951715,0.8264823811579296,1.2134413937687574,-0.2202432315892585,-0.0075118285948192216,-2.6038483821997875,-0.10888392708698907,2.4681821257803174,0.826474908251239,8.448096815857712e-05,-0.0004946451466992625,-0.0008800381163435129,-2.118344804627579e-05,-0.0003571432363398802,0.0002837618866937008,0.0010023108360449635,0.0,0.0,0.0,0.0,0.0,0.0,0.0,-7.760996131378484e-05,-0.00025919823019246446,-2.6523114403867107e-05,0.00032888128166863595,0.00013224327232272404,6.010458514582595e-05,-7.472906690564329e-06,-8.448096815857712e-05,0.0004946451466992625,0.0008800381163435129,2.118344804627579e-05,0.0003571432363398802,-0.0002837618866937008,-0.0010023108360449635,0.4029781222343445,19.844202041625977,0.3990752398967743,-20.154146194458008,-0.8022971749305725,-2.4630770683288574,0.28964561223983765,0
18,0.08500051498413086,-0.4029781222343445,-19.844202041625977,-0.3990752398967743,20.154146194458008,0.8022971749305725,2.4630770683288574,-0.28964561223983765,0.0,0.0,0.0,0.0,0.0,0.0,0.0,-0.39654725625993587,-0.10990905439683117,-0.21813747533814365,0.36963790865069035,0.2102673629694735,0.10170069509405365,-0.27293569042761584,1.2135190037300712,-0.21998403335906602,-0.0074853054804153545,-2.604177263481456,-0.1090161703593118,2.4681220211951715,0.8264823811579296,1.2134413937687574,-0.2202432315892585,-0.0075118285948192216,-2.6038483821997875,-0.10888392708698907,2.4681821257803174,0.826474908251239,8.448096815857712e-05,-0.0004946451466992625,-0.0008800381163435129,-2.118344804627579e-05,-0.0003571432363398802,0.0002837618866937008,0.0010023108360449635,0.0,0.0,0.0,0.0,0.0,0.0,0.0,-7.760996131378484e-05,-0.00025919823019246446,-2.6523114403867107e-05,0.00032888128166863595,0.00013224327232272404,6.010458514582595e-05,-7.472906690564329e-06,-8.448096815857712e-05,0.0004946451466992625,0.0008800381163435129,2.118344804627579e-05,0.0003571432363398802,-0.0002837618866937008,-0.0010023108360449635,0.4029781222343445,19.844202041625977,0.3990752398967743,-20.154146194458008,-0.8022971749305725,-2.4630770683288574,0.28964561223983765,0
19,0.089996337890625,-0.4029781222343445,-19.844202041625977,-0.3990752398967743,20.154146194458008,0.8022971749305725,2.4630770683288574,-0.28964561223983765,0.0,0.0,0.0,0.0,0.0,0.0,0.0,-0.39654725625993587,-0.10990905439683117,-0.21813747533814365,0.36963790865069035,0.2102673629694735,0.10170069509405365,-0.27293569042761584,1.2135190037300712,-0.21998403335906602,-0.0074853054804153545,-2.604177263481456,-0.1090161703593118,2.4681220211951715,0.8264823811579296,1.2134413937687574,-0.2202432315892585,-0.0075118285948192216,-2.6038483821997875,-0.10888392708698907,2.4681821257803174,0.826474908251239,8.448096815857712e-05,-0.0004946451466992625,-0.0008800381163435129,-2.118344804627579e-05,-0.0003571432363398802,0.0002837618866937008,0.0010023108360449635,0.0,0.0,0.0,0.0,0.0,0.0,0.0,-7.760996131378484e-05,-0.00025919823019246446,-2.6523114403867107e-05,0.00032888128166863595,0.00013224327232272404,6.010458514582595e-05,-7.472906690564329e-06,-8.448096815857712e-05,0.0004946451466992625,0.0008800381163435129,2.118344804627579e-05,0.0003571432363398802,-0.0002837618866937008,-0.0010023108360449635,0.4029781222343445,19.844202041625977,0.3990752398967743,-20.154146194458008,-0.8022971749305725,-2.4630770683288574,0.28964561223983765,0
20,0.09499835968017578,-0.4029781222343445,-19.844202041625977,-0.3990752398967743,20.154146194458008,0.8022971749305725,2.4630770683288574,-0.28964561223983765,0.0,0.0,0.0,0.0,0.0,0.0,0.0,-0.39654725625993587,-0.10990905439683117,-0.21813747533814365,0.36963790865069035,0.2102673629694735,0.10170069509405365,-0.27293569042761584,1.2135190037300712,-0.21998403335906602,-0.0074853054804153545,-2.604177263481456,-0.1090161703593118,2.4681220211951715,0.8264823811579296,1.2134413937687574,-0.2202432315892585,-0.0075118285948192216,-2.6038483821997875,-0.10888392708698907,2.4681821257803174,0.826474908251239,8.448096815857712e-05,-0.0004946451466992625,-0.0008800381163435129,-2.118344804627579e-05,-0.0003571432363398802,0.0002837618866937008,0.0010023108360449635,0.0,0.0,0.0,0.0,0.0,0.0,0.0,-7.760996131378484e-05,-0.00025919823019246446,-2.6523114403867107e-05,0.00032888128166863595,0.00013224327232272404,6.010458514582595e-05,-7.472906690564329e-06,-8.448096815857712e-05,0.0004946451466992625,0.0008800381163435129,2.118344804627579e-05,0.0003571432363398802,-0.0002837618866937008,-0.0010023108360449635,0.4029781222343445,19.844202041625977,0.3990752398967743,-20.154146194458008,-0.8022971749305725,-2.4630770683288574,0.28964561223983765,0
21,0.10001945495605469,-0.4029781222343445,-19.816431045532227,-0.4228789508342743,20.106538772583008,0.7968040108680725,2.4694857597351074,-0.28964561223983765,0.0,0.0,0.0,0.0,0.0,0.0,0.0,-0.39405520277628414,-0.10861390437905213,-0.21632563252742384,0.3647751058990661,0.20968123577905412,0.10054890960982063,-0.27304862083666054,1.2135190037300712,-0.21998764383716776,-0.007483635044411609,-2.604173922722799,-0.10901520524753186,2.468121282954368,0.8264833666767135,1.2134413937687574,-0.2202432315892585,-0.0075118285948192216,-2.6038483821997875,-0.10888392708698907,2.4681821257803174,0.826474908251239,0.00016446183258783873,-0.0007270969681898474,0.0003778799159536746,0.0008618979521010171,-0.00010774862509198524,0.0001718183281410281,0.0006780248300988186,0.0,0.0,0.0,0.0,0.0,0.0,0.0,-7.760996131378484e-05,-0.0002555877520907246,-2.8193550407612858e-05,0.0003255405230113695,0.00013127816054278596,6.084282594942536e-05,-8.458425474477949e-06,-0.00016446183258783873,0.0007270969681898474,-0.0003778799159536746,-0.0008618979521010171,0.00010774862509198524,-0.0001718183281410281,-0.0006780248300988186,0.4029781222343445,19.816431045532227,0.4228789508342743,-20.106538772583008,-0.7968040108680725,-2.4694857597351074,0.28964561223983765,0
22,0.10502123832702637,-0.4029781222343445,-19.816431045532227,-0.4228789508342743,20.106538772583008,0.7968040108680725,2.4694857597351074,-0.28964561223983765,0.0,0.0,0.0,0.0,0.0,0.0,0.0,-0.39405520277628414,-0.10861390437905213,-0.21632563252742384,0.3647751058990661,0.20968123577905412,0.10054890960982063,-0.27304862083666054,1.2135190037300712,-0.21998764383716776,-0.007483635044411609,-2.604173922722799,-0.10901520524753186,2.468121282954368,0.8264833666767135,1.2134413937687574,-0.2202432315892585,-0.0075118285948192216,-2.6038483821997875,-0.10888392708698907,2.4681821257803174,0.826474908251239,0.00016446183258783873,-0.0007270969681898474,0.0003778799159536746,0.0008618979521010171,-0.00010774862509198524,0.0001718183281410281,0.0006780248300988186,0.0,0.0,0.0,0.0,0.0,0.0,0.0,-7.760996131378484e-05,-0.0002555877520907246,-2.8193550407612858e-05,0.0003255405230113695,0.00013127816054278596,6.084282594942536e-05,-8.458425474477949e-06,-0.00016446183258783873,0.0007270969681898474,-0.0003778799159536746,-0.0008618979521010171,0.00010774862509198524,-0.0001718183281410281,-0.0006780248300988186,0.4029781222343445,19.816431045532227,0.4228789508342743,-20.106538772583008,-0.7968040108680725,-2.4694857597351074,0.28964561223983765,0
23,0.11001873016357422,-0.4029781222343445,-19.844202041625977,-0.4228789508342743,20.106538772583008,0.7968040108680725,2.4630770683288574,-0.26858848333358765,0.0,0.0,0.0,0.0,0.0,0.0,0.0,-0.3968816134882466,-0.10809740101957442,-0.21693532138574503,0.36719832886810555,0.20949614566286215,0.10042137078312421,-0.2739824410274093,1.2135190037300712,-0.21998429748429024,-0.007483635044411609,-2.6041739227227994,-0.10901555870764737,2.468122034761416,0.826481144738857,1.2134413937687574,-0.2202432315892585,-0.0075118285948192216,-2.6038483821997875,-0.10888392708698907,2.4681821257803174,0.826474908251239,0.00015998958461970413,0.00021215531998695051,0.00020787329772595112,0.001031613851915365,-6.583930352846583e-05,0.00031584012256794214,-0.00027116103582885254,0.0,0.0,0.0,0.0,0.0,0.0,0.0,-7.760996131378484e-05,-0.00025893410496824476,-2.8193550407612858e-05,0.0003255405230118136,0.0001316316206582957,6.009101890125379e-05,-6.236487617994335e-06,-0.00015998958461970413,-0.00021215531998695051,-0.00020787329772595112,-0.001031613851915365,6.583930352846583e-05,-0.00031584012256794214,0.00027116103582885254,0.4029781222343445,19.844202041625977,0.4228789508342743,-20.106538772583008,-0.7968040108680725,-2.4630770683288574,0.26858848333358765,0
24,0.11501407623291016,-0.4029781222343445,-19.844202041625977,-0.4228789508342743,20.106538772583008,0.7968040108680725,2.4630770683288574,-0.26858848333358765,0.0,0.0,0.0,0.0,0.0,0.0,0.0,-0.3968816134882466,-0.10809740101957442,-0.21693532138574503,0.36719832886810555,0.20949614566286215,0.10042137078312421,-0.2739824410274093,1.2135190037300712,-0.21998429748429024,-0.007483635044411609,-2.6041739227227994,-0.10901555870764737,2.468122034761416,0.826481144738857,1.2134413937687574,-0.2202432315892585,-0.0075118285948192216,-2.6038483821997875,-0.10888392708698907,2.4681821257803174,0.826474908251239,0.00015998958461970413,0.00021215531998695051,0.00020787329772595112,0.001031613851915365,-6.583930352846583e-05,0.00031584012256794214,-0.00027116103582885254,0.0,0.0,0.0,0.0,0.0,0.0,0.0,-7.760996131378484e-05,-0.00025893410496824476,-2.8193550407612858e-05,0.0003255405230118136,0.0001316316206582957,6.009101890125379e-05,-6.236487617994335e-06,-0.00015998958461970413,-0.00021215531998695051,-0.00020787329772595112,-0.001031613851915365,6.583930352846583e-05,-0.00031584012256794214,0.00027116103582885254,0.4029781222343445,19.844202041625977,0.4228789508342743,-20.106538772583008,-0.7968040108680725,-2.4630770683288574,0.26858848333358765,0
25,0.11999797821044922,-0.4029781222343445,-19.844202041625977,-0.4228789508342743,20.154146194458008,0.8022971749305725,2.4758944511413574,-0.24844686686992645,0.0,0.0,0.0,0.0,0.0,0.0,0.0,-0.3982261079013588,-0.10487656791174126,-0.21629383901612395,0.36807601567256876,0.20992054474280714,0.10029920695034367,-0.27452611682918543,1.2135190037300712,-0.21998632969298584,-0.007483635044411609,-2.6041772635945097,-0.10901617003476449,2.468120492870425,0.826478889339534,1.2134413937687574,-0.2202432315892585,-0.0075118285948192216,-2.6038483821997875,-0.10888392708698907,2.4681821257803174,0.826474908251239,3.0271350674293577e-05,0.00033491473990995526,0.0005820437163603921,-3.465806444963887e-05,-0.0003561387777116361,-0.00020665418730914177,-0.0010984168866937667,0.0,0.0,0.0,0.0,0.0,0.0,0.0,-7.760996131378484e-05,-0.00025690189627264326,-2.8193550407612858e-05,0.00032888139472220246,0.00013224294777541834,6.163290989258385e-05,-3.981088294913171e-06,-3.0271350674293577e-05,-0.00033491473990995526,-0.0005820437163603921,3.465806444963887e-05,0.0003561387777116361,0.00020665418730914177,0.0010984168866937667,0.4029781222343445,19.844202041625977,0.4228789508342743,-20.154146194458008,-0.8022971749305725,-2.4758944511413574,0.24844686686992645,0
26,0.12499880790710449,-0.4029781222343445,-19.844202041625977,-0.4228789508342743,20.154146194458008,0.8022971749305725,2.4758944511413574,-0.24844686686992645,0.0,0.0,0.0,0.0,0.0,0.0,0.0,-0.3982261079013588,-0.10487656791174126,-0.21629383901612395,0.36807601567256876,0.20992054474280714,0.10029920695034367,-0.27452611682918543,1.2135190037300712,-0.21998632969298584,-0.007483635044411609,-2.6041772635945097,-0.10901617003476449,2.468120492870425,0.826478889339534,1.2134413937687574,-0.2202432315892585,-0.0075118285948192216,-2.6038483821997875,-0.10888392708698907,2.4681821257803174,0.826474908251239,3.0271350674293577e-05,0.00033491473990995526,0.0005820437163603921,-3.465806444963887e-05,-0.0003561387777116361,-0.00020665418730914177,-0.0010984168866937667,0.0,0.0,0.0,0.0,0.0,0.0,0.0,-7.760996131378484e-05,-0.00025690189627264326,-2.8193550407612858e-05,0.00032888139472220246,0.00013224294777541834,6.163290989258385e-05,-3.981088294913171e-06,-3.0271350674293577e-05,-0.00033491473990995526,-0.0005820437163603921,3.465806444963887e-05,0.0003561387777116361,0.00020665418730914177,0.0010984168866937667,0.4029781222343445,19.844202041625977,0.4228789508342743,-20.154146194458008,-0.8022971749305725,-2.4758944511413574,0.24844686686992645,0
27,0.13024520874023438,-0.4267818331718445,-19.891809463500977,-0.3990752398967743,20.130342483520508,0.8022971749305725,2.4758944511413574,-0.28964561223983765,0.0,0.0,0.0,0.0,0.0,0.0,0.0,-0.36086591014423725,-0.10722836719489118,-0.17317087277392712,0.3701758141461824,0.20865607383323495,0.10108737118496368,-0.2741185589658404,1.2135206741659266,-0.21998306025790434,-0.0074853054802668725,-2.6041755931586548,-0.10901297665193951,2.468120609154223,0.8264834844204785,1.2134413937687574,-0.2202432315892585,-0.0075118285948192216,-2.6038483821997875,-0.10888392708698907,2.4681821257803174,0.826474908251239,0.0007745173049250249,0.0008108843646434552,-0.0017637040100598209,0.000265311861785367,-0.00024006420327716407,2.2059127028036527e-05,0.0007756755389587148,0.0,0.0,0.0,0.0,0.0,0.0,0.0,-7.928039716920132e-05,-0.00026017133135414205,-2.6523114552349028e-05,0.00032721095886723006,0.00012904956495043973,6.151662609443775e-05,-8.576169239438158e-06,-0.0007745173049250249,-0.0008108843646434552,0.0017637040100598209,-0.000265311861785367,0.00024006420327716407,-2.2059127028036527e-05,-0.0007756755389587148,0.4267818331718445,19.891809463500977,0.3990752398967743,-20.130342483520508,-0.8022971749305725,-2.4758944511413574,0.28964561223983765,0
28,0.13501334190368652,-0.4267818331718445,-19.891809463500977,-0.3990752398967743,20.130342483520508,0.8022971749305725,2.4758944511413574,-0.28964561223983765,0.0,0.0,0.0,0.0,0.0,0.0,0.0,-0.36086591014423725,-0.10722836719489118,-0.17317087277392712,0.3701758141461824,0.20865607383323495,0.10108737118496368,-0.2741185589658404,1.2135206741659266,-0.21998306025790434,-0.0074853054802668725,-2.6041755931586548,-0.10901297665193951,2.468120609154223,0.8264834844204785,1.2134413937687574,-0.2202432315892585,-0.0075118285948192216,-2.6038483821997875,-0.10888392708698907,2.4681821257803174,0.826474908251239,0.0007745173049250249,0.0008108843646434552,-0.0017637040100598209,0.000265311861785367,-0.00024006420327716407,2.2059127028036527e-05,0.0007756755389587148,0.0,0.0,0.0,0.0,0.0,0.0,0.0,-7.928039716920132e-05,-0.00026017133135414205,-2.6523114552349028e-05,0.00032721095886723006,0.00012904956495043973,6.151662609443775e-05,-8.576169239438158e-06,-0.0007745173049250249,-0.0008108843646434552,0.0017637040100598209,-0.000265311861785367,0.00024006420327716407,-2.2059127028036527e-05,-0.0007756755389587148,0.4267818331718445,19.891809463500977,0.3990752398967743,-20.130342483520508,-0.8022971749305725,-2.4758944511413574,0.28964561223983765,0
29,0.14002180099487305,-0.4029781222343445,-19.868005752563477,-0.4228789508342743,20.154146194458008,0.7849021553993225,2.4758944511413574,-0.24844686686992645,0.0,0.0,0.0,0.0,0.0,0.0,0.0,-0.3933066822522475,-0.10691846707006418,-0.207032960028266,0.3723466328744159,0.21057369175226684,0.10136542832361943,-0.27288548628845855,1.2135190037300712,-0.21998254961133532,-0.007483871772812704,-2.604177263255348,-0.10901104325900002,2.4681206106079867,0.8264785535694271,1.2134413937687574,-0.2202432315892585,-0.0075118285948192216,-2.6038483821997875,-0.10888392708698907,2.4681821257803174,0.826474908251239,5.097479357165578e-06,0.00033187842788556994,7.959591361636289e-05,-0.00012510065489720217,0.00035172893671975606,2.0277112853148754e-06,-0.000736599422528776,0.0,0.0,0.0,0.0,0.0,0.0,0.0,-7.760996131378484e-05,-0.0002606819779231717,-2.795682200651753e-05,0.00032888105556061475,0.00012711617201094372,6.151517233066173e-05,-3.6453181880835572e-06,-5.097479357165578e-06,-0.00033187842788556994,-7.959591361636289e-05,0.00012510065489720217,-0.00035172893671975606,-2.0277112853148754e-06,0.000736599422528776,0.4029781222343445,19.868005752563477,0.4228789508342743,-20.154146194458008,-0.7849021553993225,-2.4758944511413574,0.24844686686992645,0
30,0.14502835273742676,-0.4029781222343445,-19.868005752563477,-0.4228789508342743,20.154146194458008,0.7849021553993225,2.4758944511413574,-0.24844686686992645,0.0,0.0,0.0,0.0,0.0,0.0,0.0,-0.3933066822522475,-0.10691846707006418,-0.207032960028266,0.3723466328744159,0.21057369175226684,0.10136542832361943,-0.27288548628845855,1.2135190037300712,-0.21998254961133532,-0.007483871772812704,-2.604177263255348,-0.10901104325900002,2.4681206106079867,0.8264785535694271,1.2134413937687574,-0.2202432315892585,-0.0075118285948192216,-2.6038483821997875,-0.10888392708698907,2.4681821257803174,0.826474908251239,5.097479357165578e-06,0.00033187842788556994,7.959591361636289e-05,-0.00012510065489720217,0.00035172893671975606,2.0277112853148754e-06,-0.000736599422528776,0.0,0.0,0.0,0.0,0.0,0.0,0.0,-7.760996131378484e-05,-0.0002606819779231717,-2.795682200651753e-05,0.00032888105556061475,0.00012711617201094372,6.151517233066173e-05,-3.6453181880835572e-06,-5.097479357165578e-06,-0.00033187842788556994,-7.959591361636289e-05,0.00012510065489720217,-0.00035172893671975606,-2.0277112853148754e-06,0.000736599422528776,0.4029781222343445,19.868005752563477,0.4228789508342743,-20.154146194458008,-0.7849021553993225,-2.4758944511413574,0.24844686686992645,0
31,0.15008997917175293,-0.3752071261405945,-19.868005752563477,-0.4228789508342743,20.130342483520508,0.7968040108680725,2.4630770683288574,-0.24112264811992645,0.0,0.0,0.0,0.0,0.0,0.0,0.0,-0.40535831275497336,-0.11266261158084868,-0.2202633525331679,0.3711210168727657,0.21087573336576393,0.10162367011417295,-0.27105386658549724,1.2135170548882401,-0.2199839747898981,-0.007483643813466506,-2.604175593158653,-0.10901544186251695,2.4681220216796884,0.8264780885635737,1.2134413937687574,-0.2202432315892585,-0.0075118285948192216,-2.6038483821997875,-0.10888392708698907,2.4681821257803174,0.826474908251239,-0.00042555502669242294,-0.0001804375488336973,0.00037538660245464136,0.0001589757875402917,4.333186968547532e-05,0.0003049253101920288,-0.0012701358360005602,0.0,0.0,0.0,0.0,0.0,0.0,0.0,-7.566111948276166e-05,-0.0002592567993603967,-2.818478135271571e-05,0.0003272109588654537,0.00013151477552787727,6.010410062895488e-05,-3.180312334705171e-06,0.00042555502669242294,0.0001804375488336973,-0.00037538660245464136,-0.0001589757875402917,-4.333186968547532e-05,-0.0003049253101920288,0.0012701358360005602,0.3752071261405945,19.868005752563477,0.4228789508342743,-20.130342483520508,-0.7968040108680725,-2.4630770683288574,0.24112264811992645,0
32,0.15676450729370117,-0.3752071261405945,-19.868005752563477,-0.4228789508342743,20.130342483520508,0.7968040108680725,2.4630770683288574,-0.24112264811992645,0.0,0.0,0.0,0.0,0.0,0.0,0.0,-0.40535831275497336,-0.11266261158084868,-0.2202633525331679,0.3711210168727657,0.21087573336576393,0.10162367011417295,-0.27105386658549724,1.2135170548882401,-0.2199839747898981,-0.007483643813466506,-2.604175593158653,-0.10901544186251695,2.4681220216796884,0.8264780885635737,1.2134413937687574,-0.2202432315892585,-0.0075118285948192216,-2.6038483821997875,-0.10888392708698907,2.4681821257803174,0.826474908251239,-0.00042555502669242294,-0.0001804375488336973,0.00037538660245464136,0.0001589757875402917,4.333186968547532e-05,0.0003049253101920288,-0.0012701358360005602,0.0,0.0,0.0,0.0,0.0,0.0,0.0,-7.566111948276166e-05,-0.0002592567993603967,-2.818478135271571e-05,0.0003272109588654537,0.00013151477552787727,6.010410062895488e-05,-3.180312334705171e-06,0.00042555502669242294,0.0001804375488336973,-0.00037538660245464136,-0.0001589757875402917,-4.333186968547532e-05,-0.0003049253101920288,0.0012701358360005602,0.3752071261405945,19.868005752563477,0.4228789508342743,-20.130342483520508,-0.7968040108680725,-2.4630770683288574,0.24112264811992645,0
33,0.15999698638916016,-0.3752071261405945,-19.816431045532227,-0.4228789508342743,20.130342483520508,0.7903953194618225,2.4758944511413574,-0.23471395671367645,0.0,0.0,0.0,0.0,0.0,0.0,0.0,-0.40104604888346673,-0.11355703581268103,-0.2199673302264266,0.37199683220644075,0.21088249668640674,0.10171148446706373,-0.270647032414227,1.2135170548882401,-0.21998766015917184,-0.00748363504446111,-2.6041755931586548,-0.10901483294801083,2.468120610607921,0.8264772573514348,1.2134413937687574,-0.2202432315892585,-0.0075118285948192216,-2.6038483821997875,-0.10888392708698907,2.4681821257803174,0.826474908251239,-5.3325434535632013e-05,-0.0010949411210105884,0.00016972052629639153,0.0001839812212043083,0.0001682634851214153,-0.00016840914557594153,-0.0018516039373126568,0.0,0.0,0.0,0.0,0.0,0.0,0.0,-7.566111948276166e-05,-0.00025557143008664296,-2.8193550358111656e-05,0.00032721095886723006,0.0001309058610217545,6.151517239638693e-05,-2.3491001958086954e-06,5.3325434535632013e-05,0.0010949411210105884,-0.00016972052629639153,-0.0001839812212043083,-0.0001682634851214153,0.00016840914557594153,0.0018516039373126568,0.3752071261405945,19.816431045532227,0.4228789508342743,-20.130342483520508,-0.7903953194618225,-2.4758944511413574,0.23471395671367645,0
34,0.16499757766723633,-0.3752071261405945,-19.816431045532227,-0.4228789508342743,20.130342483520508,0.7903953194618225,2.4758944511413574,-0.23471395671367645,0.0,0.0,0.0,0.0,0.0,0.0,0.0,-0.40104604888346673,-0.11355703581268103,-0.2199673302264266,0.37199683220644075,0.21088249668640674,0.10171148446706373,-0.270647032414227,1.2135170548882401,-0.21998766015917184,-0.00748363504446111,-2.6041755931586548,-0.10901483294801083,2.468120610607921,0.8264772573514348,1.2134413937687574,-0.2202432315892585,-0.0075118285948192216,-2.6038483821997875,-0.10888392708698907,2.4681821257803174,0.826474908251239,-5.3325434535632013e-05,-0.0010949411210105884,0.00016972052629639153,0.0001839812212043083,0.0001682634851214153,-0.00016840914557594153,-0.0018516039373126568,0.0,0.0,0.0,0.0,0.0,0.0,0.0,-7.566111948276166e-05,-0.00025557143008664296,-2.8193550358111656e-05,0.00032721095886723006,0.0001309058610217545,6.151517239638693e-05,-2.3491001958086954e-06,5.3325434535632013e-05,0.0010949411210105884,-0.00016972052629639153,-0.0001839812212043083,-0.0001682634851214153,0.00016840914557594153,0.0018516039373126568,0.3752071261405945,19.816431045532227,0.4228789508342743,-20.130342483520508,-0.7903953194618225,-2.4758944511413574,0.23471395671367645,0
35,0.1699988842010498,-0.3752071261405945,-19.868005752563477,-0.4466826617717743,20.154146194458008,0.7903953194618225,2.4758944511413574,-0.28964561223983765,0.0,0.0,0.0,0.0,0.0,0.0,0.0,-0.3980651119884031,-0.11239745583094526,-0.22124988820970487,0.37141646909793813,0.21072778817606883,0.10144047755591012,-0.2718469416029482,1.2135170548882401,-0.2199837081519626,-0.007481964608556346,-2.6041772635945097,-0.10901479528568844,2.4681206106079947,0.8264792444142114,1.2134413937687574,-0.2202432315892585,-0.0075118285948192216,-2.6038483821997875,-0.10888392708698907,2.4681821257803174,0.826474908251239,-0.00044433787858335234,0.0004614371648589381,0.0005663903094748162,-0.00027020018574913077,0.00022332201132923077,-2.4949870142506976e-05,0.0005814461422099079,0.0,0.0,0.0,0.0,0.0,0.0,0.0,-7.566111948276166e-05,-0.0002595234372958777,-2.986398626287582e-05,0.00032888139472220246,0.00013086819869936872,6.151517232266812e-05,-4.336162972351509e-06,0.00044433787858335234,-0.0004614371648589381,-0.0005663903094748162,0.00027020018574913077,-0.00022332201132923077,2.4949870142506976e-05,-0.0005814461422099079,0.3752071261405945,19.868005752563477,0.4466826617717743,-20.154146194458008,-0.7903953194618225,-2.4758944511413574,0.28964561223983765,0
36,0.17499446868896484,-0.3752071261405945,-19.868005752563477,-0.4466826617717743,20.154146194458008,0.7903953194618225,2.4758944511413574,-0.28964561223983765,0.0,0.0,0.0,0.0,0.0,0.0,0.0,-0.3980651119884031,-0.11239745583094526,-0.22124988820970487,0.37141646909793813,0.21072778817606883,0.10144047755591012,-0.2718469416029482,1.2135170548882401,-0.2199837081519626,-0.007481964608556346,-2.6041772635945097,-0.10901479528568844,2.4681206106079947,0.8264792444142114,1.2134413937687574,-0.2202432315892585,-0.0075118285948192216,-2.6038483821997875,-0.10888392708698907,2.4681821257803174,0.826474908251239,-0.00044433787858335234,0.0004614371648589381,0.0005663903094748162,-0.00027020018574913077,0.00022332201132923077,-2.4949870142506976e-05,0.0005814461422099079,0.0,0.0,0.0,0.0,0.0,0.0,0.0,-7.566111948276166e-05,-0.0002595234372958777,-2.986398626287582e-05,0.00032888139472220246,0.00013086819869936872,6.151517232266812e-05,-4.336162972351509e-06,0.00044433787858335234,-0.0004614371648589381,-0.0005663903094748162,0.00027020018574913077,-0.00022332201132923077,2.4949870142506976e-05,-0.0005814461422099079,0.3752071261405945,19.868005752563477,0.4466826617717743,-20.154146194458008,-0.7903953194618225,-2.4758944511413574,0.28964561223983765,0
37,0.1799936294555664,-0.3752071261405945,-19.844202041625977,-0.4466826617717743,20.154146194458008,0.7968040108680725,2.4694857597351074,-0.29605430364608765,0.0,0.0,0.0,0.0,0.0,0.0,0.0,-0.39299924489886495,-0.10972482388677003,-0.218652966126493,0.3718381038192663,0.21027393328063054,0.1018128537086657,-0.2726928983107956,1.2135170578316794,-0.2199863474106208,-0.007481964608556346,-2.6041770163456133,-0.10901556016971659,2.4681213226848175,0.8264810175590114,1.2134413937687574,-0.2202432315892585,-0.0075118285948192216,-2.6038483821997875,-0.10888392708698907,2.4681821257803174,0.826474908251239,-0.0004458839893888484,0.00015807159070859857,0.0012874492851375557,-0.00042471442718970887,-1.940589872903238e-05,0.00032240458972521304,0.0012685108028842958,0.0,0.0,0.0,0.0,0.0,0.0,0.0,-7.566406292203176e-05,-0.00025688417863770074,-2.986398626287582e-05,0.0003286341458257347,0.0001316330827275114,6.080309549982843e-05,-6.109307772339534e-06,0.0004458839893888484,-0.00015807159070859857,-0.0012874492851375557,0.00042471442718970887,1.940589872903238e-05,-0.00032240458972521304,-0.0012685108028842958,0.3752071261405945,19.844202041625977,0.4466826617717743,-20.154146194458008,-0.7968040108680725,-2.4694857597351074,0.29605430364608765,0
38,0.1850442886352539,-0.3752071261405945,-19.844202041625977,-0.4466826617717743,20.154146194458008,0.7968040108680725,2.4694857597351074,-0.29605430364608765,0.0,0.0,0.0,0.0,0.0,0.0,0.0,-0.39299924489886495,-0.10972482388677003,-0.218652966126493,0.3718381038192663,0.21027393328063054,0.1018128537086657,-0.2726928983107956,1.2135170578316794,-0.2199863474106208,-0.007481964608556346,-2.6041770163456133,-0.10901556016971659,2.4681213226848175,0.8264810175590114,1.2134413937687574,-0.2202432315892585,-0.0075118285948192216,-2.6038483821997875,-0.10888392708698907,2.4681821257803174,0.826474908251239,-0.0004458839893888484,0.00015807159070859857,0.0012874492851375557,-0.00042471442718970887,-1.940589872903238e-05,0.00032240458972521304,0.0012685108028842958,0.0,0.0,0.0,0.0,0.0,0.0,0.0,-7.566406292203176e-05,-0.00025688417863770074,-2.986398626287582e-05,0.0003286341458257347,0.0001316330827275114,6.080309549982843e-05,-6.109307772339534e-06,0.0004458839893888484,-0.00015807159070859857,-0.0012874492851375557,0.00042471442718970887,1.940589872903238e-05,-0.00032240458972521304,-0.0012685108028842958,0.3752071261405945,19.844202041625977,0.4466826617717743,-20.154146194458008,-0.7968040108680725,-2.4694857597351074,0.29605430364608765,0
39,0.19001150131225586,-0.3752071261405945,-19.844202041625977,-0.4466826617717743,20.154146194458008,0.7968040108680725,2.4694857597351074,-0.29605430364608765,0.0,0.0,0.0,0.0,0.0,0.0,0.0,-0.39299924489886495,-0.10972482388677003,-0.218652966126493,0.3718381038192663,0.21027393328063054,0.1018128537086657,-0.2726928983107956,1.2135170578316794,-0.2199863474106208,-0.007481964608556346,-2.6041770163456133,-0.10901556016971659,2.4681213226848175,0.8264810175590114,1.2134413937687574,-0.2202432315892585,-0.0075118285948192216,-2.6038483821997875,-0.10888392708698907,2.4681821257803174,0.826474908251239,-0.0004458839893888484,0.00015807159070859857,0.0012874492851375557,-0.00042471442718970887,-1.940589872903238e-05,0.00032240458972521304,0.0012685108028842958,0.0,0.0,0.0,0.0,0.0,0.0,0.0,-7.566406292203176e-05,-0.00025688417863770074,-2.986398626287582e-05,0.0003286341458257347,0.0001316330827275114,6.080309549982843e-05,-6.109307772339534e-06,0.0004458839893888484,-0.00015807159070859857,-0.0012874492851375557,0.00042471442718970887,1.940589872903238e-05,-0.00032240458972521304,-0.0012685108028842958,0.3752071261405945,19.844202041625977,0.4466826617717743,-20.154146194458008,-0.7968040108680725,-2.4694857597351074,0.29605430364608765,0
40,0.19501805305480957,-0.3752071261405945,-19.844202041625977,-0.4466826617717743,20.154146194458008,0.7968040108680725,2.4694857597351074,-0.29605430364608765,0.0,0.0,0.0,0.0,0.0,0.0,0.0,-0.39299924489886495,-0.10972482388677003,-0.218652966126493,0.3718381038192663,0.21027393328063054,0.1018128537086657,-0.2726928983107956,1.2135170578316794,-0.2199863474106208,-0.007481964608556346,-2.6041770163456133,-0.10901556016971659,2.4681213226848175,0.8264810175590114,1.2134413937687574,-0.2202432315892585,-0.0075118285948192216,-2.6038483821997875,-0.10888392708698907,2.4681821257803174,0.826474908251239,-0.0004458839893888484,0.00015807159070859857,0.0012874492851375557,-0.00042471442718970887,-1.940589872903238e-05,0.00032240458972521304,0.0012685108028842958,0.0,0.0,0.0,0.0,0.0,0.0,0.0,-7.566406292203176e-05,-0.00025688417863770074,-2.986398626287582e-05,0.0003286341458257347,0.0001316330827275114,6.080309549982843e-05,-6.109307772339534e-06,0.0004458839893888484,-0.00015807159070859857,-0.0012874492851375557,0.00042471442718970887,1.940589872903238e-05,-0.00032240458972521304,-0.0012685108028842958,0.3752071261405945,19.844202041625977,0.4466826617717743,-20.154146194458008,-0.7968040108680725,-2.4694857597351074,0.29605430364608765,0
41,0.20001578330993652,-0.4029781222343445,-19.816431045532227,-0.3990752398967743,20.154146194458008,0.7903953194618225,2.4694857597351074,-0.24844686686992645,0.0,0.0,0.0,0.0,0.0,0.0,0.0,-0.3948834890373775,-0.11582409734764912,-0.21963119022467617,0.3765765282642428,0.2103970803130059,0.10287670991824455,-0.27185568566315876,1.2135190037300878,-0.21998813866296021,-0.0074853054802668725,-2.6041772635931144,-0.10901479552009631,2.468121283438961,0.826478788542105,1.2134413937687574,-0.2202432315892585,-0.0075118285948192216,-2.6038483821997875,-0.10888392708698907,2.4681821257803174,0.826474908251239,0.0007436983760577575,-0.0012133680098001336,-0.0005023231604583984,-0.0002636379805000555,0.00011213702010122494,2.714362875929236e-06,-0.0008071983672333827,0.0,0.0,0.0,0.0,0.0,0.0,0.0,-7.760996133043818e-05,-0.0002550929262982726,-2.6523114552349028e-05,0.00032888139332687416,0.00013086843310723684,6.084234135617095e-05,-3.880290865954095e-06,-0.0007436983760577575,0.0012133680098001336,0.0005023231604583984,0.0002636379805000555,-0.00011213702010122494,-2.714362875929236e-06,0.0008071983672333827,0.4029781222343445,19.816431045532227,0.3990752398967743,-20.154146194458008,-0.7903953194618225,-2.4694857597351074,0.24844686686992645,0
42,0.2050025463104248,-0.4029781222343445,-19.816431045532227,-0.3990752398967743,20.154146194458008,0.7903953194618225,2.4694857597351074,-0.24844686686992645,0.0,0.0,0.0,0.0,0.0,0.0,0.0,-0.3948834890373775,-0.11582409734764912,-0.21963119022467617,0.3765765282642428,0.2103970803130059,0.10287670991824455,-0.27185568566315876,1.2135190037300878,-0.21998813866296021,-0.0074853054802668725,-2.6041772635931144,-0.10901479552009631,2.468121283438961,0.826478788542105,1.2134413937687574,-0.2202432315892585,-0.0075118285948192216,-2.6038483821997875,-0.10888392708698907,2.4681821257803174,0.826474908251239,0.0007436983760577575,-0.0012133680098001336,-0.0005023231604583984,-0.0002636379805000555,0.00011213702010122494,2.714362875929236e-06,-0.0008071983672333827,0.0,0.0,0.0,0.0,0.0,0.0,0.0,-7.760996133043818e-05,-0.0002550929262982726,-2.6523114552349028e-05,0.00032888139332687416,0.00013086843310723684,6.084234135617095e-05,-3.880290865954095e-06,-0.0007436983760577575,0.0012133680098001336,0.0005023231604583984,0.0002636379805000555,-0.00011213702010122494,-2.714362875929236e-06,0.0008071983672333827,0.4029781222343445,19.816431045532227,0.3990752398967743,-20.154146194458008,-0.7903953194618225,-2.4694857597351074,0.24844686686992645,0
43,0.21002554893493652,-0.3514034152030945,-19.868005752563477,-0.3475005328655243,20.106538772583008,0.7968040108680725,2.4758944511413574,-0.26858848333358765,0.0,0.0,0.0,0.0,0.0,0.0,0.0,-0.3909341284925812,-0.11021931632228786,-0.21465154072857734,0.37497542827253655,0.2101313344513844,0.10206324154157324,-0.27201036087460434,1.2135153844523847,-0.21998183766670185,-0.007488924757953276,-2.6041739227227994,-0.10901540245062938,2.468120610123404,0.8264800845987081,1.2134413937687574,-0.2202432315892585,-0.0075118285948192216,-2.6038483821997875,-0.10888392708698907,2.4681821257803174,0.826474908251239,-0.0006420825092259516,0.0006551714349595593,-0.0009418282638781607,0.0010095913296063574,-0.00012252751775614315,6.871481987206761e-05,2.0445490878557906e-05,0.0,0.0,0.0,0.0,0.0,0.0,0.0,-7.399068362734518e-05,-0.00026139392255664085,-2.2903836865945798e-05,0.0003255405230118136,0.00013147536364030432,6.1515656913258e-05,-5.17634746910467e-06,0.0006420825092259516,-0.0006551714349595593,0.0009418282638781607,-0.0010095913296063574,0.00012252751775614315,-6.871481987206761e-05,-2.0445490878557906e-05,0.3514034152030945,19.868005752563477,0.3475005328655243,-20.106538772583008,-0.7968040108680725,-2.4758944511413574,0.26858848333358765,0
44,0.21500706672668457,-0.3514034152030945,-19.868005752563477,-0.3475005328655243,20.106538772583008,0.7968040108680725,2.4758944511413574,-0.26858848333358765,0.0,0.0,0.0,0.0,0.0,0.0,0.0,-0.3909341284925812,-0.11021931632228786,-0.21465154072857734,0.37497542827253655,0.2101313344513844,0.10206324154157324,-0.27201036087460434,1.2135153844523847,-0.21998183766670185,-0.007488924757953276,-2.6041739227227994,-0.10901540245062938,2.468120610123404,0.8264800845987081,1.2134413937687574,-0.2202432315892585,-0.0075118285948192216,-2.6038483821997875,-0.10888392708698907,2.4681821257803174,0.826474908251239,-0.0006420825092259516,0.0006551714349595593,-0.0009418282638781607,0.0010095913296063574,-0.00012252751775614315,6.871481987206761e-05,2.0445490878557906e-05,0.0,0.0,0.0,0.0,0.0,0.0,0.0,-7.399068362734518e-05,-0.00026139392255664085,-2.2903836865945798e-05,0.0003255405230118136,0.00013147536364030432,6.1515656913258e-05,-5.17634746910467e-06,0.0006420825092259516,-0.0006551714349595593,0.0009418282638781607,-0.0010095913296063574,0.00012252751775614315,-6.871481987206761e-05,-2.0445490878557906e-05,0.3514034152030945,19.868005752563477,0.3475005328655243,-20.106538772583008,-0.7968040108680725,-2.4758944511413574,0.26858848333358765,0
45,0.21999883651733398,-0.3752071261405945,-19.868005752563477,-0.4228789508342743,20.154146194458008,0.7903953194618225,2.4758944511413574,-0.26217979192733765,0.0,0.0,0.0,0.0,0.0,0.0,0.0,-0.39124775674052353,-0.10893099484325423,-0.2129946776391139,0.37073317834381425,0.21016252692230686,0.10151484196935762,-0.2725730140194488,1.2135170548882401,-0.21998182719735532,-0.007483635044411609,-2.6041772635945097,-0.10901365935619853,2.4681202443133303,0.8264804189287398,1.2134413937687574,-0.2202432315892585,-0.0075118285948192216,-2.6038483821997875,-0.10888392708698907,2.4681821257803174,0.826474908251239,-0.00014699465915085492,0.00047449188810440936,0.000885873675286556,-0.0005266862030158591,0.00021394662955083447,-0.00029259102961450527,-6.449712538964332e-05,0.0,0.0,0.0,0.0,0.0,0.0,0.0,-7.566111948276166e-05,-0.00026140439190316944,-2.8193550407612858e-05,0.00032888139472220246,0.0001297322692094538,6.1881466987046e-05,-5.510677500764061e-06,0.00014699465915085492,-0.00047449188810440936,-0.000885873675286556,0.0005266862030158591,-0.00021394662955083447,0.00029259102961450527,6.449712538964332e-05,0.3752071261405945,19.868005752563477,0.4228789508342743,-20.154146194458008,-0.7903953194618225,-2.4758944511413574,0.26217979192733765,0
46,0.22504734992980957,-0.3752071261405945,-19.868005752563477,-0.4228789508342743,20.154146194458008,0.7903953194618225,2.4758944511413574,-0.26217979192733765,0.0,0.0,0.0,0.0,0.0,0.0,0.0,-0.39124775674052353,-0.10893099484325423,-0.2129946776391139,0.37073317834381425,0.21016252692230686,0.10151484196935762,-0.2725730140194488,1.2135170548882401,-0.21998182719735532,-0.007483635044411609,-2.6041772635945097,-0.10901365935619853,2.4681202443133303,0.8264804189287398,1.2134413937687574,-0.2202432315892585,-0.0075118285948192216,-2.6038483821997875,-0.10888392708698907,2.4681821257803174,0.826474908251239,-0.00014699465915085492,0.00047449188810440936,0.000885873675286556,-0.0005266862030158591,0.00021394662955083447,-0.00029259102961450527,-6.449712538964332e-05,0.0,0.0,0.0,0.0,0.0,0.0,0.0,-7.566111948276166e-05,-0.00026140439190316944,-2.8193550407612858e-05,0.00032888139472220246,0.0001297322692094538,6.1881466987046e-05,-5.510677500764061e-06,0.00014699465915085492,-0.00047449188810440936,-0.000885873675286556,0.0005266862030158591,-0.00021394662955083447,0.00029259102961450527,6.449712538964332e-05,0.3752071261405945,19.868005752563477,0.4228789508342743,-20.154146194458008,-0.7903953194618225,-2.4758944511413574,0.26217979192733765,0
47,0.23003506660461426,-0.4029781222343445,-19.868005752563477,-0.4466826617717743,20.130342483520508,0.7968040108680725,2.4694857597351074,-0.25485557317733765,0.0,0.0,0.0,0.0,0.0,0.0,0.0,-0.3917972677687976,-0.1118535812731441,-0.21167267586408844,0.37432310556843146,0.21021105086279973,0.10215707864401688,-0.27241805492047,1.213519012560389,-0.21998254793409394,-0.007481964716799784,-2.6041755931586548,-0.10901555820273164,2.4681212049410446,0.8264794575163056,1.2134413937687574,-0.2202432315892585,-0.0075118285948192216,-2.6038483821997875,-0.10888392708698907,2.4681821257803174,0.826474908251239,0.00042526038547982835,0.0002446394034759797,0.0010864396856076746,0.0004081477386094066,-5.1568676990125924e-05,0.0002800027583773603,-0.00023959357664148954,0.0,0.0,0.0,0.0,0.0,0.0,0.0,-7.761879163159513e-05,-0.0002606836551645453,-2.9863878019437302e-05,0.00032721095886723006,0.00013163111574256148,6.0920839272782246e-05,-4.549265066544628e-06,-0.00042526038547982835,-0.0002446394034759797,-0.0010864396856076746,-0.0004081477386094066,5.1568676990125924e-05,-0.0002800027583773603,0.00023959357664148954,0.4029781222343445,19.868005752563477,0.4466826617717743,-20.130342483520508,-0.7968040108680725,-2.4694857597351074,0.25485557317733765,0
48,0.23499393463134766,-0.4029781222343445,-19.868005752563477,-0.4466826617717743,20.130342483520508,0.7968040108680725,2.4694857597351074,-0.25485557317733765,0.0,0.0,0.0,0.0,0.0,0.0,0.0,-0.3917972677687976,-0.1118535812731441,-0.21167267586408844,0.37432310556843146,0.21021105086279973,0.10215707864401688,-0.27241805492047,1.213519012560389,-0.21998254793409394,-0.007481964716799784,-2.6041755931586548,-0.10901555820273164,2.4681212049410446,0.8264794575163056,1.2134413937687574,-0.2202432315892585,-0.0075118285948192216,-2.6038483821997875,-0.10888392708698907,2.4681821257803174,0.826474908251239,0.00042526038547982835,0.0002446394034759797,0.0010864396856076746,0.0004081477386094066,-5.1568676990125924e-05,0.0002800027583773603,-0.00023959357664148954,0.0,0.0,0.0,0.0,0.0,0.0,0.0,-7.761879163159513e-05,-0.0002606836551645453,-2.9863878019437302e-05,0.00032721095886723006,0.00013163111574256148,6.0920839272782246e-05,-4.549265066544628e-06,-0.00042526038547982835,-0.0002446394034759797,-0.0010864396856076746,-0.0004081477386094066,5.1568676990125924e-05,-0.0002800027583773603,0.00023959357664148954,0.4029781222343445,19.868005752563477,0.4466826617717743,-20.130342483520508,-0.7968040108680725,-2.4694857597351074,0.25485557317733765,0
49,0.23999643325805664,-0.4267818331718445,-19.868005752563477,-0.3990752398967743,20.130342483520508,0.7968040108680725,2.4823031425476074,-0.24112264811992645,0.0,0.0,0.0,0.0,0.0,0.0,0.0,-0.3915953736445619,-0.11435337156036011,-0.20972100120032716,0.3736827853106314,0.21005108672989367,0.10245141559665596,-0.2702160392650712,1.2135206741659432,-0.21998191477854334,-0.0074853054802670755,-2.6041755931586548,-0.10901554214082872,2.4681198985309503,0.8264779224298545,1.2134413937687574,-0.2202432315892585,-0.0075118285948192216,-2.6038483821997875,-0.10888392708698907,2.4681821257803174,0.826474908251239,0.0006579458702945543,-8.692615378531753e-05,-0.00015066077999373735,0.00035901479147925795,-4.7543497476894384e-05,-0.0003308025970258397,-0.0009511340448929602,0.0,0.0,0.0,0.0,0.0,0.0,0.0,-7.928039718585467e-05,-0.00026131681071514534,-2.6523114552146065e-05,0.00032721095886723006,0.00013161505383964267,6.222724936710833e-05,-3.014178615479146e-06,-0.0006579458702945543,8.692615378531753e-05,0.00015066077999373735,-0.00035901479147925795,4.7543497476894384e-05,0.0003308025970258397,0.0009511340448929602,0.4267818331718445,19.868005752563477,0.3990752398967743,-20.130342483520508,-0.7968040108680725,-2.4823031425476074,0.24112264811992645,0
50,0.2449944019317627,-0.4267818331718445,-19.868005752563477,-0.3990752398967743,20.130342483520508,0.7968040108680725,2.4823031425476074,-0.24112264811992645,0.0,0.0,0.0,0.0,0.0,0.0,0.0,-0.3915953736445619,-0.11435337156036011,-0.20972100120032716,0.3736827853106314,0.21005108672989367,0.10245141559665596,-0.2702160392650712,1.2135206741659432,-0.21998191477854334,-0.0074853054802670755,-2.6041755931586548,-0.10901554214082872,2.4681198985309503,0.8264779224298545,1.2134413937687574,-0.2202432315892585,-0.0075118285948192216,-2.6038483821997875,-0.10888392708698907,2.4681821257803174,0.826474908251239,0.0006579458702945543,-8.692615378531753e-05,-0.00015066077999373735,0.00035901479147925795,-4.7543497476894384e-05,-0.0003308025970258397,-0.0009511340448929602,0.0,0.0,0.0,0.0,0.0,0.0,0.0,-7.928039718585467e-05,-0.00026131681071514534,-2.6523114552146065e-05,0.00032721095886723006,0.00013161505383964267,6.222724936710833e-05,-3.014178615479146e-06,-0.0006579458702945543,8.692615378531753e-05,0.00015066077999373735,-0.00035901479147925795,4.7543497476894384e-05,0.0003308025970258397,0.0009511340448929602,0.4267818331718445,19.868005752563477,0.3990752398967743,-20.130342483520508,-0.7968040108680725,-2.4823031425476074,0.24112264811992645,0
51,0.25000810623168945,-0.4029781222343445,-19.816431045532227,-0.4228789508342743,20.154146194458008,0.7968040108680725,2.4823031425476074,-0.29605430364608765,0.0,0.0,0.0,0.0,0.0,0.0,0.0,-0.3964770547077023,-0.1171426701989321,-0.21416868993299182,0.3731239985326612,0.21015347842089105,0.10257175488186367,-0.26995710641429066,1.2135190037300712,-0.21998829674871556,-0.007485765600021471,-2.6041772635945097,-0.10901555416619521,2.4681197807936015,0.8264841921357208,1.2134413937687574,-0.2202432315892585,-0.0075118285948192216,-2.6038483821997875,-0.10888392708698907,2.4681821257803174,0.826474908251239,-0.00017920445497950963,-0.001404350425538415,-0.00010478910906615996,-0.0003556569325832602,-5.566310847252666e-05,-0.0003180720729330171,0.0009930640301118387,0.0,0.0,0.0,0.0,0.0,0.0,0.0,-7.760996131378484e-05,-0.00025493484054292526,-2.606299479775056e-05,0.00032888139472220246,0.00013162707920613692,6.234498671586763e-05,-9.28388448173667e-06,0.00017920445497950963,0.001404350425538415,0.00010478910906615996,0.0003556569325832602,5.566310847252666e-05,0.0003180720729330171,-0.0009930640301118387,0.4029781222343445,19.816431045532227,0.4228789508342743,-20.154146194458008,-0.7968040108680725,-2.4823031425476074,0.29605430364608765,0
52,0.25499606132507324,-0.4029781222343445,-19.816431045532227,-0.4228789508342743,20.154146194458008,0.7968040108680725,2.4823031425476074,-0.29605430364608765,0.0,0.0,0.0,0.0,0.0,0.0,0.0,-0.3964770547077023,-0.1171426701989321,-0.21416868993299182,0.3731239985326612,0.21015347842089105,0.10257175488186367,-0.26995710641429066,1.2135190037300712,-0.21998829674871556,-0.007485765600021471,-2.6041772635945097,-0.10901555416619521,2.4681197807936015,0.8264841921357208,1.2134413937687574,-0.2202432315892585,-0.0075118285948192216,-2.6038483821997875,-0.10888392708698907,2.4681821257803174,0.826474908251239,-0.00017920445497950963,-0.001404350425538415,-0.00010478910906615996,-0.0003556569325832602,-5.566310847252666e-05,-0.0003180720729330171,0.0009930640301118387,0.0,0.0,0.0,0.0,0.0,0.0,0.0,-7.760996131378484e-05,-0.00025493484054292526,-2.606299479775056e-05,0.00032888139472220246,0.00013162707920613692,6.234498671586763e-05,-9.28388448173667e-06,0.00017920445497950963,0.001404350425538415,0.00010478910906615996,0.0003556569325832602,5.566310847252666e-05,0.0003180720729330171,-0.0009930640301118387,0.4029781222343445,19.816431045532227,0.4228789508342743,-20.154146194458008,-0.7968040108680725,-2.4823031425476074,0.29605430364608765,0
53,0.2600092887878418,-0.3236324191093445,-19.844202041625977,-0.4228789508342743,20.106538772583008,0.7968040108680725,2.4887118339538574,-0.24112264811992645,0.0,0.0,0.0,0.0,0.0,0.0,0.0,-0.39706898835882243,-0.11506859075858807,-0.21502484328973798,0.37365740991222324,0.20996248470936194,0.10297121140295852,-0.2707171065506269,1.2135134356105537,-0.2199841909647933,-0.007483638003065608,-2.6041739227227994,-0.10901445613490834,2.468119186452355,0.8264769151197637,1.2134413937687574,-0.2202432315892585,-0.0075118285948192216,-2.6038483821997875,-0.10888392708698907,2.4681821257803174,0.826474908251239,-0.002021281080529386,3.49495423941472e-05,0.00028235972389646397,0.0008157686171773575,-5.235765198099657e-05,-0.0005311110116937854,-0.0011612893036234662,0.0,0.0,0.0,0.0,0.0,0.0,0.0,-7.2041841796322e-05,-0.00025904062446518994,-2.8190591753613978e-05,0.0003255405230118136,0.00013052904791927,6.293932796230806e-05,-2.0068685246954487e-06,0.002021281080529386,-3.49495423941472e-05,-0.00028235972389646397,-0.0008157686171773575,5.235765198099657e-05,0.0005311110116937854,0.0011612893036234662,0.3236324191093445,19.844202041625977,0.4228789508342743,-20.106538772583008,-0.7968040108680725,-2.4887118339538574,0.24112264811992645,0
54,0.26514339447021484,-0.3236324191093445,-19.844202041625977,-0.4228789508342743,20.106538772583008,0.7968040108680725,2.4887118339538574,-0.24112264811992645,0.0,0.0,0.0,0.0,0.0,0.0,0.0,-0.39706898835882243,-0.11506859075858807,-0.21502484328973798,0.37365740991222324,0.20996248470936194,0.10297121140295852,-0.2707171065506269,1.2135134356105537,-0.2199841909647933,-0.007483638003065608,-2.6041739227227994,-0.10901445613490834,2.468119186452355,0.8264769151197637,1.2134413937687574,-0.2202432315892585,-0.0075118285948192216,-2.6038483821997875,-0.10888392708698907,2.4681821257803174,0.826474908251239,-0.002021281080529386,3.49495423941472e-05,0.00028235972389646397,0.0008157686171773575,-5.235765198099657e-05,-0.0005311110116937854,-0.0011612893036234662,0.0,0.0,0.0,0.0,0.0,0.0,0.0,-7.2041841796322e-05,-0.00025904062446518994,-2.8190591753613978e-05,0.0003255405230118136,0.00013052904791927,6.293932796230806e-05,-2.0068685246954487e-06,0.002021281080529386,-3.49495423941472e-05,-0.00028235972389646397,-0.0008157686171773575,5.235765198099657e-05,0.0005311110116937854,0.0011612893036234662,0.3236324191093445,19.844202041625977,0.4228789508342743,-20.106538772583008,-0.7968040108680725,-2.4887118339538574,0.24112264811992645,0
55,0.26999878883361816,-0.4267818331718445,-19.816431045532227,-0.4466826617717743,20.154146194458008,0.7849021553993225,2.4758944511413574,-0.26858848333358765,0.0,0.0,0.0,0.0,0.0,0.0,0.0,-0.3921342004306,-0.11455822094673737,-0.2102723629163189,0.37676796682232166,0.20987741316605113,0.1039795171406373,-0.271173755092608,1.2135206741659266,-0.21998838414011418,-0.007481964608573047,-2.6041772635945097,-0.10901388238021469,2.4681205975260427,0.8264811432793224,1.2134413937687574,-0.2202432315892585,-0.0075118285948192216,-2.6038483821997875,-0.10888392708698907,2.4681821257803174,0.826474908251239,0.0009553284093716492,-0.0005926665109997555,0.0013480563675432532,-0.0002156265611587358,0.00027359643024280446,-5.222196283236826e-05,-9.817749246690754e-05,0.0,0.0,0.0,0.0,0.0,0.0,0.0,-7.928039716920132e-05,-0.00025484744914430757,-2.986398624617477e-05,0.00032888139472220246,0.0001299552932256115,6.152825427463426e-05,-6.2350280833900484e-06,-0.0009553284093716492,0.0005926665109997555,-0.0013480563675432532,0.0002156265611587358,-0.00027359643024280446,5.222196283236826e-05,9.817749246690754e-05,0.4267818331718445,19.816431045532227,0.4466826617717743,-20.154146194458008,-0.7849021553993225,-2.4758944511413574,0.26858848333358765,0
56,0.27500104904174805,-0.4267818331718445,-19.816431045532227,-0.4466826617717743,20.154146194458008,0.7849021553993225,2.4758944511413574,-0.26858848333358765,0.0,0.0,0.0,0.0,0.0,0.0,0.0,-0.3921342004306,-0.11455822094673737,-0.2102723629163189,0.37676796682232166,0.20987741316605113,0.1039795171406373,-0.271173755092608,1.2135206741659266,-0.21998838414011418,-0.007481964608573047,-2.6041772635945097,-0.10901388238021469,2.4681205975260427,0.8264811432793224,1.2134413937687574,-0.2202432315892585,-0.0075118285948192216,-2.6038483821997875,-0.10888392708698907,2.4681821257803174,0.826474908251239,0.0009553284093716492,-0.0005926665109997555,0.0013480563675432532,-0.0002156265611587358,0.00027359643024280446,-5.222196283236826e-05,-9.817749246690754e-05,0.0,0.0,0.0,0.0,0.0,0.0,0.0,-7.928039716920132e-05,-0.00025484744914430757,-2.986398624617477e-05,0.00032888139472220246,0.0001299552932256115,6.152825427463426e-05,-6.2350280833900484e-06,-0.0009553284093716492,0.0005926665109997555,-0.0013480563675432532,0.0002156265611587358,-0.00027359643024280446,5.222196283236826e-05,9.817749246690754e-05,0.4267818331718445,19.816431045532227,0.4466826617717743,-20.154146194458008,-0.7849021553993225,-2.4758944511413574,0.26858848333358765,0
57,0.2800109386444092,-0.3752071261405945,-19.844202041625977,-0.3990752398967743,20.154146194458008,0.7849021553993225,2.4630770683288574,-0.29605430364608765,0.0,0.0,0.0,0.0,0.0,0.0,0.0,-0.39733690236019903,-0.11011598908667895,-0.21485409420242035,0.3768917997448192,0.21012760608043157,0.10363777866287409,-0.2722943724928382,1.2135170548882401,-0.21998426137823604,-0.0074853054802668725,-2.6041772635945097,-0.10901423709191004,2.468122034761616,0.826479953422658,1.2134413937687574,-0.2202432315892585,-0.0075118285948192216,-2.6038483821997875,-0.10888392708698907,2.4681821257803174,0.826474908251239,-0.0004732488755295947,1.9302772401386336e-05,-0.0003020743959431021,-7.384595055824554e-05,0.00025873174230269593,0.0004271710720933335,0.0011196985885191372,0.0,0.0,0.0,0.0,0.0,0.0,0.0,-7.566111948276166e-05,-0.00025897021102244677,-2.6523114552349028e-05,0.00032888139472220246,0.000130310004920961,6.0091018701413645e-05,-5.045171418971428e-06,0.0004732488755295947,-1.9302772401386336e-05,0.0003020743959431021,7.384595055824554e-05,-0.00025873174230269593,-0.0004271710720933335,-0.0011196985885191372,0.3752071261405945,19.844202041625977,0.3990752398967743,-20.154146194458008,-0.7849021553993225,-2.4630770683288574,0.29605430364608765,0
58,0.2850215435028076,-0.3752071261405945,-19.844202041625977,-0.3990752398967743,20.154146194458008,0.7849021553993225,2.4630770683288574,-0.29605430364608765,0.0,0.0,0.0,0.0,0.0,0.0,0.0,-0.39733690236019903,-0.11011598908667895,-0.21485409420242035,0.3768917997448192,0.21012760608043157,0.10363777866287409,-0.2722943724928382,1.2135170548882401,-0.21998426137823604,-0.0074853054802668725,-2.6041772635945097,-0.10901423709191004,2.468122034761616,0.826479953422658,1.2134413937687574,-0.2202432315892585,-0.0075118285948192216,-2.6038483821997875,-0.10888392708698907,2.4681821257803174,0.826474908251239,-0.0004732488755295947,1.9302772401386336e-05,-0.0003020743959431021,-7.384595055824554e-05,0.00025873174230269593,0.0004271710720933335,0.0011196985885191372,0.0,0.0,0.0,0.0,0.0,0.0,0.0,-7.566111948276166e-05,-0.00025897021102244677,-2.6523114552349028e-05,0.00032888139472220246,0.000130310004920961,6.0091018701413645e-05,-5.045171418971428e-06,0.0004732488755295947,-1.9302772401386336e-05,0.0003020743959431021,7.384595055824554e-05,-0.00025873174230269593,-0.0004271710720933335,-0.0011196985885191372,0.3752071261405945,19.844202041625977,0.3990752398967743,-20.154146194458008,-0.7849021553993225,-2.4630770683288574,0.29605430364608765,0
59,0.29004478454589844,-0.4029781222343445,-19.891809463500977,-0.4466826617717743,20.130342483520508,0.7968040108680725,2.4823031425476074,-0.27591270208358765,0.0,0.0,0.0,0.0,0.0,0.0,0.0,-0.3943118670042862,-0.10989195341400387,-0.21154900374252544,0.37411060937189367,0.20910217440393675,0.10284582515565194,-0.27263535283818047,1.2135190037300712,-0.21998213633833344,-0.007481964608556346,-2.6041755931586548,-0.10901538912716138,2.4681198985311714,0.8264784204128717,1.2134413937687574,-0.2202432315892585,-0.0075118285948192216,-2.6038483821997875,-0.10888392708698907,2.4681821257803174,0.826474908251239,0.0001981545499827597,0.000764795654489995,0.0008754567892250923,7.349138777065366e-05,-0.00017327775287190284,-0.0003681019589033784,0.00023182192212471513,0.0,0.0,0.0,0.0,0.0,0.0,0.0,-7.760996131378484e-05,-0.0002610952509250475,-2.986398626287582e-05,0.00032721095886723006,0.00013146204017230878,6.22272491459519e-05,-3.5121616326350136e-06,-0.0001981545499827597,-0.000764795654489995,-0.0008754567892250923,-7.349138777065366e-05,0.00017327775287190284,0.0003681019589033784,-0.00023182192212471513,0.4029781222343445,19.891809463500977,0.4466826617717743,-20.130342483520508,-0.7968040108680725,-2.4823031425476074,0.27591270208358765,0
60,0.2950446605682373,-0.4029781222343445,-19.891809463500977,-0.4466826617717743,20.130342483520508,0.7968040108680725,2.4823031425476074,-0.27591270208358765,0.0,0.0,0.0,0.0,0.0,0.0,0.0,-0.3943118670042862,-0.10989195341400387,-0.21154900374252544,0.37411060937189367,0.20910217440393675,0.10284582515565194,-0.27263535283818047,1.2135190037300712,-0.21998213633833344,-0.007481964608556346,-2.6041755931586548,-0.10901538912716138,2.4681198985311714,0.8264784204128717,1.2134413937687574,-0.2202432315892585,-0.0075118285948192216,-2.6038483821997875,-0.10888392708698907,2.4681821257803174,0.826474908251239,0.0001981545499827597,0.000764795654489995,0.0008754567892250923,7.349138777065366e-05,-0.00017327775287190284,-0.0003681019589033784,0.00023182192212471513,0.0,0.0,0.0,0.0,0.0,0.0,0.0,-7.760996131378484e-05,-0.0002610952509250475,-2.986398626287582e-05,0.00032721095886723006,0.00013146204017230878,6.22272491459519e-05,-3.5121616326350136e-06,-0.0001981545499827597,-0.000764795654489995,-0.0008754567892250923,-7.349138777065366e-05,0.00017327775287190284,0.0003681019589033784,-0.00023182192212471513,0.4029781222343445,19.891809463500977,0.4466826617717743,-20.130342483520508,-0.7968040108680725,-2.4823031425476074,0.27591270208358765,0
61,0.30000853538513184,-0.3236324191093445,-19.891809463500977,-0.4228789508342743,20.154146194458008,0.7903953194618225,2.4758944511413574,-0.28232139348983765,0.0,0.0,0.0,0.0,0.0,0.0,0.0,-0.3946637161570514,-0.11272679710585275,-0.21205123916432103,0.3746376202232937,0.20893421324945985,0.10297051822256875,-0.2728326681381196,1.2135134356105537,-0.21998068315506863,-0.007483635044411609,-2.6041772635945097,-0.10901472979503711,2.4681206106079947,0.8264815715546865,1.2134413937687574,-0.2202432315892585,-0.0075118285948192216,-2.6038483821997875,-0.10888392708698907,2.4681821257803174,0.826474908251239,-0.0014258293473519564,0.0003730254010490716,9.007211854427332e-05,-0.00020397550141390268,9.861848482872287e-05,-5.497762616059271e-05,-9.829966885066596e-05,0.0,0.0,0.0,0.0,0.0,0.0,0.0,-7.2041841796322e-05,-0.0002625484341898521,-2.8193550407612858e-05,0.00032888139472220246,0.00013080270804803618,6.151517232266812e-05,-6.663303447451696e-06,0.0014258293473519564,-0.0003730254010490716,-9.007211854427332e-05,0.00020397550141390268,-9.861848482872287e-05,5.497762616059271e-05,9.829966885066596e-05,0.3236324191093445,19.891809463500977,0.4228789508342743,-20.154146194458008,-0.7903953194618225,-2.4758944511413574,0.28232139348983765,0
62,0.30501675605773926,-0.3236324191093445,-19.891809463500977,-0.4228789508342743,20.154146194458008,0.7903953194618225,2.4758944511413574,-0.28232139348983765,0.0,0.0,0.0,0.0,0.0,0.0,0.0,-0.3946637161570514,-0.11272679710585275,-0.21205123916432103,0.3746376202232937,0.20893421324945985,0.10297051822256875,-0.2728326681381196,1.2135134356105537,-0.21998068315506863,-0.007483635044411609,-2.6041772635945097,-0.10901472979503711,2.4681206106079947,0.8264815715546865,1.2134413937687574,-0.2202432315892585,-0.0075118285948192216,-2.6038483821997875,-0.10888392708698907,2.4681821257803174,0.826474908251239,-0.0014258293473519564,0.0003730254010490716,9.007211854427332e-05,-0.00020397550141390268,9.861848482872287e-05,-5.497762616059271e-05,-9.829966885066596e-05,0.0,0.0,0.0,0.0,0.0,0.0,0.0,-7.2041841796322e-05,-0.0002625484341898521,-2.8193550407612858e-05,0.00032888139472220246,0.00013080270804803618,6.151517232266812e-05,-6.663303447451696e-06,0.0014258293473519564,-0.0003730254010490716,-9.007211854427332e-05,0.00020397550141390268,-9.861848482872287e-05,5.497762616059271e-05,9.829966885066596e-05,0.3236324191093445,19.891809463500977,0.4228789508342743,-20.154146194458008,-0.7903953194618225,-2.4758944511413574,0.28232139348983765,0
63,0.31000494956970215,-0.3236324191093445,-19.891809463500977,-0.4228789508342743,20.154146194458008,0.7903953194618225,2.4758944511413574,-0.28232139348983765,0.0,0.0,0.0,0.0,0.0,0.0,0.0,-0.3946637161570514,-0.11272679710585275,-0.21205123916432103,0.3746376202232937,0.20893421324945985,0.10297051822256875,-0.2728326681381196,1.2135134356105537,-0.21998068315506863,-0.007483635044411609,-2.6041772635945097,-0.10901472979503711,2.4681206106079947,0.8264815715546865,1.2134413937687574,-0.2202432315892585,-0.0075118285948192216,-2.6038483821997875,-0.10888392708698907,2.4681821257803174,0.826474908251239,-0.0014258293473519564,0.0003730254010490716,9.007211854427332e-05,-0.00020397550141390268,9.861848482872287e-05,-5.497762616059271e-05,-9.829966885066596e-05,0.0,0.0,0.0,0.0,0.0,0.0,0.0,-7.2041841796322e-05,-0.0002625484341898521,-2.8193550407612858e-05,0.00032888139472220246,0.00013080270804803618,6.151517232266812e-05,-6.663303447451696e-06,0.0014258293473519564,-0.0003730254010490716,-9.007211854427332e-05,0.00020397550141390268,-9.861848482872287e-05,5.497762616059271e-05,9.829966885066596e-05,0.3236324191093445,19.891809463500977,0.4228789508342743,-20.154146194458008,-0.7903953194618225,-2.4758944511413574,0.28232139348983765,0
64,0.3150153160095215,-0.3236324191093445,-19.891809463500977,-0.4228789508342743,20.154146194458008,0.7903953194618225,2.4758944511413574,-0.28232139348983765,0.0,0.0,0.0,0.0,0.0,0.0,0.0,-0.3946637161570514,-0.11272679710585275,-0.21205123916432103,0.3746376202232937,0.20893421324945985,0.10297051822256875,-0.2728326681381196,1.2135134356105537,-0.21998068315506863,-0.007483635044411609,-2.6041772635945097,-0.10901472979503711,2.4681206106079947,0.8264815715546865,1.2134413937687574,-0.2202432315892585,-0.0075118285948192216,-2.6038483821997875,-0.10888392708698907,2.4681821257803174,0.826474908251239,-0.0014258293473519564,0.0003730254010490716,9.007211854427332e-05,-0.00020397550141390268,9.861848482872287e-05,-5.497762616059271e-05,-9.829966885066596e-05,0.0,0.0,0.0,0.0,0.0,0.0,0.0,-7.2041841796322e-05,-0.0002625484341898521,-2.8193550407612858e-05,0.00032888139472220246,0.00013080270804803618,6.151517232266812e-05,-6.663303447451696e-06,0.0014258293473519564,-0.0003730254010490716,-9.007211854427332e-05,0.00020397550141390268,-9.861848482872287e-05,5.497762616059271e-05,9.829966885066596e-05,0.3236324191093445,19.891809463500977,0.4228789508342743,-20.154146194458008,-0.7903953194618225,-2.4758944511413574,0.28232139348983765,0
65,0.3200223445892334,-0.3514034152030945,-19.844202041625977,-0.3990752398967743,20.106538772583008,0.7903953194618225,2.4758944511413574,-0.24844686686992645,0.0,0.0,0.0,0.0,0.0,0.0,0.0,-0.3973558893587137,-0.11653208658406666,-0.21829098551278533,0.3702761799745268,0.2090701731278135,0.1027156912195941,-0.273839324200798,1.2135153844523847,-0.21998332048198851,-0.0074853054802668725,-2.6041739227227994,-0.10901480866314758,2.4681205713621384,0.826478902419418,1.2134413937687574,-0.2202432315892585,-0.0075118285948192216,-2.6038483821997875,-0.10888392708698907,2.4681821257803174,0.826474908251239,-0.001140092574126908,-0.0008621736187462614,-0.000386421586028925,0.0007801655050424932,7.954495070910215e-05,-7.174383136973271e-05,-0.0002831458435048737,0.0,0.0,0.0,0.0,0.0,0.0,0.0,-7.399068362734518e-05,-0.00025991110726997224,-2.6523114552349028e-05,0.0003255405230118136,0.00013088157615850915,6.155441817901064e-05,-3.994168178977908e-06,0.001140092574126908,0.0008621736187462614,0.000386421586028925,-0.0007801655050424932,-7.954495070910215e-05,7.174383136973271e-05,0.0002831458435048737,0.3514034152030945,19.844202041625977,0.3990752398967743,-20.106538772583008,-0.7903953194618225,-2.4758944511413574,0.24844686686992645,0
66,0.32500123977661133,-0.3514034152030945,-19.844202041625977,-0.3990752398967743,20.106538772583008,0.7903953194618225,2.4758944511413574,-0.24844686686992645,0.0,0.0,0.0,0.0,0.0,0.0,0.0,-0.3973558893587137,-0.11653208658406666,-0.21829098551278533,0.3702761799745268,0.2090701731278135,0.1027156912195941,-0.273839324200798,1.2135153844523847,-0.21998332048198851,-0.0074853054802668725,-2.6041739227227994,-0.10901480866314758,2.4681205713621384,0.826478902419418,1.2134413937687574,-0.2202432315892585,-0.0075118285948192216,-2.6038483821997875,-0.10888392708698907,2.4681821257803174,0.826474908251239,-0.001140092574126908,-0.0008621736187462614,-0.000386421586028925,0.0007801655050424932,7.954495070910215e-05,-7.174383136973271e-05,-0.0002831458435048737,0.0,0.0,0.0,0.0,0.0,0.0,0.0,-7.399068362734518e-05,-0.00025991110726997224,-2.6523114552349028e-05,0.0003255405230118136,0.00013088157615850915,6.155441817901064e-05,-3.994168178977908e-06,0.001140092574126908,0.0008621736187462614,0.000386421586028925,-0.0007801655050424932,-7.954495070910215e-05,7.174383136973271e-05,0.0002831458435048737,0.3514034152030945,19.844202041625977,0.3990752398967743,-20.106538772583008,-0.7903953194618225,-2.4758944511413574,0.24844686686992645,0
67,0.33002281188964844,-0.4029781222343445,-19.816431045532227,-0.4228789508342743,20.106538772583008,0.7849021553993225,2.4758944511413574,-0.23471395671367645,0.0,0.0,0.0,0.0,0.0,0.0,0.0,-0.39244142482810485,-0.11655003996038196,-0.2148384049033413,0.36836558691923565,0.20896862749858663,0.10275918726413628,-0.2712320381339463,1.2135190037300712,-0.21998755586643606,-0.007483635044411609,-2.6041739227227994,-0.10901423774140669,2.4681206106077735,0.8264770276904962,1.2134413937687574,-0.2202432315892585,-0.0075118285948192216,-2.6038483821997875,-0.10888392708698907,2.4681821257803174,0.826474908251239,1.9389410220139338e-05,-0.000997285938473349,0.00042259241218211945,0.000657167140656292,0.00028498281797415047,-6.312295173519982e-06,-0.0014483362457239934,0.0,0.0,0.0,0.0,0.0,0.0,0.0,-7.760996131378484e-05,-0.0002556757228224238,-2.8193550407612858e-05,0.0003255405230118136,0.00013031065441761192,6.151517254382455e-05,-2.1194392572088105e-06,-1.9389410220139338e-05,0.000997285938473349,-0.00042259241218211945,-0.000657167140656292,-0.00028498281797415047,6.312295173519982e-06,0.0014483362457239934,0.4029781222343445,19.816431045532227,0.4228789508342743,-20.106538772583008,-0.7849021553993225,-2.4758944511413574,0.23471395671367645,0
68,0.33495616912841797,-0.4029781222343445,-19.816431045532227,-0.4228789508342743,20.106538772583008,0.7849021553993225,2.4758944511413574,-0.23471395671367645,0.0,0.0,0.0,0.0,0.0,0.0,0.0,-0.39244142482810485,-0.11655003996038196,-0.2148384049033413,0.36836558691923565,0.20896862749858663,0.10275918726413628,-0.2712320381339463,1.2135190037300712,-0.21998755586643606,-0.007483635044411609,-2.6041739227227994,-0.10901423774140669,2.4681206106077735,0.8264770276904962,1.2134413937687574,-0.2202432315892585,-0.0075118285948192216,-2.6038483821997875,-0.10888392708698907,2.4681821257803174,0.826474908251239,1.9389410220139338e-05,-0.000997285938473349,0.00042259241218211945,0.000657167140656292,0.00028498281797415047,-6.312295173519982e-06,-0.0014483362457239934,0.0,0.0,0.0,0.0,0.0,0.0,0.0,-7.760996131378484e-05,-0.0002556757228224238,-2.8193550407612858e-05,0.0003255405230118136,0.00013031065441761192,6.151517254382455e-05,-2.1194392572088105e-06,-1.9389410220139338e-05,0.000997285938473349,-0.00042259241218211945,-0.000657167140656292,-0.00028498281797415047,6.312295173519982e-06,0.0014483362457239934,0.4029781222343445,19.816431045532227,0.4228789508342743,-20.106538772583008,-0.7849021553993225,-2.4758944511413574,0.23471395671367645,0
69,0.3399930000305176,-0.3752071261405945,-19.844202041625977,-0.4228789508342743,20.154146194458008,0.7849021553993225,2.4694857597351074,-0.28232139348983765,0.0,0.0,0.0,0.0,0.0,0.0,0.0,-0.39231469672951724,-0.11535226211350351,-0.21251029907018765,0.3687131007962294,0.20861794040740564,0.10257726679027106,-0.27128413615034264,1.2135170548882401,-0.21998406277640262,-0.007485765600021471,-2.6041772635945097,-0.10901423725484136,2.4681213226848175,0.8264826313719068,1.2134413937687574,-0.2202432315892585,-0.0075118285948192216,-2.6038483821997875,-0.10888392708698907,2.4681821257803174,0.826474908251239,-0.0006327341917374533,-7.25928688287492e-05,0.0004986588856643964,-0.0007468843062741146,0.00019513375833156383,5.338112834650368e-05,0.00022394721872708948,0.0,0.0,0.0,0.0,0.0,0.0,0.0,-7.566111948276166e-05,-0.00025916881285587,-2.606299479775056e-05,0.00032888139472220246,0.00013031016785228222,6.080309549982843e-05,-7.72312066776859e-06,0.0006327341917374533,7.25928688287492e-05,-0.0004986588856643964,0.0007468843062741146,-0.00019513375833156383,-5.338112834650368e-05,-0.00022394721872708948,0.3752071261405945,19.844202041625977,0.4228789508342743,-20.154146194458008,-0.7849021553993225,-2.4694857597351074,0.28232139348983765,0
70,0.3450052738189697,-0.3752071261405945,-19.844202041625977,-0.4228789508342743,20.154146194458008,0.7849021553993225,2.4694857597351074,-0.28232139348983765,0.0,0.0,0.0,0.0,0.0,0.0,0.0,-0.39231469672951724,-0.11535226211350351,-0.21251029907018765,0.3687131007962294,0.20861794040740564,0.10257726679027106,-0.27128413615034264,1.2135170548882401,-0.21998406277640262,-0.007485765600021471,-2.6041772635945097,-0.10901423725484136,2.4681213226848175,0.8264826313719068,1.2134413937687574,-0.2202432315892585,-0.0075118285948192216,-2.6038483821997875,-0.10888392708698907,2.4681821257803174,0.826474908251239,-0.0006327341917374533,-7.25928688287492e-05,0.0004986588856643964,-0.0007468843062741146,0.00019513375833156383,5.338112834650368e-05,0.00022394721872708948,0.0,0.0,0.0,0.0,0.0,0.0,0.0,-7.566111948276166e-05,-0.00025916881285587,-2.606299479775056e-05,0.00032888139472220246,0.00013031016785228222,6.080309549982843e-05,-7.72312066776859e-06,0.0006327341917374533,7.25928688287492e-05,-0.0004986588856643964,0.0007468843062741146,-0.00019513375833156383,-5.338112834650368e-05,-0.00022394721872708948,0.3752071261405945,19.844202041625977,0.4228789508342743,-20.154146194458008,-0.7849021553993225,-2.4694857597351074,0.28232139348983765,0
71,0.3500027656555176,-0.3752071261405945,-19.891809463500977,-0.3713042438030243,20.130342483520508,0.7968040108680725,2.4630770683288574,-0.21457235515117645,0.0,0.0,0.0,0.0,0.0,0.0,0.0,-0.3927259065621822,-0.11780924789546912,-0.2124495152904154,0.37675128188869633,0.2084303463166616,0.10368534461117766,-0.2717696048908348,1.2135170548882401,-0.21998234830033825,-0.00748726310184362,-2.6041755901061996,-0.10901555968322402,2.4681220347616404,0.8264708995495952,1.2134413937687574,-0.2202432315892585,-0.0075118285948192216,-2.6038483821997875,-0.10888392708698907,2.4681821257803174,0.826474908251239,-0.0008198829386130586,0.0010506196269972664,-0.0005534703688710288,0.000812014359659042,1.5421928645726292e-07,0.0005368162497258015,-0.0024118397379007924,0.0,0.0,0.0,0.0,0.0,0.0,0.0,-7.566111948276166e-05,-0.0002608832889202384,-2.4565492975601143e-05,0.00032720790641205255,0.00013163259623494294,6.009101867698874e-05,4.008701643853918e-06,0.0008198829386130586,-0.0010506196269972664,0.0005534703688710288,-0.000812014359659042,-1.5421928645726292e-07,-0.0005368162497258015,0.0024118397379007924,0.3752071261405945,19.891809463500977,0.3713042438030243,-20.130342483520508,-0.7968040108680725,-2.4630770683288574,0.21457235515117645,0
72,0.35501742362976074,-0.3752071261405945,-19.891809463500977,-0.3713042438030243,20.130342483520508,0.7968040108680725,2.4630770683288574,-0.21457235515117645,0.0,0.0,0.0,0.0,0.0,0.0,0.0,-0.3927259065621822,-0.11780924789546912,-0.2124495152904154,0.37675128188869633,0.2084303463166616,0.10368534461117766,-0.2717696048908348,1.2135170548882401,-0.21998234830033825,-0.00748726310184362,-2.6041755901061996,-0.10901555968322402,2.4681220347616404,0.8264708995495952,1.2134413937687574,-0.2202432315892585,-0.0075118285948192216,-2.6038483821997875,-0.10888392708698907,2.4681821257803174,0.826474908251239,-0.0008198829386130586,0.0010506196269972664,-0.0005534703688710288,0.000812014359659042,1.5421928645726292e-07,0.0005368162497258015,-0.0024118397379007924,0.0,0.0,0.0,0.0,0.0,0.0,0.0,-7.566111948276166e-05,-0.0002608832889202384,-2.4565492975601143e-05,0.00032720790641205255,0.00013163259623494294,6.009101867698874e-05,4.008701643853918e-06,0.0008198829386130586,-0.0010506196269972664,0.0005534703688710288,-0.000812014359659042,-1.5421928645726292e-07,-0.0005368162497258015,0.0024118397379007924,0.3752071261405945,19.891809463500977,0.3713042438030243,-20.130342483520508,-0.7968040108680725,-2.4630770683288574,0.21457235515117645,0
73,0.35999631881713867,-0.3752071261405945,-19.868005752563477,-0.4466826617717743,20.154146194458008,0.7968040108680725,2.4758944511413574,-0.24844686686992645,0.0,0.0,0.0,0.0,0.0,0.0,0.0,-0.3947368745679595,-0.1067241677626746,-0.21242966847953626,0.37083533834773347,0.2087587747423434,0.10227244698150606,-0.2718526226396917,1.2135170548882401,-0.21998260364607491,-0.007481964608605908,-2.604177263594493,-0.10901555822286024,2.4681206106079947,0.8264789067581828,1.2134413937687574,-0.2202432315892585,-0.0075118285948192216,-2.6038483821997875,-0.10888392708698907,2.4681821257803174,0.826474908251239,-0.0006697292824040089,0.0005152468468669842,0.0007726011885473666,-0.00039037011875726283,-0.0001990712905824405,-0.00011007557934311557,-0.0014935247717134934,0.0,0.0,0.0,0.0,0.0,0.0,0.0,-7.566111948276166e-05,-0.0002606279431835723,-2.9863986213313903e-05,0.00032888139470532707,0.0001316311358711686,6.151517232266812e-05,-3.998506943769797e-06,0.0006697292824040089,-0.0005152468468669842,-0.0007726011885473666,0.00039037011875726283,0.0001990712905824405,0.00011007557934311557,0.0014935247717134934,0.3752071261405945,19.868005752563477,0.4466826617717743,-20.154146194458008,-0.7968040108680725,-2.4758944511413574,0.24844686686992645,0
74,0.3650329113006592,-0.3752071261405945,-19.868005752563477,-0.4466826617717743,20.154146194458008,0.7968040108680725,2.4758944511413574,-0.24844686686992645,0.0,0.0,0.0,0.0,0.0,0.0,0.0,-0.3947368745679595,-0.1067241677626746,-0.21242966847953626,0.37083533834773347,0.2087587747423434,0.10227244698150606,-0.2718526226396917,1.2135170548882401,-0.21998260364607491,-0.007481964608605908,-2.604177263594493,-0.10901555822286024,2.4681206106079947,0.8264789067581828,1.2134413937687574,-0.2202432315892585,-0.0075118285948192216,-2.6038483821997875,-0.10888392708698907,2.4681821257803174,0.826474908251239,-0.0006697292824040089,0.0005152468468669842,0.0007726011885473666,-0.00039037011875726283,-0.0001990712905824405,-0.00011007557934311557,-0.0014935247717134934,0.0,0.0,0.0,0.0,0.0,0.0,0.0,-7.566111948276166e-05,-0.0002606279431835723,-2.9863986213313903e-05,0.00032888139470532707,0.0001316311358711686,6.151517232266812e-05,-3.998506943769797e-06,0.0006697292824040089,-0.0005152468468669842,-0.0007726011885473666,0.00039037011875726283,0.0001990712905824405,0.00011007557934311557,0.0014935247717134934,0.3752071261405945,19.868005752563477,0.4466826617717743,-20.154146194458008,-0.7968040108680725,-2.4758944511413574,0.24844686686992645,0
75,0.37000036239624023,-0.4029781222343445,-19.844202041625977,-0.4228789508342743,20.154146194458008,0.7849021553993225,2.4758944511413574,-0.28964561223983765,0.0,0.0,0.0,0.0,0.0,0.0,0.0,-0.3953661833098901,-0.10935320220571733,-0.2111585795471262,0.37335569770395083,0.20907790960874725,0.10239179978747205,-0.27268897016935384,1.2135190037300712,-0.2199834996025018,-0.00748363493616817,-2.6041772635945097,-0.1090141194521315,2.4681206101234783,0.8264834713385587,1.2134413937687574,-0.2202432315892585,-0.0075118285948192216,-2.6038483821997875,-0.10888392708698907,2.4681821257803174,0.826474908251239,-4.7333679798596364e-05,-0.0002502484467938367,8.660694201581741e-07,-0.0005422516775200893,0.000495964406983604,-9.961157365100484e-05,0.0007674257855101308,0.0,0.0,0.0,0.0,0.0,0.0,0.0,-7.760996131378484e-05,-0.0002597319867566894,-2.8193658651051376e-05,0.00032888139472220246,0.00013019236514243138,6.15156568390951e-05,-8.563087319668483e-06,4.7333679798596364e-05,0.0002502484467938367,-8.660694201581741e-07,0.0005422516775200893,-0.000495964406983604,9.961157365100484e-05,-0.0007674257855101308,0.4029781222343445,19.844202041625977,0.4228789508342743,-20.154146194458008,-0.7849021553993225,-2.4758944511413574,0.28964561223983765,0
76,0.37499356269836426,-0.4029781222343445,-19.844202041625977,-0.4228789508342743,20.154146194458008,0.7849021553993225,2.4758944511413574,-0.28964561223983765,0.0,0.0,0.0,0.0,0.0,0.0,0.0,-0.3953661833098901,-0.10935320220571733,-0.2111585795471262,0.37335569770395083,0.20907790960874725,0.10239179978747205,-0.27268897016935384,1.2135190037300712,-0.2199834996025018,-0.00748363493616817,-2.6041772635945097,-0.1090141194521315,2.4681206101234783,0.8264834713385587,1.2134413937687574,-0.2202432315892585,-0.0075118285948192216,-2.6038483821997875,-0.10888392708698907,2.4681821257803174,0.826474908251239,-4.7333679798596364e-05,-0.0002502484467938367,8.660694201581741e-07,-0.0005422516775200893,0.000495964406983604,-9.961157365100484e-05,0.0007674257855101308,0.0,0.0,0.0,0.0,0.0,0.0,0.0,-7.760996131378484e-05,-0.0002597319867566894,-2.8193658651051376e-05,0.00032888139472220246,0.00013019236514243138,6.15156568390951e-05,-8.563087319668483e-06,4.7333679798596364e-05,0.0002502484467938367,-8.660694201581741e-07,0.0005422516775200893,-0.000495964406983604,9.961157365100484e-05,-0.0007674257855101308,0.4029781222343445,19.844202041625977,0.4228789508342743,-20.154146194458008,-0.7849021553993225,-2.4758944511413574,0.28964561223983765,0
77,0.37999391555786133,-0.4029781222343445,-19.816431045532227,-0.3990752398967743,20.154146194458008,0.7968040108680725,2.4823031425476074,-0.25485557317733765,0.0,0.0,0.0,0.0,0.0,0.0,0.0,-0.3950563506645701,-0.10845499546262366,-0.21175584563618555,0.3705653805784896,0.20930819118000427,0.10234531484226658,-0.27157739805579345,1.2135190037300712,-0.21998755499834963,-0.007485305480266669,-2.6041772635945097,-0.10901520086621891,2.4681198985311705,0.8264796186990853,1.2134413937687574,-0.2202432315892585,-0.0075118285948192216,-2.6038483821997875,-0.10888392708698907,2.4681821257803174,0.826474908251239,0.0003526863417848561,-0.0009706015039473517,-0.00041702943691634677,-0.0008151048753148042,-0.00017432741976078044,-0.00017786342184248724,-0.00045566637095289055,0.0,0.0,0.0,0.0,0.0,0.0,0.0,-7.760996131378484e-05,-0.00025567659090885986,-2.6523114552552858e-05,0.00032888139472220246,0.00013127377922983463,6.222724914684008e-05,-4.710447846223431e-06,-0.0003526863417848561,0.0009706015039473517,0.00041702943691634677,0.0008151048753148042,0.00017432741976078044,0.00017786342184248724,0.00045566637095289055,0.4029781222343445,19.816431045532227,0.3990752398967743,-20.154146194458008,-0.7968040108680725,-2.4823031425476074,0.25485557317733765,0
78,0.3849918842315674,-0.4029781222343445,-19.816431045532227,-0.3990752398967743,20.154146194458008,0.7968040108680725,2.4823031425476074,-0.25485557317733765,0.0,0.0,0.0,0.0,0.0,0.0,0.0,-0.3950563506645701,-0.10845499546262366,-0.21175584563618555,0.3705653805784896,0.20930819118000427,0.10234531484226658,-0.27157739805579345,1.2135190037300712,-0.21998755499834963,-0.007485305480266669,-2.6041772635945097,-0.10901520086621891,2.4681198985311705,0.8264796186990853,1.2134413937687574,-0.2202432315892585,-0.0075118285948192216,-2.6038483821997875,-0.10888392708698907,2.4681821257803174,0.826474908251239,0.0003526863417848561,-0.0009706015039473517,-0.00041702943691634677,-0.0008151048753148042,-0.00017432741976078044,-0.00017786342184248724,-0.00045566637095289055,0.0,0.0,0.0,0.0,0.0,0.0,0.0,-7.760996131378484e-05,-0.00025567659090885986,-2.6523114552552858e-05,0.00032888139472220246,0.00013127377922983463,6.222724914684008e-05,-4.710447846223431e-06,-0.0003526863417848561,0.0009706015039473517,0.00041702943691634677,0.0008151048753148042,0.00017432741976078044,0.00017786342184248724,0.00045566637095289055,0.4029781222343445,19.816431045532227,0.3990752398967743,-20.154146194458008,-0.7968040108680725,-2.4823031425476074,0.25485557317733765,0
79,0.38999223709106445,-0.3752071261405945,-19.844202041625977,-0.3713042438030243,20.130342483520508,0.7849021553993225,2.4694857597351074,-0.22830526530742645,0.0,0.0,0.0,0.0,0.0,0.0,0.0,-0.39499721803392335,-0.11192331995031857,-0.2121398239921613,0.370672654129104,0.20973441808655838,0.1031412024933071,-0.2708162702100108,1.2135170548882401,-0.21998356116361342,-0.00748728062525369,-2.6041733679185834,-0.10901301536239619,2.4681202630466883,0.8264766673190219,1.2134413937687574,-0.2202432315892585,-0.0075118285948192216,-2.6038483821997875,-0.10888392708698907,2.4681821257803174,0.826474908251239,-0.00032439660508181724,-0.00024824720528811143,-0.0008382812435077658,8.016882061013065e-05,0.0003283827507243934,0.00012385736774307547,-0.0018065180545169806,0.0,0.0,0.0,0.0,0.0,0.0,0.0,-7.566111948276166e-05,-0.0002596704256450644,-2.454796956553179e-05,0.00032498571879591154,0.0001290882754071132,6.186273362907002e-05,-1.7590677828804857e-06,0.00032439660508181724,0.00024824720528811143,0.0008382812435077658,-8.016882061013065e-05,-0.0003283827507243934,-0.00012385736774307547,0.0018065180545169806,0.3752071261405945,19.844202041625977,0.3713042438030243,-20.130342483520508,-0.7849021553993225,-2.4694857597351074,0.22830526530742645,0
