rezayati/contactInterpretation/dataset/franka_main/labeled_data/link6/b10_6.csv
index,time,tau_J0,tau_J1,tau_J2,tau_J3,tau_J4,tau_J5,tau_J6,tau_J_d0,tau_J_d1,tau_J_d2,tau_J_d3,tau_J_d4,tau_J_d5,tau_J_d6,tau_ext0,tau_ext1,tau_ext2,tau_ext3,tau_ext4,tau_ext5,tau_ext6,q0,q1,q2,q3,q4,q5,q6,q_d0,q_d1,q_d2,q_d3,q_d4,q_d5,q_d6,dq0,dq1,dq2,dq3,dq4,dq5,dq6,dq_d0,dq_d1,dq_d2,dq_d3,dq_d4,dq_d5,dq_d6,e0,e1,e2,e3,e4,e5,e6,de0,de1,de2,de3,de4,de5,de6,etau_J0,etau_J1,etau_J2,etau_J3,etau_J4,etau_J5,etau_J6,label
1,0.0,-0.09352988004684448,-18.304895401000977,0.8942596912384033,18.245882034301758,0.6594749093055725,2.2818026542663574,-0.20724813640117645,0.0,0.0,0.0,0.0,0.0,0.0,0.0,-0.0477995451968594,0.3687198869034513,0.10673630361333551,0.6444336635509293,0.23983921659887966,0.09304008223020958,-0.23431436489151158,-0.6088997059015268,-0.057358258010002605,-0.6664570877893046,-2.5947083092739707,-0.055785538967007095,2.5078963286611766,0.8763191901759968,-0.6090851748156966,-0.05753196718556838,-0.666603097082616,-2.5945565370258534,-0.05562143941554,2.507976027223799,0.8763108487046415,0.0010348270728916607,0.00046703600534565447,0.00040593886541502935,0.00034831527369352333,0.00011805303304317969,-0.0003365299941692407,-0.0012610379566390822,0.0,0.0,0.0,0.0,0.0,0.0,0.0,-0.00018546891416981737,-0.00017370917556577825,-0.0001460092933114332,0.00015177224811724344,0.0001640995514670951,7.969856262235453e-05,-8.341471355310937e-06,-0.0010348270728916607,-0.00046703600534565447,-0.00040593886541502935,-0.00034831527369352333,-0.00011805303304317969,0.0003365299941692407,0.0012610379566390822,0.09352988004684448,18.304895401000977,-0.8942596912384033,-18.245882034301758,-0.6594749093055725,-2.2818026542663574,0.20724813640117645,0
2,0.005217313766479492,0.03342324495315552,-18.328699111938477,0.9696381092071533,18.245882034301758,0.6658836007118225,2.2689852714538574,-0.25485557317733765,0.0,0.0,0.0,0.0,0.0,0.0,0.0,-0.0433061292974402,0.36402309237221137,0.11025431726659438,0.6500956697887709,0.23986047971259186,0.09361923934671323,-0.2325755496753394,-0.608906574773076,-0.05735871595667119,-0.6664644490690022,-2.5947083092739707,-0.05578625256055219,2.5078977528148223,0.8763244798911941,-0.6090851748156966,-0.05753196718556838,-0.666603097082616,-2.5945565370258534,-0.05562143941554,2.507976027223799,0.8763108487046415,-0.0016560644924948015,0.0005601745579188203,-0.0004313720971533216,0.0009345157985421772,-2.595130767809164e-05,0.00018450039250778627,0.0006388049418877248,0.0,0.0,0.0,0.0,0.0,0.0,0.0,-0.00017860004262060247,-0.00017325122889719213,-0.00013864801361385126,0.00015177224811724344,0.00016481314501218952,7.827440897667515e-05,-1.3631186552620633e-05,0.0016560644924948015,-0.0005601745579188203,0.0004313720971533216,-0.0009345157985421772,2.595130767809164e-05,-0.00018450039250778627,-0.0006388049418877248,-0.03342324495315552,18.328699111938477,-0.9696381092071533,-18.245882034301758,-0.6658836007118225,-2.2689852714538574,0.25485557317733765,0
3,0.0099945068359375,0.03342324495315552,-18.328699111938477,0.9696381092071533,18.245882034301758,0.6658836007118225,2.2689852714538574,-0.25485557317733765,0.0,0.0,0.0,0.0,0.0,0.0,0.0,-0.0433061292974402,0.36402309237221137,0.11025431726659438,0.6500956697887709,0.23986047971259186,0.09361923934671323,-0.2325755496753394,-0.608906574773076,-0.05735871595667119,-0.6664644490690022,-2.5947083092739707,-0.05578625256055219,2.5078977528148223,0.8763244798911941,-0.6090851748156966,-0.05753196718556838,-0.666603097082616,-2.5945565370258534,-0.05562143941554,2.507976027223799,0.8763108487046415,-0.0016560644924948015,0.0005601745579188203,-0.0004313720971533216,0.0009345157985421772,-2.595130767809164e-05,0.00018450039250778627,0.0006388049418877248,0.0,0.0,0.0,0.0,0.0,0.0,0.0,-0.00017860004262060247,-0.00017325122889719213,-0.00013864801361385126,0.00015177224811724344,0.00016481314501218952,7.827440897667515e-05,-1.3631186552620633e-05,0.0016560644924948015,-0.0005601745579188203,0.0004313720971533216,-0.0009345157985421772,2.595130767809164e-05,-0.00018450039250778627,-0.0006388049418877248,-0.03342324495315552,18.328699111938477,-0.9696381092071533,-18.245882034301758,-0.6658836007118225,-2.2689852714538574,0.25485557317733765,0
4,0.015087604522705078,-0.018151462078094482,-18.277124404907227,0.9418671131134033,18.222078323364258,0.6658836007118225,2.2753939628601074,-0.26217979192733765,0.0,0.0,0.0,0.0,0.0,0.0,0.0,-0.041947178218622386,0.3631581248216877,0.11228270093249887,0.6458183705288655,0.2399419372418423,0.09240041403585143,-0.2306316159559566,-0.6089035942101899,-0.05736020686384853,-0.6664625350130359,-2.5947066388381157,-0.055786251097925815,2.5078970407379995,0.8763252936932775,-0.6090851748156966,-0.05753196718556838,-0.666603097082616,-2.5945565370258534,-0.05562143941554,2.507976027223799,0.8763108487046415,-6.48733557709256e-05,-0.0012558267239984912,0.0004960594168708122,0.0010925823282419867,0.009220940325797245,-0.00012336586950061423,0.001664337735263359,0.0,0.0,0.0,0.0,0.0,0.0,0.0,-0.00018158060550665933,-0.00017176032171985212,-0.00014056206958013018,0.00015010181226227104,0.00016481168238581534,7.898648579951484e-05,-1.4444988636008738e-05,6.48733557709256e-05,0.0012558267239984912,-0.0004960594168708122,-0.0010925823282419867,-0.009220940325797245,0.00012336586950061423,-0.001664337735263359,0.018151462078094482,18.277124404907227,-0.9418671131134033,-18.222078323364258,-0.6658836007118225,-2.2753939628601074,0.26217979192733765,0
5,0.019996166229248047,-0.018151462078094482,-18.277124404907227,0.9418671131134033,18.222078323364258,0.6658836007118225,2.2753939628601074,-0.26217979192733765,0.0,0.0,0.0,0.0,0.0,0.0,0.0,-0.041947178218622386,0.3631581248216877,0.11228270093249887,0.6458183705288655,0.2399419372418423,0.09240041403585143,-0.2306316159559566,-0.6089035942101899,-0.05736020686384853,-0.6664625350130359,-2.5947066388381157,-0.055786251097925815,2.5078970407379995,0.8763252936932775,-0.6090851748156966,-0.05753196718556838,-0.666603097082616,-2.5945565370258534,-0.05562143941554,2.507976027223799,0.8763108487046415,-6.48733557709256e-05,-0.0012558267239984912,0.0004960594168708122,0.0010925823282419867,0.009220940325797245,-0.00012336586950061423,0.001664337735263359,0.0,0.0,0.0,0.0,0.0,0.0,0.0,-0.00018158060550665933,-0.00017176032171985212,-0.00014056206958013018,0.00015010181226227104,0.00016481168238581534,7.898648579951484e-05,-1.4444988636008738e-05,6.48733557709256e-05,0.0012558267239984912,-0.0004960594168708122,-0.0010925823282419867,-0.009220940325797245,0.00012336586950061423,-0.001664337735263359,0.018151462078094482,18.277124404907227,-0.9418671131134033,-18.222078323364258,-0.6658836007118225,-2.2753939628601074,0.26217979192733765,0
6,0.024989604949951172,-0.06972616910934448,-18.304895401000977,0.8942596912384033,18.297456741333008,0.6594749093055725,2.2753939628601074,-0.22098104655742645,0.0,0.0,0.0,0.0,0.0,0.0,0.0,-0.04228214527566265,0.36627233418129096,0.11420533040702473,0.6431650877279768,0.23952281985952828,0.09172498607903845,-0.22975774497275575,-0.6088992394396846,-0.057358258010002675,-0.6664588733631707,-2.594711928551657,-0.05578553902109464,2.5078970407379995,0.876320716054903,-0.6090851748156966,-0.05753196718556838,-0.666603097082616,-2.5945565370258534,-0.05562143941554,2.507976027223799,0.8763108487046415,0.0005757605078633004,0.0002962986486843331,0.0010846765694308225,-0.0005916070570951846,0.0005921334358583643,-2.5122334399289883e-05,-0.0002637950202068972,0.0,0.0,0.0,0.0,0.0,0.0,0.0,-0.00018593537601196974,-0.00017370917556570886,-0.00014422371944533552,0.0001553915258036831,0.00016409960555464204,7.898648579951484e-05,-9.867350261538732e-06,-0.0005757605078633004,-0.0002962986486843331,-0.0010846765694308225,0.0005916070570951846,-0.0005921334358583643,2.5122334399289883e-05,0.0002637950202068972,0.06972616910934448,18.304895401000977,-0.8942596912384033,-18.297456741333008,-0.6594749093055725,-2.2753939628601074,0.22098104655742645,0
7,0.029994726181030273,-0.06972616910934448,-18.304895401000977,0.8942596912384033,18.297456741333008,0.6594749093055725,2.2753939628601074,-0.22098104655742645,0.0,0.0,0.0,0.0,0.0,0.0,0.0,-0.04228214527566265,0.36627233418129096,0.11420533040702473,0.6431650877279768,0.23952281985952828,0.09172498607903845,-0.22975774497275575,-0.6088992394396846,-0.057358258010002675,-0.6664588733631707,-2.594711928551657,-0.05578553902109464,2.5078970407379995,0.876320716054903,-0.6090851748156966,-0.05753196718556838,-0.666603097082616,-2.5945565370258534,-0.05562143941554,2.507976027223799,0.8763108487046415,0.0005757605078633004,0.0002962986486843331,0.0010846765694308225,-0.0005916070570951846,0.0005921334358583643,-2.5122334399289883e-05,-0.0002637950202068972,0.0,0.0,0.0,0.0,0.0,0.0,0.0,-0.00018593537601196974,-0.00017370917556570886,-0.00014422371944533552,0.0001553915258036831,0.00016409960555464204,7.898648579951484e-05,-9.867350261538732e-06,-0.0005757605078633004,-0.0002962986486843331,-0.0010846765694308225,0.0005916070570951846,-0.0005921334358583643,2.5122334399289883e-05,0.0002637950202068972,0.06972616910934448,18.304895401000977,-0.8942596912384033,-18.297456741333008,-0.6594749093055725,-2.2753939628601074,0.22098104655742645,0
8,0.034993886947631836,-0.018151462078094482,-18.277124404907227,0.9180634021759033,18.297456741333008,0.6658836007118225,2.2818026542663574,-0.26858848333358765,0.0,0.0,0.0,0.0,0.0,0.0,0.0,-0.038637694594627126,0.3654790534730981,0.12035620396153898,0.6432435831066527,0.2392863977708592,0.09110951583080949,-0.2287159496324755,-0.6089029291013898,-0.05736020721227719,-0.6664605930160415,-2.5947119284466784,-0.05578625109791756,2.5078963286611766,0.8763260057701003,-0.6090851748156966,-0.05753196718556838,-0.666603097082616,-2.5945565370258534,-0.05562143941554,2.507976027223799,0.8763108487046415,-0.0001377117051035293,-0.00033572161164394093,6.0159746895365235e-05,-0.0004559459642644207,-0.00022845637148329485,-0.00030130124330720486,0.0015463465724879263,0.0,0.0,0.0,0.0,0.0,0.0,0.0,-0.0001822457143068057,-0.0001717599732911912,-0.0001425040665744559,0.0001553914208249907,0.00016481168237755806,7.969856262235453e-05,-1.5157065458848429e-05,0.0001377117051035293,0.00033572161164394093,-6.0159746895365235e-05,0.0004559459642644207,0.00022845637148329485,0.00030130124330720486,-0.0015463465724879263,0.018151462078094482,18.277124404907227,-0.9180634021759033,-18.297456741333008,-0.6658836007118225,-2.2818026542663574,0.26858848333358765,0
9,0.03994250297546387,-0.018151462078094482,-18.277124404907227,0.9180634021759033,18.297456741333008,0.6658836007118225,2.2818026542663574,-0.26858848333358765,0.0,0.0,0.0,0.0,0.0,0.0,0.0,-0.038637694594627126,0.3654790534730981,0.12035620396153898,0.6432435831066527,0.2392863977708592,0.09110951583080949,-0.2287159496324755,-0.6089029291013898,-0.05736020721227719,-0.6664605930160415,-2.5947119284466784,-0.05578625109791756,2.5078963286611766,0.8763260057701003,-0.6090851748156966,-0.05753196718556838,-0.666603097082616,-2.5945565370258534,-0.05562143941554,2.507976027223799,0.8763108487046415,-0.0001377117051035293,-0.00033572161164394093,6.0159746895365235e-05,-0.0004559459642644207,-0.00022845637148329485,-0.00030130124330720486,0.0015463465724879263,0.0,0.0,0.0,0.0,0.0,0.0,0.0,-0.0001822457143068057,-0.0001717599732911912,-0.0001425040665744559,0.0001553914208249907,0.00016481168237755806,7.969856262235453e-05,-1.5157065458848429e-05,0.0001377117051035293,0.00033572161164394093,-6.0159746895365235e-05,0.0004559459642644207,0.00022845637148329485,0.00030130124330720486,-0.0015463465724879263,0.018151462078094482,18.277124404907227,-0.9180634021759033,-18.297456741333008,-0.6658836007118225,-2.2818026542663574,0.26858848333358765,0
10,0.04495859146118164,-0.04592245817184448,-18.277124404907227,0.9180634021759033,18.297456741333008,0.6594749093055725,2.2625765800476074,-0.23471395671367645,0.0,0.0,0.0,0.0,0.0,0.0,0.0,-0.04228511644756041,0.36737119351616526,0.11421471611522174,0.6431041293827733,0.2390424638019856,0.09026964828437539,-0.22844580181061466,-0.6089040894036327,-0.05736091631267571,-0.666460864576866,-2.594711928551657,-0.05578553902109464,2.507897405253516,0.8763222419338093,-0.6090851748156966,-0.05753196718556838,-0.666603097082616,-2.5945565370258534,-0.05562143941554,2.507976027223799,0.8763108487046415,-0.00010698999341484007,-0.00032206333203175727,-1.6123098678762625e-05,-0.0009206758005023915,0.00016305957294725397,0.00036398180815935897,0.00015312102359262879,0.0,0.0,0.0,0.0,0.0,0.0,0.0,-0.00018108541206385276,-0.0001710508728926738,-0.00014223250574996182,0.0001553915258036831,0.00016409960555464204,7.862197028307705e-05,-1.1393229167766528e-05,0.00010698999341484007,0.00032206333203175727,1.6123098678762625e-05,0.0009206758005023915,-0.00016305957294725397,-0.00036398180815935897,-0.00015312102359262879,0.04592245817184448,18.277124404907227,-0.9180634021759033,-18.297456741333008,-0.6594749093055725,-2.2625765800476074,0.23471395671367645,0
11,0.04999184608459473,-0.04592245817184448,-18.277124404907227,0.9180634021759033,18.297456741333008,0.6594749093055725,2.2625765800476074,-0.23471395671367645,0.0,0.0,0.0,0.0,0.0,0.0,0.0,-0.04228511644756041,0.36737119351616526,0.11421471611522174,0.6431041293827733,0.2390424638019856,0.09026964828437539,-0.22844580181061466,-0.6089040894036327,-0.05736091631267571,-0.666460864576866,-2.594711928551657,-0.05578553902109464,2.507897405253516,0.8763222419338093,-0.6090851748156966,-0.05753196718556838,-0.666603097082616,-2.5945565370258534,-0.05562143941554,2.507976027223799,0.8763108487046415,-0.00010698999341484007,-0.00032206333203175727,-1.6123098678762625e-05,-0.0009206758005023915,0.00016305957294725397,0.00036398180815935897,0.00015312102359262879,0.0,0.0,0.0,0.0,0.0,0.0,0.0,-0.00018108541206385276,-0.0001710508728926738,-0.00014223250574996182,0.0001553915258036831,0.00016409960555464204,7.862197028307705e-05,-1.1393229167766528e-05,0.00010698999341484007,0.00032206333203175727,1.6123098678762625e-05,0.0009206758005023915,-0.00016305957294725397,-0.00036398180815935897,-0.00015312102359262879,0.04592245817184448,18.277124404907227,-0.9180634021759033,-18.297456741333008,-0.6594749093055725,-2.2625765800476074,0.23471395671367645,0
12,0.05499553680419922,-0.06972616910934448,-18.277124404907227,0.9418671131134033,18.297456741333008,0.6539817452430725,2.2689852714538574,-0.24844686686992645,0.0,0.0,0.0,0.0,0.0,0.0,0.0,-0.04105987269486037,0.3703302211053775,0.11302248903825757,0.6428713473848494,0.2386867510043872,0.08968536796611686,-0.2284916808527607,-0.6088992342933778,-0.057360206855838675,-0.6664624530531866,-2.594711928551657,-0.05578492866953214,2.507897752808841,0.8763237678127155,-0.6090851748156966,-0.05753196718556838,-0.666603097082616,-2.5945565370258534,-0.05562143941554,2.507976027223799,0.8763108487046415,0.0006727244105673957,-0.0001713151436581893,-0.000979277353801775,-0.0011470954883453486,0.0004239917667350116,-5.989964022135389e-06,0.0007671813221906685,0.0,0.0,0.0,0.0,0.0,0.0,0.0,-0.00018594052231879488,-0.00017176032972970878,-0.00014064402942937093,0.0001553915258036831,0.0001634892539921426,7.827441495811271e-05,-1.2919108073994323e-05,-0.0006727244105673957,0.0001713151436581893,0.000979277353801775,0.0011470954883453486,-0.0004239917667350116,5.989964022135389e-06,-0.0007671813221906685,0.06972616910934448,18.277124404907227,-0.9418671131134033,-18.297456741333008,-0.6539817452430725,-2.2689852714538574,0.24844686686992645,0
13,0.059990644454956055,-0.06972616910934448,-18.277124404907227,0.9418671131134033,18.297456741333008,0.6539817452430725,2.2689852714538574,-0.24844686686992645,0.0,0.0,0.0,0.0,0.0,0.0,0.0,-0.04105987269486037,0.3703302211053775,0.11302248903825757,0.6428713473848494,0.2386867510043872,0.08968536796611686,-0.2284916808527607,-0.6088992342933778,-0.057360206855838675,-0.6664624530531866,-2.594711928551657,-0.05578492866953214,2.507897752808841,0.8763237678127155,-0.6090851748156966,-0.05753196718556838,-0.666603097082616,-2.5945565370258534,-0.05562143941554,2.507976027223799,0.8763108487046415,0.0006727244105673957,-0.0001713151436581893,-0.000979277353801775,-0.0011470954883453486,0.0004239917667350116,-5.989964022135389e-06,0.0007671813221906685,0.0,0.0,0.0,0.0,0.0,0.0,0.0,-0.00018594052231879488,-0.00017176032972970878,-0.00014064402942937093,0.0001553915258036831,0.0001634892539921426,7.827441495811271e-05,-1.2919108073994323e-05,-0.0006727244105673957,0.0001713151436581893,0.000979277353801775,0.0011470954883453486,-0.0004239917667350116,5.989964022135389e-06,-0.0007671813221906685,0.06972616910934448,18.277124404907227,-0.9418671131134033,-18.297456741333008,-0.6539817452430725,-2.2689852714538574,0.24844686686992645,0
14,0.06499099731445312,0.005652248859405518,-18.304895401000977,0.9696381092071533,18.297456741333008,0.6658836007118225,2.2625765800476074,-0.24112264811992645,0.0,0.0,0.0,0.0,0.0,0.0,0.0,-0.04074172225590317,0.3685187616341658,0.11169642118304118,0.6464672255564214,0.23875436274007547,0.09009931089774434,-0.2286041502719123,-0.6089066745892083,-0.057358258010002626,-0.6664637817373426,-2.594711928551657,-0.05578625109791756,2.507898464891645,0.8763229540106322,-0.6090851748156966,-0.05753196718556838,-0.666603097082616,-2.5945565370258534,-0.05562143941554,2.507976027223799,0.8763108487046415,-0.001121581481326293,0.00037984675802062515,-0.0011105604032710147,-0.0006702809632986795,-0.00020369785748501742,0.0006097947808869268,0.000635836074014034,0.0,0.0,0.0,0.0,0.0,0.0,0.0,-0.00017850022648824293,-0.00017370917556575743,-0.0001393153452734497,0.0001553915258036831,0.00016481168237755806,7.756233215383546e-05,-1.2105305990717241e-05,0.001121581481326293,-0.00037984675802062515,0.0011105604032710147,0.0006702809632986795,0.00020369785748501742,-0.0006097947808869268,-0.000635836074014034,-0.005652248859405518,18.304895401000977,-0.9696381092071533,-18.297456741333008,-0.6658836007118225,-2.2625765800476074,0.24112264811992645,0
15,0.06998777389526367,0.005652248859405518,-18.304895401000977,0.9696381092071533,18.297456741333008,0.6658836007118225,2.2625765800476074,-0.24112264811992645,0.0,0.0,0.0,0.0,0.0,0.0,0.0,-0.04074172225590317,0.3685187616341658,0.11169642118304118,0.6464672255564214,0.23875436274007547,0.09009931089774434,-0.2286041502719123,-0.6089066745892083,-0.057358258010002626,-0.6664637817373426,-2.594711928551657,-0.05578625109791756,2.507898464891645,0.8763229540106322,-0.6090851748156966,-0.05753196718556838,-0.666603097082616,-2.5945565370258534,-0.05562143941554,2.507976027223799,0.8763108487046415,-0.001121581481326293,0.00037984675802062515,-0.0011105604032710147,-0.0006702809632986795,-0.00020369785748501742,0.0006097947808869268,0.000635836074014034,0.0,0.0,0.0,0.0,0.0,0.0,0.0,-0.00017850022648824293,-0.00017370917556575743,-0.0001393153452734497,0.0001553915258036831,0.00016481168237755806,7.756233215383546e-05,-1.2105305990717241e-05,0.001121581481326293,-0.00037984675802062515,0.0011105604032710147,0.0006702809632986795,0.00020369785748501742,-0.0006097947808869268,-0.000635836074014034,-0.005652248859405518,18.304895401000977,-0.9696381092071533,-18.297456741333008,-0.6658836007118225,-2.2625765800476074,0.24112264811992645,0
16,0.07499122619628906,0.005652248859405518,-18.304895401000977,0.9696381092071533,18.297456741333008,0.6658836007118225,2.2625765800476074,-0.24112264811992645,0.0,0.0,0.0,0.0,0.0,0.0,0.0,-0.04074172225590317,0.3685187616341658,0.11169642118304118,0.6464672255564214,0.23875436274007547,0.09009931089774434,-0.2286041502719123,-0.6089066745892083,-0.057358258010002626,-0.6664637817373426,-2.594711928551657,-0.05578625109791756,2.507898464891645,0.8763229540106322,-0.6090851748156966,-0.05753196718556838,-0.666603097082616,-2.5945565370258534,-0.05562143941554,2.507976027223799,0.8763108487046415,-0.001121581481326293,0.00037984675802062515,-0.0011105604032710147,-0.0006702809632986795,-0.00020369785748501742,0.0006097947808869268,0.000635836074014034,0.0,0.0,0.0,0.0,0.0,0.0,0.0,-0.00017850022648824293,-0.00017370917556575743,-0.0001393153452734497,0.0001553915258036831,0.00016481168237755806,7.756233215383546e-05,-1.2105305990717241e-05,0.001121581481326293,-0.00037984675802062515,0.0011105604032710147,0.0006702809632986795,0.00020369785748501742,-0.0006097947808869268,-0.000635836074014034,-0.005652248859405518,18.304895401000977,-0.9696381092071533,-18.297456741333008,-0.6658836007118225,-2.2625765800476074,0.24112264811992645,0
17,0.07998967170715332,0.005652248859405518,-18.304895401000977,0.9696381092071533,18.297456741333008,0.6658836007118225,2.2625765800476074,-0.24112264811992645,0.0,0.0,0.0,0.0,0.0,0.0,0.0,-0.04074172225590317,0.3685187616341658,0.11169642118304118,0.6464672255564214,0.23875436274007547,0.09009931089774434,-0.2286041502719123,-0.6089066745892083,-0.057358258010002626,-0.6664637817373426,-2.594711928551657,-0.05578625109791756,2.507898464891645,0.8763229540106322,-0.6090851748156966,-0.05753196718556838,-0.666603097082616,-2.5945565370258534,-0.05562143941554,2.507976027223799,0.8763108487046415,-0.001121581481326293,0.00037984675802062515,-0.0011105604032710147,-0.0006702809632986795,-0.00020369785748501742,0.0006097947808869268,0.000635836074014034,0.0,0.0,0.0,0.0,0.0,0.0,0.0,-0.00017850022648824293,-0.00017370917556575743,-0.0001393153452734497,0.0001553915258036831,0.00016481168237755806,7.756233215383546e-05,-1.2105305990717241e-05,0.001121581481326293,-0.00037984675802062515,0.0011105604032710147,0.0006702809632986795,0.00020369785748501742,-0.0006097947808869268,-0.000635836074014034,-0.005652248859405518,18.304895401000977,-0.9696381092071533,-18.297456741333008,-0.6658836007118225,-2.2625765800476074,0.24112264811992645,0
18,0.08501100540161133,-0.04592245817184448,-18.304895401000977,0.9180634021759033,18.245882034301758,0.6539817452430725,2.2818026542663574,-0.21457235515117645,0.0,0.0,0.0,0.0,0.0,0.0,0.0,-0.040536679046288854,0.36670567072507954,0.11183207301944983,0.6498858302276349,0.2384541368047801,0.0908891987467643,-0.22829717071666042,-0.6089011666168113,-0.05735920395779098,-0.6664598417848018,-2.5947083092739707,-0.05578492866953214,2.5078963286611766,0.8763200039780801,-0.6090851748156966,-0.05753196718556838,-0.666603097082616,-2.5945565370258534,-0.05562143941554,2.507976027223799,0.8763108487046415,0.0008040850631240191,-0.00029209593163168426,0.0004894331630265765,0.0008684045186595813,0.00029544299320894324,-0.00032053917395812655,-0.0007303005240737803,0.0,0.0,0.0,0.0,0.0,0.0,0.0,-0.0001840081988853104,-0.0001727632277774005,-0.00014325529781422652,0.00015177224811724344,0.0001634892539921426,7.969856262235453e-05,-9.155273438588019e-06,-0.0008040850631240191,0.00029209593163168426,-0.0004894331630265765,-0.0008684045186595813,-0.00029544299320894324,0.00032053917395812655,0.0007303005240737803,0.04592245817184448,18.304895401000977,-0.9180634021759033,-18.245882034301758,-0.6539817452430725,-2.2818026542663574,0.21457235515117645,0
19,0.08999752998352051,-0.04592245817184448,-18.304895401000977,0.9180634021759033,18.245882034301758,0.6539817452430725,2.2818026542663574,-0.21457235515117645,0.0,0.0,0.0,0.0,0.0,0.0,0.0,-0.040536679046288854,0.36670567072507954,0.11183207301944983,0.6498858302276349,0.2384541368047801,0.0908891987467643,-0.22829717071666042,-0.6089011666168113,-0.05735920395779098,-0.6664598417848018,-2.5947083092739707,-0.05578492866953214,2.5078963286611766,0.8763200039780801,-0.6090851748156966,-0.05753196718556838,-0.666603097082616,-2.5945565370258534,-0.05562143941554,2.507976027223799,0.8763108487046415,0.0008040850631240191,-0.00029209593163168426,0.0004894331630265765,0.0008684045186595813,0.00029544299320894324,-0.00032053917395812655,-0.0007303005240737803,0.0,0.0,0.0,0.0,0.0,0.0,0.0,-0.0001840081988853104,-0.0001727632277774005,-0.00014325529781422652,0.00015177224811724344,0.0001634892539921426,7.969856262235453e-05,-9.155273438588019e-06,-0.0008040850631240191,0.00029209593163168426,-0.0004894331630265765,-0.0008684045186595813,-0.00029544299320894324,0.00032053917395812655,0.0007303005240737803,0.04592245817184448,18.304895401000977,-0.9180634021759033,-18.245882034301758,-0.6539817452430725,-2.2818026542663574,0.21457235515117645,0
20,0.09499502182006836,-0.04592245817184448,-18.352502822875977,0.9418671131134033,18.245882034301758,0.6475730538368225,2.2753939628601074,-0.22098104655742645,0.0,0.0,0.0,0.0,0.0,0.0,0.0,-0.04056571634648555,0.3671210474739613,0.1123853881092741,0.6466283853488638,0.2382287768264443,0.0908122982377895,-0.2281887105985664,-0.6089009302225408,-0.05735704552615583,-0.6664625350074586,-2.5947083092739707,-0.055784216592709227,2.5078970407379995,0.876320716054903,-0.6090851748156966,-0.05753196718556838,-0.666603097082616,-2.5945565370258534,-0.05562143941554,2.507976027223799,0.8763108487046415,1.9756678830104824e-05,0.001136074813428692,0.00028183892284234797,0.0008199106454042053,0.0005730258595062503,-5.2223472488218335e-05,-0.0004059633013876859,0.0,0.0,0.0,0.0,0.0,0.0,0.0,-0.00018424459315580233,-0.00017492165941255383,-0.00014056207515744656,0.00015177224811724344,0.00016277717716922657,7.898648579951484e-05,-9.867350261538732e-06,-1.9756678830104824e-05,-0.001136074813428692,-0.00028183892284234797,-0.0008199106454042053,-0.0005730258595062503,5.2223472488218335e-05,0.0004059633013876859,0.04592245817184448,18.352502822875977,-0.9418671131134033,-18.245882034301758,-0.6475730538368225,-2.2753939628601074,0.22098104655742645,0
21,0.10127401351928711,-0.04592245817184448,-18.352502822875977,0.9418671131134033,18.245882034301758,0.6475730538368225,2.2753939628601074,-0.22098104655742645,0.0,0.0,0.0,0.0,0.0,0.0,0.0,-0.04056571634648555,0.3671210474739613,0.1123853881092741,0.6466283853488638,0.2382287768264443,0.0908122982377895,-0.2281887105985664,-0.6089009302225408,-0.05735704552615583,-0.6664625350074586,-2.5947083092739707,-0.055784216592709227,2.5078970407379995,0.876320716054903,-0.6090851748156966,-0.05753196718556838,-0.666603097082616,-2.5945565370258534,-0.05562143941554,2.507976027223799,0.8763108487046415,1.9756678830104824e-05,0.001136074813428692,0.00028183892284234797,0.0008199106454042053,0.0005730258595062503,-5.2223472488218335e-05,-0.0004059633013876859,0.0,0.0,0.0,0.0,0.0,0.0,0.0,-0.00018424459315580233,-0.00017492165941255383,-0.00014056207515744656,0.00015177224811724344,0.00016277717716922657,7.898648579951484e-05,-9.867350261538732e-06,-1.9756678830104824e-05,-0.001136074813428692,-0.00028183892284234797,-0.0008199106454042053,-0.0005730258595062503,5.2223472488218335e-05,0.0004059633013876859,0.04592245817184448,18.352502822875977,-0.9418671131134033,-18.245882034301758,-0.6475730538368225,-2.2753939628601074,0.22098104655742645,0
22,0.10498976707458496,-0.018151462078094482,-18.304895401000977,0.9180634021759033,18.245882034301758,0.6713767647743225,2.2753939628601074,-0.24112264811992645,0.0,0.0,0.0,0.0,0.0,0.0,0.0,-0.03824586044011803,0.35756157958085893,0.11624112997941714,0.6573991658791843,0.23839668711156942,0.09462118069092108,-0.22861667324769863,-0.6089057903788252,-0.05735825802201742,-0.6664607862552446,-2.5947083092739707,-0.05578686144948006,2.5078970407379995,0.8763229540106322,-0.6090851748156966,-0.05753196718556838,-0.666603097082616,-2.5945565370258534,-0.05562143941554,2.507976027223799,0.8763108487046415,-6.606838393063081e-05,-8.721625064950899e-05,0.00034798782994175254,0.0006432841232278598,-0.00026033520788328637,-0.001476529654182301,0.00012440573305776197,0.0,0.0,0.0,0.0,0.0,0.0,0.0,-0.00017938443687137706,-0.0001737091635509655,-0.00014231082737137246,0.00015177224811724344,0.0001654220339400575,7.898648579951484e-05,-1.2105305990717241e-05,6.606838393063081e-05,8.721625064950899e-05,-0.00034798782994175254,-0.0006432841232278598,0.00026033520788328637,0.001476529654182301,-0.00012440573305776197,0.018151462078094482,18.304895401000977,-0.9180634021759033,-18.245882034301758,-0.6713767647743225,-2.2753939628601074,0.24112264811992645,0
23,0.10998797416687012,-0.018151462078094482,-18.304895401000977,0.9180634021759033,18.245882034301758,0.6713767647743225,2.2753939628601074,-0.24112264811992645,0.0,0.0,0.0,0.0,0.0,0.0,0.0,-0.03824586044011803,0.35756157958085893,0.11624112997941714,0.6573991658791843,0.23839668711156942,0.09462118069092108,-0.22861667324769863,-0.6089057903788252,-0.05735825802201742,-0.6664607862552446,-2.5947083092739707,-0.05578686144948006,2.5078970407379995,0.8763229540106322,-0.6090851748156966,-0.05753196718556838,-0.666603097082616,-2.5945565370258534,-0.05562143941554,2.507976027223799,0.8763108487046415,-6.606838393063081e-05,-8.721625064950899e-05,0.00034798782994175254,0.0006432841232278598,-0.00026033520788328637,-0.001476529654182301,0.00012440573305776197,0.0,0.0,0.0,0.0,0.0,0.0,0.0,-0.00017938443687137706,-0.0001737091635509655,-0.00014231082737137246,0.00015177224811724344,0.0001654220339400575,7.898648579951484e-05,-1.2105305990717241e-05,6.606838393063081e-05,8.721625064950899e-05,-0.00034798782994175254,-0.0006432841232278598,0.00026033520788328637,0.001476529654182301,-0.00012440573305776197,0.018151462078094482,18.304895401000977,-0.9180634021759033,-18.245882034301758,-0.6713767647743225,-2.2753939628601074,0.24112264811992645,0
24,0.11500668525695801,-0.018151462078094482,-18.304895401000977,0.9180634021759033,18.245882034301758,0.6713767647743225,2.2753939628601074,-0.24112264811992645,0.0,0.0,0.0,0.0,0.0,0.0,0.0,-0.03824586044011803,0.35756157958085893,0.11624112997941714,0.6573991658791843,0.23839668711156942,0.09462118069092108,-0.22861667324769863,-0.6089057903788252,-0.05735825802201742,-0.6664607862552446,-2.5947083092739707,-0.05578686144948006,2.5078970407379995,0.8763229540106322,-0.6090851748156966,-0.05753196718556838,-0.666603097082616,-2.5945565370258534,-0.05562143941554,2.507976027223799,0.8763108487046415,-6.606838393063081e-05,-8.721625064950899e-05,0.00034798782994175254,0.0006432841232278598,-0.00026033520788328637,-0.001476529654182301,0.00012440573305776197,0.0,0.0,0.0,0.0,0.0,0.0,0.0,-0.00017938443687137706,-0.0001737091635509655,-0.00014231082737137246,0.00015177224811724344,0.0001654220339400575,7.898648579951484e-05,-1.2105305990717241e-05,6.606838393063081e-05,8.721625064950899e-05,-0.00034798782994175254,-0.0006432841232278598,0.00026033520788328637,0.001476529654182301,-0.00012440573305776197,0.018151462078094482,18.304895401000977,-0.9180634021759033,-18.245882034301758,-0.6713767647743225,-2.2753939628601074,0.24112264811992645,0
25,0.11999011039733887,-0.04592245817184448,-18.304895401000977,0.9418671131134033,18.269685745239258,0.6594749093055725,2.2625765800476074,-0.25485557317733765,0.0,0.0,0.0,0.0,0.0,0.0,0.0,-0.03743708355541343,0.35912085134708377,0.11991972386286716,0.6500095010531688,0.23839997335175167,0.09295296039805513,-0.2294827144544952,-0.6089010097105004,-0.057358258010002675,-0.6664625076214433,-2.594709979709826,-0.05578553902109464,2.507898464891645,0.8763244798911941,-0.6090851748156966,-0.05753196718556838,-0.666603097082616,-2.5945565370258534,-0.05562143941554,2.507976027223799,0.8763108487046415,0.0002954799301406928,-0.00018174344531494965,-0.00027596234956704305,0.0003824404262810183,0.007141908979430119,0.0005862059655588811,0.000930779396354974,0.0,0.0,0.0,0.0,0.0,0.0,0.0,-0.00018416510519614349,-0.00017370917556570886,-0.0001405894611726799,0.00015344268397265992,0.00016409960555464204,7.756233215383546e-05,-1.3631186552620633e-05,-0.0002954799301406928,0.00018174344531494965,0.00027596234956704305,-0.0003824404262810183,-0.007141908979430119,-0.0005862059655588811,-0.000930779396354974,0.04592245817184448,18.304895401000977,-0.9418671131134033,-18.269685745239258,-0.6594749093055725,-2.2625765800476074,0.25485557317733765,0
26,0.12499165534973145,-0.04592245817184448,-18.304895401000977,0.9418671131134033,18.269685745239258,0.6594749093055725,2.2625765800476074,-0.25485557317733765,0.0,0.0,0.0,0.0,0.0,0.0,0.0,-0.03743708355541343,0.35912085134708377,0.11991972386286716,0.6500095010531688,0.23839997335175167,0.09295296039805513,-0.2294827144544952,-0.6089010097105004,-0.057358258010002675,-0.6664625076214433,-2.594709979709826,-0.05578553902109464,2.507898464891645,0.8763244798911941,-0.6090851748156966,-0.05753196718556838,-0.666603097082616,-2.5945565370258534,-0.05562143941554,2.507976027223799,0.8763108487046415,0.0002954799301406928,-0.00018174344531494965,-0.00027596234956704305,0.0003824404262810183,0.007141908979430119,0.0005862059655588811,0.000930779396354974,0.0,0.0,0.0,0.0,0.0,0.0,0.0,-0.00018416510519614349,-0.00017370917556570886,-0.0001405894611726799,0.00015344268397265992,0.00016409960555464204,7.756233215383546e-05,-1.3631186552620633e-05,-0.0002954799301406928,0.00018174344531494965,0.00027596234956704305,-0.0003824404262810183,-0.007141908979430119,-0.0005862059655588811,-0.000930779396354974,0.04592245817184448,18.304895401000977,-0.9418671131134033,-18.269685745239258,-0.6594749093055725,-2.2625765800476074,0.25485557317733765,0
27,0.1299891471862793,-0.04592245817184448,-18.328699111938477,0.9696381092071533,18.269685745239258,0.6713767647743225,2.2753939628601074,-0.24844686686992645,0.0,0.0,0.0,0.0,0.0,0.0,0.0,-0.03793104260181345,0.36547546567666017,0.12139070715667778,0.6426298987914592,0.23796554223525399,0.0909345212092064,-0.2304088431801025,-0.608900901005295,-0.05735658757414734,-0.6664642469625575,-2.594709979709826,-0.05578686144948006,2.5078970407379995,0.8763237678127155,-0.6090851748156966,-0.05753196718556838,-0.666603097082616,-2.5945565370258534,-0.05562143941554,2.507976027223799,0.8763108487046415,-0.0002543248281651948,0.0008530322284682329,-0.0008012931948706374,-5.8889331116041e-05,-0.00012388391406222335,2.8528585564186636e-05,0.00024305406050038382,0.0,0.0,0.0,0.0,0.0,0.0,0.0,-0.00018427381040153623,-0.00017537961142104208,-0.00013885012005854236,0.00015344268397265992,0.0001654220339400575,7.898648579951484e-05,-1.2919108073994323e-05,0.0002543248281651948,-0.0008530322284682329,0.0008012931948706374,5.8889331116041e-05,0.00012388391406222335,-2.8528585564186636e-05,-0.00024305406050038382,0.04592245817184448,18.328699111938477,-0.9696381092071533,-18.269685745239258,-0.6713767647743225,-2.2753939628601074,0.24844686686992645,0
28,0.13498711585998535,-0.04592245817184448,-18.328699111938477,0.9696381092071533,18.269685745239258,0.6713767647743225,2.2753939628601074,-0.24844686686992645,0.0,0.0,0.0,0.0,0.0,0.0,0.0,-0.03793104260181345,0.36547546567666017,0.12139070715667778,0.6426298987914592,0.23796554223525399,0.0909345212092064,-0.2304088431801025,-0.608900901005295,-0.05735658757414734,-0.6664642469625575,-2.594709979709826,-0.05578686144948006,2.5078970407379995,0.8763237678127155,-0.6090851748156966,-0.05753196718556838,-0.666603097082616,-2.5945565370258534,-0.05562143941554,2.507976027223799,0.8763108487046415,-0.0002543248281651948,0.0008530322284682329,-0.0008012931948706374,-5.8889331116041e-05,-0.00012388391406222335,2.8528585564186636e-05,0.00024305406050038382,0.0,0.0,0.0,0.0,0.0,0.0,0.0,-0.00018427381040153623,-0.00017537961142104208,-0.00013885012005854236,0.00015344268397265992,0.0001654220339400575,7.898648579951484e-05,-1.2919108073994323e-05,0.0002543248281651948,-0.0008530322284682329,0.0008012931948706374,5.8889331116041e-05,0.00012388391406222335,-2.8528585564186636e-05,-0.00024305406050038382,0.04592245817184448,18.328699111938477,-0.9696381092071533,-18.269685745239258,-0.6713767647743225,-2.2753939628601074,0.24844686686992645,0
29,0.13998675346374512,-0.04592245817184448,-18.328699111938477,0.9180634021759033,18.269685745239258,0.6658836007118225,2.2625765800476074,-0.21457235515117645,0.0,0.0,0.0,0.0,0.0,0.0,0.0,-0.04202188630312059,0.36461758662540855,0.11946504466330936,0.6483690750732837,0.23894481076428073,0.09177786814440024,-0.23093001026759438,-0.6089031273349157,-0.05735658757414734,-0.6664607566156141,-2.594709979709826,-0.05578625109791756,2.507898464891645,0.8763200039780801,-0.6090851748156966,-0.05753196718556838,-0.666603097082616,-2.5945565370258534,-0.05562143941554,2.507976027223799,0.8763108487046415,-4.486451963952157e-05,0.001079834361624991,0.0001912265061195416,0.00039172030637192704,-3.051962112827594e-06,0.0006430042832751438,-0.0009794773581396775,0.0,0.0,0.0,0.0,0.0,0.0,0.0,-0.00018204748078087807,-0.00017537961142104208,-0.00014234046700190017,0.00015344268397265992,0.00016481168237755806,7.756233215383546e-05,-9.155273438588019e-06,4.486451963952157e-05,-0.001079834361624991,-0.0001912265061195416,-0.00039172030637192704,3.051962112827594e-06,-0.0006430042832751438,0.0009794773581396775,0.04592245817184448,18.328699111938477,-0.9180634021759033,-18.269685745239258,-0.6658836007118225,-2.2625765800476074,0.21457235515117645,0
30,0.1449887752532959,-0.04592245817184448,-18.328699111938477,0.9180634021759033,18.269685745239258,0.6658836007118225,2.2625765800476074,-0.21457235515117645,0.0,0.0,0.0,0.0,0.0,0.0,0.0,-0.04202188630312059,0.36461758662540855,0.11946504466330936,0.6483690750732837,0.23894481076428073,0.09177786814440024,-0.23093001026759438,-0.6089031273349157,-0.05735658757414734,-0.6664607566156141,-2.594709979709826,-0.05578625109791756,2.507898464891645,0.8763200039780801,-0.6090851748156966,-0.05753196718556838,-0.666603097082616,-2.5945565370258534,-0.05562143941554,2.507976027223799,0.8763108487046415,-4.486451963952157e-05,0.001079834361624991,0.0001912265061195416,0.00039172030637192704,-3.051962112827594e-06,0.0006430042832751438,-0.0009794773581396775,0.0,0.0,0.0,0.0,0.0,0.0,0.0,-0.00018204748078087807,-0.00017537961142104208,-0.00014234046700190017,0.00015344268397265992,0.00016481168237755806,7.756233215383546e-05,-9.155273438588019e-06,4.486451963952157e-05,-0.001079834361624991,-0.0001912265061195416,-0.00039172030637192704,3.051962112827594e-06,-0.0006430042832751438,0.0009794773581396775,0.04592245817184448,18.328699111938477,-0.9180634021759033,-18.269685745239258,-0.6658836007118225,-2.2625765800476074,0.21457235515117645,0
31,0.14999055862426758,-0.04592245817184448,-18.253320693969727,0.8704559803009033,18.269685745239258,0.6658836007118225,2.2552523612976074,-0.22098104655742645,0.0,0.0,0.0,0.0,0.0,0.0,0.0,-0.044776895093271846,0.36906362130200815,0.11598794783636301,0.6444268848088152,0.2393082904731189,0.09103359196467549,-0.23040599651569071,-0.6089009010172491,-0.05736187728768901,-0.6664572858497287,-2.594709979709826,-0.05578625109791756,2.5078992786937286,0.876320716054903,-0.6090851748156966,-0.05753196718556838,-0.666603097082616,-2.5945565370258534,-0.05562143941554,2.507976027223799,0.8763108487046415,-0.00014643794237831543,-0.0011356288957921129,0.0009165011091070881,-0.0001735472863059678,-7.288106766444463e-05,0.0005075465606059824,-0.0005098194694626808,0.0,0.0,0.0,0.0,0.0,0.0,0.0,-0.00018427379844743186,-0.00017008989787937329,-0.00014581123288726072,0.00015344268397265992,0.00016481168237755806,7.674853007033633e-05,-9.867350261538732e-06,0.00014643794237831543,0.0011356288957921129,-0.0009165011091070881,0.0001735472863059678,7.288106766444463e-05,-0.0005075465606059824,0.0005098194694626808,0.04592245817184448,18.253320693969727,-0.8704559803009033,-18.269685745239258,-0.6658836007118225,-2.2552523612976074,0.22098104655742645,0
32,0.15499377250671387,-0.04592245817184448,-18.253320693969727,0.8704559803009033,18.269685745239258,0.6658836007118225,2.2552523612976074,-0.22098104655742645,0.0,0.0,0.0,0.0,0.0,0.0,0.0,-0.044776895093271846,0.36906362130200815,0.11598794783636301,0.6444268848088152,0.2393082904731189,0.09103359196467549,-0.23040599651569071,-0.6089009010172491,-0.05736187728768901,-0.6664572858497287,-2.594709979709826,-0.05578625109791756,2.5078992786937286,0.876320716054903,-0.6090851748156966,-0.05753196718556838,-0.666603097082616,-2.5945565370258534,-0.05562143941554,2.507976027223799,0.8763108487046415,-0.00014643794237831543,-0.0011356288957921129,0.0009165011091070881,-0.0001735472863059678,-7.288106766444463e-05,0.0005075465606059824,-0.0005098194694626808,0.0,0.0,0.0,0.0,0.0,0.0,0.0,-0.00018427379844743186,-0.00017008989787937329,-0.00014581123288726072,0.00015344268397265992,0.00016481168237755806,7.674853007033633e-05,-9.867350261538732e-06,0.00014643794237831543,0.0011356288957921129,-0.0009165011091070881,0.0001735472863059678,7.288106766444463e-05,-0.0005075465606059824,0.0005098194694626808,0.04592245817184448,18.253320693969727,-0.8704559803009033,-18.269685745239258,-0.6658836007118225,-2.2552523612976074,0.22098104655742645,0
33,0.16117453575134277,-0.04592245817184448,-18.253320693969727,0.8942596912384033,18.269685745239258,0.6658836007118225,2.2552523612976074,-0.20724813640117645,0.0,0.0,0.0,0.0,0.0,0.0,0.0,-0.04775584729197041,0.36815987836759134,0.11079961044432918,0.6485352505651966,0.23977178231213994,0.09051277614230017,-0.23037049529593298,-0.6089011430571362,-0.05736195708986869,-0.6664563831032077,-2.594709979709826,-0.05578625126043255,2.5078992786937286,0.8763191901759968,-0.6090851748156966,-0.05753196718556838,-0.666603097082616,-2.5945565370258534,-0.05562143941554,2.507976027223799,0.8763108487046415,-5.293845541509816e-05,-0.0011186701421955453,0.00012248802480428086,9.650998185409417e-05,-0.0001926339842995606,0.0006595112663447642,-0.0008399261217634423,0.0,0.0,0.0,0.0,0.0,0.0,0.0,-0.0001840317585604101,-0.00017001009569969638,-0.00014671397940835273,0.00015344268397265992,0.00016481184489255257,7.674853007033633e-05,-8.341471355310937e-06,5.293845541509816e-05,0.0011186701421955453,-0.00012248802480428086,-9.650998185409417e-05,0.0001926339842995606,-0.0006595112663447642,0.0008399261217634423,0.04592245817184448,18.253320693969727,-0.8942596912384033,-18.269685745239258,-0.6658836007118225,-2.2552523612976074,0.20724813640117645,0
34,0.16499805450439453,-0.04592245817184448,-18.253320693969727,0.8942596912384033,18.269685745239258,0.6658836007118225,2.2552523612976074,-0.20724813640117645,0.0,0.0,0.0,0.0,0.0,0.0,0.0,-0.04775584729197041,0.36815987836759134,0.11079961044432918,0.6485352505651966,0.23977178231213994,0.09051277614230017,-0.23037049529593298,-0.6089011430571362,-0.05736195708986869,-0.6664563831032077,-2.594709979709826,-0.05578625126043255,2.5078992786937286,0.8763191901759968,-0.6090851748156966,-0.05753196718556838,-0.666603097082616,-2.5945565370258534,-0.05562143941554,2.507976027223799,0.8763108487046415,-5.293845541509816e-05,-0.0011186701421955453,0.00012248802480428086,9.650998185409417e-05,-0.0001926339842995606,0.0006595112663447642,-0.0008399261217634423,0.0,0.0,0.0,0.0,0.0,0.0,0.0,-0.0001840317585604101,-0.00017001009569969638,-0.00014671397940835273,0.00015344268397265992,0.00016481184489255257,7.674853007033633e-05,-8.341471355310937e-06,5.293845541509816e-05,0.0011186701421955453,-0.00012248802480428086,-9.650998185409417e-05,0.0001926339842995606,-0.0006595112663447642,0.0008399261217634423,0.04592245817184448,18.253320693969727,-0.8942596912384033,-18.269685745239258,-0.6658836007118225,-2.2552523612976074,0.20724813640117645,0
35,0.1699972152709961,-0.018151462078094482,-18.304895401000977,0.9696381092071533,18.297456741333008,0.6658836007118225,2.2753939628601074,-0.24112264811992645,0.0,0.0,0.0,0.0,0.0,0.0,0.0,-0.04378852140986344,0.3673931387666239,0.10964265949090689,0.6498196534531665,0.23998284616281937,0.09081934945080355,-0.2294184112760887,-0.6089031940122385,-0.05735825801045309,-0.6664623662170226,-2.594711928551657,-0.055786251097918474,2.5078970407379995,0.8763229540106322,-0.6090851748156966,-0.05753196718556838,-0.666603097082616,-2.5945565370258534,-0.05562143941554,2.507976027223799,0.8763108487046415,-0.0006543090087273598,4.8342529889071876e-05,-0.0014111327315158536,-0.0003827279574675546,-0.00010574210165110887,0.0002177208404034661,0.0005567747019487978,0.0,0.0,0.0,0.0,0.0,0.0,0.0,-0.00018198080345810386,-0.00017370917511529138,-0.00014073086559340808,0.0001553915258036831,0.000164811682378474,7.898648579951484e-05,-1.2105305990717241e-05,0.0006543090087273598,-4.8342529889071876e-05,0.0014111327315158536,0.0003827279574675546,0.00010574210165110887,-0.0002177208404034661,-0.0005567747019487978,0.018151462078094482,18.304895401000977,-0.9696381092071533,-18.297456741333008,-0.6658836007118225,-2.2753939628601074,0.24112264811992645,0
36,0.17499804496765137,-0.018151462078094482,-18.304895401000977,0.9696381092071533,18.297456741333008,0.6658836007118225,2.2753939628601074,-0.24112264811992645,0.0,0.0,0.0,0.0,0.0,0.0,0.0,-0.04378852140986344,0.3673931387666239,0.10964265949090689,0.6498196534531665,0.23998284616281937,0.09081934945080355,-0.2294184112760887,-0.6089031940122385,-0.05735825801045309,-0.6664623662170226,-2.594711928551657,-0.055786251097918474,2.5078970407379995,0.8763229540106322,-0.6090851748156966,-0.05753196718556838,-0.666603097082616,-2.5945565370258534,-0.05562143941554,2.507976027223799,0.8763108487046415,-0.0006543090087273598,4.8342529889071876e-05,-0.0014111327315158536,-0.0003827279574675546,-0.00010574210165110887,0.0002177208404034661,0.0005567747019487978,0.0,0.0,0.0,0.0,0.0,0.0,0.0,-0.00018198080345810386,-0.00017370917511529138,-0.00014073086559340808,0.0001553915258036831,0.000164811682378474,7.898648579951484e-05,-1.2105305990717241e-05,0.0006543090087273598,-4.8342529889071876e-05,0.0014111327315158536,0.0003827279574675546,0.00010574210165110887,-0.0002177208404034661,-0.0005567747019487978,0.018151462078094482,18.304895401000977,-0.9696381092071533,-18.297456741333008,-0.6658836007118225,-2.2753939628601074,0.24112264811992645,0
37,0.17999625205993652,0.03342324495315552,-18.304895401000977,0.9418671131134033,18.245882034301758,0.6658836007118225,2.2818026542663574,-0.23471395671367645,0.0,0.0,0.0,0.0,0.0,0.0,0.0,-0.04059981215742667,0.3644688811044375,0.1118941491800193,0.6488688694642614,0.2406360373937981,0.09103861484133517,-0.22921072482218582,-0.6089064953263849,-0.057358258010002605,-0.666462499906115,-2.5947083092739707,-0.05578625109791756,2.5078963286611766,0.8763222419338093,-0.6090851748156966,-0.05753196718556838,-0.666603097082616,-2.5945565370258534,-0.05562143941554,2.507976027223799,0.8763108487046415,-0.0010739882234032882,-0.0004408528923408855,-0.0002054542398065612,0.0006724456483584321,-0.00020558774582142493,-0.00021762953440190256,-0.00011666523501726801,0.0,0.0,0.0,0.0,0.0,0.0,0.0,-0.00017867948931171718,-0.00017370917556577825,-0.00014059717650105608,0.00015177224811724344,0.00016481168237755806,7.969856262235453e-05,-1.1393229167766528e-05,0.0010739882234032882,0.0004408528923408855,0.0002054542398065612,-0.0006724456483584321,0.00020558774582142493,0.00021762953440190256,0.00011666523501726801,-0.03342324495315552,18.304895401000977,-0.9418671131134033,-18.245882034301758,-0.6658836007118225,-2.2818026542663574,0.23471395671367645,0
38,0.18498969078063965,0.03342324495315552,-18.304895401000977,0.9418671131134033,18.245882034301758,0.6658836007118225,2.2818026542663574,-0.23471395671367645,0.0,0.0,0.0,0.0,0.0,0.0,0.0,-0.04059981215742667,0.3644688811044375,0.1118941491800193,0.6488688694642614,0.2406360373937981,0.09103861484133517,-0.22921072482218582,-0.6089064953263849,-0.057358258010002605,-0.666462499906115,-2.5947083092739707,-0.05578625109791756,2.5078963286611766,0.8763222419338093,-0.6090851748156966,-0.05753196718556838,-0.666603097082616,-2.5945565370258534,-0.05562143941554,2.507976027223799,0.8763108487046415,-0.0010739882234032882,-0.0004408528923408855,-0.0002054542398065612,0.0006724456483584321,-0.00020558774582142493,-0.00021762953440190256,-0.00011666523501726801,0.0,0.0,0.0,0.0,0.0,0.0,0.0,-0.00017867948931171718,-0.00017370917556577825,-0.00014059717650105608,0.00015177224811724344,0.00016481168237755806,7.969856262235453e-05,-1.1393229167766528e-05,0.0010739882234032882,0.0004408528923408855,0.0002054542398065612,-0.0006724456483584321,0.00020558774582142493,0.00021762953440190256,0.00011666523501726801,-0.03342324495315552,18.304895401000977,-0.9418671131134033,-18.245882034301758,-0.6658836007118225,-2.2818026542663574,0.23471395671367645,0
39,0.18999099731445312,0.005652248859405518,-18.304895401000977,0.9696381092071533,18.245882034301758,0.6539817452430725,2.2753939628601074,-0.21457235515117645,0.0,0.0,0.0,0.0,0.0,0.0,0.0,-0.034707543540422804,0.3652812474287479,0.11631011774194269,0.6456315633412743,0.24029583532263285,0.09054461709226613,-0.23050209784794864,-0.6089052352112041,-0.05735825804604695,-0.6664637818446045,-2.594708282819356,-0.05578492866953214,2.5078970407379995,0.8763200039780801,-0.6090851748156966,-0.05753196718556838,-0.666603097082616,-2.5945565370258534,-0.05562143941554,2.507976027223799,0.8763108487046415,-0.0005986190274396038,0.00014345342863482887,-0.00013652159370521383,0.0005086022220674068,0.0002888626975953041,-0.00012821186664871626,-0.0005576457816258344,0.0,0.0,0.0,0.0,0.0,0.0,0.0,-0.00017993960449247393,-0.0001737091395214302,-0.0001393152380114726,0.00015174579350274442,0.0001634892539921426,7.898648579951484e-05,-9.155273438588019e-06,0.0005986190274396038,-0.00014345342863482887,0.00013652159370521383,-0.0005086022220674068,-0.0002888626975953041,0.00012821186664871626,0.0005576457816258344,-0.005652248859405518,18.304895401000977,-0.9696381092071533,-18.245882034301758,-0.6539817452430725,-2.2753939628601074,0.21457235515117645,0
40,0.19498920440673828,0.005652248859405518,-18.304895401000977,0.9696381092071533,18.245882034301758,0.6539817452430725,2.2753939628601074,-0.21457235515117645,0.0,0.0,0.0,0.0,0.0,0.0,0.0,-0.034707543540422804,0.3652812474287479,0.11631011774194269,0.6456315633412743,0.24029583532263285,0.09054461709226613,-0.23050209784794864,-0.6089052352112041,-0.05735825804604695,-0.6664637818446045,-2.594708282819356,-0.05578492866953214,2.5078970407379995,0.8763200039780801,-0.6090851748156966,-0.05753196718556838,-0.666603097082616,-2.5945565370258534,-0.05562143941554,2.507976027223799,0.8763108487046415,-0.0005986190274396038,0.00014345342863482887,-0.00013652159370521383,0.0005086022220674068,0.0002888626975953041,-0.00012821186664871626,-0.0005576457816258344,0.0,0.0,0.0,0.0,0.0,0.0,0.0,-0.00017993960449247393,-0.0001737091395214302,-0.0001393152380114726,0.00015174579350274442,0.0001634892539921426,7.898648579951484e-05,-9.155273438588019e-06,0.0005986190274396038,-0.00014345342863482887,0.00013652159370521383,-0.0005086022220674068,-0.0002888626975953041,0.00012821186664871626,0.0005576457816258344,-0.005652248859405518,18.304895401000977,-0.9696381092071533,-18.245882034301758,-0.6539817452430725,-2.2753939628601074,0.21457235515117645,0
41,0.19998812675476074,-0.06972616910934448,-18.277124404907227,0.9180634021759033,18.297456741333008,0.6713767647743225,2.2882113456726074,-0.20724813640117645,0.0,0.0,0.0,0.0,0.0,0.0,0.0,-0.03837611197696395,0.36437689511615473,0.11534212631793747,0.6468056029221344,0.24009564425232222,0.09028763879841366,-0.23020822174518393,-0.6089001872269563,-0.05736020685183395,-0.6664600845620134,-2.5947118520220873,-0.05578686144948006,2.5078956165843533,0.8763191901759968,-0.6090851748156966,-0.05753196718556838,-0.666603097082616,-2.5945565370258534,-0.05562143941554,2.507976027223799,0.8763108487046415,0.0006506943631108687,3.738744702104039e-05,0.00040839182511369815,-0.00039566950779736885,-0.00041158308171738517,-0.0003075056224968901,-0.0014743471505300628,0.0,0.0,0.0,0.0,0.0,0.0,0.0,-0.00018498758874030408,-0.0001717603337344359,-0.00014301252060255898,0.00015531499623389067,0.0001654220339400575,8.041063944563831e-05,-8.341471355310937e-06,-0.0006506943631108687,-3.738744702104039e-05,-0.00040839182511369815,0.00039566950779736885,0.00041158308171738517,0.0003075056224968901,0.0014743471505300628,0.06972616910934448,18.277124404907227,-0.9180634021759033,-18.297456741333008,-0.6713767647743225,-2.2882113456726074,0.20724813640117645,0
42,0.20498919486999512,-0.06972616910934448,-18.277124404907227,0.9180634021759033,18.297456741333008,0.6713767647743225,2.2882113456726074,-0.20724813640117645,0.0,0.0,0.0,0.0,0.0,0.0,0.0,-0.03837611197696395,0.36437689511615473,0.11534212631793747,0.6468056029221344,0.24009564425232222,0.09028763879841366,-0.23020822174518393,-0.6089001872269563,-0.05736020685183395,-0.6664600845620134,-2.5947118520220873,-0.05578686144948006,2.5078956165843533,0.8763191901759968,-0.6090851748156966,-0.05753196718556838,-0.666603097082616,-2.5945565370258534,-0.05562143941554,2.507976027223799,0.8763108487046415,0.0006506943631108687,3.738744702104039e-05,0.00040839182511369815,-0.00039566950779736885,-0.00041158308171738517,-0.0003075056224968901,-0.0014743471505300628,0.0,0.0,0.0,0.0,0.0,0.0,0.0,-0.00018498758874030408,-0.0001717603337344359,-0.00014301252060255898,0.00015531499623389067,0.0001654220339400575,8.041063944563831e-05,-8.341471355310937e-06,-0.0006506943631108687,-3.738744702104039e-05,-0.00040839182511369815,0.00039566950779736885,0.00041158308171738517,0.0003075056224968901,0.0014743471505300628,0.06972616910934448,18.277124404907227,-0.9180634021759033,-18.297456741333008,-0.6713767647743225,-2.2882113456726074,0.20724813640117645,0
43,0.20998811721801758,-0.06972616910934448,-18.277124404907227,0.9418671131134033,18.297456741333008,0.6713767647743225,2.2625765800476074,-0.24844686686992645,0.0,0.0,0.0,0.0,0.0,0.0,0.0,-0.030587281219902968,0.36982123994198407,0.12338777732122312,0.6467676461583675,0.23993957564382445,0.09128537472970918,-0.22970686419136507,-0.6088999720023797,-0.05736304469519888,-0.6664625080365189,-2.5947119285515132,-0.05578686144948006,2.507898464891645,0.8763237678127155,-0.6090851748156966,-0.05753196718556838,-0.666603097082616,-2.5945565370258534,-0.05562143941554,2.507976027223799,0.8763108487046415,0.0012882822683351323,0.0003560786329014901,-0.0007444923495656498,-0.0006989809444814454,-0.00026635539469031176,0.0003535417386583011,0.00013113971369255588,0.0,0.0,0.0,0.0,0.0,0.0,0.0,-0.00018520281331690924,-0.00016892249036950385,-0.0001405890460971504,0.0001553915256597982,0.0001654220339400575,7.756233215383546e-05,-1.2919108073994323e-05,-0.0012882822683351323,-0.0003560786329014901,0.0007444923495656498,0.0006989809444814454,0.00026635539469031176,-0.0003535417386583011,-0.00013113971369255588,0.06972616910934448,18.277124404907227,-0.9418671131134033,-18.297456741333008,-0.6713767647743225,-2.2625765800476074,0.24844686686992645,0
44,0.21498703956604004,-0.06972616910934448,-18.277124404907227,0.9418671131134033,18.297456741333008,0.6713767647743225,2.2625765800476074,-0.24844686686992645,0.0,0.0,0.0,0.0,0.0,0.0,0.0,-0.030587281219902968,0.36982123994198407,0.12338777732122312,0.6467676461583675,0.23993957564382445,0.09128537472970918,-0.22970686419136507,-0.6088999720023797,-0.05736304469519888,-0.6664625080365189,-2.5947119285515132,-0.05578686144948006,2.507898464891645,0.8763237678127155,-0.6090851748156966,-0.05753196718556838,-0.666603097082616,-2.5945565370258534,-0.05562143941554,2.507976027223799,0.8763108487046415,0.0012882822683351323,0.0003560786329014901,-0.0007444923495656498,-0.0006989809444814454,-0.00026635539469031176,0.0003535417386583011,0.00013113971369255588,0.0,0.0,0.0,0.0,0.0,0.0,0.0,-0.00018520281331690924,-0.00016892249036950385,-0.0001405890460971504,0.0001553915256597982,0.0001654220339400575,7.756233215383546e-05,-1.2919108073994323e-05,-0.0012882822683351323,-0.0003560786329014901,0.0007444923495656498,0.0006989809444814454,0.00026635539469031176,-0.0003535417386583011,-0.00013113971369255588,0.06972616910934448,18.277124404907227,-0.9418671131134033,-18.297456741333008,-0.6713767647743225,-2.2625765800476074,0.24844686686992645,0
45,0.21999788284301758,-0.06972616910934448,-18.277124404907227,0.9418671131134033,18.297456741333008,0.6713767647743225,2.2625765800476074,-0.24844686686992645,0.0,0.0,0.0,0.0,0.0,0.0,0.0,-0.030587281219902968,0.36982123994198407,0.12338777732122312,0.6467676461583675,0.23993957564382445,0.09128537472970918,-0.22970686419136507,-0.6088999720023797,-0.05736304469519888,-0.6664625080365189,-2.5947119285515132,-0.05578686144948006,2.507898464891645,0.8763237678127155,-0.6090851748156966,-0.05753196718556838,-0.666603097082616,-2.5945565370258534,-0.05562143941554,2.507976027223799,0.8763108487046415,0.0012882822683351323,0.0003560786329014901,-0.0007444923495656498,-0.0006989809444814454,-0.00026635539469031176,0.0003535417386583011,0.00013113971369255588,0.0,0.0,0.0,0.0,0.0,0.0,0.0,-0.00018520281331690924,-0.00016892249036950385,-0.0001405890460971504,0.0001553915256597982,0.0001654220339400575,7.756233215383546e-05,-1.2919108073994323e-05,-0.0012882822683351323,-0.0003560786329014901,0.0007444923495656498,0.0006989809444814454,0.00026635539469031176,-0.0003535417386583011,-0.00013113971369255588,0.06972616910934448,18.277124404907227,-0.9418671131134033,-18.297456741333008,-0.6713767647743225,-2.2625765800476074,0.24844686686992645,0
46,0.2250065803527832,-0.06972616910934448,-18.277124404907227,0.9418671131134033,18.297456741333008,0.6713767647743225,2.2625765800476074,-0.24844686686992645,0.0,0.0,0.0,0.0,0.0,0.0,0.0,-0.030587281219902968,0.36982123994198407,0.12338777732122312,0.6467676461583675,0.23993957564382445,0.09128537472970918,-0.22970686419136507,-0.6088999720023797,-0.05736304469519888,-0.6664625080365189,-2.5947119285515132,-0.05578686144948006,2.507898464891645,0.8763237678127155,-0.6090851748156966,-0.05753196718556838,-0.666603097082616,-2.5945565370258534,-0.05562143941554,2.507976027223799,0.8763108487046415,0.0012882822683351323,0.0003560786329014901,-0.0007444923495656498,-0.0006989809444814454,-0.00026635539469031176,0.0003535417386583011,0.00013113971369255588,0.0,0.0,0.0,0.0,0.0,0.0,0.0,-0.00018520281331690924,-0.00016892249036950385,-0.0001405890460971504,0.0001553915256597982,0.0001654220339400575,7.756233215383546e-05,-1.2919108073994323e-05,-0.0012882822683351323,-0.0003560786329014901,0.0007444923495656498,0.0006989809444814454,0.00026635539469031176,-0.0003535417386583011,-0.00013113971369255588,0.06972616910934448,18.277124404907227,-0.9418671131134033,-18.297456741333008,-0.6713767647743225,-2.2625765800476074,0.24844686686992645,0
47,0.2299964427947998,-0.06972616910934448,-18.277124404907227,0.8942596912384033,18.245882034301758,0.6658836007118225,2.2625765800476074,-0.24112264811992645,0.0,0.0,0.0,0.0,0.0,0.0,0.0,-0.035333366262532355,0.3740543713058178,0.11678667881763181,0.6481450805435983,0.2401796074368922,0.09076447410160435,-0.2302756745594731,-0.6088994686645418,-0.05736020697598649,-0.6664569725533428,-2.5947083092739707,-0.05578625109791756,2.507898464891645,0.8763229540106322,-0.6090851748156966,-0.05753196718556838,-0.666603097082616,-2.5945565370258534,-0.05562143941554,2.507976027223799,0.8763108487046415,0.0004311944555860852,4.408951614734623e-06,0.0006095353649125039,0.0003201843667638912,-6.414079656702769e-05,0.0001287058722125386,0.0007811059162213277,0.0,0.0,0.0,0.0,0.0,0.0,0.0,-0.00018570615115476308,-0.00017176020958189347,-0.00014612452927320607,0.00015177224811724344,0.00016481168237755806,7.756233215383546e-05,-1.2105305990717241e-05,-0.0004311944555860852,-4.408951614734623e-06,-0.0006095353649125039,-0.0003201843667638912,6.414079656702769e-05,-0.0001287058722125386,-0.0007811059162213277,0.06972616910934448,18.277124404907227,-0.8942596912384033,-18.245882034301758,-0.6658836007118225,-2.2625765800476074,0.24112264811992645,0
48,0.23494434356689453,-0.06972616910934448,-18.277124404907227,0.8942596912384033,18.245882034301758,0.6658836007118225,2.2625765800476074,-0.24112264811992645,0.0,0.0,0.0,0.0,0.0,0.0,0.0,-0.035333366262532355,0.3740543713058178,0.11678667881763181,0.6481450805435983,0.2401796074368922,0.09076447410160435,-0.2302756745594731,-0.6088994686645418,-0.05736020697598649,-0.6664569725533428,-2.5947083092739707,-0.05578625109791756,2.507898464891645,0.8763229540106322,-0.6090851748156966,-0.05753196718556838,-0.666603097082616,-2.5945565370258534,-0.05562143941554,2.507976027223799,0.8763108487046415,0.0004311944555860852,4.408951614734623e-06,0.0006095353649125039,0.0003201843667638912,-6.414079656702769e-05,0.0001287058722125386,0.0007811059162213277,0.0,0.0,0.0,0.0,0.0,0.0,0.0,-0.00018570615115476308,-0.00017176020958189347,-0.00014612452927320607,0.00015177224811724344,0.00016481168237755806,7.756233215383546e-05,-1.2105305990717241e-05,-0.0004311944555860852,-4.408951614734623e-06,-0.0006095353649125039,-0.0003201843667638912,6.414079656702769e-05,-0.0001287058722125386,-0.0007811059162213277,0.06972616910934448,18.277124404907227,-0.8942596912384033,-18.245882034301758,-0.6658836007118225,-2.2625765800476074,0.24112264811992645,0
49,0.2399919033050537,-0.04592245817184448,-18.304895401000977,0.8942596912384033,18.245882034301758,0.6713767647743225,2.2882113456726074,-0.18710653483867645,0.0,0.0,0.0,0.0,0.0,0.0,0.0,-0.03806052402199731,0.37245154610561093,0.11507086074141074,0.6569523821657345,0.24052015712946465,0.09148802666901334,-0.23026925587555785,-0.608900984076422,-0.057358258010003306,-0.6664563774211447,-2.5947083092739707,-0.05578686144948006,2.5078956165843533,0.8763169522202676,-0.6090851748156966,-0.05753196718556838,-0.666603097082616,-2.5945565370258534,-0.05562143941554,2.507976027223799,0.8763108487046415,8.330308298152649e-05,6.879318824352301e-05,0.00041085315053190295,0.001271363760784276,-0.0001198783873251805,-0.00036879824748455367,-0.0019184849969460195,0.0,0.0,0.0,0.0,0.0,0.0,0.0,-0.00018419073927455898,-0.00017370917556507742,-0.000146719661471284,0.00015177224811724344,0.0001654220339400575,8.041063944563831e-05,-6.1035156261324275e-06,-8.330308298152649e-05,-6.879318824352301e-05,-0.00041085315053190295,-0.001271363760784276,0.0001198783873251805,0.00036879824748455367,0.0019184849969460195,0.04592245817184448,18.304895401000977,-0.8942596912384033,-18.245882034301758,-0.6713767647743225,-2.2882113456726074,0.18710653483867645,0
50,0.24498772621154785,-0.04592245817184448,-18.304895401000977,0.8942596912384033,18.245882034301758,0.6713767647743225,2.2882113456726074,-0.18710653483867645,0.0,0.0,0.0,0.0,0.0,0.0,0.0,-0.03806052402199731,0.37245154610561093,0.11507086074141074,0.6569523821657345,0.24052015712946465,0.09148802666901334,-0.23026925587555785,-0.608900984076422,-0.057358258010003306,-0.6664563774211447,-2.5947083092739707,-0.05578686144948006,2.5078956165843533,0.8763169522202676,-0.6090851748156966,-0.05753196718556838,-0.666603097082616,-2.5945565370258534,-0.05562143941554,2.507976027223799,0.8763108487046415,8.330308298152649e-05,6.879318824352301e-05,0.00041085315053190295,0.001271363760784276,-0.0001198783873251805,-0.00036879824748455367,-0.0019184849969460195,0.0,0.0,0.0,0.0,0.0,0.0,0.0,-0.00018419073927455898,-0.00017370917556507742,-0.000146719661471284,0.00015177224811724344,0.0001654220339400575,8.041063944563831e-05,-6.1035156261324275e-06,-8.330308298152649e-05,-6.879318824352301e-05,-0.00041085315053190295,-0.001271363760784276,0.0001198783873251805,0.00036879824748455367,0.0019184849969460195,0.04592245817184448,18.304895401000977,-0.8942596912384033,-18.245882034301758,-0.6713767647743225,-2.2882113456726074,0.18710653483867645,0
51,0.24999117851257324,-0.018151462078094482,-18.352502822875977,0.9418671131134033,18.269685745239258,0.6777854561805725,2.2818026542663574,-0.26858848333358765,0.0,0.0,0.0,0.0,0.0,0.0,0.0,-0.03745196727503872,0.3736867759787075,0.1164877645137306,0.6520123093181751,0.24089544252551573,0.09108876909673315,-0.2299021164136006,-0.6089030882655606,-0.05735491713829208,-0.6664604288595523,-2.594709979709826,-0.05578757352630297,2.5078963286611766,0.8763260057701003,-0.6090851748156966,-0.05753196718556838,-0.666603097082616,-2.5945565370258534,-0.05562143941554,2.507976027223799,0.8763108487046415,-0.0008498986637994813,0.0006623330673142055,-8.37191820453613e-05,3.964285385137201e-05,-0.0003188516265122932,-0.0003195484225886813,0.001032483390534254,0.0,0.0,0.0,0.0,0.0,0.0,0.0,-0.00018208655013596253,-0.0001770500472763059,-0.0001426682230637466,0.00015344268397265992,0.00016613411076297352,7.969856262235453e-05,-1.5157065458848429e-05,0.0008498986637994813,-0.0006623330673142055,8.37191820453613e-05,-3.964285385137201e-05,0.0003188516265122932,0.0003195484225886813,-0.001032483390534254,0.018151462078094482,18.352502822875977,-0.9418671131134033,-18.269685745239258,-0.6777854561805725,-2.2818026542663574,0.26858848333358765,0
52,0.2549917697906494,-0.018151462078094482,-18.352502822875977,0.9418671131134033,18.269685745239258,0.6777854561805725,2.2818026542663574,-0.26858848333358765,0.0,0.0,0.0,0.0,0.0,0.0,0.0,-0.03745196727503872,0.3736867759787075,0.1164877645137306,0.6520123093181751,0.24089544252551573,0.09108876909673315,-0.2299021164136006,-0.6089030882655606,-0.05735491713829208,-0.6664604288595523,-2.594709979709826,-0.05578757352630297,2.5078963286611766,0.8763260057701003,-0.6090851748156966,-0.05753196718556838,-0.666603097082616,-2.5945565370258534,-0.05562143941554,2.507976027223799,0.8763108487046415,-0.0008498986637994813,0.0006623330673142055,-8.37191820453613e-05,3.964285385137201e-05,-0.0003188516265122932,-0.0003195484225886813,0.001032483390534254,0.0,0.0,0.0,0.0,0.0,0.0,0.0,-0.00018208655013596253,-0.0001770500472763059,-0.0001426682230637466,0.00015344268397265992,0.00016613411076297352,7.969856262235453e-05,-1.5157065458848429e-05,0.0008498986637994813,-0.0006623330673142055,8.37191820453613e-05,-3.964285385137201e-05,0.0003188516265122932,0.0003195484225886813,-0.001032483390534254,0.018151462078094482,18.352502822875977,-0.9418671131134033,-18.269685745239258,-0.6777854561805725,-2.2818026542663574,0.26858848333358765,0
53,0.25999021530151367,-0.06972616910934448,-18.304895401000977,0.9418671131134033,18.321260452270508,0.6594749093055725,2.2689852714538574,-0.20724813640117645,0.0,0.0,0.0,0.0,0.0,0.0,0.0,-0.04089475525459971,0.37054637294560205,0.11614327525306874,0.6520930093638315,0.2418019122291577,0.09101364841364064,-0.23035044681432987,-0.6089013760130305,-0.057358258010002605,-0.6664622749737641,-2.5947135989875125,-0.05578553902109464,2.5078977528148223,0.8763191901759968,-0.6090851748156966,-0.05753196718556838,-0.666603097082616,-2.5945565370258534,-0.05562143941554,2.507976027223799,0.8763108487046415,0.000899037876120717,-0.0002520542492963781,-0.00045571622561313896,-0.0011599102835545079,0.0002004311579123439,0.0003100206390853787,-0.000884183540045888,0.0,0.0,0.0,0.0,0.0,0.0,0.0,-0.00018379880266605753,-0.00017370917556577825,-0.00014082210885191238,0.00015706196165909958,0.00016409960555464204,7.827440897667515e-05,-8.341471355310937e-06,-0.000899037876120717,0.0002520542492963781,0.00045571622561313896,0.0011599102835545079,-0.0002004311579123439,-0.0003100206390853787,0.000884183540045888,0.06972616910934448,18.304895401000977,-0.9418671131134033,-18.321260452270508,-0.6594749093055725,-2.2689852714538574,0.20724813640117645,0
54,0.26498961448669434,-0.06972616910934448,-18.304895401000977,0.9418671131134033,18.321260452270508,0.6594749093055725,2.2689852714538574,-0.20724813640117645,0.0,0.0,0.0,0.0,0.0,0.0,0.0,-0.04089475525459971,0.37054637294560205,0.11614327525306874,0.6520930093638315,0.2418019122291577,0.09101364841364064,-0.23035044681432987,-0.6089013760130305,-0.057358258010002605,-0.6664622749737641,-2.5947135989875125,-0.05578553902109464,2.5078977528148223,0.8763191901759968,-0.6090851748156966,-0.05753196718556838,-0.666603097082616,-2.5945565370258534,-0.05562143941554,2.507976027223799,0.8763108487046415,0.000899037876120717,-0.0002520542492963781,-0.00045571622561313896,-0.0011599102835545079,0.0002004311579123439,0.0003100206390853787,-0.000884183540045888,0.0,0.0,0.0,0.0,0.0,0.0,0.0,-0.00018379880266605753,-0.00017370917556577825,-0.00014082210885191238,0.00015706196165909958,0.00016409960555464204,7.827440897667515e-05,-8.341471355310937e-06,-0.000899037876120717,0.0002520542492963781,0.00045571622561313896,0.0011599102835545079,-0.0002004311579123439,-0.0003100206390853787,0.000884183540045888,0.06972616910934448,18.304895401000977,-0.9418671131134033,-18.321260452270508,-0.6594749093055725,-2.2689852714538574,0.20724813640117645,0
55,0.269986629486084,-0.04592245817184448,-18.328699111938477,0.8942596912384033,18.269685745239258,0.6658836007118225,2.2689852714538574,-0.21457235515117645,0.0,0.0,0.0,0.0,0.0,0.0,0.0,-0.042677360653484285,0.3642023397953174,0.11281371734111596,0.6508635725395132,0.2417585502897436,0.09155480716191275,-0.23094441317583453,-0.6089016512586767,-0.05735658757414734,-0.6664563047819286,-2.594709979709826,-0.0557862905890608,2.5078977528148223,0.8763200039780801,-0.6090851748156966,-0.05753196718556838,-0.666603097082616,-2.5945565370258534,-0.05562143941554,2.507976027223799,0.8763108487046415,0.00021349845629642787,0.0005787546092818006,0.0005855647397292786,0.0002879776142004635,-3.5926799789400026e-05,0.0002822325287494401,-0.00047430356232495876,0.0,0.0,0.0,0.0,0.0,0.0,0.0,-0.00018352355701989342,-0.00017537961142104208,-0.0001467923006873706,0.00015344268397265992,0.00016485117352080247,7.827440897667515e-05,-9.155273438588019e-06,-0.00021349845629642787,-0.0005787546092818006,-0.0005855647397292786,-0.0002879776142004635,3.5926799789400026e-05,-0.0002822325287494401,0.00047430356232495876,0.04592245817184448,18.328699111938477,-0.8942596912384033,-18.269685745239258,-0.6658836007118225,-2.2689852714538574,0.21457235515117645,0
56,0.2749907970428467,-0.04592245817184448,-18.328699111938477,0.8942596912384033,18.269685745239258,0.6658836007118225,2.2689852714538574,-0.21457235515117645,0.0,0.0,0.0,0.0,0.0,0.0,0.0,-0.042677360653484285,0.3642023397953174,0.11281371734111596,0.6508635725395132,0.2417585502897436,0.09155480716191275,-0.23094441317583453,-0.6089016512586767,-0.05735658757414734,-0.6664563047819286,-2.594709979709826,-0.0557862905890608,2.5078977528148223,0.8763200039780801,-0.6090851748156966,-0.05753196718556838,-0.666603097082616,-2.5945565370258534,-0.05562143941554,2.507976027223799,0.8763108487046415,0.00021349845629642787,0.0005787546092818006,0.0005855647397292786,0.0002879776142004635,-3.5926799789400026e-05,0.0002822325287494401,-0.00047430356232495876,0.0,0.0,0.0,0.0,0.0,0.0,0.0,-0.00018352355701989342,-0.00017537961142104208,-0.0001467923006873706,0.00015344268397265992,0.00016485117352080247,7.827440897667515e-05,-9.155273438588019e-06,-0.00021349845629642787,-0.0005787546092818006,-0.0005855647397292786,-0.0002879776142004635,3.5926799789400026e-05,-0.0002822325287494401,0.00047430356232495876,0.04592245817184448,18.328699111938477,-0.8942596912384033,-18.269685745239258,-0.6658836007118225,-2.2689852714538574,0.21457235515117645,0
57,0.2799947261810303,-0.018151462078094482,-18.304895401000977,0.9180634021759033,18.245882034301758,0.6594749093055725,2.2689852714538574,-0.23471395671367645,0.0,0.0,0.0,0.0,0.0,0.0,0.0,-0.04236462687374895,0.3661409414315798,0.11174316866122443,0.646952839218074,0.24205328502806078,0.09129368974963697,-0.2305549659889322,-0.6089049953272496,-0.057358258010002605,-0.6664601538483467,-2.5947083092739707,-0.055785539075489235,2.5078977528148223,0.8763222419338093,-0.6090851748156966,-0.05753196718556838,-0.666603097082616,-2.5945565370258534,-0.05562143941554,2.507976027223799,0.8763108487046415,-0.00047973622749522717,0.000527231760853831,0.00014200046959471235,0.00020146531606333724,-0.0029552174236252265,0.00015240562120473922,-0.00029773958027746826,0.0,0.0,0.0,0.0,0.0,0.0,0.0,-0.00018017948844695209,-0.00017370917556577825,-0.00014294323426933264,0.00015177224811724344,0.00016409965994923503,7.827440897667515e-05,-1.1393229167766528e-05,0.00047973622749522717,-0.000527231760853831,-0.00014200046959471235,-0.00020146531606333724,0.0029552174236252265,-0.00015240562120473922,0.00029773958027746826,0.018151462078094482,18.304895401000977,-0.9180634021759033,-18.245882034301758,-0.6594749093055725,-2.2689852714538574,0.23471395671367645,0
58,0.2849884033203125,-0.018151462078094482,-18.304895401000977,0.9180634021759033,18.245882034301758,0.6594749093055725,2.2689852714538574,-0.23471395671367645,0.0,0.0,0.0,0.0,0.0,0.0,0.0,-0.04236462687374895,0.3661409414315798,0.11174316866122443,0.646952839218074,0.24205328502806078,0.09129368974963697,-0.2305549659889322,-0.6089049953272496,-0.057358258010002605,-0.6664601538483467,-2.5947083092739707,-0.055785539075489235,2.5078977528148223,0.8763222419338093,-0.6090851748156966,-0.05753196718556838,-0.666603097082616,-2.5945565370258534,-0.05562143941554,2.507976027223799,0.8763108487046415,-0.00047973622749522717,0.000527231760853831,0.00014200046959471235,0.00020146531606333724,-0.0029552174236252265,0.00015240562120473922,-0.00029773958027746826,0.0,0.0,0.0,0.0,0.0,0.0,0.0,-0.00018017948844695209,-0.00017370917556577825,-0.00014294323426933264,0.00015177224811724344,0.00016409965994923503,7.827440897667515e-05,-1.1393229167766528e-05,0.00047973622749522717,-0.000527231760853831,-0.00014200046959471235,-0.00020146531606333724,0.0029552174236252265,-0.00015240562120473922,0.00029773958027746826,0.018151462078094482,18.304895401000977,-0.9180634021759033,-18.245882034301758,-0.6594749093055725,-2.2689852714538574,0.23471395671367645,0
59,0.2900063991546631,-0.06972616910934448,-18.277124404907227,0.9180634021759033,18.297456741333008,0.6713767647743225,2.2753939628601074,-0.26858848333358765,0.0,0.0,0.0,0.0,0.0,0.0,0.0,-0.03939658894692458,0.366759107146386,0.11413448206080426,0.6468884931093498,0.24063428018017324,0.09090675807122496,-0.23184264866952062,-0.60890140253628,-0.05736021561060956,-0.6664606042405482,-2.594711928551657,-0.05578650658108662,2.5078970407379995,0.8763260057701003,-0.6090851748156966,-0.05753196718556838,-0.666603097082616,-2.5945565370258534,-0.05562143941554,2.507976027223799,0.8763108487046415,0.0008360877704744643,-9.258415912906217e-05,0.00012025780931397272,-0.0009061808006252581,-0.00044633373639086597,-0.0003020160167452894,0.0015215533098377099,0.0,0.0,0.0,0.0,0.0,0.0,0.0,-0.00018377227941657193,-0.00017175157495882137,-0.00014249284206779844,0.0001553915258036831,0.00016506716554662293,7.898648579951484e-05,-1.5157065458848429e-05,-0.0008360877704744643,9.258415912906217e-05,-0.00012025780931397272,0.0009061808006252581,0.00044633373639086597,0.0003020160167452894,-0.0015215533098377099,0.06972616910934448,18.277124404907227,-0.9180634021759033,-18.297456741333008,-0.6713767647743225,-2.2753939628601074,0.26858848333358765,0
60,0.2950003147125244,-0.06972616910934448,-18.277124404907227,0.9180634021759033,18.297456741333008,0.6713767647743225,2.2753939628601074,-0.26858848333358765,0.0,0.0,0.0,0.0,0.0,0.0,0.0,-0.03939658894692458,0.366759107146386,0.11413448206080426,0.6468884931093498,0.24063428018017324,0.09090675807122496,-0.23184264866952062,-0.60890140253628,-0.05736021561060956,-0.6664606042405482,-2.594711928551657,-0.05578650658108662,2.5078970407379995,0.8763260057701003,-0.6090851748156966,-0.05753196718556838,-0.666603097082616,-2.5945565370258534,-0.05562143941554,2.507976027223799,0.8763108487046415,0.0008360877704744643,-9.258415912906217e-05,0.00012025780931397272,-0.0009061808006252581,-0.00044633373639086597,-0.0003020160167452894,0.0015215533098377099,0.0,0.0,0.0,0.0,0.0,0.0,0.0,-0.00018377227941657193,-0.00017175157495882137,-0.00014249284206779844,0.0001553915258036831,0.00016506716554662293,7.898648579951484e-05,-1.5157065458848429e-05,-0.0008360877704744643,9.258415912906217e-05,-0.00012025780931397272,0.0009061808006252581,0.00044633373639086597,0.0003020160167452894,-0.0015215533098377099,0.06972616910934448,18.277124404907227,-0.9180634021759033,-18.297456741333008,-0.6713767647743225,-2.2753939628601074,0.26858848333358765,0
61,0.29999542236328125,-0.018151462078094482,-18.253320693969727,0.8942596912384033,18.269685745239258,0.6658836007118225,2.2946200370788574,-0.25485557317733765,0.0,0.0,0.0,0.0,0.0,0.0,0.0,-0.039208531513976096,0.36649771344077225,0.11460037637868821,0.65374791779915,0.24038735325118693,0.09189031449517156,-0.23239294986537018,-0.6089030908855678,-0.05736400567022934,-0.6664589587347562,-2.594709979709826,-0.05578625109724981,2.5078949045075305,0.8763244798911941,-0.6090851748156966,-0.05753196718556838,-0.666603097082616,-2.5945565370258534,-0.05562143941554,2.507976027223799,0.8763108487046415,-0.00021327961621036458,-0.0006180985180572662,0.0009716049952559644,0.0008201220756181972,-8.565424824440907e-05,-0.0007078873003505155,0.0012165064812404876,0.0,0.0,0.0,0.0,0.0,0.0,0.0,-0.00018208393012875135,-0.00016796151533904347,-0.00014413834785975688,0.00015344268397265992,0.00016481168170980748,8.1122716268478e-05,-1.3631186552620633e-05,0.00021327961621036458,0.0006180985180572662,-0.0009716049952559644,-0.0008201220756181972,8.565424824440907e-05,0.0007078873003505155,-0.0012165064812404876,0.018151462078094482,18.253320693969727,-0.8942596912384033,-18.269685745239258,-0.6658836007118225,-2.2946200370788574,0.25485557317733765,0
62,0.3049914836883545,-0.018151462078094482,-18.253320693969727,0.8942596912384033,18.269685745239258,0.6658836007118225,2.2946200370788574,-0.25485557317733765,0.0,0.0,0.0,0.0,0.0,0.0,0.0,-0.039208531513976096,0.36649771344077225,0.11460037637868821,0.65374791779915,0.24038735325118693,0.09189031449517156,-0.23239294986537018,-0.6089030908855678,-0.05736400567022934,-0.6664589587347562,-2.594709979709826,-0.05578625109724981,2.5078949045075305,0.8763244798911941,-0.6090851748156966,-0.05753196718556838,-0.666603097082616,-2.5945565370258534,-0.05562143941554,2.507976027223799,0.8763108487046415,-0.00021327961621036458,-0.0006180985180572662,0.0009716049952559644,0.0008201220756181972,-8.565424824440907e-05,-0.0007078873003505155,0.0012165064812404876,0.0,0.0,0.0,0.0,0.0,0.0,0.0,-0.00018208393012875135,-0.00016796151533904347,-0.00014413834785975688,0.00015344268397265992,0.00016481168170980748,8.1122716268478e-05,-1.3631186552620633e-05,0.00021327961621036458,0.0006180985180572662,-0.0009716049952559644,-0.0008201220756181972,8.565424824440907e-05,0.0007078873003505155,-0.0012165064812404876,0.018151462078094482,18.253320693969727,-0.8942596912384033,-18.269685745239258,-0.6658836007118225,-2.2946200370788574,0.25485557317733765,0
63,0.30998992919921875,-0.04592245817184448,-18.328699111938477,0.9418671131134033,18.297456741333008,0.6713767647743225,2.2689852714538574,-0.18710653483867645,0.0,0.0,0.0,0.0,0.0,0.0,0.0,-0.03678962936556843,0.3721779018306121,0.11529284100840843,0.6477025908190363,0.24046849210045387,0.09125228871949159,-0.2316709127404717,-0.6089009046035789,-0.057356588559359434,-0.6664625340489263,-2.5947118520222365,-0.05578686144948005,2.5078977528148223,0.8763169522202676,-0.6090851748156966,-0.05753196718556838,-0.666603097082616,-2.5945565370258534,-0.05562143941554,2.507976027223799,0.8763108487046415,0.0007122945866713473,0.000457990954786615,-0.0005947643099132508,-0.0008086876559522285,-0.0003414436253065196,0.0001490906681023085,-0.0015271954069047712,0.0,0.0,0.0,0.0,0.0,0.0,0.0,-0.00018427021211764316,-0.00017537862620894962,-0.00014056303368970013,0.00015531499638310464,0.00016542203394005056,7.827440897667515e-05,-6.1035156261324275e-06,-0.0007122945866713473,-0.000457990954786615,0.0005947643099132508,0.0008086876559522285,0.0003414436253065196,-0.0001490906681023085,0.0015271954069047712,0.04592245817184448,18.328699111938477,-0.9418671131134033,-18.297456741333008,-0.6713767647743225,-2.2689852714538574,0.18710653483867645,0
64,0.31499290466308594,-0.04592245817184448,-18.328699111938477,0.9418671131134033,18.297456741333008,0.6713767647743225,2.2689852714538574,-0.18710653483867645,0.0,0.0,0.0,0.0,0.0,0.0,0.0,-0.03678962936556843,0.3721779018306121,0.11529284100840843,0.6477025908190363,0.24046849210045387,0.09125228871949159,-0.2316709127404717,-0.6089009046035789,-0.057356588559359434,-0.6664625340489263,-2.5947118520222365,-0.05578686144948005,2.5078977528148223,0.8763169522202676,-0.6090851748156966,-0.05753196718556838,-0.666603097082616,-2.5945565370258534,-0.05562143941554,2.507976027223799,0.8763108487046415,0.0007122945866713473,0.000457990954786615,-0.0005947643099132508,-0.0008086876559522285,-0.0003414436253065196,0.0001490906681023085,-0.0015271954069047712,0.0,0.0,0.0,0.0,0.0,0.0,0.0,-0.00018427021211764316,-0.00017537862620894962,-0.00014056303368970013,0.00015531499638310464,0.00016542203394005056,7.827440897667515e-05,-6.1035156261324275e-06,-0.0007122945866713473,-0.000457990954786615,0.0005947643099132508,0.0008086876559522285,0.0003414436253065196,-0.0001490906681023085,0.0015271954069047712,0.04592245817184448,18.328699111938477,-0.9418671131134033,-18.297456741333008,-0.6713767647743225,-2.2689852714538574,0.18710653483867645,0
65,0.319990873336792,-0.018151462078094482,-18.328699111938477,0.8942596912384033,18.297456741333008,0.6658836007118225,2.2689852714538574,-0.21457235515117645,0.0,0.0,0.0,0.0,0.0,0.0,0.0,-0.03608769339796873,0.37189178771173426,0.11455283847667204,0.6491121985074255,0.24088434997901145,0.09111019638887878,-0.2306256427609061,-0.6089035677186606,-0.057357533521941284,-0.666457078445298,-2.594711928551225,-0.05578625109791756,2.5078977528148223,0.8763200039780801,-0.6090851748156966,-0.05753196718556838,-0.666603097082616,-2.5945565370258534,-0.05562143941554,2.507976027223799,0.8763108487046415,-0.0005580460493747643,0.0004895879995028754,0.0010728764852696393,-0.0005173108558916243,-0.00017802028757368652,0.00047395735092619994,-0.0010332975785850695,0.0,0.0,0.0,0.0,0.0,0.0,0.0,-0.0001816070970359629,-0.00017443366362709933,-0.0001460186373180017,0.0001553915253715843,0.00016481168237755806,7.827440897667515e-05,-9.155273438588019e-06,0.0005580460493747643,-0.0004895879995028754,-0.0010728764852696393,0.0005173108558916243,0.00017802028757368652,-0.00047395735092619994,0.0010332975785850695,0.018151462078094482,18.328699111938477,-0.8942596912384033,-18.297456741333008,-0.6658836007118225,-2.2689852714538574,0.21457235515117645,0
66,0.32498979568481445,-0.018151462078094482,-18.328699111938477,0.8942596912384033,18.297456741333008,0.6658836007118225,2.2689852714538574,-0.21457235515117645,0.0,0.0,0.0,0.0,0.0,0.0,0.0,-0.03608769339796873,0.37189178771173426,0.11455283847667204,0.6491121985074255,0.24088434997901145,0.09111019638887878,-0.2306256427609061,-0.6089035677186606,-0.057357533521941284,-0.666457078445298,-2.594711928551225,-0.05578625109791756,2.5078977528148223,0.8763200039780801,-0.6090851748156966,-0.05753196718556838,-0.666603097082616,-2.5945565370258534,-0.05562143941554,2.507976027223799,0.8763108487046415,-0.0005580460493747643,0.0004895879995028754,0.0010728764852696393,-0.0005173108558916243,-0.00017802028757368652,0.00047395735092619994,-0.0010332975785850695,0.0,0.0,0.0,0.0,0.0,0.0,0.0,-0.0001816070970359629,-0.00017443366362709933,-0.0001460186373180017,0.0001553915253715843,0.00016481168237755806,7.827440897667515e-05,-9.155273438588019e-06,0.0005580460493747643,-0.0004895879995028754,-0.0010728764852696393,0.0005173108558916243,0.00017802028757368652,-0.00047395735092619994,0.0010332975785850695,0.018151462078094482,18.328699111938477,-0.8942596912384033,-18.297456741333008,-0.6658836007118225,-2.2689852714538574,0.21457235515117645,0
67,0.3299887180328369,-0.04592245817184448,-18.328699111938477,0.9180634021759033,18.269685745239258,0.6658836007118225,2.2753939628601074,-0.26217979192733765,0.0,0.0,0.0,0.0,0.0,0.0,0.0,-0.035815111322561204,0.3696133124331483,0.11686068160255611,0.6480209929151372,0.24087111386212903,0.09094343334948331,-0.23113208749923428,-0.6089032878109153,-0.05735658761553159,-0.6664587556457207,-2.594709979709826,-0.05578625109791756,2.5078970407379995,0.8763252936932775,-0.6090851748156966,-0.05753196718556838,-0.666603097082616,-2.5945565370258534,-0.05562143941554,2.507976027223799,0.8763108487046415,0.00019691002247546735,0.00019210336022199102,0.0003762799541773475,-9.764007269654982e-05,-2.401625467223793e-05,-0.00014539578325716674,0.00043642990887251843,0.0,0.0,0.0,0.0,0.0,0.0,0.0,-0.00018188700478127817,-0.0001753795700367919,-0.0001443414368953455,0.00015344268397265992,0.00016481168237755806,7.898648579951484e-05,-1.4444988636008738e-05,-0.00019691002247546735,-0.00019210336022199102,-0.0003762799541773475,9.764007269654982e-05,2.401625467223793e-05,0.00014539578325716674,-0.00043642990887251843,0.04592245817184448,18.328699111938477,-0.9180634021759033,-18.269685745239258,-0.6658836007118225,-2.2753939628601074,0.26217979192733765,0
68,0.3349883556365967,-0.04592245817184448,-18.328699111938477,0.9180634021759033,18.269685745239258,0.6658836007118225,2.2753939628601074,-0.26217979192733765,0.0,0.0,0.0,0.0,0.0,0.0,0.0,-0.035815111322561204,0.3696133124331483,0.11686068160255611,0.6480209929151372,0.24087111386212903,0.09094343334948331,-0.23113208749923428,-0.6089032878109153,-0.05735658761553159,-0.6664587556457207,-2.594709979709826,-0.05578625109791756,2.5078970407379995,0.8763252936932775,-0.6090851748156966,-0.05753196718556838,-0.666603097082616,-2.5945565370258534,-0.05562143941554,2.507976027223799,0.8763108487046415,0.00019691002247546735,0.00019210336022199102,0.0003762799541773475,-9.764007269654982e-05,-2.401625467223793e-05,-0.00014539578325716674,0.00043642990887251843,0.0,0.0,0.0,0.0,0.0,0.0,0.0,-0.00018188700478127817,-0.0001753795700367919,-0.0001443414368953455,0.00015344268397265992,0.00016481168237755806,7.898648579951484e-05,-1.4444988636008738e-05,-0.00019691002247546735,-0.00019210336022199102,-0.0003762799541773475,9.764007269654982e-05,2.401625467223793e-05,0.00014539578325716674,-0.00043642990887251843,0.04592245817184448,18.328699111938477,-0.9180634021759033,-18.269685745239258,-0.6658836007118225,-2.2753939628601074,0.26217979192733765,0
69,0.33999037742614746,-0.018151462078094482,-18.328699111938477,0.9696381092071533,18.297456741333008,0.6594749093055725,2.2625765800476074,-0.24844686686992645,0.0,0.0,0.0,0.0,0.0,0.0,0.0,-0.033331179631969125,0.36634479090101446,0.12047986108006506,0.6502428736579348,0.24075801920178486,0.09161357576188173,-0.23219354685478028,-0.6089028584722713,-0.05735682406109467,-0.6664637471300585,-2.594711928551657,-0.055785894441383856,2.507898464891645,0.8763237678127155,-0.6090851748156966,-0.05753196718556838,-0.666603097082616,-2.5945565370258534,-0.05562143941554,2.507976027223799,0.8763108487046415,-0.00037735217289036616,0.00045760744714817803,-0.000952086017823638,-0.0007150247499603043,0.000106196003457885,0.0006283568056793567,0.0012212282567151853,0.0,0.0,0.0,0.0,0.0,0.0,0.0,-0.00018231634342524838,-0.00017514312447371172,-0.00013934995255748817,0.0001553915258036831,0.00016445502584385568,7.756233215383546e-05,-1.2919108073994323e-05,0.00037735217289036616,-0.00045760744714817803,0.000952086017823638,0.0007150247499603043,-0.000106196003457885,-0.0006283568056793567,-0.0012212282567151853,0.018151462078094482,18.328699111938477,-0.9696381092071533,-18.297456741333008,-0.6594749093055725,-2.2625765800476074,0.24844686686992645,0
70,0.34499382972717285,-0.018151462078094482,-18.328699111938477,0.9696381092071533,18.297456741333008,0.6594749093055725,2.2625765800476074,-0.24844686686992645,0.0,0.0,0.0,0.0,0.0,0.0,0.0,-0.033331179631969125,0.36634479090101446,0.12047986108006506,0.6502428736579348,0.24075801920178486,0.09161357576188173,-0.23219354685478028,-0.6089028584722713,-0.05735682406109467,-0.6664637471300585,-2.594711928551657,-0.055785894441383856,2.507898464891645,0.8763237678127155,-0.6090851748156966,-0.05753196718556838,-0.666603097082616,-2.5945565370258534,-0.05562143941554,2.507976027223799,0.8763108487046415,-0.00037735217289036616,0.00045760744714817803,-0.000952086017823638,-0.0007150247499603043,0.000106196003457885,0.0006283568056793567,0.0012212282567151853,0.0,0.0,0.0,0.0,0.0,0.0,0.0,-0.00018231634342524838,-0.00017514312447371172,-0.00013934995255748817,0.0001553915258036831,0.00016445502584385568,7.756233215383546e-05,-1.2919108073994323e-05,0.00037735217289036616,-0.00045760744714817803,0.000952086017823638,0.0007150247499603043,-0.000106196003457885,-0.0006283568056793567,-0.0012212282567151853,0.018151462078094482,18.328699111938477,-0.9696381092071533,-18.297456741333008,-0.6594749093055725,-2.2625765800476074,0.24844686686992645,0
71,0.34999513626098633,-0.018151462078094482,-18.328699111938477,0.9696381092071533,18.297456741333008,0.6594749093055725,2.2625765800476074,-0.24844686686992645,0.0,0.0,0.0,0.0,0.0,0.0,0.0,-0.033331179631969125,0.36634479090101446,0.12047986108006506,0.6502428736579348,0.24075801920178486,0.09161357576188173,-0.23219354685478028,-0.6089028584722713,-0.05735682406109467,-0.6664637471300585,-2.594711928551657,-0.055785894441383856,2.507898464891645,0.8763237678127155,-0.6090851748156966,-0.05753196718556838,-0.666603097082616,-2.5945565370258534,-0.05562143941554,2.507976027223799,0.8763108487046415,-0.00037735217289036616,0.00045760744714817803,-0.000952086017823638,-0.0007150247499603043,0.000106196003457885,0.0006283568056793567,0.0012212282567151853,0.0,0.0,0.0,0.0,0.0,0.0,0.0,-0.00018231634342524838,-0.00017514312447371172,-0.00013934995255748817,0.0001553915258036831,0.00016445502584385568,7.756233215383546e-05,-1.2919108073994323e-05,0.00037735217289036616,-0.00045760744714817803,0.000952086017823638,0.0007150247499603043,-0.000106196003457885,-0.0006283568056793567,-0.0012212282567151853,0.018151462078094482,18.328699111938477,-0.9696381092071533,-18.297456741333008,-0.6594749093055725,-2.2625765800476074,0.24844686686992645,0
72,0.3549964427947998,-0.018151462078094482,-18.328699111938477,0.9696381092071533,18.297456741333008,0.6594749093055725,2.2625765800476074,-0.24844686686992645,0.0,0.0,0.0,0.0,0.0,0.0,0.0,-0.033331179631969125,0.36634479090101446,0.12047986108006506,0.6502428736579348,0.24075801920178486,0.09161357576188173,-0.23219354685478028,-0.6089028584722713,-0.05735682406109467,-0.6664637471300585,-2.594711928551657,-0.055785894441383856,2.507898464891645,0.8763237678127155,-0.6090851748156966,-0.05753196718556838,-0.666603097082616,-2.5945565370258534,-0.05562143941554,2.507976027223799,0.8763108487046415,-0.00037735217289036616,0.00045760744714817803,-0.000952086017823638,-0.0007150247499603043,0.000106196003457885,0.0006283568056793567,0.0012212282567151853,0.0,0.0,0.0,0.0,0.0,0.0,0.0,-0.00018231634342524838,-0.00017514312447371172,-0.00013934995255748817,0.0001553915258036831,0.00016445502584385568,7.756233215383546e-05,-1.2919108073994323e-05,0.00037735217289036616,-0.00045760744714817803,0.000952086017823638,0.0007150247499603043,-0.000106196003457885,-0.0006283568056793567,-0.0012212282567151853,0.018151462078094482,18.328699111938477,-0.9696381092071533,-18.297456741333008,-0.6594749093055725,-2.2625765800476074,0.24844686686992645,0
73,0.35994625091552734,0.005652248859405518,-18.328699111938477,0.9180634021759033,18.269685745239258,0.6658836007118225,2.2753939628601074,-0.22830526530742645,0.0,0.0,0.0,0.0,0.0,0.0,0.0,-0.0378485784938001,0.3631719589216226,0.11539475101942646,0.6535611768231218,0.24118944068736065,0.09306754522566958,-0.23102437902728068,-0.6089046082948838,-0.057356587575482315,-0.6664608635745753,-2.5947099542000194,-0.05578625109992392,2.5078970407379995,0.8763215298569863,-0.6090851748156966,-0.05753196718556838,-0.666603097082616,-2.5945565370258534,-0.05562143941554,2.507976027223799,0.8763108487046415,-0.0008298758126030309,0.001067008752738301,9.180134664137492e-05,-0.0005479572490877451,-0.0006870308082783708,-0.004067549573654664,-0.00010725620834857532,0.0,0.0,0.0,0.0,0.0,0.0,0.0,-0.0001805665208127749,-0.00017537961008606828,-0.0001422335080406567,0.00015341717416594847,0.0001648116843839184,7.898648579951484e-05,-1.0681152344815814e-05,0.0008298758126030309,-0.001067008752738301,-9.180134664137492e-05,0.0005479572490877451,0.0006870308082783708,0.004067549573654664,0.00010725620834857532,-0.005652248859405518,18.328699111938477,-0.9180634021759033,-18.269685745239258,-0.6658836007118225,-2.2753939628601074,0.22830526530742645,0
74,0.3649895191192627,0.005652248859405518,-18.328699111938477,0.9180634021759033,18.269685745239258,0.6658836007118225,2.2753939628601074,-0.22830526530742645,0.0,0.0,0.0,0.0,0.0,0.0,0.0,-0.0378485784938001,0.3631719589216226,0.11539475101942646,0.6535611768231218,0.24118944068736065,0.09306754522566958,-0.23102437902728068,-0.6089046082948838,-0.057356587575482315,-0.6664608635745753,-2.5947099542000194,-0.05578625109992392,2.5078970407379995,0.8763215298569863,-0.6090851748156966,-0.05753196718556838,-0.666603097082616,-2.5945565370258534,-0.05562143941554,2.507976027223799,0.8763108487046415,-0.0008298758126030309,0.001067008752738301,9.180134664137492e-05,-0.0005479572490877451,-0.0006870308082783708,-0.004067549573654664,-0.00010725620834857532,0.0,0.0,0.0,0.0,0.0,0.0,0.0,-0.0001805665208127749,-0.00017537961008606828,-0.0001422335080406567,0.00015341717416594847,0.0001648116843839184,7.898648579951484e-05,-1.0681152344815814e-05,0.0008298758126030309,-0.001067008752738301,-9.180134664137492e-05,0.0005479572490877451,0.0006870308082783708,0.004067549573654664,0.00010725620834857532,-0.005652248859405518,18.328699111938477,-0.9180634021759033,-18.269685745239258,-0.6658836007118225,-2.2753939628601074,0.22830526530742645,0
75,0.36998796463012695,-0.018151462078094482,-18.277124404907227,0.9418671131134033,18.269685745239258,0.6658836007118225,2.2753939628601074,-0.20083944499492645,0.0,0.0,0.0,0.0,0.0,0.0,0.0,-0.036798797479553405,0.3621884933760565,0.11386091520428054,0.6529405249323175,0.2403915985820052,0.09274521061284863,-0.2311694487382091,-0.6089052337057516,-0.05736020685183375,-0.6664622103829674,-2.594709979709682,-0.05578625109791757,2.5078970407379995,0.8763184780991738,-0.6090851748156966,-0.05753196718556838,-0.666603097082616,-2.5945565370258534,-0.05562143941554,2.507976027223799,0.8763108487046415,-0.0005653578987831299,-0.00013684150058795866,-0.0003013950047115912,0.00015232850262508646,-5.708676583772966e-05,-6.451432244018207e-05,-0.00158753102496061,0.0,0.0,0.0,0.0,0.0,0.0,0.0,-0.00017994110994501433,-0.00017176033373463018,-0.00014088669964862355,0.00015344268382877502,0.00016481168237757193,7.898648579951484e-05,-7.629394532360223e-06,0.0005653578987831299,0.00013684150058795866,0.0003013950047115912,-0.00015232850262508646,5.708676583772966e-05,6.451432244018207e-05,0.00158753102496061,0.018151462078094482,18.277124404907227,-0.9418671131134033,-18.269685745239258,-0.6658836007118225,-2.2753939628601074,0.20083944499492645,0
76,0.37508654594421387,-0.018151462078094482,-18.277124404907227,0.9418671131134033,18.269685745239258,0.6658836007118225,2.2753939628601074,-0.20083944499492645,0.0,0.0,0.0,0.0,0.0,0.0,0.0,-0.036798797479553405,0.3621884933760565,0.11386091520428054,0.6529405249323175,0.2403915985820052,0.09274521061284863,-0.2311694487382091,-0.6089052337057516,-0.05736020685183375,-0.6664622103829674,-2.594709979709682,-0.05578625109791757,2.5078970407379995,0.8763184780991738,-0.6090851748156966,-0.05753196718556838,-0.666603097082616,-2.5945565370258534,-0.05562143941554,2.507976027223799,0.8763108487046415,-0.0005653578987831299,-0.00013684150058795866,-0.0003013950047115912,0.00015232850262508646,-5.708676583772966e-05,-6.451432244018207e-05,-0.00158753102496061,0.0,0.0,0.0,0.0,0.0,0.0,0.0,-0.00017994110994501433,-0.00017176033373463018,-0.00014088669964862355,0.00015344268382877502,0.00016481168237757193,7.898648579951484e-05,-7.629394532360223e-06,0.0005653578987831299,0.00013684150058795866,0.0003013950047115912,-0.00015232850262508646,5.708676583772966e-05,6.451432244018207e-05,0.00158753102496061,0.018151462078094482,18.277124404907227,-0.9418671131134033,-18.269685745239258,-0.6658836007118225,-2.2753939628601074,0.20083944499492645,0
77,0.3799872398376465,0.005652248859405518,-18.253320693969727,0.9180634021759033,18.269685745239258,0.6658836007118225,2.2753939628601074,-0.23471395671367645,0.0,0.0,0.0,0.0,0.0,0.0,0.0,-0.04153583160437137,0.3656982882083998,0.10835999620001548,0.6472727826329984,0.24074060070684197,0.09192957599217388,-0.23092919057013084,-0.6089045477679244,-0.05736187728768901,-0.6664587238419233,-2.5947099787650183,-0.05578625109791756,2.5078970407379995,0.8763222419338093,-0.6090851748156966,-0.05753196718556838,-0.666603097082616,-2.5945565370258534,-0.05562143941554,2.507976027223799,0.8763108487046415,-0.0009953679063321626,-0.0008368989663716333,-9.714609622531872e-05,-2.7573355100942055e-07,6.476852308039764e-05,-0.00010413755751210138,-8.411479722650325e-05,0.0,0.0,0.0,0.0,0.0,0.0,0.0,-0.00018062704777221938,-0.00017008989787937329,-0.00014437324069271895,0.00015344173916487236,0.00016481168237755806,7.898648579951484e-05,-1.1393229167766528e-05,0.0009953679063321626,0.0008368989663716333,9.714609622531872e-05,2.7573355100942055e-07,-6.476852308039764e-05,0.00010413755751210138,8.411479722650325e-05,-0.005652248859405518,18.253320693969727,-0.9180634021759033,-18.269685745239258,-0.6658836007118225,-2.2753939628601074,0.23471395671367645,0
78,0.38499879837036133,0.005652248859405518,-18.253320693969727,0.9180634021759033,18.269685745239258,0.6658836007118225,2.2753939628601074,-0.23471395671367645,0.0,0.0,0.0,0.0,0.0,0.0,0.0,-0.04153583160437137,0.3656982882083998,0.10835999620001548,0.6472727826329984,0.24074060070684197,0.09192957599217388,-0.23092919057013084,-0.6089045477679244,-0.05736187728768901,-0.6664587238419233,-2.5947099787650183,-0.05578625109791756,2.5078970407379995,0.8763222419338093,-0.6090851748156966,-0.05753196718556838,-0.666603097082616,-2.5945565370258534,-0.05562143941554,2.507976027223799,0.8763108487046415,-0.0009953679063321626,-0.0008368989663716333,-9.714609622531872e-05,-2.7573355100942055e-07,6.476852308039764e-05,-0.00010413755751210138,-8.411479722650325e-05,0.0,0.0,0.0,0.0,0.0,0.0,0.0,-0.00018062704777221938,-0.00017008989787937329,-0.00014437324069271895,0.00015344173916487236,0.00016481168237755806,7.898648579951484e-05,-1.1393229167766528e-05,0.0009953679063321626,0.0008368989663716333,9.714609622531872e-05,2.7573355100942055e-07,-6.476852308039764e-05,0.00010413755751210138,8.411479722650325e-05,-0.005652248859405518,18.253320693969727,-0.9180634021759033,-18.269685745239258,-0.6658836007118225,-2.2753939628601074,0.23471395671367645,0
79,0.390002965927124,-0.04592245817184448,-18.304895401000977,0.9180634021759033,18.297456741333008,0.6658836007118225,2.2818026542663574,-0.26217979192733765,0.0,0.0,0.0,0.0,0.0,0.0,0.0,-0.03948019952040621,0.3718707337673315,0.10797013497568111,0.6478338709510585,0.2410637311616136,0.09145805573522563,-0.23018504096847814,-0.6089011424031937,-0.057358258010002605,-0.6664607602071143,-2.594711928551652,-0.05578625109791756,2.5078963286611766,0.8763252936932775,-0.6090851748156966,-0.05753196718556838,-0.666603097082616,-2.5945565370258534,-0.05562143941554,2.507976027223799,0.8763108487046415,-0.0002576310054948261,0.0004654191186562265,-0.00014239826352476802,-0.00010283990882070086,6.374050268288295e-05,-0.00029033247677105555,0.0017394151314778872,0.0,0.0,0.0,0.0,0.0,0.0,0.0,-0.00018403241250286584,-0.00017370917556577825,-0.00014233687550169183,0.00015539152579835402,0.00016481168237755806,7.969856262235453e-05,-1.4444988636008738e-05,0.0002576310054948261,-0.0004654191186562265,0.00014239826352476802,0.00010283990882070086,-6.374050268288295e-05,0.00029033247677105555,-0.0017394151314778872,0.04592245817184448,18.304895401000977,-0.9180634021759033,-18.297456741333008,-0.6658836007118225,-2.2818026542663574,0.26217979192733765,0
