rezayati/contactInterpretation/dataset/franka_main/labeled_data/link6/b11_4.csv
index,time,tau_J0,tau_J1,tau_J2,tau_J3,tau_J4,tau_J5,tau_J6,tau_J_d0,tau_J_d1,tau_J_d2,tau_J_d3,tau_J_d4,tau_J_d5,tau_J_d6,tau_ext0,tau_ext1,tau_ext2,tau_ext3,tau_ext4,tau_ext5,tau_ext6,q0,q1,q2,q3,q4,q5,q6,q_d0,q_d1,q_d2,q_d3,q_d4,q_d5,q_d6,dq0,dq1,dq2,dq3,dq4,dq5,dq6,dq_d0,dq_d1,dq_d2,dq_d3,dq_d4,dq_d5,dq_d6,e0,e1,e2,e3,e4,e5,e6,de0,de1,de2,de3,de4,de5,de6,etau_J0,etau_J1,etau_J2,etau_J3,etau_J4,etau_J5,etau_J6,label
1,0.0,-0.4029781222343445,-19.868005752563477,-0.3990752398967743,20.205720901489258,0.7903953194618225,2.4630770683288574,-0.27591270208358765,0.0,0.0,0.0,0.0,0.0,0.0,0.0,-0.40535429097627257,-0.118900502716711,-0.21187048055937288,0.42404228176530145,0.2026613018016543,0.09897545785777453,-0.27384261644299707,1.2136277226021415,-0.22015092919230617,-0.007379843908455896,-2.6041999477502773,-0.10901364564882612,2.468131809923384,0.8264784128294287,1.2134413937687574,-0.2202432315892585,-0.0075118285948192216,-2.6038483821997875,-0.10888392708698907,2.4681821257803174,0.826474908251239,0.00012151625101725664,0.0008067285651430621,0.0002234062380453465,-0.0002710485025185775,-0.0001936656302212436,4.393895144133428e-05,0.00012288168408706505,0.0,0.0,0.0,0.0,0.0,0.0,0.0,-0.00018632883338409734,-9.230239695232068e-05,-0.00013198468636332547,0.000351565550489763,0.00012971856183705,5.031585693338059e-05,-3.5045781896503314e-06,-0.00012151625101725664,-0.0008067285651430621,-0.0002234062380453465,0.0002710485025185775,0.0001936656302212436,-4.393895144133428e-05,-0.00012288168408706505,0.4029781222343445,19.868005752563477,0.3990752398967743,-20.205720901489258,-0.7903953194618225,-2.4630770683288574,0.27591270208358765,0
2,0.003759145736694336,-0.4029781222343445,-19.868005752563477,-0.3990752398967743,20.205720901489258,0.7903953194618225,2.4630770683288574,-0.27591270208358765,0.0,0.0,0.0,0.0,0.0,0.0,0.0,-0.40535429097627257,-0.118900502716711,-0.21187048055937288,0.42404228176530145,0.2026613018016543,0.09897545785777453,-0.27384261644299707,1.2136277226021415,-0.22015092919230617,-0.007379843908455896,-2.6041999477502773,-0.10901364564882612,2.468131809923384,0.8264784128294287,1.2134413937687574,-0.2202432315892585,-0.0075118285948192216,-2.6038483821997875,-0.10888392708698907,2.4681821257803174,0.826474908251239,0.00012151625101725664,0.0008067285651430621,0.0002234062380453465,-0.0002710485025185775,-0.0001936656302212436,4.393895144133428e-05,0.00012288168408706505,0.0,0.0,0.0,0.0,0.0,0.0,0.0,-0.00018632883338409734,-9.230239695232068e-05,-0.00013198468636332547,0.000351565550489763,0.00012971856183705,5.031585693338059e-05,-3.5045781896503314e-06,-0.00012151625101725664,-0.0008067285651430621,-0.0002234062380453465,0.0002710485025185775,0.0001936656302212436,-4.393895144133428e-05,-0.00012288168408706505,0.4029781222343445,19.868005752563477,0.3990752398967743,-20.205720901489258,-0.7903953194618225,-2.4630770683288574,0.27591270208358765,0
3,0.008758783340454102,-0.4267818331718445,-19.868005752563477,-0.3713042438030243,20.205720901489258,0.7849021553993225,2.4694857597351074,-0.24112264811992645,0.0,0.0,0.0,0.0,0.0,0.0,0.0,-0.40603450755841497,-0.11472366733042894,-0.21336013443327834,0.42514055168953935,0.2027437658883077,0.09838819717231433,-0.2731695700178831,1.2136293930379969,-0.22015086963103486,-0.00738179275073241,-2.604199956358379,-0.10901303957392973,2.468131097846561,0.8264780929200066,1.2134413937687574,-0.2202432315892585,-0.0075118285948192216,-2.6038483821997875,-0.10888392708698907,2.4681821257803174,0.826474908251239,0.0008274004889250838,0.0006047486327654492,-0.0005535553884778101,-0.0003428951263569252,0.00011649160463074646,7.431031904426281e-05,-0.0010829509238895058,0.0,0.0,0.0,0.0,0.0,0.0,0.0,-0.00018799926923951382,-9.236195822362459e-05,-0.00013003584408681143,0.00035157415859154995,0.00012911248694065514,5.102793375622028e-05,-3.184668767586274e-06,-0.0008274004889250838,-0.0006047486327654492,0.0005535553884778101,0.0003428951263569252,-0.00011649160463074646,-7.431031904426281e-05,0.0010829509238895058,0.4267818331718445,19.868005752563477,0.3713042438030243,-20.205720901489258,-0.7849021553993225,-2.4694857597351074,0.24112264811992645,0
4,0.013760566711425781,-0.4267818331718445,-19.868005752563477,-0.3713042438030243,20.205720901489258,0.7849021553993225,2.4694857597351074,-0.24112264811992645,0.0,0.0,0.0,0.0,0.0,0.0,0.0,-0.40603450755841497,-0.11472366733042894,-0.21336013443327834,0.42514055168953935,0.2027437658883077,0.09838819717231433,-0.2731695700178831,1.2136293930379969,-0.22015086963103486,-0.00738179275073241,-2.604199956358379,-0.10901303957392973,2.468131097846561,0.8264780929200066,1.2134413937687574,-0.2202432315892585,-0.0075118285948192216,-2.6038483821997875,-0.10888392708698907,2.4681821257803174,0.826474908251239,0.0008274004889250838,0.0006047486327654492,-0.0005535553884778101,-0.0003428951263569252,0.00011649160463074646,7.431031904426281e-05,-0.0010829509238895058,0.0,0.0,0.0,0.0,0.0,0.0,0.0,-0.00018799926923951382,-9.236195822362459e-05,-0.00013003584408681143,0.00035157415859154995,0.00012911248694065514,5.102793375622028e-05,-3.184668767586274e-06,-0.0008274004889250838,-0.0006047486327654492,0.0005535553884778101,0.0003428951263569252,-0.00011649160463074646,-7.431031904426281e-05,0.0010829509238895058,0.4267818331718445,19.868005752563477,0.3713042438030243,-20.205720901489258,-0.7849021553993225,-2.4694857597351074,0.24112264811992645,0
5,0.01875925064086914,-0.4267818331718445,-19.868005752563477,-0.3713042438030243,20.205720901489258,0.7849021553993225,2.4694857597351074,-0.24112264811992645,0.0,0.0,0.0,0.0,0.0,0.0,0.0,-0.40603450755841497,-0.11472366733042894,-0.21336013443327834,0.42514055168953935,0.2027437658883077,0.09838819717231433,-0.2731695700178831,1.2136293930379969,-0.22015086963103486,-0.00738179275073241,-2.604199956358379,-0.10901303957392973,2.468131097846561,0.8264780929200066,1.2134413937687574,-0.2202432315892585,-0.0075118285948192216,-2.6038483821997875,-0.10888392708698907,2.4681821257803174,0.826474908251239,0.0008274004889250838,0.0006047486327654492,-0.0005535553884778101,-0.0003428951263569252,0.00011649160463074646,7.431031904426281e-05,-0.0010829509238895058,0.0,0.0,0.0,0.0,0.0,0.0,0.0,-0.00018799926923951382,-9.236195822362459e-05,-0.00013003584408681143,0.00035157415859154995,0.00012911248694065514,5.102793375622028e-05,-3.184668767586274e-06,-0.0008274004889250838,-0.0006047486327654492,0.0005535553884778101,0.0003428951263569252,-0.00011649160463074646,-7.431031904426281e-05,0.0010829509238895058,0.4267818331718445,19.868005752563477,0.3713042438030243,-20.205720901489258,-0.7849021553993225,-2.4694857597351074,0.24112264811992645,0
6,0.023758888244628906,-0.4267818331718445,-19.868005752563477,-0.3713042438030243,20.205720901489258,0.7849021553993225,2.4694857597351074,-0.24112264811992645,0.0,0.0,0.0,0.0,0.0,0.0,0.0,-0.40603450755841497,-0.11472366733042894,-0.21336013443327834,0.42514055168953935,0.2027437658883077,0.09838819717231433,-0.2731695700178831,1.2136293930379969,-0.22015086963103486,-0.00738179275073241,-2.604199956358379,-0.10901303957392973,2.468131097846561,0.8264780929200066,1.2134413937687574,-0.2202432315892585,-0.0075118285948192216,-2.6038483821997875,-0.10888392708698907,2.4681821257803174,0.826474908251239,0.0008274004889250838,0.0006047486327654492,-0.0005535553884778101,-0.0003428951263569252,0.00011649160463074646,7.431031904426281e-05,-0.0010829509238895058,0.0,0.0,0.0,0.0,0.0,0.0,0.0,-0.00018799926923951382,-9.236195822362459e-05,-0.00013003584408681143,0.00035157415859154995,0.00012911248694065514,5.102793375622028e-05,-3.184668767586274e-06,-0.0008274004889250838,-0.0006047486327654492,0.0005535553884778101,0.0003428951263569252,-0.00011649160463074646,-7.431031904426281e-05,0.0010829509238895058,0.4267818331718445,19.868005752563477,0.3713042438030243,-20.205720901489258,-0.7849021553993225,-2.4694857597351074,0.24112264811992645,0
7,0.02876114845275879,-0.4267818331718445,-19.868005752563477,-0.3713042438030243,20.205720901489258,0.7849021553993225,2.4694857597351074,-0.24112264811992645,0.0,0.0,0.0,0.0,0.0,0.0,0.0,-0.40603450755841497,-0.11472366733042894,-0.21336013443327834,0.42514055168953935,0.2027437658883077,0.09838819717231433,-0.2731695700178831,1.2136293930379969,-0.22015086963103486,-0.00738179275073241,-2.604199956358379,-0.10901303957392973,2.468131097846561,0.8264780929200066,1.2134413937687574,-0.2202432315892585,-0.0075118285948192216,-2.6038483821997875,-0.10888392708698907,2.4681821257803174,0.826474908251239,0.0008274004889250838,0.0006047486327654492,-0.0005535553884778101,-0.0003428951263569252,0.00011649160463074646,7.431031904426281e-05,-0.0010829509238895058,0.0,0.0,0.0,0.0,0.0,0.0,0.0,-0.00018799926923951382,-9.236195822362459e-05,-0.00013003584408681143,0.00035157415859154995,0.00012911248694065514,5.102793375622028e-05,-3.184668767586274e-06,-0.0008274004889250838,-0.0006047486327654492,0.0005535553884778101,0.0003428951263569252,-0.00011649160463074646,-7.431031904426281e-05,0.0010829509238895058,0.4267818331718445,19.868005752563477,0.3713042438030243,-20.205720901489258,-0.7849021553993225,-2.4694857597351074,0.24112264811992645,0
8,0.03377509117126465,-0.4267818331718445,-19.844202041625977,-0.3990752398967743,20.205720901489258,0.7784934639930725,2.4694857597351074,-0.26217979192733765,0.0,0.0,0.0,0.0,0.0,0.0,0.0,-0.40133658760997964,-0.11854183568624871,-0.2062138244544955,0.42613432724565903,0.20264473053687146,0.09860622458262894,-0.27243636978971797,1.2136293930379969,-0.22015022063266088,-0.007379835142460253,-2.604199955413717,-0.10901351098229074,2.468131097846561,0.8264804195747649,1.2134413937687574,-0.2202432315892585,-0.0075118285948192216,-2.6038483821997875,-0.10888392708698907,2.4681821257803174,0.826474908251239,0.0007190750797461551,-0.0008042758067762294,9.677481625493129e-05,-0.000428223978617135,0.0002719377021543651,-4.838419675711508e-06,-0.0005724927884261736,0.0,0.0,0.0,0.0,0.0,0.0,0.0,-0.00018799926923951382,-9.301095659761116e-05,-0.00013199345235896838,0.00035157321392942364,0.0001295838953016687,5.102793375622028e-05,-5.511323525886347e-06,-0.0007190750797461551,0.0008042758067762294,-9.677481625493129e-05,0.000428223978617135,-0.0002719377021543651,4.838419675711508e-06,0.0005724927884261736,0.4267818331718445,19.844202041625977,0.3990752398967743,-20.205720901489258,-0.7784934639930725,-2.4694857597351074,0.26217979192733765,0
9,0.03873014450073242,-0.4267818331718445,-19.844202041625977,-0.3990752398967743,20.205720901489258,0.7784934639930725,2.4694857597351074,-0.26217979192733765,0.0,0.0,0.0,0.0,0.0,0.0,0.0,-0.40133658760997964,-0.11854183568624871,-0.2062138244544955,0.42613432724565903,0.20264473053687146,0.09860622458262894,-0.27243636978971797,1.2136293930379969,-0.22015022063266088,-0.007379835142460253,-2.604199955413717,-0.10901351098229074,2.468131097846561,0.8264804195747649,1.2134413937687574,-0.2202432315892585,-0.0075118285948192216,-2.6038483821997875,-0.10888392708698907,2.4681821257803174,0.826474908251239,0.0007190750797461551,-0.0008042758067762294,9.677481625493129e-05,-0.000428223978617135,0.0002719377021543651,-4.838419675711508e-06,-0.0005724927884261736,0.0,0.0,0.0,0.0,0.0,0.0,0.0,-0.00018799926923951382,-9.301095659761116e-05,-0.00013199345235896838,0.00035157321392942364,0.0001295838953016687,5.102793375622028e-05,-5.511323525886347e-06,-0.0007190750797461551,0.0008042758067762294,-9.677481625493129e-05,0.000428223978617135,-0.0002719377021543651,4.838419675711508e-06,0.0005724927884261736,0.4267818331718445,19.844202041625977,0.3990752398967743,-20.205720901489258,-0.7784934639930725,-2.4694857597351074,0.26217979192733765,0
10,0.04379439353942871,-0.4029781222343445,-19.891809463500977,-0.4228789508342743,20.205720901489258,0.7849021553993225,2.4694857597351074,-0.24112264811992645,0.0,0.0,0.0,0.0,0.0,0.0,0.0,-0.39820631852665134,-0.12372249123238858,-0.19999679735579606,0.42833288227996363,0.20220936300704861,0.0987892075110237,-0.2731557143416412,1.2136277225644567,-0.22014680064248132,-0.007378173472996527,-2.6041999563585194,-0.1090099793208141,2.468131092759135,0.8264777396057643,1.2134413937687574,-0.2202432315892585,-0.0075118285948192216,-2.6038483821997875,-0.10888392708698907,2.4681821257803174,0.826474908251239,0.00021039398326565704,-7.563590178808585e-05,0.0008077224420794331,0.00020373708391686595,3.882268564649965e-05,0.00010977819565603227,-0.001175074729063085,0.0,0.0,0.0,0.0,0.0,0.0,0.0,-0.00018632879569935312,-9.643094677716513e-05,-0.00013365512182269418,0.00035157415873188214,0.00012605223382503028,5.103302118225628e-05,-2.8313545252789396e-06,-0.00021039398326565704,7.563590178808585e-05,-0.0008077224420794331,-0.00020373708391686595,-3.882268564649965e-05,-0.00010977819565603227,0.001175074729063085,0.4029781222343445,19.891809463500977,0.4228789508342743,-20.205720901489258,-0.7849021553993225,-2.4694857597351074,0.24112264811992645,0
11,0.04876089096069336,-0.4029781222343445,-19.891809463500977,-0.4228789508342743,20.205720901489258,0.7849021553993225,2.4694857597351074,-0.24112264811992645,0.0,0.0,0.0,0.0,0.0,0.0,0.0,-0.39820631852665134,-0.12372249123238858,-0.19999679735579606,0.42833288227996363,0.20220936300704861,0.0987892075110237,-0.2731557143416412,1.2136277225644567,-0.22014680064248132,-0.007378173472996527,-2.6041999563585194,-0.1090099793208141,2.468131092759135,0.8264777396057643,1.2134413937687574,-0.2202432315892585,-0.0075118285948192216,-2.6038483821997875,-0.10888392708698907,2.4681821257803174,0.826474908251239,0.00021039398326565704,-7.563590178808585e-05,0.0008077224420794331,0.00020373708391686595,3.882268564649965e-05,0.00010977819565603227,-0.001175074729063085,0.0,0.0,0.0,0.0,0.0,0.0,0.0,-0.00018632879569935312,-9.643094677716513e-05,-0.00013365512182269418,0.00035157415873188214,0.00012605223382503028,5.103302118225628e-05,-2.8313545252789396e-06,-0.00021039398326565704,7.563590178808585e-05,-0.0008077224420794331,-0.00020373708391686595,-3.882268564649965e-05,-0.00010977819565603227,0.001175074729063085,0.4029781222343445,19.891809463500977,0.4228789508342743,-20.205720901489258,-0.7849021553993225,-2.4694857597351074,0.24112264811992645,0
12,0.05375790596008301,-0.4029781222343445,-19.868005752563477,-0.3990752398967743,20.154146194458008,0.8022971749305725,2.4694857597351074,-0.25485557317733765,0.0,0.0,0.0,0.0,0.0,0.0,0.0,-0.4040784071559882,-0.12258026180589092,-0.20430143575776813,0.4234543654161208,0.20230554577703502,0.0977321221063677,-0.2731256776889602,1.2136277226021412,-0.22015072073962452,-0.007379843908901278,-2.6041963342464154,-0.10901474907680916,2.4681310978465323,0.8264780882702116,1.2134413937687574,-0.2202432315892585,-0.0075118285948192216,-2.6038483821997875,-0.10888392708698907,2.4681821257803174,0.826474908251239,-0.0001515791130210127,-0.0004159208820712171,-0.0006218047175009639,0.0009616582227947464,-0.0005327263208395554,-1.9757874059247595e-05,-0.000612914496212967,0.0,0.0,0.0,0.0,0.0,0.0,0.0,-0.0001863288333838753,-9.251084963396439e-05,-0.0001319846859179439,0.00034795204662785295,0.0001308219898200902,5.102793378508608e-05,-3.1800189725927908e-06,0.0001515791130210127,0.0004159208820712171,0.0006218047175009639,-0.0009616582227947464,0.0005327263208395554,1.9757874059247595e-05,0.000612914496212967,0.4029781222343445,19.868005752563477,0.3990752398967743,-20.154146194458008,-0.8022971749305725,-2.4694857597351074,0.25485557317733765,0
13,0.05876016616821289,-0.4029781222343445,-19.868005752563477,-0.3990752398967743,20.154146194458008,0.8022971749305725,2.4694857597351074,-0.25485557317733765,0.0,0.0,0.0,0.0,0.0,0.0,0.0,-0.4040784071559882,-0.12258026180589092,-0.20430143575776813,0.4234543654161208,0.20230554577703502,0.0977321221063677,-0.2731256776889602,1.2136277226021412,-0.22015072073962452,-0.007379843908901278,-2.6041963342464154,-0.10901474907680916,2.4681310978465323,0.8264780882702116,1.2134413937687574,-0.2202432315892585,-0.0075118285948192216,-2.6038483821997875,-0.10888392708698907,2.4681821257803174,0.826474908251239,-0.0001515791130210127,-0.0004159208820712171,-0.0006218047175009639,0.0009616582227947464,-0.0005327263208395554,-1.9757874059247595e-05,-0.000612914496212967,0.0,0.0,0.0,0.0,0.0,0.0,0.0,-0.0001863288333838753,-9.251084963396439e-05,-0.0001319846859179439,0.00034795204662785295,0.0001308219898200902,5.102793378508608e-05,-3.1800189725927908e-06,0.0001515791130210127,0.0004159208820712171,0.0006218047175009639,-0.0009616582227947464,0.0005327263208395554,1.9757874059247595e-05,0.000612914496212967,0.4029781222343445,19.868005752563477,0.3990752398967743,-20.154146194458008,-0.8022971749305725,-2.4694857597351074,0.25485557317733765,0
14,0.06376218795776367,-0.4267818331718445,-19.891809463500977,-0.3990752398967743,20.205720901489258,0.7903953194618225,2.4694857597351074,-0.28964561223983765,0.0,0.0,0.0,0.0,0.0,0.0,0.0,-0.4018865180106546,-0.12281070584890116,-0.2019541363768545,0.4193602577652277,0.2025619322420431,0.09743220463912873,-0.2727906737400733,1.2136293930379969,-0.2201492880291338,-0.007379843908901278,-2.6041999563585088,-0.10901113535369475,2.468131097846561,0.8264834800512204,1.2134413937687574,-0.2202432315892585,-0.0075118285948192216,-2.6038483821997875,-0.10888392708698907,2.4681821257803174,0.826474908251239,0.0004120681890450114,0.0009016835378057547,-0.0005133633780764733,-0.0007180400848097642,-9.771257020638366e-05,3.996852389875824e-05,0.0005653341988526438,0.0,0.0,0.0,0.0,0.0,0.0,0.0,-0.00018799926923951382,-9.394356012468186e-05,-0.0001319846859179439,0.000351574158721224,0.0001272082667056751,5.102793375622028e-05,-8.571799981371697e-06,-0.0004120681890450114,-0.0009016835378057547,0.0005133633780764733,0.0007180400848097642,9.771257020638366e-05,-3.996852389875824e-05,-0.0005653341988526438,0.4267818331718445,19.891809463500977,0.3990752398967743,-20.205720901489258,-0.7903953194618225,-2.4694857597351074,0.28964561223983765,0
15,0.06885933876037598,-0.4267818331718445,-19.891809463500977,-0.3990752398967743,20.205720901489258,0.7903953194618225,2.4694857597351074,-0.28964561223983765,0.0,0.0,0.0,0.0,0.0,0.0,0.0,-0.4018865180106546,-0.12281070584890116,-0.2019541363768545,0.4193602577652277,0.2025619322420431,0.09743220463912873,-0.2727906737400733,1.2136293930379969,-0.2201492880291338,-0.007379843908901278,-2.6041999563585088,-0.10901113535369475,2.468131097846561,0.8264834800512204,1.2134413937687574,-0.2202432315892585,-0.0075118285948192216,-2.6038483821997875,-0.10888392708698907,2.4681821257803174,0.826474908251239,0.0004120681890450114,0.0009016835378057547,-0.0005133633780764733,-0.0007180400848097642,-9.771257020638366e-05,3.996852389875824e-05,0.0005653341988526438,0.0,0.0,0.0,0.0,0.0,0.0,0.0,-0.00018799926923951382,-9.394356012468186e-05,-0.0001319846859179439,0.000351574158721224,0.0001272082667056751,5.102793375622028e-05,-8.571799981371697e-06,-0.0004120681890450114,-0.0009016835378057547,0.0005133633780764733,0.0007180400848097642,9.771257020638366e-05,-3.996852389875824e-05,-0.0005653341988526438,0.4267818331718445,19.891809463500977,0.3990752398967743,-20.205720901489258,-0.7903953194618225,-2.4694857597351074,0.28964561223983765,0
16,0.0737600326538086,-0.4029781222343445,-19.816431045532227,-0.3713042438030243,20.181917190551758,0.7849021553993225,2.4694857597351074,-0.24844686686992645,0.0,0.0,0.0,0.0,0.0,0.0,0.0,-0.40037186177249934,-0.12452631559450088,-0.20214174239907765,0.42331318819710223,0.20289919549866853,0.09875341390121961,-0.2732949225872321,1.2136277226021415,-0.2201524419470835,-0.007381792714656529,-2.6041982859226693,-0.1090131200556043,2.468131097846561,0.8264789066206066,1.2134413937687574,-0.2202432315892585,-0.0075118285948192216,-2.6038483821997875,-0.10888392708698907,2.4681821257803174,0.826474908251239,-2.2894566014251875e-06,-0.0003890867088487846,-0.0008129111022932296,0.000792257939149075,7.672378624795975e-05,-0.00015328319862019686,-0.0008751725571673121,0.0,0.0,0.0,0.0,0.0,0.0,0.0,-0.00018632883338409734,-9.078964217498764e-05,-0.00013003588016269243,0.0003499037228817947,0.00012919296861522989,5.102793375622028e-05,-3.998369367597121e-06,2.2894566014251875e-06,0.0003890867088487846,0.0008129111022932296,-0.000792257939149075,-7.672378624795975e-05,0.00015328319862019686,0.0008751725571673121,0.4029781222343445,19.816431045532227,0.3713042438030243,-20.181917190551758,-0.7849021553993225,-2.4694857597351074,0.24844686686992645,0
17,0.0787665843963623,-0.4029781222343445,-19.816431045532227,-0.3713042438030243,20.181917190551758,0.7849021553993225,2.4694857597351074,-0.24844686686992645,0.0,0.0,0.0,0.0,0.0,0.0,0.0,-0.40037186177249934,-0.12452631559450088,-0.20214174239907765,0.42331318819710223,0.20289919549866853,0.09875341390121961,-0.2732949225872321,1.2136277226021415,-0.2201524419470835,-0.007381792714656529,-2.6041982859226693,-0.1090131200556043,2.468131097846561,0.8264789066206066,1.2134413937687574,-0.2202432315892585,-0.0075118285948192216,-2.6038483821997875,-0.10888392708698907,2.4681821257803174,0.826474908251239,-2.2894566014251875e-06,-0.0003890867088487846,-0.0008129111022932296,0.000792257939149075,7.672378624795975e-05,-0.00015328319862019686,-0.0008751725571673121,0.0,0.0,0.0,0.0,0.0,0.0,0.0,-0.00018632883338409734,-9.078964217498764e-05,-0.00013003588016269243,0.0003499037228817947,0.00012919296861522989,5.102793375622028e-05,-3.998369367597121e-06,2.2894566014251875e-06,0.0003890867088487846,0.0008129111022932296,-0.000792257939149075,-7.672378624795975e-05,0.00015328319862019686,0.0008751725571673121,0.4029781222343445,19.816431045532227,0.3713042438030243,-20.181917190551758,-0.7849021553993225,-2.4694857597351074,0.24844686686992645,0
18,0.08376574516296387,-0.4029781222343445,-19.844202041625977,-0.4228789508342743,20.205720901489258,0.7903953194618225,2.4694857597351074,-0.30337852239608765,0.0,0.0,0.0,0.0,0.0,0.0,0.0,-0.4086443313178727,-0.12361522974132194,-0.21044008341744613,0.4225982885112219,0.2030550589155034,0.09781403925097878,-0.27257291363110114,1.2136277226021415,-0.2201504901633835,-0.00737817347304581,-2.6041999563585247,-0.10901444724407329,2.468131097846561,0.8264850087920312,1.2134413937687574,-0.2202432315892585,-0.0075118285948192216,-2.6038483821997875,-0.10888392708698907,2.4681821257803174,0.826474908251239,-0.0005557822983666924,0.0001234198039755122,-9.090045929226069e-06,-0.00037126143513299274,2.2481378359241602e-05,-9.986069548785282e-05,0.001526887207060667,0.0,0.0,0.0,0.0,0.0,0.0,0.0,-0.00018632883338409734,-9.274142587498146e-05,-0.00013365512177341155,0.0003515741587372112,0.00013052015708421572,5.102793375622028e-05,-1.0100540792201684e-05,0.0005557822983666924,-0.0001234198039755122,9.090045929226069e-06,0.00037126143513299274,-2.2481378359241602e-05,9.986069548785282e-05,-0.001526887207060667,0.4029781222343445,19.844202041625977,0.4228789508342743,-20.205720901489258,-0.7903953194618225,-2.4694857597351074,0.30337852239608765,0
19,0.08878397941589355,-0.4029781222343445,-19.844202041625977,-0.4228789508342743,20.205720901489258,0.7903953194618225,2.4694857597351074,-0.30337852239608765,0.0,0.0,0.0,0.0,0.0,0.0,0.0,-0.4086443313178727,-0.12361522974132194,-0.21044008341744613,0.4225982885112219,0.2030550589155034,0.09781403925097878,-0.27257291363110114,1.2136277226021415,-0.2201504901633835,-0.00737817347304581,-2.6041999563585247,-0.10901444724407329,2.468131097846561,0.8264850087920312,1.2134413937687574,-0.2202432315892585,-0.0075118285948192216,-2.6038483821997875,-0.10888392708698907,2.4681821257803174,0.826474908251239,-0.0005557822983666924,0.0001234198039755122,-9.090045929226069e-06,-0.00037126143513299274,2.2481378359241602e-05,-9.986069548785282e-05,0.001526887207060667,0.0,0.0,0.0,0.0,0.0,0.0,0.0,-0.00018632883338409734,-9.274142587498146e-05,-0.00013365512177341155,0.0003515741587372112,0.00013052015708421572,5.102793375622028e-05,-1.0100540792201684e-05,0.0005557822983666924,-0.0001234198039755122,9.090045929226069e-06,0.00037126143513299274,-2.2481378359241602e-05,9.986069548785282e-05,-0.001526887207060667,0.4029781222343445,19.844202041625977,0.4228789508342743,-20.205720901489258,-0.7903953194618225,-2.4694857597351074,0.30337852239608765,0
20,0.09406328201293945,-0.4029781222343445,-19.868005752563477,-0.3990752398967743,20.205720901489258,0.7784934639930725,2.4694857597351074,-0.29605430364608765,0.0,0.0,0.0,0.0,0.0,0.0,0.0,-0.40603674563568,-0.11464923420538893,-0.20661587792243546,0.41754324003058946,0.20295405791934917,0.09693096148046587,-0.2722863943740552,1.2136277226021415,-0.22015024361624794,-0.0073797650109320555,-2.604199650240843,-0.10901340672402819,2.468131097846561,0.8264841964973257,1.2134413937687574,-0.2202432315892585,-0.0075118285948192216,-2.6038483821997875,-0.10888392708698907,2.4681821257803174,0.826474908251239,1.654052497890695e-05,0.0007269637043483645,-0.00044305390596055614,-0.0008304796181019905,0.0003831168595127125,-9.717293419233486e-05,0.0011278100847035343,0.0,0.0,0.0,0.0,0.0,0.0,0.0,-0.00018632883338409734,-9.298797301054984e-05,-0.00013206358388716602,0.0003512680410553415,0.0001294796370391177,5.102793375622028e-05,-9.288246086702756e-06,-1.654052497890695e-05,-0.0007269637043483645,0.00044305390596055614,0.0008304796181019905,-0.0003831168595127125,9.717293419233486e-05,-0.0011278100847035343,0.4029781222343445,19.868005752563477,0.3990752398967743,-20.205720901489258,-0.7784934639930725,-2.4694857597351074,0.29605430364608765,0
21,0.09871339797973633,-0.4029781222343445,-19.868005752563477,-0.3990752398967743,20.205720901489258,0.7784934639930725,2.4694857597351074,-0.29605430364608765,0.0,0.0,0.0,0.0,0.0,0.0,0.0,-0.40603674563568,-0.11464923420538893,-0.20661587792243546,0.41754324003058946,0.20295405791934917,0.09693096148046587,-0.2722863943740552,1.2136277226021415,-0.22015024361624794,-0.0073797650109320555,-2.604199650240843,-0.10901340672402819,2.468131097846561,0.8264841964973257,1.2134413937687574,-0.2202432315892585,-0.0075118285948192216,-2.6038483821997875,-0.10888392708698907,2.4681821257803174,0.826474908251239,1.654052497890695e-05,0.0007269637043483645,-0.00044305390596055614,-0.0008304796181019905,0.0003831168595127125,-9.717293419233486e-05,0.0011278100847035343,0.0,0.0,0.0,0.0,0.0,0.0,0.0,-0.00018632883338409734,-9.298797301054984e-05,-0.00013206358388716602,0.0003512680410553415,0.0001294796370391177,5.102793375622028e-05,-9.288246086702756e-06,-1.654052497890695e-05,-0.0007269637043483645,0.00044305390596055614,0.0008304796181019905,-0.0003831168595127125,9.717293419233486e-05,-0.0011278100847035343,0.4029781222343445,19.868005752563477,0.3990752398967743,-20.205720901489258,-0.7784934639930725,-2.4694857597351074,0.29605430364608765,0
22,0.10375666618347168,-0.3514034152030945,-19.844202041625977,-0.3990752398967743,20.205720901489258,0.7903953194618225,2.4630770683288574,-0.30978721380233765,0.0,0.0,0.0,0.0,0.0,0.0,0.0,-0.40596597242908755,-0.11670073654160083,-0.2057622482461463,0.42029563807451875,0.20289554356969372,0.0975083333488862,-0.27277545755258426,1.213624103324455,-0.22015260224047686,-0.007379133826732895,-2.604199956251818,-0.10901373799971044,2.468131809866857,0.8264821902491428,1.2134413937687574,-0.2202432315892585,-0.0075118285948192216,-2.6038483821997875,-0.10888392708698907,2.4681821257803174,0.826474908251239,-0.0012180028849297611,-0.00025155240558061547,0.00030561812255927145,-0.00036380748355390076,-0.0002559614203622748,0.00015863130058059793,0.001558779028845074,0.0,0.0,0.0,0.0,0.0,0.0,0.0,-0.00018270955569765768,-9.062934878162343e-05,-0.00013269476808632635,0.0003515740520305677,0.0001298109127213648,5.031591346016384e-05,-7.281997903785253e-06,0.0012180028849297611,0.00025155240558061547,-0.00030561812255927145,0.00036380748355390076,0.0002559614203622748,-0.00015863130058059793,-0.001558779028845074,0.3514034152030945,19.844202041625977,0.3990752398967743,-20.205720901489258,-0.7903953194618225,-2.4630770683288574,0.30978721380233765,0
23,0.10875582695007324,-0.3514034152030945,-19.844202041625977,-0.3990752398967743,20.205720901489258,0.7903953194618225,2.4630770683288574,-0.30978721380233765,0.0,0.0,0.0,0.0,0.0,0.0,0.0,-0.40596597242908755,-0.11670073654160083,-0.2057622482461463,0.42029563807451875,0.20289554356969372,0.0975083333488862,-0.27277545755258426,1.213624103324455,-0.22015260224047686,-0.007379133826732895,-2.604199956251818,-0.10901373799971044,2.468131809866857,0.8264821902491428,1.2134413937687574,-0.2202432315892585,-0.0075118285948192216,-2.6038483821997875,-0.10888392708698907,2.4681821257803174,0.826474908251239,-0.0012180028849297611,-0.00025155240558061547,0.00030561812255927145,-0.00036380748355390076,-0.0002559614203622748,0.00015863130058059793,0.001558779028845074,0.0,0.0,0.0,0.0,0.0,0.0,0.0,-0.00018270955569765768,-9.062934878162343e-05,-0.00013269476808632635,0.0003515740520305677,0.0001298109127213648,5.031591346016384e-05,-7.281997903785253e-06,0.0012180028849297611,0.00025155240558061547,-0.00030561812255927145,0.00036380748355390076,0.0002559614203622748,-0.00015863130058059793,-0.001558779028845074,0.3514034152030945,19.844202041625977,0.3990752398967743,-20.205720901489258,-0.7903953194618225,-2.4630770683288574,0.30978721380233765,0
24,0.11376285552978516,-0.4267818331718445,-19.844202041625977,-0.3990752398967743,20.181917190551758,0.7968040108680725,2.4694857597351074,-0.30978721380233765,0.0,0.0,0.0,0.0,0.0,0.0,0.0,-0.4077032805650962,-0.12162735948437935,-0.20745514706713458,0.4233352591455238,0.20281530872202158,0.09755512535325087,-0.2728193183880154,1.2136293920205117,-0.2201526250314886,-0.007379840541818298,-2.6041982859226676,-0.10901444297293662,2.468130974222112,0.8264857223164236,1.2134413937687574,-0.2202432315892585,-0.0075118285948192216,-2.6038483821997875,-0.10888392708698907,2.4681821257803174,0.826474908251239,0.0007464239442290922,-0.0009810675541013453,-0.00013756888217463488,0.00036105168848394,-0.00028759465736653264,-0.00026872317881260427,0.0014073127815563409,0.0,0.0,0.0,0.0,0.0,0.0,0.0,-0.00018799825175430662,-9.060655776987891e-05,-0.0001319880530009235,0.00034990372288001836,0.00013051588594754915,5.1151558205564385e-05,-1.0814065184550081e-05,-0.0007464239442290922,0.0009810675541013453,0.00013756888217463488,-0.00036105168848394,0.00028759465736653264,0.00026872317881260427,-0.0014073127815563409,0.4267818331718445,19.844202041625977,0.3990752398967743,-20.181917190551758,-0.7968040108680725,-2.4694857597351074,0.30978721380233765,0
25,0.1187739372253418,-0.4267818331718445,-19.844202041625977,-0.3990752398967743,20.181917190551758,0.7968040108680725,2.4694857597351074,-0.30978721380233765,0.0,0.0,0.0,0.0,0.0,0.0,0.0,-0.4077032805650962,-0.12162735948437935,-0.20745514706713458,0.4233352591455238,0.20281530872202158,0.09755512535325087,-0.2728193183880154,1.2136293920205117,-0.2201526250314886,-0.007379840541818298,-2.6041982859226676,-0.10901444297293662,2.468130974222112,0.8264857223164236,1.2134413937687574,-0.2202432315892585,-0.0075118285948192216,-2.6038483821997875,-0.10888392708698907,2.4681821257803174,0.826474908251239,0.0007464239442290922,-0.0009810675541013453,-0.00013756888217463488,0.00036105168848394,-0.00028759465736653264,-0.00026872317881260427,0.0014073127815563409,0.0,0.0,0.0,0.0,0.0,0.0,0.0,-0.00018799825175430662,-9.060655776987891e-05,-0.0001319880530009235,0.00034990372288001836,0.00013051588594754915,5.1151558205564385e-05,-1.0814065184550081e-05,-0.0007464239442290922,0.0009810675541013453,0.00013756888217463488,-0.00036105168848394,0.00028759465736653264,0.00026872317881260427,-0.0014073127815563409,0.4267818331718445,19.844202041625977,0.3990752398967743,-20.181917190551758,-0.7968040108680725,-2.4694857597351074,0.30978721380233765,0
26,0.12375640869140625,-0.3752071261405945,-19.868005752563477,-0.3990752398967743,20.181917190551758,0.7903953194618225,2.4758944511413574,-0.30978721380233765,0.0,0.0,0.0,0.0,0.0,0.0,0.0,-0.3987693468518183,-0.12705612248091547,-0.19954743699243266,0.41969733845662216,0.20266941855039977,0.09730252715760282,-0.27340523435446135,1.2136257737603102,-0.22014881972752742,-0.007379843908900573,-2.6041982859213735,-0.10901472346924071,2.4681303857697126,0.8264857209226902,1.2134413937687574,-0.2202432315892585,-0.0075118285948192216,-2.6038483821997875,-0.10888392708698907,2.4681821257803174,0.826474908251239,0.00013329199059626605,-0.0008956767208132705,0.00023074906953667748,-0.00014054705529452334,-0.00016460760372378485,-0.00038670309545979254,0.0017389581774001483,0.0,0.0,0.0,0.0,0.0,0.0,0.0,-0.00018437999155285212,-9.441186173106408e-05,-0.0001319846859186482,0.0003499037215859424,0.0001307963822516356,5.1740010604817144e-05,-1.081267145119913e-05,-0.00013329199059626605,0.0008956767208132705,-0.00023074906953667748,0.00014054705529452334,0.00016460760372378485,0.00038670309545979254,-0.0017389581774001483,0.3752071261405945,19.868005752563477,0.3990752398967743,-20.181917190551758,-0.7903953194618225,-2.4758944511413574,0.30978721380233765,0
27,0.1287548542022705,-0.3752071261405945,-19.868005752563477,-0.3990752398967743,20.181917190551758,0.7903953194618225,2.4758944511413574,-0.30978721380233765,0.0,0.0,0.0,0.0,0.0,0.0,0.0,-0.3987693468518183,-0.12705612248091547,-0.19954743699243266,0.41969733845662216,0.20266941855039977,0.09730252715760282,-0.27340523435446135,1.2136257737603102,-0.22014881972752742,-0.007379843908900573,-2.6041982859213735,-0.10901472346924071,2.4681303857697126,0.8264857209226902,1.2134413937687574,-0.2202432315892585,-0.0075118285948192216,-2.6038483821997875,-0.10888392708698907,2.4681821257803174,0.826474908251239,0.00013329199059626605,-0.0008956767208132705,0.00023074906953667748,-0.00014054705529452334,-0.00016460760372378485,-0.00038670309545979254,0.0017389581774001483,0.0,0.0,0.0,0.0,0.0,0.0,0.0,-0.00018437999155285212,-9.441186173106408e-05,-0.0001319846859186482,0.0003499037215859424,0.0001307963822516356,5.1740010604817144e-05,-1.081267145119913e-05,-0.00013329199059626605,0.0008956767208132705,-0.00023074906953667748,0.00014054705529452334,0.00016460760372378485,0.00038670309545979254,-0.0017389581774001483,0.3752071261405945,19.868005752563477,0.3990752398967743,-20.181917190551758,-0.7903953194618225,-2.4758944511413574,0.30978721380233765,0
28,0.13375329971313477,-0.3752071261405945,-19.868005752563477,-0.3990752398967743,20.181917190551758,0.7903953194618225,2.4758944511413574,-0.30978721380233765,0.0,0.0,0.0,0.0,0.0,0.0,0.0,-0.3987693468518183,-0.12705612248091547,-0.19954743699243266,0.41969733845662216,0.20266941855039977,0.09730252715760282,-0.27340523435446135,1.2136257737603102,-0.22014881972752742,-0.007379843908900573,-2.6041982859213735,-0.10901472346924071,2.4681303857697126,0.8264857209226902,1.2134413937687574,-0.2202432315892585,-0.0075118285948192216,-2.6038483821997875,-0.10888392708698907,2.4681821257803174,0.826474908251239,0.00013329199059626605,-0.0008956767208132705,0.00023074906953667748,-0.00014054705529452334,-0.00016460760372378485,-0.00038670309545979254,0.0017389581774001483,0.0,0.0,0.0,0.0,0.0,0.0,0.0,-0.00018437999155285212,-9.441186173106408e-05,-0.0001319846859186482,0.0003499037215859424,0.0001307963822516356,5.1740010604817144e-05,-1.081267145119913e-05,-0.00013329199059626605,0.0008956767208132705,-0.00023074906953667748,0.00014054705529452334,0.00016460760372378485,0.00038670309545979254,-0.0017389581774001483,0.3752071261405945,19.868005752563477,0.3990752398967743,-20.181917190551758,-0.7903953194618225,-2.4758944511413574,0.30978721380233765,0
29,0.13875746726989746,-0.3752071261405945,-19.868005752563477,-0.3990752398967743,20.181917190551758,0.7903953194618225,2.4758944511413574,-0.30978721380233765,0.0,0.0,0.0,0.0,0.0,0.0,0.0,-0.3987693468518183,-0.12705612248091547,-0.19954743699243266,0.41969733845662216,0.20266941855039977,0.09730252715760282,-0.27340523435446135,1.2136257737603102,-0.22014881972752742,-0.007379843908900573,-2.6041982859213735,-0.10901472346924071,2.4681303857697126,0.8264857209226902,1.2134413937687574,-0.2202432315892585,-0.0075118285948192216,-2.6038483821997875,-0.10888392708698907,2.4681821257803174,0.826474908251239,0.00013329199059626605,-0.0008956767208132705,0.00023074906953667748,-0.00014054705529452334,-0.00016460760372378485,-0.00038670309545979254,0.0017389581774001483,0.0,0.0,0.0,0.0,0.0,0.0,0.0,-0.00018437999155285212,-9.441186173106408e-05,-0.0001319846859186482,0.0003499037215859424,0.0001307963822516356,5.1740010604817144e-05,-1.081267145119913e-05,-0.00013329199059626605,0.0008956767208132705,-0.00023074906953667748,0.00014054705529452334,0.00016460760372378485,0.00038670309545979254,-0.0017389581774001483,0.3752071261405945,19.868005752563477,0.3990752398967743,-20.181917190551758,-0.7903953194618225,-2.4758944511413574,0.30978721380233765,0
30,0.14376258850097656,-0.3752071261405945,-19.868005752563477,-0.4228789508342743,20.181917190551758,0.7849021553993225,2.4694857597351074,-0.30337852239608765,0.0,0.0,0.0,0.0,0.0,0.0,0.0,-0.39974928299752926,-0.1278583371563896,-0.20661594625395457,0.41911942328834717,0.203021199280622,0.09750326121654705,-0.27349344595506825,1.2136257737603104,-0.22015085298101805,-0.007378173473046014,-2.6041982093932488,-0.10901419225329893,2.4681309742221127,0.8264846178408429,1.2134413937687574,-0.2202432315892585,-0.0075118285948192216,-2.6038483821997875,-0.10888392708698907,2.4681821257803174,0.826474908251239,-0.0006723134631813987,-0.00037989385457350936,0.0005447583765787941,0.00041279922907933714,2.110914502368759e-05,0.00016954189302986132,0.0014757218066221707,0.0,0.0,0.0,0.0,0.0,0.0,0.0,-0.00018437999155307416,-9.237860824043431e-05,-0.00013365512177320772,0.00034982719346121627,0.00013026516630985918,5.1151558204676206e-05,-9.709589603890123e-06,0.0006723134631813987,0.00037989385457350936,-0.0005447583765787941,-0.00041279922907933714,-2.110914502368759e-05,-0.00016954189302986132,-0.0014757218066221707,0.3752071261405945,19.868005752563477,0.4228789508342743,-20.181917190551758,-0.7849021553993225,-2.4694857597351074,0.30337852239608765,0
31,0.14879179000854492,-0.3752071261405945,-19.868005752563477,-0.4228789508342743,20.181917190551758,0.7849021553993225,2.4694857597351074,-0.30337852239608765,0.0,0.0,0.0,0.0,0.0,0.0,0.0,-0.39974928299752926,-0.1278583371563896,-0.20661594625395457,0.41911942328834717,0.203021199280622,0.09750326121654705,-0.27349344595506825,1.2136257737603104,-0.22015085298101805,-0.007378173473046014,-2.6041982093932488,-0.10901419225329893,2.4681309742221127,0.8264846178408429,1.2134413937687574,-0.2202432315892585,-0.0075118285948192216,-2.6038483821997875,-0.10888392708698907,2.4681821257803174,0.826474908251239,-0.0006723134631813987,-0.00037989385457350936,0.0005447583765787941,0.00041279922907933714,2.110914502368759e-05,0.00016954189302986132,0.0014757218066221707,0.0,0.0,0.0,0.0,0.0,0.0,0.0,-0.00018437999155307416,-9.237860824043431e-05,-0.00013365512177320772,0.00034982719346121627,0.00013026516630985918,5.1151558204676206e-05,-9.709589603890123e-06,0.0006723134631813987,0.00037989385457350936,-0.0005447583765787941,-0.00041279922907933714,-2.110914502368759e-05,-0.00016954189302986132,-0.0014757218066221707,0.3752071261405945,19.868005752563477,0.4228789508342743,-20.181917190551758,-0.7849021553993225,-2.4694857597351074,0.30337852239608765,0
32,0.15375638008117676,-0.4783565402030945,-19.844202041625977,-0.4228789508342743,20.181917190551758,0.7849021553993225,2.4694857597351074,-0.27591270208358765,0.0,0.0,0.0,0.0,0.0,0.0,0.0,-0.3962923058268316,-0.1240084733232795,-0.20439249939747958,0.41530888372964503,0.2025763207845713,0.09733668460707977,-0.2727283509589009,1.213633012315683,-0.22015239050168584,-0.007378173473046014,-2.6041982858172585,-0.10901277278016823,2.4681310978458635,0.8264808988474251,1.2134413937687574,-0.2202432315892585,-0.0075118285948192216,-2.6038483821997875,-0.10888392708698907,2.4681821257803174,0.826474908251239,0.0016166574898127206,7.271907846166149e-05,0.00025367564442077507,0.00030035448040459866,3.4329904185907824e-05,-3.627525694851269e-05,0.00021724567634094044,0.0,0.0,0.0,0.0,0.0,0.0,0.0,-0.00019161854692573144,-9.084108757265175e-05,-0.00013365512177320772,0.0003499036174710035,0.0001288456931791554,5.102793445388443e-05,-5.990596186111752e-06,-0.0016166574898127206,-7.271907846166149e-05,-0.00025367564442077507,-0.00030035448040459866,-3.4329904185907824e-05,3.627525694851269e-05,-0.00021724567634094044,0.4783565402030945,19.844202041625977,0.4228789508342743,-20.181917190551758,-0.7849021553993225,-2.4694857597351074,0.27591270208358765,0
33,0.15875720977783203,-0.4783565402030945,-19.844202041625977,-0.4228789508342743,20.181917190551758,0.7849021553993225,2.4694857597351074,-0.27591270208358765,0.0,0.0,0.0,0.0,0.0,0.0,0.0,-0.3962923058268316,-0.1240084733232795,-0.20439249939747958,0.41530888372964503,0.2025763207845713,0.09733668460707977,-0.2727283509589009,1.213633012315683,-0.22015239050168584,-0.007378173473046014,-2.6041982858172585,-0.10901277278016823,2.4681310978458635,0.8264808988474251,1.2134413937687574,-0.2202432315892585,-0.0075118285948192216,-2.6038483821997875,-0.10888392708698907,2.4681821257803174,0.826474908251239,0.0016166574898127206,7.271907846166149e-05,0.00025367564442077507,0.00030035448040459866,3.4329904185907824e-05,-3.627525694851269e-05,0.00021724567634094044,0.0,0.0,0.0,0.0,0.0,0.0,0.0,-0.00019161854692573144,-9.084108757265175e-05,-0.00013365512177320772,0.0003499036174710035,0.0001288456931791554,5.102793445388443e-05,-5.990596186111752e-06,-0.0016166574898127206,-7.271907846166149e-05,-0.00025367564442077507,-0.00030035448040459866,-3.4329904185907824e-05,3.627525694851269e-05,-0.00021724567634094044,0.4783565402030945,19.844202041625977,0.4228789508342743,-20.181917190551758,-0.7849021553993225,-2.4694857597351074,0.27591270208358765,0
34,0.1637728214263916,-0.4029781222343445,-19.816431045532227,-0.4228789508342743,20.205720901489258,0.7849021553993225,2.4630770683288574,-0.30978721380233765,0.0,0.0,0.0,0.0,0.0,0.0,0.0,-0.3954577436126698,-0.11998801096173524,-0.20068019217015826,0.4153345872825952,0.20204494175078697,0.09765208021875324,-0.27300442831435223,1.2136277226021415,-0.220154568953235,-0.007378173473046014,-2.6041999563585243,-0.1090110307204489,2.468131809923384,0.8264855871900857,1.2134413937687574,-0.2202432315892585,-0.0075118285948192216,-2.6038483821997875,-0.10888392708698907,2.4681821257803174,0.826474908251239,0.00026489704208415403,-0.0001570589381908364,0.00023900426965337772,-0.0005392453501888202,4.966685852722733e-05,0.00023115120191239872,0.0015807047129808164,0.0,0.0,0.0,0.0,0.0,0.0,0.0,-0.00018632883338409734,-8.866263602347324e-05,-0.00013365512177320772,0.0003515741587367671,0.00012710363345982967,5.031585693338059e-05,-1.0678938846653274e-05,-0.00026489704208415403,0.0001570589381908364,-0.00023900426965337772,0.0005392453501888202,-4.966685852722733e-05,-0.00023115120191239872,-0.0015807047129808164,0.4029781222343445,19.816431045532227,0.4228789508342743,-20.205720901489258,-0.7849021553993225,-2.4630770683288574,0.30978721380233765,0
35,0.1687908172607422,-0.4029781222343445,-19.816431045532227,-0.4228789508342743,20.205720901489258,0.7849021553993225,2.4630770683288574,-0.30978721380233765,0.0,0.0,0.0,0.0,0.0,0.0,0.0,-0.3954577436126698,-0.11998801096173524,-0.20068019217015826,0.4153345872825952,0.20204494175078697,0.09765208021875324,-0.27300442831435223,1.2136277226021415,-0.220154568953235,-0.007378173473046014,-2.6041999563585243,-0.1090110307204489,2.468131809923384,0.8264855871900857,1.2134413937687574,-0.2202432315892585,-0.0075118285948192216,-2.6038483821997875,-0.10888392708698907,2.4681821257803174,0.826474908251239,0.00026489704208415403,-0.0001570589381908364,0.00023900426965337772,-0.0005392453501888202,4.966685852722733e-05,0.00023115120191239872,0.0015807047129808164,0.0,0.0,0.0,0.0,0.0,0.0,0.0,-0.00018632883338409734,-8.866263602347324e-05,-0.00013365512177320772,0.0003515741587367671,0.00012710363345982967,5.031585693338059e-05,-1.0678938846653274e-05,-0.00026489704208415403,0.0001570589381908364,-0.00023900426965337772,0.0005392453501888202,-4.966685852722733e-05,-0.00023115120191239872,-0.0015807047129808164,0.4029781222343445,19.816431045532227,0.4228789508342743,-20.205720901489258,-0.7849021553993225,-2.4630770683288574,0.30978721380233765,0
36,0.17375779151916504,-0.4267818331718445,-19.844202041625977,-0.3713042438030243,20.205720901489258,0.7903953194618225,2.4566683769226074,-0.28964561223983765,0.0,0.0,0.0,0.0,0.0,0.0,0.0,-0.39833194529491783,-0.11794026901970114,-0.20438913938508044,0.41851937306410053,0.20217792745364854,0.09842479848186567,-0.2732465086276606,1.2136293013512776,-0.22015259866348133,-0.007381792750732418,-2.6041999563585247,-0.10901376834327196,2.468132522000207,0.8264834800575712,1.2134413937687574,-0.2202432315892585,-0.0075118285948192216,-2.6038483821997875,-0.10888392708698907,2.4681821257803174,0.826474908251239,0.00048578923384173296,0.0005035594801429566,-0.0006718062824342572,-0.0004216631920786783,-2.1930942706374194e-06,0.000541505986245321,0.0010122412577466232,0.0,0.0,0.0,0.0,0.0,0.0,0.0,-0.0001879075825201859,-9.063292577715654e-05,-0.00013003584408680362,0.0003515741587372112,0.00012984125628288934,4.9603780110540896e-05,-8.571806332180465e-06,-0.00048578923384173296,-0.0005035594801429566,0.0006718062824342572,0.0004216631920786783,2.1930942706374194e-06,-0.000541505986245321,-0.0010122412577466232,0.4267818331718445,19.844202041625977,0.3713042438030243,-20.205720901489258,-0.7903953194618225,-2.4566683769226074,0.28964561223983765,0
37,0.1787562370300293,-0.4267818331718445,-19.844202041625977,-0.3713042438030243,20.205720901489258,0.7903953194618225,2.4566683769226074,-0.28964561223983765,0.0,0.0,0.0,0.0,0.0,0.0,0.0,-0.39833194529491783,-0.11794026901970114,-0.20438913938508044,0.41851937306410053,0.20217792745364854,0.09842479848186567,-0.2732465086276606,1.2136293013512776,-0.22015259866348133,-0.007381792750732418,-2.6041999563585247,-0.10901376834327196,2.468132522000207,0.8264834800575712,1.2134413937687574,-0.2202432315892585,-0.0075118285948192216,-2.6038483821997875,-0.10888392708698907,2.4681821257803174,0.826474908251239,0.00048578923384173296,0.0005035594801429566,-0.0006718062824342572,-0.0004216631920786783,-2.1930942706374194e-06,0.000541505986245321,0.0010122412577466232,0.0,0.0,0.0,0.0,0.0,0.0,0.0,-0.0001879075825201859,-9.063292577715654e-05,-0.00013003584408680362,0.0003515741587372112,0.00012984125628288934,4.9603780110540896e-05,-8.571806332180465e-06,-0.00048578923384173296,-0.0005035594801429566,0.0006718062824342572,0.0004216631920786783,2.1930942706374194e-06,-0.000541505986245321,-0.0010122412577466232,0.4267818331718445,19.844202041625977,0.3713042438030243,-20.205720901489258,-0.7903953194618225,-2.4566683769226074,0.28964561223983765,0
38,0.18439197540283203,-0.4029781222343445,-19.844202041625977,-0.4228789508342743,20.181917190551758,0.7784934639930725,2.4630770683288574,-0.24844686686992645,0.0,0.0,0.0,0.0,0.0,0.0,0.0,-0.4072695813819415,-0.11799015849941562,-0.2110732392015718,0.4206067683204488,0.20281103880245277,0.09812070316927941,-0.2731680715869728,1.213627722601969,-0.2201526288900727,-0.007378173436970125,-2.6041982856077333,-0.10900887272747618,2.468131809923384,0.8264777933446952,1.2134413937687574,-0.2202432315892585,-0.0075118285948192216,-2.6038483821997875,-0.10888392708698907,2.4681821257803174,0.826474908251239,-0.00041709526191554267,-0.00047059525028172533,0.00025462917676982505,-6.251374144601842e-05,0.00013497822043320417,0.00026372256888949577,-0.001176289514594374,0.0,0.0,0.0,0.0,0.0,0.0,0.0,-0.00018632883321156868,-9.060269918578778e-05,-0.00013365515784909653,0.0003499034079457175,0.0001249456404871091,5.031585693338059e-05,-2.8850934561397423e-06,0.00041709526191554267,0.00047059525028172533,-0.00025462917676982505,6.251374144601842e-05,-0.00013497822043320417,-0.00026372256888949577,0.001176289514594374,0.4029781222343445,19.844202041625977,0.4228789508342743,-20.181917190551758,-0.7784934639930725,-2.4630770683288574,0.24844686686992645,0
39,0.18875384330749512,-0.4029781222343445,-19.844202041625977,-0.4228789508342743,20.181917190551758,0.7784934639930725,2.4630770683288574,-0.24844686686992645,0.0,0.0,0.0,0.0,0.0,0.0,0.0,-0.4072695813819415,-0.11799015849941562,-0.2110732392015718,0.4206067683204488,0.20281103880245277,0.09812070316927941,-0.2731680715869728,1.213627722601969,-0.2201526288900727,-0.007378173436970125,-2.6041982856077333,-0.10900887272747618,2.468131809923384,0.8264777933446952,1.2134413937687574,-0.2202432315892585,-0.0075118285948192216,-2.6038483821997875,-0.10888392708698907,2.4681821257803174,0.826474908251239,-0.00041709526191554267,-0.00047059525028172533,0.00025462917676982505,-6.251374144601842e-05,0.00013497822043320417,0.00026372256888949577,-0.001176289514594374,0.0,0.0,0.0,0.0,0.0,0.0,0.0,-0.00018632883321156868,-9.060269918578778e-05,-0.00013365515784909653,0.0003499034079457175,0.0001249456404871091,5.031585693338059e-05,-2.8850934561397423e-06,0.00041709526191554267,0.00047059525028172533,-0.00025462917676982505,6.251374144601842e-05,-0.00013497822043320417,-0.00026372256888949577,0.001176289514594374,0.4029781222343445,19.844202041625977,0.4228789508342743,-20.181917190551758,-0.7784934639930725,-2.4630770683288574,0.24844686686992645,0
40,0.1937563419342041,-0.4029781222343445,-19.868005752563477,-0.4228789508342743,20.154146194458008,0.7968040108680725,2.4823031425476074,-0.28964561223983765,0.0,0.0,0.0,0.0,0.0,0.0,0.0,-0.40568621240291364,-0.12420014919332745,-0.20959232399167035,0.4228617859363848,0.20202967930076426,0.09859222025823113,-0.27287307806031835,1.2136277226021415,-0.2201487344494959,-0.007378160810408775,-2.6041963342464136,-0.10901447801420049,2.468129673692915,0.8264834844142259,1.2134413937687574,-0.2202432315892585,-0.0075118285948192216,-2.6038483821997875,-0.10888392708698907,2.4681821257803174,0.826474908251239,0.00019978112914766327,-0.0005652228555065514,0.0003073378898871951,0.0009316364118649435,-0.00046768774030548954,-0.00039431397896390276,0.0006130478435973321,0.0,0.0,0.0,0.0,0.0,0.0,0.0,-0.00018632883338409734,-9.449713976258933e-05,-0.00013366778441044683,0.0003479520466260766,0.00013055092721141193,5.245208740234375e-05,-8.576162986884128e-06,-0.00019978112914766327,0.0005652228555065514,-0.0003073378898871951,-0.0009316364118649435,0.00046768774030548954,0.00039431397896390276,-0.0006130478435973321,0.4029781222343445,19.868005752563477,0.4228789508342743,-20.154146194458008,-0.7968040108680725,-2.4823031425476074,0.28964561223983765,0
41,0.198716402053833,-0.4029781222343445,-19.868005752563477,-0.4228789508342743,20.154146194458008,0.7968040108680725,2.4823031425476074,-0.28964561223983765,0.0,0.0,0.0,0.0,0.0,0.0,0.0,-0.40568621240291364,-0.12420014919332745,-0.20959232399167035,0.4228617859363848,0.20202967930076426,0.09859222025823113,-0.27287307806031835,1.2136277226021415,-0.2201487344494959,-0.007378160810408775,-2.6041963342464136,-0.10901447801420049,2.468129673692915,0.8264834844142259,1.2134413937687574,-0.2202432315892585,-0.0075118285948192216,-2.6038483821997875,-0.10888392708698907,2.4681821257803174,0.826474908251239,0.00019978112914766327,-0.0005652228555065514,0.0003073378898871951,0.0009316364118649435,-0.00046768774030548954,-0.00039431397896390276,0.0006130478435973321,0.0,0.0,0.0,0.0,0.0,0.0,0.0,-0.00018632883338409734,-9.449713976258933e-05,-0.00013366778441044683,0.0003479520466260766,0.00013055092721141193,5.245208740234375e-05,-8.576162986884128e-06,-0.00019978112914766327,0.0005652228555065514,-0.0003073378898871951,-0.0009316364118649435,0.00046768774030548954,0.00039431397896390276,-0.0006130478435973321,0.4029781222343445,19.868005752563477,0.4228789508342743,-20.154146194458008,-0.7968040108680725,-2.4823031425476074,0.28964561223983765,0
42,0.20375823974609375,-0.3752071261405945,-19.915613174438477,-0.3990752398967743,20.229524612426758,0.7903953194618225,2.4630770683288574,-0.22830526530742645,0.0,0.0,0.0,0.0,0.0,0.0,0.0,-0.4062550487964926,-0.12160720844368933,-0.21309748978744839,0.41760886062093794,0.2017035180054373,0.09814400533090752,-0.273203037459477,1.2136257737603104,-0.22014758799457954,-0.007379843908829797,-2.6041995605000117,-0.10901114016940171,2.468131809923384,0.8264734897505142,1.2134413937687574,-0.2202432315892585,-0.0075118285948192216,-2.6038483821997875,-0.10888392708698907,2.4681821257803174,0.826474908251239,-0.0007713514381304734,0.0008669725064966946,-0.00023916629079795144,-0.0007435046367087719,-2.4100823721258652e-05,0.00021678580627946384,-0.0016074329706283366,0.0,0.0,0.0,0.0,0.0,0.0,0.0,-0.00018437999155307416,-9.564359467895134e-05,-0.0001319846859894249,0.0003511783002241309,0.0001272130824126333,5.031585693338059e-05,1.4185007248812553e-06,0.0007713514381304734,-0.0008669725064966946,0.00023916629079795144,0.0007435046367087719,2.4100823721258652e-05,-0.00021678580627946384,0.0016074329706283366,0.3752071261405945,19.915613174438477,0.3990752398967743,-20.229524612426758,-0.7903953194618225,-2.4630770683288574,0.22830526530742645,0
43,0.208756685256958,-0.3752071261405945,-19.915613174438477,-0.3990752398967743,20.229524612426758,0.7903953194618225,2.4630770683288574,-0.22830526530742645,0.0,0.0,0.0,0.0,0.0,0.0,0.0,-0.4062550487964926,-0.12160720844368933,-0.21309748978744839,0.41760886062093794,0.2017035180054373,0.09814400533090752,-0.273203037459477,1.2136257737603104,-0.22014758799457954,-0.007379843908829797,-2.6041995605000117,-0.10901114016940171,2.468131809923384,0.8264734897505142,1.2134413937687574,-0.2202432315892585,-0.0075118285948192216,-2.6038483821997875,-0.10888392708698907,2.4681821257803174,0.826474908251239,-0.0007713514381304734,0.0008669725064966946,-0.00023916629079795144,-0.0007435046367087719,-2.4100823721258652e-05,0.00021678580627946384,-0.0016074329706283366,0.0,0.0,0.0,0.0,0.0,0.0,0.0,-0.00018437999155307416,-9.564359467895134e-05,-0.0001319846859894249,0.0003511783002241309,0.0001272130824126333,5.031585693338059e-05,1.4185007248812553e-06,0.0007713514381304734,-0.0008669725064966946,0.00023916629079795144,0.0007435046367087719,2.4100823721258652e-05,-0.00021678580627946384,0.0016074329706283366,0.3752071261405945,19.915613174438477,0.3990752398967743,-20.229524612426758,-0.7903953194618225,-2.4630770683288574,0.22830526530742645,0
44,0.21377062797546387,-0.3752071261405945,-19.891809463500977,-0.4228789508342743,20.205720901489258,0.7849021553993225,2.4630770683288574,-0.29605430364608765,0.0,0.0,0.0,0.0,0.0,0.0,0.0,-0.40522974636082876,-0.1206567996944909,-0.21093774701336687,0.4161028805183771,0.20205042896737163,0.09789335180018799,-0.2722280035557602,1.2136257737603104,-0.22014644028911812,-0.007377463391323012,-2.6041999563546367,-0.10901408001536578,2.468131809923384,0.8264808998214493,1.2134413937687574,-0.2202432315892585,-0.0075118285948192216,-2.6038483821997875,-0.10888392708698907,2.4681821257803174,0.826474908251239,-0.0006938706745987852,0.0009526811942734692,0.00040939353404147654,-3.035443159652851e-05,0.00019481536957613872,0.0002999951510223106,0.0010440876986283845,0.0,0.0,0.0,0.0,0.0,0.0,0.0,-0.00018437999155307416,-9.679130014036974e-05,-0.00013436520349620947,0.0003515741548492102,0.00013015292837670334,5.031585693338059e-05,-5.991570210306385e-06,0.0006938706745987852,-0.0009526811942734692,-0.00040939353404147654,3.035443159652851e-05,-0.00019481536957613872,-0.0002999951510223106,-0.0010440876986283845,0.3752071261405945,19.891809463500977,0.4228789508342743,-20.205720901489258,-0.7849021553993225,-2.4630770683288574,0.29605430364608765,0
45,0.21875357627868652,-0.3752071261405945,-19.891809463500977,-0.4228789508342743,20.205720901489258,0.7849021553993225,2.4630770683288574,-0.29605430364608765,0.0,0.0,0.0,0.0,0.0,0.0,0.0,-0.40522974636082876,-0.1206567996944909,-0.21093774701336687,0.4161028805183771,0.20205042896737163,0.09789335180018799,-0.2722280035557602,1.2136257737603104,-0.22014644028911812,-0.007377463391323012,-2.6041999563546367,-0.10901408001536578,2.468131809923384,0.8264808998214493,1.2134413937687574,-0.2202432315892585,-0.0075118285948192216,-2.6038483821997875,-0.10888392708698907,2.4681821257803174,0.826474908251239,-0.0006938706745987852,0.0009526811942734692,0.00040939353404147654,-3.035443159652851e-05,0.00019481536957613872,0.0002999951510223106,0.0010440876986283845,0.0,0.0,0.0,0.0,0.0,0.0,0.0,-0.00018437999155307416,-9.679130014036974e-05,-0.00013436520349620947,0.0003515741548492102,0.00013015292837670334,5.031585693338059e-05,-5.991570210306385e-06,0.0006938706745987852,-0.0009526811942734692,-0.00040939353404147654,3.035443159652851e-05,-0.00019481536957613872,-0.0002999951510223106,-0.0010440876986283845,0.3752071261405945,19.891809463500977,0.4228789508342743,-20.205720901489258,-0.7849021553993225,-2.4630770683288574,0.29605430364608765,0
46,0.22377967834472656,-0.4029781222343445,-19.816431045532227,-0.3990752398967743,20.205720901489258,0.7730002999305725,2.4694857597351074,-0.22830526530742645,0.0,0.0,0.0,0.0,0.0,0.0,0.0,-0.40240704929803206,-0.12256011056665417,-0.20944867721051658,0.4135728066099607,0.2022323938305601,0.09753764343150925,-0.27149119374312103,1.2136277226021415,-0.2201517211972031,-0.007379843904892845,-2.604199701225464,-0.10900847953855534,2.4681310841105115,0.8264766542184602,1.2134413937687574,-0.2202432315892585,-0.0075118285948192216,-2.6038483821997875,-0.10888392708698907,2.4681821257803174,0.826474908251239,8.823768099332136e-05,-0.0007731046376207794,0.0002784288678709213,-0.0007037846523329817,0.0004355368580605976,4.0545912061039844e-05,-0.0021364817568127557,0.0,0.0,0.0,0.0,0.0,0.0,0.0,-0.00018632883338409734,-9.151039205537725e-05,-0.00013198468992637637,0.000351319025676311,0.00012455245156627048,5.104166980585134e-05,-1.7459672211339594e-06,-8.823768099332136e-05,0.0007731046376207794,-0.0002784288678709213,0.0007037846523329817,-0.0004355368580605976,-4.0545912061039844e-05,0.0021364817568127557,0.4029781222343445,19.816431045532227,0.3990752398967743,-20.205720901489258,-0.7730002999305725,-2.4694857597351074,0.22830526530742645,0
47,0.22875213623046875,-0.4029781222343445,-19.816431045532227,-0.3990752398967743,20.205720901489258,0.7730002999305725,2.4694857597351074,-0.22830526530742645,0.0,0.0,0.0,0.0,0.0,0.0,0.0,-0.40240704929803206,-0.12256011056665417,-0.20944867721051658,0.4135728066099607,0.2022323938305601,0.09753764343150925,-0.27149119374312103,1.2136277226021415,-0.2201517211972031,-0.007379843904892845,-2.604199701225464,-0.10900847953855534,2.4681310841105115,0.8264766542184602,1.2134413937687574,-0.2202432315892585,-0.0075118285948192216,-2.6038483821997875,-0.10888392708698907,2.4681821257803174,0.826474908251239,8.823768099332136e-05,-0.0007731046376207794,0.0002784288678709213,-0.0007037846523329817,0.0004355368580605976,4.0545912061039844e-05,-0.0021364817568127557,0.0,0.0,0.0,0.0,0.0,0.0,0.0,-0.00018632883338409734,-9.151039205537725e-05,-0.00013198468992637637,0.000351319025676311,0.00012455245156627048,5.104166980585134e-05,-1.7459672211339594e-06,-8.823768099332136e-05,0.0007731046376207794,-0.0002784288678709213,0.0007037846523329817,-0.0004355368580605976,-4.0545912061039844e-05,0.0021364817568127557,0.4029781222343445,19.816431045532227,0.3990752398967743,-20.205720901489258,-0.7730002999305725,-2.4694857597351074,0.22830526530742645,0
48,0.23375821113586426,-0.4267818331718445,-19.844202041625977,-0.4228789508342743,20.181917190551758,0.7849021553993225,2.4823031425476074,-0.26217979192733765,0.0,0.0,0.0,0.0,0.0,0.0,0.0,-0.4014086166787076,-0.127470911878137,-0.20835398895584242,0.41955573851827965,0.20190527493161842,0.09916040257120819,-0.2720757288918351,1.2136286512913064,-0.22015022832091213,-0.007378173473045991,-2.604198285921229,-0.10901311404780505,2.4681296736928373,0.8264772531022061,1.2134413937687574,-0.2202432315892585,-0.0075118285948192216,-2.6038483821997875,-0.10888392708698907,2.4681821257803174,0.826474908251239,0.000648454238396017,-0.0003878907394720749,0.0009681889612354258,0.00011935252527663433,-0.0001202586274958334,-0.00034402308688761445,-0.0003500360780315574,0.0,0.0,0.0,0.0,0.0,0.0,0.0,-0.0001872575225490003,-9.300326834635331e-05,-0.00013365512177323027,0.0003499037214416134,0.0001291869608159718,5.245208748005936e-05,-2.344850967062051e-06,-0.000648454238396017,0.0003878907394720749,-0.0009681889612354258,-0.00011935252527663433,0.0001202586274958334,0.00034402308688761445,0.0003500360780315574,0.4267818331718445,19.844202041625977,0.4228789508342743,-20.181917190551758,-0.7849021553993225,-2.4823031425476074,0.26217979192733765,0
49,0.23875689506530762,-0.4267818331718445,-19.844202041625977,-0.4228789508342743,20.181917190551758,0.7849021553993225,2.4823031425476074,-0.26217979192733765,0.0,0.0,0.0,0.0,0.0,0.0,0.0,-0.4014086166787076,-0.127470911878137,-0.20835398895584242,0.41955573851827965,0.20190527493161842,0.09916040257120819,-0.2720757288918351,1.2136286512913064,-0.22015022832091213,-0.007378173473045991,-2.604198285921229,-0.10901311404780505,2.4681296736928373,0.8264772531022061,1.2134413937687574,-0.2202432315892585,-0.0075118285948192216,-2.6038483821997875,-0.10888392708698907,2.4681821257803174,0.826474908251239,0.000648454238396017,-0.0003878907394720749,0.0009681889612354258,0.00011935252527663433,-0.0001202586274958334,-0.00034402308688761445,-0.0003500360780315574,0.0,0.0,0.0,0.0,0.0,0.0,0.0,-0.0001872575225490003,-9.300326834635331e-05,-0.00013365512177323027,0.0003499037214416134,0.0001291869608159718,5.245208748005936e-05,-2.344850967062051e-06,-0.000648454238396017,0.0003878907394720749,-0.0009681889612354258,-0.00011935252527663433,0.0001202586274958334,0.00034402308688761445,0.0003500360780315574,0.4267818331718445,19.844202041625977,0.4228789508342743,-20.181917190551758,-0.7849021553993225,-2.4823031425476074,0.26217979192733765,0
50,0.2437577247619629,-0.4267818331718445,-19.844202041625977,-0.4228789508342743,20.181917190551758,0.7849021553993225,2.4823031425476074,-0.26217979192733765,0.0,0.0,0.0,0.0,0.0,0.0,0.0,-0.4014086166787076,-0.127470911878137,-0.20835398895584242,0.41955573851827965,0.20190527493161842,0.09916040257120819,-0.2720757288918351,1.2136286512913064,-0.22015022832091213,-0.007378173473045991,-2.604198285921229,-0.10901311404780505,2.4681296736928373,0.8264772531022061,1.2134413937687574,-0.2202432315892585,-0.0075118285948192216,-2.6038483821997875,-0.10888392708698907,2.4681821257803174,0.826474908251239,0.000648454238396017,-0.0003878907394720749,0.0009681889612354258,0.00011935252527663433,-0.0001202586274958334,-0.00034402308688761445,-0.0003500360780315574,0.0,0.0,0.0,0.0,0.0,0.0,0.0,-0.0001872575225490003,-9.300326834635331e-05,-0.00013365512177323027,0.0003499037214416134,0.0001291869608159718,5.245208748005936e-05,-2.344850967062051e-06,-0.000648454238396017,0.0003878907394720749,-0.0009681889612354258,-0.00011935252527663433,0.0001202586274958334,0.00034402308688761445,0.0003500360780315574,0.4267818331718445,19.844202041625977,0.4228789508342743,-20.181917190551758,-0.7849021553993225,-2.4823031425476074,0.26217979192733765,0
51,0.24871373176574707,-0.4267818331718445,-19.844202041625977,-0.4228789508342743,20.181917190551758,0.7849021553993225,2.4823031425476074,-0.26217979192733765,0.0,0.0,0.0,0.0,0.0,0.0,0.0,-0.4014086166787076,-0.127470911878137,-0.20835398895584242,0.41955573851827965,0.20190527493161842,0.09916040257120819,-0.2720757288918351,1.2136286512913064,-0.22015022832091213,-0.007378173473045991,-2.604198285921229,-0.10901311404780505,2.4681296736928373,0.8264772531022061,1.2134413937687574,-0.2202432315892585,-0.0075118285948192216,-2.6038483821997875,-0.10888392708698907,2.4681821257803174,0.826474908251239,0.000648454238396017,-0.0003878907394720749,0.0009681889612354258,0.00011935252527663433,-0.0001202586274958334,-0.00034402308688761445,-0.0003500360780315574,0.0,0.0,0.0,0.0,0.0,0.0,0.0,-0.0001872575225490003,-9.300326834635331e-05,-0.00013365512177323027,0.0003499037214416134,0.0001291869608159718,5.245208748005936e-05,-2.344850967062051e-06,-0.000648454238396017,0.0003878907394720749,-0.0009681889612354258,-0.00011935252527663433,0.0001202586274958334,0.00034402308688761445,0.0003500360780315574,0.4267818331718445,19.844202041625977,0.4228789508342743,-20.181917190551758,-0.7849021553993225,-2.4823031425476074,0.26217979192733765,0
52,0.2537539005279541,-0.4267818331718445,-19.868005752563477,-0.3990752398967743,20.229524612426758,0.7903953194618225,2.4694857597351074,-0.29605430364608765,0.0,0.0,0.0,0.0,0.0,0.0,0.0,-0.4064593684097197,-0.12428200545988556,-0.21162629180059056,0.4199292322819151,0.20179040523102845,0.09915356843854913,-0.27266593461199296,1.2136293930338098,-0.22015024556797796,-0.00737960721499361,-2.6042016239599572,-0.10901128604328086,2.468131097846561,0.8264831235439632,1.2134413937687574,-0.2202432315892585,-0.0075118285948192216,-2.6038483821997875,-0.10888392708698907,2.4681821257803174,0.826474908251239,0.00020566108248285488,0.0005523919751844873,-0.0005977835750881463,-0.0007806155220314407,-0.00026962739808544724,-3.3799371319664354e-05,0.0009778488598985887,0.0,0.0,0.0,0.0,0.0,0.0,0.0,-0.0001879992650524187,-9.298602128052225e-05,-0.00013222137982561114,0.0003532417601697091,0.00012735895629178984,5.102793375622028e-05,-8.215292724211842e-06,-0.00020566108248285488,-0.0005523919751844873,0.0005977835750881463,0.0007806155220314407,0.00026962739808544724,3.3799371319664354e-05,-0.0009778488598985887,0.4267818331718445,19.868005752563477,0.3990752398967743,-20.229524612426758,-0.7903953194618225,-2.4694857597351074,0.29605430364608765,0
53,0.2587623596191406,-0.4267818331718445,-19.868005752563477,-0.3990752398967743,20.229524612426758,0.7903953194618225,2.4694857597351074,-0.29605430364608765,0.0,0.0,0.0,0.0,0.0,0.0,0.0,-0.4064593684097197,-0.12428200545988556,-0.21162629180059056,0.4199292322819151,0.20179040523102845,0.09915356843854913,-0.27266593461199296,1.2136293930338098,-0.22015024556797796,-0.00737960721499361,-2.6042016239599572,-0.10901128604328086,2.468131097846561,0.8264831235439632,1.2134413937687574,-0.2202432315892585,-0.0075118285948192216,-2.6038483821997875,-0.10888392708698907,2.4681821257803174,0.826474908251239,0.00020566108248285488,0.0005523919751844873,-0.0005977835750881463,-0.0007806155220314407,-0.00026962739808544724,-3.3799371319664354e-05,0.0009778488598985887,0.0,0.0,0.0,0.0,0.0,0.0,0.0,-0.0001879992650524187,-9.298602128052225e-05,-0.00013222137982561114,0.0003532417601697091,0.00012735895629178984,5.102793375622028e-05,-8.215292724211842e-06,-0.00020566108248285488,-0.0005523919751844873,0.0005977835750881463,0.0007806155220314407,0.00026962739808544724,3.3799371319664354e-05,-0.0009778488598985887,0.4267818331718445,19.868005752563477,0.3990752398967743,-20.229524612426758,-0.7903953194618225,-2.4694857597351074,0.29605430364608765,0
54,0.2638068199157715,-0.3752071261405945,-19.844202041625977,-0.4228789508342743,20.205720901489258,0.7849021553993225,2.4694857597351074,-0.28964561223983765,0.0,0.0,0.0,0.0,0.0,0.0,0.0,-0.4025714430658612,-0.1171654619791725,-0.20677720767256333,0.4155315379599132,0.2012564227359283,0.09820905984496353,-0.273195151645128,1.2136257737603104,-0.2201526289343325,-0.00737817347170987,-2.6041999560435727,-0.10901301518070176,2.468131097846561,0.826482411694373,1.2134413937687574,-0.2202432315892585,-0.0075118285948192216,-2.6038483821997875,-0.10888392708698907,2.4681821257803174,0.826474908251239,-0.0005334627376043853,-4.519087848600246e-05,0.00011622150325010184,-0.000388983403281422,0.00011608859561887023,0.0001231143585364241,0.0005544445365894951,0.0,0.0,0.0,0.0,0.0,0.0,0.0,-0.00018437999155307416,-9.06026549259975e-05,-0.0001336551231093516,0.0003515738437851468,0.0001290880937126898,5.102793375622028e-05,-7.503443133938248e-06,0.0005334627376043853,4.519087848600246e-05,-0.00011622150325010184,0.000388983403281422,-0.00011608859561887023,-0.0001231143585364241,-0.0005544445365894951,0.3752071261405945,19.844202041625977,0.4228789508342743,-20.205720901489258,-0.7849021553993225,-2.4694857597351074,0.28964561223983765,0
55,0.26880574226379395,-0.3752071261405945,-19.844202041625977,-0.4228789508342743,20.205720901489258,0.7849021553993225,2.4694857597351074,-0.28964561223983765,0.0,0.0,0.0,0.0,0.0,0.0,0.0,-0.4025714430658612,-0.1171654619791725,-0.20677720767256333,0.4155315379599132,0.2012564227359283,0.09820905984496353,-0.273195151645128,1.2136257737603104,-0.2201526289343325,-0.00737817347170987,-2.6041999560435727,-0.10901301518070176,2.468131097846561,0.826482411694373,1.2134413937687574,-0.2202432315892585,-0.0075118285948192216,-2.6038483821997875,-0.10888392708698907,2.4681821257803174,0.826474908251239,-0.0005334627376043853,-4.519087848600246e-05,0.00011622150325010184,-0.000388983403281422,0.00011608859561887023,0.0001231143585364241,0.0005544445365894951,0.0,0.0,0.0,0.0,0.0,0.0,0.0,-0.00018437999155307416,-9.06026549259975e-05,-0.0001336551231093516,0.0003515738437851468,0.0001290880937126898,5.102793375622028e-05,-7.503443133938248e-06,0.0005334627376043853,4.519087848600246e-05,-0.00011622150325010184,0.000388983403281422,-0.00011608859561887023,-0.0001231143585364241,-0.0005544445365894951,0.3752071261405945,19.844202041625977,0.4228789508342743,-20.205720901489258,-0.7849021553993225,-2.4694857597351074,0.28964561223983765,0
56,0.27382540702819824,-0.3752071261405945,-19.868005752563477,-0.4228789508342743,20.205720901489258,0.7849021553993225,2.4694857597351074,-0.31711143255233765,0.0,0.0,0.0,0.0,0.0,0.0,0.0,-0.4103250143371152,-0.12499741041752373,-0.2155829831946615,0.4196872527287461,0.2019246968793795,0.09904320596451173,-0.27394318746371676,1.2136257737603104,-0.2201502423261826,-0.007378173148363005,-2.604199947855254,-0.10901384327424929,2.468131097846561,0.8264833572578802,1.2134413937687574,-0.2202432315892585,-0.0075118285948192216,-2.6038483821997875,-0.10888392708698907,2.4681821257803174,0.826474908251239,-0.001071792739432318,-9.542254379982588e-05,-0.0002592041336639535,-0.0005359007796651819,0.00018252466431524356,-5.44665048775917e-05,0.0014010297461480195,0.0,0.0,0.0,0.0,0.0,0.0,0.0,-0.00018437999155307416,-9.298926307588218e-05,-0.0001336554464562165,0.00035156565546667906,0.00012991618726021503,5.102793375622028e-05,-8.449006641209067e-06,0.001071792739432318,9.542254379982588e-05,0.0002592041336639535,0.0005359007796651819,-0.00018252466431524356,5.44665048775917e-05,-0.0014010297461480195,0.3752071261405945,19.868005752563477,0.4228789508342743,-20.205720901489258,-0.7849021553993225,-2.4694857597351074,0.31711143255233765,0
57,0.278761625289917,-0.3752071261405945,-19.868005752563477,-0.4228789508342743,20.205720901489258,0.7849021553993225,2.4694857597351074,-0.31711143255233765,0.0,0.0,0.0,0.0,0.0,0.0,0.0,-0.4103250143371152,-0.12499741041752373,-0.2155829831946615,0.4196872527287461,0.2019246968793795,0.09904320596451173,-0.27394318746371676,1.2136257737603104,-0.2201502423261826,-0.007378173148363005,-2.604199947855254,-0.10901384327424929,2.468131097846561,0.8264833572578802,1.2134413937687574,-0.2202432315892585,-0.0075118285948192216,-2.6038483821997875,-0.10888392708698907,2.4681821257803174,0.826474908251239,-0.001071792739432318,-9.542254379982588e-05,-0.0002592041336639535,-0.0005359007796651819,0.00018252466431524356,-5.44665048775917e-05,0.0014010297461480195,0.0,0.0,0.0,0.0,0.0,0.0,0.0,-0.00018437999155307416,-9.298926307588218e-05,-0.0001336554464562165,0.00035156565546667906,0.00012991618726021503,5.102793375622028e-05,-8.449006641209067e-06,0.001071792739432318,9.542254379982588e-05,0.0002592041336639535,0.0005359007796651819,-0.00018252466431524356,5.44665048775917e-05,-0.0014010297461480195,0.3752071261405945,19.868005752563477,0.4228789508342743,-20.205720901489258,-0.7849021553993225,-2.4694857597351074,0.31711143255233765,0
58,0.2837104797363281,-0.4029781222343445,-19.868005752563477,-0.4228789508342743,20.154146194458008,0.7903953194618225,2.4694857597351074,-0.30978721380233765,0.0,0.0,0.0,0.0,0.0,0.0,0.0,-0.4074576110454841,-0.11675889659926621,-0.21430434900401968,0.41168652290441315,0.2017452009640974,0.09712060434299626,-0.27472483959644256,1.2136276401858426,-0.2201509496005107,-0.007377463391321179,-2.6041962605513698,-0.10901372490896877,2.4681310977900344,0.826485329899729,1.2134413937687574,-0.2202432315892585,-0.0075118285948192216,-2.6038483821997875,-0.10888392708698907,2.4681821257803174,0.826474908251239,-7.9429608389501e-05,0.00039700760387504844,-4.0649293726732976e-05,0.0007042396865693443,-9.237561932429403e-05,-1.221559640386782e-05,0.001401767812801501,0.0,0.0,0.0,0.0,0.0,0.0,0.0,-0.00018624641708520073,-9.228198874777771e-05,-0.0001343652034980422,0.00034787835158223146,0.00012979782197969358,5.102799028300353e-05,-1.0421648489966628e-05,7.9429608389501e-05,-0.00039700760387504844,4.0649293726732976e-05,-0.0007042396865693443,9.237561932429403e-05,1.221559640386782e-05,-0.001401767812801501,0.4029781222343445,19.868005752563477,0.4228789508342743,-20.154146194458008,-0.7903953194618225,-2.4694857597351074,0.30978721380233765,0
59,0.28878116607666016,-0.4029781222343445,-19.868005752563477,-0.4228789508342743,20.154146194458008,0.7903953194618225,2.4694857597351074,-0.30978721380233765,0.0,0.0,0.0,0.0,0.0,0.0,0.0,-0.4074576110454841,-0.11675889659926621,-0.21430434900401968,0.41168652290441315,0.2017452009640974,0.09712060434299626,-0.27472483959644256,1.2136276401858426,-0.2201509496005107,-0.007377463391321179,-2.6041962605513698,-0.10901372490896877,2.4681310977900344,0.826485329899729,1.2134413937687574,-0.2202432315892585,-0.0075118285948192216,-2.6038483821997875,-0.10888392708698907,2.4681821257803174,0.826474908251239,-7.9429608389501e-05,0.00039700760387504844,-4.0649293726732976e-05,0.0007042396865693443,-9.237561932429403e-05,-1.221559640386782e-05,0.001401767812801501,0.0,0.0,0.0,0.0,0.0,0.0,0.0,-0.00018624641708520073,-9.228198874777771e-05,-0.0001343652034980422,0.00034787835158223146,0.00012979782197969358,5.102799028300353e-05,-1.0421648489966628e-05,7.9429608389501e-05,-0.00039700760387504844,4.0649293726732976e-05,-0.0007042396865693443,9.237561932429403e-05,1.221559640386782e-05,-0.001401767812801501,0.4029781222343445,19.868005752563477,0.4228789508342743,-20.154146194458008,-0.7903953194618225,-2.4694857597351074,0.30978721380233765,0
60,0.2937631607055664,-0.3514034152030945,-19.868005752563477,-0.4466826617717743,20.205720901489258,0.7849021553993225,2.4758944511413574,-0.30337852239608765,0.0,0.0,0.0,0.0,0.0,0.0,0.0,-0.40473285515054225,-0.12744738885606816,-0.21222321925770105,0.4202627839132435,0.20178170295575357,0.098342885455113,-0.2743168825570322,1.2136241033230593,-0.22015072107905007,-0.00737649425872443,-2.604199956357229,-0.10900958046030589,2.4681303857697374,0.8264814780041676,1.2134413937687574,-0.2202432315892585,-0.0075118285948192216,-2.6038483821997875,-0.10888392708698907,2.4681821257803174,0.826474908251239,-0.0007122511562583403,0.00028947746384391543,0.0011365827125682216,0.00010009701822889273,-6.003508513710635e-05,-8.281655925920382e-05,0.0012746430055445843,0.0,0.0,0.0,0.0,0.0,0.0,0.0,-0.0001827095543018853,-9.251051020842116e-05,-0.00013533433609479173,0.0003515741574413589,0.00012565337331681137,5.174001057994815e-05,-6.569752928564654e-06,0.0007122511562583403,-0.00028947746384391543,-0.0011365827125682216,-0.00010009701822889273,6.003508513710635e-05,8.281655925920382e-05,-0.0012746430055445843,0.3514034152030945,19.868005752563477,0.4466826617717743,-20.205720901489258,-0.7849021553993225,-2.4758944511413574,0.30337852239608765,0
61,0.29877209663391113,-0.3514034152030945,-19.868005752563477,-0.4466826617717743,20.205720901489258,0.7849021553993225,2.4758944511413574,-0.30337852239608765,0.0,0.0,0.0,0.0,0.0,0.0,0.0,-0.40473285515054225,-0.12744738885606816,-0.21222321925770105,0.4202627839132435,0.20178170295575357,0.098342885455113,-0.2743168825570322,1.2136241033230593,-0.22015072107905007,-0.00737649425872443,-2.604199956357229,-0.10900958046030589,2.4681303857697374,0.8264814780041676,1.2134413937687574,-0.2202432315892585,-0.0075118285948192216,-2.6038483821997875,-0.10888392708698907,2.4681821257803174,0.826474908251239,-0.0007122511562583403,0.00028947746384391543,0.0011365827125682216,0.00010009701822889273,-6.003508513710635e-05,-8.281655925920382e-05,0.0012746430055445843,0.0,0.0,0.0,0.0,0.0,0.0,0.0,-0.0001827095543018853,-9.251051020842116e-05,-0.00013533433609479173,0.0003515741574413589,0.00012565337331681137,5.174001057994815e-05,-6.569752928564654e-06,0.0007122511562583403,-0.00028947746384391543,-0.0011365827125682216,-0.00010009701822889273,6.003508513710635e-05,8.281655925920382e-05,-0.0012746430055445843,0.3514034152030945,19.868005752563477,0.4466826617717743,-20.205720901489258,-0.7849021553993225,-2.4758944511413574,0.30337852239608765,0
62,0.30376243591308594,-0.4267818331718445,-19.844202041625977,-0.3990752398967743,20.205720901489258,0.7968040108680725,2.4694857597351074,-0.26217979192733765,0.0,0.0,0.0,0.0,0.0,0.0,0.0,-0.4006677476788645,-0.1234310873400506,-0.2113733631085748,0.4158953750008679,0.20134218006853058,0.0976913239327457,-0.27423666037297173,1.2136293930379969,-0.22015025481341235,-0.007379842934835757,-2.604199947855256,-0.10901516535821813,2.468131097846561,0.8264793336105607,1.2134413937687574,-0.2202432315892585,-0.0075118285948192216,-2.6038483821997875,-0.10888392708698907,2.4681821257803174,0.826474908251239,0.0012500617106305234,-0.0006252592882405485,0.00021208863711294867,8.858986872028464e-06,-0.0003764494309048471,3.0324070964100694e-05,-0.0004463918145554882,0.0,0.0,0.0,0.0,0.0,0.0,0.0,-0.00018799926923951382,-9.297677584613195e-05,-0.00013198565998346484,0.0003515656554684554,0.00013123827122905884,5.102793375622028e-05,-4.425359321658107e-06,-0.0012500617106305234,0.0006252592882405485,-0.00021208863711294867,-8.858986872028464e-06,0.0003764494309048471,-3.0324070964100694e-05,0.0004463918145554882,0.4267818331718445,19.844202041625977,0.3990752398967743,-20.205720901489258,-0.7968040108680725,-2.4694857597351074,0.26217979192733765,0
63,0.30878639221191406,-0.4267818331718445,-19.844202041625977,-0.3990752398967743,20.205720901489258,0.7968040108680725,2.4694857597351074,-0.26217979192733765,0.0,0.0,0.0,0.0,0.0,0.0,0.0,-0.4006677476788645,-0.1234310873400506,-0.2113733631085748,0.4158953750008679,0.20134218006853058,0.0976913239327457,-0.27423666037297173,1.2136293930379969,-0.22015025481341235,-0.007379842934835757,-2.604199947855256,-0.10901516535821813,2.468131097846561,0.8264793336105607,1.2134413937687574,-0.2202432315892585,-0.0075118285948192216,-2.6038483821997875,-0.10888392708698907,2.4681821257803174,0.826474908251239,0.0012500617106305234,-0.0006252592882405485,0.00021208863711294867,8.858986872028464e-06,-0.0003764494309048471,3.0324070964100694e-05,-0.0004463918145554882,0.0,0.0,0.0,0.0,0.0,0.0,0.0,-0.00018799926923951382,-9.297677584613195e-05,-0.00013198565998346484,0.0003515656554684554,0.00013123827122905884,5.102793375622028e-05,-4.425359321658107e-06,-0.0012500617106305234,0.0006252592882405485,-0.00021208863711294867,-8.858986872028464e-06,0.0003764494309048471,-3.0324070964100694e-05,0.0004463918145554882,0.4267818331718445,19.844202041625977,0.3990752398967743,-20.205720901489258,-0.7968040108680725,-2.4694857597351074,0.26217979192733765,0
64,0.3137681484222412,-0.3752071261405945,-19.844202041625977,-0.3990752398967743,20.205720901489258,0.7849021553993225,2.4758944511413574,-0.23471395671367645,0.0,0.0,0.0,0.0,0.0,0.0,0.0,-0.4009543919104017,-0.12327609390975588,-0.2094901805171264,0.4154824290757688,0.20149570801533861,0.09810949737930541,-0.27412814028372073,1.2136257737603104,-0.22015038729307615,-0.0073797650109265565,-2.604199955413669,-0.10901268677899692,2.4681303857697383,0.8264729717946137,1.2134413937687574,-0.2202432315892585,-0.0075118285948192216,-2.6038483821997875,-0.10888392708698907,2.4681821257803174,0.826474908251239,-0.00018808452042582877,-0.0006152813554689092,0.0003244261060068303,-0.0003505866102848082,-8.116103626956825e-05,-1.4385622875228047e-05,-0.001798882747867705,0.0,0.0,0.0,0.0,0.0,0.0,0.0,-0.00018437999155307416,-9.284429618233725e-05,-0.0001320635838926651,0.000351573213881462,0.00012875969200784598,5.174001057905997e-05,1.9364566253843307e-06,0.00018808452042582877,0.0006152813554689092,-0.0003244261060068303,0.0003505866102848082,8.116103626956825e-05,1.4385622875228047e-05,0.001798882747867705,0.3752071261405945,19.844202041625977,0.3990752398967743,-20.205720901489258,-0.7849021553993225,-2.4758944511413574,0.23471395671367645,0
65,0.31870222091674805,-0.3752071261405945,-19.844202041625977,-0.3990752398967743,20.205720901489258,0.7849021553993225,2.4758944511413574,-0.23471395671367645,0.0,0.0,0.0,0.0,0.0,0.0,0.0,-0.4009543919104017,-0.12327609390975588,-0.2094901805171264,0.4154824290757688,0.20149570801533861,0.09810949737930541,-0.27412814028372073,1.2136257737603104,-0.22015038729307615,-0.0073797650109265565,-2.604199955413669,-0.10901268677899692,2.4681303857697383,0.8264729717946137,1.2134413937687574,-0.2202432315892585,-0.0075118285948192216,-2.6038483821997875,-0.10888392708698907,2.4681821257803174,0.826474908251239,-0.00018808452042582877,-0.0006152813554689092,0.0003244261060068303,-0.0003505866102848082,-8.116103626956825e-05,-1.4385622875228047e-05,-0.001798882747867705,0.0,0.0,0.0,0.0,0.0,0.0,0.0,-0.00018437999155307416,-9.284429618233725e-05,-0.0001320635838926651,0.000351573213881462,0.00012875969200784598,5.174001057905997e-05,1.9364566253843307e-06,0.00018808452042582877,0.0006152813554689092,-0.0003244261060068303,0.0003505866102848082,8.116103626956825e-05,1.4385622875228047e-05,0.001798882747867705,0.3752071261405945,19.844202041625977,0.3990752398967743,-20.205720901489258,-0.7849021553993225,-2.4758944511413574,0.23471395671367645,0
66,0.3237607479095459,-0.4029781222343445,-19.844202041625977,-0.3713042438030243,20.205720901489258,0.7903953194618225,2.4694857597351074,-0.24844686686992645,0.0,0.0,0.0,0.0,0.0,0.0,0.0,-0.4008090049674597,-0.11583676426876335,-0.2098513755980715,0.4163147104766407,0.20151992149433132,0.09873534413407864,-0.27508095924129483,1.2136277226021415,-0.22015191600473066,-0.007381056369240961,-2.6041999563585194,-0.10901366448665058,2.468131097846561,0.8264757273583426,1.2134413937687574,-0.2202432315892585,-0.0075118285948192216,-2.6038483821997875,-0.10888392708698907,2.4681821257803174,0.826474908251239,0.00046620615798711914,0.0006435096372364159,-0.0008128499402801521,0.00012231372542870211,-8.840455987346709e-05,-9.120033398387904e-05,-0.0009314780796637945,0.0,0.0,0.0,0.0,0.0,0.0,0.0,-0.00018632883338409734,-9.131558452782351e-05,-0.00013077222557826042,0.00035157415873188214,0.0001297373996615031,5.102793375622028e-05,-8.191071035890118e-07,-0.00046620615798711914,-0.0006435096372364159,0.0008128499402801521,-0.00012231372542870211,8.840455987346709e-05,9.120033398387904e-05,0.0009314780796637945,0.4029781222343445,19.844202041625977,0.3713042438030243,-20.205720901489258,-0.7903953194618225,-2.4694857597351074,0.24844686686992645,0
67,0.32875657081604004,-0.4029781222343445,-19.844202041625977,-0.3713042438030243,20.205720901489258,0.7903953194618225,2.4694857597351074,-0.24844686686992645,0.0,0.0,0.0,0.0,0.0,0.0,0.0,-0.4008090049674597,-0.11583676426876335,-0.2098513755980715,0.4163147104766407,0.20151992149433132,0.09873534413407864,-0.27508095924129483,1.2136277226021415,-0.22015191600473066,-0.007381056369240961,-2.6041999563585194,-0.10901366448665058,2.468131097846561,0.8264757273583426,1.2134413937687574,-0.2202432315892585,-0.0075118285948192216,-2.6038483821997875,-0.10888392708698907,2.4681821257803174,0.826474908251239,0.00046620615798711914,0.0006435096372364159,-0.0008128499402801521,0.00012231372542870211,-8.840455987346709e-05,-9.120033398387904e-05,-0.0009314780796637945,0.0,0.0,0.0,0.0,0.0,0.0,0.0,-0.00018632883338409734,-9.131558452782351e-05,-0.00013077222557826042,0.00035157415873188214,0.0001297373996615031,5.102793375622028e-05,-8.191071035890118e-07,-0.00046620615798711914,-0.0006435096372364159,0.0008128499402801521,-0.00012231372542870211,8.840455987346709e-05,9.120033398387904e-05,0.0009314780796637945,0.4029781222343445,19.844202041625977,0.3713042438030243,-20.205720901489258,-0.7903953194618225,-2.4694857597351074,0.24844686686992645,0
68,0.3337585926055908,-0.4029781222343445,-19.844202041625977,-0.4466826617717743,20.205720901489258,0.7903953194618225,2.4758944511413574,-0.26858848333358765,0.0,0.0,0.0,0.0,0.0,0.0,0.0,-0.39727721790955545,-0.12084704032014619,-0.20890171808350239,0.4208876182866635,0.20189373066429647,0.09862637953917486,-0.27563726391762544,1.2136277226021415,-0.22015262878965042,-0.007374136093957184,-2.6041999563585247,-0.10901342423184156,2.4681303857697383,0.8264779527252336,1.2134413937687574,-0.2202432315892585,-0.0075118285948192216,-2.6038483821997875,-0.10888392708698907,2.4681821257803174,0.826474908251239,5.8563667459152884e-05,-0.0002039921929789968,0.0004804231345266881,-0.000151120097348862,-4.8968962965056486e-05,-0.0003862616935319433,-0.0002283640544228345,0.0,0.0,0.0,0.0,0.0,0.0,0.0,-0.00018632883338409734,-9.060279960806938e-05,-0.00013769250086203763,0.0003515741587372112,0.00012949714485248343,5.174001057905997e-05,-3.0444739945734156e-06,-5.8563667459152884e-05,0.0002039921929789968,-0.0004804231345266881,0.000151120097348862,4.8968962965056486e-05,0.0003862616935319433,0.0002283640544228345,0.4029781222343445,19.844202041625977,0.4466826617717743,-20.205720901489258,-0.7903953194618225,-2.4758944511413574,0.26858848333358765,0
69,0.33876919746398926,-0.4029781222343445,-19.844202041625977,-0.4466826617717743,20.205720901489258,0.7903953194618225,2.4758944511413574,-0.26858848333358765,0.0,0.0,0.0,0.0,0.0,0.0,0.0,-0.39727721790955545,-0.12084704032014619,-0.20890171808350239,0.4208876182866635,0.20189373066429647,0.09862637953917486,-0.27563726391762544,1.2136277226021415,-0.22015262878965042,-0.007374136093957184,-2.6041999563585247,-0.10901342423184156,2.4681303857697383,0.8264779527252336,1.2134413937687574,-0.2202432315892585,-0.0075118285948192216,-2.6038483821997875,-0.10888392708698907,2.4681821257803174,0.826474908251239,5.8563667459152884e-05,-0.0002039921929789968,0.0004804231345266881,-0.000151120097348862,-4.8968962965056486e-05,-0.0003862616935319433,-0.0002283640544228345,0.0,0.0,0.0,0.0,0.0,0.0,0.0,-0.00018632883338409734,-9.060279960806938e-05,-0.00013769250086203763,0.0003515741587372112,0.00012949714485248343,5.174001057905997e-05,-3.0444739945734156e-06,-5.8563667459152884e-05,0.0002039921929789968,-0.0004804231345266881,0.000151120097348862,4.8968962965056486e-05,0.0003862616935319433,0.0002283640544228345,0.4029781222343445,19.844202041625977,0.4466826617717743,-20.205720901489258,-0.7903953194618225,-2.4758944511413574,0.26858848333358765,0
70,0.34375667572021484,-0.4029781222343445,-19.844202041625977,-0.4228789508342743,20.205720901489258,0.7784934639930725,2.4823031425476074,-0.24112264811992645,0.0,0.0,0.0,0.0,0.0,0.0,0.0,-0.394089295314076,-0.11670417182660753,-0.2078474395170286,0.41933101202688267,0.2021079970005689,0.09773230854372086,-0.27540894718904896,1.2136277226021415,-0.22015239162356512,-0.0073780945349924,-2.6041999563585247,-0.10900877637547392,2.4681296735233342,0.8264769925884603,1.2134413937687574,-0.2202432315892585,-0.0075118285948192216,-2.6038483821997875,-0.10888392708698907,2.4681821257803174,0.826474908251239,0.0002963572275635728,-0.0002308960519968246,7.059531248945006e-05,-0.0005382724499837952,0.0003556362621755666,-0.0004006083319742862,-0.001637528886278716,0.0,0.0,0.0,0.0,0.0,0.0,0.0,-0.00018632883338409734,-9.083996569336783e-05,-0.00013373405982682138,0.0003515741587372112,0.00012484928848484345,5.24522569831376e-05,-2.084337221264221e-06,-0.0002963572275635728,0.0002308960519968246,-7.059531248945006e-05,0.0005382724499837952,-0.0003556362621755666,0.0004006083319742862,0.001637528886278716,0.4029781222343445,19.844202041625977,0.4228789508342743,-20.205720901489258,-0.7784934639930725,-2.4823031425476074,0.24112264811992645,0
71,0.34870457649230957,-0.4029781222343445,-19.844202041625977,-0.4228789508342743,20.205720901489258,0.7784934639930725,2.4823031425476074,-0.24112264811992645,0.0,0.0,0.0,0.0,0.0,0.0,0.0,-0.394089295314076,-0.11670417182660753,-0.2078474395170286,0.41933101202688267,0.2021079970005689,0.09773230854372086,-0.27540894718904896,1.2136277226021415,-0.22015239162356512,-0.0073780945349924,-2.6041999563585247,-0.10900877637547392,2.4681296735233342,0.8264769925884603,1.2134413937687574,-0.2202432315892585,-0.0075118285948192216,-2.6038483821997875,-0.10888392708698907,2.4681821257803174,0.826474908251239,0.0002963572275635728,-0.0002308960519968246,7.059531248945006e-05,-0.0005382724499837952,0.0003556362621755666,-0.0004006083319742862,-0.001637528886278716,0.0,0.0,0.0,0.0,0.0,0.0,0.0,-0.00018632883338409734,-9.083996569336783e-05,-0.00013373405982682138,0.0003515741587372112,0.00012484928848484345,5.24522569831376e-05,-2.084337221264221e-06,-0.0002963572275635728,0.0002308960519968246,-7.059531248945006e-05,0.0005382724499837952,-0.0003556362621755666,0.0004006083319742862,0.001637528886278716,0.4029781222343445,19.844202041625977,0.4228789508342743,-20.205720901489258,-0.7784934639930725,-2.4823031425476074,0.24112264811992645,0
72,0.35375404357910156,-0.4505855441093445,-19.915613174438477,-0.4704863727092743,20.181917190551758,0.7784934639930725,2.4630770683288574,-0.30337852239608765,0.0,0.0,0.0,0.0,0.0,0.0,0.0,-0.3995386385129638,-0.11336224529949933,-0.2121699337426473,0.41695417755211694,0.2020410848911608,0.09812891636202654,-0.27434516756702054,1.2136310631221288,-0.22014758735561846,-0.007372702356017948,-2.6041982859226693,-0.10901336770220398,2.468130697303348,0.826484995600339,1.2134413937687574,-0.2202432315892585,-0.0075118285948192216,-2.6038483821997875,-0.10888392708698907,2.4681821257803174,0.826474908251239,0.0007234770436964788,0.0016084164525541132,0.001282349122811888,0.00019170222799983158,0.0003550111512181156,0.000180866992366909,0.00156905056142355,0.0,0.0,0.0,0.0,0.0,0.0,0.0,-0.00018966935337139113,-9.564423364002983e-05,-0.00013912623880127373,0.0003499037228817947,0.00012944061521490136,5.142847696948394e-05,-1.0087349099907605e-05,-0.0007234770436964788,-0.0016084164525541132,-0.001282349122811888,-0.00019170222799983158,-0.0003550111512181156,-0.000180866992366909,-0.00156905056142355,0.4505855441093445,19.915613174438477,0.4704863727092743,-20.181917190551758,-0.7784934639930725,-2.4630770683288574,0.30337852239608765,0
73,0.35880565643310547,-0.4505855441093445,-19.915613174438477,-0.4704863727092743,20.181917190551758,0.7784934639930725,2.4630770683288574,-0.30337852239608765,0.0,0.0,0.0,0.0,0.0,0.0,0.0,-0.3995386385129638,-0.11336224529949933,-0.2121699337426473,0.41695417755211694,0.2020410848911608,0.09812891636202654,-0.27434516756702054,1.2136310631221288,-0.22014758735561846,-0.007372702356017948,-2.6041982859226693,-0.10901336770220398,2.468130697303348,0.826484995600339,1.2134413937687574,-0.2202432315892585,-0.0075118285948192216,-2.6038483821997875,-0.10888392708698907,2.4681821257803174,0.826474908251239,0.0007234770436964788,0.0016084164525541132,0.001282349122811888,0.00019170222799983158,0.0003550111512181156,0.000180866992366909,0.00156905056142355,0.0,0.0,0.0,0.0,0.0,0.0,0.0,-0.00018966935337139113,-9.564423364002983e-05,-0.00013912623880127373,0.0003499037228817947,0.00012944061521490136,5.142847696948394e-05,-1.0087349099907605e-05,-0.0007234770436964788,-0.0016084164525541132,-0.001282349122811888,-0.00019170222799983158,-0.0003550111512181156,-0.000180866992366909,-0.00156905056142355,0.4505855441093445,19.915613174438477,0.4704863727092743,-20.181917190551758,-0.7784934639930725,-2.4630770683288574,0.30337852239608765,0
74,0.3637676239013672,-0.4505855441093445,-19.915613174438477,-0.4704863727092743,20.181917190551758,0.7784934639930725,2.4630770683288574,-0.30337852239608765,0.0,0.0,0.0,0.0,0.0,0.0,0.0,-0.3995386385129638,-0.11336224529949933,-0.2121699337426473,0.41695417755211694,0.2020410848911608,0.09812891636202654,-0.27434516756702054,1.2136310631221288,-0.22014758735561846,-0.007372702356017948,-2.6041982859226693,-0.10901336770220398,2.468130697303348,0.826484995600339,1.2134413937687574,-0.2202432315892585,-0.0075118285948192216,-2.6038483821997875,-0.10888392708698907,2.4681821257803174,0.826474908251239,0.0007234770436964788,0.0016084164525541132,0.001282349122811888,0.00019170222799983158,0.0003550111512181156,0.000180866992366909,0.00156905056142355,0.0,0.0,0.0,0.0,0.0,0.0,0.0,-0.00018966935337139113,-9.564423364002983e-05,-0.00013912623880127373,0.0003499037228817947,0.00012944061521490136,5.142847696948394e-05,-1.0087349099907605e-05,-0.0007234770436964788,-0.0016084164525541132,-0.001282349122811888,-0.00019170222799983158,-0.0003550111512181156,-0.000180866992366909,-0.00156905056142355,0.4505855441093445,19.915613174438477,0.4704863727092743,-20.181917190551758,-0.7784934639930725,-2.4630770683288574,0.30337852239608765,0
75,0.36912012100219727,-0.4505855441093445,-19.915613174438477,-0.4704863727092743,20.181917190551758,0.7784934639930725,2.4630770683288574,-0.30337852239608765,0.0,0.0,0.0,0.0,0.0,0.0,0.0,-0.3995386385129638,-0.11336224529949933,-0.2121699337426473,0.41695417755211694,0.2020410848911608,0.09812891636202654,-0.27434516756702054,1.2136310631221288,-0.22014758735561846,-0.007372702356017948,-2.6041982859226693,-0.10901336770220398,2.468130697303348,0.826484995600339,1.2134413937687574,-0.2202432315892585,-0.0075118285948192216,-2.6038483821997875,-0.10888392708698907,2.4681821257803174,0.826474908251239,0.0007234770436964788,0.0016084164525541132,0.001282349122811888,0.00019170222799983158,0.0003550111512181156,0.000180866992366909,0.00156905056142355,0.0,0.0,0.0,0.0,0.0,0.0,0.0,-0.00018966935337139113,-9.564423364002983e-05,-0.00013912623880127373,0.0003499037228817947,0.00012944061521490136,5.142847696948394e-05,-1.0087349099907605e-05,-0.0007234770436964788,-0.0016084164525541132,-0.001282349122811888,-0.00019170222799983158,-0.0003550111512181156,-0.000180866992366909,-0.00156905056142355,0.4505855441093445,19.915613174438477,0.4704863727092743,-20.181917190551758,-0.7784934639930725,-2.4630770683288574,0.30337852239608765,0
76,0.37429285049438477,-0.4029781222343445,-19.915613174438477,-0.4228789508342743,20.154146194458008,0.7849021553993225,2.4758944511413574,-0.30978721380233765,0.0,0.0,0.0,0.0,0.0,0.0,0.0,-0.40413281776203397,-0.11992754695745199,-0.21544979190006,0.4207191950944608,0.2019399662109604,0.09873918911533099,-0.2734243052072878,1.2136277226021395,-0.2201473773498482,-0.0073781705388737085,-2.604195648316054,-0.10900946040408158,2.4681303857634576,0.8264810128733606,1.2134413937687574,-0.2202432315892585,-0.0075118285948192216,-2.6038483821997875,-0.10888392708698907,2.4681821257803174,0.826474908251239,-0.0008107400789739147,0.001122317695934297,0.0001849080285011901,0.0010585408520793773,1.1808246084520266e-06,-0.00023840731547661965,0.0013322928936554937,0.0,0.0,0.0,0.0,0.0,0.0,0.0,-0.00018632883338209894,-9.585423941027571e-05,-0.00013365805594551302,0.00034726611626645365,0.00012553331709250215,5.1740016859813664e-05,-6.1046221215832475e-06,0.0008107400789739147,-0.001122317695934297,-0.0001849080285011901,-0.0010585408520793773,-1.1808246084520266e-06,0.00023840731547661965,-0.0013322928936554937,0.4029781222343445,19.915613174438477,0.4228789508342743,-20.154146194458008,-0.7849021553993225,-2.4758944511413574,0.30978721380233765,0
77,0.37875795364379883,-0.4029781222343445,-19.915613174438477,-0.4228789508342743,20.154146194458008,0.7849021553993225,2.4758944511413574,-0.30978721380233765,0.0,0.0,0.0,0.0,0.0,0.0,0.0,-0.40413281776203397,-0.11992754695745199,-0.21544979190006,0.4207191950944608,0.2019399662109604,0.09873918911533099,-0.2734243052072878,1.2136277226021395,-0.2201473773498482,-0.0073781705388737085,-2.604195648316054,-0.10900946040408158,2.4681303857634576,0.8264810128733606,1.2134413937687574,-0.2202432315892585,-0.0075118285948192216,-2.6038483821997875,-0.10888392708698907,2.4681821257803174,0.826474908251239,-0.0008107400789739147,0.001122317695934297,0.0001849080285011901,0.0010585408520793773,1.1808246084520266e-06,-0.00023840731547661965,0.0013322928936554937,0.0,0.0,0.0,0.0,0.0,0.0,0.0,-0.00018632883338209894,-9.585423941027571e-05,-0.00013365805594551302,0.00034726611626645365,0.00012553331709250215,5.1740016859813664e-05,-6.1046221215832475e-06,0.0008107400789739147,-0.001122317695934297,-0.0001849080285011901,-0.0010585408520793773,-1.1808246084520266e-06,0.00023840731547661965,-0.0013322928936554937,0.4029781222343445,19.915613174438477,0.4228789508342743,-20.154146194458008,-0.7849021553993225,-2.4758944511413574,0.30978721380233765,0
78,0.3837602138519287,-0.4029781222343445,-19.868005752563477,-0.4228789508342743,20.205720901489258,0.7849021553993225,2.4758944511413574,-0.30337852239608765,0.0,0.0,0.0,0.0,0.0,0.0,0.0,-0.4018082473536744,-0.11575441494113226,-0.2103973286586317,0.41591042662806627,0.20159208091357222,0.09827490850484705,-0.2737256444474844,1.2136277226021415,-0.22015023744180587,-0.007378173473029451,-2.6041997266613968,-0.10901384325418247,2.4681303856001575,0.8264849660203025,1.2134413937687574,-0.2202432315892585,-0.0075118285948192216,-2.6038483821997875,-0.10888392708698907,2.4681821257803174,0.826474908251239,0.00019126187861321742,0.000495099472568521,0.000513989061637566,-0.0003883498310797199,0.0001305721806556736,-0.00017131810120568576,0.000981918689593249,0.0,0.0,0.0,0.0,0.0,0.0,0.0,-0.00018632883338409734,-9.299414745261858e-05,-0.00013365512178977086,0.0003513444616092265,0.00012991616719339183,5.174018015985382e-05,-1.005776906348732e-05,-0.00019126187861321742,-0.000495099472568521,-0.000513989061637566,0.0003883498310797199,-0.0001305721806556736,0.00017131810120568576,-0.000981918689593249,0.4029781222343445,19.868005752563477,0.4228789508342743,-20.205720901489258,-0.7849021553993225,-2.4758944511413574,0.30337852239608765,0
79,0.38875746726989746,-0.4029781222343445,-19.868005752563477,-0.4228789508342743,20.205720901489258,0.7849021553993225,2.4758944511413574,-0.30337852239608765,0.0,0.0,0.0,0.0,0.0,0.0,0.0,-0.4018082473536744,-0.11575441494113226,-0.2103973286586317,0.41591042662806627,0.20159208091357222,0.09827490850484705,-0.2737256444474844,1.2136277226021415,-0.22015023744180587,-0.007378173473029451,-2.6041997266613968,-0.10901384325418247,2.4681303856001575,0.8264849660203025,1.2134413937687574,-0.2202432315892585,-0.0075118285948192216,-2.6038483821997875,-0.10888392708698907,2.4681821257803174,0.826474908251239,0.00019126187861321742,0.000495099472568521,0.000513989061637566,-0.0003883498310797199,0.0001305721806556736,-0.00017131810120568576,0.000981918689593249,0.0,0.0,0.0,0.0,0.0,0.0,0.0,-0.00018632883338409734,-9.299414745261858e-05,-0.00013365512178977086,0.0003513444616092265,0.00012991616719339183,5.174018015985382e-05,-1.005776906348732e-05,-0.00019126187861321742,-0.000495099472568521,-0.000513989061637566,0.0003883498310797199,-0.0001305721806556736,0.00017131810120568576,-0.000981918689593249,0.4029781222343445,19.868005752563477,0.4228789508342743,-20.205720901489258,-0.7849021553993225,-2.4758944511413574,0.30337852239608765,0
