rezayati/contactInterpretation/dataset/franka_main/labeled_data/link6/b11_7.csv
index,time,tau_J0,tau_J1,tau_J2,tau_J3,tau_J4,tau_J5,tau_J6,tau_J_d0,tau_J_d1,tau_J_d2,tau_J_d3,tau_J_d4,tau_J_d5,tau_J_d6,tau_ext0,tau_ext1,tau_ext2,tau_ext3,tau_ext4,tau_ext5,tau_ext6,q0,q1,q2,q3,q4,q5,q6,q_d0,q_d1,q_d2,q_d3,q_d4,q_d5,q_d6,dq0,dq1,dq2,dq3,dq4,dq5,dq6,dq_d0,dq_d1,dq_d2,dq_d3,dq_d4,dq_d5,dq_d6,e0,e1,e2,e3,e4,e5,e6,de0,de1,de2,de3,de4,de5,de6,etau_J0,etau_J1,etau_J2,etau_J3,etau_J4,etau_J5,etau_J6,label
1,0.0,-0.24825400114059448,-11.850122451782227,1.0410492420196533,21.915620803833008,0.4452415108680725,2.5399813652038574,-0.28964561223983765,0.0,0.0,0.0,0.0,0.0,0.0,0.0,-0.26596462628297146,0.4993992508278595,-0.18207088209556,0.6174512587333946,-0.08781612031488481,0.1353616360629969,-0.31465826625738563,0.1729098577185681,-0.48732836700740606,-0.11137615458693419,-1.9466005623389908,0.13344521731297618,2.595390864107344,0.945261123926233,0.1728802376190821,-0.48752024683155326,-0.11147110072896137,-1.9463801863486305,0.1336059019074957,2.595550359778934,0.9452445589611904,0.00011893823231722772,-0.0004802090112802941,-0.00036057968504231886,-0.0002802793074517233,0.00016404133586759095,-0.00011199067535092395,7.64221155369839e-05,0.0,0.0,0.0,0.0,0.0,0.0,0.0,-2.9620099485982987e-05,-0.00019187982414720084,-9.494614202718021e-05,0.00022037599036028865,0.00016068459451951123,0.00015949567159001532,-1.6564965042542568e-05,-0.00011893823231722772,0.0004802090112802941,0.00036057968504231886,0.0002802793074517233,-0.00016404133586759095,0.00011199067535092395,-7.64221155369839e-05,0.24825400114059448,11.850122451782227,-1.0410492420196533,-21.915620803833008,-0.4452415108680725,-2.5399813652038574,0.28964561223983765,0
2,0.004994630813598633,-0.3236324191093445,-11.901697158813477,0.9696381092071533,21.915620803833008,0.4388328194618225,2.5537142753601074,-0.33725303411483765,0.0,0.0,0.0,0.0,0.0,0.0,0.0,-0.2808945682515963,0.48547731537522004,-0.20693694372605242,0.6229058823674178,-0.08621501216877485,0.13694782839177413,-0.31354419582103604,0.17291514743210976,-0.4873254629814193,-0.11137114327936841,-1.946603308925963,0.13344592647054,2.5953893382284376,0.9452664404762363,0.1728802376190821,-0.48752024683155326,-0.11147110072896137,-1.9463801863486305,0.1336059019074957,2.595550359778934,0.9452445589611904,0.0005119015163771367,0.00024987890504646625,0.00017752043477037687,0.00011821369706587372,0.0003576894081279281,-0.0005866408678619035,0.001107371617108396,0.0,0.0,0.0,0.0,0.0,0.0,0.0,-3.490981302764484e-05,-0.0001947838501339394,-9.995744959295783e-05,0.00022312257733236862,0.0001599754369557005,0.00016102155049635414,-2.1881515045896194e-05,-0.0005119015163771367,-0.00024987890504646625,-0.00017752043477037687,-0.00011821369706587372,-0.0003576894081279281,0.0005866408678619035,-0.001107371617108396,0.3236324191093445,11.901697158813477,-0.9696381092071533,-21.915620803833008,-0.4388328194618225,-2.5537142753601074,0.33725303411483765,0
3,0.009995222091674805,-0.3236324191093445,-11.901697158813477,0.9696381092071533,21.915620803833008,0.4388328194618225,2.5537142753601074,-0.33725303411483765,0.0,0.0,0.0,0.0,0.0,0.0,0.0,-0.2808945682515963,0.48547731537522004,-0.20693694372605242,0.6229058823674178,-0.08621501216877485,0.13694782839177413,-0.31354419582103604,0.17291514743210976,-0.4873254629814193,-0.11137114327936841,-1.946603308925963,0.13344592647054,2.5953893382284376,0.9452664404762363,0.1728802376190821,-0.48752024683155326,-0.11147110072896137,-1.9463801863486305,0.1336059019074957,2.595550359778934,0.9452445589611904,0.0005119015163771367,0.00024987890504646625,0.00017752043477037687,0.00011821369706587372,0.0003576894081279281,-0.0005866408678619035,0.001107371617108396,0.0,0.0,0.0,0.0,0.0,0.0,0.0,-3.490981302764484e-05,-0.0001947838501339394,-9.995744959295783e-05,0.00022312257733236862,0.0001599754369557005,0.00016102155049635414,-2.1881515045896194e-05,-0.0005119015163771367,-0.00024987890504646625,-0.00017752043477037687,-0.00011821369706587372,-0.0003576894081279281,0.0005866408678619035,-0.001107371617108396,0.3236324191093445,11.901697158813477,-0.9696381092071533,-21.915620803833008,-0.4388328194618225,-2.5537142753601074,0.33725303411483765,0
4,0.014991521835327148,-0.3236324191093445,-11.873926162719727,0.9696381092071533,21.915620803833008,0.4452415108680725,2.5399813652038574,-0.31711143255233765,0.0,0.0,0.0,0.0,0.0,0.0,0.0,-0.2764496268149579,0.5100023701258923,-0.19694631156512452,0.6058773216689634,-0.0871169659866388,0.13402518429012367,-0.31448221397839055,0.17291514743210976,-0.4873274118272881,-0.11137114327936841,-1.9466032834316607,0.13344521878160542,2.595390864107344,0.9452610648144201,0.1728802376190821,-0.48752024683155326,-0.11147110072896137,-1.9463801863486305,0.1336059019074957,2.595550359778934,0.9452445589611904,-0.0003815513116516249,0.0008515016136659825,0.00046064179459697955,-0.0005761811016363076,-2.1370281510952296e-05,-0.0002591374373560332,0.0002786976718735857,0.0,0.0,0.0,0.0,0.0,0.0,0.0,-3.490981302764484e-05,-0.0001928350042651461,-9.995744959295783e-05,0.00022309708303014375,0.00016068312589026523,0.00015949567159001532,-1.650585322965359e-05,0.0003815513116516249,-0.0008515016136659825,-0.00046064179459697955,0.0005761811016363076,2.1370281510952296e-05,0.0002591374373560332,-0.0002786976718735857,0.3236324191093445,11.873926162719727,-0.9696381092071533,-21.915620803833008,-0.4452415108680725,-2.5399813652038574,0.31711143255233765,0
5,0.02001476287841797,-0.3236324191093445,-11.873926162719727,0.9696381092071533,21.915620803833008,0.4452415108680725,2.5399813652038574,-0.31711143255233765,0.0,0.0,0.0,0.0,0.0,0.0,0.0,-0.2764496268149579,0.5100023701258923,-0.19694631156512452,0.6058773216689634,-0.0871169659866388,0.13402518429012367,-0.31448221397839055,0.17291514743210976,-0.4873274118272881,-0.11137114327936841,-1.9466032834316607,0.13344521878160542,2.595390864107344,0.9452610648144201,0.1728802376190821,-0.48752024683155326,-0.11147110072896137,-1.9463801863486305,0.1336059019074957,2.595550359778934,0.9452445589611904,-0.0003815513116516249,0.0008515016136659825,0.00046064179459697955,-0.0005761811016363076,-2.1370281510952296e-05,-0.0002591374373560332,0.0002786976718735857,0.0,0.0,0.0,0.0,0.0,0.0,0.0,-3.490981302764484e-05,-0.0001928350042651461,-9.995744959295783e-05,0.00022309708303014375,0.00016068312589026523,0.00015949567159001532,-1.650585322965359e-05,0.0003815513116516249,-0.0008515016136659825,-0.00046064179459697955,0.0005761811016363076,2.1370281510952296e-05,0.0002591374373560332,-0.0002786976718735857,0.3236324191093445,11.873926162719727,-0.9696381092071533,-21.915620803833008,-0.4452415108680725,-2.5399813652038574,0.31711143255233765,0
6,0.02502751350402832,-0.2720577120780945,-11.774744033813477,1.0172455310821533,21.891817092895508,0.4507346749305725,2.5271639823913574,-0.27591270208358765,0.0,0.0,0.0,0.0,0.0,0.0,0.0,-0.2746718345092925,0.5097438248387958,-0.18180648573475797,0.6074714832136536,-0.08812014470447564,0.1340745214364522,-0.3156946937178321,0.17291152815442337,-0.4873343690332458,-0.11137448415107892,-1.9466016440693357,0.13344140964746473,2.5953922882609897,0.9452552445925612,0.1728802376190821,-0.48752024683155326,-0.11147110072896137,-1.9463801863486305,0.1336059019074957,2.595550359778934,0.9452445589611904,-0.00010007501587894365,-0.0006231923755336868,-9.677886187999148e-05,0.0005068497150610207,-0.00010905100469509465,0.00038609043685933436,-0.0012541269277556374,0.0,0.0,0.0,0.0,0.0,0.0,0.0,-3.1290535341260695e-05,-0.00018587779830747664,-9.661657788244404e-05,0.0002214577207051427,0.0001644922600309573,0.00015807151794433594,-1.0685631370743742e-05,0.00010007501587894365,0.0006231923755336868,9.677886187999148e-05,-0.0005068497150610207,0.00010905100469509465,-0.00038609043685933436,0.0012541269277556374,0.2720577120780945,11.774744033813477,-1.0172455310821533,-21.891817092895508,-0.4507346749305725,-2.5271639823913574,0.27591270208358765,0
7,0.029999494552612305,-0.2720577120780945,-11.774744033813477,1.0172455310821533,21.891817092895508,0.4507346749305725,2.5271639823913574,-0.27591270208358765,0.0,0.0,0.0,0.0,0.0,0.0,0.0,-0.2746718345092925,0.5097438248387958,-0.18180648573475797,0.6074714832136536,-0.08812014470447564,0.1340745214364522,-0.3156946937178321,0.17291152815442337,-0.4873343690332458,-0.11137448415107892,-1.9466016440693357,0.13344140964746473,2.5953922882609897,0.9452552445925612,0.1728802376190821,-0.48752024683155326,-0.11147110072896137,-1.9463801863486305,0.1336059019074957,2.595550359778934,0.9452445589611904,-0.00010007501587894365,-0.0006231923755336868,-9.677886187999148e-05,0.0005068497150610207,-0.00010905100469509465,0.00038609043685933436,-0.0012541269277556374,0.0,0.0,0.0,0.0,0.0,0.0,0.0,-3.1290535341260695e-05,-0.00018587779830747664,-9.661657788244404e-05,0.0002214577207051427,0.0001644922600309573,0.00015807151794433594,-1.0685631370743742e-05,0.00010007501587894365,0.0006231923755336868,9.677886187999148e-05,-0.0005068497150610207,0.00010905100469509465,-0.00038609043685933436,0.0012541269277556374,0.2720577120780945,11.774744033813477,-1.0172455310821533,-21.891817092895508,-0.4507346749305725,-2.5271639823913574,0.27591270208358765,0
8,0.034998178482055664,-0.22445029020309448,-11.802515029907227,1.0688202381134033,21.891817092895508,0.4452415108680725,2.5271639823913574,-0.31711143255233765,0.0,0.0,0.0,0.0,0.0,0.0,0.0,-0.2732833628196291,0.49529441655277445,-0.17740046244757848,0.6147469460434839,-0.08799354471161916,0.13498763375734416,-0.31610869209028963,0.17290818728271284,-0.4873302773676254,-0.11137810342876533,-1.9466016470089127,0.13344520559985856,2.5953922882609897,0.9452602381220213,0.1728802376190821,-0.48752024683155326,-0.11147110072896137,-1.9463801863486305,0.1336059019074957,2.595550359778934,0.9452445589611904,-0.00032914880853832416,-0.0005931103333839454,-0.00010069606451539769,-1.0151861819798665e-05,6.45944885179462e-05,0.00012437912579160539,3.08535039777358e-05,0.0,0.0,0.0,0.0,0.0,0.0,0.0,-2.7949663630733035e-05,-0.00018996946392785263,-9.299730019603214e-05,0.00022146066028216893,0.00016069630763712595,0.00015807151794433594,-1.5679160830894823e-05,0.00032914880853832416,0.0005931103333839454,0.00010069606451539769,1.0151861819798665e-05,-6.45944885179462e-05,-0.00012437912579160539,-3.08535039777358e-05,0.22445029020309448,11.802515029907227,-1.0688202381134033,-21.891817092895508,-0.4452415108680725,-2.5271639823913574,0.31711143255233765,0
9,0.03999638557434082,-0.22445029020309448,-11.802515029907227,1.0688202381134033,21.891817092895508,0.4452415108680725,2.5271639823913574,-0.31711143255233765,0.0,0.0,0.0,0.0,0.0,0.0,0.0,-0.2732833628196291,0.49529441655277445,-0.17740046244757848,0.6147469460434839,-0.08799354471161916,0.13498763375734416,-0.31610869209028963,0.17290818728271284,-0.4873302773676254,-0.11137810342876533,-1.9466016470089127,0.13344520559985856,2.5953922882609897,0.9452602381220213,0.1728802376190821,-0.48752024683155326,-0.11147110072896137,-1.9463801863486305,0.1336059019074957,2.595550359778934,0.9452445589611904,-0.00032914880853832416,-0.0005931103333839454,-0.00010069606451539769,-1.0151861819798665e-05,6.45944885179462e-05,0.00012437912579160539,3.08535039777358e-05,0.0,0.0,0.0,0.0,0.0,0.0,0.0,-2.7949663630733035e-05,-0.00018996946392785263,-9.299730019603214e-05,0.00022146066028216893,0.00016069630763712595,0.00015807151794433594,-1.5679160830894823e-05,0.00032914880853832416,0.0005931103333839454,0.00010069606451539769,1.0151861819798665e-05,-6.45944885179462e-05,-0.00012437912579160539,-3.08535039777358e-05,0.22445029020309448,11.802515029907227,-1.0688202381134033,-21.891817092895508,-0.4452415108680725,-2.5271639823913574,0.31711143255233765,0
10,0.04499411582946777,-0.22445029020309448,-11.826318740844727,1.0926239490509033,21.915620803833008,0.4388328194618225,2.5399813652038574,-0.28964561223983765,0.0,0.0,0.0,0.0,0.0,0.0,0.0,-0.2722875841653842,0.500627989680928,-0.1827866277539912,0.6112596270295304,-0.08711700216572078,0.13465207890732558,-0.3164002585515599,0.17290818728271284,-0.48733075268688575,-0.1113797738646206,-1.9466032405654354,0.13344486459751104,2.595390864107344,0.9452611643150113,0.1728802376190821,-0.48752024683155326,-0.11147110072896137,-1.9463801863486305,0.1336059019074957,2.595550359778934,0.9452445589611904,1.972484722262769e-05,0.00023415570154674216,-0.000800931272719363,-0.0008584379587831179,0.0003349378628591613,-0.0002546326693505051,-0.0011832813982137686,0.0,0.0,0.0,0.0,0.0,0.0,0.0,-2.7949663630733035e-05,-0.00018949414466751247,-9.132686434076831e-05,0.00022305421680490767,0.00016103730998465182,0.00015949567159001532,-1.6605353820864366e-05,-1.972484722262769e-05,-0.00023415570154674216,0.000800931272719363,0.0008584379587831179,-0.0003349378628591613,0.0002546326693505051,0.0011832813982137686,0.22445029020309448,11.826318740844727,-1.0926239490509033,-21.915620803833008,-0.4388328194618225,-2.5399813652038574,0.28964561223983765,0
11,0.049996137619018555,-0.22445029020309448,-11.826318740844727,1.0926239490509033,21.915620803833008,0.4388328194618225,2.5399813652038574,-0.28964561223983765,0.0,0.0,0.0,0.0,0.0,0.0,0.0,-0.2722875841653842,0.500627989680928,-0.1827866277539912,0.6112596270295304,-0.08711700216572078,0.13465207890732558,-0.3164002585515599,0.17290818728271284,-0.48733075268688575,-0.1113797738646206,-1.9466032405654354,0.13344486459751104,2.595390864107344,0.9452611643150113,0.1728802376190821,-0.48752024683155326,-0.11147110072896137,-1.9463801863486305,0.1336059019074957,2.595550359778934,0.9452445589611904,1.972484722262769e-05,0.00023415570154674216,-0.000800931272719363,-0.0008584379587831179,0.0003349378628591613,-0.0002546326693505051,-0.0011832813982137686,0.0,0.0,0.0,0.0,0.0,0.0,0.0,-2.7949663630733035e-05,-0.00018949414466751247,-9.132686434076831e-05,0.00022305421680490767,0.00016103730998465182,0.00015949567159001532,-1.6605353820864366e-05,-1.972484722262769e-05,-0.00023415570154674216,0.000800931272719363,0.0008584379587831179,-0.0003349378628591613,0.0002546326693505051,0.0011832813982137686,0.22445029020309448,11.826318740844727,-1.0926239490509033,-21.915620803833008,-0.4388328194618225,-2.5399813652038574,0.28964561223983765,0
12,0.05499625205993652,-0.2720577120780945,-11.826318740844727,0.9696381092071533,21.868013381958008,0.4388328194618225,2.5271639823913574,-0.33725303411483765,0.0,0.0,0.0,0.0,0.0,0.0,0.0,-0.2762244115102308,0.4949533065121561,-0.18979808910781854,0.6143529867353369,-0.08597788577079142,0.1353435378157686,-0.3171180111442444,0.17291152815442337,-0.4873307526989986,-0.11137114327936841,-1.9465999736332387,0.133445930852434,2.5953922882609897,0.9452622181310323,0.1728802376190821,-0.48752024683155326,-0.11147110072896137,-1.9463801863486305,0.1336059019074957,2.595550359778934,0.9452445589611904,-3.933881105281076e-05,-0.00013077917825499467,0.0010775652293726749,0.0007834965444411113,0.0005562551970780279,0.0004415499855739778,0.0019282120812790713,0.0,0.0,0.0,0.0,0.0,0.0,0.0,-3.1290535341260695e-05,-0.0001894941325546462,-9.995744959295783e-05,0.00021978728460814168,0.00015997105506168618,0.00015807151794433594,-1.7659169841865996e-05,3.933881105281076e-05,0.00013077917825499467,-0.0010775652293726749,-0.0007834965444411113,-0.0005562551970780279,-0.0004415499855739778,-0.0019282120812790713,0.2720577120780945,11.826318740844727,-0.9696381092071533,-21.868013381958008,-0.4388328194618225,-2.5271639823913574,0.33725303411483765,0
13,0.05999588966369629,-0.2720577120780945,-11.826318740844727,0.9696381092071533,21.868013381958008,0.4388328194618225,2.5271639823913574,-0.33725303411483765,0.0,0.0,0.0,0.0,0.0,0.0,0.0,-0.2762244115102308,0.4949533065121561,-0.18979808910781854,0.6143529867353369,-0.08597788577079142,0.1353435378157686,-0.3171180111442444,0.17291152815442337,-0.4873307526989986,-0.11137114327936841,-1.9465999736332387,0.133445930852434,2.5953922882609897,0.9452622181310323,0.1728802376190821,-0.48752024683155326,-0.11147110072896137,-1.9463801863486305,0.1336059019074957,2.595550359778934,0.9452445589611904,-3.933881105281076e-05,-0.00013077917825499467,0.0010775652293726749,0.0007834965444411113,0.0005562551970780279,0.0004415499855739778,0.0019282120812790713,0.0,0.0,0.0,0.0,0.0,0.0,0.0,-3.1290535341260695e-05,-0.0001894941325546462,-9.995744959295783e-05,0.00021978728460814168,0.00015997105506168618,0.00015807151794433594,-1.7659169841865996e-05,3.933881105281076e-05,0.00013077917825499467,-0.0010775652293726749,-0.0007834965444411113,-0.0005562551970780279,-0.0004415499855739778,-0.0019282120812790713,0.2720577120780945,11.826318740844727,-0.9696381092071533,-21.868013381958008,-0.4388328194618225,-2.5271639823913574,0.33725303411483765,0
14,0.06499552726745605,-0.2998287081718445,-11.826318740844727,0.9934418201446533,21.915620803833008,0.4388328194618225,2.5335726737976074,-0.30978721380233765,0.0,0.0,0.0,0.0,0.0,0.0,0.0,-0.271944128356586,0.502012953516524,-0.17848250463454127,0.6100876341280397,-0.086509897359806,0.13486635222273588,-0.31624103820626576,0.1729134769962545,-0.48733075269899867,-0.11137281371522367,-1.946603314610345,0.13344593085845305,2.595391576184167,0.9452637303759512,0.1728802376190821,-0.48752024683155326,-0.11147110072896137,-1.9463801863486305,0.1336059019074957,2.595550359778934,0.9452445589611904,-0.00021603566759844915,-0.00022759745196280885,-0.00024679186991027094,-0.0005593618431711954,0.0002814463165456112,0.0001494720964256106,6.123432447411353e-05,0.0,0.0,0.0,0.0,0.0,0.0,0.0,-3.323937717239489e-05,-0.0001894941325545907,-9.8287013737694e-05,0.00022312826171444478,0.0001599710490426398,0.00015878359476717563,-1.9171414760821293e-05,0.00021603566759844915,0.00022759745196280885,0.00024679186991027094,0.0005593618431711954,-0.0002814463165456112,-0.0001494720964256106,-6.123432447411353e-05,0.2998287081718445,11.826318740844727,-0.9934418201446533,-21.915620803833008,-0.4388328194618225,-2.5335726737976074,0.30978721380233765,0
15,0.06999564170837402,-0.2998287081718445,-11.826318740844727,0.9934418201446533,21.915620803833008,0.4388328194618225,2.5335726737976074,-0.30978721380233765,0.0,0.0,0.0,0.0,0.0,0.0,0.0,-0.271944128356586,0.502012953516524,-0.17848250463454127,0.6100876341280397,-0.086509897359806,0.13486635222273588,-0.31624103820626576,0.1729134769962545,-0.48733075269899867,-0.11137281371522367,-1.946603314610345,0.13344593085845305,2.595391576184167,0.9452637303759512,0.1728802376190821,-0.48752024683155326,-0.11147110072896137,-1.9463801863486305,0.1336059019074957,2.595550359778934,0.9452445589611904,-0.00021603566759844915,-0.00022759745196280885,-0.00024679186991027094,-0.0005593618431711954,0.0002814463165456112,0.0001494720964256106,6.123432447411353e-05,0.0,0.0,0.0,0.0,0.0,0.0,0.0,-3.323937717239489e-05,-0.0001894941325545907,-9.8287013737694e-05,0.00022312826171444478,0.0001599710490426398,0.00015878359476717563,-1.9171414760821293e-05,0.00021603566759844915,0.00022759745196280885,0.00024679186991027094,0.0005593618431711954,-0.0002814463165456112,-0.0001494720964256106,-6.123432447411353e-05,0.2998287081718445,11.826318740844727,-0.9934418201446533,-21.915620803833008,-0.4388328194618225,-2.5335726737976074,0.30978721380233765,0
16,0.07540678977966309,-0.2998287081718445,-11.850122451782227,0.9696381092071533,21.915620803833008,0.4452415108680725,2.5399813652038574,-0.34457725286483765,0.0,0.0,0.0,0.0,0.0,0.0,0.0,-0.2716492716029333,0.5056606924578693,-0.17480182001916172,0.6108262890387963,-0.08713304828254471,0.1344547584147438,-0.3151505394617742,0.1729134769962545,-0.48732908226314336,-0.11137114327936841,-1.946602549316141,0.13344520561791579,2.595390864107344,0.9452664900225228,0.1728802376190821,-0.48752024683155326,-0.11147110072896137,-1.9463801863486305,0.1336059019074957,2.595550359778934,0.9452445589611904,0.0007298867571300287,0.0008281405845923154,-7.758321564879313e-05,0.0003578669527849076,0.00018002044668724983,-0.00017826181107362773,0.0013413076328052647,0.0,0.0,0.0,0.0,0.0,0.0,0.0,-3.323937717239489e-05,-0.00019116456840989615,-9.995744959295783e-05,0.0002223629675104366,0.00016069628957990356,0.00015949567159001532,-2.193106133241418e-05,-0.0007298867571300287,-0.0008281405845923154,7.758321564879313e-05,-0.0003578669527849076,-0.00018002044668724983,0.00017826181107362773,-0.0013413076328052647,0.2998287081718445,11.850122451782227,-0.9696381092071533,-21.915620803833008,-0.4452415108680725,-2.5399813652038574,0.34457725286483765,0
17,0.08001351356506348,-0.2998287081718445,-11.850122451782227,0.9696381092071533,21.915620803833008,0.4452415108680725,2.5399813652038574,-0.34457725286483765,0.0,0.0,0.0,0.0,0.0,0.0,0.0,-0.2716492716029333,0.5056606924578693,-0.17480182001916172,0.6108262890387963,-0.08713304828254471,0.1344547584147438,-0.3151505394617742,0.1729134769962545,-0.48732908226314336,-0.11137114327936841,-1.946602549316141,0.13344520561791579,2.595390864107344,0.9452664900225228,0.1728802376190821,-0.48752024683155326,-0.11147110072896137,-1.9463801863486305,0.1336059019074957,2.595550359778934,0.9452445589611904,0.0007298867571300287,0.0008281405845923154,-7.758321564879313e-05,0.0003578669527849076,0.00018002044668724983,-0.00017826181107362773,0.0013413076328052647,0.0,0.0,0.0,0.0,0.0,0.0,0.0,-3.323937717239489e-05,-0.00019116456840989615,-9.995744959295783e-05,0.0002223629675104366,0.00016069628957990356,0.00015949567159001532,-2.193106133241418e-05,-0.0007298867571300287,-0.0008281405845923154,7.758321564879313e-05,-0.0003578669527849076,-0.00018002044668724983,0.00017826181107362773,-0.0013413076328052647,0.2998287081718445,11.850122451782227,-0.9696381092071533,-21.915620803833008,-0.4452415108680725,-2.5399813652038574,0.34457725286483765,0
18,0.08501029014587402,-0.2998287081718445,-11.826318740844727,0.9696381092071533,21.868013381958008,0.4388328194618225,2.5335726737976074,-0.26858848333358765,0.0,0.0,0.0,0.0,0.0,0.0,0.0,-0.2727638092810235,0.504307597250137,-0.18223004132818088,0.6090558016981773,-0.08723038714854389,0.13410347584158974,-0.31536666130768704,0.1729134769962545,-0.48733075269899867,-0.11137114327936841,-1.9465997469804768,0.13344593085837878,2.595391576184167,0.945254467278566,0.1728802376190821,-0.48752024683155326,-0.11147110072896137,-1.9463801863486305,0.1336059019074957,2.595550359778934,0.9452445589611904,0.000535215150643519,-0.0004676703368020832,0.0006868929782688431,0.00016119771220831651,0.0002551996603842952,-2.3079870932671983e-05,-0.0017795479934393248,0.0,0.0,0.0,0.0,0.0,0.0,0.0,-3.323937717239489e-05,-0.0001894941325545907,-9.995744959295783e-05,0.00021956063184624952,0.00015997104911691373,0.00015878359476717563,-9.908317375573183e-06,-0.000535215150643519,0.0004676703368020832,-0.0006868929782688431,-0.00016119771220831651,-0.0002551996603842952,2.3079870932671983e-05,0.0017795479934393248,0.2998287081718445,11.826318740844727,-0.9696381092071533,-21.868013381958008,-0.4388328194618225,-2.5335726737976074,0.26858848333358765,0
19,0.08999943733215332,-0.2998287081718445,-11.826318740844727,0.9696381092071533,21.868013381958008,0.4388328194618225,2.5335726737976074,-0.26858848333358765,0.0,0.0,0.0,0.0,0.0,0.0,0.0,-0.2727638092810235,0.504307597250137,-0.18223004132818088,0.6090558016981773,-0.08723038714854389,0.13410347584158974,-0.31536666130768704,0.1729134769962545,-0.48733075269899867,-0.11137114327936841,-1.9465997469804768,0.13344593085837878,2.595391576184167,0.945254467278566,0.1728802376190821,-0.48752024683155326,-0.11147110072896137,-1.9463801863486305,0.1336059019074957,2.595550359778934,0.9452445589611904,0.000535215150643519,-0.0004676703368020832,0.0006868929782688431,0.00016119771220831651,0.0002551996603842952,-2.3079870932671983e-05,-0.0017795479934393248,0.0,0.0,0.0,0.0,0.0,0.0,0.0,-3.323937717239489e-05,-0.0001894941325545907,-9.995744959295783e-05,0.00021956063184624952,0.00015997104911691373,0.00015878359476717563,-9.908317375573183e-06,-0.000535215150643519,0.0004676703368020832,-0.0006868929782688431,-0.00016119771220831651,-0.0002551996603842952,2.3079870932671983e-05,0.0017795479934393248,0.2998287081718445,11.826318740844727,-0.9696381092071533,-21.868013381958008,-0.4388328194618225,-2.5335726737976074,0.26858848333358765,0
20,0.09499788284301758,-0.2720577120780945,-11.850122451782227,0.9934418201446533,21.891817092895508,0.4388328194618225,2.5399813652038574,-0.31711143255233765,0.0,0.0,0.0,0.0,0.0,0.0,0.0,-0.26853716914953285,0.49949224210194254,-0.1764681088897605,0.6137299271126965,-0.08807206242846997,0.134572463713393,-0.31511634038210107,0.17291152826243023,-0.48732908226314336,-0.11137281371522367,-1.9466013380555285,0.1334459306959381,2.595390864107344,0.9452632017873579,0.1728802376190821,-0.48752024683155326,-0.11147110072896137,-1.9463801863486305,0.1336059019074957,2.595550359778934,0.9452445589611904,0.0005456018633845993,0.00014170536858196782,0.0011122910170124907,0.0007886366629654437,0.00022740436724036838,-0.00015130684796673871,0.0007109093696713794,0.0,0.0,0.0,0.0,0.0,0.0,0.0,-3.1290643348114155e-05,-0.00019116456840989615,-9.8287013737694e-05,0.0002211517068979596,0.00015997121155758576,0.00015949567159001532,-1.864282616748092e-05,-0.0005456018633845993,-0.00014170536858196782,-0.0011122910170124907,-0.0007886366629654437,-0.00022740436724036838,0.00015130684796673871,-0.0007109093696713794,0.2720577120780945,11.850122451782227,-0.9934418201446533,-21.891817092895508,-0.4388328194618225,-2.5399813652038574,0.31711143255233765,0
21,0.0999453067779541,-0.2720577120780945,-11.850122451782227,0.9934418201446533,21.891817092895508,0.4388328194618225,2.5399813652038574,-0.31711143255233765,0.0,0.0,0.0,0.0,0.0,0.0,0.0,-0.26853716914953285,0.49949224210194254,-0.1764681088897605,0.6137299271126965,-0.08807206242846997,0.134572463713393,-0.31511634038210107,0.17291152826243023,-0.48732908226314336,-0.11137281371522367,-1.9466013380555285,0.1334459306959381,2.595390864107344,0.9452632017873579,0.1728802376190821,-0.48752024683155326,-0.11147110072896137,-1.9463801863486305,0.1336059019074957,2.595550359778934,0.9452445589611904,0.0005456018633845993,0.00014170536858196782,0.0011122910170124907,0.0007886366629654437,0.00022740436724036838,-0.00015130684796673871,0.0007109093696713794,0.0,0.0,0.0,0.0,0.0,0.0,0.0,-3.1290643348114155e-05,-0.00019116456840989615,-9.8287013737694e-05,0.0002211517068979596,0.00015997121155758576,0.00015949567159001532,-1.864282616748092e-05,-0.0005456018633845993,-0.00014170536858196782,-0.0011122910170124907,-0.0007886366629654437,-0.00022740436724036838,0.00015130684796673871,-0.0007109093696713794,0.2720577120780945,11.850122451782227,-0.9934418201446533,-21.891817092895508,-0.4388328194618225,-2.5399813652038574,0.31711143255233765,0
22,0.10499453544616699,-0.2720577120780945,-11.850122451782227,1.0172455310821533,21.891817092895508,0.4507346749305725,2.5335726737976074,-0.30337852239608765,0.0,0.0,0.0,0.0,0.0,0.0,0.0,-0.27384382079345154,0.4941777966671855,-0.19323522844396462,0.6124557488987478,-0.08752735965370596,0.1343591606377517,-0.31413002745532465,0.17291152815442395,-0.48732908226314336,-0.11137448415107892,-1.9466016469721925,0.13344459526635236,2.595391576184167,0.9452597405615096,0.1728802376190821,-0.48752024683155326,-0.11147110072896137,-1.9463801863486305,0.1336059019074957,2.595550359778934,0.9452445589611904,0.0012320031182627008,-0.0005849384127290696,-0.0006277824042624607,0.00016216081455894976,-0.00026925392218783494,1.1105721547932627e-05,-0.0003272373025737834,0.0,0.0,0.0,0.0,0.0,0.0,0.0,-3.129053534184356e-05,-0.00019116456840989615,-9.661657788244404e-05,0.00022146062356198648,0.00016130664114333282,0.00015878359476717563,-1.5181600319214006e-05,-0.0012320031182627008,0.0005849384127290696,0.0006277824042624607,-0.00016216081455894976,0.00026925392218783494,-1.1105721547932627e-05,0.0003272373025737834,0.2720577120780945,11.850122451782227,-1.0172455310821533,-21.891817092895508,-0.4507346749305725,-2.5335726737976074,0.30337852239608765,0
23,0.10999679565429688,-0.2720577120780945,-11.850122451782227,1.0172455310821533,21.891817092895508,0.4507346749305725,2.5335726737976074,-0.30337852239608765,0.0,0.0,0.0,0.0,0.0,0.0,0.0,-0.27384382079345154,0.4941777966671855,-0.19323522844396462,0.6124557488987478,-0.08752735965370596,0.1343591606377517,-0.31413002745532465,0.17291152815442395,-0.48732908226314336,-0.11137448415107892,-1.9466016469721925,0.13344459526635236,2.595391576184167,0.9452597405615096,0.1728802376190821,-0.48752024683155326,-0.11147110072896137,-1.9463801863486305,0.1336059019074957,2.595550359778934,0.9452445589611904,0.0012320031182627008,-0.0005849384127290696,-0.0006277824042624607,0.00016216081455894976,-0.00026925392218783494,1.1105721547932627e-05,-0.0003272373025737834,0.0,0.0,0.0,0.0,0.0,0.0,0.0,-3.129053534184356e-05,-0.00019116456840989615,-9.661657788244404e-05,0.00022146062356198648,0.00016130664114333282,0.00015878359476717563,-1.5181600319214006e-05,-0.0012320031182627008,0.0005849384127290696,0.0006277824042624607,-0.00016216081455894976,0.00026925392218783494,-1.1105721547932627e-05,0.0003272373025737834,0.2720577120780945,11.850122451782227,-1.0172455310821533,-21.891817092895508,-0.4507346749305725,-2.5335726737976074,0.30337852239608765,0
24,0.11499571800231934,-0.2720577120780945,-11.850122451782227,1.0172455310821533,21.891817092895508,0.4507346749305725,2.5335726737976074,-0.30337852239608765,0.0,0.0,0.0,0.0,0.0,0.0,0.0,-0.27384382079345154,0.4941777966671855,-0.19323522844396462,0.6124557488987478,-0.08752735965370596,0.1343591606377517,-0.31413002745532465,0.17291152815442395,-0.48732908226314336,-0.11137448415107892,-1.9466016469721925,0.13344459526635236,2.595391576184167,0.9452597405615096,0.1728802376190821,-0.48752024683155326,-0.11147110072896137,-1.9463801863486305,0.1336059019074957,2.595550359778934,0.9452445589611904,0.0012320031182627008,-0.0005849384127290696,-0.0006277824042624607,0.00016216081455894976,-0.00026925392218783494,1.1105721547932627e-05,-0.0003272373025737834,0.0,0.0,0.0,0.0,0.0,0.0,0.0,-3.129053534184356e-05,-0.00019116456840989615,-9.661657788244404e-05,0.00022146062356198648,0.00016130664114333282,0.00015878359476717563,-1.5181600319214006e-05,-0.0012320031182627008,0.0005849384127290696,0.0006277824042624607,-0.00016216081455894976,0.00026925392218783494,-1.1105721547932627e-05,0.0003272373025737834,0.2720577120780945,11.850122451782227,-1.0172455310821533,-21.891817092895508,-0.4507346749305725,-2.5335726737976074,0.30337852239608765,0
25,0.1199955940246582,-0.2720577120780945,-11.850122451782227,1.0172455310821533,21.891817092895508,0.4507346749305725,2.5335726737976074,-0.30337852239608765,0.0,0.0,0.0,0.0,0.0,0.0,0.0,-0.27384382079345154,0.4941777966671855,-0.19323522844396462,0.6124557488987478,-0.08752735965370596,0.1343591606377517,-0.31413002745532465,0.17291152815442395,-0.48732908226314336,-0.11137448415107892,-1.9466016469721925,0.13344459526635236,2.595391576184167,0.9452597405615096,0.1728802376190821,-0.48752024683155326,-0.11147110072896137,-1.9463801863486305,0.1336059019074957,2.595550359778934,0.9452445589611904,0.0012320031182627008,-0.0005849384127290696,-0.0006277824042624607,0.00016216081455894976,-0.00026925392218783494,1.1105721547932627e-05,-0.0003272373025737834,0.0,0.0,0.0,0.0,0.0,0.0,0.0,-3.129053534184356e-05,-0.00019116456840989615,-9.661657788244404e-05,0.00022146062356198648,0.00016130664114333282,0.00015878359476717563,-1.5181600319214006e-05,-0.0012320031182627008,0.0005849384127290696,0.0006277824042624607,-0.00016216081455894976,0.00026925392218783494,-1.1105721547932627e-05,0.0003272373025737834,0.2720577120780945,11.850122451782227,-1.0172455310821533,-21.891817092895508,-0.4507346749305725,-2.5335726737976074,0.30337852239608765,0
26,0.12499594688415527,-0.2720577120780945,-11.850122451782227,0.9696381092071533,21.939424514770508,0.4452415108680725,2.5335726737976074,-0.30337852239608765,0.0,0.0,0.0,0.0,0.0,0.0,0.0,-0.2746590158357445,0.4960946641279391,-0.1990509675269801,0.6098701914693658,-0.08752836767630087,0.13403679136233324,-0.31417942948690264,0.17291152815442337,-0.48732908215412707,-0.11137114327936841,-1.9466049793773708,0.13344517929041264,2.595391576184167,0.9452588150536089,0.1728802376190821,-0.48752024683155326,-0.11147110072896137,-1.9463801863486305,0.1336059019074957,2.595550359778934,0.9452445589611904,-0.001286274966519367,-6.424568772236249e-05,0.0009590182424573761,-0.0007592119166668544,-0.0001135516595891234,2.049216584320368e-05,4.769932754415431e-05,0.0,0.0,0.0,0.0,0.0,0.0,0.0,-3.1290535341260695e-05,-0.00019116467742619214,-9.995744959295783e-05,0.00022479302874023332,0.00016072261708305335,0.00015878359476717563,-1.4256092418452049e-05,0.001286274966519367,6.424568772236249e-05,-0.0009590182424573761,0.0007592119166668544,0.0001135516595891234,-2.049216584320368e-05,-4.769932754415431e-05,0.2720577120780945,11.850122451782227,-0.9696381092071533,-21.939424514770508,-0.4452415108680725,-2.5335726737976074,0.30337852239608765,0
27,0.12999486923217773,-0.2720577120780945,-11.850122451782227,0.9696381092071533,21.939424514770508,0.4452415108680725,2.5335726737976074,-0.30337852239608765,0.0,0.0,0.0,0.0,0.0,0.0,0.0,-0.2746590158357445,0.4960946641279391,-0.1990509675269801,0.6098701914693658,-0.08752836767630087,0.13403679136233324,-0.31417942948690264,0.17291152815442337,-0.48732908215412707,-0.11137114327936841,-1.9466049793773708,0.13344517929041264,2.595391576184167,0.9452588150536089,0.1728802376190821,-0.48752024683155326,-0.11147110072896137,-1.9463801863486305,0.1336059019074957,2.595550359778934,0.9452445589611904,-0.001286274966519367,-6.424568772236249e-05,0.0009590182424573761,-0.0007592119166668544,-0.0001135516595891234,2.049216584320368e-05,4.769932754415431e-05,0.0,0.0,0.0,0.0,0.0,0.0,0.0,-3.1290535341260695e-05,-0.00019116467742619214,-9.995744959295783e-05,0.00022479302874023332,0.00016072261708305335,0.00015878359476717563,-1.4256092418452049e-05,0.001286274966519367,6.424568772236249e-05,-0.0009590182424573761,0.0007592119166668544,0.0001135516595891234,-2.049216584320368e-05,-4.769932754415431e-05,0.2720577120780945,11.850122451782227,-0.9696381092071533,-21.939424514770508,-0.4452415108680725,-2.5335726737976074,0.30337852239608765,0
28,0.13499855995178223,-0.2720577120780945,-11.802515029907227,0.9934418201446533,21.915620803833008,0.4507346749305725,2.5335726737976074,-0.30337852239608765,0.0,0.0,0.0,0.0,0.0,0.0,0.0,-0.276629727504813,0.5015793670404705,-0.19298650289443156,0.6067298791312442,-0.08794916448797484,0.13236561537451536,-0.3152932986028588,0.17291152815442337,-0.4873324141955193,-0.11137281371522367,-1.946603316184993,0.13344460387942494,2.595391576184167,0.9452586956917209,0.1728802376190821,-0.48752024683155326,-0.11147110072896137,-1.9463801863486305,0.1336059019074957,2.595550359778934,0.9452445589611904,-0.0005112746332372222,-0.0006392061172733,-9.328024005769177e-05,-0.00015229667859144655,-0.00021541950397383592,7.597197455344883e-05,-4.2040655882143895e-05,0.0,0.0,0.0,0.0,0.0,0.0,0.0,-3.1290535341260695e-05,-0.00018783263603394662,-9.8287013737694e-05,0.00022312983636241235,0.00016129802807074434,0.00015878359476717563,-1.413673053052289e-05,0.0005112746332372222,0.0006392061172733,9.328024005769177e-05,0.00015229667859144655,0.00021541950397383592,-7.597197455344883e-05,4.2040655882143895e-05,0.2720577120780945,11.802515029907227,-0.9934418201446533,-21.915620803833008,-0.4507346749305725,-2.5335726737976074,0.30337852239608765,0
29,0.14000988006591797,-0.2720577120780945,-11.802515029907227,0.9934418201446533,21.915620803833008,0.4507346749305725,2.5335726737976074,-0.30337852239608765,0.0,0.0,0.0,0.0,0.0,0.0,0.0,-0.276629727504813,0.5015793670404705,-0.19298650289443156,0.6067298791312442,-0.08794916448797484,0.13236561537451536,-0.3152932986028588,0.17291152815442337,-0.4873324141955193,-0.11137281371522367,-1.946603316184993,0.13344460387942494,2.595391576184167,0.9452586956917209,0.1728802376190821,-0.48752024683155326,-0.11147110072896137,-1.9463801863486305,0.1336059019074957,2.595550359778934,0.9452445589611904,-0.0005112746332372222,-0.0006392061172733,-9.328024005769177e-05,-0.00015229667859144655,-0.00021541950397383592,7.597197455344883e-05,-4.2040655882143895e-05,0.0,0.0,0.0,0.0,0.0,0.0,0.0,-3.1290535341260695e-05,-0.00018783263603394662,-9.8287013737694e-05,0.00022312983636241235,0.00016129802807074434,0.00015878359476717563,-1.413673053052289e-05,0.0005112746332372222,0.0006392061172733,9.328024005769177e-05,0.00015229667859144655,0.00021541950397383592,-7.597197455344883e-05,4.2040655882143895e-05,0.2720577120780945,11.802515029907227,-0.9934418201446533,-21.915620803833008,-0.4507346749305725,-2.5335726737976074,0.30337852239608765,0
30,0.14500761032104492,-0.22445029020309448,-11.826318740844727,1.0410492420196533,21.868013381958008,0.4452415108680725,2.5335726737976074,-0.29605430364608765,0.0,0.0,0.0,0.0,0.0,0.0,0.0,-0.2667272672720041,0.509273745396258,-0.17513709441719788,0.6045872895312,-0.08858919766221146,0.13146366605853474,-0.3158372588929067,0.17290818728271284,-0.48733072620799495,-0.11137615458693419,-1.9465971949543375,0.13344200683528715,2.595391576184167,0.945257518797496,0.1728802376190821,-0.48752024683155326,-0.11147110072896137,-1.9463801863486305,0.1336059019074957,2.595550359778934,0.9452445589611904,-0.0005432348454415081,0.0004899727900543159,4.626529158247478e-06,0.0007669545505097609,4.7528312301054595e-05,0.00011828153099297505,-0.00033137005745473606,0.0,0.0,0.0,0.0,0.0,0.0,0.0,-2.7949663630733035e-05,-0.00018952062355831467,-9.494614202718021e-05,0.00021700860570694758,0.00016389507220854194,0.00015878359476717563,-1.2959836305559413e-05,0.0005432348454415081,-0.0004899727900543159,-4.626529158247478e-06,-0.0007669545505097609,-4.7528312301054595e-05,-0.00011828153099297505,0.00033137005745473606,0.22445029020309448,11.826318740844727,-1.0410492420196533,-21.868013381958008,-0.4452415108680725,-2.5335726737976074,0.29605430364608765,0
31,0.14999914169311523,-0.22445029020309448,-11.826318740844727,1.0410492420196533,21.868013381958008,0.4452415108680725,2.5335726737976074,-0.29605430364608765,0.0,0.0,0.0,0.0,0.0,0.0,0.0,-0.2667272672720041,0.509273745396258,-0.17513709441719788,0.6045872895312,-0.08858919766221146,0.13146366605853474,-0.3158372588929067,0.17290818728271284,-0.48733072620799495,-0.11137615458693419,-1.9465971949543375,0.13344200683528715,2.595391576184167,0.945257518797496,0.1728802376190821,-0.48752024683155326,-0.11147110072896137,-1.9463801863486305,0.1336059019074957,2.595550359778934,0.9452445589611904,-0.0005432348454415081,0.0004899727900543159,4.626529158247478e-06,0.0007669545505097609,4.7528312301054595e-05,0.00011828153099297505,-0.00033137005745473606,0.0,0.0,0.0,0.0,0.0,0.0,0.0,-2.7949663630733035e-05,-0.00018952062355831467,-9.494614202718021e-05,0.00021700860570694758,0.00016389507220854194,0.00015878359476717563,-1.2959836305559413e-05,0.0005432348454415081,-0.0004899727900543159,-4.626529158247478e-06,-0.0007669545505097609,-4.7528312301054595e-05,-0.00011828153099297505,0.00033137005745473606,0.22445029020309448,11.826318740844727,-1.0410492420196533,-21.868013381958008,-0.4452415108680725,-2.5335726737976074,0.29605430364608765,0
32,0.1558067798614502,-0.19667929410934448,-11.802515029907227,1.0410492420196533,21.891817092895508,0.4507346749305725,2.5335726737976074,-0.33084434270858765,0.0,0.0,0.0,0.0,0.0,0.0,0.0,-0.26598596481472697,0.4943191389481972,-0.17904322560526417,0.6116346425417395,-0.08782592421602305,0.13383307224221708,-0.3156563440381987,0.17290623844088168,-0.4873324231347044,-0.11137615458693419,-1.9466015701488706,0.13344460402403135,2.595391576184167,0.9452650049511606,0.1728802376190821,-0.48752024683155326,-0.11147110072896137,-1.9463801863486305,0.1336059019074957,2.595550359778934,0.9452445589611904,-0.0007144996251188634,-0.0006802394023153403,0.00023550265035130076,5.876853384757643e-05,-0.00018624113405963188,4.5535858387000325e-05,0.0010436830370600838,0.0,0.0,0.0,0.0,0.0,0.0,0.0,-2.6000821799571083e-05,-0.00018782369684888778,-9.494614202718021e-05,0.00022138380024006032,0.00016129788346433416,0.00015878359476717563,-2.0445989970196976e-05,0.0007144996251188634,0.0006802394023153403,-0.00023550265035130076,-5.876853384757643e-05,0.00018624113405963188,-4.5535858387000325e-05,-0.0010436830370600838,0.19667929410934448,11.802515029907227,-1.0410492420196533,-21.891817092895508,-0.4507346749305725,-2.5335726737976074,0.33084434270858765,0
33,0.15999698638916016,-0.19667929410934448,-11.802515029907227,1.0410492420196533,21.891817092895508,0.4507346749305725,2.5335726737976074,-0.33084434270858765,0.0,0.0,0.0,0.0,0.0,0.0,0.0,-0.26598596481472697,0.4943191389481972,-0.17904322560526417,0.6116346425417395,-0.08782592421602305,0.13383307224221708,-0.3156563440381987,0.17290623844088168,-0.4873324231347044,-0.11137615458693419,-1.9466015701488706,0.13344460402403135,2.595391576184167,0.9452650049511606,0.1728802376190821,-0.48752024683155326,-0.11147110072896137,-1.9463801863486305,0.1336059019074957,2.595550359778934,0.9452445589611904,-0.0007144996251188634,-0.0006802394023153403,0.00023550265035130076,5.876853384757643e-05,-0.00018624113405963188,4.5535858387000325e-05,0.0010436830370600838,0.0,0.0,0.0,0.0,0.0,0.0,0.0,-2.6000821799571083e-05,-0.00018782369684888778,-9.494614202718021e-05,0.00022138380024006032,0.00016129788346433416,0.00015878359476717563,-2.0445989970196976e-05,0.0007144996251188634,0.0006802394023153403,-0.00023550265035130076,-5.876853384757643e-05,0.00018624113405963188,-4.5535858387000325e-05,-0.0010436830370600838,0.19667929410934448,11.802515029907227,-1.0410492420196533,-21.891817092895508,-0.4507346749305725,-2.5335726737976074,0.33084434270858765,0
34,0.1649951934814453,-0.2720577120780945,-11.826318740844727,0.9934418201446533,21.891817092895508,0.4507346749305725,2.5399813652038574,-0.33084434270858765,0.0,0.0,0.0,0.0,0.0,0.0,0.0,-0.2708857998047366,0.5028309120600883,-0.19026262873386687,0.6069888992281528,-0.0866804127739809,0.1346071145742979,-0.31549954713720346,0.17291152815442337,-0.4873297989883435,-0.11137281371522367,-1.946601646063977,0.1334446084300594,2.595390864107344,0.9452625549181277,0.1728802376190821,-0.48752024683155326,-0.11147110072896137,-1.9463801863486305,0.1336059019074957,2.595550359778934,0.9452445589611904,-0.00043219636005987697,0.00034123270224887923,0.0007615658932362239,0.0001306325392587674,-0.00018276537552146726,-0.00022449046021725405,0.0015450810308983935,0.0,0.0,0.0,0.0,0.0,0.0,0.0,-3.1290535341260695e-05,-0.00019044784320976227,-9.8287013737694e-05,0.00022145971534648368,0.00016129347743629174,0.00015949567159001532,-1.799595693730005e-05,0.00043219636005987697,-0.00034123270224887923,-0.0007615658932362239,-0.0001306325392587674,0.00018276537552146726,0.00022449046021725405,-0.0015450810308983935,0.2720577120780945,11.826318740844727,-0.9934418201446533,-21.891817092895508,-0.4507346749305725,-2.5399813652038574,0.33084434270858765,0
35,0.1699967384338379,-0.2720577120780945,-11.826318740844727,0.9934418201446533,21.891817092895508,0.4507346749305725,2.5399813652038574,-0.33084434270858765,0.0,0.0,0.0,0.0,0.0,0.0,0.0,-0.2708857998047366,0.5028309120600883,-0.19026262873386687,0.6069888992281528,-0.0866804127739809,0.1346071145742979,-0.31549954713720346,0.17291152815442337,-0.4873297989883435,-0.11137281371522367,-1.946601646063977,0.1334446084300594,2.595390864107344,0.9452625549181277,0.1728802376190821,-0.48752024683155326,-0.11147110072896137,-1.9463801863486305,0.1336059019074957,2.595550359778934,0.9452445589611904,-0.00043219636005987697,0.00034123270224887923,0.0007615658932362239,0.0001306325392587674,-0.00018276537552146726,-0.00022449046021725405,0.0015450810308983935,0.0,0.0,0.0,0.0,0.0,0.0,0.0,-3.1290535341260695e-05,-0.00019044784320976227,-9.8287013737694e-05,0.00022145971534648368,0.00016129347743629174,0.00015949567159001532,-1.799595693730005e-05,0.00043219636005987697,-0.00034123270224887923,-0.0007615658932362239,-0.0001306325392587674,0.00018276537552146726,0.00022449046021725405,-0.0015450810308983935,0.2720577120780945,11.826318740844727,-0.9934418201446533,-21.891817092895508,-0.4507346749305725,-2.5399813652038574,0.33084434270858765,0
36,0.17499494552612305,-0.3236324191093445,-11.826318740844727,0.9934418201446533,21.891817092895508,0.4507346749305725,2.5335726737976074,-0.27591270208358765,0.0,0.0,0.0,0.0,0.0,0.0,0.0,-0.26714522618284453,0.5078934579113787,-0.1805643517320325,0.6078597445547809,-0.08740300613723069,0.1349154280043681,-0.3157573623892394,0.17291514743210976,-0.4873307526936149,-0.11137281371522367,-1.9465992744919112,0.13344460843006767,2.595391576184167,0.9452552465788779,0.1728802376190821,-0.48752024683155326,-0.11147110072896137,-1.9463801863486305,0.1336059019074957,2.595550359778934,0.9452445589611904,0.000647120887518142,0.0002800925705520685,-7.291949937545799e-06,0.00038321342402411164,-6.0473750221421826e-05,0.0002468628827519545,-0.001468565189014228,0.0,0.0,0.0,0.0,0.0,0.0,0.0,-3.490981302764484e-05,-0.0001894941379383397,-9.8287013737694e-05,0.00021908814328064352,0.00016129347742802058,0.00015878359476717563,-1.0687617687521467e-05,-0.000647120887518142,-0.0002800925705520685,7.291949937545799e-06,-0.00038321342402411164,6.0473750221421826e-05,-0.0002468628827519545,0.001468565189014228,0.3236324191093445,11.826318740844727,-0.9934418201446533,-21.891817092895508,-0.4507346749305725,-2.5335726737976074,0.27591270208358765,0
37,0.17999553680419922,-0.3236324191093445,-11.826318740844727,0.9934418201446533,21.891817092895508,0.4507346749305725,2.5335726737976074,-0.27591270208358765,0.0,0.0,0.0,0.0,0.0,0.0,0.0,-0.26714522618284453,0.5078934579113787,-0.1805643517320325,0.6078597445547809,-0.08740300613723069,0.1349154280043681,-0.3157573623892394,0.17291514743210976,-0.4873307526936149,-0.11137281371522367,-1.9465992744919112,0.13344460843006767,2.595391576184167,0.9452552465788779,0.1728802376190821,-0.48752024683155326,-0.11147110072896137,-1.9463801863486305,0.1336059019074957,2.595550359778934,0.9452445589611904,0.000647120887518142,0.0002800925705520685,-7.291949937545799e-06,0.00038321342402411164,-6.0473750221421826e-05,0.0002468628827519545,-0.001468565189014228,0.0,0.0,0.0,0.0,0.0,0.0,0.0,-3.490981302764484e-05,-0.0001894941379383397,-9.8287013737694e-05,0.00021908814328064352,0.00016129347742802058,0.00015878359476717563,-1.0687617687521467e-05,-0.000647120887518142,-0.0002800925705520685,7.291949937545799e-06,-0.00038321342402411164,6.0473750221421826e-05,-0.0002468628827519545,0.001468565189014228,0.3236324191093445,11.826318740844727,-0.9934418201446533,-21.891817092895508,-0.4507346749305725,-2.5335726737976074,0.27591270208358765,0
38,0.1849956512451172,-0.3236324191093445,-11.850122451782227,0.9696381092071533,21.868013381958008,0.4452415108680725,2.5335726737976074,-0.30978721380233765,0.0,0.0,0.0,0.0,0.0,0.0,0.0,-0.2703359325452032,0.5100679730937866,-0.18239199487036778,0.6098576536440732,-0.08783786453911561,0.13556602301874635,-0.31689685997206246,0.17291514743210976,-0.48732908193609453,-0.11137114327936841,-1.9465999765596813,0.13344521878163018,2.595391576184167,0.9452601308032417,0.1728802376190821,-0.48752024683155326,-0.11147110072896137,-1.9463801863486305,0.1336059019074957,2.595550359778934,0.9452445589611904,0.0009842762097845828,0.0006650587934660782,0.0001895430028389883,0.0010426169671807286,-2.7557588447232e-05,0.00027180198409119597,-2.4132593420336726e-05,0.0,0.0,0.0,0.0,0.0,0.0,0.0,-3.490981302764484e-05,-0.0001911648954587286,-9.995744959295783e-05,0.00021979021105078544,0.00016068312586550726,0.00015878359476717563,-1.557184205125406e-05,-0.0009842762097845828,-0.0006650587934660782,-0.0001895430028389883,-0.0010426169671807286,2.7557588447232e-05,-0.00027180198409119597,2.4132593420336726e-05,0.3236324191093445,11.850122451782227,-0.9696381092071533,-21.868013381958008,-0.4452415108680725,-2.5335726737976074,0.30978721380233765,0
39,0.1905064582824707,-0.3236324191093445,-11.850122451782227,0.9696381092071533,21.868013381958008,0.4452415108680725,2.5335726737976074,-0.30978721380233765,0.0,0.0,0.0,0.0,0.0,0.0,0.0,-0.2703359325452032,0.5100679730937866,-0.18239199487036778,0.6098576536440732,-0.08783786453911561,0.13556602301874635,-0.31689685997206246,0.17291514743210976,-0.48732908193609453,-0.11137114327936841,-1.9465999765596813,0.13344521878163018,2.595391576184167,0.9452601308032417,0.1728802376190821,-0.48752024683155326,-0.11147110072896137,-1.9463801863486305,0.1336059019074957,2.595550359778934,0.9452445589611904,0.0009842762097845828,0.0006650587934660782,0.0001895430028389883,0.0010426169671807286,-2.7557588447232e-05,0.00027180198409119597,-2.4132593420336726e-05,0.0,0.0,0.0,0.0,0.0,0.0,0.0,-3.490981302764484e-05,-0.0001911648954587286,-9.995744959295783e-05,0.00021979021105078544,0.00016068312586550726,0.00015878359476717563,-1.557184205125406e-05,-0.0009842762097845828,-0.0006650587934660782,-0.0001895430028389883,-0.0010426169671807286,2.7557588447232e-05,-0.00027180198409119597,2.4132593420336726e-05,0.3236324191093445,11.850122451782227,-0.9696381092071533,-21.868013381958008,-0.4452415108680725,-2.5335726737976074,0.30978721380233765,0
40,0.19658136367797852,-0.2998287081718445,-11.850122451782227,0.9696381092071533,21.891817092895508,0.4388328194618225,2.5335726737976074,-0.28232139348983765,0.0,0.0,0.0,0.0,0.0,0.0,0.0,-0.2760461111983941,0.5077092443650579,-0.18974940332674245,0.6094721971185653,-0.0884545735109999,0.13597713174757928,-0.316873287449009,0.1729134769962545,-0.48732908226314153,-0.11137114327936841,-1.9466009577892378,0.13344593020839313,2.595391576184167,0.9452564891108901,0.1728802376190821,-0.48752024683155326,-0.11147110072896137,-1.9463801863486305,0.1336059019074957,2.595550359778934,0.9452445589611904,0.00014231005621301952,0.00039291862918414827,0.00010557809495458296,0.0002346031045902664,8.999188266992283e-05,0.00015924312466236856,-0.0008815539500035155,0.0,0.0,0.0,0.0,0.0,0.0,0.0,-3.323937717239489e-05,-0.00019116456841172802,-9.995744959295783e-05,0.00022077144060728138,0.00015997169910256237,0.00015878359476717563,-1.1930149699690418e-05,-0.00014231005621301952,-0.00039291862918414827,-0.00010557809495458296,-0.0002346031045902664,-8.999188266992283e-05,-0.00015924312466236856,0.0008815539500035155,0.2998287081718445,11.850122451782227,-0.9696381092071533,-21.891817092895508,-0.4388328194618225,-2.5335726737976074,0.28232139348983765,0
41,0.19999289512634277,-0.2998287081718445,-11.850122451782227,0.9696381092071533,21.891817092895508,0.4388328194618225,2.5335726737976074,-0.28232139348983765,0.0,0.0,0.0,0.0,0.0,0.0,0.0,-0.2760461111983941,0.5077092443650579,-0.18974940332674245,0.6094721971185653,-0.0884545735109999,0.13597713174757928,-0.316873287449009,0.1729134769962545,-0.48732908226314153,-0.11137114327936841,-1.9466009577892378,0.13344593020839313,2.595391576184167,0.9452564891108901,0.1728802376190821,-0.48752024683155326,-0.11147110072896137,-1.9463801863486305,0.1336059019074957,2.595550359778934,0.9452445589611904,0.00014231005621301952,0.00039291862918414827,0.00010557809495458296,0.0002346031045902664,8.999188266992283e-05,0.00015924312466236856,-0.0008815539500035155,0.0,0.0,0.0,0.0,0.0,0.0,0.0,-3.323937717239489e-05,-0.00019116456841172802,-9.995744959295783e-05,0.00022077144060728138,0.00015997169910256237,0.00015878359476717563,-1.1930149699690418e-05,-0.00014231005621301952,-0.00039291862918414827,-0.00010557809495458296,-0.0002346031045902664,-8.999188266992283e-05,-0.00015924312466236856,0.0008815539500035155,0.2998287081718445,11.850122451782227,-0.9696381092071533,-21.891817092895508,-0.4388328194618225,-2.5335726737976074,0.28232139348983765,0
42,0.20501995086669922,-0.22445029020309448,-11.873926162719727,0.9934418201446533,21.891817092895508,0.4452415108680725,2.5271639823913574,-0.32352012395858765,0.0,0.0,0.0,0.0,0.0,0.0,0.0,-0.2741583547908139,0.514915476984567,-0.18774503739621184,0.6006066452771749,-0.08941744007561658,0.13413339437283406,-0.31679466871619244,0.17290818728271284,-0.4873274118272881,-0.11137281371522367,-1.9466016385017697,0.13344521878162652,2.5953922882609897,0.9452637932411525,0.1728802376190821,-0.48752024683155326,-0.11147110072896137,-1.9463801863486305,0.1336059019074957,2.595550359778934,0.9452445589611904,-0.0011531768355737828,0.0010566379167123658,-1.6318575828676105e-05,-0.0004164455341840491,0.0001070374451443086,0.000316816235157314,0.0008869059558776698,0.0,0.0,0.0,0.0,0.0,0.0,0.0,-2.7949663630733035e-05,-0.0001928350042651461,-9.8287013737694e-05,0.00022145215313917888,0.000160683125869171,0.00015807151794433594,-1.9234279962088152e-05,0.0011531768355737828,-0.0010566379167123658,1.6318575828676105e-05,0.0004164455341840491,-0.0001070374451443086,-0.000316816235157314,-0.0008869059558776698,0.22445029020309448,11.873926162719727,-0.9934418201446533,-21.891817092895508,-0.4452415108680725,-2.5271639823913574,0.32352012395858765,0
43,0.20999646186828613,-0.22445029020309448,-11.873926162719727,0.9934418201446533,21.891817092895508,0.4452415108680725,2.5271639823913574,-0.32352012395858765,0.0,0.0,0.0,0.0,0.0,0.0,0.0,-0.2741583547908139,0.514915476984567,-0.18774503739621184,0.6006066452771749,-0.08941744007561658,0.13413339437283406,-0.31679466871619244,0.17290818728271284,-0.4873274118272881,-0.11137281371522367,-1.9466016385017697,0.13344521878162652,2.5953922882609897,0.9452637932411525,0.1728802376190821,-0.48752024683155326,-0.11147110072896137,-1.9463801863486305,0.1336059019074957,2.595550359778934,0.9452445589611904,-0.0011531768355737828,0.0010566379167123658,-1.6318575828676105e-05,-0.0004164455341840491,0.0001070374451443086,0.000316816235157314,0.0008869059558776698,0.0,0.0,0.0,0.0,0.0,0.0,0.0,-2.7949663630733035e-05,-0.0001928350042651461,-9.8287013737694e-05,0.00022145215313917888,0.000160683125869171,0.00015807151794433594,-1.9234279962088152e-05,0.0011531768355737828,-0.0010566379167123658,1.6318575828676105e-05,0.0004164455341840491,-0.0001070374451443086,-0.000316816235157314,-0.0008869059558776698,0.22445029020309448,11.873926162719727,-0.9934418201446533,-21.891817092895508,-0.4452415108680725,-2.5271639823913574,0.32352012395858765,0
44,0.21500277519226074,-0.2720577120780945,-11.850122451782227,0.9696381092071533,21.891817092895508,0.4333396553993225,2.5399813652038574,-0.33725303411483765,0.0,0.0,0.0,0.0,0.0,0.0,0.0,-0.27794362844606607,0.50215445965502,-0.19724886101675718,0.6049032059858996,-0.08865208605268642,0.13460059971245483,-0.31716754201825875,0.17291152815442337,-0.48732884384456426,-0.11137114327936841,-1.9466016441744582,0.1334465412100156,2.595390864107344,0.945265319245812,0.1728802376190821,-0.48752024683155326,-0.11147110072896137,-1.9463801863486305,0.1336059019074957,2.595550359778934,0.9452445589611904,0.00015273382946244854,6.488988885460622e-05,0.0006215747856028593,0.00022581607192906106,0.0005668412110387096,-0.0002699538666164959,0.0009576564843965039,0.0,0.0,0.0,0.0,0.0,0.0,0.0,-3.1290535341260695e-05,-0.00019140298698899771,-9.995744959295783e-05,0.00022145782582772,0.00015936069748009873,0.00015949567159001532,-2.0760284621612612e-05,-0.00015273382946244854,-6.488988885460622e-05,-0.0006215747856028593,-0.00022581607192906106,-0.0005668412110387096,0.0002699538666164959,-0.0009576564843965039,0.2720577120780945,11.850122451782227,-0.9696381092071533,-21.891817092895508,-0.4333396553993225,-2.5399813652038574,0.33725303411483765,0
45,0.21999669075012207,-0.2720577120780945,-11.850122451782227,0.9696381092071533,21.891817092895508,0.4333396553993225,2.5399813652038574,-0.33725303411483765,0.0,0.0,0.0,0.0,0.0,0.0,0.0,-0.27794362844606607,0.50215445965502,-0.19724886101675718,0.6049032059858996,-0.08865208605268642,0.13460059971245483,-0.31716754201825875,0.17291152815442337,-0.48732884384456426,-0.11137114327936841,-1.9466016441744582,0.1334465412100156,2.595390864107344,0.945265319245812,0.1728802376190821,-0.48752024683155326,-0.11147110072896137,-1.9463801863486305,0.1336059019074957,2.595550359778934,0.9452445589611904,0.00015273382946244854,6.488988885460622e-05,0.0006215747856028593,0.00022581607192906106,0.0005668412110387096,-0.0002699538666164959,0.0009576564843965039,0.0,0.0,0.0,0.0,0.0,0.0,0.0,-3.1290535341260695e-05,-0.00019140298698899771,-9.995744959295783e-05,0.00022145782582772,0.00015936069748009873,0.00015949567159001532,-2.0760284621612612e-05,-0.00015273382946244854,-6.488988885460622e-05,-0.0006215747856028593,-0.00022581607192906106,-0.0005668412110387096,0.0002699538666164959,-0.0009576564843965039,0.2720577120780945,11.850122451782227,-0.9696381092071533,-21.891817092895508,-0.4333396553993225,-2.5399813652038574,0.33725303411483765,0
46,0.22499966621398926,-0.2720577120780945,-11.850122451782227,0.9696381092071533,21.891817092895508,0.4333396553993225,2.5399813652038574,-0.33725303411483765,0.0,0.0,0.0,0.0,0.0,0.0,0.0,-0.27794362844606607,0.50215445965502,-0.19724886101675718,0.6049032059858996,-0.08865208605268642,0.13460059971245483,-0.31716754201825875,0.17291152815442337,-0.48732884384456426,-0.11137114327936841,-1.9466016441744582,0.1334465412100156,2.595390864107344,0.945265319245812,0.1728802376190821,-0.48752024683155326,-0.11147110072896137,-1.9463801863486305,0.1336059019074957,2.595550359778934,0.9452445589611904,0.00015273382946244854,6.488988885460622e-05,0.0006215747856028593,0.00022581607192906106,0.0005668412110387096,-0.0002699538666164959,0.0009576564843965039,0.0,0.0,0.0,0.0,0.0,0.0,0.0,-3.1290535341260695e-05,-0.00019140298698899771,-9.995744959295783e-05,0.00022145782582772,0.00015936069748009873,0.00015949567159001532,-2.0760284621612612e-05,-0.00015273382946244854,-6.488988885460622e-05,-0.0006215747856028593,-0.00022581607192906106,-0.0005668412110387096,0.0002699538666164959,-0.0009576564843965039,0.2720577120780945,11.850122451782227,-0.9696381092071533,-21.891817092895508,-0.4333396553993225,-2.5399813652038574,0.33725303411483765,0
47,0.23000001907348633,-0.2720577120780945,-11.850122451782227,0.9696381092071533,21.891817092895508,0.4333396553993225,2.5399813652038574,-0.33725303411483765,0.0,0.0,0.0,0.0,0.0,0.0,0.0,-0.27794362844606607,0.50215445965502,-0.19724886101675718,0.6049032059858996,-0.08865208605268642,0.13460059971245483,-0.31716754201825875,0.17291152815442337,-0.48732884384456426,-0.11137114327936841,-1.9466016441744582,0.1334465412100156,2.595390864107344,0.945265319245812,0.1728802376190821,-0.48752024683155326,-0.11147110072896137,-1.9463801863486305,0.1336059019074957,2.595550359778934,0.9452445589611904,0.00015273382946244854,6.488988885460622e-05,0.0006215747856028593,0.00022581607192906106,0.0005668412110387096,-0.0002699538666164959,0.0009576564843965039,0.0,0.0,0.0,0.0,0.0,0.0,0.0,-3.1290535341260695e-05,-0.00019140298698899771,-9.995744959295783e-05,0.00022145782582772,0.00015936069748009873,0.00015949567159001532,-2.0760284621612612e-05,-0.00015273382946244854,-6.488988885460622e-05,-0.0006215747856028593,-0.00022581607192906106,-0.0005668412110387096,0.0002699538666164959,-0.0009576564843965039,0.2720577120780945,11.850122451782227,-0.9696381092071533,-21.891817092895508,-0.4333396553993225,-2.5399813652038574,0.33725303411483765,0
48,0.2350001335144043,-0.2998287081718445,-11.850122451782227,1.0410492420196533,21.939424514770508,0.4452415108680725,2.5463900566101074,-0.27591270208358765,0.0,0.0,0.0,0.0,0.0,0.0,0.0,-0.2770803850524314,0.4927812235565891,-0.1995319857888072,0.6060367353900405,-0.08845483856522547,0.1346230794203333,-0.3169641756074235,0.1729134769962545,-0.48732905577084423,-0.11137615458693419,-1.946604987880624,0.1334419015255975,2.595390152030521,0.9452567290852011,0.1728802376190821,-0.48752024683155326,-0.11147110072896137,-1.9463801863486305,0.1336059019074957,2.595550359778934,0.9452445589611904,0.000482926697292919,-0.00023353912156284998,-0.0013357011714732222,-0.0008441821703058822,-0.00011081779737808982,-0.0003337327758871478,-0.0007231618933263977,0.0,0.0,0.0,0.0,0.0,0.0,0.0,-3.323937717239489e-05,-0.00019119106070902836,-9.494614202718021e-05,0.000224801531993446,0.00016400038189817723,0.000160207748412855,-1.2170124010668637e-05,-0.000482926697292919,0.00023353912156284998,0.0013357011714732222,0.0008441821703058822,0.00011081779737808982,0.0003337327758871478,0.0007231618933263977,0.2998287081718445,11.850122451782227,-1.0410492420196533,-21.939424514770508,-0.4452415108680725,-2.5463900566101074,0.27591270208358765,0
49,0.23999810218811035,-0.2998287081718445,-11.850122451782227,1.0410492420196533,21.939424514770508,0.4452415108680725,2.5463900566101074,-0.27591270208358765,0.0,0.0,0.0,0.0,0.0,0.0,0.0,-0.2770803850524314,0.4927812235565891,-0.1995319857888072,0.6060367353900405,-0.08845483856522547,0.1346230794203333,-0.3169641756074235,0.1729134769962545,-0.48732905577084423,-0.11137615458693419,-1.946604987880624,0.1334419015255975,2.595390152030521,0.9452567290852011,0.1728802376190821,-0.48752024683155326,-0.11147110072896137,-1.9463801863486305,0.1336059019074957,2.595550359778934,0.9452445589611904,0.000482926697292919,-0.00023353912156284998,-0.0013357011714732222,-0.0008441821703058822,-0.00011081779737808982,-0.0003337327758871478,-0.0007231618933263977,0.0,0.0,0.0,0.0,0.0,0.0,0.0,-3.323937717239489e-05,-0.00019119106070902836,-9.494614202718021e-05,0.000224801531993446,0.00016400038189817723,0.000160207748412855,-1.2170124010668637e-05,-0.000482926697292919,0.00023353912156284998,0.0013357011714732222,0.0008441821703058822,0.00011081779737808982,0.0003337327758871478,0.0007231618933263977,0.2998287081718445,11.850122451782227,-1.0410492420196533,-21.939424514770508,-0.4452415108680725,-2.5463900566101074,0.27591270208358765,0
50,0.24499726295471191,-0.2720577120780945,-11.850122451782227,0.9696381092071533,21.868013381958008,0.4333396553993225,2.5399813652038574,-0.28964561223983765,0.0,0.0,0.0,0.0,0.0,0.0,0.0,-0.27508248673618546,0.4973698173774778,-0.19290057071995945,0.6048271023783677,-0.08913463741762473,0.13444918988456817,-0.31592571995100144,0.17291152815442337,-0.4873290822629938,-0.11137114327936841,-1.9465997457250692,0.13344334240868666,2.595390864107344,0.9452567679896846,0.1728802376190821,-0.48752024683155326,-0.11147110072896137,-1.9463801863486305,0.1336059019074957,2.595550359778934,0.9452445589611904,0.000146377368123593,0.00021298464662948568,0.0008395639997812206,0.001368111639046224,0.0003194870094788914,-0.0003473727702561656,-0.0005303947693054777,0.0,0.0,0.0,0.0,0.0,0.0,0.0,-3.1290535341260695e-05,-0.0001911645685594432,-9.995744959295783e-05,0.00021955937643869383,0.00016255949880902842,0.00015949567159001532,-1.2209028494192253e-05,-0.000146377368123593,-0.00021298464662948568,-0.0008395639997812206,-0.001368111639046224,-0.0003194870094788914,0.0003473727702561656,0.0005303947693054777,0.2720577120780945,11.850122451782227,-0.9696381092071533,-21.868013381958008,-0.4333396553993225,-2.5399813652038574,0.28964561223983765,0
51,0.24999618530273438,-0.2720577120780945,-11.850122451782227,0.9696381092071533,21.868013381958008,0.4333396553993225,2.5399813652038574,-0.28964561223983765,0.0,0.0,0.0,0.0,0.0,0.0,0.0,-0.27508248673618546,0.4973698173774778,-0.19290057071995945,0.6048271023783677,-0.08913463741762473,0.13444918988456817,-0.31592571995100144,0.17291152815442337,-0.4873290822629938,-0.11137114327936841,-1.9465997457250692,0.13344334240868666,2.595390864107344,0.9452567679896846,0.1728802376190821,-0.48752024683155326,-0.11147110072896137,-1.9463801863486305,0.1336059019074957,2.595550359778934,0.9452445589611904,0.000146377368123593,0.00021298464662948568,0.0008395639997812206,0.001368111639046224,0.0003194870094788914,-0.0003473727702561656,-0.0005303947693054777,0.0,0.0,0.0,0.0,0.0,0.0,0.0,-3.1290535341260695e-05,-0.0001911645685594432,-9.995744959295783e-05,0.00021955937643869383,0.00016255949880902842,0.00015949567159001532,-1.2209028494192253e-05,-0.000146377368123593,-0.00021298464662948568,-0.0008395639997812206,-0.001368111639046224,-0.0003194870094788914,0.0003473727702561656,0.0005303947693054777,0.2720577120780945,11.850122451782227,-0.9696381092071533,-21.868013381958008,-0.4333396553993225,-2.5399813652038574,0.28964561223983765,0
52,0.2550923824310303,-0.2720577120780945,-11.850122451782227,1.0688202381134033,21.939424514770508,0.4452415108680725,2.5335726737976074,-0.28964561223983765,0.0,0.0,0.0,0.0,0.0,0.0,0.0,-0.2713104645722898,0.5014590672642834,-0.18582941196456776,0.6034520987764705,-0.08999430835103174,0.13343417437800417,-0.3149493394694375,0.17291152815442337,-0.48732908226314336,-0.11137810342876533,-1.9466028837576852,0.13344521876357288,2.5953915747306167,0.9452603879149362,0.1728802376190821,-0.48752024683155326,-0.11147110072896137,-1.9463801863486305,0.1336059019074957,2.595550359778934,0.9452445589611904,-7.125085781001673e-05,0.0004368961531616461,-0.000737905461798828,-0.0008240452688902535,-0.00014556225531093612,9.756169667913957e-05,-0.0006046288136614419,0.0,0.0,0.0,0.0,0.0,0.0,0.0,-3.1290535341260695e-05,-0.00019116456840989615,-9.299730019603214e-05,0.00022269740905467295,0.0001606831439228129,0.00015878504831734475,-1.5828953745744556e-05,7.125085781001673e-05,-0.0004368961531616461,0.000737905461798828,0.0008240452688902535,0.00014556225531093612,-9.756169667913957e-05,0.0006046288136614419,0.2720577120780945,11.850122451782227,-1.0688202381134033,-21.939424514770508,-0.4452415108680725,-2.5335726737976074,0.28964561223983765,0
53,0.2599971294403076,-0.2720577120780945,-11.850122451782227,1.0688202381134033,21.939424514770508,0.4452415108680725,2.5335726737976074,-0.28964561223983765,0.0,0.0,0.0,0.0,0.0,0.0,0.0,-0.2713104645722898,0.5014590672642834,-0.18582941196456776,0.6034520987764705,-0.08999430835103174,0.13343417437800417,-0.3149493394694375,0.17291152815442337,-0.48732908226314336,-0.11137810342876533,-1.9466028837576852,0.13344521876357288,2.5953915747306167,0.9452603879149362,0.1728802376190821,-0.48752024683155326,-0.11147110072896137,-1.9463801863486305,0.1336059019074957,2.595550359778934,0.9452445589611904,-7.125085781001673e-05,0.0004368961531616461,-0.000737905461798828,-0.0008240452688902535,-0.00014556225531093612,9.756169667913957e-05,-0.0006046288136614419,0.0,0.0,0.0,0.0,0.0,0.0,0.0,-3.1290535341260695e-05,-0.00019116456840989615,-9.299730019603214e-05,0.00022269740905467295,0.0001606831439228129,0.00015878504831734475,-1.5828953745744556e-05,7.125085781001673e-05,-0.0004368961531616461,0.000737905461798828,0.0008240452688902535,0.00014556225531093612,-9.756169667913957e-05,0.0006046288136614419,0.2720577120780945,11.850122451782227,-1.0688202381134033,-21.939424514770508,-0.4452415108680725,-2.5335726737976074,0.28964561223983765,0
54,0.2649986743927002,-0.24825400114059448,-11.802515029907227,1.0410492420196533,21.939424514770508,0.4452415108680725,2.5399813652038574,-0.31711143255233765,0.0,0.0,0.0,0.0,0.0,0.0,0.0,-0.26693508675899374,0.505642779208463,-0.1801780993008081,0.6031108204389097,-0.09050246289421254,0.13325014102710275,-0.3142616803443317,0.1729098577185681,-0.4873324221537075,-0.11137615458693419,-1.9466047497772319,0.1334452187816301,2.595390864107336,0.9452613195811331,0.1728802376190821,-0.48752024683155326,-0.11147110072896137,-1.9463801863486305,0.1336059019074957,2.595550359778934,0.9452445589611904,0.0002459787401593463,-0.0003638561658279859,0.00013985103569750151,-0.0012683957494294233,-0.00010216430022436478,-0.000246107417656035,0.00015546525350436667,0.0,0.0,0.0,0.0,0.0,0.0,0.0,-2.9620099485982987e-05,-0.0001878246778457826,-9.494614202718021e-05,0.00022456342860133205,0.00016068312586559053,0.00015949567159800893,-1.676061994271283e-05,-0.0002459787401593463,0.0003638561658279859,-0.00013985103569750151,0.0012683957494294233,0.00010216430022436478,0.000246107417656035,-0.00015546525350436667,0.24825400114059448,11.802515029907227,-1.0410492420196533,-21.939424514770508,-0.4452415108680725,-2.5399813652038574,0.31711143255233765,0
55,0.27000904083251953,-0.24825400114059448,-11.802515029907227,1.0410492420196533,21.939424514770508,0.4452415108680725,2.5399813652038574,-0.31711143255233765,0.0,0.0,0.0,0.0,0.0,0.0,0.0,-0.26693508675899374,0.505642779208463,-0.1801780993008081,0.6031108204389097,-0.09050246289421254,0.13325014102710275,-0.3142616803443317,0.1729098577185681,-0.4873324221537075,-0.11137615458693419,-1.9466047497772319,0.1334452187816301,2.595390864107336,0.9452613195811331,0.1728802376190821,-0.48752024683155326,-0.11147110072896137,-1.9463801863486305,0.1336059019074957,2.595550359778934,0.9452445589611904,0.0002459787401593463,-0.0003638561658279859,0.00013985103569750151,-0.0012683957494294233,-0.00010216430022436478,-0.000246107417656035,0.00015546525350436667,0.0,0.0,0.0,0.0,0.0,0.0,0.0,-2.9620099485982987e-05,-0.0001878246778457826,-9.494614202718021e-05,0.00022456342860133205,0.00016068312586559053,0.00015949567159800893,-1.676061994271283e-05,-0.0002459787401593463,0.0003638561658279859,-0.00013985103569750151,0.0012683957494294233,0.00010216430022436478,0.000246107417656035,-0.00015546525350436667,0.24825400114059448,11.802515029907227,-1.0410492420196533,-21.939424514770508,-0.4452415108680725,-2.5399813652038574,0.31711143255233765,0
56,0.2750074863433838,-0.24825400114059448,-11.873926162719727,0.9934418201446533,21.915620803833008,0.4452415108680725,2.5335726737976074,-0.32352012395858765,0.0,0.0,0.0,0.0,0.0,0.0,0.0,-0.2702425705304946,0.49610791211800875,-0.18785540754503186,0.6128356092668228,-0.08978839755785932,0.13411383157699625,-0.31458014579618154,0.1729098577185681,-0.4873274118272875,-0.11137281371522367,-1.9466033136537402,0.133441980507884,2.5953915892661192,0.9452643291024746,0.1728802376190821,-0.48752024683155326,-0.11147110072896137,-1.9463801863486305,0.1336059019074957,2.595550359778934,0.9452445589611904,9.6961316842043e-05,0.0009604261063285977,0.00022200160765915335,9.241710325177569e-05,-0.00016867674061556387,-0.0001211054956663494,0.0008907408684129365,0.0,0.0,0.0,0.0,0.0,0.0,0.0,-2.9620099485982987e-05,-0.00019283500426575673,-9.8287013737694e-05,0.0002231273051096494,0.0001639213996116884,0.0001587705128147654,-1.9770141284181086e-05,-9.6961316842043e-05,-0.0009604261063285977,-0.00022200160765915335,-9.241710325177569e-05,0.00016867674061556387,0.0001211054956663494,-0.0008907408684129365,0.24825400114059448,11.873926162719727,-0.9934418201446533,-21.915620803833008,-0.4452415108680725,-2.5335726737976074,0.32352012395858765,0
57,0.2803080081939697,-0.24825400114059448,-11.873926162719727,0.9934418201446533,21.915620803833008,0.4452415108680725,2.5335726737976074,-0.32352012395858765,0.0,0.0,0.0,0.0,0.0,0.0,0.0,-0.2702425705304946,0.49610791211800875,-0.18785540754503186,0.6128356092668228,-0.08978839755785932,0.13411383157699625,-0.31458014579618154,0.1729098577185681,-0.4873274118272875,-0.11137281371522367,-1.9466033136537402,0.133441980507884,2.5953915892661192,0.9452643291024746,0.1728802376190821,-0.48752024683155326,-0.11147110072896137,-1.9463801863486305,0.1336059019074957,2.595550359778934,0.9452445589611904,9.6961316842043e-05,0.0009604261063285977,0.00022200160765915335,9.241710325177569e-05,-0.00016867674061556387,-0.0001211054956663494,0.0008907408684129365,0.0,0.0,0.0,0.0,0.0,0.0,0.0,-2.9620099485982987e-05,-0.00019283500426575673,-9.8287013737694e-05,0.0002231273051096494,0.0001639213996116884,0.0001587705128147654,-1.9770141284181086e-05,-9.6961316842043e-05,-0.0009604261063285977,-0.00022200160765915335,-9.241710325177569e-05,0.00016867674061556387,0.0001211054956663494,-0.0008907408684129365,0.24825400114059448,11.873926162719727,-0.9934418201446533,-21.915620803833008,-0.4452415108680725,-2.5335726737976074,0.32352012395858765,0
58,0.28502392768859863,-0.2720577120780945,-11.850122451782227,0.9418671131134033,21.915620803833008,0.4452415108680725,2.5335726737976074,-0.29605430364608765,0.0,0.0,0.0,0.0,0.0,0.0,0.0,-0.26729429232839186,0.4973771160637092,-0.18868812125677945,0.614608207221058,-0.08960898396746603,0.1340492189355064,-0.31481896070613186,0.17291152815442337,-0.48732908226314336,-0.11136919443753726,-1.9466030585324714,0.1334452187091784,2.5953915761842405,0.94526182409925,0.1728802376190821,-0.48752024683155326,-0.11147110072896137,-1.9463801863486305,0.1336059019074957,2.595550359778934,0.9452445589611904,-0.000527340709363935,-4.780357625061662e-05,0.001064159180138462,0.00015632777627827473,-2.4548797683382587e-05,0.0001789394713328967,-4.6510746803447404e-05,0.0,0.0,0.0,0.0,0.0,0.0,0.0,-3.1290535341260695e-05,-0.00019116456840989615,-0.0001019062914241059,0.00022287218384087204,0.00016068319831730182,0.00015878359469345682,-1.726513805955232e-05,0.000527340709363935,4.780357625061662e-05,-0.001064159180138462,-0.00015632777627827473,2.4548797683382587e-05,-0.0001789394713328967,4.6510746803447404e-05,0.2720577120780945,11.850122451782227,-0.9418671131134033,-21.915620803833008,-0.4452415108680725,-2.5335726737976074,0.29605430364608765,0
59,0.2900073528289795,-0.2720577120780945,-11.850122451782227,0.9418671131134033,21.915620803833008,0.4452415108680725,2.5335726737976074,-0.29605430364608765,0.0,0.0,0.0,0.0,0.0,0.0,0.0,-0.26729429232839186,0.4973771160637092,-0.18868812125677945,0.614608207221058,-0.08960898396746603,0.1340492189355064,-0.31481896070613186,0.17291152815442337,-0.48732908226314336,-0.11136919443753726,-1.9466030585324714,0.1334452187091784,2.5953915761842405,0.94526182409925,0.1728802376190821,-0.48752024683155326,-0.11147110072896137,-1.9463801863486305,0.1336059019074957,2.595550359778934,0.9452445589611904,-0.000527340709363935,-4.780357625061662e-05,0.001064159180138462,0.00015632777627827473,-2.4548797683382587e-05,0.0001789394713328967,-4.6510746803447404e-05,0.0,0.0,0.0,0.0,0.0,0.0,0.0,-3.1290535341260695e-05,-0.00019116456840989615,-0.0001019062914241059,0.00022287218384087204,0.00016068319831730182,0.00015878359469345682,-1.726513805955232e-05,0.000527340709363935,4.780357625061662e-05,-0.001064159180138462,-0.00015632777627827473,2.4548797683382587e-05,-0.0001789394713328967,4.6510746803447404e-05,0.2720577120780945,11.850122451782227,-0.9418671131134033,-21.915620803833008,-0.4452415108680725,-2.5335726737976074,0.29605430364608765,0
60,0.2950022220611572,-0.24825400114059448,-11.850122451782227,0.9180634021759033,21.915620803833008,0.4452415108680725,2.5399813652038574,-0.32352012395858765,0.0,0.0,0.0,0.0,0.0,0.0,0.0,-0.27036712788074263,0.5058439398988789,-0.19254647642119468,0.6105197857313717,-0.09003777698176355,0.13368483284730018,-0.31501040480068243,0.1729098577185681,-0.48732908226314336,-0.111367524001682,-1.94660125016917,0.1334452187816298,2.595390864107344,0.9452608965321673,0.1728802376190821,-0.48752024683155326,-0.11147110072896137,-1.9463801863486305,0.1336059019074957,2.595550359778934,0.9452445589611904,-0.0018030486188824527,0.0004119383581346019,0.0010739079535088529,-0.00038071625045181317,-6.789564499751235e-05,-6.167157300829148e-05,0.0005592638954287416,0.0,0.0,0.0,0.0,0.0,0.0,0.0,-2.9620099485982987e-05,-0.00019116456840989615,-0.00010357672727936973,0.00022106382053954654,0.00016068312586589584,0.00015949567159001532,-1.6337570976854288e-05,0.0018030486188824527,-0.0004119383581346019,-0.0010739079535088529,0.00038071625045181317,6.789564499751235e-05,6.167157300829148e-05,-0.0005592638954287416,0.24825400114059448,11.850122451782227,-0.9180634021759033,-21.915620803833008,-0.4452415108680725,-2.5399813652038574,0.32352012395858765,0
61,0.3000338077545166,-0.24825400114059448,-11.850122451782227,0.9180634021759033,21.915620803833008,0.4452415108680725,2.5399813652038574,-0.32352012395858765,0.0,0.0,0.0,0.0,0.0,0.0,0.0,-0.27036712788074263,0.5058439398988789,-0.19254647642119468,0.6105197857313717,-0.09003777698176355,0.13368483284730018,-0.31501040480068243,0.1729098577185681,-0.48732908226314336,-0.111367524001682,-1.94660125016917,0.1334452187816298,2.595390864107344,0.9452608965321673,0.1728802376190821,-0.48752024683155326,-0.11147110072896137,-1.9463801863486305,0.1336059019074957,2.595550359778934,0.9452445589611904,-0.0018030486188824527,0.0004119383581346019,0.0010739079535088529,-0.00038071625045181317,-6.789564499751235e-05,-6.167157300829148e-05,0.0005592638954287416,0.0,0.0,0.0,0.0,0.0,0.0,0.0,-2.9620099485982987e-05,-0.00019116456840989615,-0.00010357672727936973,0.00022106382053954654,0.00016068312586589584,0.00015949567159001532,-1.6337570976854288e-05,0.0018030486188824527,-0.0004119383581346019,-0.0010739079535088529,0.00038071625045181317,6.789564499751235e-05,6.167157300829148e-05,-0.0005592638954287416,0.24825400114059448,11.850122451782227,-0.9180634021759033,-21.915620803833008,-0.4452415108680725,-2.5399813652038574,0.32352012395858765,0
62,0.3050057888031006,-0.19667929410934448,-11.802515029907227,0.9934418201446533,21.891817092895508,0.4388328194618225,2.5335726737976074,-0.26858848333358765,0.0,0.0,0.0,0.0,0.0,0.0,0.0,-0.2658707194525981,0.5031808798826185,-0.1814821350380274,0.6144902771724844,-0.09059120022444343,0.13392535091135946,-0.3157718643192503,0.17290623844088168,-0.4873324231348539,-0.11137281371522367,-1.9466015449580323,0.13344593085845308,2.595391576184167,0.9452544685293629,0.1728802376190821,-0.48752024683155326,-0.11147110072896137,-1.9463801863486305,0.1336059019074957,2.595550359778934,0.9452445589611904,-0.0017247829441737535,-0.0002799001272458723,-0.00023762137461753096,0.0006339770364981354,0.0002420281492708815,6.625512420910705e-05,-0.0016117599840896936,0.0,0.0,0.0,0.0,0.0,0.0,0.0,-2.6000821799571083e-05,-0.00018782369669934074,-9.8287013737694e-05,0.0002213586094017561,0.00015997104904261206,0.00015878359476717563,-9.909568172483674e-06,0.0017247829441737535,0.0002799001272458723,0.00023762137461753096,-0.0006339770364981354,-0.0002420281492708815,-6.625512420910705e-05,0.0016117599840896936,0.19667929410934448,11.802515029907227,-0.9934418201446533,-21.891817092895508,-0.4388328194618225,-2.5335726737976074,0.26858848333358765,0
63,0.3100144863128662,-0.19667929410934448,-11.802515029907227,0.9934418201446533,21.891817092895508,0.4388328194618225,2.5335726737976074,-0.26858848333358765,0.0,0.0,0.0,0.0,0.0,0.0,0.0,-0.2658707194525981,0.5031808798826185,-0.1814821350380274,0.6144902771724844,-0.09059120022444343,0.13392535091135946,-0.3157718643192503,0.17290623844088168,-0.4873324231348539,-0.11137281371522367,-1.9466015449580323,0.13344593085845308,2.595391576184167,0.9452544685293629,0.1728802376190821,-0.48752024683155326,-0.11147110072896137,-1.9463801863486305,0.1336059019074957,2.595550359778934,0.9452445589611904,-0.0017247829441737535,-0.0002799001272458723,-0.00023762137461753096,0.0006339770364981354,0.0002420281492708815,6.625512420910705e-05,-0.0016117599840896936,0.0,0.0,0.0,0.0,0.0,0.0,0.0,-2.6000821799571083e-05,-0.00018782369669934074,-9.8287013737694e-05,0.0002213586094017561,0.00015997104904261206,0.00015878359476717563,-9.909568172483674e-06,0.0017247829441737535,0.0002799001272458723,0.00023762137461753096,-0.0006339770364981354,-0.0002420281492708815,-6.625512420910705e-05,0.0016117599840896936,0.19667929410934448,11.802515029907227,-0.9934418201446533,-21.891817092895508,-0.4388328194618225,-2.5335726737976074,0.26858848333358765,0
64,0.3149993419647217,-0.2720577120780945,-11.850122451782227,1.0172455310821533,21.891817092895508,0.4452415108680725,2.5399813652038574,-0.30978721380233765,0.0,0.0,0.0,0.0,0.0,0.0,0.0,-0.2695940016408292,0.5010206177997724,-0.1928655877940986,0.6136470009969277,-0.08960088282395447,0.13397815754981668,-0.31618588405314535,0.17291152815442337,-0.48732908226314336,-0.11137448415107892,-1.946601417385099,0.1334452186191152,2.595390864107344,0.9452594083728206,0.1728802376190821,-0.48752024683155326,-0.11147110072896137,-1.9463801863486305,0.1336059019074957,2.595550359778934,0.9452445589611904,0.0007410206822710064,0.00037055576352990467,-0.00043108941896021744,5.955716078228286e-05,-0.00012226206901396104,-0.00018530568193891091,0.00013179830944298702,0.0,0.0,0.0,0.0,0.0,0.0,0.0,-3.1290535341260695e-05,-0.00019116456840989615,-9.661657788244404e-05,0.0002212310364684278,0.00016068328838048096,0.00015949567159001532,-1.484941163021336e-05,-0.0007410206822710064,-0.00037055576352990467,0.00043108941896021744,-5.955716078228286e-05,0.00012226206901396104,0.00018530568193891091,-0.00013179830944298702,0.2720577120780945,11.850122451782227,-1.0172455310821533,-21.891817092895508,-0.4452415108680725,-2.5399813652038574,0.30978721380233765,0
65,0.3199949264526367,-0.2720577120780945,-11.850122451782227,1.0172455310821533,21.891817092895508,0.4452415108680725,2.5399813652038574,-0.30978721380233765,0.0,0.0,0.0,0.0,0.0,0.0,0.0,-0.2695940016408292,0.5010206177997724,-0.1928655877940986,0.6136470009969277,-0.08960088282395447,0.13397815754981668,-0.31618588405314535,0.17291152815442337,-0.48732908226314336,-0.11137448415107892,-1.946601417385099,0.1334452186191152,2.595390864107344,0.9452594083728206,0.1728802376190821,-0.48752024683155326,-0.11147110072896137,-1.9463801863486305,0.1336059019074957,2.595550359778934,0.9452445589611904,0.0007410206822710064,0.00037055576352990467,-0.00043108941896021744,5.955716078228286e-05,-0.00012226206901396104,-0.00018530568193891091,0.00013179830944298702,0.0,0.0,0.0,0.0,0.0,0.0,0.0,-3.1290535341260695e-05,-0.00019116456840989615,-9.661657788244404e-05,0.0002212310364684278,0.00016068328838048096,0.00015949567159001532,-1.484941163021336e-05,-0.0007410206822710064,-0.00037055576352990467,0.00043108941896021744,-5.955716078228286e-05,0.00012226206901396104,0.00018530568193891091,-0.00013179830944298702,0.2720577120780945,11.850122451782227,-1.0172455310821533,-21.891817092895508,-0.4452415108680725,-2.5399813652038574,0.30978721380233765,0
66,0.32523179054260254,-0.2720577120780945,-11.850122451782227,1.0172455310821533,21.891817092895508,0.4452415108680725,2.5399813652038574,-0.30978721380233765,0.0,0.0,0.0,0.0,0.0,0.0,0.0,-0.2695940016408292,0.5010206177997724,-0.1928655877940986,0.6136470009969277,-0.08960088282395447,0.13397815754981668,-0.31618588405314535,0.17291152815442337,-0.48732908226314336,-0.11137448415107892,-1.946601417385099,0.1334452186191152,2.595390864107344,0.9452594083728206,0.1728802376190821,-0.48752024683155326,-0.11147110072896137,-1.9463801863486305,0.1336059019074957,2.595550359778934,0.9452445589611904,0.0007410206822710064,0.00037055576352990467,-0.00043108941896021744,5.955716078228286e-05,-0.00012226206901396104,-0.00018530568193891091,0.00013179830944298702,0.0,0.0,0.0,0.0,0.0,0.0,0.0,-3.1290535341260695e-05,-0.00019116456840989615,-9.661657788244404e-05,0.0002212310364684278,0.00016068328838048096,0.00015949567159001532,-1.484941163021336e-05,-0.0007410206822710064,-0.00037055576352990467,0.00043108941896021744,-5.955716078228286e-05,0.00012226206901396104,0.00018530568193891091,-0.00013179830944298702,0.2720577120780945,11.850122451782227,-1.0172455310821533,-21.891817092895508,-0.4452415108680725,-2.5399813652038574,0.30978721380233765,0
67,0.3300037384033203,-0.2720577120780945,-11.850122451782227,1.0172455310821533,21.891817092895508,0.4452415108680725,2.5399813652038574,-0.30978721380233765,0.0,0.0,0.0,0.0,0.0,0.0,0.0,-0.2695940016408292,0.5010206177997724,-0.1928655877940986,0.6136470009969277,-0.08960088282395447,0.13397815754981668,-0.31618588405314535,0.17291152815442337,-0.48732908226314336,-0.11137448415107892,-1.946601417385099,0.1334452186191152,2.595390864107344,0.9452594083728206,0.1728802376190821,-0.48752024683155326,-0.11147110072896137,-1.9463801863486305,0.1336059019074957,2.595550359778934,0.9452445589611904,0.0007410206822710064,0.00037055576352990467,-0.00043108941896021744,5.955716078228286e-05,-0.00012226206901396104,-0.00018530568193891091,0.00013179830944298702,0.0,0.0,0.0,0.0,0.0,0.0,0.0,-3.1290535341260695e-05,-0.00019116456840989615,-9.661657788244404e-05,0.0002212310364684278,0.00016068328838048096,0.00015949567159001532,-1.484941163021336e-05,-0.0007410206822710064,-0.00037055576352990467,0.00043108941896021744,-5.955716078228286e-05,0.00012226206901396104,0.00018530568193891091,-0.00013179830944298702,0.2720577120780945,11.850122451782227,-1.0172455310821533,-21.891817092895508,-0.4452415108680725,-2.5399813652038574,0.30978721380233765,0
68,0.33501482009887695,-0.2720577120780945,-11.850122451782227,0.9934418201446533,21.915620803833008,0.4333396553993225,2.5399813652038574,-0.31711143255233765,0.0,0.0,0.0,0.0,0.0,0.0,0.0,-0.27241326416020967,0.499928265758906,-0.202761101005063,0.6127854036752151,-0.08877807981321315,0.13454919997183207,-0.3161663073498304,0.17291152815442337,-0.48732908226314336,-0.11137281371522367,-1.946602373580636,0.13344546178543262,2.595390864107344,0.945260315432964,0.1728802376190821,-0.48752024683155326,-0.11147110072896137,-1.9463801863486305,0.1336059019074957,2.595550359778934,0.9452445589611904,0.00017852713403305827,0.00036086656884105043,0.0004902052948865008,-0.00033339485766530796,0.0007744300596388701,-0.00014604738605241723,6.880996348683151e-05,0.0,0.0,0.0,0.0,0.0,0.0,0.0,-3.1290535341260695e-05,-0.00019116456840989615,-9.8287013737694e-05,0.0002221872320053997,0.0001604401220630658,0.00015949567159001532,-1.5756471773542557e-05,-0.00017852713403305827,-0.00036086656884105043,-0.0004902052948865008,0.00033339485766530796,-0.0007744300596388701,0.00014604738605241723,-6.880996348683151e-05,0.2720577120780945,11.850122451782227,-0.9934418201446533,-21.915620803833008,-0.4333396553993225,-2.5399813652038574,0.31711143255233765,0
69,0.3400413990020752,-0.2720577120780945,-11.850122451782227,0.9934418201446533,21.915620803833008,0.4333396553993225,2.5399813652038574,-0.31711143255233765,0.0,0.0,0.0,0.0,0.0,0.0,0.0,-0.27241326416020967,0.499928265758906,-0.202761101005063,0.6127854036752151,-0.08877807981321315,0.13454919997183207,-0.3161663073498304,0.17291152815442337,-0.48732908226314336,-0.11137281371522367,-1.946602373580636,0.13344546178543262,2.595390864107344,0.945260315432964,0.1728802376190821,-0.48752024683155326,-0.11147110072896137,-1.9463801863486305,0.1336059019074957,2.595550359778934,0.9452445589611904,0.00017852713403305827,0.00036086656884105043,0.0004902052948865008,-0.00033339485766530796,0.0007744300596388701,-0.00014604738605241723,6.880996348683151e-05,0.0,0.0,0.0,0.0,0.0,0.0,0.0,-3.1290535341260695e-05,-0.00019116456840989615,-9.8287013737694e-05,0.0002221872320053997,0.0001604401220630658,0.00015949567159001532,-1.5756471773542557e-05,-0.00017852713403305827,-0.00036086656884105043,-0.0004902052948865008,0.00033339485766530796,-0.0007744300596388701,0.00014604738605241723,-6.880996348683151e-05,0.2720577120780945,11.850122451782227,-0.9934418201446533,-21.915620803833008,-0.4333396553993225,-2.5399813652038574,0.31711143255233765,0
70,0.34502720832824707,-0.2720577120780945,-11.925500869750977,1.0172455310821533,21.939424514770508,0.4507346749305725,2.5335726737976074,-0.30337852239608765,0.0,0.0,0.0,0.0,0.0,0.0,0.0,-0.2705689263057904,0.4957114488033146,-0.19870280097399098,0.6132733402187303,-0.08822035749742732,0.1353405278864714,-0.31594605683858257,0.17291152815442337,-0.48732379244058543,-0.11137448415107892,-1.9466047299428206,0.1334446084239743,2.595391576184167,0.9452584577507853,0.1728802376190821,-0.48752024683155326,-0.11147110072896137,-1.9463801863486305,0.1336059019074957,2.595550359778934,0.9452445589611904,-9.239608462815118e-05,0.0016272002287532588,-9.377748215576883e-06,-0.0008978426637909616,-0.0002385979621523439,6.893757575352947e-05,0.0004617453673744604,0.0,0.0,0.0,0.0,0.0,0.0,0.0,-3.1290535341260695e-05,-0.00019645439096782624,-9.661657788244404e-05,0.0002245435941901075,0.00016129348352139639,0.00015878359476717563,-1.389878959490165e-05,9.239608462815118e-05,-0.0016272002287532588,9.377748215576883e-06,0.0008978426637909616,0.0002385979621523439,-6.893757575352947e-05,-0.0004617453673744604,0.2720577120780945,11.925500869750977,-1.0172455310821533,-21.939424514770508,-0.4507346749305725,-2.5335726737976074,0.30337852239608765,0
71,0.350039005279541,-0.2720577120780945,-11.925500869750977,1.0172455310821533,21.939424514770508,0.4507346749305725,2.5335726737976074,-0.30337852239608765,0.0,0.0,0.0,0.0,0.0,0.0,0.0,-0.2705689263057904,0.4957114488033146,-0.19870280097399098,0.6132733402187303,-0.08822035749742732,0.1353405278864714,-0.31594605683858257,0.17291152815442337,-0.48732379244058543,-0.11137448415107892,-1.9466047299428206,0.1334446084239743,2.595391576184167,0.9452584577507853,0.1728802376190821,-0.48752024683155326,-0.11147110072896137,-1.9463801863486305,0.1336059019074957,2.595550359778934,0.9452445589611904,-9.239608462815118e-05,0.0016272002287532588,-9.377748215576883e-06,-0.0008978426637909616,-0.0002385979621523439,6.893757575352947e-05,0.0004617453673744604,0.0,0.0,0.0,0.0,0.0,0.0,0.0,-3.1290535341260695e-05,-0.00019645439096782624,-9.661657788244404e-05,0.0002245435941901075,0.00016129348352139639,0.00015878359476717563,-1.389878959490165e-05,9.239608462815118e-05,-0.0016272002287532588,9.377748215576883e-06,0.0008978426637909616,0.0002385979621523439,-6.893757575352947e-05,-0.0004617453673744604,0.2720577120780945,11.925500869750977,-1.0172455310821533,-21.939424514770508,-0.4507346749305725,-2.5335726737976074,0.30337852239608765,0
72,0.35506439208984375,-0.2720577120780945,-11.826318740844727,1.0172455310821533,21.967195510864258,0.4388328194618225,2.5399813652038574,-0.33084434270858765,0.0,0.0,0.0,0.0,0.0,0.0,0.0,-0.2650144617166033,0.5020667451622668,-0.18508588526751235,0.6071351794982373,-0.08859487312497938,0.13443046547448909,-0.3152032769925277,0.17291152815442337,-0.48732860693178615,-0.11137448415107892,-1.9466069366860221,0.1334458777160504,2.595390864107344,0.9452613620628947,0.1728802376190821,-0.48752024683155326,-0.11147110072896137,-1.9463801863486305,0.1336059019074957,2.595550359778934,0.9452445589611904,0.00017226780419724253,-0.0007905041308587365,0.0002054204376758867,-0.0014414957941093847,0.00041375886361369094,-0.0001216509453987043,0.0013539555167761896,0.0,0.0,0.0,0.0,0.0,0.0,0.0,-3.1290535341260695e-05,-0.00019163989976711537,-9.661657788244404e-05,0.00022675033739161243,0.0001600241914452849,0.00015949567159001532,-1.68031017042658e-05,-0.00017226780419724253,0.0007905041308587365,-0.0002054204376758867,0.0014414957941093847,-0.00041375886361369094,0.0001216509453987043,-0.0013539555167761896,0.2720577120780945,11.826318740844727,-1.0172455310821533,-21.967195510864258,-0.4388328194618225,-2.5399813652038574,0.33084434270858765,0
73,0.3600027561187744,-0.2720577120780945,-11.826318740844727,1.0172455310821533,21.967195510864258,0.4388328194618225,2.5399813652038574,-0.33084434270858765,0.0,0.0,0.0,0.0,0.0,0.0,0.0,-0.2650144617166033,0.5020667451622668,-0.18508588526751235,0.6071351794982373,-0.08859487312497938,0.13443046547448909,-0.3152032769925277,0.17291152815442337,-0.48732860693178615,-0.11137448415107892,-1.9466069366860221,0.1334458777160504,2.595390864107344,0.9452613620628947,0.1728802376190821,-0.48752024683155326,-0.11147110072896137,-1.9463801863486305,0.1336059019074957,2.595550359778934,0.9452445589611904,0.00017226780419724253,-0.0007905041308587365,0.0002054204376758867,-0.0014414957941093847,0.00041375886361369094,-0.0001216509453987043,0.0013539555167761896,0.0,0.0,0.0,0.0,0.0,0.0,0.0,-3.1290535341260695e-05,-0.00019163989976711537,-9.661657788244404e-05,0.00022675033739161243,0.0001600241914452849,0.00015949567159001532,-1.68031017042658e-05,-0.00017226780419724253,0.0007905041308587365,-0.0002054204376758867,0.0014414957941093847,-0.00041375886361369094,0.0001216509453987043,-0.0013539555167761896,0.2720577120780945,11.826318740844727,-1.0172455310821533,-21.967195510864258,-0.4388328194618225,-2.5399813652038574,0.33084434270858765,0
74,0.3650209903717041,-0.2998287081718445,-11.774744033813477,1.0172455310821533,21.915620803833008,0.4333396553993225,2.5271639823913574,-0.29605430364608765,0.0,0.0,0.0,0.0,0.0,0.0,0.0,-0.2687566838075859,0.5179222860808023,-0.18768005105155072,0.5994889467657523,-0.08819468501798776,0.13364251143681963,-0.314426766102876,0.1729134769962545,-0.48733437196457213,-0.11137448415107892,-1.9466032399705562,0.13344547494884795,2.5953922882609897,0.9452587430426316,0.1728802376190821,-0.48752024683155326,-0.11147110072896137,-1.9463801863486305,0.1336059019074957,2.595550359778934,0.9452445589611904,0.0008945229883511248,-0.0005857674147869759,6.18383012958147e-05,-0.0004772317241672223,0.000537014571189603,0.0001440783943032982,-0.0005646231014624429,0.0,0.0,0.0,0.0,0.0,0.0,0.0,-3.323937717239489e-05,-0.00018587486698112832,-9.661657788244404e-05,0.0002230536219256507,0.00016042695864773582,0.00015807151794433594,-1.418408144115979e-05,-0.0008945229883511248,0.0005857674147869759,-6.18383012958147e-05,0.0004772317241672223,-0.000537014571189603,-0.0001440783943032982,0.0005646231014624429,0.2998287081718445,11.774744033813477,-1.0172455310821533,-21.915620803833008,-0.4333396553993225,-2.5271639823913574,0.29605430364608765,0
75,0.3699982166290283,-0.2998287081718445,-11.774744033813477,1.0172455310821533,21.915620803833008,0.4333396553993225,2.5271639823913574,-0.29605430364608765,0.0,0.0,0.0,0.0,0.0,0.0,0.0,-0.2687566838075859,0.5179222860808023,-0.18768005105155072,0.5994889467657523,-0.08819468501798776,0.13364251143681963,-0.314426766102876,0.1729134769962545,-0.48733437196457213,-0.11137448415107892,-1.9466032399705562,0.13344547494884795,2.5953922882609897,0.9452587430426316,0.1728802376190821,-0.48752024683155326,-0.11147110072896137,-1.9463801863486305,0.1336059019074957,2.595550359778934,0.9452445589611904,0.0008945229883511248,-0.0005857674147869759,6.18383012958147e-05,-0.0004772317241672223,0.000537014571189603,0.0001440783943032982,-0.0005646231014624429,0.0,0.0,0.0,0.0,0.0,0.0,0.0,-3.323937717239489e-05,-0.00018587486698112832,-9.661657788244404e-05,0.0002230536219256507,0.00016042695864773582,0.00015807151794433594,-1.418408144115979e-05,-0.0008945229883511248,0.0005857674147869759,-6.18383012958147e-05,0.0004772317241672223,-0.000537014571189603,-0.0001440783943032982,0.0005646231014624429,0.2998287081718445,11.774744033813477,-1.0172455310821533,-21.915620803833008,-0.4333396553993225,-2.5271639823913574,0.29605430364608765,0
76,0.37499165534973145,-0.19667929410934448,-11.826318740844727,1.0172455310821533,21.891817092895508,0.4452415108680725,2.5399813652038574,-0.30978721380233765,0.0,0.0,0.0,0.0,0.0,0.0,0.0,-0.2689944490747525,0.49032989501774676,-0.1814218754503603,0.6137933432990046,-0.08843038336127933,0.13538828771537206,-0.31424804453380106,0.17290623844088168,-0.4873307517178522,-0.11137448415107892,-1.9466016468685206,0.13344379709445425,2.595390864107344,0.9452600946115614,0.1728802376190821,-0.48752024683155326,-0.11147110072896137,-1.9463801863486305,0.1336059019074957,2.595550359778934,0.9452445589611904,-0.0007902176167814776,-0.0003538055333865672,-0.0003057112946399192,-0.000339294220742755,-0.00011043448480831801,-0.0002848259737471338,0.0007150666920894485,0.0,0.0,0.0,0.0,0.0,0.0,0.0,-2.6000821799571083e-05,-0.00018949511370108807,-9.661657788244404e-05,0.00022146051989002657,0.00016210481304143598,0.00015949567159001532,-1.553565037093474e-05,0.0007902176167814776,0.0003538055333865672,0.0003057112946399192,0.000339294220742755,0.00011043448480831801,0.0002848259737471338,-0.0007150666920894485,0.19667929410934448,11.826318740844727,-1.0172455310821533,-21.891817092895508,-0.4452415108680725,-2.5399813652038574,0.30978721380233765,0
77,0.380002498626709,-0.19667929410934448,-11.826318740844727,1.0172455310821533,21.891817092895508,0.4452415108680725,2.5399813652038574,-0.30978721380233765,0.0,0.0,0.0,0.0,0.0,0.0,0.0,-0.2689944490747525,0.49032989501774676,-0.1814218754503603,0.6137933432990046,-0.08843038336127933,0.13538828771537206,-0.31424804453380106,0.17290623844088168,-0.4873307517178522,-0.11137448415107892,-1.9466016468685206,0.13344379709445425,2.595390864107344,0.9452600946115614,0.1728802376190821,-0.48752024683155326,-0.11147110072896137,-1.9463801863486305,0.1336059019074957,2.595550359778934,0.9452445589611904,-0.0007902176167814776,-0.0003538055333865672,-0.0003057112946399192,-0.000339294220742755,-0.00011043448480831801,-0.0002848259737471338,0.0007150666920894485,0.0,0.0,0.0,0.0,0.0,0.0,0.0,-2.6000821799571083e-05,-0.00018949511370108807,-9.661657788244404e-05,0.00022146051989002657,0.00016210481304143598,0.00015949567159001532,-1.553565037093474e-05,0.0007902176167814776,0.0003538055333865672,0.0003057112946399192,0.000339294220742755,0.00011043448480831801,0.0002848259737471338,-0.0007150666920894485,0.19667929410934448,11.826318740844727,-1.0172455310821533,-21.891817092895508,-0.4452415108680725,-2.5399813652038574,0.30978721380233765,0
78,0.3849928379058838,-0.19667929410934448,-11.826318740844727,1.0172455310821533,21.891817092895508,0.4452415108680725,2.5399813652038574,-0.30978721380233765,0.0,0.0,0.0,0.0,0.0,0.0,0.0,-0.2689944490747525,0.49032989501774676,-0.1814218754503603,0.6137933432990046,-0.08843038336127933,0.13538828771537206,-0.31424804453380106,0.17290623844088168,-0.4873307517178522,-0.11137448415107892,-1.9466016468685206,0.13344379709445425,2.595390864107344,0.9452600946115614,0.1728802376190821,-0.48752024683155326,-0.11147110072896137,-1.9463801863486305,0.1336059019074957,2.595550359778934,0.9452445589611904,-0.0007902176167814776,-0.0003538055333865672,-0.0003057112946399192,-0.000339294220742755,-0.00011043448480831801,-0.0002848259737471338,0.0007150666920894485,0.0,0.0,0.0,0.0,0.0,0.0,0.0,-2.6000821799571083e-05,-0.00018949511370108807,-9.661657788244404e-05,0.00022146051989002657,0.00016210481304143598,0.00015949567159001532,-1.553565037093474e-05,0.0007902176167814776,0.0003538055333865672,0.0003057112946399192,0.000339294220742755,0.00011043448480831801,0.0002848259737471338,-0.0007150666920894485,0.19667929410934448,11.826318740844727,-1.0172455310821533,-21.891817092895508,-0.4452415108680725,-2.5399813652038574,0.30978721380233765,0
79,0.38999128341674805,-0.19667929410934448,-11.826318740844727,1.0172455310821533,21.891817092895508,0.4452415108680725,2.5399813652038574,-0.30978721380233765,0.0,0.0,0.0,0.0,0.0,0.0,0.0,-0.2689944490747525,0.49032989501774676,-0.1814218754503603,0.6137933432990046,-0.08843038336127933,0.13538828771537206,-0.31424804453380106,0.17290623844088168,-0.4873307517178522,-0.11137448415107892,-1.9466016468685206,0.13344379709445425,2.595390864107344,0.9452600946115614,0.1728802376190821,-0.48752024683155326,-0.11147110072896137,-1.9463801863486305,0.1336059019074957,2.595550359778934,0.9452445589611904,-0.0007902176167814776,-0.0003538055333865672,-0.0003057112946399192,-0.000339294220742755,-0.00011043448480831801,-0.0002848259737471338,0.0007150666920894485,0.0,0.0,0.0,0.0,0.0,0.0,0.0,-2.6000821799571083e-05,-0.00018949511370108807,-9.661657788244404e-05,0.00022146051989002657,0.00016210481304143598,0.00015949567159001532,-1.553565037093474e-05,0.0007902176167814776,0.0003538055333865672,0.0003057112946399192,0.000339294220742755,0.00011043448480831801,0.0002848259737471338,-0.0007150666920894485,0.19667929410934448,11.826318740844727,-1.0172455310821533,-21.891817092895508,-0.4452415108680725,-2.5399813652038574,0.30978721380233765,0
