rezayati/contactInterpretation/dataset/franka_main/labeled_data/link6/b11_2.csv
index,time,tau_J0,tau_J1,tau_J2,tau_J3,tau_J4,tau_J5,tau_J6,tau_J_d0,tau_J_d1,tau_J_d2,tau_J_d3,tau_J_d4,tau_J_d5,tau_J_d6,tau_ext0,tau_ext1,tau_ext2,tau_ext3,tau_ext4,tau_ext5,tau_ext6,q0,q1,q2,q3,q4,q5,q6,q_d0,q_d1,q_d2,q_d3,q_d4,q_d5,q_d6,dq0,dq1,dq2,dq3,dq4,dq5,dq6,dq_d0,dq_d1,dq_d2,dq_d3,dq_d4,dq_d5,dq_d6,e0,e1,e2,e3,e4,e5,e6,de0,de1,de2,de3,de4,de5,de6,etau_J0,etau_J1,etau_J2,etau_J3,etau_J4,etau_J5,etau_J6,label
1,0.0,-0.22445029020309448,-13.536218643188477,0.3983490765094757,18.345064163208008,0.5221458077430725,2.2818026542663574,-0.10470907390117645,0.0,0.0,0.0,0.0,0.0,0.0,0.0,-0.28058864453610055,0.398849529616074,-0.04599948869578787,0.5762670496207712,0.10698899826315582,0.06926251705593271,-0.1399256292704318,0.07177731208351533,-0.3344166668297951,-0.12026969285221908,-2.8747371753224154,-0.0646252996315138,2.518241058632829,0.7687322170147184,0.07165585495296277,-0.33419673383382315,-0.1203439052763738,-2.874768336042937,-0.06453255302590709,2.518161157661014,0.7687020283728597,-0.000757408403583067,7.230695261164486e-05,8.652205919991492e-05,-0.0008335392896747687,0.0004961190554230479,0.00011659686013387933,-0.00013138633465138553,0.0,0.0,0.0,0.0,0.0,0.0,0.0,-0.00012145713055256024,0.00021993299597194982,-7.42124241547154e-05,-3.11607205216724e-05,9.274660560670833e-05,-7.990097181487243e-05,-3.0188641858663878e-05,0.000757408403583067,-7.230695261164486e-05,-8.652205919991492e-05,0.0008335392896747687,-0.0004961190554230479,-0.00011659686013387933,0.00013138633465138553,0.22445029020309448,13.536218643188477,-0.3983490765094757,-18.345064163208008,-0.5221458077430725,-2.2818026542663574,0.10470907390117645,0
2,0.005002260208129883,-0.2998287081718445,-13.488611221313477,0.3705780804157257,18.297456741333008,0.5340476632118225,2.2818026542663574,-0.13858358561992645,0.0,0.0,0.0,0.0,0.0,0.0,0.0,-0.27967040833145734,0.393803628281278,-0.04193795340215668,0.5735196242726863,0.10711826808351618,0.06892638764626388,-0.1334579890635083,0.0717825891303058,-0.33442000770150565,-0.12026774433516435,-2.8747338249541765,-0.06462662644478256,2.5182410581449446,0.7687363678611309,0.07165585495296277,-0.33419673383382315,-0.1203439052763738,-2.874768336042937,-0.06453255302590709,2.518161157661014,0.7687020283728597,0.000701575106259253,-0.0005796538841247739,0.0004456181487056206,-0.0003127655352926956,0.00011101546113971348,-0.00025596874557646095,-0.00013416198787724915,0.0,0.0,0.0,0.0,0.0,0.0,0.0,-0.0001267341773430325,0.00022327386768250523,-7.616094120944938e-05,-3.4511088760513786e-05,9.407341887547604e-05,-7.990048393047289e-05,-3.4339488271140084e-05,-0.000701575106259253,0.0005796538841247739,-0.0004456181487056206,0.0003127655352926956,-0.00011101546113971348,0.00025596874557646095,0.00013416198787724915,0.2998287081718445,13.488611221313477,-0.3705780804157257,-18.297456741333008,-0.5340476632118225,-2.2818026542663574,0.13858358561992645,0
3,0.010046958923339844,-0.2998287081718445,-13.488611221313477,0.3705780804157257,18.297456741333008,0.5340476632118225,2.2818026542663574,-0.13858358561992645,0.0,0.0,0.0,0.0,0.0,0.0,0.0,-0.27967040833145734,0.393803628281278,-0.04193795340215668,0.5735196242726863,0.10711826808351618,0.06892638764626388,-0.1334579890635083,0.0717825891303058,-0.33442000770150565,-0.12026774433516435,-2.8747338249541765,-0.06462662644478256,2.5182410581449446,0.7687363678611309,0.07165585495296277,-0.33419673383382315,-0.1203439052763738,-2.874768336042937,-0.06453255302590709,2.518161157661014,0.7687020283728597,0.000701575106259253,-0.0005796538841247739,0.0004456181487056206,-0.0003127655352926956,0.00011101546113971348,-0.00025596874557646095,-0.00013416198787724915,0.0,0.0,0.0,0.0,0.0,0.0,0.0,-0.0001267341773430325,0.00022327386768250523,-7.616094120944938e-05,-3.4511088760513786e-05,9.407341887547604e-05,-7.990048393047289e-05,-3.4339488271140084e-05,-0.000701575106259253,0.0005796538841247739,-0.0004456181487056206,0.0003127655352926956,-0.00011101546113971348,0.00025596874557646095,0.00013416198787724915,0.2998287081718445,13.488611221313477,-0.3705780804157257,-18.297456741333008,-0.5340476632118225,-2.2818026542663574,0.13858358561992645,0
4,0.01787090301513672,-0.2720577120780945,-13.464807510375977,0.3229706585407257,18.297456741333008,0.5340476632118225,2.2818026542663574,-0.13217489421367645,0.0,0.0,0.0,0.0,0.0,0.0,0.0,-0.2784041447184838,0.38581503634631154,-0.03911150663732982,0.5803678898121245,0.10742522305968157,0.06962510848813226,-0.1308069171259572,0.07178158867517818,-0.3344216781373609,-0.12026440346345565,-2.874733806865498,-0.06462568905353425,2.5182410266029014,0.7687355331976987,0.07165585495296277,-0.33419673383382315,-0.1203439052763738,-2.874768336042937,-0.06453255302590709,2.518161157661014,0.7687020283728597,-0.000744707497690004,-0.0013167073781168547,0.0014715251135781545,0.000474939320667727,4.489024646161076e-05,0.00013299082816487997,-0.0002789570582836671,0.0,0.0,0.0,0.0,0.0,0.0,0.0,-0.00012573372221541534,0.00022494430353775519,-7.950181291814518e-05,-3.45291774390688e-05,9.313602762715811e-05,-7.986894188727334e-05,-3.350482483899242e-05,0.000744707497690004,0.0013167073781168547,-0.0014715251135781545,-0.000474939320667727,-4.489024646161076e-05,-0.00013299082816487997,0.0002789570582836671,0.2720577120780945,13.464807510375977,-0.3229706585407257,-18.297456741333008,-0.5340476632118225,-2.2818026542663574,0.13217489421367645,0
5,0.020064830780029297,-0.2720577120780945,-13.464807510375977,0.3229706585407257,18.297456741333008,0.5340476632118225,2.2818026542663574,-0.13217489421367645,0.0,0.0,0.0,0.0,0.0,0.0,0.0,-0.2784041447184838,0.38581503634631154,-0.03911150663732982,0.5803678898121245,0.10742522305968157,0.06962510848813226,-0.1308069171259572,0.07178158867517818,-0.3344216781373609,-0.12026440346345565,-2.874733806865498,-0.06462568905353425,2.5182410266029014,0.7687355331976987,0.07165585495296277,-0.33419673383382315,-0.1203439052763738,-2.874768336042937,-0.06453255302590709,2.518161157661014,0.7687020283728597,-0.000744707497690004,-0.0013167073781168547,0.0014715251135781545,0.000474939320667727,4.489024646161076e-05,0.00013299082816487997,-0.0002789570582836671,0.0,0.0,0.0,0.0,0.0,0.0,0.0,-0.00012573372221541534,0.00022494430353775519,-7.950181291814518e-05,-3.45291774390688e-05,9.313602762715811e-05,-7.986894188727334e-05,-3.350482483899242e-05,0.000744707497690004,0.0013167073781168547,-0.0014715251135781545,-0.000474939320667727,-4.489024646161076e-05,-0.00013299082816487997,0.0002789570582836671,0.2720577120780945,13.464807510375977,-0.3229706585407257,-18.297456741333008,-0.5340476632118225,-2.2818026542663574,0.13217489421367645,0
6,0.02506875991821289,-0.2720577120780945,-13.464807510375977,0.3229706585407257,18.297456741333008,0.5340476632118225,2.2818026542663574,-0.13217489421367645,0.0,0.0,0.0,0.0,0.0,0.0,0.0,-0.2784041447184838,0.38581503634631154,-0.03911150663732982,0.5803678898121245,0.10742522305968157,0.06962510848813226,-0.1308069171259572,0.07178158867517818,-0.3344216781373609,-0.12026440346345565,-2.874733806865498,-0.06462568905353425,2.5182410266029014,0.7687355331976987,0.07165585495296277,-0.33419673383382315,-0.1203439052763738,-2.874768336042937,-0.06453255302590709,2.518161157661014,0.7687020283728597,-0.000744707497690004,-0.0013167073781168547,0.0014715251135781545,0.000474939320667727,4.489024646161076e-05,0.00013299082816487997,-0.0002789570582836671,0.0,0.0,0.0,0.0,0.0,0.0,0.0,-0.00012573372221541534,0.00022494430353775519,-7.950181291814518e-05,-3.45291774390688e-05,9.313602762715811e-05,-7.986894188727334e-05,-3.350482483899242e-05,0.000744707497690004,0.0013167073781168547,-0.0014715251135781545,-0.000474939320667727,-4.489024646161076e-05,-0.00013299082816487997,0.0002789570582836671,0.2720577120780945,13.464807510375977,-0.3229706585407257,-18.297456741333008,-0.5340476632118225,-2.2818026542663574,0.13217489421367645,0
7,0.03006124496459961,-0.2720577120780945,-13.464807510375977,0.3229706585407257,18.297456741333008,0.5340476632118225,2.2818026542663574,-0.13217489421367645,0.0,0.0,0.0,0.0,0.0,0.0,0.0,-0.2784041447184838,0.38581503634631154,-0.03911150663732982,0.5803678898121245,0.10742522305968157,0.06962510848813226,-0.1308069171259572,0.07178158867517818,-0.3344216781373609,-0.12026440346345565,-2.874733806865498,-0.06462568905353425,2.5182410266029014,0.7687355331976987,0.07165585495296277,-0.33419673383382315,-0.1203439052763738,-2.874768336042937,-0.06453255302590709,2.518161157661014,0.7687020283728597,-0.000744707497690004,-0.0013167073781168547,0.0014715251135781545,0.000474939320667727,4.489024646161076e-05,0.00013299082816487997,-0.0002789570582836671,0.0,0.0,0.0,0.0,0.0,0.0,0.0,-0.00012573372221541534,0.00022494430353775519,-7.950181291814518e-05,-3.45291774390688e-05,9.313602762715811e-05,-7.986894188727334e-05,-3.350482483899242e-05,0.000744707497690004,0.0013167073781168547,-0.0014715251135781545,-0.000474939320667727,-4.489024646161076e-05,-0.00013299082816487997,0.0002789570582836671,0.2720577120780945,13.464807510375977,-0.3229706585407257,-18.297456741333008,-0.5340476632118225,-2.2818026542663574,0.13217489421367645,0
8,0.03505373001098633,-0.2998287081718445,-13.512414932250977,0.3705780804157257,18.345064163208008,0.5340476632118225,2.2753939628601074,-0.15964071452617645,0.0,0.0,0.0,0.0,0.0,0.0,0.0,-0.2779183995237202,0.3882261006119164,-0.037834375390011735,0.5766440718158892,0.10693762985448954,0.06974023897186639,-0.13230894651167247,0.07178290524891506,-0.3344183372656504,-0.12026774433516618,-2.8747371753223634,-0.06462673894111225,2.518240529379749,0.7687343775633021,0.07165585495296277,-0.33419673383382315,-0.1203439052763738,-2.874768336042937,-0.06453255302590709,2.518161157661014,0.7687020283728597,0.00026590938229972664,-0.0005209828248106702,-0.00011297907403108206,-0.0006835940023000048,0.00011023524465111228,0.00014643209562661318,0.00019883279249091796,0.0,0.0,0.0,0.0,0.0,0.0,0.0,-0.000127050295952294,0.00022160343182725528,-7.616094120761752e-05,-3.116072057363084e-05,9.418591520515829e-05,-7.937171873484417e-05,-3.234919044237117e-05,-0.00026590938229972664,0.0005209828248106702,0.00011297907403108206,0.0006835940023000048,-0.00011023524465111228,-0.00014643209562661318,-0.00019883279249091796,0.2998287081718445,13.512414932250977,-0.3705780804157257,-18.345064163208008,-0.5340476632118225,-2.2753939628601074,0.15964071452617645,0
9,0.04000282287597656,-0.2998287081718445,-13.512414932250977,0.3705780804157257,18.345064163208008,0.5340476632118225,2.2753939628601074,-0.15964071452617645,0.0,0.0,0.0,0.0,0.0,0.0,0.0,-0.2779183995237202,0.3882261006119164,-0.037834375390011735,0.5766440718158892,0.10693762985448954,0.06974023897186639,-0.13230894651167247,0.07178290524891506,-0.3344183372656504,-0.12026774433516618,-2.8747371753223634,-0.06462673894111225,2.518240529379749,0.7687343775633021,0.07165585495296277,-0.33419673383382315,-0.1203439052763738,-2.874768336042937,-0.06453255302590709,2.518161157661014,0.7687020283728597,0.00026590938229972664,-0.0005209828248106702,-0.00011297907403108206,-0.0006835940023000048,0.00011023524465111228,0.00014643209562661318,0.00019883279249091796,0.0,0.0,0.0,0.0,0.0,0.0,0.0,-0.000127050295952294,0.00022160343182725528,-7.616094120761752e-05,-3.116072057363084e-05,9.418591520515829e-05,-7.937171873484417e-05,-3.234919044237117e-05,-0.00026590938229972664,0.0005209828248106702,0.00011297907403108206,0.0006835940023000048,-0.00011023524465111228,-0.00014643209562661318,-0.00019883279249091796,0.2998287081718445,13.512414932250977,-0.3705780804157257,-18.345064163208008,-0.5340476632118225,-2.2753939628601074,0.15964071452617645,0
10,0.04505276679992676,-0.3514034152030945,-13.512414932250977,0.3229706585407257,18.321260452270508,0.5340476632118225,2.2753939628601074,-0.13858358561992645,0.0,0.0,0.0,0.0,0.0,0.0,0.0,-0.2823382950987076,0.3895694868658304,-0.04448754972329499,0.5746470775317668,0.10716543662962554,0.06931563367933911,-0.13833370821882887,0.07178623471669347,-0.3344183372656504,-0.1202621927021072,-2.8747347631398696,-0.064625560920771,2.5182380711474166,0.7687353050937796,0.07165585495296277,-0.33419673383382315,-0.1203439052763738,-2.874768336042937,-0.06453255302590709,2.518161157661014,0.7687020283728597,0.0014169745861845942,-0.0007220532701811996,0.0005910839029491126,-0.00013178990772159713,0.00012825313590080823,0.0003855174541192577,-0.0007147137236502939,0.0,0.0,0.0,0.0,0.0,0.0,0.0,-0.0001303797637307036,0.00022160343182725528,-8.171257426660417e-05,-3.3572903067380366e-05,9.300789486391126e-05,-7.691348640248563e-05,-3.3276720919905856e-05,-0.0014169745861845942,0.0007220532701811996,-0.0005910839029491126,0.00013178990772159713,-0.00012825313590080823,-0.0003855174541192577,0.0007147137236502939,0.3514034152030945,13.512414932250977,-0.3229706585407257,-18.321260452270508,-0.5340476632118225,-2.2753939628601074,0.13858358561992645,0
11,0.0500483512878418,-0.3514034152030945,-13.512414932250977,0.3229706585407257,18.321260452270508,0.5340476632118225,2.2753939628601074,-0.13858358561992645,0.0,0.0,0.0,0.0,0.0,0.0,0.0,-0.2823382950987076,0.3895694868658304,-0.04448754972329499,0.5746470775317668,0.10716543662962554,0.06931563367933911,-0.13833370821882887,0.07178623471669347,-0.3344183372656504,-0.1202621927021072,-2.8747347631398696,-0.064625560920771,2.5182380711474166,0.7687353050937796,0.07165585495296277,-0.33419673383382315,-0.1203439052763738,-2.874768336042937,-0.06453255302590709,2.518161157661014,0.7687020283728597,0.0014169745861845942,-0.0007220532701811996,0.0005910839029491126,-0.00013178990772159713,0.00012825313590080823,0.0003855174541192577,-0.0007147137236502939,0.0,0.0,0.0,0.0,0.0,0.0,0.0,-0.0001303797637307036,0.00022160343182725528,-8.171257426660417e-05,-3.3572903067380366e-05,9.300789486391126e-05,-7.691348640248563e-05,-3.3276720919905856e-05,-0.0014169745861845942,0.0007220532701811996,-0.0005910839029491126,0.00013178990772159713,-0.00012825313590080823,-0.0003855174541192577,0.0007147137236502939,0.3514034152030945,13.512414932250977,-0.3229706585407257,-18.321260452270508,-0.5340476632118225,-2.2753939628601074,0.13858358561992645,0
12,0.05499887466430664,-0.3236324191093445,-13.512414932250977,0.3467743694782257,18.297456741333008,0.5404563546180725,2.2818026542663574,-0.17337362468242645,0.0,0.0,0.0,0.0,0.0,0.0,0.0,-0.28682295188897045,0.3942864985523994,-0.050314469783524635,0.5716116205312388,0.10727408867276476,0.06832959703039124,-0.14106980383262369,0.07178428977055795,-0.3344183372656504,-0.12026599496586628,-2.874731609206446,-0.06462632518542658,2.5182410311041763,0.7687398846196611,0.07165585495296277,-0.33419673383382315,-0.1203439052763738,-2.874768336042937,-0.06453255302590709,2.518161157661014,0.7687020283728597,0.0006038667332844215,0.0003045064206373137,-0.0002251738045219787,0.00015258529611877114,-6.48221238388771e-05,-3.823218069365421e-05,0.0008996087288261752,0.0,0.0,0.0,0.0,0.0,0.0,0.0,-0.00012843481759518272,0.00022160343182725528,-7.791031050752295e-05,-3.672683649114106e-05,9.377215951948681e-05,-7.98734431621817e-05,-3.7856246801415416e-05,-0.0006038667332844215,-0.0003045064206373137,0.0002251738045219787,-0.00015258529611877114,6.48221238388771e-05,3.823218069365421e-05,-0.0008996087288261752,0.3236324191093445,13.512414932250977,-0.3467743694782257,-18.297456741333008,-0.5404563546180725,-2.2818026542663574,0.17337362468242645,0
13,0.06004929542541504,-0.3236324191093445,-13.512414932250977,0.3467743694782257,18.297456741333008,0.5404563546180725,2.2818026542663574,-0.17337362468242645,0.0,0.0,0.0,0.0,0.0,0.0,0.0,-0.28682295188897045,0.3942864985523994,-0.050314469783524635,0.5716116205312388,0.10727408867276476,0.06832959703039124,-0.14106980383262369,0.07178428977055795,-0.3344183372656504,-0.12026599496586628,-2.874731609206446,-0.06462632518542658,2.5182410311041763,0.7687398846196611,0.07165585495296277,-0.33419673383382315,-0.1203439052763738,-2.874768336042937,-0.06453255302590709,2.518161157661014,0.7687020283728597,0.0006038667332844215,0.0003045064206373137,-0.0002251738045219787,0.00015258529611877114,-6.48221238388771e-05,-3.823218069365421e-05,0.0008996087288261752,0.0,0.0,0.0,0.0,0.0,0.0,0.0,-0.00012843481759518272,0.00022160343182725528,-7.791031050752295e-05,-3.672683649114106e-05,9.377215951948681e-05,-7.98734431621817e-05,-3.7856246801415416e-05,-0.0006038667332844215,-0.0003045064206373137,0.0002251738045219787,-0.00015258529611877114,6.48221238388771e-05,3.823218069365421e-05,-0.0008996087288261752,0.3236324191093445,13.512414932250977,-0.3467743694782257,-18.297456741333008,-0.5404563546180725,-2.2818026542663574,0.17337362468242645,0
14,0.06615352630615234,-0.2998287081718445,-13.512414932250977,0.3467743694782257,18.345064163208008,0.5404563546180725,2.2946200370788574,-0.08365194499492645,0.0,0.0,0.0,0.0,0.0,0.0,0.0,-0.2851559322777191,0.3904373010855569,-0.049389477350683456,0.576433603827494,0.10713159913479484,0.06904394004592777,-0.14131627092538623,0.07178330039342128,-0.3344183372656504,-0.12026394303281462,-2.874737175309854,-0.06462626871832235,2.518235937806674,0.7687290717622528,0.07165585495296277,-0.33419673383382315,-0.1203439052763738,-2.874768336042937,-0.06453255302590709,2.518161157661014,0.7687020283728597,8.623131528814949e-05,9.462034325821256e-05,0.0011641332206471298,-0.0008728557173472719,-9.010836725194528e-05,-0.0005921329951156278,-0.001020847063259841,0.0,0.0,0.0,0.0,0.0,0.0,0.0,-0.0001274454404585068,0.00022160343182725528,-7.99622435591757e-05,-3.116073308317979e-05,9.371569241525823e-05,-7.478014565975855e-05,-2.704338939307771e-05,-8.623131528814949e-05,-9.462034325821256e-05,-0.0011641332206471298,0.0008728557173472719,9.010836725194528e-05,0.0005921329951156278,0.001020847063259841,0.2998287081718445,13.512414932250977,-0.3467743694782257,-18.345064163208008,-0.5404563546180725,-2.2946200370788574,0.08365194499492645,0
15,0.07005047798156738,-0.2998287081718445,-13.512414932250977,0.3467743694782257,18.345064163208008,0.5404563546180725,2.2946200370788574,-0.08365194499492645,0.0,0.0,0.0,0.0,0.0,0.0,0.0,-0.2851559322777191,0.3904373010855569,-0.049389477350683456,0.576433603827494,0.10713159913479484,0.06904394004592777,-0.14131627092538623,0.07178330039342128,-0.3344183372656504,-0.12026394303281462,-2.874737175309854,-0.06462626871832235,2.518235937806674,0.7687290717622528,0.07165585495296277,-0.33419673383382315,-0.1203439052763738,-2.874768336042937,-0.06453255302590709,2.518161157661014,0.7687020283728597,8.623131528814949e-05,9.462034325821256e-05,0.0011641332206471298,-0.0008728557173472719,-9.010836725194528e-05,-0.0005921329951156278,-0.001020847063259841,0.0,0.0,0.0,0.0,0.0,0.0,0.0,-0.0001274454404585068,0.00022160343182725528,-7.99622435591757e-05,-3.116073308317979e-05,9.371569241525823e-05,-7.478014565975855e-05,-2.704338939307771e-05,-8.623131528814949e-05,-9.462034325821256e-05,-0.0011641332206471298,0.0008728557173472719,9.010836725194528e-05,0.0005921329951156278,0.001020847063259841,0.2998287081718445,13.512414932250977,-0.3467743694782257,-18.345064163208008,-0.5404563546180725,-2.2946200370788574,0.08365194499492645,0
16,0.07504844665527344,-0.24825400114059448,-13.488611221313477,0.3705780804157257,18.345064163208008,0.5340476632118225,2.2753939628601074,-0.16604940593242645,0.0,0.0,0.0,0.0,0.0,0.0,0.0,-0.2838218656551361,0.39270694730806877,-0.046590520456064335,0.5776379780796703,0.10776797274599123,0.06906852156885149,-0.1349808471140618,0.07177897018134062,-0.33442000770150565,-0.12026774136405229,-2.8747349490648584,-0.06462993286458985,2.5182417414852067,0.7687347718148066,0.07165585495296277,-0.33419673383382315,-0.1203439052763738,-2.874768336042937,-0.06453255302590709,2.518161157661014,0.7687020283728597,3.9798375130544265e-06,-0.0007874330619531968,0.00038039018472688194,-0.0009067196861515004,0.0001603553065072328,0.00010520332303005571,0.0008892389057291054,0.0,0.0,0.0,0.0,0.0,0.0,0.0,-0.00012311522837785138,0.00022327386768250523,-7.61639123215141e-05,-3.3386978078642215e-05,9.737983868275679e-05,-8.0583824192626e-05,-3.2743441946925245e-05,-3.9798375130544265e-06,0.0007874330619531968,-0.00038039018472688194,0.0009067196861515004,-0.0001603553065072328,-0.00010520332303005571,-0.0008892389057291054,0.24825400114059448,13.488611221313477,-0.3705780804157257,-18.345064163208008,-0.5340476632118225,-2.2753939628601074,0.16604940593242645,0
17,0.0800623893737793,-0.24825400114059448,-13.488611221313477,0.3705780804157257,18.345064163208008,0.5340476632118225,2.2753939628601074,-0.16604940593242645,0.0,0.0,0.0,0.0,0.0,0.0,0.0,-0.2838218656551361,0.39270694730806877,-0.046590520456064335,0.5776379780796703,0.10776797274599123,0.06906852156885149,-0.1349808471140618,0.07177897018134062,-0.33442000770150565,-0.12026774136405229,-2.8747349490648584,-0.06462993286458985,2.5182417414852067,0.7687347718148066,0.07165585495296277,-0.33419673383382315,-0.1203439052763738,-2.874768336042937,-0.06453255302590709,2.518161157661014,0.7687020283728597,3.9798375130544265e-06,-0.0007874330619531968,0.00038039018472688194,-0.0009067196861515004,0.0001603553065072328,0.00010520332303005571,0.0008892389057291054,0.0,0.0,0.0,0.0,0.0,0.0,0.0,-0.00012311522837785138,0.00022327386768250523,-7.61639123215141e-05,-3.3386978078642215e-05,9.737983868275679e-05,-8.0583824192626e-05,-3.2743441946925245e-05,-3.9798375130544265e-06,0.0007874330619531968,-0.00038039018472688194,0.0009067196861515004,-0.0001603553065072328,-0.00010520332303005571,-0.0008892389057291054,0.24825400114059448,13.488611221313477,-0.3705780804157257,-18.345064163208008,-0.5340476632118225,-2.2753939628601074,0.16604940593242645,0
18,0.0850515365600586,-0.24825400114059448,-13.536218643188477,0.4221527874469757,18.345064163208008,0.5523582100868225,2.2882113456726074,-0.17337362468242645,0.0,0.0,0.0,0.0,0.0,0.0,0.0,-0.2796767231038191,0.3848462899011965,-0.04251856459541444,0.5827701067622434,0.10823157379522175,0.0698396661041283,-0.1355936611173202,0.07177896985254974,-0.3344166668297951,-0.12027136361283582,-2.874737175309848,-0.06463090262705637,2.5182403603127486,0.768739871408455,0.07165585495296277,-0.33419673383382315,-0.1203439052763738,-2.874768336042937,-0.06453255302590709,2.518161157661014,0.7687020283728597,-7.231090801514688e-05,-0.0005851472712217738,-0.0006863971389557599,-0.0005310972373129038,-0.0004916802010373227,-0.00023320428657154014,0.0007159039992299585,0.0,0.0,0.0,0.0,0.0,0.0,0.0,-0.00012311489958696797,0.00021993299597194982,-7.254166353798386e-05,-3.116073308895295e-05,9.834960114928071e-05,-7.920265173444463e-05,-3.7843035595286345e-05,7.231090801514688e-05,0.0005851472712217738,0.0006863971389557599,0.0005310972373129038,0.0004916802010373227,0.00023320428657154014,-0.0007159039992299585,0.24825400114059448,13.536218643188477,-0.4221527874469757,-18.345064163208008,-0.5523582100868225,-2.2882113456726074,0.17337362468242645,0
19,0.09006547927856445,-0.24825400114059448,-13.536218643188477,0.4221527874469757,18.345064163208008,0.5523582100868225,2.2882113456726074,-0.17337362468242645,0.0,0.0,0.0,0.0,0.0,0.0,0.0,-0.2796767231038191,0.3848462899011965,-0.04251856459541444,0.5827701067622434,0.10823157379522175,0.0698396661041283,-0.1355936611173202,0.07177896985254974,-0.3344166668297951,-0.12027136361283582,-2.874737175309848,-0.06463090262705637,2.5182403603127486,0.768739871408455,0.07165585495296277,-0.33419673383382315,-0.1203439052763738,-2.874768336042937,-0.06453255302590709,2.518161157661014,0.7687020283728597,-7.231090801514688e-05,-0.0005851472712217738,-0.0006863971389557599,-0.0005310972373129038,-0.0004916802010373227,-0.00023320428657154014,0.0007159039992299585,0.0,0.0,0.0,0.0,0.0,0.0,0.0,-0.00012311489958696797,0.00021993299597194982,-7.254166353798386e-05,-3.116073308895295e-05,9.834960114928071e-05,-7.920265173444463e-05,-3.7843035595286345e-05,7.231090801514688e-05,0.0005851472712217738,0.0006863971389557599,0.0005310972373129038,0.0004916802010373227,0.00023320428657154014,-0.0007159039992299585,0.24825400114059448,13.536218643188477,-0.4221527874469757,-18.345064163208008,-0.5523582100868225,-2.2882113456726074,0.17337362468242645,0
20,0.09505486488342285,-0.2720577120780945,-13.587793350219727,0.3705780804157257,18.345064163208008,0.5404563546180725,2.2946200370788574,-0.12485067546367645,0.0,0.0,0.0,0.0,0.0,0.0,0.0,-0.27669082411837254,0.3827407708968875,-0.039411837777356164,0.5800003709423973,0.10857913786863443,0.06950021744203366,-0.1393567821569073,0.07178064028840316,-0.3344130475521087,-0.12026774433516618,-2.874737175284731,-0.06462630767973067,2.5182385355596058,0.7687304443206046,0.07165585495296277,-0.33419673383382315,-0.1203439052763738,-2.874768336042937,-0.06453255302590709,2.518161157661014,0.7687020283728597,0.0003945779153987083,0.0004785199435036958,0.00021618554790858198,-0.0005855171522018199,-0.0001133036056589858,-0.0005460180875116698,-0.0004082556492935832,0.0,0.0,0.0,0.0,0.0,0.0,0.0,-0.00012478533544038606,0.00021631371828556567,-7.616094120761752e-05,-3.116075820619457e-05,9.375465382358006e-05,-7.737789859163513e-05,-2.8415947744830916e-05,-0.0003945779153987083,-0.0004785199435036958,-0.00021618554790858198,0.0005855171522018199,0.0001133036056589858,0.0005460180875116698,0.0004082556492935832,0.2720577120780945,13.587793350219727,-0.3705780804157257,-18.345064163208008,-0.5404563546180725,-2.2946200370788574,0.12485067546367645,0
21,0.10005617141723633,-0.2720577120780945,-13.587793350219727,0.3705780804157257,18.345064163208008,0.5404563546180725,2.2946200370788574,-0.12485067546367645,0.0,0.0,0.0,0.0,0.0,0.0,0.0,-0.27669082411837254,0.3827407708968875,-0.039411837777356164,0.5800003709423973,0.10857913786863443,0.06950021744203366,-0.1393567821569073,0.07178064028840316,-0.3344130475521087,-0.12026774433516618,-2.874737175284731,-0.06462630767973067,2.5182385355596058,0.7687304443206046,0.07165585495296277,-0.33419673383382315,-0.1203439052763738,-2.874768336042937,-0.06453255302590709,2.518161157661014,0.7687020283728597,0.0003945779153987083,0.0004785199435036958,0.00021618554790858198,-0.0005855171522018199,-0.0001133036056589858,-0.0005460180875116698,-0.0004082556492935832,0.0,0.0,0.0,0.0,0.0,0.0,0.0,-0.00012478533544038606,0.00021631371828556567,-7.616094120761752e-05,-3.116075820619457e-05,9.375465382358006e-05,-7.737789859163513e-05,-2.8415947744830916e-05,-0.0003945779153987083,-0.0004785199435036958,-0.00021618554790858198,0.0005855171522018199,0.0001133036056589858,0.0005460180875116698,0.0004082556492935832,0.2720577120780945,13.587793350219727,-0.3705780804157257,-18.345064163208008,-0.5404563546180725,-2.2946200370788574,0.12485067546367645,0
22,0.10522222518920898,-0.2998287081718445,-13.512414932250977,0.3467743694782257,18.269685745239258,0.5340476632118225,2.2818026542663574,-0.12485067546367645,0.0,0.0,0.0,0.0,0.0,0.0,0.0,-0.2809058393143288,0.38281600649372605,-0.04277875494980612,0.5737061727721907,0.10894011702569331,0.06874018130728987,-0.13673205218523427,0.07178261543722257,-0.3344183372656504,-0.12026607389931092,-2.874731882518734,-0.0646287502946872,2.5182399134113953,0.7687312213657848,0.07165585495296277,-0.33419673383382315,-0.1203439052763738,-2.874768336042937,-0.06453255302590709,2.518161157661014,0.7687020283728597,-0.00012293984340817722,-0.0006512907396346518,-0.000190403214782083,0.00048137599728868423,1.718700615247022e-05,-0.0002509390746411934,0.0005417547453779375,0.0,0.0,0.0,0.0,0.0,0.0,0.0,-0.00012676048425980246,0.00022160343182725528,-7.783137706288135e-05,-3.645352420322823e-05,9.619726878011547e-05,-7.875575038118754e-05,-2.919299292503119e-05,0.00012293984340817722,0.0006512907396346518,0.000190403214782083,-0.00048137599728868423,-1.718700615247022e-05,0.0002509390746411934,-0.0005417547453779375,0.2998287081718445,13.512414932250977,-0.3467743694782257,-18.269685745239258,-0.5340476632118225,-2.2818026542663574,0.12485067546367645,0
23,0.11005043983459473,-0.2998287081718445,-13.512414932250977,0.3467743694782257,18.269685745239258,0.5340476632118225,2.2818026542663574,-0.12485067546367645,0.0,0.0,0.0,0.0,0.0,0.0,0.0,-0.2809058393143288,0.38281600649372605,-0.04277875494980612,0.5737061727721907,0.10894011702569331,0.06874018130728987,-0.13673205218523427,0.07178261543722257,-0.3344183372656504,-0.12026607389931092,-2.874731882518734,-0.0646287502946872,2.5182399134113953,0.7687312213657848,0.07165585495296277,-0.33419673383382315,-0.1203439052763738,-2.874768336042937,-0.06453255302590709,2.518161157661014,0.7687020283728597,-0.00012293984340817722,-0.0006512907396346518,-0.000190403214782083,0.00048137599728868423,1.718700615247022e-05,-0.0002509390746411934,0.0005417547453779375,0.0,0.0,0.0,0.0,0.0,0.0,0.0,-0.00012676048425980246,0.00022160343182725528,-7.783137706288135e-05,-3.645352420322823e-05,9.619726878011547e-05,-7.875575038118754e-05,-2.919299292503119e-05,0.00012293984340817722,0.0006512907396346518,0.000190403214782083,-0.00048137599728868423,-1.718700615247022e-05,0.0002509390746411934,-0.0005417547453779375,0.2998287081718445,13.512414932250977,-0.3467743694782257,-18.269685745239258,-0.5340476632118225,-2.2818026542663574,0.12485067546367645,0
24,0.1150510311126709,-0.3236324191093445,-13.512414932250977,0.3467743694782257,18.345064163208008,0.5340476632118225,2.2818026542663574,-0.10470907390117645,0.0,0.0,0.0,0.0,0.0,0.0,0.0,-0.28435395085254006,0.38266828851301443,-0.04445081855701718,0.5748820248789647,0.10852661939048906,0.06859065332247331,-0.13111119958313855,0.0717843384872029,-0.3344183372656504,-0.12026607389931092,-2.8747369250210455,-0.0646256086373414,2.5182407015099266,0.7687278046215312,0.07165585495296277,-0.33419673383382315,-0.1203439052763738,-2.874768336042937,-0.06453255302590709,2.518161157661014,0.7687020283728597,9.863963586394668e-07,0.00041288863125079386,-7.356135778482858e-06,-0.0008337656331892422,0.00016050813597373847,-0.0002673769117663142,-0.0005066635635482546,0.0,0.0,0.0,0.0,0.0,0.0,0.0,-0.00012848353424013692,0.00022160343182725528,-7.783137706288135e-05,-3.141102189152534e-05,9.305561143431451e-05,-7.95438489125111e-05,-2.5776248671505186e-05,-9.863963586394668e-07,-0.00041288863125079386,7.356135778482858e-06,0.0008337656331892422,-0.00016050813597373847,0.0002673769117663142,0.0005066635635482546,0.3236324191093445,13.512414932250977,-0.3467743694782257,-18.345064163208008,-0.5340476632118225,-2.2818026542663574,0.10470907390117645,0
25,0.12004899978637695,-0.3236324191093445,-13.512414932250977,0.3467743694782257,18.345064163208008,0.5340476632118225,2.2818026542663574,-0.10470907390117645,0.0,0.0,0.0,0.0,0.0,0.0,0.0,-0.28435395085254006,0.38266828851301443,-0.04445081855701718,0.5748820248789647,0.10852661939048906,0.06859065332247331,-0.13111119958313855,0.0717843384872029,-0.3344183372656504,-0.12026607389931092,-2.8747369250210455,-0.0646256086373414,2.5182407015099266,0.7687278046215312,0.07165585495296277,-0.33419673383382315,-0.1203439052763738,-2.874768336042937,-0.06453255302590709,2.518161157661014,0.7687020283728597,9.863963586394668e-07,0.00041288863125079386,-7.356135778482858e-06,-0.0008337656331892422,0.00016050813597373847,-0.0002673769117663142,-0.0005066635635482546,0.0,0.0,0.0,0.0,0.0,0.0,0.0,-0.00012848353424013692,0.00022160343182725528,-7.783137706288135e-05,-3.141102189152534e-05,9.305561143431451e-05,-7.95438489125111e-05,-2.5776248671505186e-05,-9.863963586394668e-07,-0.00041288863125079386,7.356135778482858e-06,0.0008337656331892422,-0.00016050813597373847,0.0002673769117663142,0.0005066635635482546,0.3236324191093445,13.512414932250977,-0.3467743694782257,-18.345064163208008,-0.5340476632118225,-2.2818026542663574,0.10470907390117645,0
26,0.12505245208740234,-0.3236324191093445,-13.512414932250977,0.3705780804157257,18.269685745239258,0.5404563546180725,2.2882113456726074,-0.16604940593242645,0.0,0.0,0.0,0.0,0.0,0.0,0.0,-0.2890005638164829,0.3854092006797436,-0.04765549541993075,0.5762788761025757,0.1081844970604368,0.0682829272144387,-0.12838736589229754,0.07178425960262147,-0.3344183372656504,-0.12026703404648262,-2.874731885607461,-0.06462768965223831,2.51823702245079,0.7687378434368259,0.07165585495296277,-0.33419673383382315,-0.1203439052763738,-2.874768336042937,-0.06453255302590709,2.518161157661014,0.7687020283728597,0.0005575148638507153,0.0004736537925220686,-0.001052821637868598,0.0011211608468021399,3.2830255151649276e-05,-0.00036953856019492006,0.0011635864330775843,0.0,0.0,0.0,0.0,0.0,0.0,0.0,-0.00012840464965870046,0.00022160343182725528,-7.687122989118167e-05,-3.6450435476176324e-05,9.513662633121867e-05,-7.586478977605893e-05,-3.581506396621581e-05,-0.0005575148638507153,-0.0004736537925220686,0.001052821637868598,-0.0011211608468021399,-3.2830255151649276e-05,0.00036953856019492006,-0.0011635864330775843,0.3236324191093445,13.512414932250977,-0.3705780804157257,-18.269685745239258,-0.5404563546180725,-2.2882113456726074,0.16604940593242645,0
27,0.13001227378845215,-0.3236324191093445,-13.512414932250977,0.3705780804157257,18.269685745239258,0.5404563546180725,2.2882113456726074,-0.16604940593242645,0.0,0.0,0.0,0.0,0.0,0.0,0.0,-0.2890005638164829,0.3854092006797436,-0.04765549541993075,0.5762788761025757,0.1081844970604368,0.0682829272144387,-0.12838736589229754,0.07178425960262147,-0.3344183372656504,-0.12026703404648262,-2.874731885607461,-0.06462768965223831,2.51823702245079,0.7687378434368259,0.07165585495296277,-0.33419673383382315,-0.1203439052763738,-2.874768336042937,-0.06453255302590709,2.518161157661014,0.7687020283728597,0.0005575148638507153,0.0004736537925220686,-0.001052821637868598,0.0011211608468021399,3.2830255151649276e-05,-0.00036953856019492006,0.0011635864330775843,0.0,0.0,0.0,0.0,0.0,0.0,0.0,-0.00012840464965870046,0.00022160343182725528,-7.687122989118167e-05,-3.6450435476176324e-05,9.513662633121867e-05,-7.586478977605893e-05,-3.581506396621581e-05,-0.0005575148638507153,-0.0004736537925220686,0.001052821637868598,-0.0011211608468021399,-3.2830255151649276e-05,0.00036953856019492006,-0.0011635864330775843,0.3236324191093445,13.512414932250977,-0.3705780804157257,-18.269685745239258,-0.5404563546180725,-2.2882113456726074,0.16604940593242645,0
28,0.13515853881835938,-0.2720577120780945,-13.536218643188477,0.3467743694782257,18.345064163208008,0.5340476632118225,2.2946200370788574,-0.14590780436992645,0.0,0.0,0.0,0.0,0.0,0.0,0.0,-0.2868499528176837,0.3878744113053973,-0.04719099893801523,0.5785086887486673,0.10823314834561601,0.0689295772222139,-0.13285217544519212,0.07178072830314192,-0.3344166668297951,-0.12026604661398015,-2.874737175284731,-0.06462875133015186,2.5182363081526673,0.7687359999201512,0.07165585495296277,-0.33419673383382315,-0.1203439052763738,-2.874768336042937,-0.06453255302590709,2.518161157661014,0.7687020283728597,0.00021574615818832564,0.0006826574736064038,0.0005720947128411883,-0.0006294589223704938,0.00010064738527123987,-0.0003757563302677768,-0.0002705184982796469,0.0,0.0,0.0,0.0,0.0,0.0,0.0,-0.00012487335017914714,0.00021993299597194982,-7.785866239365391e-05,-3.116075820619457e-05,9.619830424477394e-05,-7.515049165318644e-05,-3.3971547291455906e-05,-0.00021574615818832564,-0.0006826574736064038,-0.0005720947128411883,0.0006294589223704938,-0.00010064738527123987,0.0003757563302677768,0.0002705184982796469,0.2720577120780945,13.536218643188477,-0.3467743694782257,-18.345064163208008,-0.5340476632118225,-2.2946200370788574,0.14590780436992645,0
29,0.14004969596862793,-0.2720577120780945,-13.536218643188477,0.3467743694782257,18.345064163208008,0.5340476632118225,2.2946200370788574,-0.14590780436992645,0.0,0.0,0.0,0.0,0.0,0.0,0.0,-0.2868499528176837,0.3878744113053973,-0.04719099893801523,0.5785086887486673,0.10823314834561601,0.0689295772222139,-0.13285217544519212,0.07178072830314192,-0.3344166668297951,-0.12026604661398015,-2.874737175284731,-0.06462875133015186,2.5182363081526673,0.7687359999201512,0.07165585495296277,-0.33419673383382315,-0.1203439052763738,-2.874768336042937,-0.06453255302590709,2.518161157661014,0.7687020283728597,0.00021574615818832564,0.0006826574736064038,0.0005720947128411883,-0.0006294589223704938,0.00010064738527123987,-0.0003757563302677768,-0.0002705184982796469,0.0,0.0,0.0,0.0,0.0,0.0,0.0,-0.00012487335017914714,0.00021993299597194982,-7.785866239365391e-05,-3.116075820619457e-05,9.619830424477394e-05,-7.515049165318644e-05,-3.3971547291455906e-05,-0.00021574615818832564,-0.0006826574736064038,-0.0005720947128411883,0.0006294589223704938,-0.00010064738527123987,0.0003757563302677768,0.0002705184982796469,0.2720577120780945,13.536218643188477,-0.3467743694782257,-18.345064163208008,-0.5340476632118225,-2.2946200370788574,0.14590780436992645,0
30,0.145050048828125,-0.2720577120780945,-13.536218643188477,0.3467743694782257,18.345064163208008,0.5340476632118225,2.2946200370788574,-0.14590780436992645,0.0,0.0,0.0,0.0,0.0,0.0,0.0,-0.2868499528176837,0.3878744113053973,-0.04719099893801523,0.5785086887486673,0.10823314834561601,0.0689295772222139,-0.13285217544519212,0.07178072830314192,-0.3344166668297951,-0.12026604661398015,-2.874737175284731,-0.06462875133015186,2.5182363081526673,0.7687359999201512,0.07165585495296277,-0.33419673383382315,-0.1203439052763738,-2.874768336042937,-0.06453255302590709,2.518161157661014,0.7687020283728597,0.00021574615818832564,0.0006826574736064038,0.0005720947128411883,-0.0006294589223704938,0.00010064738527123987,-0.0003757563302677768,-0.0002705184982796469,0.0,0.0,0.0,0.0,0.0,0.0,0.0,-0.00012487335017914714,0.00021993299597194982,-7.785866239365391e-05,-3.116075820619457e-05,9.619830424477394e-05,-7.515049165318644e-05,-3.3971547291455906e-05,-0.00021574615818832564,-0.0006826574736064038,-0.0005720947128411883,0.0006294589223704938,-0.00010064738527123987,0.0003757563302677768,0.0002705184982796469,0.2720577120780945,13.536218643188477,-0.3467743694782257,-18.345064163208008,-0.5340476632118225,-2.2946200370788574,0.14590780436992645,0
31,0.1500377655029297,-0.2720577120780945,-13.536218643188477,0.3467743694782257,18.345064163208008,0.5340476632118225,2.2946200370788574,-0.14590780436992645,0.0,0.0,0.0,0.0,0.0,0.0,0.0,-0.2868499528176837,0.3878744113053973,-0.04719099893801523,0.5785086887486673,0.10823314834561601,0.0689295772222139,-0.13285217544519212,0.07178072830314192,-0.3344166668297951,-0.12026604661398015,-2.874737175284731,-0.06462875133015186,2.5182363081526673,0.7687359999201512,0.07165585495296277,-0.33419673383382315,-0.1203439052763738,-2.874768336042937,-0.06453255302590709,2.518161157661014,0.7687020283728597,0.00021574615818832564,0.0006826574736064038,0.0005720947128411883,-0.0006294589223704938,0.00010064738527123987,-0.0003757563302677768,-0.0002705184982796469,0.0,0.0,0.0,0.0,0.0,0.0,0.0,-0.00012487335017914714,0.00021993299597194982,-7.785866239365391e-05,-3.116075820619457e-05,9.619830424477394e-05,-7.515049165318644e-05,-3.3971547291455906e-05,-0.00021574615818832564,-0.0006826574736064038,-0.0005720947128411883,0.0006294589223704938,-0.00010064738527123987,0.0003757563302677768,0.0002705184982796469,0.2720577120780945,13.536218643188477,-0.3467743694782257,-18.345064163208008,-0.5340476632118225,-2.2946200370788574,0.14590780436992645,0
32,0.15587091445922852,-0.24825400114059448,-13.536218643188477,0.3705780804157257,18.297456741333008,0.5285544991493225,2.2882113456726074,-0.10470907390117645,0.0,0.0,0.0,0.0,0.0,0.0,0.0,-0.28104784898545077,0.3870263908373665,-0.04522955279723551,0.5808661167212787,0.1075372632670801,0.06940792481594733,-0.137065143256039,0.07177897277604343,-0.3344166668297951,-0.12026766541404732,-2.874733834450705,-0.06462601610523987,2.518240318916406,0.7687289212889364,0.07165585495296277,-0.33419673383382315,-0.1203439052763738,-2.874768336042937,-0.06453255302590709,2.518161157661014,0.7687020283728597,8.001166666347016e-06,-0.00032222601078784485,0.001057544812065968,0.0005132588652882751,0.0002014994182605294,-0.00018746130971654705,-0.0009440368873502517,0.0,0.0,0.0,0.0,0.0,0.0,0.0,-0.0001231178230806651,0.00021993299597194982,-7.623986232647983e-05,-3.4501592232061284e-05,9.346307933277842e-05,-7.916125539209062e-05,-2.6892916076715068e-05,-8.001166666347016e-06,0.00032222601078784485,-0.001057544812065968,-0.0005132588652882751,-0.0002014994182605294,0.00018746130971654705,0.0009440368873502517,0.24825400114059448,13.536218643188477,-0.3705780804157257,-18.297456741333008,-0.5285544991493225,-2.2882113456726074,0.10470907390117645,0
33,0.16000866889953613,-0.24825400114059448,-13.536218643188477,0.3705780804157257,18.297456741333008,0.5285544991493225,2.2882113456726074,-0.10470907390117645,0.0,0.0,0.0,0.0,0.0,0.0,0.0,-0.28104784898545077,0.3870263908373665,-0.04522955279723551,0.5808661167212787,0.1075372632670801,0.06940792481594733,-0.137065143256039,0.07177897277604343,-0.3344166668297951,-0.12026766541404732,-2.874733834450705,-0.06462601610523987,2.518240318916406,0.7687289212889364,0.07165585495296277,-0.33419673383382315,-0.1203439052763738,-2.874768336042937,-0.06453255302590709,2.518161157661014,0.7687020283728597,8.001166666347016e-06,-0.00032222601078784485,0.001057544812065968,0.0005132588652882751,0.0002014994182605294,-0.00018746130971654705,-0.0009440368873502517,0.0,0.0,0.0,0.0,0.0,0.0,0.0,-0.0001231178230806651,0.00021993299597194982,-7.623986232647983e-05,-3.4501592232061284e-05,9.346307933277842e-05,-7.916125539209062e-05,-2.6892916076715068e-05,-8.001166666347016e-06,0.00032222601078784485,-0.001057544812065968,-0.0005132588652882751,-0.0002014994182605294,0.00018746130971654705,0.0009440368873502517,0.24825400114059448,13.536218643188477,-0.3705780804157257,-18.297456741333008,-0.5285544991493225,-2.2882113456726074,0.10470907390117645,0
34,0.1650562286376953,-0.24825400114059448,-13.512414932250977,0.3705780804157257,18.269685745239258,0.5340476632118225,2.2753939628601074,-0.15231649577617645,0.0,0.0,0.0,0.0,0.0,0.0,0.0,-0.2828960120049436,0.39034036307286424,-0.04805708810141738,0.5800351362446972,0.10793593197365368,0.06877817433270601,-0.13357139005160348,0.07177896985256439,-0.3344183372656504,-0.12026774141172197,-2.87473188549582,-0.06462591232692738,2.5182412299369847,0.7687368334837138,0.07165585495296277,-0.33419673383382315,-0.1203439052763738,-2.874768336042937,-0.06453255302590709,2.518161157661014,0.7687020283728597,-0.0004274953991181065,-0.0006978094782893367,-0.00023457617608365684,0.0012879572700197908,0.00037994595748871735,0.00030332953862818553,0.0010047347167757594,0.0,0.0,0.0,0.0,0.0,0.0,0.0,-0.00012311489960162292,0.00022160343182725528,-7.616386465182645e-05,-3.6450547117095056e-05,9.335930102029322e-05,-8.007227597062183e-05,-3.480511085407478e-05,0.0004274953991181065,0.0006978094782893367,0.00023457617608365684,-0.0012879572700197908,-0.00037994595748871735,-0.00030332953862818553,-0.0010047347167757594,0.24825400114059448,13.512414932250977,-0.3705780804157257,-18.269685745239258,-0.5340476632118225,-2.2753939628601074,0.15231649577617645,0
35,0.17005062103271484,-0.24825400114059448,-13.512414932250977,0.3705780804157257,18.269685745239258,0.5340476632118225,2.2753939628601074,-0.15231649577617645,0.0,0.0,0.0,0.0,0.0,0.0,0.0,-0.2828960120049436,0.39034036307286424,-0.04805708810141738,0.5800351362446972,0.10793593197365368,0.06877817433270601,-0.13357139005160348,0.07177896985256439,-0.3344183372656504,-0.12026774141172197,-2.87473188549582,-0.06462591232692738,2.5182412299369847,0.7687368334837138,0.07165585495296277,-0.33419673383382315,-0.1203439052763738,-2.874768336042937,-0.06453255302590709,2.518161157661014,0.7687020283728597,-0.0004274953991181065,-0.0006978094782893367,-0.00023457617608365684,0.0012879572700197908,0.00037994595748871735,0.00030332953862818553,0.0010047347167757594,0.0,0.0,0.0,0.0,0.0,0.0,0.0,-0.00012311489960162292,0.00022160343182725528,-7.616386465182645e-05,-3.6450547117095056e-05,9.335930102029322e-05,-8.007227597062183e-05,-3.480511085407478e-05,0.0004274953991181065,0.0006978094782893367,0.00023457617608365684,-0.0012879572700197908,-0.00037994595748871735,-0.00030332953862818553,-0.0010047347167757594,0.24825400114059448,13.512414932250977,-0.3705780804157257,-18.269685745239258,-0.5340476632118225,-2.2753939628601074,0.15231649577617645,0
36,0.17505097389221191,-0.2720577120780945,-13.512414932250977,0.4221527874469757,18.321260452270508,0.5404563546180725,2.2818026542663574,-0.15964071452617645,0.0,0.0,0.0,0.0,0.0,0.0,0.0,-0.27385036346195546,0.38572858437161067,-0.039797762712626056,0.5836333202673615,0.10855554586432045,0.06955731925971405,-0.13373083964670301,0.07178064353617948,-0.3344183372656504,-0.12027136361283608,-2.8747354774144602,-0.06462626861183636,2.5182410718779416,0.7687351322407797,0.07165585495296277,-0.33419673383382315,-0.1203439052763738,-2.874768336042937,-0.06453255302590709,2.518161157661014,0.7687020283728597,0.00035956119724185837,-0.00039123530833856305,-0.0009018723871660828,7.476214977401861e-05,-0.00010563853496113977,-1.7106194588709622e-05,0.0007365510095029864,0.0,0.0,0.0,0.0,0.0,0.0,0.0,-0.0001247885832167117,0.00022160343182725528,-7.254166353772018e-05,-3.2858628476795104e-05,9.371558592927154e-05,-7.991421692743472e-05,-3.3103867919992425e-05,-0.00035956119724185837,0.00039123530833856305,0.0009018723871660828,-7.476214977401861e-05,0.00010563853496113977,1.7106194588709622e-05,-0.0007365510095029864,0.2720577120780945,13.512414932250977,-0.4221527874469757,-18.321260452270508,-0.5404563546180725,-2.2818026542663574,0.15964071452617645,0
37,0.18091416358947754,-0.2720577120780945,-13.512414932250977,0.4221527874469757,18.321260452270508,0.5404563546180725,2.2818026542663574,-0.15964071452617645,0.0,0.0,0.0,0.0,0.0,0.0,0.0,-0.27385036346195546,0.38572858437161067,-0.039797762712626056,0.5836333202673615,0.10855554586432045,0.06955731925971405,-0.13373083964670301,0.07178064353617948,-0.3344183372656504,-0.12027136361283608,-2.8747354774144602,-0.06462626861183636,2.5182410718779416,0.7687351322407797,0.07165585495296277,-0.33419673383382315,-0.1203439052763738,-2.874768336042937,-0.06453255302590709,2.518161157661014,0.7687020283728597,0.00035956119724185837,-0.00039123530833856305,-0.0009018723871660828,7.476214977401861e-05,-0.00010563853496113977,-1.7106194588709622e-05,0.0007365510095029864,0.0,0.0,0.0,0.0,0.0,0.0,0.0,-0.0001247885832167117,0.00022160343182725528,-7.254166353772018e-05,-3.2858628476795104e-05,9.371558592927154e-05,-7.991421692743472e-05,-3.3103867919992425e-05,-0.00035956119724185837,0.00039123530833856305,0.0009018723871660828,-7.476214977401861e-05,0.00010563853496113977,1.7106194588709622e-05,-0.0007365510095029864,0.2720577120780945,13.512414932250977,-0.4221527874469757,-18.321260452270508,-0.5404563546180725,-2.2818026542663574,0.15964071452617645,0
38,0.18504738807678223,-0.2998287081718445,-13.488611221313477,0.3705780804157257,18.321260452270508,0.5340476632118225,2.2818026542663574,-0.14590780436992645,0.0,0.0,0.0,0.0,0.0,0.0,0.0,-0.27775382468755283,0.38728649754618005,-0.0413400609228374,0.5817487504576488,0.10880639257288287,0.06905067806571927,-0.13853044558315752,0.07178258945503026,-0.33442000770150565,-0.12026774433516618,-2.8747354224701063,-0.06462567622874599,2.518241058653762,0.7687325406591438,0.07165585495296277,-0.33419673383382315,-0.1203439052763738,-2.874768336042937,-0.06453255302590709,2.518161157661014,0.7687020283728597,0.00010899584622244298,-0.0009050366826274135,-0.00015806045380880235,-8.53604778956975e-05,2.005323109234845e-05,-5.677094555508615e-05,-0.00038415546795755764,0.0,0.0,0.0,0.0,0.0,0.0,0.0,-0.00012673450206748815,0.00022327386768250523,-7.616094120761752e-05,-3.291357283075058e-05,9.312320283889897e-05,-7.990099274790552e-05,-3.0512286284034573e-05,-0.00010899584622244298,0.0009050366826274135,0.00015806045380880235,8.53604778956975e-05,-2.005323109234845e-05,5.677094555508615e-05,0.00038415546795755764,0.2998287081718445,13.488611221313477,-0.3705780804157257,-18.321260452270508,-0.5340476632118225,-2.2818026542663574,0.14590780436992645,0
39,0.1900463104248047,-0.2998287081718445,-13.488611221313477,0.3705780804157257,18.321260452270508,0.5340476632118225,2.2818026542663574,-0.14590780436992645,0.0,0.0,0.0,0.0,0.0,0.0,0.0,-0.27775382468755283,0.38728649754618005,-0.0413400609228374,0.5817487504576488,0.10880639257288287,0.06905067806571927,-0.13853044558315752,0.07178258945503026,-0.33442000770150565,-0.12026774433516618,-2.8747354224701063,-0.06462567622874599,2.518241058653762,0.7687325406591438,0.07165585495296277,-0.33419673383382315,-0.1203439052763738,-2.874768336042937,-0.06453255302590709,2.518161157661014,0.7687020283728597,0.00010899584622244298,-0.0009050366826274135,-0.00015806045380880235,-8.53604778956975e-05,2.005323109234845e-05,-5.677094555508615e-05,-0.00038415546795755764,0.0,0.0,0.0,0.0,0.0,0.0,0.0,-0.00012673450206748815,0.00022327386768250523,-7.616094120761752e-05,-3.291357283075058e-05,9.312320283889897e-05,-7.990099274790552e-05,-3.0512286284034573e-05,-0.00010899584622244298,0.0009050366826274135,0.00015806045380880235,8.53604778956975e-05,-2.005323109234845e-05,5.677094555508615e-05,0.00038415546795755764,0.2998287081718445,13.488611221313477,-0.3705780804157257,-18.321260452270508,-0.5340476632118225,-2.2818026542663574,0.14590780436992645,0
40,0.19504976272583008,-0.2998287081718445,-13.488611221313477,0.3705780804157257,18.321260452270508,0.5340476632118225,2.2818026542663574,-0.14590780436992645,0.0,0.0,0.0,0.0,0.0,0.0,0.0,-0.27775382468755283,0.38728649754618005,-0.0413400609228374,0.5817487504576488,0.10880639257288287,0.06905067806571927,-0.13853044558315752,0.07178258945503026,-0.33442000770150565,-0.12026774433516618,-2.8747354224701063,-0.06462567622874599,2.518241058653762,0.7687325406591438,0.07165585495296277,-0.33419673383382315,-0.1203439052763738,-2.874768336042937,-0.06453255302590709,2.518161157661014,0.7687020283728597,0.00010899584622244298,-0.0009050366826274135,-0.00015806045380880235,-8.53604778956975e-05,2.005323109234845e-05,-5.677094555508615e-05,-0.00038415546795755764,0.0,0.0,0.0,0.0,0.0,0.0,0.0,-0.00012673450206748815,0.00022327386768250523,-7.616094120761752e-05,-3.291357283075058e-05,9.312320283889897e-05,-7.990099274790552e-05,-3.0512286284034573e-05,-0.00010899584622244298,0.0009050366826274135,0.00015806045380880235,8.53604778956975e-05,-2.005323109234845e-05,5.677094555508615e-05,0.00038415546795755764,0.2998287081718445,13.488611221313477,-0.3705780804157257,-18.321260452270508,-0.5340476632118225,-2.2818026542663574,0.14590780436992645,0
41,0.20005083084106445,-0.2720577120780945,-13.536218643188477,0.3229706585407257,18.297456741333008,0.5340476632118225,2.2753939628601074,-0.11111776530742645,0.0,0.0,0.0,0.0,0.0,0.0,0.0,-0.2807711589020124,0.3871782365873676,-0.04296309264625513,0.582544276810936,0.10781091787254134,0.0691801343013696,-0.1396696555004454,0.07178158733998308,-0.3344166668297951,-0.12026440346345565,-2.8747316091724833,-0.0646288680978192,2.5182413520353615,0.7687332771604966,0.07165585495296277,-0.33419673383382315,-0.1203439052763738,-2.874768336042937,-0.06453255302590709,2.518161157661014,0.7687020283728597,-8.796018988458538e-05,0.0002510967424075402,0.00013445009608326826,0.000500982199102967,8.78261473012529e-05,0.00021644335062072424,7.211291108502708e-06,0.0,0.0,0.0,0.0,0.0,0.0,0.0,-0.0001257323870203081,0.00021993299597194982,-7.950181291814518e-05,-3.672687045375156e-05,9.631507191211475e-05,-8.019437434736432e-05,-3.124878763682837e-05,8.796018988458538e-05,-0.0002510967424075402,-0.00013445009608326826,-0.000500982199102967,-8.78261473012529e-05,-0.00021644335062072424,-7.211291108502708e-06,0.2720577120780945,13.536218643188477,-0.3229706585407257,-18.297456741333008,-0.5340476632118225,-2.2753939628601074,0.11111776530742645,0
42,0.20504975318908691,-0.2720577120780945,-13.536218643188477,0.3229706585407257,18.297456741333008,0.5340476632118225,2.2753939628601074,-0.11111776530742645,0.0,0.0,0.0,0.0,0.0,0.0,0.0,-0.2807711589020124,0.3871782365873676,-0.04296309264625513,0.582544276810936,0.10781091787254134,0.0691801343013696,-0.1396696555004454,0.07178158733998308,-0.3344166668297951,-0.12026440346345565,-2.8747316091724833,-0.0646288680978192,2.5182413520353615,0.7687332771604966,0.07165585495296277,-0.33419673383382315,-0.1203439052763738,-2.874768336042937,-0.06453255302590709,2.518161157661014,0.7687020283728597,-8.796018988458538e-05,0.0002510967424075402,0.00013445009608326826,0.000500982199102967,8.78261473012529e-05,0.00021644335062072424,7.211291108502708e-06,0.0,0.0,0.0,0.0,0.0,0.0,0.0,-0.0001257323870203081,0.00021993299597194982,-7.950181291814518e-05,-3.672687045375156e-05,9.631507191211475e-05,-8.019437434736432e-05,-3.124878763682837e-05,8.796018988458538e-05,-0.0002510967424075402,-0.00013445009608326826,-0.000500982199102967,-8.78261473012529e-05,-0.00021644335062072424,-7.211291108502708e-06,0.2720577120780945,13.536218643188477,-0.3229706585407257,-18.297456741333008,-0.5340476632118225,-2.2753939628601074,0.11111776530742645,0
43,0.21005010604858398,-0.3236324191093445,-13.512414932250977,0.3705780804157257,18.297456741333008,0.5340476632118225,2.2753939628601074,-0.11844198405742645,0.0,0.0,0.0,0.0,0.0,0.0,0.0,-0.28063761231029366,0.386708069469429,-0.04666276016047271,0.5800234965532454,0.10736439558322869,0.06900339103176387,-0.13460291095707894,0.07178460189775324,-0.3344183372656504,-0.12026774433516618,-2.87473380694092,-0.0646256918620472,2.5182372926014405,0.768734104287937,0.07165585495296277,-0.33419673383382315,-0.1203439052763738,-2.874768336042937,-0.06453255302590709,2.518161157661014,0.7687020283728597,0.0006380931405956758,-0.00039414300016791186,-0.00041809921899662624,0.0003040530159136322,0.00029888108943583973,0.00033413617010421073,-0.0004126246423545612,0.0,0.0,0.0,0.0,0.0,0.0,0.0,-0.0001287469447904671,0.00022160343182725528,-7.616094120761752e-05,-3.452910201717785e-05,9.31388361401081e-05,-7.613494042635338e-05,-3.207591507725649e-05,-0.0006380931405956758,0.00039414300016791186,0.00041809921899662624,-0.0003040530159136322,-0.00029888108943583973,-0.00033413617010421073,0.0004126246423545612,0.3236324191093445,13.512414932250977,-0.3705780804157257,-18.297456741333008,-0.5340476632118225,-2.2753939628601074,0.11844198405742645,0
44,0.21505308151245117,-0.3236324191093445,-13.512414932250977,0.3705780804157257,18.297456741333008,0.5340476632118225,2.2753939628601074,-0.11844198405742645,0.0,0.0,0.0,0.0,0.0,0.0,0.0,-0.28063761231029366,0.386708069469429,-0.04666276016047271,0.5800234965532454,0.10736439558322869,0.06900339103176387,-0.13460291095707894,0.07178460189775324,-0.3344183372656504,-0.12026774433516618,-2.87473380694092,-0.0646256918620472,2.5182372926014405,0.768734104287937,0.07165585495296277,-0.33419673383382315,-0.1203439052763738,-2.874768336042937,-0.06453255302590709,2.518161157661014,0.7687020283728597,0.0006380931405956758,-0.00039414300016791186,-0.00041809921899662624,0.0003040530159136322,0.00029888108943583973,0.00033413617010421073,-0.0004126246423545612,0.0,0.0,0.0,0.0,0.0,0.0,0.0,-0.0001287469447904671,0.00022160343182725528,-7.616094120761752e-05,-3.452910201717785e-05,9.31388361401081e-05,-7.613494042635338e-05,-3.207591507725649e-05,-0.0006380931405956758,0.00039414300016791186,0.00041809921899662624,-0.0003040530159136322,-0.00029888108943583973,-0.00033413617010421073,0.0004126246423545612,0.3236324191093445,13.512414932250977,-0.3705780804157257,-18.297456741333008,-0.5340476632118225,-2.2753939628601074,0.11844198405742645,0
45,0.2200629711151123,-0.3236324191093445,-13.536218643188477,0.3705780804157257,18.297456741333008,0.5404563546180725,2.2882113456726074,-0.15231649577617645,0.0,0.0,0.0,0.0,0.0,0.0,0.0,-0.2870236006780429,0.38604336926705907,-0.05284177231330713,0.5805024976331692,0.10815975134537857,0.07000456493220564,-0.1335475032998451,0.07178429496749572,-0.3344166668297951,-0.12026750464927297,-2.874733834450653,-0.06462638641275736,2.5182403597957963,0.7687377709899109,0.07165585495296277,-0.33419673383382315,-0.1203439052763738,-2.874768336042937,-0.06453255302590709,2.518161157661014,0.7687020283728597,0.00023683942765522463,-1.0905720792191685e-06,-0.0003846270083609512,0.00059104650147991,-1.2546319837565795e-05,-0.0002462491463213599,-0.00019617055980114862,0.0,0.0,0.0,0.0,0.0,0.0,0.0,-0.00012844001453295173,0.00021993299597194982,-7.640062710083384e-05,-3.450159228401972e-05,9.383338685027554e-05,-7.920213478218585e-05,-3.574261705119319e-05,-0.00023683942765522463,1.0905720792191685e-06,0.0003846270083609512,-0.00059104650147991,1.2546319837565795e-05,0.0002462491463213599,0.00019617055980114862,0.3236324191093445,13.536218643188477,-0.3705780804157257,-18.297456741333008,-0.5404563546180725,-2.2882113456726074,0.15231649577617645,0
46,0.22505998611450195,-0.3236324191093445,-13.536218643188477,0.3705780804157257,18.297456741333008,0.5404563546180725,2.2882113456726074,-0.15231649577617645,0.0,0.0,0.0,0.0,0.0,0.0,0.0,-0.2870236006780429,0.38604336926705907,-0.05284177231330713,0.5805024976331692,0.10815975134537857,0.07000456493220564,-0.1335475032998451,0.07178429496749572,-0.3344166668297951,-0.12026750464927297,-2.874733834450653,-0.06462638641275736,2.5182403597957963,0.7687377709899109,0.07165585495296277,-0.33419673383382315,-0.1203439052763738,-2.874768336042937,-0.06453255302590709,2.518161157661014,0.7687020283728597,0.00023683942765522463,-1.0905720792191685e-06,-0.0003846270083609512,0.00059104650147991,-1.2546319837565795e-05,-0.0002462491463213599,-0.00019617055980114862,0.0,0.0,0.0,0.0,0.0,0.0,0.0,-0.00012844001453295173,0.00021993299597194982,-7.640062710083384e-05,-3.450159228401972e-05,9.383338685027554e-05,-7.920213478218585e-05,-3.574261705119319e-05,-0.00023683942765522463,1.0905720792191685e-06,0.0003846270083609512,-0.00059104650147991,1.2546319837565795e-05,0.0002462491463213599,0.00019617055980114862,0.3236324191093445,13.536218643188477,-0.3705780804157257,-18.297456741333008,-0.5404563546180725,-2.2882113456726074,0.15231649577617645,0
47,0.23005294799804688,-0.2720577120780945,-13.536218643188477,0.3983490765094757,18.321260452270508,0.5340476632118225,2.2818026542663574,-0.11844198405742645,0.0,0.0,0.0,0.0,0.0,0.0,0.0,-0.2833855115403303,0.3906358230174278,-0.047521786715671234,0.5753926296064702,0.1083333272200796,0.06933996579879512,-0.13855410635006282,0.07178064061338062,-0.3344166668297951,-0.12026969317564429,-2.8747355048865604,-0.06462662497906888,2.518240948765363,0.7687341003634847,0.07165585495296277,-0.33419673383382315,-0.1203439052763738,-2.874768336042937,-0.06453255302590709,2.518161157661014,0.7687020283728597,0.000335457347157417,0.0007624004916934643,-0.0003945988338760259,-0.00021197271390706844,0.000217678177412002,-0.00016945116954333536,-0.0006110948815517847,0.0,0.0,0.0,0.0,0.0,0.0,0.0,-0.00012478566041784767,0.00021993299597194982,-7.421210072951212e-05,-3.28311563766448e-05,9.407195316178674e-05,-7.979110434908065e-05,-3.207199062493782e-05,-0.000335457347157417,-0.0007624004916934643,0.0003945988338760259,0.00021197271390706844,-0.000217678177412002,0.00016945116954333536,0.0006110948815517847,0.2720577120780945,13.536218643188477,-0.3983490765094757,-18.321260452270508,-0.5340476632118225,-2.2818026542663574,0.11844198405742645,0
48,0.23505043983459473,-0.2720577120780945,-13.536218643188477,0.3983490765094757,18.321260452270508,0.5340476632118225,2.2818026542663574,-0.11844198405742645,0.0,0.0,0.0,0.0,0.0,0.0,0.0,-0.2833855115403303,0.3906358230174278,-0.047521786715671234,0.5753926296064702,0.1083333272200796,0.06933996579879512,-0.13855410635006282,0.07178064061338062,-0.3344166668297951,-0.12026969317564429,-2.8747355048865604,-0.06462662497906888,2.518240948765363,0.7687341003634847,0.07165585495296277,-0.33419673383382315,-0.1203439052763738,-2.874768336042937,-0.06453255302590709,2.518161157661014,0.7687020283728597,0.000335457347157417,0.0007624004916934643,-0.0003945988338760259,-0.00021197271390706844,0.000217678177412002,-0.00016945116954333536,-0.0006110948815517847,0.0,0.0,0.0,0.0,0.0,0.0,0.0,-0.00012478566041784767,0.00021993299597194982,-7.421210072951212e-05,-3.28311563766448e-05,9.407195316178674e-05,-7.979110434908065e-05,-3.207199062493782e-05,-0.000335457347157417,-0.0007624004916934643,0.0003945988338760259,0.00021197271390706844,-0.000217678177412002,0.00016945116954333536,0.0006110948815517847,0.2720577120780945,13.536218643188477,-0.3983490765094757,-18.321260452270508,-0.5340476632118225,-2.2818026542663574,0.11844198405742645,0
49,0.2400517463684082,-0.2720577120780945,-13.488611221313477,0.3983490765094757,18.321260452270508,0.5459495186805725,2.2882113456726074,-0.11111776530742645,0.0,0.0,0.0,0.0,0.0,0.0,0.0,-0.28207542116581913,0.3893603738719497,-0.044229207576259595,0.5796877175353983,0.10854051773272395,0.06896835679630432,-0.136153369974243,0.07178159610897918,-0.33442000770150565,-0.12026969317699732,-2.8747355048865604,-0.06462798392191478,2.5182403603122934,0.7687290328016406,0.07165585495296277,-0.33419673383382315,-0.1203439052763738,-2.874768336042937,-0.06453255302590709,2.518161157661014,0.7687020283728597,0.0006451327798285841,-0.00029661253729944883,-0.00010692563147322459,7.233639323689247e-06,-0.0004502727181715834,-0.00046268435371451015,0.000180541727697834,0.0,0.0,0.0,0.0,0.0,0.0,0.0,-0.00012574115601640679,0.00022327386768250523,-7.421209937648332e-05,-3.28311563766448e-05,9.543089600769217e-05,-7.920265127925319e-05,-2.7004428780896816e-05,-0.0006451327798285841,0.00029661253729944883,0.00010692563147322459,-7.233639323689247e-06,0.0004502727181715834,0.00046268435371451015,-0.000180541727697834,0.2720577120780945,13.488611221313477,-0.3983490765094757,-18.321260452270508,-0.5459495186805725,-2.2882113456726074,0.11111776530742645,0
50,0.24505138397216797,-0.2720577120780945,-13.488611221313477,0.3983490765094757,18.321260452270508,0.5459495186805725,2.2882113456726074,-0.11111776530742645,0.0,0.0,0.0,0.0,0.0,0.0,0.0,-0.28207542116581913,0.3893603738719497,-0.044229207576259595,0.5796877175353983,0.10854051773272395,0.06896835679630432,-0.136153369974243,0.07178159610897918,-0.33442000770150565,-0.12026969317699732,-2.8747355048865604,-0.06462798392191478,2.5182403603122934,0.7687290328016406,0.07165585495296277,-0.33419673383382315,-0.1203439052763738,-2.874768336042937,-0.06453255302590709,2.518161157661014,0.7687020283728597,0.0006451327798285841,-0.00029661253729944883,-0.00010692563147322459,7.233639323689247e-06,-0.0004502727181715834,-0.00046268435371451015,0.000180541727697834,0.0,0.0,0.0,0.0,0.0,0.0,0.0,-0.00012574115601640679,0.00022327386768250523,-7.421209937648332e-05,-3.28311563766448e-05,9.543089600769217e-05,-7.920265127925319e-05,-2.7004428780896816e-05,-0.0006451327798285841,0.00029661253729944883,0.00010692563147322459,-7.233639323689247e-06,0.0004502727181715834,0.00046268435371451015,-0.000180541727697834,0.2720577120780945,13.488611221313477,-0.3983490765094757,-18.321260452270508,-0.5459495186805725,-2.2882113456726074,0.11111776530742645,0
51,0.250049352645874,-0.2720577120780945,-13.512414932250977,0.4221527874469757,18.297456741333008,0.5285544991493225,2.2753939628601074,-0.14590780436992645,0.0,0.0,0.0,0.0,0.0,0.0,0.0,-0.2798946569682335,0.3923644220219483,-0.039434848419530044,0.5786301839250786,0.10820900969932765,0.06755903654283568,-0.13095046440127628,0.07178072213776232,-0.3344183372656504,-0.12027136361285258,-2.874733834450705,-0.06462850065899109,2.5182405481656263,0.7687336063981874,0.07165585495296277,-0.33419673383382315,-0.1203439052763738,-2.874768336042937,-0.06453255302590709,2.518161157661014,0.7687020283728597,0.00012046971637378083,-3.3065578884815513e-06,-0.0007252501249148449,0.0006037326977248345,0.0004686262145516107,0.00013889763435992293,-3.2756002004329714e-06,0.0,0.0,0.0,0.0,0.0,0.0,0.0,-0.0001248671847995514,0.00022160343182725528,-7.254166352121949e-05,-3.4501592232061284e-05,9.59476330840009e-05,-7.939050461214237e-05,-3.1578025327716475e-05,-0.00012046971637378083,3.3065578884815513e-06,0.0007252501249148449,-0.0006037326977248345,-0.0004686262145516107,-0.00013889763435992293,3.2756002004329714e-06,0.2720577120780945,13.512414932250977,-0.4221527874469757,-18.297456741333008,-0.5285544991493225,-2.2753939628601074,0.14590780436992645,0
52,0.2550485134124756,-0.2720577120780945,-13.512414932250977,0.4221527874469757,18.297456741333008,0.5285544991493225,2.2753939628601074,-0.14590780436992645,0.0,0.0,0.0,0.0,0.0,0.0,0.0,-0.2798946569682335,0.3923644220219483,-0.039434848419530044,0.5786301839250786,0.10820900969932765,0.06755903654283568,-0.13095046440127628,0.07178072213776232,-0.3344183372656504,-0.12027136361285258,-2.874733834450705,-0.06462850065899109,2.5182405481656263,0.7687336063981874,0.07165585495296277,-0.33419673383382315,-0.1203439052763738,-2.874768336042937,-0.06453255302590709,2.518161157661014,0.7687020283728597,0.00012046971637378083,-3.3065578884815513e-06,-0.0007252501249148449,0.0006037326977248345,0.0004686262145516107,0.00013889763435992293,-3.2756002004329714e-06,0.0,0.0,0.0,0.0,0.0,0.0,0.0,-0.0001248671847995514,0.00022160343182725528,-7.254166352121949e-05,-3.4501592232061284e-05,9.59476330840009e-05,-7.939050461214237e-05,-3.1578025327716475e-05,-0.00012046971637378083,3.3065578884815513e-06,0.0007252501249148449,-0.0006037326977248345,-0.0004686262145516107,-0.00013889763435992293,3.2756002004329714e-06,0.2720577120780945,13.512414932250977,-0.4221527874469757,-18.297456741333008,-0.5285544991493225,-2.2753939628601074,0.14590780436992645,0
53,0.26085925102233887,-0.2720577120780945,-13.512414932250977,0.3705780804157257,18.269685745239258,0.5404563546180725,2.2753939628601074,-0.13858358561992645,0.0,0.0,0.0,0.0,0.0,0.0,0.0,-0.27692051458609984,0.3872123842664256,-0.037152018197248116,0.5808422686450664,0.10847926414380402,0.06754580217529947,-0.1338130947300307,0.07178158780956653,-0.3344183372656504,-0.12026774433516618,-2.87473188549582,-0.06462642580830393,2.5182417706670814,0.7687320757091197,0.07165585495296277,-0.33419673383382315,-0.1203439052763738,-2.874768336042937,-0.06453255302590709,2.518161157661014,0.7687020283728597,0.000109117180588211,-0.0009296501875834355,-0.00010139250401213617,0.0010737335477384506,0.00015093073818345798,0.0003679084997041791,-0.00041933737153319975,0.0,0.0,0.0,0.0,0.0,0.0,0.0,-0.00012573285660376354,0.00022160343182725528,-7.616094120761752e-05,-3.6450547117095056e-05,9.387278239683661e-05,-8.061300606732047e-05,-3.0047336259997337e-05,-0.000109117180588211,0.0009296501875834355,0.00010139250401213617,-0.0010737335477384506,-0.00015093073818345798,-0.0003679084997041791,0.00041933737153319975,0.2720577120780945,13.512414932250977,-0.3705780804157257,-18.269685745239258,-0.5404563546180725,-2.2753939628601074,0.13858358561992645,0
54,0.26505064964294434,-0.2720577120780945,-13.512414932250977,0.3705780804157257,18.269685745239258,0.5404563546180725,2.2753939628601074,-0.13858358561992645,0.0,0.0,0.0,0.0,0.0,0.0,0.0,-0.27692051458609984,0.3872123842664256,-0.037152018197248116,0.5808422686450664,0.10847926414380402,0.06754580217529947,-0.1338130947300307,0.07178158780956653,-0.3344183372656504,-0.12026774433516618,-2.87473188549582,-0.06462642580830393,2.5182417706670814,0.7687320757091197,0.07165585495296277,-0.33419673383382315,-0.1203439052763738,-2.874768336042937,-0.06453255302590709,2.518161157661014,0.7687020283728597,0.000109117180588211,-0.0009296501875834355,-0.00010139250401213617,0.0010737335477384506,0.00015093073818345798,0.0003679084997041791,-0.00041933737153319975,0.0,0.0,0.0,0.0,0.0,0.0,0.0,-0.00012573285660376354,0.00022160343182725528,-7.616094120761752e-05,-3.6450547117095056e-05,9.387278239683661e-05,-8.061300606732047e-05,-3.0047336259997337e-05,-0.000109117180588211,0.0009296501875834355,0.00010139250401213617,-0.0010737335477384506,-0.00015093073818345798,-0.0003679084997041791,0.00041933737153319975,0.2720577120780945,13.512414932250977,-0.3705780804157257,-18.269685745239258,-0.5404563546180725,-2.2753939628601074,0.13858358561992645,0
55,0.270050048828125,-0.2720577120780945,-13.512414932250977,0.3705780804157257,18.269685745239258,0.5404563546180725,2.2753939628601074,-0.13858358561992645,0.0,0.0,0.0,0.0,0.0,0.0,0.0,-0.27692051458609984,0.3872123842664256,-0.037152018197248116,0.5808422686450664,0.10847926414380402,0.06754580217529947,-0.1338130947300307,0.07178158780956653,-0.3344183372656504,-0.12026774433516618,-2.87473188549582,-0.06462642580830393,2.5182417706670814,0.7687320757091197,0.07165585495296277,-0.33419673383382315,-0.1203439052763738,-2.874768336042937,-0.06453255302590709,2.518161157661014,0.7687020283728597,0.000109117180588211,-0.0009296501875834355,-0.00010139250401213617,0.0010737335477384506,0.00015093073818345798,0.0003679084997041791,-0.00041933737153319975,0.0,0.0,0.0,0.0,0.0,0.0,0.0,-0.00012573285660376354,0.00022160343182725528,-7.616094120761752e-05,-3.6450547117095056e-05,9.387278239683661e-05,-8.061300606732047e-05,-3.0047336259997337e-05,-0.000109117180588211,0.0009296501875834355,0.00010139250401213617,-0.0010737335477384506,-0.00015093073818345798,-0.0003679084997041791,0.00041933737153319975,0.2720577120780945,13.512414932250977,-0.3705780804157257,-18.269685745239258,-0.5404563546180725,-2.2753939628601074,0.13858358561992645,0
56,0.2750511169433594,-0.2720577120780945,-13.512414932250977,0.3705780804157257,18.269685745239258,0.5404563546180725,2.2753939628601074,-0.13858358561992645,0.0,0.0,0.0,0.0,0.0,0.0,0.0,-0.27692051458609984,0.3872123842664256,-0.037152018197248116,0.5808422686450664,0.10847926414380402,0.06754580217529947,-0.1338130947300307,0.07178158780956653,-0.3344183372656504,-0.12026774433516618,-2.87473188549582,-0.06462642580830393,2.5182417706670814,0.7687320757091197,0.07165585495296277,-0.33419673383382315,-0.1203439052763738,-2.874768336042937,-0.06453255302590709,2.518161157661014,0.7687020283728597,0.000109117180588211,-0.0009296501875834355,-0.00010139250401213617,0.0010737335477384506,0.00015093073818345798,0.0003679084997041791,-0.00041933737153319975,0.0,0.0,0.0,0.0,0.0,0.0,0.0,-0.00012573285660376354,0.00022160343182725528,-7.616094120761752e-05,-3.6450547117095056e-05,9.387278239683661e-05,-8.061300606732047e-05,-3.0047336259997337e-05,-0.000109117180588211,0.0009296501875834355,0.00010139250401213617,-0.0010737335477384506,-0.00015093073818345798,-0.0003679084997041791,0.00041933737153319975,0.2720577120780945,13.512414932250977,-0.3705780804157257,-18.269685745239258,-0.5404563546180725,-2.2753939628601074,0.13858358561992645,0
57,0.2800595760345459,-0.2720577120780945,-13.536218643188477,0.3229706585407257,18.321260452270508,0.5404563546180725,2.2753939628601074,-0.09097616374492645,0.0,0.0,0.0,0.0,0.0,0.0,0.0,-0.2769068218838634,0.38858284205081023,-0.04105277691298151,0.5769531882729022,0.10950200012753218,0.06731324895036171,-0.13674918717015255,0.07178071935906238,-0.3344166668297951,-0.12026440346345565,-2.874735500816619,-0.0646263863593046,2.5182405297377612,0.7687300061140686,0.07165585495296277,-0.33419673383382315,-0.1203439052763738,-2.874768336042937,-0.06453255302590709,2.518161157661014,0.7687020283728597,-0.0003819692775373297,-4.585275430766396e-05,0.0005833629493228281,-0.00010272897148073812,-0.00014521913761371364,0.00044938230817748577,-0.001821216988453469,0.0,0.0,0.0,0.0,0.0,0.0,0.0,-0.00012486440609961458,0.00021993299597194982,-7.950181291814518e-05,-3.283522631791769e-05,9.383333339750555e-05,-7.937207674713065e-05,-2.797774120888441e-05,0.0003819692775373297,4.585275430766396e-05,-0.0005833629493228281,0.00010272897148073812,0.00014521913761371364,-0.00044938230817748577,0.001821216988453469,0.2720577120780945,13.536218643188477,-0.3229706585407257,-18.321260452270508,-0.5404563546180725,-2.2753939628601074,0.09097616374492645,0
58,0.28505611419677734,-0.2720577120780945,-13.536218643188477,0.3229706585407257,18.321260452270508,0.5404563546180725,2.2753939628601074,-0.09097616374492645,0.0,0.0,0.0,0.0,0.0,0.0,0.0,-0.2769068218838634,0.38858284205081023,-0.04105277691298151,0.5769531882729022,0.10950200012753218,0.06731324895036171,-0.13674918717015255,0.07178071935906238,-0.3344166668297951,-0.12026440346345565,-2.874735500816619,-0.0646263863593046,2.5182405297377612,0.7687300061140686,0.07165585495296277,-0.33419673383382315,-0.1203439052763738,-2.874768336042937,-0.06453255302590709,2.518161157661014,0.7687020283728597,-0.0003819692775373297,-4.585275430766396e-05,0.0005833629493228281,-0.00010272897148073812,-0.00014521913761371364,0.00044938230817748577,-0.001821216988453469,0.0,0.0,0.0,0.0,0.0,0.0,0.0,-0.00012486440609961458,0.00021993299597194982,-7.950181291814518e-05,-3.283522631791769e-05,9.383333339750555e-05,-7.937207674713065e-05,-2.797774120888441e-05,0.0003819692775373297,4.585275430766396e-05,-0.0005833629493228281,0.00010272897148073812,0.00014521913761371364,-0.00044938230817748577,0.001821216988453469,0.2720577120780945,13.536218643188477,-0.3229706585407257,-18.321260452270508,-0.5404563546180725,-2.2753939628601074,0.09097616374492645,0
59,0.29018425941467285,-0.3236324191093445,-13.536218643188477,0.3229706585407257,18.345064163208008,0.5404563546180725,2.2882113456726074,-0.11111776530742645,0.0,0.0,0.0,0.0,0.0,0.0,0.0,-0.2790130893155364,0.38569139314493933,-0.04700816644412013,0.5769056648044019,0.10952127216750657,0.06798454064499339,-0.13326313816015697,0.07178428684785709,-0.3344166668297951,-0.12026440313867803,-2.874737166165026,-0.06462626952998088,2.5182370081444816,0.7687299751868883,0.07165585495296277,-0.33419673383382315,-0.1203439052763738,-2.874768336042937,-0.06453255302590709,2.518161157661014,0.7687020283728597,0.0009910181710702376,0.0002699565290716176,-0.00027015767452787505,-0.0005978021953298253,-0.0002418320842431802,-4.169039890798325e-05,-0.0003235394345818645,0.0,0.0,0.0,0.0,0.0,0.0,0.0,-0.0001284318948943236,0.00021993299597194982,-7.950213769576664e-05,-3.116987791118575e-05,9.371650407379029e-05,-7.585048346747669e-05,-2.79468140286232e-05,-0.0009910181710702376,-0.0002699565290716176,0.00027015767452787505,0.0005978021953298253,0.0002418320842431802,4.169039890798325e-05,0.0003235394345818645,0.3236324191093445,13.536218643188477,-0.3229706585407257,-18.345064163208008,-0.5404563546180725,-2.2882113456726074,0.11111776530742645,0
60,0.2950718402862549,-0.3236324191093445,-13.536218643188477,0.3229706585407257,18.345064163208008,0.5404563546180725,2.2882113456726074,-0.11111776530742645,0.0,0.0,0.0,0.0,0.0,0.0,0.0,-0.2790130893155364,0.38569139314493933,-0.04700816644412013,0.5769056648044019,0.10952127216750657,0.06798454064499339,-0.13326313816015697,0.07178428684785709,-0.3344166668297951,-0.12026440313867803,-2.874737166165026,-0.06462626952998088,2.5182370081444816,0.7687299751868883,0.07165585495296277,-0.33419673383382315,-0.1203439052763738,-2.874768336042937,-0.06453255302590709,2.518161157661014,0.7687020283728597,0.0009910181710702376,0.0002699565290716176,-0.00027015767452787505,-0.0005978021953298253,-0.0002418320842431802,-4.169039890798325e-05,-0.0003235394345818645,0.0,0.0,0.0,0.0,0.0,0.0,0.0,-0.0001284318948943236,0.00021993299597194982,-7.950213769576664e-05,-3.116987791118575e-05,9.371650407379029e-05,-7.585048346747669e-05,-2.79468140286232e-05,-0.0009910181710702376,-0.0002699565290716176,0.00027015767452787505,0.0005978021953298253,0.0002418320842431802,4.169039890798325e-05,0.0003235394345818645,0.3236324191093445,13.536218643188477,-0.3229706585407257,-18.345064163208008,-0.5404563546180725,-2.2882113456726074,0.11111776530742645,0
61,0.3000483512878418,-0.2720577120780945,-13.536218643188477,0.3983490765094757,18.321260452270508,0.5404563546180725,2.2753939628601074,-0.15231649577617645,0.0,0.0,0.0,0.0,0.0,0.0,0.0,-0.2763198013902963,0.3912694451912102,-0.04909507161517957,0.5721657308704422,0.10859992442966286,0.06805442478893359,-0.1322230140497016,0.07178064126289005,-0.3344166668297951,-0.1202696902539968,-2.874735504547347,-0.06462734597967719,2.518237287615469,0.7687345691632395,0.07165585495296277,-0.33419673383382315,-0.1203439052763738,-2.874768336042937,-0.06453255302590709,2.518161157661014,0.7687020283728597,-0.00010731880764869217,0.0009121118399484118,-0.0011466250772505478,-0.0008790556765364205,-1.8249828204052943e-05,0.00022753920709810092,-0.00014011145323247732,0.0,0.0,0.0,0.0,0.0,0.0,0.0,-0.00012478630992728001,0.00021993299597194982,-7.42150223770055e-05,-3.283149559019094e-05,9.479295377010089e-05,-7.612995445471782e-05,-3.2540790379731455e-05,0.00010731880764869217,-0.0009121118399484118,0.0011466250772505478,0.0008790556765364205,1.8249828204052943e-05,-0.00022753920709810092,0.00014011145323247732,0.2720577120780945,13.536218643188477,-0.3983490765094757,-18.321260452270508,-0.5404563546180725,-2.2753939628601074,0.15231649577617645,0
62,0.305011510848999,-0.2720577120780945,-13.536218643188477,0.3983490765094757,18.321260452270508,0.5404563546180725,2.2753939628601074,-0.15231649577617645,0.0,0.0,0.0,0.0,0.0,0.0,0.0,-0.2763198013902963,0.3912694451912102,-0.04909507161517957,0.5721657308704422,0.10859992442966286,0.06805442478893359,-0.1322230140497016,0.07178064126289005,-0.3344166668297951,-0.1202696902539968,-2.874735504547347,-0.06462734597967719,2.518237287615469,0.7687345691632395,0.07165585495296277,-0.33419673383382315,-0.1203439052763738,-2.874768336042937,-0.06453255302590709,2.518161157661014,0.7687020283728597,-0.00010731880764869217,0.0009121118399484118,-0.0011466250772505478,-0.0008790556765364205,-1.8249828204052943e-05,0.00022753920709810092,-0.00014011145323247732,0.0,0.0,0.0,0.0,0.0,0.0,0.0,-0.00012478630992728001,0.00021993299597194982,-7.42150223770055e-05,-3.283149559019094e-05,9.479295377010089e-05,-7.612995445471782e-05,-3.2540790379731455e-05,0.00010731880764869217,-0.0009121118399484118,0.0011466250772505478,0.0008790556765364205,1.8249828204052943e-05,-0.00022753920709810092,0.00014011145323247732,0.2720577120780945,13.536218643188477,-0.3983490765094757,-18.321260452270508,-0.5404563546180725,-2.2753939628601074,0.15231649577617645,0
63,0.31008434295654297,-0.22445029020309448,-13.536218643188477,0.3983490765094757,18.345064163208008,0.5404563546180725,2.2689852714538574,-0.15231649577617645,0.0,0.0,0.0,0.0,0.0,0.0,0.0,-0.2769647284801258,0.3918320755619196,-0.05028019003717765,0.5775738453932054,0.1091334988134095,0.06947417155834797,-0.13692872820947347,0.07177803612062919,-0.3344166668297951,-0.12026969306872161,-2.874736433575723,-0.06462770653334055,2.518239144921918,0.7687335593456371,0.07165585495296277,-0.33419673383382315,-0.1203439052763738,-2.874768336042937,-0.06453255302590709,2.518161157661014,0.7687020283728597,-0.001207808055232853,0.0011003683866190144,-0.00042903655110361255,-0.000876874198277707,-7.610970983394337e-05,0.0004147980010248165,-0.00016292270674344209,0.0,0.0,0.0,0.0,0.0,0.0,0.0,-0.0001221811676664214,0.00021993299597194982,-7.421220765219116e-05,-3.190246721418433e-05,9.515350743345696e-05,-7.798726090380015e-05,-3.153097277741601e-05,0.001207808055232853,-0.0011003683866190144,0.00042903655110361255,0.000876874198277707,7.610970983394337e-05,-0.0004147980010248165,0.00016292270674344209,0.22445029020309448,13.536218643188477,-0.3983490765094757,-18.345064163208008,-0.5404563546180725,-2.2689852714538574,0.15231649577617645,0
64,0.31499528884887695,-0.22445029020309448,-13.536218643188477,0.3983490765094757,18.345064163208008,0.5404563546180725,2.2689852714538574,-0.15231649577617645,0.0,0.0,0.0,0.0,0.0,0.0,0.0,-0.2769647284801258,0.3918320755619196,-0.05028019003717765,0.5775738453932054,0.1091334988134095,0.06947417155834797,-0.13692872820947347,0.07177803612062919,-0.3344166668297951,-0.12026969306872161,-2.874736433575723,-0.06462770653334055,2.518239144921918,0.7687335593456371,0.07165585495296277,-0.33419673383382315,-0.1203439052763738,-2.874768336042937,-0.06453255302590709,2.518161157661014,0.7687020283728597,-0.001207808055232853,0.0011003683866190144,-0.00042903655110361255,-0.000876874198277707,-7.610970983394337e-05,0.0004147980010248165,-0.00016292270674344209,0.0,0.0,0.0,0.0,0.0,0.0,0.0,-0.0001221811676664214,0.00021993299597194982,-7.421220765219116e-05,-3.190246721418433e-05,9.515350743345696e-05,-7.798726090380015e-05,-3.153097277741601e-05,0.001207808055232853,-0.0011003683866190144,0.00042903655110361255,0.000876874198277707,7.610970983394337e-05,-0.0004147980010248165,0.00016292270674344209,0.22445029020309448,13.536218643188477,-0.3983490765094757,-18.345064163208008,-0.5404563546180725,-2.2689852714538574,0.15231649577617645,0
65,0.3200490474700928,-0.2720577120780945,-13.536218643188477,0.3983490765094757,18.345064163208008,0.5404563546180725,2.2818026542663574,-0.13217489421367645,0.0,0.0,0.0,0.0,0.0,0.0,0.0,-0.27320101429166016,0.39262443100928823,-0.04631112340540845,0.5776178368602511,0.10927835091807747,0.0688794450875232,-0.13857708339957692,0.07178064029256187,-0.3344166668297951,-0.1202696931769967,-2.874737175318228,-0.06462946189261876,2.518241070166343,0.7687342266132535,0.07165585495296277,-0.33419673383382315,-0.1203439052763738,-2.874768336042937,-0.06453255302590709,2.518161157661014,0.7687020283728597,0.0005193308884558644,0.00027120720147826054,-0.000311796498777827,-0.000700379190883733,-1.4027752365210339e-05,-6.800921895695576e-05,0.0008820369331757068,0.0,0.0,0.0,0.0,0.0,0.0,0.0,-0.0001247853395991011,0.00021993299597194982,-7.421209937709394e-05,-3.116072470898956e-05,9.690886671166743e-05,-7.991250532901617e-05,-3.219824039379926e-05,-0.0005193308884558644,-0.00027120720147826054,0.000311796498777827,0.000700379190883733,1.4027752365210339e-05,6.800921895695576e-05,-0.0008820369331757068,0.2720577120780945,13.536218643188477,-0.3983490765094757,-18.345064163208008,-0.5404563546180725,-2.2818026542663574,0.13217489421367645,0
66,0.3250453472137451,-0.2720577120780945,-13.536218643188477,0.3983490765094757,18.345064163208008,0.5404563546180725,2.2818026542663574,-0.13217489421367645,0.0,0.0,0.0,0.0,0.0,0.0,0.0,-0.27320101429166016,0.39262443100928823,-0.04631112340540845,0.5776178368602511,0.10927835091807747,0.0688794450875232,-0.13857708339957692,0.07178064029256187,-0.3344166668297951,-0.1202696931769967,-2.874737175318228,-0.06462946189261876,2.518241070166343,0.7687342266132535,0.07165585495296277,-0.33419673383382315,-0.1203439052763738,-2.874768336042937,-0.06453255302590709,2.518161157661014,0.7687020283728597,0.0005193308884558644,0.00027120720147826054,-0.000311796498777827,-0.000700379190883733,-1.4027752365210339e-05,-6.800921895695576e-05,0.0008820369331757068,0.0,0.0,0.0,0.0,0.0,0.0,0.0,-0.0001247853395991011,0.00021993299597194982,-7.421209937709394e-05,-3.116072470898956e-05,9.690886671166743e-05,-7.991250532901617e-05,-3.219824039379926e-05,-0.0005193308884558644,-0.00027120720147826054,0.000311796498777827,0.000700379190883733,1.4027752365210339e-05,6.800921895695576e-05,-0.0008820369331757068,0.2720577120780945,13.536218643188477,-0.3983490765094757,-18.345064163208008,-0.5404563546180725,-2.2818026542663574,0.13217489421367645,0
67,0.33007073402404785,-0.2720577120780945,-13.536218643188477,0.3983490765094757,18.269685745239258,0.5340476632118225,2.2818026542663574,-0.10470907390117645,0.0,0.0,0.0,0.0,0.0,0.0,0.0,-0.26956510783015425,0.3933677784046819,-0.04110309760487186,0.5772714151508692,0.10894210836269205,0.06889188464301663,-0.13461653343021973,0.07178277992344999,-0.3344166668297951,-0.12026969317699732,-2.874731885608874,-0.06462555795730737,2.5182410266029693,0.7687293861874166,0.07165585495296277,-0.33419673383382315,-0.1203439052763738,-2.874768336042937,-0.06453255302590709,2.518161157661014,0.7687020283728597,0.00038442565195641695,-2.7812709943415227e-05,-7.885336672084192e-05,0.0008669328513841186,0.00029563278762882316,0.00013848007996944338,-0.0012382262659899682,0.0,0.0,0.0,0.0,0.0,0.0,0.0,-0.00012692497048721885,0.00021993299597194982,-7.421209937648332e-05,-3.645043406308446e-05,9.300493140028399e-05,-7.986894195521899e-05,-2.735781455687203e-05,-0.00038442565195641695,2.7812709943415227e-05,7.885336672084192e-05,-0.0008669328513841186,-0.00029563278762882316,-0.00013848007996944338,0.0012382262659899682,0.2720577120780945,13.536218643188477,-0.3983490765094757,-18.269685745239258,-0.5340476632118225,-2.2818026542663574,0.10470907390117645,0
68,0.3350098133087158,-0.2720577120780945,-13.536218643188477,0.3983490765094757,18.269685745239258,0.5340476632118225,2.2818026542663574,-0.10470907390117645,0.0,0.0,0.0,0.0,0.0,0.0,0.0,-0.26956510783015425,0.3933677784046819,-0.04110309760487186,0.5772714151508692,0.10894210836269205,0.06889188464301663,-0.13461653343021973,0.07178277992344999,-0.3344166668297951,-0.12026969317699732,-2.874731885608874,-0.06462555795730737,2.5182410266029693,0.7687293861874166,0.07165585495296277,-0.33419673383382315,-0.1203439052763738,-2.874768336042937,-0.06453255302590709,2.518161157661014,0.7687020283728597,0.00038442565195641695,-2.7812709943415227e-05,-7.885336672084192e-05,0.0008669328513841186,0.00029563278762882316,0.00013848007996944338,-0.0012382262659899682,0.0,0.0,0.0,0.0,0.0,0.0,0.0,-0.00012692497048721885,0.00021993299597194982,-7.421209937648332e-05,-3.645043406308446e-05,9.300493140028399e-05,-7.986894195521899e-05,-2.735781455687203e-05,-0.00038442565195641695,2.7812709943415227e-05,7.885336672084192e-05,-0.0008669328513841186,-0.00029563278762882316,-0.00013848007996944338,0.0012382262659899682,0.2720577120780945,13.536218643188477,-0.3983490765094757,-18.269685745239258,-0.5340476632118225,-2.2818026542663574,0.10470907390117645,0
69,0.34000658988952637,-0.2720577120780945,-13.563989639282227,0.3705780804157257,18.345064163208008,0.5340476632118225,2.2882113456726074,-0.16604940593242645,0.0,0.0,0.0,0.0,0.0,0.0,0.0,-0.27385368116372827,0.3948171532748964,-0.04345501728195979,0.5764977503953427,0.10942243781079876,0.06904463734413394,-0.13462245152906105,0.07178064909348565,-0.33441471798796396,-0.12026703404648262,-2.8747371753224154,-0.06462567428967841,2.518236651391115,0.7687351295555576,0.07165585495296277,-0.33419673383382315,-0.1203439052763738,-2.874768336042937,-0.06453255302590709,2.518161157661014,0.7687020283728597,-0.0004637969642232687,0.00083155534854438,-7.225197708821151e-05,-0.0007084511910927273,0.00017037852253068176,-0.0003099639572331049,0.00101410778510283,0.0,0.0,0.0,0.0,0.0,0.0,0.0,-0.0001247941405228825,0.00021798415414081562,-7.687122989118167e-05,-3.11607205216724e-05,9.312126377132579e-05,-7.549373010107274e-05,-3.3101182697836684e-05,0.0004637969642232687,-0.00083155534854438,7.225197708821151e-05,0.0007084511910927273,-0.00017037852253068176,0.0003099639572331049,-0.00101410778510283,0.2720577120780945,13.563989639282227,-0.3705780804157257,-18.345064163208008,-0.5340476632118225,-2.2882113456726074,0.16604940593242645,0
70,0.3450591564178467,-0.2720577120780945,-13.563989639282227,0.3705780804157257,18.345064163208008,0.5340476632118225,2.2882113456726074,-0.16604940593242645,0.0,0.0,0.0,0.0,0.0,0.0,0.0,-0.27385368116372827,0.3948171532748964,-0.04345501728195979,0.5764977503953427,0.10942243781079876,0.06904463734413394,-0.13462245152906105,0.07178064909348565,-0.33441471798796396,-0.12026703404648262,-2.8747371753224154,-0.06462567428967841,2.518236651391115,0.7687351295555576,0.07165585495296277,-0.33419673383382315,-0.1203439052763738,-2.874768336042937,-0.06453255302590709,2.518161157661014,0.7687020283728597,-0.0004637969642232687,0.00083155534854438,-7.225197708821151e-05,-0.0007084511910927273,0.00017037852253068176,-0.0003099639572331049,0.00101410778510283,0.0,0.0,0.0,0.0,0.0,0.0,0.0,-0.0001247941405228825,0.00021798415414081562,-7.687122989118167e-05,-3.11607205216724e-05,9.312126377132579e-05,-7.549373010107274e-05,-3.3101182697836684e-05,0.0004637969642232687,-0.00083155534854438,7.225197708821151e-05,0.0007084511910927273,-0.00017037852253068176,0.0003099639572331049,-0.00101410778510283,0.2720577120780945,13.563989639282227,-0.3705780804157257,-18.345064163208008,-0.5340476632118225,-2.2882113456726074,0.16604940593242645,0
71,0.350048303604126,-0.2998287081718445,-13.488611221313477,0.3705780804157257,18.297456741333008,0.5340476632118225,2.2882113456726074,-0.09097616374492645,0.0,0.0,0.0,0.0,0.0,0.0,0.0,-0.274427950622273,0.3901187400204222,-0.04294749731311203,0.5746773744763426,0.10900528134131349,0.06877374011995706,-0.13927204306657912,0.07178266805253587,-0.33442000770150565,-0.12026774433500119,-2.874733834400459,-0.06462602914998836,2.518240346066019,0.768729657913178,0.07165585495296277,-0.33419673383382315,-0.1203439052763738,-2.874768336042937,-0.06453255302590709,2.518161157661014,0.7687020283728597,0.0002504983331008212,-0.0009758533614092921,-0.0007828238749279545,0.0002052155574001078,0.00023494807313146647,-0.00048107193607465726,-0.0015776897106342589,0.0,0.0,0.0,0.0,0.0,0.0,0.0,-0.00012681309957310316,0.00022327386768250523,-7.616094137261054e-05,-3.4501642478090844e-05,9.347612408126815e-05,-7.918840500487079e-05,-2.76295403183191e-05,-0.0002504983331008212,0.0009758533614092921,0.0007828238749279545,-0.0002052155574001078,-0.00023494807313146647,0.00048107193607465726,0.0015776897106342589,0.2998287081718445,13.488611221313477,-0.3705780804157257,-18.297456741333008,-0.5340476632118225,-2.2882113456726074,0.09097616374492645,0
72,0.3550558090209961,-0.2998287081718445,-13.488611221313477,0.3705780804157257,18.297456741333008,0.5340476632118225,2.2882113456726074,-0.09097616374492645,0.0,0.0,0.0,0.0,0.0,0.0,0.0,-0.274427950622273,0.3901187400204222,-0.04294749731311203,0.5746773744763426,0.10900528134131349,0.06877374011995706,-0.13927204306657912,0.07178266805253587,-0.33442000770150565,-0.12026774433500119,-2.874733834400459,-0.06462602914998836,2.518240346066019,0.768729657913178,0.07165585495296277,-0.33419673383382315,-0.1203439052763738,-2.874768336042937,-0.06453255302590709,2.518161157661014,0.7687020283728597,0.0002504983331008212,-0.0009758533614092921,-0.0007828238749279545,0.0002052155574001078,0.00023494807313146647,-0.00048107193607465726,-0.0015776897106342589,0.0,0.0,0.0,0.0,0.0,0.0,0.0,-0.00012681309957310316,0.00022327386768250523,-7.616094137261054e-05,-3.4501642478090844e-05,9.347612408126815e-05,-7.918840500487079e-05,-2.76295403183191e-05,-0.0002504983331008212,0.0009758533614092921,0.0007828238749279545,-0.0002052155574001078,-0.00023494807313146647,0.00048107193607465726,0.0015776897106342589,0.2998287081718445,13.488611221313477,-0.3705780804157257,-18.297456741333008,-0.5340476632118225,-2.2882113456726074,0.09097616374492645,0
73,0.3600590229034424,-0.2998287081718445,-13.512414932250977,0.3705780804157257,18.321260452270508,0.5404563546180725,2.2882113456726074,-0.10470907390117645,0.0,0.0,0.0,0.0,0.0,0.0,0.0,-0.27199921565580676,0.3893806027507303,-0.044013413535531586,0.5750336283377459,0.10905461897684143,0.06833529460266441,-0.13537249295941764,0.07178258913067982,-0.3344183372656504,-0.12026774433516618,-2.8747354211136145,-0.06462768900556155,2.51824036014333,0.7687279514243579,0.07165585495296277,-0.33419673383382315,-0.1203439052763738,-2.874768336042937,-0.06453255302590709,2.518161157661014,0.7687020283728597,0.00039241952563324664,0.0002372556698843606,-0.0003648124283404227,-0.0006233938342026148,1.1022076695850958e-05,-0.00017560681899735612,-0.00018562954361663503,0.0,0.0,0.0,0.0,0.0,0.0,0.0,-0.00012673417771705275,0.00022160343182725528,-7.616094120761752e-05,-3.291492932255835e-05,9.513597965446485e-05,-7.920248231574334e-05,-2.5923051498177863e-05,-0.00039241952563324664,-0.0002372556698843606,0.0003648124283404227,0.0006233938342026148,-1.1022076695850958e-05,0.00017560681899735612,0.00018562954361663503,0.2998287081718445,13.512414932250977,-0.3705780804157257,-18.321260452270508,-0.5404563546180725,-2.2882113456726074,0.10470907390117645,0
74,0.3650052547454834,-0.2998287081718445,-13.512414932250977,0.3705780804157257,18.321260452270508,0.5404563546180725,2.2882113456726074,-0.10470907390117645,0.0,0.0,0.0,0.0,0.0,0.0,0.0,-0.27199921565580676,0.3893806027507303,-0.044013413535531586,0.5750336283377459,0.10905461897684143,0.06833529460266441,-0.13537249295941764,0.07178258913067982,-0.3344183372656504,-0.12026774433516618,-2.8747354211136145,-0.06462768900556155,2.51824036014333,0.7687279514243579,0.07165585495296277,-0.33419673383382315,-0.1203439052763738,-2.874768336042937,-0.06453255302590709,2.518161157661014,0.7687020283728597,0.00039241952563324664,0.0002372556698843606,-0.0003648124283404227,-0.0006233938342026148,1.1022076695850958e-05,-0.00017560681899735612,-0.00018562954361663503,0.0,0.0,0.0,0.0,0.0,0.0,0.0,-0.00012673417771705275,0.00022160343182725528,-7.616094120761752e-05,-3.291492932255835e-05,9.513597965446485e-05,-7.920248231574334e-05,-2.5923051498177863e-05,-0.00039241952563324664,-0.0002372556698843606,0.0003648124283404227,0.0006233938342026148,-1.1022076695850958e-05,0.00017560681899735612,0.00018562954361663503,0.2998287081718445,13.512414932250977,-0.3705780804157257,-18.321260452270508,-0.5404563546180725,-2.2882113456726074,0.10470907390117645,0
75,0.37001991271972656,-0.2998287081718445,-13.563989639282227,0.3467743694782257,18.321260452270508,0.5404563546180725,2.2882113456726074,-0.13217489421367645,0.0,0.0,0.0,0.0,0.0,0.0,0.0,-0.2798961949336492,0.3836024510463602,-0.05294387842728226,0.5800079832245302,0.10969180602888953,0.06965154186242935,-0.13013254979656366,0.07178474662805093,-0.33441471798796396,-0.12026604758029384,-2.8747355048864027,-0.06462737210662778,2.5182403602941488,0.7687324512445823,0.07165585495296277,-0.33419673383382315,-0.1203439052763738,-2.874768336042937,-0.06453255302590709,2.518161157661014,0.7687020283728597,-8.076062888434477e-05,0.0009631776620590059,-0.0003347388862698345,-2.0237921414109958e-05,-0.0002946304366917213,-0.0002721455427135817,-0.0005017215068102724,0.0,0.0,0.0,0.0,0.0,0.0,0.0,-0.00012889167508815802,0.00021798415414081562,-7.785769607995818e-05,-3.283115653429647e-05,9.481908072069001e-05,-7.920263313465625e-05,-3.0422871722612932e-05,8.076062888434477e-05,-0.0009631776620590059,0.0003347388862698345,2.0237921414109958e-05,0.0002946304366917213,0.0002721455427135817,0.0005017215068102724,0.2998287081718445,13.563989639282227,-0.3467743694782257,-18.321260452270508,-0.5404563546180725,-2.2882113456726074,0.13217489421367645,0
76,0.37505435943603516,-0.2998287081718445,-13.563989639282227,0.3467743694782257,18.321260452270508,0.5404563546180725,2.2882113456726074,-0.13217489421367645,0.0,0.0,0.0,0.0,0.0,0.0,0.0,-0.2798961949336492,0.3836024510463602,-0.05294387842728226,0.5800079832245302,0.10969180602888953,0.06965154186242935,-0.13013254979656366,0.07178474662805093,-0.33441471798796396,-0.12026604758029384,-2.8747355048864027,-0.06462737210662778,2.5182403602941488,0.7687324512445823,0.07165585495296277,-0.33419673383382315,-0.1203439052763738,-2.874768336042937,-0.06453255302590709,2.518161157661014,0.7687020283728597,-8.076062888434477e-05,0.0009631776620590059,-0.0003347388862698345,-2.0237921414109958e-05,-0.0002946304366917213,-0.0002721455427135817,-0.0005017215068102724,0.0,0.0,0.0,0.0,0.0,0.0,0.0,-0.00012889167508815802,0.00021798415414081562,-7.785769607995818e-05,-3.283115653429647e-05,9.481908072069001e-05,-7.920263313465625e-05,-3.0422871722612932e-05,8.076062888434477e-05,-0.0009631776620590059,0.0003347388862698345,2.0237921414109958e-05,0.0002946304366917213,0.0002721455427135817,0.0005017215068102724,0.2998287081718445,13.563989639282227,-0.3467743694782257,-18.321260452270508,-0.5404563546180725,-2.2882113456726074,0.13217489421367645,0
77,0.3800687789916992,-0.2998287081718445,-13.563989639282227,0.3467743694782257,18.321260452270508,0.5404563546180725,2.2882113456726074,-0.13217489421367645,0.0,0.0,0.0,0.0,0.0,0.0,0.0,-0.2798961949336492,0.3836024510463602,-0.05294387842728226,0.5800079832245302,0.10969180602888953,0.06965154186242935,-0.13013254979656366,0.07178474662805093,-0.33441471798796396,-0.12026604758029384,-2.8747355048864027,-0.06462737210662778,2.5182403602941488,0.7687324512445823,0.07165585495296277,-0.33419673383382315,-0.1203439052763738,-2.874768336042937,-0.06453255302590709,2.518161157661014,0.7687020283728597,-8.076062888434477e-05,0.0009631776620590059,-0.0003347388862698345,-2.0237921414109958e-05,-0.0002946304366917213,-0.0002721455427135817,-0.0005017215068102724,0.0,0.0,0.0,0.0,0.0,0.0,0.0,-0.00012889167508815802,0.00021798415414081562,-7.785769607995818e-05,-3.283115653429647e-05,9.481908072069001e-05,-7.920263313465625e-05,-3.0422871722612932e-05,8.076062888434477e-05,-0.0009631776620590059,0.0003347388862698345,2.0237921414109958e-05,0.0002946304366917213,0.0002721455427135817,0.0005017215068102724,0.2998287081718445,13.563989639282227,-0.3467743694782257,-18.321260452270508,-0.5404563546180725,-2.2882113456726074,0.13217489421367645,0
78,0.3850722312927246,-0.2998287081718445,-13.563989639282227,0.3467743694782257,18.321260452270508,0.5404563546180725,2.2882113456726074,-0.13217489421367645,0.0,0.0,0.0,0.0,0.0,0.0,0.0,-0.2798961949336492,0.3836024510463602,-0.05294387842728226,0.5800079832245302,0.10969180602888953,0.06965154186242935,-0.13013254979656366,0.07178474662805093,-0.33441471798796396,-0.12026604758029384,-2.8747355048864027,-0.06462737210662778,2.5182403602941488,0.7687324512445823,0.07165585495296277,-0.33419673383382315,-0.1203439052763738,-2.874768336042937,-0.06453255302590709,2.518161157661014,0.7687020283728597,-8.076062888434477e-05,0.0009631776620590059,-0.0003347388862698345,-2.0237921414109958e-05,-0.0002946304366917213,-0.0002721455427135817,-0.0005017215068102724,0.0,0.0,0.0,0.0,0.0,0.0,0.0,-0.00012889167508815802,0.00021798415414081562,-7.785769607995818e-05,-3.283115653429647e-05,9.481908072069001e-05,-7.920263313465625e-05,-3.0422871722612932e-05,8.076062888434477e-05,-0.0009631776620590059,0.0003347388862698345,2.0237921414109958e-05,0.0002946304366917213,0.0002721455427135817,0.0005017215068102724,0.2998287081718445,13.563989639282227,-0.3467743694782257,-18.321260452270508,-0.5404563546180725,-2.2882113456726074,0.13217489421367645,0
79,0.390094518661499,-0.2720577120780945,-13.587793350219727,0.3705780804157257,18.297456741333008,0.5404563546180725,2.2818026542663574,-0.15964071452617645,0.0,0.0,0.0,0.0,0.0,0.0,0.0,-0.27927687856911987,0.39096040050687025,-0.0511133796122246,0.5747564646875325,0.10861714030804981,0.06881195224304286,-0.13482052704610642,0.07178300792140811,-0.3344130475521087,-0.12026703404643309,-2.8747338069786053,-0.06462983202568776,2.5182410703548443,0.768738306558326,0.07165585495296277,-0.33419673383382315,-0.1203439052763738,-2.874768336042937,-0.06453255302590709,2.518161157661014,0.7687020283728597,-0.00035550401066640686,0.0013536352328449536,-0.00015488151913209996,0.0003800447389092375,6.965108653692329e-05,3.671397033659305e-05,-8.442295939242134e-05,0.0,0.0,0.0,0.0,0.0,0.0,0.0,-0.00012715296844534318,0.00021631371828556567,-7.68712299407115e-05,-3.45290643317675e-05,9.727899978066723e-05,-7.991269383023081e-05,-3.6278185466254165e-05,0.00035550401066640686,-0.0013536352328449536,0.00015488151913209996,-0.0003800447389092375,-6.965108653692329e-05,-3.671397033659305e-05,8.442295939242134e-05,0.2720577120780945,13.587793350219727,-0.3705780804157257,-18.297456741333008,-0.5404563546180725,-2.2818026542663574,0.15964071452617645,0
