rezayati/contactInterpretation/dataset/franka_main/labeled_data/link6/b11_5.csv
index,time,tau_J0,tau_J1,tau_J2,tau_J3,tau_J4,tau_J5,tau_J6,tau_J_d0,tau_J_d1,tau_J_d2,tau_J_d3,tau_J_d4,tau_J_d5,tau_J_d6,tau_ext0,tau_ext1,tau_ext2,tau_ext3,tau_ext4,tau_ext5,tau_ext6,q0,q1,q2,q3,q4,q5,q6,q_d0,q_d1,q_d2,q_d3,q_d4,q_d5,q_d6,dq0,dq1,dq2,dq3,dq4,dq5,dq6,dq_d0,dq_d1,dq_d2,dq_d3,dq_d4,dq_d5,dq_d6,e0,e1,e2,e3,e4,e5,e6,de0,de1,de2,de3,de4,de5,de6,etau_J0,etau_J1,etau_J2,etau_J3,etau_J4,etau_J5,etau_J6,label
1,0.0,-0.8354122042655945,-46.64718246459961,-5.735073566436768,19.634431838989258,0.8563132882118225,2.3660311698913574,-0.45352500677108765,0.0,0.0,0.0,0.0,0.0,0.0,0.0,-0.8298301640228527,-0.3279805549230962,-0.5800167427611869,0.44702335206720606,0.2813711796000201,0.10685410521734012,-0.4167728535511386,0.8781189066945461,0.75564956604807,-0.28240929959949695,-1.6692209582747075,0.1413183389959562,2.4034179090393915,1.0273717259603325,0.878092876070424,0.7554597494309409,-0.2825552651693207,-1.6690993614607135,0.1414185955172306,2.4034451173676383,1.0273381002308042,0.00035738670516633506,-0.00020429018366469685,-0.00011104802025926338,-0.00013977691370631835,0.000183725265960585,0.00024091478133154558,0.0011004649382462814,0.0,0.0,0.0,0.0,0.0,0.0,0.0,-2.6030624122097556e-05,-0.0001898166171291349,-0.0001459655698237694,0.00012159681399404043,0.00010025652127440554,2.7208328246874913e-05,-3.3625729528363735e-05,-0.00035738670516633506,0.00020429018366469685,0.00011104802025926338,0.00013977691370631835,-0.000183725265960585,-0.00024091478133154558,-0.0011004649382462814,0.8354122042655945,46.64718246459961,5.735073566436768,-19.634431838989258,-0.8563132882118225,-2.3660311698913574,0.45352500677108765,0
2,0.004997968673706055,-0.8354122042655945,-46.64718246459961,-5.735073566436768,19.634431838989258,0.8563132882118225,2.3660311698913574,-0.45352500677108765,0.0,0.0,0.0,0.0,0.0,0.0,0.0,-0.8298301640228527,-0.3279805549230962,-0.5800167427611869,0.44702335206720606,0.2813711796000201,0.10685410521734012,-0.4167728535511386,0.8781189066945461,0.75564956604807,-0.28240929959949695,-1.6692209582747075,0.1413183389959562,2.4034179090393915,1.0273717259603325,0.878092876070424,0.7554597494309409,-0.2825552651693207,-1.6690993614607135,0.1414185955172306,2.4034451173676383,1.0273381002308042,0.00035738670516633506,-0.00020429018366469685,-0.00011104802025926338,-0.00013977691370631835,0.000183725265960585,0.00024091478133154558,0.0011004649382462814,0.0,0.0,0.0,0.0,0.0,0.0,0.0,-2.6030624122097556e-05,-0.0001898166171291349,-0.0001459655698237694,0.00012159681399404043,0.00010025652127440554,2.7208328246874913e-05,-3.3625729528363735e-05,-0.00035738670516633506,0.00020429018366469685,0.00011104802025926338,0.00013977691370631835,-0.000183725265960585,-0.00024091478133154558,-0.0011004649382462814,0.8354122042655945,46.64718246459961,5.735073566436768,-19.634431838989258,-0.8563132882118225,-2.3660311698913574,0.45352500677108765,0
3,0.009994029998779297,-0.8076412081718445,-46.69875717163086,-5.762844562530518,19.658235549926758,0.8618064522743225,2.3724398612976074,-0.39218467473983765,0.0,0.0,0.0,0.0,0.0,0.0,0.0,-0.8140757494507554,-0.34160329962084174,-0.5704687266773424,0.4558151729304171,0.2806586849412916,0.10801381186493585,-0.4183530531151703,0.8781169578527149,0.7556531853257564,-0.2824073507576658,-1.6692226287105627,0.14131703167428591,2.4034171969625686,1.0273638158445249,0.878092876070424,0.7554597494309409,-0.2825552651693207,-1.6690993614607135,0.1414185955172306,2.4034451173676383,1.0273381002308042,0.00024230923249969223,0.0009249618935249525,0.0003223232193343949,-0.00041135980584525167,0.0001733590177881328,7.869715136552272e-05,-0.0006356335542433965,0.0,0.0,0.0,0.0,0.0,0.0,0.0,-2.408178229096336e-05,-0.00019343589481557455,-0.0001479144116549036,0.00012326724984923487,0.00010156384294468523,2.7920405069714604e-05,-2.5715613720667108e-05,-0.00024230923249969223,-0.0009249618935249525,-0.0003223232193343949,0.00041135980584525167,-0.0001733590177881328,-7.869715136552272e-05,0.0006356335542433965,0.8076412081718445,46.69875717163086,5.762844562530518,-19.658235549926758,-0.8618064522743225,-2.3724398612976074,0.39218467473983765,0
4,0.014991998672485352,-0.8076412081718445,-46.69875717163086,-5.762844562530518,19.658235549926758,0.8618064522743225,2.3724398612976074,-0.39218467473983765,0.0,0.0,0.0,0.0,0.0,0.0,0.0,-0.8140757494507554,-0.34160329962084174,-0.5704687266773424,0.4558151729304171,0.2806586849412916,0.10801381186493585,-0.4183530531151703,0.8781169578527149,0.7556531853257564,-0.2824073507576658,-1.6692226287105627,0.14131703167428591,2.4034171969625686,1.0273638158445249,0.878092876070424,0.7554597494309409,-0.2825552651693207,-1.6690993614607135,0.1414185955172306,2.4034451173676383,1.0273381002308042,0.00024230923249969223,0.0009249618935249525,0.0003223232193343949,-0.00041135980584525167,0.0001733590177881328,7.869715136552272e-05,-0.0006356335542433965,0.0,0.0,0.0,0.0,0.0,0.0,0.0,-2.408178229096336e-05,-0.00019343589481557455,-0.0001479144116549036,0.00012326724984923487,0.00010156384294468523,2.7920405069714604e-05,-2.5715613720667108e-05,-0.00024230923249969223,-0.0009249618935249525,-0.0003223232193343949,0.00041135980584525167,-0.0001733590177881328,-7.869715136552272e-05,0.0006356335542433965,0.8076412081718445,46.69875717163086,5.762844562530518,-19.658235549926758,-0.8618064522743225,-2.3724398612976074,0.39218467473983765,0
5,0.02028369903564453,-0.7560665011405945,-46.62337875366211,-5.711269855499268,19.634431838989258,0.8682151436805725,2.3724398612976074,-0.43979209661483765,0.0,0.0,0.0,0.0,0.0,0.0,0.0,-0.8183237255580978,-0.3309222563922651,-0.5760737236139177,0.4490566085275466,0.2808255110599501,0.10749347199874104,-0.41709051690105625,0.8781133385750285,0.7556478956122148,-0.2824109700353522,-1.6692207198561284,0.14131722652711992,2.4034171969625686,1.027370204435874,0.878092876070424,0.7554597494309409,-0.2825552651693207,-1.6690993614607135,0.1414185955172306,2.4034451173676383,1.0273381002308042,-0.000922837588750559,-0.0006035214998188486,-0.0011253637311965713,0.0009076533797070479,-3.7979348384104947e-06,-2.0164864724184305e-05,0.001388230213866186,0.0,0.0,0.0,0.0,0.0,0.0,0.0,-2.04625046045237e-05,-0.00018814618127394045,-0.00014429513396851945,0.00012135839541493887,0.00010136899011067846,2.7920405069714604e-05,-3.210420506971623e-05,0.000922837588750559,0.0006035214998188486,0.0011253637311965713,-0.0009076533797070479,3.7979348384104947e-06,2.0164864724184305e-05,-0.001388230213866186,0.7560665011405945,46.62337875366211,5.711269855499268,-19.634431838989258,-0.8682151436805725,-2.3724398612976074,0.43979209661483765,0
6,0.02494192123413086,-0.7560665011405945,-46.62337875366211,-5.711269855499268,19.634431838989258,0.8682151436805725,2.3724398612976074,-0.43979209661483765,0.0,0.0,0.0,0.0,0.0,0.0,0.0,-0.8183237255580978,-0.3309222563922651,-0.5760737236139177,0.4490566085275466,0.2808255110599501,0.10749347199874104,-0.41709051690105625,0.8781133385750285,0.7556478956122148,-0.2824109700353522,-1.6692207198561284,0.14131722652711992,2.4034171969625686,1.027370204435874,0.878092876070424,0.7554597494309409,-0.2825552651693207,-1.6690993614607135,0.1414185955172306,2.4034451173676383,1.0273381002308042,-0.000922837588750559,-0.0006035214998188486,-0.0011253637311965713,0.0009076533797070479,-3.7979348384104947e-06,-2.0164864724184305e-05,0.001388230213866186,0.0,0.0,0.0,0.0,0.0,0.0,0.0,-2.04625046045237e-05,-0.00018814618127394045,-0.00014429513396851945,0.00012135839541493887,0.00010136899011067846,2.7920405069714604e-05,-3.210420506971623e-05,0.000922837588750559,0.0006035214998188486,0.0011253637311965713,-0.0009076533797070479,3.7979348384104947e-06,2.0164864724184305e-05,-0.001388230213866186,0.7560665011405945,46.62337875366211,5.711269855499268,-19.634431838989258,-0.8682151436805725,-2.3724398612976074,0.43979209661483765,0
7,0.030422449111938477,-0.7560665011405945,-46.62337875366211,-5.711269855499268,19.634431838989258,0.8682151436805725,2.3724398612976074,-0.43979209661483765,0.0,0.0,0.0,0.0,0.0,0.0,0.0,-0.8183237255580978,-0.3309222563922651,-0.5760737236139177,0.4490566085275466,0.2808255110599501,0.10749347199874104,-0.41709051690105625,0.8781133385750285,0.7556478956122148,-0.2824109700353522,-1.6692207198561284,0.14131722652711992,2.4034171969625686,1.027370204435874,0.878092876070424,0.7554597494309409,-0.2825552651693207,-1.6690993614607135,0.1414185955172306,2.4034451173676383,1.0273381002308042,-0.000922837588750559,-0.0006035214998188486,-0.0011253637311965713,0.0009076533797070479,-3.7979348384104947e-06,-2.0164864724184305e-05,0.001388230213866186,0.0,0.0,0.0,0.0,0.0,0.0,0.0,-2.04625046045237e-05,-0.00018814618127394045,-0.00014429513396851945,0.00012135839541493887,0.00010136899011067846,2.7920405069714604e-05,-3.210420506971623e-05,0.000922837588750559,0.0006035214998188486,0.0011253637311965713,-0.0009076533797070479,3.7979348384104947e-06,2.0164864724184305e-05,-0.001388230213866186,0.7560665011405945,46.62337875366211,5.711269855499268,-19.634431838989258,-0.8682151436805725,-2.3724398612976074,0.43979209661483765,0
8,0.03499412536621094,-0.7560665011405945,-46.62337875366211,-5.711269855499268,19.634431838989258,0.8682151436805725,2.3724398612976074,-0.43979209661483765,0.0,0.0,0.0,0.0,0.0,0.0,0.0,-0.8183237255580978,-0.3309222563922651,-0.5760737236139177,0.4490566085275466,0.2808255110599501,0.10749347199874104,-0.41709051690105625,0.8781133385750285,0.7556478956122148,-0.2824109700353522,-1.6692207198561284,0.14131722652711992,2.4034171969625686,1.027370204435874,0.878092876070424,0.7554597494309409,-0.2825552651693207,-1.6690993614607135,0.1414185955172306,2.4034451173676383,1.0273381002308042,-0.000922837588750559,-0.0006035214998188486,-0.0011253637311965713,0.0009076533797070479,-3.7979348384104947e-06,-2.0164864724184305e-05,0.001388230213866186,0.0,0.0,0.0,0.0,0.0,0.0,0.0,-2.04625046045237e-05,-0.00018814618127394045,-0.00014429513396851945,0.00012135839541493887,0.00010136899011067846,2.7920405069714604e-05,-3.210420506971623e-05,0.000922837588750559,0.0006035214998188486,0.0011253637311965713,-0.0009076533797070479,3.7979348384104947e-06,2.0164864724184305e-05,-0.001388230213866186,0.7560665011405945,46.62337875366211,5.711269855499268,-19.634431838989258,-0.8682151436805725,-2.3724398612976074,0.43979209661483765,0
9,0.040007829666137695,-0.7838374972343445,-46.67495346069336,-5.786648273468018,19.634431838989258,0.8618064522743225,2.3788485527038574,-0.45352500677108765,0.0,0.0,0.0,0.0,0.0,0.0,0.0,-0.8234084153125216,-0.33755093403397496,-0.5801826949054365,0.45331894265773626,0.280955783694924,0.10700165709874217,-0.4158965880949967,0.8781152874168596,0.7556515148899011,-0.2824056803218105,-1.6692209582733615,0.1413138386147082,2.4034164848857458,1.0273717303209833,0.878092876070424,0.7554597494309409,-0.2825552651693207,-1.6690993614607135,0.1414185955172306,2.4034451173676383,1.0273381002308042,-0.0009304913462114593,0.00013269478939258847,0.0011145883060445722,0.0005022155556805614,0.0001885917416045649,-0.0003468232459217423,0.0016245772022075243,0.0,0.0,0.0,0.0,0.0,0.0,0.0,-2.2411346435657897e-05,-0.00019176545896026909,-0.00014958484751020906,0.00012159681264800604,0.00010475690252240155,2.8632481892554296e-05,-3.363009017909313e-05,0.0009304913462114593,-0.00013269478939258847,-0.0011145883060445722,-0.0005022155556805614,-0.0001885917416045649,0.0003468232459217423,-0.0016245772022075243,0.7838374972343445,46.67495346069336,5.786648273468018,-19.634431838989258,-0.8618064522743225,-2.3788485527038574,0.45352500677108765,0
10,0.04500985145568848,-0.7838374972343445,-46.67495346069336,-5.786648273468018,19.634431838989258,0.8618064522743225,2.3788485527038574,-0.45352500677108765,0.0,0.0,0.0,0.0,0.0,0.0,0.0,-0.8234084153125216,-0.33755093403397496,-0.5801826949054365,0.45331894265773626,0.280955783694924,0.10700165709874217,-0.4158965880949967,0.8781152874168596,0.7556515148899011,-0.2824056803218105,-1.6692209582733615,0.1413138386147082,2.4034164848857458,1.0273717303209833,0.878092876070424,0.7554597494309409,-0.2825552651693207,-1.6690993614607135,0.1414185955172306,2.4034451173676383,1.0273381002308042,-0.0009304913462114593,0.00013269478939258847,0.0011145883060445722,0.0005022155556805614,0.0001885917416045649,-0.0003468232459217423,0.0016245772022075243,0.0,0.0,0.0,0.0,0.0,0.0,0.0,-2.2411346435657897e-05,-0.00019176545896026909,-0.00014958484751020906,0.00012159681264800604,0.00010475690252240155,2.8632481892554296e-05,-3.363009017909313e-05,0.0009304913462114593,-0.00013269478939258847,-0.0011145883060445722,-0.0005022155556805614,-0.0001885917416045649,0.0003468232459217423,-0.0016245772022075243,0.7838374972343445,46.67495346069336,5.786648273468018,-19.634431838989258,-0.8618064522743225,-2.3788485527038574,0.45352500677108765,0
11,0.04999828338623047,-0.8076412081718445,-46.64718246459961,-5.762844562530518,19.686006546020508,0.8682151436805725,2.3788485527038574,-0.39218467473983765,0.0,0.0,0.0,0.0,0.0,0.0,0.0,-0.8159212059239052,-0.3237300577727115,-0.5707138536114488,0.44931034004077297,0.280541849785093,0.10594356599718018,-0.4147189247931937,0.8781169578527149,0.7556493310816728,-0.2824073507576658,-1.6692245775523937,0.1413140328542943,2.403417544523875,1.0273649147285353,0.878092876070424,0.7554597494309409,-0.2825552651693207,-1.6690993614607135,0.1414185955172306,2.4034451173676383,1.0273381002308042,-0.00018964749551072808,0.0003398639761983811,0.0007263935211269347,-0.000942548855806561,-8.184106443563405e-05,-0.0002257118613286907,-0.000882032918175441,0.0,0.0,0.0,0.0,0.0,0.0,0.0,-2.408178229096336e-05,-0.00018958165073190703,-0.0001479144116549036,0.00012521609168025805,0.00010456266293629168,2.7572843763312704e-05,-2.6814497731120213e-05,0.00018964749551072808,-0.0003398639761983811,-0.0007263935211269347,0.000942548855806561,8.184106443563405e-05,0.0002257118613286907,0.000882032918175441,0.8076412081718445,46.64718246459961,5.762844562530518,-19.686006546020508,-0.8682151436805725,-2.3788485527038574,0.39218467473983765,0
12,0.05494284629821777,-0.8076412081718445,-46.64718246459961,-5.762844562530518,19.686006546020508,0.8682151436805725,2.3788485527038574,-0.39218467473983765,0.0,0.0,0.0,0.0,0.0,0.0,0.0,-0.8159212059239052,-0.3237300577727115,-0.5707138536114488,0.44931034004077297,0.280541849785093,0.10594356599718018,-0.4147189247931937,0.8781169578527149,0.7556493310816728,-0.2824073507576658,-1.6692245775523937,0.1413140328542943,2.403417544523875,1.0273649147285353,0.878092876070424,0.7554597494309409,-0.2825552651693207,-1.6690993614607135,0.1414185955172306,2.4034451173676383,1.0273381002308042,-0.00018964749551072808,0.0003398639761983811,0.0007263935211269347,-0.000942548855806561,-8.184106443563405e-05,-0.0002257118613286907,-0.000882032918175441,0.0,0.0,0.0,0.0,0.0,0.0,0.0,-2.408178229096336e-05,-0.00018958165073190703,-0.0001479144116549036,0.00012521609168025805,0.00010456266293629168,2.7572843763312704e-05,-2.6814497731120213e-05,0.00018964749551072808,-0.0003398639761983811,-0.0007263935211269347,0.000942548855806561,8.184106443563405e-05,0.0002257118613286907,0.000882032918175441,0.8076412081718445,46.64718246459961,5.762844562530518,-19.686006546020508,-0.8682151436805725,-2.3788485527038574,0.39218467473983765,0
13,0.05999302864074707,-0.8354122042655945,-46.64718246459961,-5.735073566436768,19.634431838989258,0.8737083077430725,2.3788485527038574,-0.42605918645858765,0.0,0.0,0.0,0.0,0.0,0.0,0.0,-0.8229733953951811,-0.3280608180360097,-0.5760936262797691,0.45089573229451024,0.28065619563235383,0.10707138229560935,-0.4137094298741268,0.8781189066945461,0.7556495660476279,-0.28240929959949695,-1.6692209582747073,0.14131638000026367,2.4034164848877393,1.0273686785631708,0.878092876070424,0.7554597494309409,-0.2825552651693207,-1.6690993614607135,0.1414185955172306,2.4034451173676383,1.0273381002308042,0.00012528237160882265,-2.3117233966491396e-05,-0.00013887010019375496,0.0003736821596622047,-0.00040312068293188013,-0.00022046863638181422,0.00048540541961319023,0.0,0.0,0.0,0.0,0.0,0.0,0.0,-2.6030624122097556e-05,-0.00018981661668704408,-0.0001459655698237694,0.00012159681399381839,0.00010221551696693032,2.8632479899037833e-05,-3.057833236663754e-05,-0.00012528237160882265,2.3117233966491396e-05,0.00013887010019375496,-0.0003736821596622047,0.00040312068293188013,0.00022046863638181422,-0.00048540541961319023,0.8354122042655945,46.64718246459961,5.735073566436768,-19.634431838989258,-0.8737083077430725,-2.3788485527038574,0.42605918645858765,0
14,0.06499218940734863,-0.8354122042655945,-46.64718246459961,-5.735073566436768,19.634431838989258,0.8737083077430725,2.3788485527038574,-0.42605918645858765,0.0,0.0,0.0,0.0,0.0,0.0,0.0,-0.8229733953951811,-0.3280608180360097,-0.5760936262797691,0.45089573229451024,0.28065619563235383,0.10707138229560935,-0.4137094298741268,0.8781189066945461,0.7556495660476279,-0.28240929959949695,-1.6692209582747073,0.14131638000026367,2.4034164848877393,1.0273686785631708,0.878092876070424,0.7554597494309409,-0.2825552651693207,-1.6690993614607135,0.1414185955172306,2.4034451173676383,1.0273381002308042,0.00012528237160882265,-2.3117233966491396e-05,-0.00013887010019375496,0.0003736821596622047,-0.00040312068293188013,-0.00022046863638181422,0.00048540541961319023,0.0,0.0,0.0,0.0,0.0,0.0,0.0,-2.6030624122097556e-05,-0.00018981661668704408,-0.0001459655698237694,0.00012159681399381839,0.00010221551696693032,2.8632479899037833e-05,-3.057833236663754e-05,-0.00012528237160882265,2.3117233966491396e-05,0.00013887010019375496,-0.0003736821596622047,0.00040312068293188013,0.00022046863638181422,-0.00048540541961319023,0.8354122042655945,46.64718246459961,5.735073566436768,-19.634431838989258,-0.8737083077430725,-2.3788485527038574,0.42605918645858765,0
15,0.06999850273132324,-0.8076412081718445,-46.67495346069336,-5.711269855499268,19.686006546020508,0.8682151436805725,2.3788485527038574,-0.39218467473983765,0.0,0.0,0.0,0.0,0.0,0.0,0.0,-0.8188940937618651,-0.33054760219446716,-0.5735039142153623,0.45014942472232994,0.2803417082460128,0.10765286824864208,-0.4143339750452057,0.8781169578527149,0.755651488889521,-0.2824109700353522,-1.6692245775523937,0.14131595383208853,2.4034164848857458,1.0273649142440187,0.878092876070424,0.7554597494309409,-0.2825552651693207,-1.6690993614607135,0.1414185955172306,2.4034451173676383,1.0273381002308042,-0.0007895632928563437,0.00047574665727586945,-0.0008240163586960257,-0.0012680473560224435,-3.501262523908292e-05,-0.0001810433769068883,-0.0010146613357309828,0.0,0.0,0.0,0.0,0.0,0.0,0.0,-2.408178229096336e-05,-0.00019173945858019792,-0.00014429513396851945,0.00012521609168025805,0.00010264168514206862,2.8632481892554296e-05,-2.681401321447119e-05,0.0007895632928563437,-0.00047574665727586945,0.0008240163586960257,0.0012680473560224435,3.501262523908292e-05,0.0001810433769068883,0.0010146613357309828,0.8076412081718445,46.67495346069336,5.711269855499268,-19.686006546020508,-0.8682151436805725,-2.3788485527038574,0.39218467473983765,0
16,0.07502865791320801,-0.8076412081718445,-46.67495346069336,-5.711269855499268,19.686006546020508,0.8682151436805725,2.3788485527038574,-0.39218467473983765,0.0,0.0,0.0,0.0,0.0,0.0,0.0,-0.8188940937618651,-0.33054760219446716,-0.5735039142153623,0.45014942472232994,0.2803417082460128,0.10765286824864208,-0.4143339750452057,0.8781169578527149,0.755651488889521,-0.2824109700353522,-1.6692245775523937,0.14131595383208853,2.4034164848857458,1.0273649142440187,0.878092876070424,0.7554597494309409,-0.2825552651693207,-1.6690993614607135,0.1414185955172306,2.4034451173676383,1.0273381002308042,-0.0007895632928563437,0.00047574665727586945,-0.0008240163586960257,-0.0012680473560224435,-3.501262523908292e-05,-0.0001810433769068883,-0.0010146613357309828,0.0,0.0,0.0,0.0,0.0,0.0,0.0,-2.408178229096336e-05,-0.00019173945858019792,-0.00014429513396851945,0.00012521609168025805,0.00010264168514206862,2.8632481892554296e-05,-2.681401321447119e-05,0.0007895632928563437,-0.00047574665727586945,0.0008240163586960257,0.0012680473560224435,3.501262523908292e-05,0.0001810433769068883,0.0010146613357309828,0.8076412081718445,46.67495346069336,5.711269855499268,-19.686006546020508,-0.8682151436805725,-2.3788485527038574,0.39218467473983765,0
17,0.07999038696289062,-0.8076412081718445,-46.64718246459961,-5.762844562530518,19.658235549926758,0.8682151436805725,2.3788485527038574,-0.37845176458358765,0.0,0.0,0.0,0.0,0.0,0.0,0.0,-0.8232191389425183,-0.3288455305714547,-0.5765628476589715,0.4481447962419954,0.2802110390441959,0.10749166254991117,-0.4141501718230552,0.8781169578527149,0.7556494880467831,-0.2824073507576658,-1.6692226287105625,0.14131619732769998,2.4034164979676977,1.0273633888496263,0.878092876070424,0.7554597494309409,-0.2825552651693207,-1.6690993614607135,0.1414185955172306,2.4034451173676383,1.0273381002308042,-0.0008824419081620588,-0.00034654835516418356,0.00039139592633005417,-0.00016085107205445455,-0.00011073965346829456,-0.00027943186863475377,-0.001437927319065957,0.0,0.0,0.0,0.0,0.0,0.0,0.0,-2.408178229096336e-05,-0.00018973861584226093,-0.0001479144116549036,0.00012326724984901283,0.00010239818953061697,2.8619399940588153e-05,-2.528861882211686e-05,0.0008824419081620588,0.00034654835516418356,-0.00039139592633005417,0.00016085107205445455,0.00011073965346829456,0.00027943186863475377,0.001437927319065957,0.8076412081718445,46.64718246459961,5.762844562530518,-19.658235549926758,-0.8682151436805725,-2.3788485527038574,0.37845176458358765,0
18,0.0850229263305664,-0.8076412081718445,-46.64718246459961,-5.762844562530518,19.658235549926758,0.8682151436805725,2.3788485527038574,-0.37845176458358765,0.0,0.0,0.0,0.0,0.0,0.0,0.0,-0.8232191389425183,-0.3288455305714547,-0.5765628476589715,0.4481447962419954,0.2802110390441959,0.10749166254991117,-0.4141501718230552,0.8781169578527149,0.7556494880467831,-0.2824073507576658,-1.6692226287105625,0.14131619732769998,2.4034164979676977,1.0273633888496263,0.878092876070424,0.7554597494309409,-0.2825552651693207,-1.6690993614607135,0.1414185955172306,2.4034451173676383,1.0273381002308042,-0.0008824419081620588,-0.00034654835516418356,0.00039139592633005417,-0.00016085107205445455,-0.00011073965346829456,-0.00027943186863475377,-0.001437927319065957,0.0,0.0,0.0,0.0,0.0,0.0,0.0,-2.408178229096336e-05,-0.00018973861584226093,-0.0001479144116549036,0.00012326724984901283,0.00010239818953061697,2.8619399940588153e-05,-2.528861882211686e-05,0.0008824419081620588,0.00034654835516418356,-0.00039139592633005417,0.00016085107205445455,0.00011073965346829456,0.00027943186863475377,0.001437927319065957,0.8076412081718445,46.64718246459961,5.762844562530518,-19.658235549926758,-0.8682151436805725,-2.3788485527038574,0.37845176458358765,0
19,0.0899498462677002,-0.8076412081718445,-46.64718246459961,-5.762844562530518,19.586824417114258,0.8682151436805725,2.3724398612976074,-0.43979209661483765,0.0,0.0,0.0,0.0,0.0,0.0,0.0,-0.8144343350403612,-0.32386285095130807,-0.5693564715656786,0.44785244738882357,0.2801894157243665,0.10697484730074718,-0.4143799209786085,0.8781169578527149,0.7556495660476297,-0.28240734192734807,-1.6692176172939805,0.14131733998763463,2.4034171969626423,1.0273702029885268,0.878092876070424,0.7554597494309409,-0.2825552651693207,-1.6690993614607135,0.1414185955172306,2.4034451173676383,1.0273381002308042,-7.372011351571588e-05,-0.00023130210332995282,0.00036878167343566974,0.0019220784984882735,-0.00010663875335168291,8.17900411214779e-05,0.0012663839092102935,0.0,0.0,0.0,0.0,0.0,0.0,0.0,-2.408178229096336e-05,-0.00018981661668882044,-0.00014792324197265838,0.000118255833267078,0.00010125552959597273,2.7920404995995796e-05,-3.2102757722585196e-05,7.372011351571588e-05,0.00023130210332995282,-0.00036878167343566974,-0.0019220784984882735,0.00010663875335168291,-8.17900411214779e-05,-0.0012663839092102935,0.8076412081718445,46.64718246459961,5.762844562530518,-19.586824417114258,-0.8682151436805725,-2.3724398612976074,0.43979209661483765,0
20,0.09494733810424805,-0.8076412081718445,-46.64718246459961,-5.762844562530518,19.586824417114258,0.8682151436805725,2.3724398612976074,-0.43979209661483765,0.0,0.0,0.0,0.0,0.0,0.0,0.0,-0.8144343350403612,-0.32386285095130807,-0.5693564715656786,0.44785244738882357,0.2801894157243665,0.10697484730074718,-0.4143799209786085,0.8781169578527149,0.7556495660476297,-0.28240734192734807,-1.6692176172939805,0.14131733998763463,2.4034171969626423,1.0273702029885268,0.878092876070424,0.7554597494309409,-0.2825552651693207,-1.6690993614607135,0.1414185955172306,2.4034451173676383,1.0273381002308042,-7.372011351571588e-05,-0.00023130210332995282,0.00036878167343566974,0.0019220784984882735,-0.00010663875335168291,8.17900411214779e-05,0.0012663839092102935,0.0,0.0,0.0,0.0,0.0,0.0,0.0,-2.408178229096336e-05,-0.00018981661668882044,-0.00014792324197265838,0.000118255833267078,0.00010125552959597273,2.7920404995995796e-05,-3.2102757722585196e-05,7.372011351571588e-05,0.00023130210332995282,-0.00036878167343566974,-0.0019220784984882735,0.00010663875335168291,-8.17900411214779e-05,-0.0012663839092102935,0.8076412081718445,46.64718246459961,5.762844562530518,-19.586824417114258,-0.8682151436805725,-2.3724398612976074,0.43979209661483765,0
21,0.09999561309814453,-0.7838374972343445,-46.62337875366211,-5.762844562530518,19.634431838989258,0.8563132882118225,2.3724398612976074,-0.39218467473983765,0.0,0.0,0.0,0.0,0.0,0.0,0.0,-0.8241193464504346,-0.33270049222742465,-0.5792697031786059,0.4504238201943921,0.2809381727696265,0.10798118928397335,-0.41333912178406357,0.8781152874168596,0.7556478956122148,-0.28240735075761597,-1.6692209582747068,0.14131502788367306,2.4034171969625686,1.0273638546058812,0.878092876070424,0.7554597494309409,-0.2825552651693207,-1.6690993614607135,0.1414185955172306,2.4034451173676383,1.0273381002308042,-0.0006854738335515207,-0.0010193375200299455,2.098227821288428e-05,0.0002350957464561622,0.00033761361241658485,2.1530431869425023e-05,-0.0012179176629557057,0.0,0.0,0.0,0.0,0.0,0.0,0.0,-2.2411346435657897e-05,-0.00018814618127394045,-0.0001479144117047526,0.0001215968139933743,0.00010356763355753862,2.7920405069714604e-05,-2.5754375077013947e-05,0.0006854738335515207,0.0010193375200299455,-2.098227821288428e-05,-0.0002350957464561622,-0.00033761361241658485,-2.1530431869425023e-05,0.0012179176629557057,0.7838374972343445,46.62337875366211,5.762844562530518,-19.634431838989258,-0.8563132882118225,-2.3724398612976074,0.39218467473983765,0
22,0.10498929023742676,-0.7838374972343445,-46.62337875366211,-5.762844562530518,19.634431838989258,0.8563132882118225,2.3724398612976074,-0.39218467473983765,0.0,0.0,0.0,0.0,0.0,0.0,0.0,-0.8241193464504346,-0.33270049222742465,-0.5792697031786059,0.4504238201943921,0.2809381727696265,0.10798118928397335,-0.41333912178406357,0.8781152874168596,0.7556478956122148,-0.28240735075761597,-1.6692209582747068,0.14131502788367306,2.4034171969625686,1.0273638546058812,0.878092876070424,0.7554597494309409,-0.2825552651693207,-1.6690993614607135,0.1414185955172306,2.4034451173676383,1.0273381002308042,-0.0006854738335515207,-0.0010193375200299455,2.098227821288428e-05,0.0002350957464561622,0.00033761361241658485,2.1530431869425023e-05,-0.0012179176629557057,0.0,0.0,0.0,0.0,0.0,0.0,0.0,-2.2411346435657897e-05,-0.00018814618127394045,-0.0001479144117047526,0.0001215968139933743,0.00010356763355753862,2.7920405069714604e-05,-2.5754375077013947e-05,0.0006854738335515207,0.0010193375200299455,-2.098227821288428e-05,-0.0002350957464561622,-0.00033761361241658485,-2.1530431869425023e-05,0.0012179176629557057,0.7838374972343445,46.62337875366211,5.762844562530518,-19.634431838989258,-0.8563132882118225,-2.3724398612976074,0.39218467473983765,0
23,0.1100013256072998,-0.8354122042655945,-46.64718246459961,-5.762844562530518,19.634431838989258,0.8618064522743225,2.3724398612976074,-0.45352500677108765,0.0,0.0,0.0,0.0,0.0,0.0,0.0,-0.812361699409637,-0.3400315841580816,-0.5755754128168937,0.4559459736326838,0.2807480360704514,0.10839059760659489,-0.41332871049306,0.8781189066945461,0.7556495543853481,-0.28240734781422655,-1.6692209582747073,0.14131701827658863,2.4034171969625686,1.0273717303189887,0.878092876070424,0.7554597494309409,-0.2825552651693207,-1.6690993614607135,0.1414185955172306,2.4034451173676383,1.0273381002308042,0.0007520845237853698,-0.00041132164827619474,6.853932046446303e-05,0.0007038930563139326,-4.2483936942396585e-05,4.953985013687958e-05,0.001978591670713118,0.0,0.0,0.0,0.0,0.0,0.0,0.0,-2.6030624122097556e-05,-0.00018980495440723555,-0.0001479173550941737,0.00012159681399381839,0.00010157724064197016,2.7920405069714604e-05,-3.3630088184466445e-05,-0.0007520845237853698,0.00041132164827619474,-6.853932046446303e-05,-0.0007038930563139326,4.2483936942396585e-05,-4.953985013687958e-05,-0.001978591670713118,0.8354122042655945,46.64718246459961,5.762844562530518,-19.634431838989258,-0.8618064522743225,-2.3724398612976074,0.45352500677108765,0
24,0.11499261856079102,-0.8354122042655945,-46.64718246459961,-5.762844562530518,19.634431838989258,0.8618064522743225,2.3724398612976074,-0.45352500677108765,0.0,0.0,0.0,0.0,0.0,0.0,0.0,-0.812361699409637,-0.3400315841580816,-0.5755754128168937,0.4559459736326838,0.2807480360704514,0.10839059760659489,-0.41332871049306,0.8781189066945461,0.7556495543853481,-0.28240734781422655,-1.6692209582747073,0.14131701827658863,2.4034171969625686,1.0273717303189887,0.878092876070424,0.7554597494309409,-0.2825552651693207,-1.6690993614607135,0.1414185955172306,2.4034451173676383,1.0273381002308042,0.0007520845237853698,-0.00041132164827619474,6.853932046446303e-05,0.0007038930563139326,-4.2483936942396585e-05,4.953985013687958e-05,0.001978591670713118,0.0,0.0,0.0,0.0,0.0,0.0,0.0,-2.6030624122097556e-05,-0.00018980495440723555,-0.0001479173550941737,0.00012159681399381839,0.00010157724064197016,2.7920405069714604e-05,-3.3630088184466445e-05,-0.0007520845237853698,0.00041132164827619474,-6.853932046446303e-05,-0.0007038930563139326,4.2483936942396585e-05,-4.953985013687958e-05,-0.001978591670713118,0.8354122042655945,46.64718246459961,5.762844562530518,-19.634431838989258,-0.8618064522743225,-2.3724398612976074,0.45352500677108765,0
25,0.11999869346618652,-0.8354122042655945,-46.64718246459961,-5.762844562530518,19.634431838989258,0.8618064522743225,2.3724398612976074,-0.45352500677108765,0.0,0.0,0.0,0.0,0.0,0.0,0.0,-0.812361699409637,-0.3400315841580816,-0.5755754128168937,0.4559459736326838,0.2807480360704514,0.10839059760659489,-0.41332871049306,0.8781189066945461,0.7556495543853481,-0.28240734781422655,-1.6692209582747073,0.14131701827658863,2.4034171969625686,1.0273717303189887,0.878092876070424,0.7554597494309409,-0.2825552651693207,-1.6690993614607135,0.1414185955172306,2.4034451173676383,1.0273381002308042,0.0007520845237853698,-0.00041132164827619474,6.853932046446303e-05,0.0007038930563139326,-4.2483936942396585e-05,4.953985013687958e-05,0.001978591670713118,0.0,0.0,0.0,0.0,0.0,0.0,0.0,-2.6030624122097556e-05,-0.00018980495440723555,-0.0001479173550941737,0.00012159681399381839,0.00010157724064197016,2.7920405069714604e-05,-3.3630088184466445e-05,-0.0007520845237853698,0.00041132164827619474,-6.853932046446303e-05,-0.0007038930563139326,4.2483936942396585e-05,-4.953985013687958e-05,-0.001978591670713118,0.8354122042655945,46.64718246459961,5.762844562530518,-19.634431838989258,-0.8618064522743225,-2.3724398612976074,0.45352500677108765,0
26,0.12499284744262695,-0.8354122042655945,-46.64718246459961,-5.762844562530518,19.634431838989258,0.8618064522743225,2.3724398612976074,-0.45352500677108765,0.0,0.0,0.0,0.0,0.0,0.0,0.0,-0.812361699409637,-0.3400315841580816,-0.5755754128168937,0.4559459736326838,0.2807480360704514,0.10839059760659489,-0.41332871049306,0.8781189066945461,0.7556495543853481,-0.28240734781422655,-1.6692209582747073,0.14131701827658863,2.4034171969625686,1.0273717303189887,0.878092876070424,0.7554597494309409,-0.2825552651693207,-1.6690993614607135,0.1414185955172306,2.4034451173676383,1.0273381002308042,0.0007520845237853698,-0.00041132164827619474,6.853932046446303e-05,0.0007038930563139326,-4.2483936942396585e-05,4.953985013687958e-05,0.001978591670713118,0.0,0.0,0.0,0.0,0.0,0.0,0.0,-2.6030624122097556e-05,-0.00018980495440723555,-0.0001479173550941737,0.00012159681399381839,0.00010157724064197016,2.7920405069714604e-05,-3.3630088184466445e-05,-0.0007520845237853698,0.00041132164827619474,-6.853932046446303e-05,-0.0007038930563139326,4.2483936942396585e-05,-4.953985013687958e-05,-0.001978591670713118,0.8354122042655945,46.64718246459961,5.762844562530518,-19.634431838989258,-0.8618064522743225,-2.3724398612976074,0.45352500677108765,0
27,0.1299440860748291,-0.8354122042655945,-46.59957504272461,-5.711269855499268,19.658235549926758,0.8618064522743225,2.3724398612976074,-0.41965049505233765,0.0,0.0,0.0,0.0,0.0,0.0,0.0,-0.8055772074213386,-0.3217878711786265,-0.5700907649526483,0.4472897320104048,0.28022030677472726,0.10678730285362655,-0.41339850360941066,0.8781189066945461,0.7556462251762937,-0.2824109700353356,-1.6692219134548252,0.14131490307110742,2.4034171969625686,1.0273679664863478,0.878092876070424,0.7554597494309409,-0.2825552651693207,-1.6690993614607135,0.1414185955172306,2.4034451173676383,1.0273381002308042,0.0006041432732877866,-0.0011149688078425518,-0.0004666326836194333,-0.00021111128662293322,0.00019752014228035364,0.0001259027862441875,4.634955368961254e-05,0.0,0.0,0.0,0.0,0.0,0.0,0.0,-2.6030624122097556e-05,-0.00018647574535279876,-0.00014429513398511729,0.00012255199411170814,0.00010369244612318251,2.7920405069714604e-05,-2.9866255543575804e-05,-0.0006041432732877866,0.0011149688078425518,0.0004666326836194333,0.00021111128662293322,-0.00019752014228035364,-0.0001259027862441875,-4.634955368961254e-05,0.8354122042655945,46.59957504272461,5.711269855499268,-19.658235549926758,-0.8618064522743225,-2.3724398612976074,0.41965049505233765,0
28,0.13499140739440918,-0.8354122042655945,-46.59957504272461,-5.711269855499268,19.658235549926758,0.8618064522743225,2.3724398612976074,-0.41965049505233765,0.0,0.0,0.0,0.0,0.0,0.0,0.0,-0.8055772074213386,-0.3217878711786265,-0.5700907649526483,0.4472897320104048,0.28022030677472726,0.10678730285362655,-0.41339850360941066,0.8781189066945461,0.7556462251762937,-0.2824109700353356,-1.6692219134548252,0.14131490307110742,2.4034171969625686,1.0273679664863478,0.878092876070424,0.7554597494309409,-0.2825552651693207,-1.6690993614607135,0.1414185955172306,2.4034451173676383,1.0273381002308042,0.0006041432732877866,-0.0011149688078425518,-0.0004666326836194333,-0.00021111128662293322,0.00019752014228035364,0.0001259027862441875,4.634955368961254e-05,0.0,0.0,0.0,0.0,0.0,0.0,0.0,-2.6030624122097556e-05,-0.00018647574535279876,-0.00014429513398511729,0.00012255199411170814,0.00010369244612318251,2.7920405069714604e-05,-2.9866255543575804e-05,-0.0006041432732877866,0.0011149688078425518,0.0004666326836194333,0.00021111128662293322,-0.00019752014228035364,-0.0001259027862441875,-4.634955368961254e-05,0.8354122042655945,46.59957504272461,5.711269855499268,-19.658235549926758,-0.8618064522743225,-2.3724398612976074,0.41965049505233765,0
29,0.13998889923095703,-0.8076412081718445,-46.67495346069336,-5.762844562530518,19.634431838989258,0.8737083077430725,2.3724398612976074,-0.43338340520858765,0.0,0.0,0.0,0.0,0.0,0.0,0.0,-0.8185894056363273,-0.3315525410567169,-0.5773220293921714,0.45334814102826393,0.2811750795207359,0.10861332723290082,-0.4135948591979923,0.8781169578527149,0.7556515145689088,-0.2824073507576658,-1.6692209582746576,0.14131535655069008,2.403417196963233,1.027369492311419,0.878092876070424,0.7554597494309409,-0.2825552651693207,-1.6690993614607135,0.1414185955172306,2.4034451173676383,1.0273381002308042,0.00022727754499498177,0.0005388165472436629,0.00021612573391199756,0.0009851123446204253,-0.000293031747535983,0.00011150095276073435,0.0009396471784810343,0.0,0.0,0.0,0.0,0.0,0.0,0.0,-2.408178229096336e-05,-0.00019176513796792527,-0.0001479144116549036,0.0001215968139440804,0.00010323896654051978,2.7920404405357147e-05,-3.139208061475607e-05,-0.00022727754499498177,-0.0005388165472436629,-0.00021612573391199756,-0.0009851123446204253,0.000293031747535983,-0.00011150095276073435,-0.0009396471784810343,0.8076412081718445,46.67495346069336,5.762844562530518,-19.634431838989258,-0.8737083077430725,-2.3724398612976074,0.43338340520858765,0
30,0.14500117301940918,-0.8076412081718445,-46.67495346069336,-5.762844562530518,19.634431838989258,0.8737083077430725,2.3724398612976074,-0.43338340520858765,0.0,0.0,0.0,0.0,0.0,0.0,0.0,-0.8185894056363273,-0.3315525410567169,-0.5773220293921714,0.45334814102826393,0.2811750795207359,0.10861332723290082,-0.4135948591979923,0.8781169578527149,0.7556515145689088,-0.2824073507576658,-1.6692209582746576,0.14131535655069008,2.403417196963233,1.027369492311419,0.878092876070424,0.7554597494309409,-0.2825552651693207,-1.6690993614607135,0.1414185955172306,2.4034451173676383,1.0273381002308042,0.00022727754499498177,0.0005388165472436629,0.00021612573391199756,0.0009851123446204253,-0.000293031747535983,0.00011150095276073435,0.0009396471784810343,0.0,0.0,0.0,0.0,0.0,0.0,0.0,-2.408178229096336e-05,-0.00019176513796792527,-0.0001479144116549036,0.0001215968139440804,0.00010323896654051978,2.7920404405357147e-05,-3.139208061475607e-05,-0.00022727754499498177,-0.0005388165472436629,-0.00021612573391199756,-0.0009851123446204253,0.000293031747535983,-0.00011150095276073435,-0.0009396471784810343,0.8076412081718445,46.67495346069336,5.762844562530518,-19.634431838989258,-0.8737083077430725,-2.3724398612976074,0.43338340520858765,0
31,0.14998984336853027,-0.8354122042655945,-46.64718246459961,-5.711269855499268,19.686006546020508,0.8737083077430725,2.3724398612976074,-0.42605918645858765,0.0,0.0,0.0,0.0,0.0,0.0,0.0,-0.8210580224595829,-0.32367085047458777,-0.580276212247333,0.44955868333153626,0.28115876029284226,0.10803303550488122,-0.41425065525199806,0.8781189066945461,0.7556495660480682,-0.2824102547796149,-1.6692245775523937,0.14131199715225337,2.4034175501752784,1.0273686785631706,0.878092876070424,0.7554597494309409,-0.2825552651693207,-1.6690993614607135,0.1414185955172306,2.4034451173676383,1.0273381002308042,0.00040157287088517316,-0.00010832380388579937,-0.0008511935678816798,-0.0007616027024758369,-0.000362647942483535,9.487961195630036e-05,0.00036819287452898107,0.0,0.0,0.0,0.0,0.0,0.0,0.0,-2.6030624122097556e-05,-0.00018981661712735853,-0.00014501038970582414,0.00012521609168025805,0.00010659836497722841,2.7567192359967407e-05,-3.0578332366415495e-05,-0.00040157287088517316,0.00010832380388579937,0.0008511935678816798,0.0007616027024758369,0.000362647942483535,-9.487961195630036e-05,-0.00036819287452898107,0.8354122042655945,46.64718246459961,5.711269855499268,-19.686006546020508,-0.8737083077430725,-2.3724398612976074,0.42605918645858765,0
32,0.15499353408813477,-0.8354122042655945,-46.64718246459961,-5.711269855499268,19.686006546020508,0.8737083077430725,2.3724398612976074,-0.42605918645858765,0.0,0.0,0.0,0.0,0.0,0.0,0.0,-0.8210580224595829,-0.32367085047458777,-0.580276212247333,0.44955868333153626,0.28115876029284226,0.10803303550488122,-0.41425065525199806,0.8781189066945461,0.7556495660480682,-0.2824102547796149,-1.6692245775523937,0.14131199715225337,2.4034175501752784,1.0273686785631706,0.878092876070424,0.7554597494309409,-0.2825552651693207,-1.6690993614607135,0.1414185955172306,2.4034451173676383,1.0273381002308042,0.00040157287088517316,-0.00010832380388579937,-0.0008511935678816798,-0.0007616027024758369,-0.000362647942483535,9.487961195630036e-05,0.00036819287452898107,0.0,0.0,0.0,0.0,0.0,0.0,0.0,-2.6030624122097556e-05,-0.00018981661712735853,-0.00014501038970582414,0.00012521609168025805,0.00010659836497722841,2.7567192359967407e-05,-3.0578332366415495e-05,-0.00040157287088517316,0.00010832380388579937,0.0008511935678816798,0.0007616027024758369,0.000362647942483535,-9.487961195630036e-05,-0.00036819287452898107,0.8354122042655945,46.64718246459961,5.711269855499268,-19.686006546020508,-0.8737083077430725,-2.3724398612976074,0.42605918645858765,0
33,0.15995049476623535,-0.8354122042655945,-46.64718246459961,-5.711269855499268,19.634431838989258,0.8563132882118225,2.3724398612976074,-0.37845176458358765,0.0,0.0,0.0,0.0,0.0,0.0,0.0,-0.8064588515038668,-0.329748302455568,-0.5695237057266397,0.45549250383319084,0.28079780379892055,0.10919474187210863,-0.4149019854319739,0.8781189066945461,0.75564956604807,-0.28241097003131455,-1.6692209582747073,0.14131870025215928,2.403417196964562,1.027363388849629,0.878092876070424,0.7554597494309409,-0.2825552651693207,-1.6690993614607135,0.1414185955172306,2.4034451173676383,1.0273381002308042,0.0006993491664349259,-0.00041096945844731463,-0.0007511046114429407,0.0008203403230124771,0.00031447042471108023,2.047987200116664e-05,-0.001818808572379719,0.0,0.0,0.0,0.0,0.0,0.0,0.0,-2.6030624122097556e-05,-0.0001898166171291349,-0.00014429513800617855,0.00012159681399381839,9.989526507131474e-05,2.792040307619814e-05,-2.5288618824781395e-05,-0.0006993491664349259,0.00041096945844731463,0.0007511046114429407,-0.0008203403230124771,-0.00031447042471108023,-2.047987200116664e-05,0.001818808572379719,0.8354122042655945,46.64718246459961,5.711269855499268,-19.634431838989258,-0.8563132882118225,-2.3724398612976074,0.37845176458358765,0
34,0.16498970985412598,-0.8354122042655945,-46.64718246459961,-5.711269855499268,19.634431838989258,0.8563132882118225,2.3724398612976074,-0.37845176458358765,0.0,0.0,0.0,0.0,0.0,0.0,0.0,-0.8064588515038668,-0.329748302455568,-0.5695237057266397,0.45549250383319084,0.28079780379892055,0.10919474187210863,-0.4149019854319739,0.8781189066945461,0.75564956604807,-0.28241097003131455,-1.6692209582747073,0.14131870025215928,2.403417196964562,1.027363388849629,0.878092876070424,0.7554597494309409,-0.2825552651693207,-1.6690993614607135,0.1414185955172306,2.4034451173676383,1.0273381002308042,0.0006993491664349259,-0.00041096945844731463,-0.0007511046114429407,0.0008203403230124771,0.00031447042471108023,2.047987200116664e-05,-0.001818808572379719,0.0,0.0,0.0,0.0,0.0,0.0,0.0,-2.6030624122097556e-05,-0.0001898166171291349,-0.00014429513800617855,0.00012159681399381839,9.989526507131474e-05,2.792040307619814e-05,-2.5288618824781395e-05,-0.0006993491664349259,0.00041096945844731463,0.0007511046114429407,-0.0008203403230124771,-0.00031447042471108023,-2.047987200116664e-05,0.001818808572379719,0.8354122042655945,46.64718246459961,5.711269855499268,-19.634431838989258,-0.8563132882118225,-2.3724398612976074,0.37845176458358765,0
35,0.1700270175933838,-0.8076412081718445,-46.62337875366211,-5.735073566436768,19.686006546020508,0.8682151436805725,2.3916659355163574,-0.41965049505233765,0.0,0.0,0.0,0.0,0.0,0.0,0.0,-0.8174021665888361,-0.3308868948927389,-0.5748648668135953,0.4547021604630246,0.2806583155350318,0.1088666445593202,-0.41493402587400996,0.8781169578527149,0.755647895576549,-0.2824092727814949,-1.6692245775523937,0.14131419370050535,2.403415179115692,1.027367613273638,0.878092876070424,0.7554597494309409,-0.2825552651693207,-1.6690993614607135,0.1414185955172306,2.4034451173676383,1.0273381002308042,-0.00019568974772013134,-0.0008706862688929032,-1.6679886475629174e-05,-0.0007181321145727212,-0.00023622014665159233,-0.0005941876161685631,0.0002111273028897827,0.0,0.0,0.0,0.0,0.0,0.0,0.0,-2.408178229096336e-05,-0.0001881461456081368,-0.0001459923878258107,0.00012521609168025805,0.00010440181672524695,2.9938251946415306e-05,-2.9513042833828607e-05,0.00019568974772013134,0.0008706862688929032,1.6679886475629174e-05,0.0007181321145727212,0.00023622014665159233,0.0005941876161685631,-0.0002111273028897827,0.8076412081718445,46.62337875366211,5.735073566436768,-19.686006546020508,-0.8682151436805725,-2.3916659355163574,0.41965049505233765,0
36,0.1749897003173828,-0.8076412081718445,-46.62337875366211,-5.735073566436768,19.686006546020508,0.8682151436805725,2.3916659355163574,-0.41965049505233765,0.0,0.0,0.0,0.0,0.0,0.0,0.0,-0.8174021665888361,-0.3308868948927389,-0.5748648668135953,0.4547021604630246,0.2806583155350318,0.1088666445593202,-0.41493402587400996,0.8781169578527149,0.755647895576549,-0.2824092727814949,-1.6692245775523937,0.14131419370050535,2.403415179115692,1.027367613273638,0.878092876070424,0.7554597494309409,-0.2825552651693207,-1.6690993614607135,0.1414185955172306,2.4034451173676383,1.0273381002308042,-0.00019568974772013134,-0.0008706862688929032,-1.6679886475629174e-05,-0.0007181321145727212,-0.00023622014665159233,-0.0005941876161685631,0.0002111273028897827,0.0,0.0,0.0,0.0,0.0,0.0,0.0,-2.408178229096336e-05,-0.0001881461456081368,-0.0001459923878258107,0.00012521609168025805,0.00010440181672524695,2.9938251946415306e-05,-2.9513042833828607e-05,0.00019568974772013134,0.0008706862688929032,1.6679886475629174e-05,0.0007181321145727212,0.00023622014665159233,0.0005941876161685631,-0.0002111273028897827,0.8076412081718445,46.62337875366211,5.735073566436768,-19.686006546020508,-0.8682151436805725,-2.3916659355163574,0.41965049505233765,0
37,0.17998766899108887,-0.8354122042655945,-46.69875717163086,-5.786648273468018,19.634431838989258,0.8682151436805725,2.3724398612976074,-0.40591758489608765,0.0,0.0,0.0,0.0,0.0,0.0,0.0,-0.8103861329976001,-0.3257238233286853,-0.5670094987834547,0.45240987177773156,0.2802598072172815,0.10836497085812438,-0.415199131598241,0.8781189066945461,0.7556531853257562,-0.28240496506592183,-1.6692209582747073,0.14131414237927306,2.4034171969632365,1.027366440120931,0.878092876070424,0.7554597494309409,-0.2825552651693207,-1.6690993614607135,0.1414185955172306,2.4034451173676383,1.0273381002308042,0.0005741208365464956,0.0012456015549906704,0.001213701349129859,0.000520208061289171,-0.00012689299249986572,-0.0001333089056137387,-0.00024137142642353788,0.0,0.0,0.0,0.0,0.0,0.0,0.0,-2.6030624122097556e-05,-0.0001934358948153525,-0.00015030010339889266,0.00012159681399381839,0.00010445313795753863,2.7920404401804433e-05,-2.8339890126849454e-05,-0.0005741208365464956,-0.0012456015549906704,-0.001213701349129859,-0.000520208061289171,0.00012689299249986572,0.0001333089056137387,0.00024137142642353788,0.8354122042655945,46.69875717163086,5.786648273468018,-19.634431838989258,-0.8682151436805725,-2.3724398612976074,0.40591758489608765,0
38,0.1850135326385498,-0.8354122042655945,-46.69875717163086,-5.786648273468018,19.634431838989258,0.8682151436805725,2.3724398612976074,-0.40591758489608765,0.0,0.0,0.0,0.0,0.0,0.0,0.0,-0.8103861329976001,-0.3257238233286853,-0.5670094987834547,0.45240987177773156,0.2802598072172815,0.10836497085812438,-0.415199131598241,0.8781189066945461,0.7556531853257562,-0.28240496506592183,-1.6692209582747073,0.14131414237927306,2.4034171969632365,1.027366440120931,0.878092876070424,0.7554597494309409,-0.2825552651693207,-1.6690993614607135,0.1414185955172306,2.4034451173676383,1.0273381002308042,0.0005741208365464956,0.0012456015549906704,0.001213701349129859,0.000520208061289171,-0.00012689299249986572,-0.0001333089056137387,-0.00024137142642353788,0.0,0.0,0.0,0.0,0.0,0.0,0.0,-2.6030624122097556e-05,-0.0001934358948153525,-0.00015030010339889266,0.00012159681399381839,0.00010445313795753863,2.7920404401804433e-05,-2.8339890126849454e-05,-0.0005741208365464956,-0.0012456015549906704,-0.001213701349129859,-0.000520208061289171,0.00012689299249986572,0.0001333089056137387,0.00024137142642353788,0.8354122042655945,46.69875717163086,5.786648273468018,-19.634431838989258,-0.8682151436805725,-2.3724398612976074,0.40591758489608765,0
39,0.19001317024230957,-0.8354122042655945,-46.67495346069336,-5.735073566436768,19.658235549926758,0.8618064522743225,2.3788485527038574,-0.40591758489608765,0.0,0.0,0.0,0.0,0.0,0.0,0.0,-0.8141165245534162,-0.32408771660525,-0.5716471528208308,0.45096055752794456,0.2805286789974615,0.10749982088179423,-0.41463143009486453,0.8781189066945461,0.7556515148899011,-0.28240929958738403,-1.6692226287105625,0.14131666585623393,2.4034164848857458,1.0273664406074334,0.878092876070424,0.7554597494309409,-0.2825552651693207,-1.6690993614607135,0.1414185955172306,2.4034451173676383,1.0273381002308042,0.0004261341466799342,0.0006462071238902157,-0.00033943900696217446,-0.0001665401931108579,0.00014724770346807547,-0.00021842261618042734,-0.0007291141103113057,0.0,0.0,0.0,0.0,0.0,0.0,0.0,-2.6030624122097556e-05,-0.00019176545896026909,-0.00014596558193669118,0.00012326724984901283,0.00010192966099667466,2.8632481892554296e-05,-2.834037662924338e-05,-0.0004261341466799342,-0.0006462071238902157,0.00033943900696217446,0.0001665401931108579,-0.00014724770346807547,0.00021842261618042734,0.0007291141103113057,0.8354122042655945,46.67495346069336,5.735073566436768,-19.658235549926758,-0.8618064522743225,-2.3788485527038574,0.40591758489608765,0
40,0.19500136375427246,-0.8354122042655945,-46.67495346069336,-5.735073566436768,19.658235549926758,0.8618064522743225,2.3788485527038574,-0.40591758489608765,0.0,0.0,0.0,0.0,0.0,0.0,0.0,-0.8141165245534162,-0.32408771660525,-0.5716471528208308,0.45096055752794456,0.2805286789974615,0.10749982088179423,-0.41463143009486453,0.8781189066945461,0.7556515148899011,-0.28240929958738403,-1.6692226287105625,0.14131666585623393,2.4034164848857458,1.0273664406074334,0.878092876070424,0.7554597494309409,-0.2825552651693207,-1.6690993614607135,0.1414185955172306,2.4034451173676383,1.0273381002308042,0.0004261341466799342,0.0006462071238902157,-0.00033943900696217446,-0.0001665401931108579,0.00014724770346807547,-0.00021842261618042734,-0.0007291141103113057,0.0,0.0,0.0,0.0,0.0,0.0,0.0,-2.6030624122097556e-05,-0.00019176545896026909,-0.00014596558193669118,0.00012326724984901283,0.00010192966099667466,2.8632481892554296e-05,-2.834037662924338e-05,-0.0004261341466799342,-0.0006462071238902157,0.00033943900696217446,0.0001665401931108579,-0.00014724770346807547,0.00021842261618042734,0.0007291141103113057,0.8354122042655945,46.67495346069336,5.735073566436768,-19.658235549926758,-0.8618064522743225,-2.3788485527038574,0.40591758489608765,0
41,0.2000138759613037,-0.8076412081718445,-46.62337875366211,-5.762844562530518,19.634431838989258,0.8682151436805725,2.3788485527038574,-0.44711631536483765,0.0,0.0,0.0,0.0,0.0,0.0,0.0,-0.8219308878381396,-0.3269104330089993,-0.5768424992397415,0.4513179367799668,0.2808902395801399,0.10762720463377702,-0.4142931119867479,0.8781169578527149,0.7556476615017971,-0.2824063970833494,-1.6692209582747073,0.1413162816882339,2.4034164848857458,1.0273710182441602,0.878092876070424,0.7554597494309409,-0.2825552651693207,-1.6690993614607135,0.1414185955172306,2.4034451173676383,1.0273381002308042,-0.00038534078311119885,-0.0005682490070201465,0.0003429853684763755,0.0004301687657115089,-0.00019981270040958865,-0.00017403482470833626,0.0013599238390577502,0.0,0.0,0.0,0.0,0.0,0.0,0.0,-2.408178229096336e-05,-0.00018791207085622208,-0.00014886808597130985,0.00012159681399381839,0.00010231382899669739,2.8632481892554296e-05,-3.2918013356031395e-05,0.00038534078311119885,0.0005682490070201465,-0.0003429853684763755,-0.0004301687657115089,0.00019981270040958865,0.00017403482470833626,-0.0013599238390577502,0.8076412081718445,46.62337875366211,5.762844562530518,-19.634431838989258,-0.8682151436805725,-2.3788485527038574,0.44711631536483765,0
42,0.20498967170715332,-0.8076412081718445,-46.62337875366211,-5.762844562530518,19.634431838989258,0.8682151436805725,2.3788485527038574,-0.44711631536483765,0.0,0.0,0.0,0.0,0.0,0.0,0.0,-0.8219308878381396,-0.3269104330089993,-0.5768424992397415,0.4513179367799668,0.2808902395801399,0.10762720463377702,-0.4142931119867479,0.8781169578527149,0.7556476615017971,-0.2824063970833494,-1.6692209582747073,0.1413162816882339,2.4034164848857458,1.0273710182441602,0.878092876070424,0.7554597494309409,-0.2825552651693207,-1.6690993614607135,0.1414185955172306,2.4034451173676383,1.0273381002308042,-0.00038534078311119885,-0.0005682490070201465,0.0003429853684763755,0.0004301687657115089,-0.00019981270040958865,-0.00017403482470833626,0.0013599238390577502,0.0,0.0,0.0,0.0,0.0,0.0,0.0,-2.408178229096336e-05,-0.00018791207085622208,-0.00014886808597130985,0.00012159681399381839,0.00010231382899669739,2.8632481892554296e-05,-3.2918013356031395e-05,0.00038534078311119885,0.0005682490070201465,-0.0003429853684763755,-0.0004301687657115089,0.00019981270040958865,0.00017403482470833626,-0.0013599238390577502,0.8076412081718445,46.62337875366211,5.762844562530518,-19.634431838989258,-0.8682151436805725,-2.3788485527038574,0.44711631536483765,0
43,0.2099912166595459,-0.8076412081718445,-46.62337875366211,-5.762844562530518,19.634431838989258,0.8682151436805725,2.3788485527038574,-0.44711631536483765,0.0,0.0,0.0,0.0,0.0,0.0,0.0,-0.8219308878381396,-0.3269104330089993,-0.5768424992397415,0.4513179367799668,0.2808902395801399,0.10762720463377702,-0.4142931119867479,0.8781169578527149,0.7556476615017971,-0.2824063970833494,-1.6692209582747073,0.1413162816882339,2.4034164848857458,1.0273710182441602,0.878092876070424,0.7554597494309409,-0.2825552651693207,-1.6690993614607135,0.1414185955172306,2.4034451173676383,1.0273381002308042,-0.00038534078311119885,-0.0005682490070201465,0.0003429853684763755,0.0004301687657115089,-0.00019981270040958865,-0.00017403482470833626,0.0013599238390577502,0.0,0.0,0.0,0.0,0.0,0.0,0.0,-2.408178229096336e-05,-0.00018791207085622208,-0.00014886808597130985,0.00012159681399381839,0.00010231382899669739,2.8632481892554296e-05,-3.2918013356031395e-05,0.00038534078311119885,0.0005682490070201465,-0.0003429853684763755,-0.0004301687657115089,0.00019981270040958865,0.00017403482470833626,-0.0013599238390577502,0.8076412081718445,46.62337875366211,5.762844562530518,-19.634431838989258,-0.8682151436805725,-2.3788485527038574,0.44711631536483765,0
44,0.21512722969055176,-0.8076412081718445,-46.62337875366211,-5.762844562530518,19.634431838989258,0.8682151436805725,2.3788485527038574,-0.44711631536483765,0.0,0.0,0.0,0.0,0.0,0.0,0.0,-0.8219308878381396,-0.3269104330089993,-0.5768424992397415,0.4513179367799668,0.2808902395801399,0.10762720463377702,-0.4142931119867479,0.8781169578527149,0.7556476615017971,-0.2824063970833494,-1.6692209582747073,0.1413162816882339,2.4034164848857458,1.0273710182441602,0.878092876070424,0.7554597494309409,-0.2825552651693207,-1.6690993614607135,0.1414185955172306,2.4034451173676383,1.0273381002308042,-0.00038534078311119885,-0.0005682490070201465,0.0003429853684763755,0.0004301687657115089,-0.00019981270040958865,-0.00017403482470833626,0.0013599238390577502,0.0,0.0,0.0,0.0,0.0,0.0,0.0,-2.408178229096336e-05,-0.00018791207085622208,-0.00014886808597130985,0.00012159681399381839,0.00010231382899669739,2.8632481892554296e-05,-3.2918013356031395e-05,0.00038534078311119885,0.0005682490070201465,-0.0003429853684763755,-0.0004301687657115089,0.00019981270040958865,0.00017403482470833626,-0.0013599238390577502,0.8076412081718445,46.62337875366211,5.762844562530518,-19.634431838989258,-0.8682151436805725,-2.3788485527038574,0.44711631536483765,0
45,0.21996617317199707,-0.8592159152030945,-46.64718246459961,-5.762844562530518,19.686006546020508,0.8618064522743225,2.3660311698913574,-0.38577598333358765,0.0,0.0,0.0,0.0,0.0,0.0,0.0,-0.8214969505275899,-0.32952553698559334,-0.5764002799883482,0.45174818106871817,0.2804425150347902,0.1077591382671418,-0.4130133761141246,0.8781205771304014,0.7556495400463684,-0.28240734192196454,-1.6692245775523937,0.14131450938596962,2.4034179090393915,1.0273642026517125,0.878092876070424,0.7554597494309409,-0.2825552651693207,-1.6690993614607135,0.1414185955172306,2.4034451173676383,1.0273381002308042,0.0007354432841618087,-0.0001212467680185624,0.0005711639821540652,-0.001084487211883799,0.0001441429368289984,0.00031190200278780614,-0.001386078018051718,0.0,0.0,0.0,0.0,0.0,0.0,0.0,-2.770105997740302e-05,-0.00018979061542756526,-0.00014792324735618534,0.00012521609168025805,0.00010408613126097754,2.7208328246874913e-05,-2.610242090828052e-05,-0.0007354432841618087,0.0001212467680185624,-0.0005711639821540652,0.001084487211883799,-0.0001441429368289984,-0.00031190200278780614,0.001386078018051718,0.8592159152030945,46.64718246459961,5.762844562530518,-19.686006546020508,-0.8618064522743225,-2.3660311698913574,0.38577598333358765,0
46,0.2249448299407959,-0.8592159152030945,-46.64718246459961,-5.762844562530518,19.686006546020508,0.8618064522743225,2.3660311698913574,-0.38577598333358765,0.0,0.0,0.0,0.0,0.0,0.0,0.0,-0.8214969505275899,-0.32952553698559334,-0.5764002799883482,0.45174818106871817,0.2804425150347902,0.1077591382671418,-0.4130133761141246,0.8781205771304014,0.7556495400463684,-0.28240734192196454,-1.6692245775523937,0.14131450938596962,2.4034179090393915,1.0273642026517125,0.878092876070424,0.7554597494309409,-0.2825552651693207,-1.6690993614607135,0.1414185955172306,2.4034451173676383,1.0273381002308042,0.0007354432841618087,-0.0001212467680185624,0.0005711639821540652,-0.001084487211883799,0.0001441429368289984,0.00031190200278780614,-0.001386078018051718,0.0,0.0,0.0,0.0,0.0,0.0,0.0,-2.770105997740302e-05,-0.00018979061542756526,-0.00014792324735618534,0.00012521609168025805,0.00010408613126097754,2.7208328246874913e-05,-2.610242090828052e-05,-0.0007354432841618087,0.0001212467680185624,-0.0005711639821540652,0.001084487211883799,-0.0001441429368289984,-0.00031190200278780614,0.001386078018051718,0.8592159152030945,46.64718246459961,5.762844562530518,-19.686006546020508,-0.8618064522743225,-2.3660311698913574,0.38577598333358765,0
47,0.23000216484069824,-0.8076412081718445,-46.67495346069336,-5.762844562530518,19.634431838989258,0.8737083077430725,2.3852572441101074,-0.39950889348983765,0.0,0.0,0.0,0.0,0.0,0.0,0.0,-0.8078147989640556,-0.32050413408069695,-0.5648816122459571,0.44875302199463923,0.2797977897385261,0.10680420524879296,-0.4129266234165356,0.8781169578527149,0.7556515148897543,-0.2824073507576159,-1.6692209579476587,0.14131636698949632,2.4034157728089225,1.0273657285306186,0.878092876070424,0.7554597494309409,-0.2825552651693207,-1.6690993614607135,0.1414185955172306,2.4034451173676383,1.0273381002308042,5.725695625455505e-05,0.0006743952280547713,0.0007229728832767009,0.0003834010426637478,-0.00014377012760770502,-0.0005301572692900585,-0.0003232841813415738,0.0,0.0,0.0,0.0,0.0,0.0,0.0,-2.408178229096336e-05,-0.0001917654588134976,-0.00014791441170480812,0.00012159648694520797,0.0001022285277342827,2.9344558715838076e-05,-2.7628299814397295e-05,-5.725695625455505e-05,-0.0006743952280547713,-0.0007229728832767009,-0.0003834010426637478,0.00014377012760770502,0.0005301572692900585,0.0003232841813415738,0.8076412081718445,46.67495346069336,5.762844562530518,-19.634431838989258,-0.8737083077430725,-2.3852572441101074,0.39950889348983765,0
48,0.23500323295593262,-0.8076412081718445,-46.67495346069336,-5.762844562530518,19.634431838989258,0.8737083077430725,2.3852572441101074,-0.39950889348983765,0.0,0.0,0.0,0.0,0.0,0.0,0.0,-0.8078147989640556,-0.32050413408069695,-0.5648816122459571,0.44875302199463923,0.2797977897385261,0.10680420524879296,-0.4129266234165356,0.8781169578527149,0.7556515148897543,-0.2824073507576159,-1.6692209579476587,0.14131636698949632,2.4034157728089225,1.0273657285306186,0.878092876070424,0.7554597494309409,-0.2825552651693207,-1.6690993614607135,0.1414185955172306,2.4034451173676383,1.0273381002308042,5.725695625455505e-05,0.0006743952280547713,0.0007229728832767009,0.0003834010426637478,-0.00014377012760770502,-0.0005301572692900585,-0.0003232841813415738,0.0,0.0,0.0,0.0,0.0,0.0,0.0,-2.408178229096336e-05,-0.0001917654588134976,-0.00014791441170480812,0.00012159648694520797,0.0001022285277342827,2.9344558715838076e-05,-2.7628299814397295e-05,-5.725695625455505e-05,-0.0006743952280547713,-0.0007229728832767009,-0.0003834010426637478,0.00014377012760770502,0.0005301572692900585,0.0003232841813415738,0.8076412081718445,46.67495346069336,5.762844562530518,-19.634431838989258,-0.8737083077430725,-2.3852572441101074,0.39950889348983765,0
49,0.24000883102416992,-0.8076412081718445,-46.67495346069336,-5.735073566436768,19.634431838989258,0.8563132882118225,2.3724398612976074,-0.42605918645858765,0.0,0.0,0.0,0.0,0.0,0.0,0.0,-0.8218448311721034,-0.3310589590672559,-0.5750231111018771,0.4501369871916368,0.28023036005378427,0.10738049070285757,-0.41388761606276914,0.8781169578527149,0.7556515148859383,-0.28240929959949695,-1.669220931783754,0.1413172456426679,2.4034171969625686,1.027368325350461,0.878092876070424,0.7554597494309409,-0.2825552651693207,-1.6690993614607135,0.1414185955172306,2.4034451173676383,1.0273381002308042,7.756543976334219e-05,0.00019212591433811905,-0.00017540537336820086,0.00015001626855801507,0.00024820990850369176,-0.00016043542546988432,0.000555359407352526,0.0,0.0,0.0,0.0,0.0,0.0,0.0,-2.408178229096336e-05,-0.00019176545499743902,-0.0001459655698237694,0.00012157032304060955,0.00010134987456270061,2.7920405069714604e-05,-3.0225119656890342e-05,-7.756543976334219e-05,-0.00019212591433811905,0.00017540537336820086,-0.00015001626855801507,-0.00024820990850369176,0.00016043542546988432,-0.000555359407352526,0.8076412081718445,46.67495346069336,5.735073566436768,-19.634431838989258,-0.8563132882118225,-2.3724398612976074,0.42605918645858765,0
50,0.24494218826293945,-0.8076412081718445,-46.67495346069336,-5.735073566436768,19.634431838989258,0.8563132882118225,2.3724398612976074,-0.42605918645858765,0.0,0.0,0.0,0.0,0.0,0.0,0.0,-0.8218448311721034,-0.3310589590672559,-0.5750231111018771,0.4501369871916368,0.28023036005378427,0.10738049070285757,-0.41388761606276914,0.8781169578527149,0.7556515148859383,-0.28240929959949695,-1.669220931783754,0.1413172456426679,2.4034171969625686,1.027368325350461,0.878092876070424,0.7554597494309409,-0.2825552651693207,-1.6690993614607135,0.1414185955172306,2.4034451173676383,1.0273381002308042,7.756543976334219e-05,0.00019212591433811905,-0.00017540537336820086,0.00015001626855801507,0.00024820990850369176,-0.00016043542546988432,0.000555359407352526,0.0,0.0,0.0,0.0,0.0,0.0,0.0,-2.408178229096336e-05,-0.00019176545499743902,-0.0001459655698237694,0.00012157032304060955,0.00010134987456270061,2.7920405069714604e-05,-3.0225119656890342e-05,-7.756543976334219e-05,-0.00019212591433811905,0.00017540537336820086,-0.00015001626855801507,-0.00024820990850369176,0.00016043542546988432,-0.000555359407352526,0.8076412081718445,46.67495346069336,5.735073566436768,-19.634431838989258,-0.8563132882118225,-2.3724398612976074,0.42605918645858765,0
51,0.2500028610229492,-0.8076412081718445,-46.64718246459961,-5.786648273468018,19.634431838989258,0.8737083077430725,2.3596224784851074,-0.43979209661483765,0.0,0.0,0.0,0.0,0.0,0.0,0.0,-0.82006003101748,-0.3236184306420255,-0.5723248877628027,0.44304977396864803,0.2799017848214701,0.10661198017818353,-0.4141647559994925,0.8781169578527149,0.7556474600172878,-0.2824056803218105,-1.6692209582742588,0.14131665525530773,2.4034186211162143,1.0273702000754446,0.878092876070424,0.7554597494309409,-0.2825552651693207,-1.6690993614607135,0.1414185955172306,2.4034451173676383,1.0273381002308042,-0.00013681826460715,-0.00033346266894533844,0.0009110316559625755,-0.00020096597326746055,-0.0003870904434293012,0.0005864005070091168,0.0010001707932148836,0.0,0.0,0.0,0.0,0.0,0.0,0.0,-2.408178229096336e-05,-0.00018771058634692306,-0.00014958484751020906,0.00012159681354528828,0.00010194026192286709,2.6496251424035222e-05,-3.2099844640365305e-05,0.00013681826460715,0.00033346266894533844,-0.0009110316559625755,0.00020096597326746055,0.0003870904434293012,-0.0005864005070091168,-0.0010001707932148836,0.8076412081718445,46.64718246459961,5.786648273468018,-19.634431838989258,-0.8737083077430725,-2.3596224784851074,0.43979209661483765,0
52,0.25516295433044434,-0.8076412081718445,-46.64718246459961,-5.786648273468018,19.634431838989258,0.8737083077430725,2.3596224784851074,-0.43979209661483765,0.0,0.0,0.0,0.0,0.0,0.0,0.0,-0.82006003101748,-0.3236184306420255,-0.5723248877628027,0.44304977396864803,0.2799017848214701,0.10661198017818353,-0.4141647559994925,0.8781169578527149,0.7556474600172878,-0.2824056803218105,-1.6692209582742588,0.14131665525530773,2.4034186211162143,1.0273702000754446,0.878092876070424,0.7554597494309409,-0.2825552651693207,-1.6690993614607135,0.1414185955172306,2.4034451173676383,1.0273381002308042,-0.00013681826460715,-0.00033346266894533844,0.0009110316559625755,-0.00020096597326746055,-0.0003870904434293012,0.0005864005070091168,0.0010001707932148836,0.0,0.0,0.0,0.0,0.0,0.0,0.0,-2.408178229096336e-05,-0.00018771058634692306,-0.00014958484751020906,0.00012159681354528828,0.00010194026192286709,2.6496251424035222e-05,-3.2099844640365305e-05,0.00013681826460715,0.00033346266894533844,-0.0009110316559625755,0.00020096597326746055,0.0003870904434293012,-0.0005864005070091168,-0.0010001707932148836,0.8076412081718445,46.64718246459961,5.786648273468018,-19.634431838989258,-0.8737083077430725,-2.3596224784851074,0.43979209661483765,0
53,0.2599973678588867,-0.8076412081718445,-46.67495346069336,-5.762844562530518,19.586824417114258,0.8682151436805725,2.3724398612976074,-0.37845176458358765,0.0,0.0,0.0,0.0,0.0,0.0,0.0,-0.8138091773892897,-0.3324120415661009,-0.5718872592410619,0.44530336897672235,0.28017798658344223,0.10721804243493979,-0.41531302782158613,0.8781169578527149,0.7556514368847982,-0.2824073507576658,-1.6692176174029967,0.1413131323529215,2.4034171969625686,1.0273633888496208,0.878092876070424,0.7554597494309409,-0.2825552651693207,-1.6690993614607135,0.1414185955172306,2.4034451173676383,1.0273381002308042,-0.0003991542903283773,0.00045830396183204627,-3.08227292108545e-05,0.001149246706035936,-1.742983945622013e-05,0.00011972537645365576,-0.0014610291373502503,0.0,0.0,0.0,0.0,0.0,0.0,0.0,-2.408178229096336e-05,-0.00019168745385733654,-0.0001479144116549036,0.00011825594228320746,0.00010546316430909419,2.7920405069714604e-05,-2.5288618816565744e-05,0.0003991542903283773,-0.00045830396183204627,3.08227292108545e-05,-0.001149246706035936,1.742983945622013e-05,-0.00011972537645365576,0.0014610291373502503,0.8076412081718445,46.67495346069336,5.762844562530518,-19.586824417114258,-0.8682151436805725,-2.3724398612976074,0.37845176458358765,0
54,0.2650024890899658,-0.8076412081718445,-46.67495346069336,-5.762844562530518,19.586824417114258,0.8682151436805725,2.3724398612976074,-0.37845176458358765,0.0,0.0,0.0,0.0,0.0,0.0,0.0,-0.8138091773892897,-0.3324120415661009,-0.5718872592410619,0.44530336897672235,0.28017798658344223,0.10721804243493979,-0.41531302782158613,0.8781169578527149,0.7556514368847982,-0.2824073507576658,-1.6692176174029967,0.1413131323529215,2.4034171969625686,1.0273633888496208,0.878092876070424,0.7554597494309409,-0.2825552651693207,-1.6690993614607135,0.1414185955172306,2.4034451173676383,1.0273381002308042,-0.0003991542903283773,0.00045830396183204627,-3.08227292108545e-05,0.001149246706035936,-1.742983945622013e-05,0.00011972537645365576,-0.0014610291373502503,0.0,0.0,0.0,0.0,0.0,0.0,0.0,-2.408178229096336e-05,-0.00019168745385733654,-0.0001479144116549036,0.00011825594228320746,0.00010546316430909419,2.7920405069714604e-05,-2.5288618816565744e-05,0.0003991542903283773,-0.00045830396183204627,3.08227292108545e-05,-0.001149246706035936,1.742983945622013e-05,-0.00011972537645365576,0.0014610291373502503,0.8076412081718445,46.67495346069336,5.762844562530518,-19.586824417114258,-0.8682151436805725,-2.3724398612976074,0.37845176458358765,0
55,0.2699887752532959,-0.8592159152030945,-46.67495346069336,-5.711269855499268,19.686006546020508,0.8682151436805725,2.3788485527038574,-0.42605918645858765,0.0,0.0,0.0,0.0,0.0,0.0,0.0,-0.8090621663089865,-0.32627032848682486,-0.5682464858326065,0.44231218312858633,0.2808232302126968,0.10676727881145263,-0.41587224052931887,0.8781205771304014,0.7556514368883207,-0.2824109700353522,-1.6692245775523937,0.1413159275646434,2.4034164848857458,1.0273686785631708,0.878092876070424,0.7554597494309409,-0.2825552651693207,-1.6690993614607135,0.1414185955172306,2.4034451173676383,1.0273381002308042,0.0008626547088666374,0.0008075251542186392,-0.0004790687124344008,-0.0009416755637195367,-4.797615018505161e-05,-0.00014850624102447402,0.00012672925230433868,0.0,0.0,0.0,0.0,0.0,0.0,0.0,-2.770105997740302e-05,-0.00019168745737985216,-0.00014429513396851945,0.00012521609168025805,0.00010266795258720429,2.8632481892554296e-05,-3.057833236663754e-05,-0.0008626547088666374,-0.0008075251542186392,0.0004790687124344008,0.0009416755637195367,4.797615018505161e-05,0.00014850624102447402,-0.00012672925230433868,0.8592159152030945,46.67495346069336,5.711269855499268,-19.686006546020508,-0.8682151436805725,-2.3788485527038574,0.42605918645858765,0
56,0.27499914169311523,-0.8592159152030945,-46.67495346069336,-5.711269855499268,19.686006546020508,0.8682151436805725,2.3788485527038574,-0.42605918645858765,0.0,0.0,0.0,0.0,0.0,0.0,0.0,-0.8090621663089865,-0.32627032848682486,-0.5682464858326065,0.44231218312858633,0.2808232302126968,0.10676727881145263,-0.41587224052931887,0.8781205771304014,0.7556514368883207,-0.2824109700353522,-1.6692245775523937,0.1413159275646434,2.4034164848857458,1.0273686785631708,0.878092876070424,0.7554597494309409,-0.2825552651693207,-1.6690993614607135,0.1414185955172306,2.4034451173676383,1.0273381002308042,0.0008626547088666374,0.0008075251542186392,-0.0004790687124344008,-0.0009416755637195367,-4.797615018505161e-05,-0.00014850624102447402,0.00012672925230433868,0.0,0.0,0.0,0.0,0.0,0.0,0.0,-2.770105997740302e-05,-0.00019168745737985216,-0.00014429513396851945,0.00012521609168025805,0.00010266795258720429,2.8632481892554296e-05,-3.057833236663754e-05,-0.0008626547088666374,-0.0008075251542186392,0.0004790687124344008,0.0009416755637195367,4.797615018505161e-05,0.00014850624102447402,-0.00012672925230433868,0.8592159152030945,46.67495346069336,5.711269855499268,-19.686006546020508,-0.8682151436805725,-2.3788485527038574,0.42605918645858765,0
57,0.2799367904663086,-0.8076412081718445,-46.64718246459961,-5.762844562530518,19.709810256958008,0.8618064522743225,2.3852572441101074,-0.45352500677108765,0.0,0.0,0.0,0.0,0.0,0.0,0.0,-0.8114213589355415,-0.32376347949269774,-0.565922656749944,0.44157078241552833,0.2809978152499967,0.106415407505355,-0.41577547717330504,0.8781169578527149,0.755648630033068,-0.2824073507576658,-1.669226247988249,0.1413169137622066,2.4034157728089225,1.0273717303209833,0.878092876070424,0.7554597494309409,-0.2825552651693207,-1.6690993614607135,0.1414185955172306,2.4034451173676383,1.0273381002308042,-0.0002371469036605184,0.0002679821650912382,0.0008044204058028088,-0.001684168079086431,0.00022573580410217373,-0.000493307670283661,0.0015418618405624153,0.0,0.0,0.0,0.0,0.0,0.0,0.0,-2.408178229096336e-05,-0.00018888060212718383,-0.0001479144116549036,0.0001268865275354525,0.00010168175502400789,2.9344558715838076e-05,-3.363009017909313e-05,0.0002371469036605184,-0.0002679821650912382,-0.0008044204058028088,0.001684168079086431,-0.00022573580410217373,0.000493307670283661,-0.0015418618405624153,0.8076412081718445,46.64718246459961,5.762844562530518,-19.709810256958008,-0.8618064522743225,-2.3852572441101074,0.45352500677108765,0
58,0.284989595413208,-0.8076412081718445,-46.64718246459961,-5.762844562530518,19.709810256958008,0.8618064522743225,2.3852572441101074,-0.45352500677108765,0.0,0.0,0.0,0.0,0.0,0.0,0.0,-0.8114213589355415,-0.32376347949269774,-0.565922656749944,0.44157078241552833,0.2809978152499967,0.106415407505355,-0.41577547717330504,0.8781169578527149,0.755648630033068,-0.2824073507576658,-1.669226247988249,0.1413169137622066,2.4034157728089225,1.0273717303209833,0.878092876070424,0.7554597494309409,-0.2825552651693207,-1.6690993614607135,0.1414185955172306,2.4034451173676383,1.0273381002308042,-0.0002371469036605184,0.0002679821650912382,0.0008044204058028088,-0.001684168079086431,0.00022573580410217373,-0.000493307670283661,0.0015418618405624153,0.0,0.0,0.0,0.0,0.0,0.0,0.0,-2.408178229096336e-05,-0.00018888060212718383,-0.0001479144116549036,0.0001268865275354525,0.00010168175502400789,2.9344558715838076e-05,-3.363009017909313e-05,0.0002371469036605184,-0.0002679821650912382,-0.0008044204058028088,0.001684168079086431,-0.00022573580410217373,0.000493307670283661,-0.0015418618405624153,0.8076412081718445,46.64718246459961,5.762844562530518,-19.709810256958008,-0.8618064522743225,-2.3852572441101074,0.45352500677108765,0
59,0.2900068759918213,-0.8076412081718445,-46.62337875366211,-5.762844562530518,19.634431838989258,0.8618064522743225,2.3724398612976074,-0.37204307317733765,0.0,0.0,0.0,0.0,0.0,0.0,0.0,-0.8144519220518295,-0.33703580513534764,-0.5688313888347252,0.4500522942595943,0.28135978752872615,0.10781868921428447,-0.41540805468305186,0.8781169578527149,0.7556478956104535,-0.2824071123390867,-1.6692209582747073,0.14131792406280388,2.403418256600698,1.0273626766113007,0.878092876070424,0.7554597494309409,-0.2825552651693207,-1.6690993614607135,0.1414185955172306,2.4034451173676383,1.0273381002308042,9.563194639263393e-05,-0.0007980715442647894,0.0003511106904434422,0.0006739854047563614,1.1639757418702171e-05,4.773307017249131e-05,-0.0014050314694358398,0.0,0.0,0.0,0.0,0.0,0.0,0.0,-2.408178229096336e-05,-0.00018814617951268264,-0.00014815283023400516,0.00012159681399381839,0.0001006714544267151,2.6860766940473013e-05,-2.4576380496466044e-05,-9.563194639263393e-05,0.0007980715442647894,-0.0003511106904434422,-0.0006739854047563614,-1.1639757418702171e-05,-4.773307017249131e-05,0.0014050314694358398,0.8076412081718445,46.62337875366211,5.762844562530518,-19.634431838989258,-0.8618064522743225,-2.3724398612976074,0.37204307317733765,0
60,0.29499220848083496,-0.8076412081718445,-46.62337875366211,-5.762844562530518,19.634431838989258,0.8618064522743225,2.3724398612976074,-0.37204307317733765,0.0,0.0,0.0,0.0,0.0,0.0,0.0,-0.8144519220518295,-0.33703580513534764,-0.5688313888347252,0.4500522942595943,0.28135978752872615,0.10781868921428447,-0.41540805468305186,0.8781169578527149,0.7556478956104535,-0.2824071123390867,-1.6692209582747073,0.14131792406280388,2.403418256600698,1.0273626766113007,0.878092876070424,0.7554597494309409,-0.2825552651693207,-1.6690993614607135,0.1414185955172306,2.4034451173676383,1.0273381002308042,9.563194639263393e-05,-0.0007980715442647894,0.0003511106904434422,0.0006739854047563614,1.1639757418702171e-05,4.773307017249131e-05,-0.0014050314694358398,0.0,0.0,0.0,0.0,0.0,0.0,0.0,-2.408178229096336e-05,-0.00018814617951268264,-0.00014815283023400516,0.00012159681399381839,0.0001006714544267151,2.6860766940473013e-05,-2.4576380496466044e-05,-9.563194639263393e-05,0.0007980715442647894,-0.0003511106904434422,-0.0006739854047563614,-1.1639757418702171e-05,-4.773307017249131e-05,0.0014050314694358398,0.8076412081718445,46.62337875366211,5.762844562530518,-19.634431838989258,-0.8618064522743225,-2.3724398612976074,0.37204307317733765,0
61,0.3000500202178955,-0.8076412081718445,-46.62337875366211,-5.762844562530518,19.634431838989258,0.8618064522743225,2.3724398612976074,-0.37204307317733765,0.0,0.0,0.0,0.0,0.0,0.0,0.0,-0.8144519220518295,-0.33703580513534764,-0.5688313888347252,0.4500522942595943,0.28135978752872615,0.10781868921428447,-0.41540805468305186,0.8781169578527149,0.7556478956104535,-0.2824071123390867,-1.6692209582747073,0.14131792406280388,2.403418256600698,1.0273626766113007,0.878092876070424,0.7554597494309409,-0.2825552651693207,-1.6690993614607135,0.1414185955172306,2.4034451173676383,1.0273381002308042,9.563194639263393e-05,-0.0007980715442647894,0.0003511106904434422,0.0006739854047563614,1.1639757418702171e-05,4.773307017249131e-05,-0.0014050314694358398,0.0,0.0,0.0,0.0,0.0,0.0,0.0,-2.408178229096336e-05,-0.00018814617951268264,-0.00014815283023400516,0.00012159681399381839,0.0001006714544267151,2.6860766940473013e-05,-2.4576380496466044e-05,-9.563194639263393e-05,0.0007980715442647894,-0.0003511106904434422,-0.0006739854047563614,-1.1639757418702171e-05,-4.773307017249131e-05,0.0014050314694358398,0.8076412081718445,46.62337875366211,5.762844562530518,-19.634431838989258,-0.8618064522743225,-2.3724398612976074,0.37204307317733765,0
62,0.30494236946105957,-0.8076412081718445,-46.62337875366211,-5.762844562530518,19.634431838989258,0.8618064522743225,2.3724398612976074,-0.37204307317733765,0.0,0.0,0.0,0.0,0.0,0.0,0.0,-0.8144519220518295,-0.33703580513534764,-0.5688313888347252,0.4500522942595943,0.28135978752872615,0.10781868921428447,-0.41540805468305186,0.8781169578527149,0.7556478956104535,-0.2824071123390867,-1.6692209582747073,0.14131792406280388,2.403418256600698,1.0273626766113007,0.878092876070424,0.7554597494309409,-0.2825552651693207,-1.6690993614607135,0.1414185955172306,2.4034451173676383,1.0273381002308042,9.563194639263393e-05,-0.0007980715442647894,0.0003511106904434422,0.0006739854047563614,1.1639757418702171e-05,4.773307017249131e-05,-0.0014050314694358398,0.0,0.0,0.0,0.0,0.0,0.0,0.0,-2.408178229096336e-05,-0.00018814617951268264,-0.00014815283023400516,0.00012159681399381839,0.0001006714544267151,2.6860766940473013e-05,-2.4576380496466044e-05,-9.563194639263393e-05,0.0007980715442647894,-0.0003511106904434422,-0.0006739854047563614,-1.1639757418702171e-05,-4.773307017249131e-05,0.0014050314694358398,0.8076412081718445,46.62337875366211,5.762844562530518,-19.634431838989258,-0.8618064522743225,-2.3724398612976074,0.37204307317733765,0
63,0.30998802185058594,-0.8076412081718445,-46.64718246459961,-5.762844562530518,19.634431838989258,0.8682151436805725,2.3724398612976074,-0.44711631536483765,0.0,0.0,0.0,0.0,0.0,0.0,0.0,-0.8186873634985616,-0.334891072269494,-0.5729718339763273,0.44990339855565686,0.2810119575603952,0.10770994092998677,-0.41484190603673227,0.8781169578527149,0.7556474600172879,-0.28240735075631995,-1.6692209582747073,0.14131312804989923,2.40341719696855,1.0273710182441593,0.878092876070424,0.7554597494309409,-0.2825552651693207,-1.6690993614607135,0.1414185955172306,2.4034451173676383,1.0273381002308042,-0.0004503723397517597,-0.00045449346137504287,0.0006592114946345463,0.0004103912623380669,8.525791532635892e-05,0.0001780012570089785,0.0011999678066689883,0.0,0.0,0.0,0.0,0.0,0.0,0.0,-2.408178229096336e-05,-0.00018771058634703408,-0.00014791441300077146,0.00012159681399381839,0.00010546746733136603,2.7920399088277037e-05,-3.2918013355143216e-05,0.0004503723397517597,0.00045449346137504287,-0.0006592114946345463,-0.0004103912623380669,-8.525791532635892e-05,-0.0001780012570089785,-0.0011999678066689883,0.8076412081718445,46.64718246459961,5.762844562530518,-19.634431838989258,-0.8682151436805725,-2.3724398612976074,0.44711631536483765,0
64,0.3149886131286621,-0.8076412081718445,-46.64718246459961,-5.762844562530518,19.634431838989258,0.8682151436805725,2.3724398612976074,-0.44711631536483765,0.0,0.0,0.0,0.0,0.0,0.0,0.0,-0.8186873634985616,-0.334891072269494,-0.5729718339763273,0.44990339855565686,0.2810119575603952,0.10770994092998677,-0.41484190603673227,0.8781169578527149,0.7556474600172879,-0.28240735075631995,-1.6692209582747073,0.14131312804989923,2.40341719696855,1.0273710182441593,0.878092876070424,0.7554597494309409,-0.2825552651693207,-1.6690993614607135,0.1414185955172306,2.4034451173676383,1.0273381002308042,-0.0004503723397517597,-0.00045449346137504287,0.0006592114946345463,0.0004103912623380669,8.525791532635892e-05,0.0001780012570089785,0.0011999678066689883,0.0,0.0,0.0,0.0,0.0,0.0,0.0,-2.408178229096336e-05,-0.00018771058634703408,-0.00014791441300077146,0.00012159681399381839,0.00010546746733136603,2.7920399088277037e-05,-3.2918013355143216e-05,0.0004503723397517597,0.00045449346137504287,-0.0006592114946345463,-0.0004103912623380669,-8.525791532635892e-05,-0.0001780012570089785,-0.0011999678066689883,0.8076412081718445,46.64718246459961,5.762844562530518,-19.634431838989258,-0.8682151436805725,-2.3724398612976074,0.44711631536483765,0
65,0.3199911117553711,-0.8076412081718445,-46.62337875366211,-5.735073566436768,19.634431838989258,0.8618064522743225,2.3660311698913574,-0.41324180364608765,0.0,0.0,0.0,0.0,0.0,0.0,0.0,-0.8176045498531626,-0.3279639256241817,-0.571570748696016,0.4475332636045576,0.28135305151181245,0.1075006695690242,-0.41583848380114424,0.8781169578527149,0.755647895576549,-0.28240929959949695,-1.6692209582747073,0.1413169880775187,2.4034179090393915,1.027367254409525,0.878092876070424,0.7554597494309409,-0.2825552651693207,-1.6690993614607135,0.1414185955172306,2.4034451173676383,1.0273381002308042,-0.000321228446245359,-0.0010146910497932174,7.38843693707781e-05,0.0001139831411516983,4.3127131723272605e-05,0.00032935737790666273,0.00013013520610562635,0.0,0.0,0.0,0.0,0.0,0.0,0.0,-2.408178229096336e-05,-0.0001881461456081368,-0.0001459655698237694,0.00012159681399381839,0.00010160743971190933,2.7208328246874913e-05,-2.9154178720736112e-05,0.000321228446245359,0.0010146910497932174,-7.38843693707781e-05,-0.0001139831411516983,-4.3127131723272605e-05,-0.00032935737790666273,-0.00013013520610562635,0.8076412081718445,46.62337875366211,5.735073566436768,-19.634431838989258,-0.8618064522743225,-2.3660311698913574,0.41324180364608765,0
66,0.32495594024658203,-0.8076412081718445,-46.62337875366211,-5.735073566436768,19.634431838989258,0.8618064522743225,2.3660311698913574,-0.41324180364608765,0.0,0.0,0.0,0.0,0.0,0.0,0.0,-0.8176045498531626,-0.3279639256241817,-0.571570748696016,0.4475332636045576,0.28135305151181245,0.1075006695690242,-0.41583848380114424,0.8781169578527149,0.755647895576549,-0.28240929959949695,-1.6692209582747073,0.1413169880775187,2.4034179090393915,1.027367254409525,0.878092876070424,0.7554597494309409,-0.2825552651693207,-1.6690993614607135,0.1414185955172306,2.4034451173676383,1.0273381002308042,-0.000321228446245359,-0.0010146910497932174,7.38843693707781e-05,0.0001139831411516983,4.3127131723272605e-05,0.00032935737790666273,0.00013013520610562635,0.0,0.0,0.0,0.0,0.0,0.0,0.0,-2.408178229096336e-05,-0.0001881461456081368,-0.0001459655698237694,0.00012159681399381839,0.00010160743971190933,2.7208328246874913e-05,-2.9154178720736112e-05,0.000321228446245359,0.0010146910497932174,-7.38843693707781e-05,-0.0001139831411516983,-4.3127131723272605e-05,-0.00032935737790666273,-0.00013013520610562635,0.8076412081718445,46.62337875366211,5.735073566436768,-19.634431838989258,-0.8618064522743225,-2.3660311698913574,0.41324180364608765,0
67,0.32999181747436523,-0.8076412081718445,-46.67495346069336,-5.711269855499268,19.634431838989258,0.8682151436805725,2.3724398612976074,-0.41324180364608765,0.0,0.0,0.0,0.0,0.0,0.0,0.0,-0.8137737495111405,-0.33631125809541895,-0.5710610417679787,0.4536247694666489,0.2811416277682367,0.10833568372615139,-0.41590689967182387,0.8781169578527149,0.7556508119166632,-0.2824108902354437,-1.6692209582747073,0.14131737984260953,2.4034171969625686,1.027367254409525,0.878092876070424,0.7554597494309409,-0.2825552651693207,-1.6690993614607135,0.1414185955172306,2.4034451173676383,1.0273381002308042,-0.000545490088480909,0.00010566996637835074,-0.0005130182478734959,0.0004096817300493756,-0.00017122677542410344,0.00015221080873632217,-0.0004492985008800357,0.0,0.0,0.0,0.0,0.0,0.0,0.0,-2.408178229096336e-05,-0.00019106248572231532,-0.00014437493387703393,0.00012159681399381839,0.00010121567462106906,2.7920405069714604e-05,-2.9154178720736112e-05,0.000545490088480909,-0.00010566996637835074,0.0005130182478734959,-0.0004096817300493756,0.00017122677542410344,-0.00015221080873632217,0.0004492985008800357,0.8076412081718445,46.67495346069336,5.711269855499268,-19.634431838989258,-0.8682151436805725,-2.3724398612976074,0.41324180364608765,0
68,0.3350026607513428,-0.8076412081718445,-46.67495346069336,-5.711269855499268,19.634431838989258,0.8682151436805725,2.3724398612976074,-0.41324180364608765,0.0,0.0,0.0,0.0,0.0,0.0,0.0,-0.8137737495111405,-0.33631125809541895,-0.5710610417679787,0.4536247694666489,0.2811416277682367,0.10833568372615139,-0.41590689967182387,0.8781169578527149,0.7556508119166632,-0.2824108902354437,-1.6692209582747073,0.14131737984260953,2.4034171969625686,1.027367254409525,0.878092876070424,0.7554597494309409,-0.2825552651693207,-1.6690993614607135,0.1414185955172306,2.4034451173676383,1.0273381002308042,-0.000545490088480909,0.00010566996637835074,-0.0005130182478734959,0.0004096817300493756,-0.00017122677542410344,0.00015221080873632217,-0.0004492985008800357,0.0,0.0,0.0,0.0,0.0,0.0,0.0,-2.408178229096336e-05,-0.00019106248572231532,-0.00014437493387703393,0.00012159681399381839,0.00010121567462106906,2.7920405069714604e-05,-2.9154178720736112e-05,0.000545490088480909,-0.00010566996637835074,0.0005130182478734959,-0.0004096817300493756,0.00017122677542410344,-0.00015221080873632217,0.0004492985008800357,0.8076412081718445,46.67495346069336,5.711269855499268,-19.634431838989258,-0.8682151436805725,-2.3724398612976074,0.41324180364608765,0
69,0.3400237560272217,-0.8354122042655945,-46.64718246459961,-5.762844562530518,19.610628128051758,0.8737083077430725,2.3788485527038574,-0.41324180364608765,0.0,0.0,0.0,0.0,0.0,0.0,0.0,-0.822705489473392,-0.34044668390966293,-0.5762298782835792,0.4540296401794084,0.2813709989251444,0.1091658370971029,-0.4156352588585337,0.8781189066945461,0.7556495631578161,-0.2824073507211769,-1.6692192878388519,0.14131358432103244,2.403416486339296,1.027367254409525,0.878092876070424,0.7554597494309409,-0.2825552651693207,-1.6690993614607135,0.1414185955172306,2.4034451173676383,1.0273381002308042,0.000460424892894328,-0.0006720404755985137,0.00010402187591230284,0.0010473634540944352,-0.00036851592615839464,-0.00015037336116287563,0.00021272871323758894,0.0,0.0,0.0,0.0,0.0,0.0,0.0,-2.6030624122097556e-05,-0.0001898137268752098,-0.0001479144481438266,0.0001199263781384019,0.00010501119619815702,2.863102834238518e-05,-2.9154178720736112e-05,-0.000460424892894328,0.0006720404755985137,-0.00010402187591230284,-0.0010473634540944352,0.00036851592615839464,0.00015037336116287563,-0.00021272871323758894,0.8354122042655945,46.64718246459961,5.762844562530518,-19.610628128051758,-0.8737083077430725,-2.3788485527038574,0.41324180364608765,0
70,0.34499096870422363,-0.8354122042655945,-46.64718246459961,-5.762844562530518,19.610628128051758,0.8737083077430725,2.3788485527038574,-0.41324180364608765,0.0,0.0,0.0,0.0,0.0,0.0,0.0,-0.822705489473392,-0.34044668390966293,-0.5762298782835792,0.4540296401794084,0.2813709989251444,0.1091658370971029,-0.4156352588585337,0.8781189066945461,0.7556495631578161,-0.2824073507211769,-1.6692192878388519,0.14131358432103244,2.403416486339296,1.027367254409525,0.878092876070424,0.7554597494309409,-0.2825552651693207,-1.6690993614607135,0.1414185955172306,2.4034451173676383,1.0273381002308042,0.000460424892894328,-0.0006720404755985137,0.00010402187591230284,0.0010473634540944352,-0.00036851592615839464,-0.00015037336116287563,0.00021272871323758894,0.0,0.0,0.0,0.0,0.0,0.0,0.0,-2.6030624122097556e-05,-0.0001898137268752098,-0.0001479144481438266,0.0001199263781384019,0.00010501119619815702,2.863102834238518e-05,-2.9154178720736112e-05,-0.000460424892894328,0.0006720404755985137,-0.00010402187591230284,-0.0010473634540944352,0.00036851592615839464,0.00015037336116287563,-0.00021272871323758894,0.8354122042655945,46.64718246459961,5.762844562530518,-19.610628128051758,-0.8737083077430725,-2.3788485527038574,0.41324180364608765,0
71,0.34999537467956543,-0.8354122042655945,-46.64718246459961,-5.735073566436768,19.634431838989258,0.8618064522743225,2.3724398612976074,-0.43979209661483765,0.0,0.0,0.0,0.0,0.0,0.0,0.0,-0.8119670571526362,-0.33338990240264077,-0.5685266595747978,0.44892392055204244,0.2809142266295487,0.10880942555190753,-0.4158218986478913,0.8781189066945461,0.7556495400476736,-0.2824071538322848,-1.6692209582747073,0.14131486757893474,2.4034171969625766,1.027370204442077,0.878092876070424,0.7554597494309409,-0.2825552651693207,-1.6690993614607135,0.1414185955172306,2.4034451173676383,1.0273381002308042,0.0006878778682226632,-0.0003218839973617874,9.916104296597649e-05,0.00046534516383121973,0.00024178335810471263,5.332732563054324e-05,0.0008637564318038841,0.0,0.0,0.0,0.0,0.0,0.0,0.0,-2.6030624122097556e-05,-0.00018979061673274344,-0.0001481113370359055,0.00012159681399381839,0.00010372793829585558,2.7920405061721e-05,-3.210421127275431e-05,-0.0006878778682226632,0.0003218839973617874,-9.916104296597649e-05,-0.00046534516383121973,-0.00024178335810471263,-5.332732563054324e-05,-0.0008637564318038841,0.8354122042655945,46.64718246459961,5.735073566436768,-19.634431838989258,-0.8618064522743225,-2.3724398612976074,0.43979209661483765,0
72,0.3549926280975342,-0.8354122042655945,-46.64718246459961,-5.735073566436768,19.634431838989258,0.8618064522743225,2.3724398612976074,-0.43979209661483765,0.0,0.0,0.0,0.0,0.0,0.0,0.0,-0.8119670571526362,-0.33338990240264077,-0.5685266595747978,0.44892392055204244,0.2809142266295487,0.10880942555190753,-0.4158218986478913,0.8781189066945461,0.7556495400476736,-0.2824071538322848,-1.6692209582747073,0.14131486757893474,2.4034171969625766,1.027370204442077,0.878092876070424,0.7554597494309409,-0.2825552651693207,-1.6690993614607135,0.1414185955172306,2.4034451173676383,1.0273381002308042,0.0006878778682226632,-0.0003218839973617874,9.916104296597649e-05,0.00046534516383121973,0.00024178335810471263,5.332732563054324e-05,0.0008637564318038841,0.0,0.0,0.0,0.0,0.0,0.0,0.0,-2.6030624122097556e-05,-0.00018979061673274344,-0.0001481113370359055,0.00012159681399381839,0.00010372793829585558,2.7920405061721e-05,-3.210421127275431e-05,-0.0006878778682226632,0.0003218839973617874,-9.916104296597649e-05,-0.00046534516383121973,-0.00024178335810471263,-5.332732563054324e-05,-0.0008637564318038841,0.8354122042655945,46.64718246459961,5.735073566436768,-19.634431838989258,-0.8618064522743225,-2.3724398612976074,0.43979209661483765,0
73,0.3599967956542969,-0.8354122042655945,-46.67495346069336,-5.735073566436768,19.634431838989258,0.8737083077430725,2.3660311698913574,-0.40591758489608765,0.0,0.0,0.0,0.0,0.0,0.0,0.0,-0.819035748948591,-0.34095311227187697,-0.5747649845022651,0.45157458820161656,0.28080852259162353,0.10935336953019001,-0.41496901941809256,0.8781189066945461,0.755651428221821,-0.28240929958738403,-1.6692209582747073,0.14131565841252278,2.4034179090393915,1.027366440122925,0.878092876070424,0.7554597494309409,-0.2825552651693207,-1.6690993614607135,0.1414185955172306,2.4034451173676383,1.0273381002308042,0.0004276619901773981,7.215601781996828e-05,-0.00033265410661465454,0.0001729826290423981,-0.00021182254419203805,0.00017659472411816232,-0.0004431852655654569,0.0,0.0,0.0,0.0,0.0,0.0,0.0,-2.6030624122097556e-05,-0.00019167879088011208,-0.00014596558193669118,0.00012159681399381839,0.00010293710470782313,2.7208328246874913e-05,-2.8339892120810006e-05,-0.0004276619901773981,-7.215601781996828e-05,0.00033265410661465454,-0.0001729826290423981,0.00021182254419203805,-0.00017659472411816232,0.0004431852655654569,0.8354122042655945,46.67495346069336,5.735073566436768,-19.634431838989258,-0.8737083077430725,-2.3660311698913574,0.40591758489608765,0
74,0.3649904727935791,-0.8354122042655945,-46.67495346069336,-5.735073566436768,19.634431838989258,0.8737083077430725,2.3660311698913574,-0.40591758489608765,0.0,0.0,0.0,0.0,0.0,0.0,0.0,-0.819035748948591,-0.34095311227187697,-0.5747649845022651,0.45157458820161656,0.28080852259162353,0.10935336953019001,-0.41496901941809256,0.8781189066945461,0.755651428221821,-0.28240929958738403,-1.6692209582747073,0.14131565841252278,2.4034179090393915,1.027366440122925,0.878092876070424,0.7554597494309409,-0.2825552651693207,-1.6690993614607135,0.1414185955172306,2.4034451173676383,1.0273381002308042,0.0004276619901773981,7.215601781996828e-05,-0.00033265410661465454,0.0001729826290423981,-0.00021182254419203805,0.00017659472411816232,-0.0004431852655654569,0.0,0.0,0.0,0.0,0.0,0.0,0.0,-2.6030624122097556e-05,-0.00019167879088011208,-0.00014596558193669118,0.00012159681399381839,0.00010293710470782313,2.7208328246874913e-05,-2.8339892120810006e-05,-0.0004276619901773981,-7.215601781996828e-05,0.00033265410661465454,-0.0001729826290423981,0.00021182254419203805,-0.00017659472411816232,0.0004431852655654569,0.8354122042655945,46.67495346069336,5.735073566436768,-19.634431838989258,-0.8737083077430725,-2.3660311698913574,0.40591758489608765,0
75,0.3701186180114746,-0.8076412081718445,-46.64718246459961,-5.762844562530518,19.658235549926758,0.8737083077430725,2.3724398612976074,-0.40591758489608765,0.0,0.0,0.0,0.0,0.0,0.0,0.0,-0.8116686166779927,-0.332210690207459,-0.5706798960564594,0.4453129883202343,0.28016448963611573,0.10806406595745309,-0.4156682352358646,0.8781169578527149,0.7556495660479069,-0.28240735072132706,-1.6692226287105625,0.1413166162154706,2.4034171969625686,1.0273664406074408,0.878092876070424,0.7554597494309409,-0.2825552651693207,-1.6690993614607135,0.1414185955172306,2.4034451173676383,1.0273381002308042,0.00015241258034166415,-0.00025514793968196386,0.00048116035365563137,-0.00036258246089801167,-0.0004373458445981464,-7.1392372334752906e-06,-0.00025521710297224495,0.0,0.0,0.0,0.0,0.0,0.0,0.0,-2.408178229096336e-05,-0.00018981661696604313,-0.00014791444799366893,0.00012326724984901283,0.00010197930176000791,2.7920405069714604e-05,-2.8340376636570852e-05,-0.00015241258034166415,0.00025514793968196386,-0.00048116035365563137,0.00036258246089801167,0.0004373458445981464,7.1392372334752906e-06,0.00025521710297224495,0.8076412081718445,46.64718246459961,5.762844562530518,-19.658235549926758,-0.8737083077430725,-2.3724398612976074,0.40591758489608765,0
76,0.3749420642852783,-0.8076412081718445,-46.64718246459961,-5.762844562530518,19.658235549926758,0.8737083077430725,2.3724398612976074,-0.40591758489608765,0.0,0.0,0.0,0.0,0.0,0.0,0.0,-0.8116686166779927,-0.332210690207459,-0.5706798960564594,0.4453129883202343,0.28016448963611573,0.10806406595745309,-0.4156682352358646,0.8781169578527149,0.7556495660479069,-0.28240735072132706,-1.6692226287105625,0.1413166162154706,2.4034171969625686,1.0273664406074408,0.878092876070424,0.7554597494309409,-0.2825552651693207,-1.6690993614607135,0.1414185955172306,2.4034451173676383,1.0273381002308042,0.00015241258034166415,-0.00025514793968196386,0.00048116035365563137,-0.00036258246089801167,-0.0004373458445981464,-7.1392372334752906e-06,-0.00025521710297224495,0.0,0.0,0.0,0.0,0.0,0.0,0.0,-2.408178229096336e-05,-0.00018981661696604313,-0.00014791444799366893,0.00012326724984901283,0.00010197930176000791,2.7920405069714604e-05,-2.8340376636570852e-05,-0.00015241258034166415,0.00025514793968196386,-0.00048116035365563137,0.00036258246089801167,0.0004373458445981464,7.1392372334752906e-06,0.00025521710297224495,0.8076412081718445,46.64718246459961,5.762844562530518,-19.658235549926758,-0.8737083077430725,-2.3724398612976074,0.40591758489608765,0
77,0.37999391555786133,-0.7838374972343445,-46.67495346069336,-5.735073566436768,19.686006546020508,0.8563132882118225,2.3788485527038574,-0.39950889348983765,0.0,0.0,0.0,0.0,0.0,0.0,0.0,-0.8206459721464077,-0.336233623693714,-0.5779081639222797,0.4473885427492522,0.2801731787340526,0.10797670119882762,-0.4151978457803326,0.8781152874168596,0.7556515148899011,-0.28240929959949673,-1.6692245775523937,0.14131516132550653,2.4034164848857458,1.0273657285306186,0.878092876070424,0.7554597494309409,-0.2825552651693207,-1.6690993614607135,0.1414185955172306,2.4034451173676383,1.0273381002308042,-0.0008948036745187771,0.00028993544730650256,-0.0002743300143813341,-0.0006615710912052412,0.00034447005520340265,-0.00022951062057300335,-0.000971777340210459,0.0,0.0,0.0,0.0,0.0,0.0,0.0,-2.2411346435657897e-05,-0.00019176545896026909,-0.00014596556982399145,0.00012521609168025805,0.00010343419172406665,2.8632481892554296e-05,-2.7628299814397295e-05,0.0008948036745187771,-0.00028993544730650256,0.0002743300143813341,0.0006615710912052412,-0.00034447005520340265,0.00022951062057300335,0.000971777340210459,0.7838374972343445,46.67495346069336,5.735073566436768,-19.686006546020508,-0.8563132882118225,-2.3788485527038574,0.39950889348983765,0
78,0.3849906921386719,-0.7838374972343445,-46.67495346069336,-5.735073566436768,19.686006546020508,0.8563132882118225,2.3788485527038574,-0.39950889348983765,0.0,0.0,0.0,0.0,0.0,0.0,0.0,-0.8206459721464077,-0.336233623693714,-0.5779081639222797,0.4473885427492522,0.2801731787340526,0.10797670119882762,-0.4151978457803326,0.8781152874168596,0.7556515148899011,-0.28240929959949673,-1.6692245775523937,0.14131516132550653,2.4034164848857458,1.0273657285306186,0.878092876070424,0.7554597494309409,-0.2825552651693207,-1.6690993614607135,0.1414185955172306,2.4034451173676383,1.0273381002308042,-0.0008948036745187771,0.00028993544730650256,-0.0002743300143813341,-0.0006615710912052412,0.00034447005520340265,-0.00022951062057300335,-0.000971777340210459,0.0,0.0,0.0,0.0,0.0,0.0,0.0,-2.2411346435657897e-05,-0.00019176545896026909,-0.00014596556982399145,0.00012521609168025805,0.00010343419172406665,2.8632481892554296e-05,-2.7628299814397295e-05,0.0008948036745187771,-0.00028993544730650256,0.0002743300143813341,0.0006615710912052412,-0.00034447005520340265,0.00022951062057300335,0.000971777340210459,0.7838374972343445,46.67495346069336,5.735073566436768,-19.686006546020508,-0.8563132882118225,-2.3788485527038574,0.39950889348983765,0
79,0.38994622230529785,-0.8354122042655945,-46.64718246459961,-5.711269855499268,19.658235549926758,0.8563132882118225,2.3724398612976074,-0.37845176458358765,0.0,0.0,0.0,0.0,0.0,0.0,0.0,-0.8186519810858045,-0.3369670628858297,-0.5758062298306881,0.4506817368690216,0.2801458289965728,0.1084753183529787,-0.41554233814570307,0.8781189068015435,0.7556495657270776,-0.2824109700353522,-1.6692226287105625,0.1413183375720795,2.4034171969625686,1.027363388849629,0.878092876070424,0.7554597494309409,-0.2825552651693207,-1.6690993614607135,0.1414185955172306,2.4034451173676383,1.0273381002308042,0.0004102289627323834,-0.0003053012301894237,-0.0010406116492160432,7.076389529403518e-05,0.0003656613293937163,0.00010669035313070874,-0.000961551962681364,0.0,0.0,0.0,0.0,0.0,0.0,0.0,-2.6030731119508488e-05,-0.00018981629613679107,-0.00014429513396851945,0.00012326724984901283,0.00010025794515108877,2.7920405069714604e-05,-2.5288618824781395e-05,-0.0004102289627323834,0.0003053012301894237,0.0010406116492160432,-7.076389529403518e-05,-0.0003656613293937163,-0.00010669035313070874,0.000961551962681364,0.8354122042655945,46.64718246459961,5.711269855499268,-19.658235549926758,-0.8563132882118225,-2.3724398612976074,0.37845176458358765,0
80,0.3951716423034668,-0.8354122042655945,-46.64718246459961,-5.711269855499268,19.658235549926758,0.8563132882118225,2.3724398612976074,-0.37845176458358765,0.0,0.0,0.0,0.0,0.0,0.0,0.0,-0.8186519810858045,-0.3369670628858297,-0.5758062298306881,0.4506817368690216,0.2801458289965728,0.1084753183529787,-0.41554233814570307,0.8781189068015435,0.7556495657270776,-0.2824109700353522,-1.6692226287105625,0.1413183375720795,2.4034171969625686,1.027363388849629,0.878092876070424,0.7554597494309409,-0.2825552651693207,-1.6690993614607135,0.1414185955172306,2.4034451173676383,1.0273381002308042,0.0004102289627323834,-0.0003053012301894237,-0.0010406116492160432,7.076389529403518e-05,0.0003656613293937163,0.00010669035313070874,-0.000961551962681364,0.0,0.0,0.0,0.0,0.0,0.0,0.0,-2.6030731119508488e-05,-0.00018981629613679107,-0.00014429513396851945,0.00012326724984901283,0.00010025794515108877,2.7920405069714604e-05,-2.5288618824781395e-05,-0.0004102289627323834,0.0003053012301894237,0.0010406116492160432,-7.076389529403518e-05,-0.0003656613293937163,-0.00010669035313070874,0.000961551962681364,0.8354122042655945,46.64718246459961,5.711269855499268,-19.658235549926758,-0.8563132882118225,-2.3724398612976074,0.37845176458358765,0
