rezayati/contactInterpretation/dataset/franka_main/labeled_data/link6/b11_6.csv
index,time,tau_J0,tau_J1,tau_J2,tau_J3,tau_J4,tau_J5,tau_J6,tau_J_d0,tau_J_d1,tau_J_d2,tau_J_d3,tau_J_d4,tau_J_d5,tau_J_d6,tau_ext0,tau_ext1,tau_ext2,tau_ext3,tau_ext4,tau_ext5,tau_ext6,q0,q1,q2,q3,q4,q5,q6,q_d0,q_d1,q_d2,q_d3,q_d4,q_d5,q_d6,dq0,dq1,dq2,dq3,dq4,dq5,dq6,dq_d0,dq_d1,dq_d2,dq_d3,dq_d4,dq_d5,dq_d6,e0,e1,e2,e3,e4,e5,e6,de0,de1,de2,de3,de4,de5,de6,etau_J0,etau_J1,etau_J2,etau_J3,etau_J4,etau_J5,etau_J6,label
1,0.0,-0.04592245817184448,-18.253320693969727,0.8942596912384033,18.297456741333008,0.6356711983680725,2.2946200370788574,-0.25485557317733765,0.0,0.0,0.0,0.0,0.0,0.0,0.0,-0.060590800701600105,0.3463607510368995,0.10690165195092236,0.6266556398898245,0.22485396499125557,0.09371670675814059,-0.23012363503274402,-0.6089265306748842,-0.05748971062428073,-0.6665103945313844,-2.594795136635763,-0.055782894164323804,2.507899672879113,0.8763244798911941,-0.6090851748156966,-0.05753196718556838,-0.666603097082616,-2.5945565370258534,-0.05562143941554,2.507976027223799,0.8763108487046415,-0.00027884386360102275,-0.001214694390236827,0.00043357955660444875,-0.0010198911688940996,0.0003627197949321896,-0.00039558738188794784,0.0007865819824551027,0.0,0.0,0.0,0.0,0.0,0.0,0.0,-0.00015864414081234735,-4.2256561287652705e-05,-9.270255123161597e-05,0.00023859960990968432,0.00016145474878380417,7.635434468600266e-05,-1.3631186552620633e-05,0.00027884386360102275,0.001214694390236827,-0.00043357955660444875,0.0010198911688940996,-0.0003627197949321896,0.00039558738188794784,-0.0007865819824551027,0.04592245817184448,18.253320693969727,-0.8942596912384033,-18.297456741333008,-0.6356711983680725,-2.2946200370788574,0.25485557317733765,0
2,0.005053997039794922,-0.04592245817184448,-18.253320693969727,0.8942596912384033,18.297456741333008,0.6356711983680725,2.2946200370788574,-0.25485557317733765,0.0,0.0,0.0,0.0,0.0,0.0,0.0,-0.060590800701600105,0.3463607510368995,0.10690165195092236,0.6266556398898245,0.22485396499125557,0.09371670675814059,-0.23012363503274402,-0.6089265306748842,-0.05748971062428073,-0.6665103945313844,-2.594795136635763,-0.055782894164323804,2.507899672879113,0.8763244798911941,-0.6090851748156966,-0.05753196718556838,-0.666603097082616,-2.5945565370258534,-0.05562143941554,2.507976027223799,0.8763108487046415,-0.00027884386360102275,-0.001214694390236827,0.00043357955660444875,-0.0010198911688940996,0.0003627197949321896,-0.00039558738188794784,0.0007865819824551027,0.0,0.0,0.0,0.0,0.0,0.0,0.0,-0.00015864414081234735,-4.2256561287652705e-05,-9.270255123161597e-05,0.00023859960990968432,0.00016145474878380417,7.635434468600266e-05,-1.3631186552620633e-05,0.00027884386360102275,0.001214694390236827,-0.00043357955660444875,0.0010198911688940996,-0.0003627197949321896,0.00039558738188794784,-0.0007865819824551027,0.04592245817184448,18.253320693969727,-0.8942596912384033,-18.297456741333008,-0.6356711983680725,-2.2946200370788574,0.25485557317733765,0
3,0.010096073150634766,-0.018151462078094482,-18.253320693969727,0.8942596912384033,18.222078323364258,0.6475730538368225,2.2753939628601074,-0.22830526530742645,0.0,0.0,0.0,0.0,0.0,0.0,0.0,-0.054818503586507146,0.35652851771911487,0.10906219378460118,0.6239907694909416,0.2235181485444938,0.09329137755301563,-0.23143011123465015,-0.6089284795167154,-0.05748971062428073,-0.6665125005621659,-2.5947898469222217,-0.055784216592709227,2.507901809109582,0.8763215167750341,-0.6090851748156966,-0.05753196718556838,-0.666603097082616,-2.5945565370258534,-0.05562143941554,2.507976027223799,0.8763108487046415,-0.0012121390449902347,0.00030506285093624924,0.0011290185802945523,0.0004462892935640009,0.0003390758829276808,-0.0006438150747788929,-0.0004314219284305296,0.0,0.0,0.0,0.0,0.0,0.0,0.0,-0.00015669529898121315,-4.2256561287652705e-05,-9.059652045007027e-05,0.00023330989636827226,0.00016277717716922657,7.42181142170395e-05,-1.0668070392627627e-05,0.0012121390449902347,-0.00030506285093624924,-0.0011290185802945523,-0.0004462892935640009,-0.0003390758829276808,0.0006438150747788929,0.0004314219284305296,0.018151462078094482,18.253320693969727,-0.8942596912384033,-18.222078323364258,-0.6475730538368225,-2.2753939628601074,0.22830526530742645,0
4,0.014996528625488281,-0.018151462078094482,-18.253320693969727,0.8942596912384033,18.222078323364258,0.6475730538368225,2.2753939628601074,-0.22830526530742645,0.0,0.0,0.0,0.0,0.0,0.0,0.0,-0.054818503586507146,0.35652851771911487,0.10906219378460118,0.6239907694909416,0.2235181485444938,0.09329137755301563,-0.23143011123465015,-0.6089284795167154,-0.05748971062428073,-0.6665125005621659,-2.5947898469222217,-0.055784216592709227,2.507901809109582,0.8763215167750341,-0.6090851748156966,-0.05753196718556838,-0.666603097082616,-2.5945565370258534,-0.05562143941554,2.507976027223799,0.8763108487046415,-0.0012121390449902347,0.00030506285093624924,0.0011290185802945523,0.0004462892935640009,0.0003390758829276808,-0.0006438150747788929,-0.0004314219284305296,0.0,0.0,0.0,0.0,0.0,0.0,0.0,-0.00015669529898121315,-4.2256561287652705e-05,-9.059652045007027e-05,0.00023330989636827226,0.00016277717716922657,7.42181142170395e-05,-1.0668070392627627e-05,0.0012121390449902347,-0.00030506285093624924,-0.0011290185802945523,-0.0004462892935640009,-0.0003390758829276808,0.0006438150747788929,0.0004314219284305296,0.018151462078094482,18.253320693969727,-0.8942596912384033,-18.222078323364258,-0.6475730538368225,-2.2753939628601074,0.22830526530742645,0
5,0.020006656646728516,-0.09352988004684448,-18.277124404907227,0.9180634021759033,18.245882034301758,0.6475730538368225,2.2689852714538574,-0.24112264811992645,0.0,0.0,0.0,0.0,0.0,0.0,0.0,-0.061046261715193256,0.35820205291323276,0.10217754298082982,0.6309591735551413,0.22449493354308447,0.09127700227727191,-0.2327858962422701,-0.6089231898031736,-0.05748804018842547,-0.6665120649791277,-2.5947915173580767,-0.055784216592709227,2.507903580824534,0.8763229540105584,-0.6090851748156966,-0.05753196718556838,-0.666603097082616,-2.5945565370258534,-0.05562143941554,2.507976027223799,0.8763108487046415,0.0008125149329166529,0.0004120951156698083,5.202538819311577e-05,-0.00018085932950350403,3.076013751353898e-05,-0.0002862348139067371,0.000259869934285596,0.0,0.0,0.0,0.0,0.0,0.0,0.0,-0.00016198501252295827,-4.3926997142916535e-05,-9.10321034882644e-05,0.00023498033222324466,0.00016277717716922657,7.244639926495822e-05,-1.210530591688741e-05,-0.0008125149329166529,-0.0004120951156698083,-5.202538819311577e-05,0.00018085932950350403,-3.076013751353898e-05,0.0002862348139067371,-0.000259869934285596,0.09352988004684448,18.277124404907227,-0.9180634021759033,-18.245882034301758,-0.6475730538368225,-2.2689852714538574,0.24112264811992645,0
6,0.025005102157592773,-0.09352988004684448,-18.277124404907227,0.9180634021759033,18.245882034301758,0.6475730538368225,2.2689852714538574,-0.24112264811992645,0.0,0.0,0.0,0.0,0.0,0.0,0.0,-0.061046261715193256,0.35820205291323276,0.10217754298082982,0.6309591735551413,0.22449493354308447,0.09127700227727191,-0.2327858962422701,-0.6089231898031736,-0.05748804018842547,-0.6665120649791277,-2.5947915173580767,-0.055784216592709227,2.507903580824534,0.8763229540105584,-0.6090851748156966,-0.05753196718556838,-0.666603097082616,-2.5945565370258534,-0.05562143941554,2.507976027223799,0.8763108487046415,0.0008125149329166529,0.0004120951156698083,5.202538819311577e-05,-0.00018085932950350403,3.076013751353898e-05,-0.0002862348139067371,0.000259869934285596,0.0,0.0,0.0,0.0,0.0,0.0,0.0,-0.00016198501252295827,-4.3926997142916535e-05,-9.10321034882644e-05,0.00023498033222324466,0.00016277717716922657,7.244639926495822e-05,-1.210530591688741e-05,-0.0008125149329166529,-0.0004120951156698083,-5.202538819311577e-05,0.00018085932950350403,-3.076013751353898e-05,0.0002862348139067371,-0.000259869934285596,0.09352988004684448,18.277124404907227,-0.9180634021759033,-18.245882034301758,-0.6475730538368225,-2.2689852714538574,0.24112264811992645,0
7,0.030016183853149414,-0.04592245817184448,-18.304895401000977,0.9418671131134033,18.297456741333008,0.6356711983680725,2.2818026542663574,-0.24112264811992645,0.0,0.0,0.0,0.0,0.0,0.0,0.0,-0.057569888939277496,0.36330764217257433,0.10522861959165597,0.6351339921231389,0.22411311261963374,0.09086463225705983,-0.23288975520827365,-0.6089265306748842,-0.057486091346594326,-0.6665137354030943,-2.5947951281324944,-0.055782894164323804,2.5079010970387405,0.87632294092868,-0.6090851748156966,-0.05753196718556838,-0.666603097082616,-2.5945565370258534,-0.05562143941554,2.507976027223799,0.8763108487046415,-0.00043655394607016747,0.0003228926555115521,-0.0002501001703158079,-0.0009392246036154079,0.0005210323905379585,4.223799207205176e-05,0.0007239009576342056,0.0,0.0,0.0,0.0,0.0,0.0,0.0,-0.00015864414081234735,-4.587583897405767e-05,-8.936167952167118e-05,0.00023859110664092853,0.00016145474878380417,7.493018505844162e-05,-1.2092224038529054e-05,0.00043655394607016747,-0.0003228926555115521,0.0002501001703158079,0.0009392246036154079,-0.0005210323905379585,-4.223799207205176e-05,-0.0007239009576342056,0.04592245817184448,18.304895401000977,-0.9418671131134033,-18.297456741333008,-0.6356711983680725,-2.2818026542663574,0.24112264811992645,0
8,0.03496551513671875,-0.04592245817184448,-18.304895401000977,0.9418671131134033,18.297456741333008,0.6356711983680725,2.2818026542663574,-0.24112264811992645,0.0,0.0,0.0,0.0,0.0,0.0,0.0,-0.057569888939277496,0.36330764217257433,0.10522861959165597,0.6351339921231389,0.22411311261963374,0.09086463225705983,-0.23288975520827365,-0.6089265306748842,-0.057486091346594326,-0.6665137354030943,-2.5947951281324944,-0.055782894164323804,2.5079010970387405,0.87632294092868,-0.6090851748156966,-0.05753196718556838,-0.666603097082616,-2.5945565370258534,-0.05562143941554,2.507976027223799,0.8763108487046415,-0.00043655394607016747,0.0003228926555115521,-0.0002501001703158079,-0.0009392246036154079,0.0005210323905379585,4.223799207205176e-05,0.0007239009576342056,0.0,0.0,0.0,0.0,0.0,0.0,0.0,-0.00015864414081234735,-4.587583897405767e-05,-8.936167952167118e-05,0.00023859110664092853,0.00016145474878380417,7.493018505844162e-05,-1.2092224038529054e-05,0.00043655394607016747,-0.0003228926555115521,0.0002501001703158079,0.0009392246036154079,-0.0005210323905379585,-4.223799207205176e-05,-0.0007239009576342056,0.04592245817184448,18.304895401000977,-0.9418671131134033,-18.297456741333008,-0.6356711983680725,-2.2818026542663574,0.24112264811992645,0
9,0.03995919227600098,-0.04592245817184448,-18.304895401000977,0.9418671131134033,18.297456741333008,0.6356711983680725,2.2818026542663574,-0.24112264811992645,0.0,0.0,0.0,0.0,0.0,0.0,0.0,-0.057569888939277496,0.36330764217257433,0.10522861959165597,0.6351339921231389,0.22411311261963374,0.09086463225705983,-0.23288975520827365,-0.6089265306748842,-0.057486091346594326,-0.6665137354030943,-2.5947951281324944,-0.055782894164323804,2.5079010970387405,0.87632294092868,-0.6090851748156966,-0.05753196718556838,-0.666603097082616,-2.5945565370258534,-0.05562143941554,2.507976027223799,0.8763108487046415,-0.00043655394607016747,0.0003228926555115521,-0.0002501001703158079,-0.0009392246036154079,0.0005210323905379585,4.223799207205176e-05,0.0007239009576342056,0.0,0.0,0.0,0.0,0.0,0.0,0.0,-0.00015864414081234735,-4.587583897405767e-05,-8.936167952167118e-05,0.00023859110664092853,0.00016145474878380417,7.493018505844162e-05,-1.2092224038529054e-05,0.00043655394607016747,-0.0003228926555115521,0.0002501001703158079,0.0009392246036154079,-0.0005210323905379585,-4.223799207205176e-05,-0.0007239009576342056,0.04592245817184448,18.304895401000977,-0.9418671131134033,-18.297456741333008,-0.6356711983680725,-2.2818026542663574,0.24112264811992645,0
10,0.04500007629394531,-0.04592245817184448,-18.304895401000977,0.9418671131134033,18.297456741333008,0.6356711983680725,2.2818026542663574,-0.24112264811992645,0.0,0.0,0.0,0.0,0.0,0.0,0.0,-0.057569888939277496,0.36330764217257433,0.10522861959165597,0.6351339921231389,0.22411311261963374,0.09086463225705983,-0.23288975520827365,-0.6089265306748842,-0.057486091346594326,-0.6665137354030943,-2.5947951281324944,-0.055782894164323804,2.5079010970387405,0.87632294092868,-0.6090851748156966,-0.05753196718556838,-0.666603097082616,-2.5945565370258534,-0.05562143941554,2.507976027223799,0.8763108487046415,-0.00043655394607016747,0.0003228926555115521,-0.0002501001703158079,-0.0009392246036154079,0.0005210323905379585,4.223799207205176e-05,0.0007239009576342056,0.0,0.0,0.0,0.0,0.0,0.0,0.0,-0.00015864414081234735,-4.587583897405767e-05,-8.936167952167118e-05,0.00023859110664092853,0.00016145474878380417,7.493018505844162e-05,-1.2092224038529054e-05,0.00043655394607016747,-0.0003228926555115521,0.0002501001703158079,0.0009392246036154079,-0.0005210323905379585,-4.223799207205176e-05,-0.0007239009576342056,0.04592245817184448,18.304895401000977,-0.9418671131134033,-18.297456741333008,-0.6356711983680725,-2.2818026542663574,0.24112264811992645,0
11,0.049997806549072266,-0.04592245817184448,-18.376306533813477,0.9180634021759033,18.245882034301758,0.6594749093055725,2.2882113456726074,-0.20724813640117645,0.0,0.0,0.0,0.0,0.0,0.0,0.0,-0.05959929451698819,0.36439321302425387,0.10448011033777112,0.6290752016438854,0.2238012568634259,0.09147759090612569,-0.23202261673397995,-0.6089265306748842,-0.057481080039028534,-0.6665120649672391,-2.5947915164132214,-0.05578553902109464,2.507900384955936,0.876319190175923,-0.6090851748156966,-0.05753196718556838,-0.666603097082616,-2.5945565370258534,-0.05562143941554,2.507976027223799,0.8763108487046415,-0.0002823072811498605,0.000939874967894148,0.00035904719969155,0.00016528449805054376,-0.00043944979005995687,-0.000349602959165781,-0.0014541815632258973,0.0,0.0,0.0,0.0,0.0,0.0,0.0,-0.00015864414081234735,-5.088714653984916e-05,-9.103211537686562e-05,0.00023497938736793955,0.00016409960555464204,7.564226786316297e-05,-8.341471281481105e-06,0.0002823072811498605,-0.000939874967894148,-0.00035904719969155,-0.00016528449805054376,0.00043944979005995687,0.000349602959165781,0.0014541815632258973,0.04592245817184448,18.376306533813477,-0.9180634021759033,-18.245882034301758,-0.6594749093055725,-2.2882113456726074,0.20724813640117645,0
12,0.054999589920043945,-0.04592245817184448,-18.376306533813477,0.9180634021759033,18.245882034301758,0.6594749093055725,2.2882113456726074,-0.20724813640117645,0.0,0.0,0.0,0.0,0.0,0.0,0.0,-0.05959929451698819,0.36439321302425387,0.10448011033777112,0.6290752016438854,0.2238012568634259,0.09147759090612569,-0.23202261673397995,-0.6089265306748842,-0.057481080039028534,-0.6665120649672391,-2.5947915164132214,-0.05578553902109464,2.507900384955936,0.876319190175923,-0.6090851748156966,-0.05753196718556838,-0.666603097082616,-2.5945565370258534,-0.05562143941554,2.507976027223799,0.8763108487046415,-0.0002823072811498605,0.000939874967894148,0.00035904719969155,0.00016528449805054376,-0.00043944979005995687,-0.000349602959165781,-0.0014541815632258973,0.0,0.0,0.0,0.0,0.0,0.0,0.0,-0.00015864414081234735,-5.088714653984916e-05,-9.103211537686562e-05,0.00023497938736793955,0.00016409960555464204,7.564226786316297e-05,-8.341471281481105e-06,0.0002823072811498605,-0.000939874967894148,-0.00035904719969155,-0.00016528449805054376,0.00043944979005995687,0.000349602959165781,0.0014541815632258973,0.04592245817184448,18.376306533813477,-0.9180634021759033,-18.245882034301758,-0.6594749093055725,-2.2882113456726074,0.20724813640117645,0
13,0.05999922752380371,-0.06972616910934448,-18.376306533813477,0.9696381092071533,18.222078323364258,0.6539817452430725,2.2625765800476074,-0.22830526530742645,0.0,0.0,0.0,0.0,0.0,0.0,0.0,-0.05525629333455706,0.3615797589041031,0.11005376046354988,0.6250207559785944,0.2240973067169393,0.09237738842312733,-0.23212353440045322,-0.6089248602390289,-0.057481080039028534,-0.6665156842449255,-2.5947898469222164,-0.05578492866953214,2.5079032332632276,0.8763215298569863,-0.6090851748156966,-0.05753196718556838,-0.666603097082616,-2.5945565370258534,-0.05562143941554,2.507976027223799,0.8763108487046415,0.0005531804349341735,0.0011936327935434003,-0.0007639655202466333,0.0006365363576412431,-0.00017754950032518356,0.00045280053368632024,7.573462325405362e-05,0.0,0.0,0.0,0.0,0.0,0.0,0.0,-0.0001603145766676528,-5.088714653984916e-05,-8.741283769053698e-05,0.0002333098963629432,0.0001634892539921426,7.279396057136012e-05,-1.0681152344815814e-05,-0.0005531804349341735,-0.0011936327935434003,0.0007639655202466333,-0.0006365363576412431,0.00017754950032518356,-0.00045280053368632024,-7.573462325405362e-05,0.06972616910934448,18.376306533813477,-0.9696381092071533,-18.222078323364258,-0.6539817452430725,-2.2625765800476074,0.22830526530742645,0
14,0.06499958038330078,-0.06972616910934448,-18.376306533813477,0.9696381092071533,18.222078323364258,0.6539817452430725,2.2625765800476074,-0.22830526530742645,0.0,0.0,0.0,0.0,0.0,0.0,0.0,-0.05525629333455706,0.3615797589041031,0.11005376046354988,0.6250207559785944,0.2240973067169393,0.09237738842312733,-0.23212353440045322,-0.6089248602390289,-0.057481080039028534,-0.6665156842449255,-2.5947898469222164,-0.05578492866953214,2.5079032332632276,0.8763215298569863,-0.6090851748156966,-0.05753196718556838,-0.666603097082616,-2.5945565370258534,-0.05562143941554,2.507976027223799,0.8763108487046415,0.0005531804349341735,0.0011936327935434003,-0.0007639655202466333,0.0006365363576412431,-0.00017754950032518356,0.00045280053368632024,7.573462325405362e-05,0.0,0.0,0.0,0.0,0.0,0.0,0.0,-0.0001603145766676528,-5.088714653984916e-05,-8.741283769053698e-05,0.0002333098963629432,0.0001634892539921426,7.279396057136012e-05,-1.0681152344815814e-05,-0.0005531804349341735,-0.0011936327935434003,0.0007639655202466333,-0.0006365363576412431,0.00017754950032518356,-0.00045280053368632024,-7.573462325405362e-05,0.06972616910934448,18.376306533813477,-0.9696381092071533,-18.222078323364258,-0.6539817452430725,-2.2625765800476074,0.22830526530742645,0
15,0.06999564170837402,-0.018151462078094482,-18.328699111938477,0.9934418201446533,18.245882034301758,0.6539817452430725,2.2689852714538574,-0.19351522624492645,0.0,0.0,0.0,0.0,0.0,0.0,0.0,-0.05443861405075844,0.35442072242670425,0.11066846698423564,0.6271075771234755,0.22481327524246586,0.09243887763886935,-0.23212716761581673,-0.6089284795167154,-0.05748442091073906,-0.6665173546807808,-2.5947915173580767,-0.05578492866953214,2.5079025211864048,0.8763176642970906,-0.6090851748156966,-0.05753196718556838,-0.666603097082616,-2.5945565370258534,-0.05562143941554,2.507976027223799,0.8763108487046415,-0.0006803243230013599,0.00017285910553244382,-0.0013387237884627914,0.00040641276126228974,-9.294368854914827e-05,0.000266957145382613,-0.0018405610762948928,0.0,0.0,0.0,0.0,0.0,0.0,0.0,-0.00015669529898121315,-4.75462748293215e-05,-8.574240183523152e-05,0.00023498033222324466,0.0001634892539921426,7.350603739419981e-05,-6.815592449083141e-06,0.0006803243230013599,-0.00017285910553244382,0.0013387237884627914,-0.00040641276126228974,9.294368854914827e-05,-0.000266957145382613,0.0018405610762948928,0.018151462078094482,18.328699111938477,-0.9934418201446533,-18.245882034301758,-0.6539817452430725,-2.2689852714538574,0.19351522624492645,0
16,0.0749974250793457,-0.018151462078094482,-18.328699111938477,0.9934418201446533,18.245882034301758,0.6539817452430725,2.2689852714538574,-0.19351522624492645,0.0,0.0,0.0,0.0,0.0,0.0,0.0,-0.05443861405075844,0.35442072242670425,0.11066846698423564,0.6271075771234755,0.22481327524246586,0.09243887763886935,-0.23212716761581673,-0.6089284795167154,-0.05748442091073906,-0.6665173546807808,-2.5947915173580767,-0.05578492866953214,2.5079025211864048,0.8763176642970906,-0.6090851748156966,-0.05753196718556838,-0.666603097082616,-2.5945565370258534,-0.05562143941554,2.507976027223799,0.8763108487046415,-0.0006803243230013599,0.00017285910553244382,-0.0013387237884627914,0.00040641276126228974,-9.294368854914827e-05,0.000266957145382613,-0.0018405610762948928,0.0,0.0,0.0,0.0,0.0,0.0,0.0,-0.00015669529898121315,-4.75462748293215e-05,-8.574240183523152e-05,0.00023498033222324466,0.0001634892539921426,7.350603739419981e-05,-6.815592449083141e-06,0.0006803243230013599,-0.00017285910553244382,0.0013387237884627914,-0.00040641276126228974,9.294368854914827e-05,-0.000266957145382613,0.0018405610762948928,0.018151462078094482,18.328699111938477,-0.9934418201446533,-18.245882034301758,-0.6539817452430725,-2.2689852714538574,0.19351522624492645,0
17,0.0800011157989502,-0.04592245817184448,-18.304895401000977,0.9418671131134033,18.245882034301758,0.6475730538368225,2.2818026542663574,-0.24844686686992645,0.0,0.0,0.0,0.0,0.0,0.0,0.0,-0.057115858561011555,0.35458601882686624,0.10594770126530649,0.626287111638216,0.2252276168371269,0.09138286273293814,-0.23226796060333654,-0.6089265306748842,-0.057486091346594326,-0.6665137614034743,-2.5947915173580767,-0.055784216592709227,2.507901097032759,0.8763237678127155,-0.6090851748156966,-0.05753196718556838,-0.666603097082616,-2.5945565370258534,-0.05562143941554,2.507976027223799,0.8763108487046415,-0.000508045804310444,0.0004351105370694771,-0.0005307450285348794,-6.575004415785035e-07,-8.18744031318429e-05,-0.00030101565169249827,0.0007984695895050263,0.0,0.0,0.0,0.0,0.0,0.0,0.0,-0.00015864414081234735,-4.587583897405767e-05,-8.933567914171103e-05,0.00023498033222324466,0.00016277717716922657,7.493019103987919e-05,-1.2919108073994323e-05,0.000508045804310444,-0.0004351105370694771,0.0005307450285348794,6.575004415785035e-07,8.18744031318429e-05,0.00030101565169249827,-0.0007984695895050263,0.04592245817184448,18.304895401000977,-0.9418671131134033,-18.245882034301758,-0.6475730538368225,-2.2818026542663574,0.24844686686992645,0
18,0.0850076675415039,-0.04592245817184448,-18.304895401000977,0.9418671131134033,18.245882034301758,0.6475730538368225,2.2818026542663574,-0.24844686686992645,0.0,0.0,0.0,0.0,0.0,0.0,0.0,-0.057115858561011555,0.35458601882686624,0.10594770126530649,0.626287111638216,0.2252276168371269,0.09138286273293814,-0.23226796060333654,-0.6089265306748842,-0.057486091346594326,-0.6665137614034743,-2.5947915173580767,-0.055784216592709227,2.507901097032759,0.8763237678127155,-0.6090851748156966,-0.05753196718556838,-0.666603097082616,-2.5945565370258534,-0.05562143941554,2.507976027223799,0.8763108487046415,-0.000508045804310444,0.0004351105370694771,-0.0005307450285348794,-6.575004415785035e-07,-8.18744031318429e-05,-0.00030101565169249827,0.0007984695895050263,0.0,0.0,0.0,0.0,0.0,0.0,0.0,-0.00015864414081234735,-4.587583897405767e-05,-8.933567914171103e-05,0.00023498033222324466,0.00016277717716922657,7.493019103987919e-05,-1.2919108073994323e-05,0.000508045804310444,-0.0004351105370694771,0.0005307450285348794,6.575004415785035e-07,8.18744031318429e-05,0.00030101565169249827,-0.0007984695895050263,0.04592245817184448,18.304895401000977,-0.9418671131134033,-18.245882034301758,-0.6475730538368225,-2.2818026542663574,0.24844686686992645,0
19,0.09002470970153809,-0.12130087614059448,-18.253320693969727,0.9180634021759033,18.245882034301758,0.6539817452430725,2.2625765800476074,-0.20724813640117645,0.0,0.0,0.0,0.0,0.0,0.0,0.0,-0.061098786368244014,0.3515030600695009,0.10179934590405529,0.6299073953554897,0.22510432779778553,0.09156650542800628,-0.23087150822162203,-0.6089212409613425,-0.05748971062428073,-0.6665141711051654,-2.5947915173580767,-0.05578492866953214,2.5079032332632276,0.8763191901759968,-0.6090851748156966,-0.05753196718556838,-0.666603097082616,-2.5945565370258534,-0.05562143941554,2.507976027223799,0.8763108487046415,0.0009951838179897863,-0.0014368698825845331,-0.0006464286793596187,-0.00021207120927770444,-0.00014424349262053226,0.00045378834013483165,-0.0015720102484849186,0.0,0.0,0.0,0.0,0.0,0.0,0.0,-0.00016393385435409247,-4.2256561287652705e-05,-8.89259774505824e-05,0.00023498033222324466,0.0001634892539921426,7.279396057136012e-05,-8.341471355310937e-06,-0.0009951838179897863,0.0014368698825845331,0.0006464286793596187,0.00021207120927770444,0.00014424349262053226,-0.00045378834013483165,0.0015720102484849186,0.12130087614059448,18.253320693969727,-0.9180634021759033,-18.245882034301758,-0.6539817452430725,-2.2625765800476074,0.20724813640117645,0
20,0.09500885009765625,-0.12130087614059448,-18.253320693969727,0.9180634021759033,18.245882034301758,0.6539817452430725,2.2625765800476074,-0.20724813640117645,0.0,0.0,0.0,0.0,0.0,0.0,0.0,-0.061098786368244014,0.3515030600695009,0.10179934590405529,0.6299073953554897,0.22510432779778553,0.09156650542800628,-0.23087150822162203,-0.6089212409613425,-0.05748971062428073,-0.6665141711051654,-2.5947915173580767,-0.05578492866953214,2.5079032332632276,0.8763191901759968,-0.6090851748156966,-0.05753196718556838,-0.666603097082616,-2.5945565370258534,-0.05562143941554,2.507976027223799,0.8763108487046415,0.0009951838179897863,-0.0014368698825845331,-0.0006464286793596187,-0.00021207120927770444,-0.00014424349262053226,0.00045378834013483165,-0.0015720102484849186,0.0,0.0,0.0,0.0,0.0,0.0,0.0,-0.00016393385435409247,-4.2256561287652705e-05,-8.89259774505824e-05,0.00023498033222324466,0.0001634892539921426,7.279396057136012e-05,-8.341471355310937e-06,-0.0009951838179897863,0.0014368698825845331,0.0006464286793596187,0.00021207120927770444,0.00014424349262053226,-0.00045378834013483165,0.0015720102484849186,0.12130087614059448,18.253320693969727,-0.9180634021759033,-18.245882034301758,-0.6539817452430725,-2.2625765800476074,0.20724813640117645,0
21,0.10000467300415039,-0.04592245817184448,-18.328699111938477,0.9180634021759033,18.269685745239258,0.6539817452430725,2.2818026542663574,-0.25485557317733765,0.0,0.0,0.0,0.0,0.0,0.0,0.0,-0.054945307714410356,0.35509359394763557,0.10528347370107909,0.6313547792529941,0.22444898293008156,0.09197107532424456,-0.23098546694959096,-0.6089265393416776,-0.05748442091073906,-0.6665120653357864,-2.594793187793932,-0.05578492866953214,2.5079042759471473,0.8763244798911941,-0.6090851748156966,-0.05753196718556838,-0.666603097082616,-2.5945565370258534,-0.05562143941554,2.507976027223799,0.8763108487046415,-0.000741371231083645,0.0006790064268282875,0.00019530673347094827,-0.0006040734522077454,-9.370712127481798e-05,-0.00014224437481787555,0.0009469097913971432,0.0,0.0,0.0,0.0,0.0,0.0,0.0,-0.00015863547401895328,-4.75462748293215e-05,-9.103174682956183e-05,0.00023665076807866114,0.0001634892539921426,7.175127665171033e-05,-1.3631186552620633e-05,0.000741371231083645,-0.0006790064268282875,-0.00019530673347094827,0.0006040734522077454,9.370712127481798e-05,0.00014224437481787555,-0.0009469097913971432,0.04592245817184448,18.328699111938477,-0.9180634021759033,-18.269685745239258,-0.6539817452430725,-2.2818026542663574,0.25485557317733765,0
22,0.10500264167785645,-0.04592245817184448,-18.328699111938477,0.9180634021759033,18.269685745239258,0.6539817452430725,2.2818026542663574,-0.25485557317733765,0.0,0.0,0.0,0.0,0.0,0.0,0.0,-0.054945307714410356,0.35509359394763557,0.10528347370107909,0.6313547792529941,0.22444898293008156,0.09197107532424456,-0.23098546694959096,-0.6089265393416776,-0.05748442091073906,-0.6665120653357864,-2.594793187793932,-0.05578492866953214,2.5079042759471473,0.8763244798911941,-0.6090851748156966,-0.05753196718556838,-0.666603097082616,-2.5945565370258534,-0.05562143941554,2.507976027223799,0.8763108487046415,-0.000741371231083645,0.0006790064268282875,0.00019530673347094827,-0.0006040734522077454,-9.370712127481798e-05,-0.00014224437481787555,0.0009469097913971432,0.0,0.0,0.0,0.0,0.0,0.0,0.0,-0.00015863547401895328,-4.75462748293215e-05,-9.103174682956183e-05,0.00023665076807866114,0.0001634892539921426,7.175127665171033e-05,-1.3631186552620633e-05,0.000741371231083645,-0.0006790064268282875,-0.00019530673347094827,0.0006040734522077454,9.370712127481798e-05,0.00014224437481787555,-0.0009469097913971432,0.04592245817184448,18.328699111938477,-0.9180634021759033,-18.269685745239258,-0.6539817452430725,-2.2818026542663574,0.25485557317733765,0
23,0.11109399795532227,-0.09352988004684448,-18.304895401000977,0.9180634021759033,18.269685745239258,0.6475730538368225,2.2753939628601074,-0.22830526530742645,0.0,0.0,0.0,0.0,0.0,0.0,0.0,-0.05855289469457445,0.35660946586769665,0.1025780540944007,0.6308828260150425,0.2243466159297601,0.09269914352988504,-0.23154723855978182,-0.6089231898032226,-0.057486091346594326,-0.6665120649672411,-2.594793187793932,-0.055784216592709227,2.5079018091275267,0.8763215298569863,-0.6090851748156966,-0.05753196718556838,-0.666603097082616,-2.5945565370258534,-0.05562143941554,2.507976027223799,0.8763108487046415,0.0008437193181981401,-0.00011216126701434328,-6.769126761499547e-05,-0.0002718722645052913,2.5413327811224623e-05,0.0002238402733429491,0.0003690135699830228,0.0,0.0,0.0,0.0,0.0,0.0,0.0,-0.00016198501247399744,-4.587583897405767e-05,-9.103211537486722e-05,0.00023665076807866114,0.00016277717716922657,7.421809627228271e-05,-1.0681152344815814e-05,-0.0008437193181981401,0.00011216126701434328,6.769126761499547e-05,0.0002718722645052913,-2.5413327811224623e-05,-0.0002238402733429491,-0.0003690135699830228,0.09352988004684448,18.304895401000977,-0.9180634021759033,-18.269685745239258,-0.6475730538368225,-2.2753939628601074,0.22830526530742645,0
24,0.11500263214111328,-0.09352988004684448,-18.304895401000977,0.9180634021759033,18.269685745239258,0.6475730538368225,2.2753939628601074,-0.22830526530742645,0.0,0.0,0.0,0.0,0.0,0.0,0.0,-0.05855289469457445,0.35660946586769665,0.1025780540944007,0.6308828260150425,0.2243466159297601,0.09269914352988504,-0.23154723855978182,-0.6089231898032226,-0.057486091346594326,-0.6665120649672411,-2.594793187793932,-0.055784216592709227,2.5079018091275267,0.8763215298569863,-0.6090851748156966,-0.05753196718556838,-0.666603097082616,-2.5945565370258534,-0.05562143941554,2.507976027223799,0.8763108487046415,0.0008437193181981401,-0.00011216126701434328,-6.769126761499547e-05,-0.0002718722645052913,2.5413327811224623e-05,0.0002238402733429491,0.0003690135699830228,0.0,0.0,0.0,0.0,0.0,0.0,0.0,-0.00016198501247399744,-4.587583897405767e-05,-9.103211537486722e-05,0.00023665076807866114,0.00016277717716922657,7.421809627228271e-05,-1.0681152344815814e-05,-0.0008437193181981401,0.00011216126701434328,6.769126761499547e-05,0.0002718722645052913,-2.5413327811224623e-05,-0.0002238402733429491,-0.0003690135699830228,0.09352988004684448,18.304895401000977,-0.9180634021759033,-18.269685745239258,-0.6475730538368225,-2.2753939628601074,0.22830526530742645,0
25,0.11999654769897461,-0.06972616910934448,-18.304895401000977,0.8942596912384033,18.198274612426758,0.6539817452430725,2.2882113456726074,-0.21457235515117645,0.0,0.0,0.0,0.0,0.0,0.0,0.0,-0.060537877358311176,0.3564371134263449,0.10257704055355069,0.629447201215923,0.2242288184829309,0.09285335129258313,-0.23105123557858973,-0.6089248602390289,-0.057486091346594326,-0.6665104725325238,-2.5947881764863663,-0.05578492866953214,2.507900384955936,0.8763200039780801,-0.6090851748156966,-0.05753196718556838,-0.666603097082616,-2.5945565370258534,-0.05562143941554,2.507976027223799,0.8763108487046415,0.0004738050775170024,-0.0003247623014667902,0.0006780868815835717,0.0012571591331819337,-0.00014137516074783527,-0.0003177284258690987,-0.0003042632220876403,0.0,0.0,0.0,0.0,0.0,0.0,0.0,-0.0001603145766676528,-4.587583897405767e-05,-9.262455009217962e-05,0.00023163946051285578,0.0001634892539921426,7.564226786316297e-05,-9.155273438588019e-06,-0.0004738050775170024,0.0003247623014667902,-0.0006780868815835717,-0.0012571591331819337,0.00014137516074783527,0.0003177284258690987,0.0003042632220876403,0.06972616910934448,18.304895401000977,-0.8942596912384033,-18.198274612426758,-0.6539817452430725,-2.2882113456726074,0.21457235515117645,0
26,0.1249997615814209,-0.06972616910934448,-18.304895401000977,0.8942596912384033,18.198274612426758,0.6539817452430725,2.2882113456726074,-0.21457235515117645,0.0,0.0,0.0,0.0,0.0,0.0,0.0,-0.060537877358311176,0.3564371134263449,0.10257704055355069,0.629447201215923,0.2242288184829309,0.09285335129258313,-0.23105123557858973,-0.6089248602390289,-0.057486091346594326,-0.6665104725325238,-2.5947881764863663,-0.05578492866953214,2.507900384955936,0.8763200039780801,-0.6090851748156966,-0.05753196718556838,-0.666603097082616,-2.5945565370258534,-0.05562143941554,2.507976027223799,0.8763108487046415,0.0004738050775170024,-0.0003247623014667902,0.0006780868815835717,0.0012571591331819337,-0.00014137516074783527,-0.0003177284258690987,-0.0003042632220876403,0.0,0.0,0.0,0.0,0.0,0.0,0.0,-0.0001603145766676528,-4.587583897405767e-05,-9.262455009217962e-05,0.00023163946051285578,0.0001634892539921426,7.564226786316297e-05,-9.155273438588019e-06,-0.0004738050775170024,0.0003247623014667902,-0.0006780868815835717,-0.0012571591331819337,0.00014137516074783527,0.0003177284258690987,0.0003042632220876403,0.06972616910934448,18.304895401000977,-0.8942596912384033,-18.198274612426758,-0.6539817452430725,-2.2882113456726074,0.21457235515117645,0
27,0.12999796867370605,-0.018151462078094482,-18.277124404907227,0.9180634021759033,18.269685745239258,0.6475730538368225,2.2753939628601074,-0.18710653483867645,0.0,0.0,0.0,0.0,0.0,0.0,0.0,-0.059917001636386566,0.35495370291593586,0.10285777040598426,0.6311999127167337,0.22466391462666938,0.09317076589169078,-0.22926913622582892,-0.6089284795167154,-0.05748804018842547,-0.6665120649676795,-2.594793187793932,-0.055784216592709227,2.507901809109582,0.8763169522202676,-0.6090851748156966,-0.05753196718556838,-0.666603097082616,-2.5945565370258534,-0.05562143941554,2.507976027223799,0.8763108487046415,-0.0009182753288086294,-0.0007847236811474445,-8.973706562634759e-06,-0.0003015952860784589,-1.1433307778068882e-05,-0.00036172123625925035,-0.0017400343674517965,0.0,0.0,0.0,0.0,0.0,0.0,0.0,-0.00015669529898121315,-4.3926997142916535e-05,-9.103211493655117e-05,0.00023665076807866114,0.00016277717716922657,7.42181142170395e-05,-6.1035156261324275e-06,0.0009182753288086294,0.0007847236811474445,8.973706562634759e-06,0.0003015952860784589,1.1433307778068882e-05,0.00036172123625925035,0.0017400343674517965,0.018151462078094482,18.277124404907227,-0.9180634021759033,-18.269685745239258,-0.6475730538368225,-2.2753939628601074,0.18710653483867645,0
28,0.13499975204467773,-0.018151462078094482,-18.277124404907227,0.9180634021759033,18.269685745239258,0.6475730538368225,2.2753939628601074,-0.18710653483867645,0.0,0.0,0.0,0.0,0.0,0.0,0.0,-0.059917001636386566,0.35495370291593586,0.10285777040598426,0.6311999127167337,0.22466391462666938,0.09317076589169078,-0.22926913622582892,-0.6089284795167154,-0.05748804018842547,-0.6665120649676795,-2.594793187793932,-0.055784216592709227,2.507901809109582,0.8763169522202676,-0.6090851748156966,-0.05753196718556838,-0.666603097082616,-2.5945565370258534,-0.05562143941554,2.507976027223799,0.8763108487046415,-0.0009182753288086294,-0.0007847236811474445,-8.973706562634759e-06,-0.0003015952860784589,-1.1433307778068882e-05,-0.00036172123625925035,-0.0017400343674517965,0.0,0.0,0.0,0.0,0.0,0.0,0.0,-0.00015669529898121315,-4.3926997142916535e-05,-9.103211493655117e-05,0.00023665076807866114,0.00016277717716922657,7.42181142170395e-05,-6.1035156261324275e-06,0.0009182753288086294,0.0007847236811474445,8.973706562634759e-06,0.0003015952860784589,1.1433307778068882e-05,0.00036172123625925035,0.0017400343674517965,0.018151462078094482,18.277124404907227,-0.9180634021759033,-18.269685745239258,-0.6475730538368225,-2.2753939628601074,0.18710653483867645,0
29,0.1412057876586914,-0.06972616910934448,-18.277124404907227,0.8942596912384033,18.269685745239258,0.6475730538368225,2.2689852714538574,-0.26217979192733765,0.0,0.0,0.0,0.0,0.0,0.0,0.0,-0.062135492427245045,0.3524971314181857,0.10092988413204243,0.6323090739389859,0.2247752700036581,0.09276670593648116,-0.22831374361702614,-0.6089248602390289,-0.05748804018842547,-0.6665103945313838,-2.594793187793932,-0.055784216592709227,2.5079025211864048,0.8763252936932775,-0.6090851748156966,-0.05753196718556838,-0.666603097082616,-2.5945565370258534,-0.05562143941554,2.507976027223799,0.8763108487046415,0.0005244085245612322,-0.0010665094847232685,0.00034266437019975227,-0.0004254357136239914,0.00014603941612870535,-1.0789669954746822e-05,0.0014495353831985008,0.0,0.0,0.0,0.0,0.0,0.0,0.0,-0.0001603145766676528,-4.3926997142916535e-05,-9.270255123217108e-05,0.00023665076807866114,0.00016277717716922657,7.350603739419981e-05,-1.4444988636008738e-05,-0.0005244085245612322,0.0010665094847232685,-0.00034266437019975227,0.0004254357136239914,-0.00014603941612870535,1.0789669954746822e-05,-0.0014495353831985008,0.06972616910934448,18.277124404907227,-0.8942596912384033,-18.269685745239258,-0.6475730538368225,-2.2689852714538574,0.26217979192733765,0
30,0.14509820938110352,-0.06972616910934448,-18.277124404907227,0.8942596912384033,18.269685745239258,0.6475730538368225,2.2689852714538574,-0.26217979192733765,0.0,0.0,0.0,0.0,0.0,0.0,0.0,-0.062135492427245045,0.3524971314181857,0.10092988413204243,0.6323090739389859,0.2247752700036581,0.09276670593648116,-0.22831374361702614,-0.6089248602390289,-0.05748804018842547,-0.6665103945313838,-2.594793187793932,-0.055784216592709227,2.5079025211864048,0.8763252936932775,-0.6090851748156966,-0.05753196718556838,-0.666603097082616,-2.5945565370258534,-0.05562143941554,2.507976027223799,0.8763108487046415,0.0005244085245612322,-0.0010665094847232685,0.00034266437019975227,-0.0004254357136239914,0.00014603941612870535,-1.0789669954746822e-05,0.0014495353831985008,0.0,0.0,0.0,0.0,0.0,0.0,0.0,-0.0001603145766676528,-4.3926997142916535e-05,-9.270255123217108e-05,0.00023665076807866114,0.00016277717716922657,7.350603739419981e-05,-1.4444988636008738e-05,-0.0005244085245612322,0.0010665094847232685,-0.00034266437019975227,0.0004254357136239914,-0.00014603941612870535,1.0789669954746822e-05,-0.0014495353831985008,0.06972616910934448,18.277124404907227,-0.8942596912384033,-18.269685745239258,-0.6475730538368225,-2.2689852714538574,0.26217979192733765,0
31,0.15009784698486328,-0.06972616910934448,-18.328699111938477,0.9180634021759033,18.269685745239258,0.6420798897743225,2.2753939628601074,-0.23471395671367645,0.0,0.0,0.0,0.0,0.0,0.0,0.0,-0.05830892205601003,0.35613992997841987,0.10472504705431776,0.6291989088864376,0.22487671450975957,0.0920457659400516,-0.22801132710383473,-0.6089248602390289,-0.05748442091073906,-0.6665120649672391,-2.594793187793932,-0.05578360559209616,2.507901809109582,0.8763222419338093,-0.6090851748156966,-0.05753196718556838,-0.666603097082616,-2.5945565370258534,-0.05562143941554,2.507976027223799,0.8763108487046415,0.0001316091812747328,0.00022541691918059572,5.693737554142887e-05,-0.00033244825674842054,0.0003737472685203551,0.00030524743244925926,0.00013936209242408114,0.0,0.0,0.0,0.0,0.0,0.0,0.0,-0.0001603145766676528,-4.75462748293215e-05,-9.103211537686562e-05,0.00023665076807866114,0.0001621661765561569,7.42181142170395e-05,-1.1393229167766528e-05,-0.0001316091812747328,-0.00022541691918059572,-5.693737554142887e-05,0.00033244825674842054,-0.0003737472685203551,-0.00030524743244925926,-0.00013936209242408114,0.06972616910934448,18.328699111938477,-0.9180634021759033,-18.269685745239258,-0.6420798897743225,-2.2753939628601074,0.23471395671367645,0
32,0.15501165390014648,-0.06972616910934448,-18.328699111938477,0.9180634021759033,18.269685745239258,0.6420798897743225,2.2753939628601074,-0.23471395671367645,0.0,0.0,0.0,0.0,0.0,0.0,0.0,-0.05830892205601003,0.35613992997841987,0.10472504705431776,0.6291989088864376,0.22487671450975957,0.0920457659400516,-0.22801132710383473,-0.6089248602390289,-0.05748442091073906,-0.6665120649672391,-2.594793187793932,-0.05578360559209616,2.507901809109582,0.8763222419338093,-0.6090851748156966,-0.05753196718556838,-0.666603097082616,-2.5945565370258534,-0.05562143941554,2.507976027223799,0.8763108487046415,0.0001316091812747328,0.00022541691918059572,5.693737554142887e-05,-0.00033244825674842054,0.0003737472685203551,0.00030524743244925926,0.00013936209242408114,0.0,0.0,0.0,0.0,0.0,0.0,0.0,-0.0001603145766676528,-4.75462748293215e-05,-9.103211537686562e-05,0.00023665076807866114,0.0001621661765561569,7.42181142170395e-05,-1.1393229167766528e-05,-0.0001316091812747328,-0.00022541691918059572,-5.693737554142887e-05,0.00033244825674842054,-0.0003737472685203551,-0.00030524743244925926,-0.00013936209242408114,0.06972616910934448,18.328699111938477,-0.9180634021759033,-18.269685745239258,-0.6420798897743225,-2.2753939628601074,0.23471395671367645,0
33,0.16000127792358398,-0.04592245817184448,-18.277124404907227,0.8942596912384033,18.245882034301758,0.6475730538368225,2.2882113456726074,-0.25485557317733765,0.0,0.0,0.0,0.0,0.0,0.0,0.0,-0.05840489437656568,0.35453584469525995,0.10522680132991125,0.6321099997728142,0.22506764591566897,0.09378070939655331,-0.2287551110877651,-0.6089265306748842,-0.05748804018842547,-0.6665103945313838,-2.5947915173580767,-0.05578421659270556,2.507900384955936,0.8763244798911941,-0.6090851748156966,-0.05753196718556838,-0.666603097082616,-2.5945565370258534,-0.05562143941554,2.507976027223799,0.8763108487046415,-0.000308337068088631,-0.001059866667160672,0.0004448517849195028,0.0007655837537985938,0.00010840744344411295,-0.00038517548721900784,0.0007300543438948739,0.0,0.0,0.0,0.0,0.0,0.0,0.0,-0.00015864414081234735,-4.3926997142916535e-05,-9.270255123217108e-05,0.00023498033222324466,0.00016277717716556284,7.564226786316297e-05,-1.3631186552620633e-05,0.000308337068088631,0.001059866667160672,-0.0004448517849195028,-0.0007655837537985938,-0.00010840744344411295,0.00038517548721900784,-0.0007300543438948739,0.04592245817184448,18.277124404907227,-0.8942596912384033,-18.245882034301758,-0.6475730538368225,-2.2882113456726074,0.25485557317733765,0
34,0.16500258445739746,-0.04592245817184448,-18.277124404907227,0.8942596912384033,18.245882034301758,0.6475730538368225,2.2882113456726074,-0.25485557317733765,0.0,0.0,0.0,0.0,0.0,0.0,0.0,-0.05840489437656568,0.35453584469525995,0.10522680132991125,0.6321099997728142,0.22506764591566897,0.09378070939655331,-0.2287551110877651,-0.6089265306748842,-0.05748804018842547,-0.6665103945313838,-2.5947915173580767,-0.05578421659270556,2.507900384955936,0.8763244798911941,-0.6090851748156966,-0.05753196718556838,-0.666603097082616,-2.5945565370258534,-0.05562143941554,2.507976027223799,0.8763108487046415,-0.000308337068088631,-0.001059866667160672,0.0004448517849195028,0.0007655837537985938,0.00010840744344411295,-0.00038517548721900784,0.0007300543438948739,0.0,0.0,0.0,0.0,0.0,0.0,0.0,-0.00015864414081234735,-4.3926997142916535e-05,-9.270255123217108e-05,0.00023498033222324466,0.00016277717716556284,7.564226786316297e-05,-1.3631186552620633e-05,0.000308337068088631,0.001059866667160672,-0.0004448517849195028,-0.0007655837537985938,-0.00010840744344411295,0.00038517548721900784,-0.0007300543438948739,0.04592245817184448,18.277124404907227,-0.8942596912384033,-18.245882034301758,-0.6475730538368225,-2.2882113456726074,0.25485557317733765,0
35,0.17000246047973633,-0.04592245817184448,-18.277124404907227,0.8942596912384033,18.245882034301758,0.6475730538368225,2.2882113456726074,-0.25485557317733765,0.0,0.0,0.0,0.0,0.0,0.0,0.0,-0.05840489437656568,0.35453584469525995,0.10522680132991125,0.6321099997728142,0.22506764591566897,0.09378070939655331,-0.2287551110877651,-0.6089265306748842,-0.05748804018842547,-0.6665103945313838,-2.5947915173580767,-0.05578421659270556,2.507900384955936,0.8763244798911941,-0.6090851748156966,-0.05753196718556838,-0.666603097082616,-2.5945565370258534,-0.05562143941554,2.507976027223799,0.8763108487046415,-0.000308337068088631,-0.001059866667160672,0.0004448517849195028,0.0007655837537985938,0.00010840744344411295,-0.00038517548721900784,0.0007300543438948739,0.0,0.0,0.0,0.0,0.0,0.0,0.0,-0.00015864414081234735,-4.3926997142916535e-05,-9.270255123217108e-05,0.00023498033222324466,0.00016277717716556284,7.564226786316297e-05,-1.3631186552620633e-05,0.000308337068088631,0.001059866667160672,-0.0004448517849195028,-0.0007655837537985938,-0.00010840744344411295,0.00038517548721900784,-0.0007300543438948739,0.04592245817184448,18.277124404907227,-0.8942596912384033,-18.245882034301758,-0.6475730538368225,-2.2882113456726074,0.25485557317733765,0
36,0.17500519752502441,-0.04592245817184448,-18.277124404907227,0.8942596912384033,18.245882034301758,0.6475730538368225,2.2882113456726074,-0.25485557317733765,0.0,0.0,0.0,0.0,0.0,0.0,0.0,-0.05840489437656568,0.35453584469525995,0.10522680132991125,0.6321099997728142,0.22506764591566897,0.09378070939655331,-0.2287551110877651,-0.6089265306748842,-0.05748804018842547,-0.6665103945313838,-2.5947915173580767,-0.05578421659270556,2.507900384955936,0.8763244798911941,-0.6090851748156966,-0.05753196718556838,-0.666603097082616,-2.5945565370258534,-0.05562143941554,2.507976027223799,0.8763108487046415,-0.000308337068088631,-0.001059866667160672,0.0004448517849195028,0.0007655837537985938,0.00010840744344411295,-0.00038517548721900784,0.0007300543438948739,0.0,0.0,0.0,0.0,0.0,0.0,0.0,-0.00015864414081234735,-4.3926997142916535e-05,-9.270255123217108e-05,0.00023498033222324466,0.00016277717716556284,7.564226786316297e-05,-1.3631186552620633e-05,0.000308337068088631,0.001059866667160672,-0.0004448517849195028,-0.0007655837537985938,-0.00010840744344411295,0.00038517548721900784,-0.0007300543438948739,0.04592245817184448,18.277124404907227,-0.8942596912384033,-18.245882034301758,-0.6475730538368225,-2.2882113456726074,0.25485557317733765,0
37,0.17999911308288574,-0.09352988004684448,-18.304895401000977,0.9180634021759033,18.269685745239258,0.6658836007118225,2.2818026542663574,-0.21457235515117645,0.0,0.0,0.0,0.0,0.0,0.0,0.0,-0.058967500253839907,0.3655055170808304,0.10360153612736075,0.6236665260392553,0.22475105594219633,0.09286845992793101,-0.23049171496026685,-0.6089231898031736,-0.057486091346594326,-0.6665120649672391,-2.594793111264512,-0.05578625109791756,2.507901097032759,0.8763200039780801,-0.6090851748156966,-0.05753196718556838,-0.666603097082616,-2.5945565370258534,-0.05562143941554,2.507976027223799,0.8763108487046415,0.0008026994677703842,0.0008515429420603063,0.00013460273282879764,-0.0007825237976896349,-0.0005205507085472765,-0.0004043402704828214,-0.000988445454150893,0.0,0.0,0.0,0.0,0.0,0.0,0.0,-0.00016198501252295827,-4.587583897405767e-05,-9.103211537686562e-05,0.00023657423865852678,0.00016481168237755806,7.493019103987919e-05,-9.155273438588019e-06,-0.0008026994677703842,-0.0008515429420603063,-0.00013460273282879764,0.0007825237976896349,0.0005205507085472765,0.0004043402704828214,0.000988445454150893,0.09352988004684448,18.304895401000977,-0.9180634021759033,-18.269685745239258,-0.6658836007118225,-2.2818026542663574,0.21457235515117645,0
38,0.1849989891052246,-0.09352988004684448,-18.304895401000977,0.9180634021759033,18.269685745239258,0.6658836007118225,2.2818026542663574,-0.21457235515117645,0.0,0.0,0.0,0.0,0.0,0.0,0.0,-0.058967500253839907,0.3655055170808304,0.10360153612736075,0.6236665260392553,0.22475105594219633,0.09286845992793101,-0.23049171496026685,-0.6089231898031736,-0.057486091346594326,-0.6665120649672391,-2.594793111264512,-0.05578625109791756,2.507901097032759,0.8763200039780801,-0.6090851748156966,-0.05753196718556838,-0.666603097082616,-2.5945565370258534,-0.05562143941554,2.507976027223799,0.8763108487046415,0.0008026994677703842,0.0008515429420603063,0.00013460273282879764,-0.0007825237976896349,-0.0005205507085472765,-0.0004043402704828214,-0.000988445454150893,0.0,0.0,0.0,0.0,0.0,0.0,0.0,-0.00016198501252295827,-4.587583897405767e-05,-9.103211537686562e-05,0.00023657423865852678,0.00016481168237755806,7.493019103987919e-05,-9.155273438588019e-06,-0.0008026994677703842,-0.0008515429420603063,-0.00013460273282879764,0.0007825237976896349,0.0005205507085472765,0.0004043402704828214,0.000988445454150893,0.09352988004684448,18.304895401000977,-0.9180634021759033,-18.269685745239258,-0.6658836007118225,-2.2818026542663574,0.21457235515117645,0
39,0.18999648094177246,-0.06972616910934448,-18.277124404907227,0.9418671131134033,18.245882034301758,0.6475730538368225,2.2753939628601074,-0.26217979192733765,0.0,0.0,0.0,0.0,0.0,0.0,0.0,-0.060933676395948023,0.36138709125641877,0.1022362018220266,0.6284739764184992,0.22531299198072394,0.09338030276381237,-0.22966767963375553,-0.6089248602390289,-0.05748804018842547,-0.6665137354030943,-2.594791517357645,-0.05578421221161794,2.507901809109582,0.8763252922397273,-0.6090851748156966,-0.05753196718556838,-0.666603097082616,-2.5945565370258534,-0.05562143941554,2.507976027223799,0.8763108487046415,-1.6510093618017767e-05,-0.0003256295689987989,-0.000901258295414384,-5.819415748107476e-05,-3.752561115709828e-05,-0.0001381565814410776,0.0008849095964880355,0.0,0.0,0.0,0.0,0.0,0.0,0.0,-0.0001603145766676528,-4.3926997142916535e-05,-8.936167952167118e-05,0.00023498033179158995,0.0001627727960779382,7.42181142170395e-05,-1.444353508583962e-05,1.6510093618017767e-05,0.0003256295689987989,0.000901258295414384,5.819415748107476e-05,3.752561115709828e-05,0.0001381565814410776,-0.0008849095964880355,0.06972616910934448,18.277124404907227,-0.9418671131134033,-18.245882034301758,-0.6475730538368225,-2.2753939628601074,0.26217979192733765,0
40,0.19499778747558594,-0.06972616910934448,-18.277124404907227,0.9418671131134033,18.245882034301758,0.6475730538368225,2.2753939628601074,-0.26217979192733765,0.0,0.0,0.0,0.0,0.0,0.0,0.0,-0.060933676395948023,0.36138709125641877,0.1022362018220266,0.6284739764184992,0.22531299198072394,0.09338030276381237,-0.22966767963375553,-0.6089248602390289,-0.05748804018842547,-0.6665137354030943,-2.594791517357645,-0.05578421221161794,2.507901809109582,0.8763252922397273,-0.6090851748156966,-0.05753196718556838,-0.666603097082616,-2.5945565370258534,-0.05562143941554,2.507976027223799,0.8763108487046415,-1.6510093618017767e-05,-0.0003256295689987989,-0.000901258295414384,-5.819415748107476e-05,-3.752561115709828e-05,-0.0001381565814410776,0.0008849095964880355,0.0,0.0,0.0,0.0,0.0,0.0,0.0,-0.0001603145766676528,-4.3926997142916535e-05,-8.936167952167118e-05,0.00023498033179158995,0.0001627727960779382,7.42181142170395e-05,-1.444353508583962e-05,1.6510093618017767e-05,0.0003256295689987989,0.000901258295414384,5.819415748107476e-05,3.752561115709828e-05,0.0001381565814410776,-0.0008849095964880355,0.06972616910934448,18.277124404907227,-0.9418671131134033,-18.245882034301758,-0.6475730538368225,-2.2753939628601074,0.26217979192733765,0
41,0.19999980926513672,-0.09352988004684448,-18.328699111938477,0.8942596912384033,18.269685745239258,0.6420798897743225,2.2818026542663574,-0.23471395671367645,0.0,0.0,0.0,0.0,0.0,0.0,0.0,-0.06339590656004894,0.36121693315569015,0.10140092313413292,0.6312997387138702,0.22498047762944606,0.09314544866303903,-0.2299364224286901,-0.6089231898031736,-0.05748442091073906,-0.6665103945313838,-2.594793187793932,-0.05578360624107252,2.507901097032759,0.8763222419337847,-0.6090851748156966,-0.05753196718556838,-0.666603097082616,-2.5945565370258534,-0.05562143941554,2.507976027223799,0.8763108487046415,0.0005101034287590484,0.0006573430005121907,0.00017851805754825177,-2.1518684691127782e-05,0.0002733195670378649,-0.00034126815255426706,0.0004009434811454173,0.0,0.0,0.0,0.0,0.0,0.0,0.0,-0.00016198501252295827,-4.75462748293215e-05,-9.270255123217108e-05,0.00023665076807866114,0.0001621668255325226,7.493019103987919e-05,-1.1393229143230599e-05,-0.0005101034287590484,-0.0006573430005121907,-0.00017851805754825177,2.1518684691127782e-05,-0.0002733195670378649,0.00034126815255426706,-0.0004009434811454173,0.09352988004684448,18.328699111938477,-0.8942596912384033,-18.269685745239258,-0.6420798897743225,-2.2818026542663574,0.23471395671367645,0
42,0.20499730110168457,-0.09352988004684448,-18.328699111938477,0.8942596912384033,18.269685745239258,0.6420798897743225,2.2818026542663574,-0.23471395671367645,0.0,0.0,0.0,0.0,0.0,0.0,0.0,-0.06339590656004894,0.36121693315569015,0.10140092313413292,0.6312997387138702,0.22498047762944606,0.09314544866303903,-0.2299364224286901,-0.6089231898031736,-0.05748442091073906,-0.6665103945313838,-2.594793187793932,-0.05578360624107252,2.507901097032759,0.8763222419337847,-0.6090851748156966,-0.05753196718556838,-0.666603097082616,-2.5945565370258534,-0.05562143941554,2.507976027223799,0.8763108487046415,0.0005101034287590484,0.0006573430005121907,0.00017851805754825177,-2.1518684691127782e-05,0.0002733195670378649,-0.00034126815255426706,0.0004009434811454173,0.0,0.0,0.0,0.0,0.0,0.0,0.0,-0.00016198501252295827,-4.75462748293215e-05,-9.270255123217108e-05,0.00023665076807866114,0.0001621668255325226,7.493019103987919e-05,-1.1393229143230599e-05,-0.0005101034287590484,-0.0006573430005121907,-0.00017851805754825177,2.1518684691127782e-05,-0.0002733195670378649,0.00034126815255426706,-0.0004009434811454173,0.09352988004684448,18.328699111938477,-0.8942596912384033,-18.269685745239258,-0.6420798897743225,-2.2818026542663574,0.23471395671367645,0
43,0.20499730110168457,-0.09352988004684448,-18.328699111938477,0.8942596912384033,18.269685745239258,0.6420798897743225,2.2818026542663574,-0.23471395671367645,0.0,0.0,0.0,0.0,0.0,0.0,0.0,-0.06339590656004894,0.36121693315569015,0.10140092313413292,0.6312997387138702,0.22498047762944606,0.09314544866303903,-0.2299364224286901,-0.6089231898031736,-0.05748442091073906,-0.6665103945313838,-2.594793187793932,-0.05578360624107252,2.507901097032759,0.8763222419337847,-0.6090851748156966,-0.05753196718556838,-0.666603097082616,-2.5945565370258534,-0.05562143941554,2.507976027223799,0.8763108487046415,0.0005101034287590484,0.0006573430005121907,0.00017851805754825177,-2.1518684691127782e-05,0.0002733195670378649,-0.00034126815255426706,0.0004009434811454173,0.0,0.0,0.0,0.0,0.0,0.0,0.0,-0.00016198501252295827,-4.75462748293215e-05,-9.270255123217108e-05,0.00023665076807866114,0.0001621668255325226,7.493019103987919e-05,-1.1393229143230599e-05,-0.0005101034287590484,-0.0006573430005121907,-0.00017851805754825177,2.1518684691127782e-05,-0.0002733195670378649,0.00034126815255426706,-0.0004009434811454173,0.09352988004684448,18.328699111938477,-0.8942596912384033,-18.269685745239258,-0.6420798897743225,-2.2818026542663574,0.23471395671367645,0
44,0.21500205993652344,-0.04592245817184448,-18.328699111938477,0.9418671131134033,18.198274612426758,0.6594749093055725,2.2753939628601074,-0.24844686686992645,0.0,0.0,0.0,0.0,0.0,0.0,0.0,-0.0590997610442737,0.35570548978752875,0.10688498864693737,0.6274269154217709,0.22381496932838205,0.09204582465523863,-0.23093093961239747,-0.6089265306748842,-0.05748442091073906,-0.6665137354030943,-2.594788175541559,-0.05578553902109464,2.507901809109582,0.8763237678107216,-0.6090851748156966,-0.05753196718556838,-0.666603097082616,-2.5945565370258534,-0.05562143941554,2.507976027223799,0.8763108487046415,-0.00020047124904529066,-0.0006946303733887529,-0.0005361302772006704,0.0009573718738749882,-0.0005282229409633751,-8.90403570069774e-06,0.00104051532212792,0.0,0.0,0.0,0.0,0.0,0.0,0.0,-0.00015864414081234735,-4.75462748293215e-05,-8.936167952167118e-05,0.0002316385157055123,0.00016409960555464204,7.42181142170395e-05,-1.2919106080144793e-05,0.00020047124904529066,0.0006946303733887529,0.0005361302772006704,-0.0009573718738749882,0.0005282229409633751,8.90403570069774e-06,-0.00104051532212792,0.04592245817184448,18.328699111938477,-0.9418671131134033,-18.198274612426758,-0.6594749093055725,-2.2753939628601074,0.24844686686992645,0
45,0.22004175186157227,-0.04592245817184448,-18.328699111938477,0.9418671131134033,18.198274612426758,0.6594749093055725,2.2753939628601074,-0.24844686686992645,0.0,0.0,0.0,0.0,0.0,0.0,0.0,-0.0590997610442737,0.35570548978752875,0.10688498864693737,0.6274269154217709,0.22381496932838205,0.09204582465523863,-0.23093093961239747,-0.6089265306748842,-0.05748442091073906,-0.6665137354030943,-2.594788175541559,-0.05578553902109464,2.507901809109582,0.8763237678107216,-0.6090851748156966,-0.05753196718556838,-0.666603097082616,-2.5945565370258534,-0.05562143941554,2.507976027223799,0.8763108487046415,-0.00020047124904529066,-0.0006946303733887529,-0.0005361302772006704,0.0009573718738749882,-0.0005282229409633751,-8.90403570069774e-06,0.00104051532212792,0.0,0.0,0.0,0.0,0.0,0.0,0.0,-0.00015864414081234735,-4.75462748293215e-05,-8.936167952167118e-05,0.0002316385157055123,0.00016409960555464204,7.42181142170395e-05,-1.2919106080144793e-05,0.00020047124904529066,0.0006946303733887529,0.0005361302772006704,-0.0009573718738749882,0.0005282229409633751,8.90403570069774e-06,-0.00104051532212792,0.04592245817184448,18.328699111938477,-0.9418671131134033,-18.198274612426758,-0.6594749093055725,-2.2753939628601074,0.24844686686992645,0
46,0.2250969409942627,-0.04592245817184448,-18.328699111938477,0.9418671131134033,18.198274612426758,0.6594749093055725,2.2753939628601074,-0.24844686686992645,0.0,0.0,0.0,0.0,0.0,0.0,0.0,-0.0590997610442737,0.35570548978752875,0.10688498864693737,0.6274269154217709,0.22381496932838205,0.09204582465523863,-0.23093093961239747,-0.6089265306748842,-0.05748442091073906,-0.6665137354030943,-2.594788175541559,-0.05578553902109464,2.507901809109582,0.8763237678107216,-0.6090851748156966,-0.05753196718556838,-0.666603097082616,-2.5945565370258534,-0.05562143941554,2.507976027223799,0.8763108487046415,-0.00020047124904529066,-0.0006946303733887529,-0.0005361302772006704,0.0009573718738749882,-0.0005282229409633751,-8.90403570069774e-06,0.00104051532212792,0.0,0.0,0.0,0.0,0.0,0.0,0.0,-0.00015864414081234735,-4.75462748293215e-05,-8.936167952167118e-05,0.0002316385157055123,0.00016409960555464204,7.42181142170395e-05,-1.2919106080144793e-05,0.00020047124904529066,0.0006946303733887529,0.0005361302772006704,-0.0009573718738749882,0.0005282229409633751,8.90403570069774e-06,-0.00104051532212792,0.04592245817184448,18.328699111938477,-0.9418671131134033,-18.198274612426758,-0.6594749093055725,-2.2753939628601074,0.24844686686992645,0
47,0.22999858856201172,-0.04592245817184448,-18.328699111938477,0.9418671131134033,18.198274612426758,0.6594749093055725,2.2753939628601074,-0.24844686686992645,0.0,0.0,0.0,0.0,0.0,0.0,0.0,-0.0590997610442737,0.35570548978752875,0.10688498864693737,0.6274269154217709,0.22381496932838205,0.09204582465523863,-0.23093093961239747,-0.6089265306748842,-0.05748442091073906,-0.6665137354030943,-2.594788175541559,-0.05578553902109464,2.507901809109582,0.8763237678107216,-0.6090851748156966,-0.05753196718556838,-0.666603097082616,-2.5945565370258534,-0.05562143941554,2.507976027223799,0.8763108487046415,-0.00020047124904529066,-0.0006946303733887529,-0.0005361302772006704,0.0009573718738749882,-0.0005282229409633751,-8.90403570069774e-06,0.00104051532212792,0.0,0.0,0.0,0.0,0.0,0.0,0.0,-0.00015864414081234735,-4.75462748293215e-05,-8.936167952167118e-05,0.0002316385157055123,0.00016409960555464204,7.42181142170395e-05,-1.2919106080144793e-05,0.00020047124904529066,0.0006946303733887529,0.0005361302772006704,-0.0009573718738749882,0.0005282229409633751,8.90403570069774e-06,-0.00104051532212792,0.04592245817184448,18.328699111938477,-0.9418671131134033,-18.198274612426758,-0.6594749093055725,-2.2753939628601074,0.24844686686992645,0
48,0.23499751091003418,-0.06972616910934448,-18.277124404907227,0.9418671131134033,18.222078323364258,0.6475730538368225,2.2753939628601074,-0.24844686686992645,0.0,0.0,0.0,0.0,0.0,0.0,0.0,-0.05634040085384451,0.3540309998974208,0.10733561490939181,0.6228088159348947,0.22360111684447526,0.0933685322063932,-0.2309214960808648,-0.6089248602390289,-0.05748804018842547,-0.6665139694065145,-2.594789844083911,-0.055784216592709227,2.507901809109582,0.8763237678127155,-0.6090851748156966,-0.05753196718556838,-0.666603097082616,-2.5945565370258534,-0.05562143941554,2.507976027223799,0.8763108487046415,0.00037557251108542855,-0.0006002172215641896,2.6941209037614843e-05,0.0006669950024843258,-0.00012645296918738273,4.531171866863653e-05,0.0007268988883906503,0.0,0.0,0.0,0.0,0.0,0.0,0.0,-0.0001603145766676528,-4.3926997142916535e-05,-8.912767610147476e-05,0.00023330705805735263,0.00016277717716922657,7.42181142170395e-05,-1.2919108073994323e-05,-0.00037557251108542855,0.0006002172215641896,-2.6941209037614843e-05,-0.0006669950024843258,0.00012645296918738273,-4.531171866863653e-05,-0.0007268988883906503,0.06972616910934448,18.277124404907227,-0.9418671131134033,-18.222078323364258,-0.6475730538368225,-2.2753939628601074,0.24844686686992645,0
49,0.2400047779083252,-0.06972616910934448,-18.277124404907227,0.9418671131134033,18.222078323364258,0.6475730538368225,2.2753939628601074,-0.24844686686992645,0.0,0.0,0.0,0.0,0.0,0.0,0.0,-0.05634040085384451,0.3540309998974208,0.10733561490939181,0.6228088159348947,0.22360111684447526,0.0933685322063932,-0.2309214960808648,-0.6089248602390289,-0.05748804018842547,-0.6665139694065145,-2.594789844083911,-0.055784216592709227,2.507901809109582,0.8763237678127155,-0.6090851748156966,-0.05753196718556838,-0.666603097082616,-2.5945565370258534,-0.05562143941554,2.507976027223799,0.8763108487046415,0.00037557251108542855,-0.0006002172215641896,2.6941209037614843e-05,0.0006669950024843258,-0.00012645296918738273,4.531171866863653e-05,0.0007268988883906503,0.0,0.0,0.0,0.0,0.0,0.0,0.0,-0.0001603145766676528,-4.3926997142916535e-05,-8.912767610147476e-05,0.00023330705805735263,0.00016277717716922657,7.42181142170395e-05,-1.2919108073994323e-05,-0.00037557251108542855,0.0006002172215641896,-2.6941209037614843e-05,-0.0006669950024843258,0.00012645296918738273,-4.531171866863653e-05,-0.0007268988883906503,0.06972616910934448,18.277124404907227,-0.9418671131134033,-18.222078323364258,-0.6475730538368225,-2.2753939628601074,0.24844686686992645,0
50,0.24501371383666992,-0.04592245817184448,-18.277124404907227,0.9180634021759033,18.297456741333008,0.6475730538368225,2.2625765800476074,-0.22098104655742645,0.0,0.0,0.0,0.0,0.0,0.0,0.0,-0.06108727050842551,0.3509783538288781,0.1057537876206782,0.6252322275636886,0.22367043683502125,0.09412008269193665,-0.2304096658104621,-0.6089265306748842,-0.05748804018842547,-0.6665120649685601,-2.594795136635747,-0.055784216592709227,2.5079032332632276,0.876320716054903,-0.6090851748156966,-0.05753196718556838,-0.666603097082616,-2.5945565370258534,-0.05562143941554,2.507976027223799,0.8763108487046415,-0.00029339006131278534,-0.0004516324259971589,0.00037754498798123404,-0.0013372835962925985,-0.00013149674564744683,0.00012553290341343177,0.00012258193020796014,0.0,0.0,0.0,0.0,0.0,0.0,0.0,-0.00015864414081234735,-4.3926997142916535e-05,-9.103211405592226e-05,0.0002385996098936971,0.00016277717716922657,7.279396057136012e-05,-9.867350261538732e-06,0.00029339006131278534,0.0004516324259971589,-0.00037754498798123404,0.0013372835962925985,0.00013149674564744683,-0.00012553290341343177,-0.00012258193020796014,0.04592245817184448,18.277124404907227,-0.9180634021759033,-18.297456741333008,-0.6475730538368225,-2.2625765800476074,0.22098104655742645,0
51,0.25010228157043457,-0.04592245817184448,-18.277124404907227,0.9180634021759033,18.297456741333008,0.6475730538368225,2.2625765800476074,-0.22098104655742645,0.0,0.0,0.0,0.0,0.0,0.0,0.0,-0.06108727050842551,0.3509783538288781,0.1057537876206782,0.6252322275636886,0.22367043683502125,0.09412008269193665,-0.2304096658104621,-0.6089265306748842,-0.05748804018842547,-0.6665120649685601,-2.594795136635747,-0.055784216592709227,2.5079032332632276,0.876320716054903,-0.6090851748156966,-0.05753196718556838,-0.666603097082616,-2.5945565370258534,-0.05562143941554,2.507976027223799,0.8763108487046415,-0.00029339006131278534,-0.0004516324259971589,0.00037754498798123404,-0.0013372835962925985,-0.00013149674564744683,0.00012553290341343177,0.00012258193020796014,0.0,0.0,0.0,0.0,0.0,0.0,0.0,-0.00015864414081234735,-4.3926997142916535e-05,-9.103211405592226e-05,0.0002385996098936971,0.00016277717716922657,7.279396057136012e-05,-9.867350261538732e-06,0.00029339006131278534,0.0004516324259971589,-0.00037754498798123404,0.0013372835962925985,0.00013149674564744683,-0.00012553290341343177,-0.00012258193020796014,0.04592245817184448,18.277124404907227,-0.9180634021759033,-18.297456741333008,-0.6475730538368225,-2.2625765800476074,0.22098104655742645,0
52,0.2550013065338135,-0.04592245817184448,-18.277124404907227,0.9180634021759033,18.297456741333008,0.6475730538368225,2.2625765800476074,-0.22098104655742645,0.0,0.0,0.0,0.0,0.0,0.0,0.0,-0.06108727050842551,0.3509783538288781,0.1057537876206782,0.6252322275636886,0.22367043683502125,0.09412008269193665,-0.2304096658104621,-0.6089265306748842,-0.05748804018842547,-0.6665120649685601,-2.594795136635747,-0.055784216592709227,2.5079032332632276,0.876320716054903,-0.6090851748156966,-0.05753196718556838,-0.666603097082616,-2.5945565370258534,-0.05562143941554,2.507976027223799,0.8763108487046415,-0.00029339006131278534,-0.0004516324259971589,0.00037754498798123404,-0.0013372835962925985,-0.00013149674564744683,0.00012553290341343177,0.00012258193020796014,0.0,0.0,0.0,0.0,0.0,0.0,0.0,-0.00015864414081234735,-4.3926997142916535e-05,-9.103211405592226e-05,0.0002385996098936971,0.00016277717716922657,7.279396057136012e-05,-9.867350261538732e-06,0.00029339006131278534,0.0004516324259971589,-0.00037754498798123404,0.0013372835962925985,0.00013149674564744683,-0.00012553290341343177,-0.00012258193020796014,0.04592245817184448,18.277124404907227,-0.9180634021759033,-18.297456741333008,-0.6475730538368225,-2.2625765800476074,0.22098104655742645,0
53,0.2599954605102539,-0.04592245817184448,-18.277124404907227,0.9180634021759033,18.297456741333008,0.6475730538368225,2.2625765800476074,-0.22098104655742645,0.0,0.0,0.0,0.0,0.0,0.0,0.0,-0.06108727050842551,0.3509783538288781,0.1057537876206782,0.6252322275636886,0.22367043683502125,0.09412008269193665,-0.2304096658104621,-0.6089265306748842,-0.05748804018842547,-0.6665120649685601,-2.594795136635747,-0.055784216592709227,2.5079032332632276,0.876320716054903,-0.6090851748156966,-0.05753196718556838,-0.666603097082616,-2.5945565370258534,-0.05562143941554,2.507976027223799,0.8763108487046415,-0.00029339006131278534,-0.0004516324259971589,0.00037754498798123404,-0.0013372835962925985,-0.00013149674564744683,0.00012553290341343177,0.00012258193020796014,0.0,0.0,0.0,0.0,0.0,0.0,0.0,-0.00015864414081234735,-4.3926997142916535e-05,-9.103211405592226e-05,0.0002385996098936971,0.00016277717716922657,7.279396057136012e-05,-9.867350261538732e-06,0.00029339006131278534,0.0004516324259971589,-0.00037754498798123404,0.0013372835962925985,0.00013149674564744683,-0.00012553290341343177,-0.00012258193020796014,0.04592245817184448,18.277124404907227,-0.9180634021759033,-18.297456741333008,-0.6475730538368225,-2.2625765800476074,0.22098104655742645,0
54,0.26500511169433594,-0.09352988004684448,-18.277124404907227,0.8942596912384033,18.245882034301758,0.6420798897743225,2.2753939628601074,-0.24112264811992645,0.0,0.0,0.0,0.0,0.0,0.0,0.0,-0.058633732017047004,0.3575050672903832,0.1106487733845023,0.6255624709366889,0.22299216146631026,0.09225196600662704,-0.2297788554085149,-0.6089231898031736,-0.05748804018842547,-0.6665103945313838,-2.594791508854808,-0.05578360624114672,2.507901809109582,0.8763229540106322,-0.6090851748156966,-0.05753196718556838,-0.666603097082616,-2.5945565370258534,-0.05562143941554,2.507976027223799,0.8763108487046415,0.0008447556737857508,6.965016332394738e-05,0.001007788995284826,-2.8391568441603805e-05,0.0001534079776924759,-0.0002721182091797756,0.0007953619436703649,0.0,0.0,0.0,0.0,0.0,0.0,0.0,-0.00016198501252295827,-4.3926997142916535e-05,-9.270255123217108e-05,0.00023497182895448887,0.0001621668256067202,7.42181142170395e-05,-1.2105305990717241e-05,-0.0008447556737857508,-6.965016332394738e-05,-0.001007788995284826,2.8391568441603805e-05,-0.0001534079776924759,0.0002721182091797756,-0.0007953619436703649,0.09352988004684448,18.277124404907227,-0.8942596912384033,-18.245882034301758,-0.6420798897743225,-2.2753939628601074,0.24112264811992645,0
55,0.26999545097351074,-0.09352988004684448,-18.277124404907227,0.8942596912384033,18.245882034301758,0.6420798897743225,2.2753939628601074,-0.24112264811992645,0.0,0.0,0.0,0.0,0.0,0.0,0.0,-0.058633732017047004,0.3575050672903832,0.1106487733845023,0.6255624709366889,0.22299216146631026,0.09225196600662704,-0.2297788554085149,-0.6089231898031736,-0.05748804018842547,-0.6665103945313838,-2.594791508854808,-0.05578360624114672,2.507901809109582,0.8763229540106322,-0.6090851748156966,-0.05753196718556838,-0.666603097082616,-2.5945565370258534,-0.05562143941554,2.507976027223799,0.8763108487046415,0.0008447556737857508,6.965016332394738e-05,0.001007788995284826,-2.8391568441603805e-05,0.0001534079776924759,-0.0002721182091797756,0.0007953619436703649,0.0,0.0,0.0,0.0,0.0,0.0,0.0,-0.00016198501252295827,-4.3926997142916535e-05,-9.270255123217108e-05,0.00023497182895448887,0.0001621668256067202,7.42181142170395e-05,-1.2105305990717241e-05,-0.0008447556737857508,-6.965016332394738e-05,-0.001007788995284826,2.8391568441603805e-05,-0.0001534079776924759,0.0002721182091797756,-0.0007953619436703649,0.09352988004684448,18.277124404907227,-0.8942596912384033,-18.245882034301758,-0.6420798897743225,-2.2753939628601074,0.24112264811992645,0
56,0.2750117778778076,-0.09352988004684448,-18.304895401000977,0.9180634021759033,18.269685745239258,0.6539817452430725,2.2882113456726074,-0.24844686686992645,0.0,0.0,0.0,0.0,0.0,0.0,0.0,-0.06108300729500266,0.3577165659757022,0.10779878559960508,0.6285318744752643,0.22300520991154715,0.09173168844459272,-0.22883979183840245,-0.6089231898031736,-0.057486091346594326,-0.6665120649672391,-2.594793187793916,-0.05578492866953214,2.507900384955936,0.8763237678127155,-0.6090851748156966,-0.05753196718556838,-0.666603097082616,-2.5945565370258534,-0.05562143941554,2.507976027223799,0.8763108487046415,0.0007022153715360641,-0.00020342356939565475,-0.00019853470695647388,-0.0007453358328501121,3.111416224661513e-05,-0.0003438276182212378,-7.666469582737995e-05,0.0,0.0,0.0,0.0,0.0,0.0,0.0,-0.00016198501252295827,-4.587583897405767e-05,-9.103211537686562e-05,0.00023665076806267393,0.0001634892539921426,7.564226786316297e-05,-1.2919108073994323e-05,-0.0007022153715360641,0.00020342356939565475,0.00019853470695647388,0.0007453358328501121,-3.111416224661513e-05,0.0003438276182212378,7.666469582737995e-05,0.09352988004684448,18.304895401000977,-0.9180634021759033,-18.269685745239258,-0.6539817452430725,-2.2882113456726074,0.24844686686992645,0
57,0.2799971103668213,-0.09352988004684448,-18.304895401000977,0.9180634021759033,18.269685745239258,0.6539817452430725,2.2882113456726074,-0.24844686686992645,0.0,0.0,0.0,0.0,0.0,0.0,0.0,-0.06108300729500266,0.3577165659757022,0.10779878559960508,0.6285318744752643,0.22300520991154715,0.09173168844459272,-0.22883979183840245,-0.6089231898031736,-0.057486091346594326,-0.6665120649672391,-2.594793187793916,-0.05578492866953214,2.507900384955936,0.8763237678127155,-0.6090851748156966,-0.05753196718556838,-0.666603097082616,-2.5945565370258534,-0.05562143941554,2.507976027223799,0.8763108487046415,0.0007022153715360641,-0.00020342356939565475,-0.00019853470695647388,-0.0007453358328501121,3.111416224661513e-05,-0.0003438276182212378,-7.666469582737995e-05,0.0,0.0,0.0,0.0,0.0,0.0,0.0,-0.00016198501252295827,-4.587583897405767e-05,-9.103211537686562e-05,0.00023665076806267393,0.0001634892539921426,7.564226786316297e-05,-1.2919108073994323e-05,-0.0007022153715360641,0.00020342356939565475,0.00019853470695647388,0.0007453358328501121,-3.111416224661513e-05,0.0003438276182212378,7.666469582737995e-05,0.09352988004684448,18.304895401000977,-0.9180634021759033,-18.269685745239258,-0.6539817452430725,-2.2882113456726074,0.24844686686992645,0
58,0.28500914573669434,-0.06972616910934448,-18.352502822875977,0.8942596912384033,18.198274612426758,0.6475730538368225,2.2689852714538574,-0.24844686686992645,0.0,0.0,0.0,0.0,0.0,0.0,0.0,-0.056871149926913236,0.3608617151701612,0.10919094423447354,0.6249630283051915,0.22374908857729503,0.09173390195349825,-0.2299603966967095,-0.6089248602390289,-0.0574827504748838,-0.6665103945313838,-2.5947881764863663,-0.055784215132345466,2.5079025211864048,0.8763237678127155,-0.6090851748156966,-0.05753196718556838,-0.666603097082616,-2.5945565370258534,-0.05562143941554,2.507976027223799,0.8763108487046415,0.000666261091092483,0.0005062679945915463,0.0007129754694341317,0.0011737690697487797,0.00010930216419052598,0.00012650653556675026,0.00038873000308333605,0.0,0.0,0.0,0.0,0.0,0.0,0.0,-0.0001603145766676528,-4.921671068458533e-05,-9.270255123217108e-05,0.00023163946051285578,0.0001627757168054661,7.350603739419981e-05,-1.2919108073994323e-05,-0.000666261091092483,-0.0005062679945915463,-0.0007129754694341317,-0.0011737690697487797,-0.00010930216419052598,-0.00012650653556675026,-0.00038873000308333605,0.06972616910934448,18.352502822875977,-0.8942596912384033,-18.198274612426758,-0.6475730538368225,-2.2689852714538574,0.24844686686992645,0
59,0.29002952575683594,-0.06972616910934448,-18.352502822875977,0.8942596912384033,18.198274612426758,0.6475730538368225,2.2689852714538574,-0.24844686686992645,0.0,0.0,0.0,0.0,0.0,0.0,0.0,-0.056871149926913236,0.3608617151701612,0.10919094423447354,0.6249630283051915,0.22374908857729503,0.09173390195349825,-0.2299603966967095,-0.6089248602390289,-0.0574827504748838,-0.6665103945313838,-2.5947881764863663,-0.055784215132345466,2.5079025211864048,0.8763237678127155,-0.6090851748156966,-0.05753196718556838,-0.666603097082616,-2.5945565370258534,-0.05562143941554,2.507976027223799,0.8763108487046415,0.000666261091092483,0.0005062679945915463,0.0007129754694341317,0.0011737690697487797,0.00010930216419052598,0.00012650653556675026,0.00038873000308333605,0.0,0.0,0.0,0.0,0.0,0.0,0.0,-0.0001603145766676528,-4.921671068458533e-05,-9.270255123217108e-05,0.00023163946051285578,0.0001627757168054661,7.350603739419981e-05,-1.2919108073994323e-05,-0.000666261091092483,-0.0005062679945915463,-0.0007129754694341317,-0.0011737690697487797,-0.00010930216419052598,-0.00012650653556675026,-0.00038873000308333605,0.06972616910934448,18.352502822875977,-0.8942596912384033,-18.198274612426758,-0.6475730538368225,-2.2689852714538574,0.24844686686992645,0
60,0.29501986503601074,-0.09352988004684448,-18.328699111938477,0.9418671131134033,18.269685745239258,0.6475730538368225,2.2882113456726074,-0.25485557317733765,0.0,0.0,0.0,0.0,0.0,0.0,0.0,-0.05431938581069942,0.3541410373297602,0.10615178236572007,0.6283114068001191,0.22486761332448194,0.09206017977047656,-0.2295797589101445,-0.6089231898031736,-0.05748442091073906,-0.6665137354030943,-2.594793187793932,-0.05578421659270648,2.507900384955936,0.8763244798911941,-0.6090851748156966,-0.05753196718556838,-0.666603097082616,-2.5945565370258534,-0.05562143941554,2.507976027223799,0.8763108487046415,0.0016992556452389,4.591740152368677e-05,-0.00017598807372480116,-0.000353089990510495,0.00559424306606713,-0.0003563168564751031,0.0010917337363993906,0.0,0.0,0.0,0.0,0.0,0.0,0.0,-0.00016198501252295827,-4.75462748293215e-05,-8.936167952167118e-05,0.00023665076807866114,0.00016277717716647877,7.564226786316297e-05,-1.3631186552620633e-05,-0.0016992556452389,-4.591740152368677e-05,0.00017598807372480116,0.000353089990510495,-0.00559424306606713,0.0003563168564751031,-0.0010917337363993906,0.09352988004684448,18.328699111938477,-0.9418671131134033,-18.269685745239258,-0.6475730538368225,-2.2882113456726074,0.25485557317733765,0
61,0.30000901222229004,-0.09352988004684448,-18.328699111938477,0.9418671131134033,18.269685745239258,0.6475730538368225,2.2882113456726074,-0.25485557317733765,0.0,0.0,0.0,0.0,0.0,0.0,0.0,-0.05431938581069942,0.3541410373297602,0.10615178236572007,0.6283114068001191,0.22486761332448194,0.09206017977047656,-0.2295797589101445,-0.6089231898031736,-0.05748442091073906,-0.6665137354030943,-2.594793187793932,-0.05578421659270648,2.507900384955936,0.8763244798911941,-0.6090851748156966,-0.05753196718556838,-0.666603097082616,-2.5945565370258534,-0.05562143941554,2.507976027223799,0.8763108487046415,0.0016992556452389,4.591740152368677e-05,-0.00017598807372480116,-0.000353089990510495,0.00559424306606713,-0.0003563168564751031,0.0010917337363993906,0.0,0.0,0.0,0.0,0.0,0.0,0.0,-0.00016198501252295827,-4.75462748293215e-05,-8.936167952167118e-05,0.00023665076807866114,0.00016277717716647877,7.564226786316297e-05,-1.3631186552620633e-05,-0.0016992556452389,-4.591740152368677e-05,0.00017598807372480116,0.000353089990510495,-0.00559424306606713,0.0003563168564751031,-0.0010917337363993906,0.09352988004684448,18.328699111938477,-0.9418671131134033,-18.269685745239258,-0.6475730538368225,-2.2882113456726074,0.25485557317733765,0
62,0.30499720573425293,-0.06972616910934448,-18.352502822875977,0.9418671131134033,18.269685745239258,0.6594749093055725,2.2753939628601074,-0.24112264811992645,0.0,0.0,0.0,0.0,0.0,0.0,0.0,-0.05745479561290147,0.35111628213405305,0.10219806317515286,0.6269126921535716,0.22475748637117457,0.09277485747369835,-0.22965103634618944,-0.6089248602390289,-0.0574827504748838,-0.6665137354030943,-2.594793187793932,-0.05578553902109464,2.507901809109582,0.8763229540106322,-0.6090851748156966,-0.05753196718556838,-0.666603097082616,-2.5945565370258534,-0.05562143941554,2.507976027223799,0.8763108487046415,0.0005422981393599253,0.0008367907569785455,-0.0006939232795763721,0.00021338943708581613,-1.9885562592394468e-05,4.767437744483528e-05,0.0006164807167905355,0.0,0.0,0.0,0.0,0.0,0.0,0.0,-0.0001603145766676528,-4.921671068458533e-05,-8.936167952167118e-05,0.00023665076807866114,0.00016409960555464204,7.42181142170395e-05,-1.2105305990717241e-05,-0.0005422981393599253,-0.0008367907569785455,0.0006939232795763721,-0.00021338943708581613,1.9885562592394468e-05,-4.767437744483528e-05,-0.0006164807167905355,0.06972616910934448,18.352502822875977,-0.9418671131134033,-18.269685745239258,-0.6594749093055725,-2.2753939628601074,0.24112264811992645,0
63,0.309999942779541,-0.06972616910934448,-18.352502822875977,0.9418671131134033,18.269685745239258,0.6594749093055725,2.2753939628601074,-0.24112264811992645,0.0,0.0,0.0,0.0,0.0,0.0,0.0,-0.05745479561290147,0.35111628213405305,0.10219806317515286,0.6269126921535716,0.22475748637117457,0.09277485747369835,-0.22965103634618944,-0.6089248602390289,-0.0574827504748838,-0.6665137354030943,-2.594793187793932,-0.05578553902109464,2.507901809109582,0.8763229540106322,-0.6090851748156966,-0.05753196718556838,-0.666603097082616,-2.5945565370258534,-0.05562143941554,2.507976027223799,0.8763108487046415,0.0005422981393599253,0.0008367907569785455,-0.0006939232795763721,0.00021338943708581613,-1.9885562592394468e-05,4.767437744483528e-05,0.0006164807167905355,0.0,0.0,0.0,0.0,0.0,0.0,0.0,-0.0001603145766676528,-4.921671068458533e-05,-8.936167952167118e-05,0.00023665076807866114,0.00016409960555464204,7.42181142170395e-05,-1.2105305990717241e-05,-0.0005422981393599253,-0.0008367907569785455,0.0006939232795763721,-0.00021338943708581613,1.9885562592394468e-05,-4.767437744483528e-05,-0.0006164807167905355,0.06972616910934448,18.352502822875977,-0.9418671131134033,-18.269685745239258,-0.6594749093055725,-2.2753939628601074,0.24112264811992645,0
64,0.31499814987182617,-0.06972616910934448,-18.304895401000977,0.9180634021759033,18.297456741333008,0.6539817452430725,2.2552523612976074,-0.27591270208358765,0.0,0.0,0.0,0.0,0.0,0.0,0.0,-0.052197175936736465,0.35812474796282784,0.10678946089251139,0.6253314660655371,0.2253966387323836,0.09229172644506664,-0.22965914066817678,-0.6089248602390289,-0.057486091346594326,-0.6665120649672391,-2.594795136635763,-0.05578492866953214,2.507904047065311,0.8763268195721837,-0.6090851748156966,-0.05753196718556838,-0.666603097082616,-2.5945565370258534,-0.05562143941554,2.507976027223799,0.8763108487046415,0.00031860280771445535,0.0006403247155964282,-0.0003429581546369054,-0.0009499633787384725,-0.0002243936580724022,0.0005615792986148751,0.0018150264673762939,0.0,0.0,0.0,0.0,0.0,0.0,0.0,-0.0001603145766676528,-4.587583897405767e-05,-9.103211537686562e-05,0.00023859960990968432,0.0001634892539921426,7.198015848786099e-05,-1.5970867542236533e-05,-0.00031860280771445535,-0.0006403247155964282,0.0003429581546369054,0.0009499633787384725,0.0002243936580724022,-0.0005615792986148751,-0.0018150264673762939,0.06972616910934448,18.304895401000977,-0.9180634021759033,-18.297456741333008,-0.6539817452430725,-2.2552523612976074,0.27591270208358765,0
65,0.31999778747558594,-0.06972616910934448,-18.304895401000977,0.9180634021759033,18.297456741333008,0.6539817452430725,2.2552523612976074,-0.27591270208358765,0.0,0.0,0.0,0.0,0.0,0.0,0.0,-0.052197175936736465,0.35812474796282784,0.10678946089251139,0.6253314660655371,0.2253966387323836,0.09229172644506664,-0.22965914066817678,-0.6089248602390289,-0.057486091346594326,-0.6665120649672391,-2.594795136635763,-0.05578492866953214,2.507904047065311,0.8763268195721837,-0.6090851748156966,-0.05753196718556838,-0.666603097082616,-2.5945565370258534,-0.05562143941554,2.507976027223799,0.8763108487046415,0.00031860280771445535,0.0006403247155964282,-0.0003429581546369054,-0.0009499633787384725,-0.0002243936580724022,0.0005615792986148751,0.0018150264673762939,0.0,0.0,0.0,0.0,0.0,0.0,0.0,-0.0001603145766676528,-4.587583897405767e-05,-9.103211537686562e-05,0.00023859960990968432,0.0001634892539921426,7.198015848786099e-05,-1.5970867542236533e-05,-0.00031860280771445535,-0.0006403247155964282,0.0003429581546369054,0.0009499633787384725,0.0002243936580724022,-0.0005615792986148751,-0.0018150264673762939,0.06972616910934448,18.304895401000977,-0.9180634021759033,-18.297456741333008,-0.6539817452430725,-2.2552523612976074,0.27591270208358765,0
66,0.3249940872192383,-0.09352988004684448,-18.304895401000977,0.8942596912384033,18.245882034301758,0.6475730538368225,2.2689852714538574,-0.22098104655742645,0.0,0.0,0.0,0.0,0.0,0.0,0.0,-0.05640962488990842,0.3579649438983229,0.10488101079907497,0.6280360403075799,0.22537362038839454,0.09065873691906742,-0.23048001074447277,-0.6089231898031736,-0.057486091346594326,-0.6665103945313838,-2.5947915145236538,-0.05578420344943536,2.5079025211864048,0.876320716054903,-0.6090851748156966,-0.05753196718556838,-0.666603097082616,-2.5945565370258534,-0.05562143941554,2.507976027223799,0.8763108487046415,0.0007870051711116176,0.0004540370477406057,0.00048002174694767875,-2.1763789362359695e-05,6.446117533307007e-06,-6.360472607630284e-05,-0.0002715612050060295,0.0,0.0,0.0,0.0,0.0,0.0,0.0,-0.00016198501252295827,-4.587583897405767e-05,-9.270255123217108e-05,0.00023497749780032606,0.00016276403389536148,7.350603739419981e-05,-9.867350261538732e-06,-0.0007870051711116176,-0.0004540370477406057,-0.00048002174694767875,2.1763789362359695e-05,-6.446117533307007e-06,6.360472607630284e-05,0.0002715612050060295,0.09352988004684448,18.304895401000977,-0.8942596912384033,-18.245882034301758,-0.6475730538368225,-2.2689852714538574,0.22098104655742645,0
67,0.33000636100769043,-0.09352988004684448,-18.304895401000977,0.8942596912384033,18.245882034301758,0.6475730538368225,2.2689852714538574,-0.22098104655742645,0.0,0.0,0.0,0.0,0.0,0.0,0.0,-0.05640962488990842,0.3579649438983229,0.10488101079907497,0.6280360403075799,0.22537362038839454,0.09065873691906742,-0.23048001074447277,-0.6089231898031736,-0.057486091346594326,-0.6665103945313838,-2.5947915145236538,-0.05578420344943536,2.5079025211864048,0.876320716054903,-0.6090851748156966,-0.05753196718556838,-0.666603097082616,-2.5945565370258534,-0.05562143941554,2.507976027223799,0.8763108487046415,0.0007870051711116176,0.0004540370477406057,0.00048002174694767875,-2.1763789362359695e-05,6.446117533307007e-06,-6.360472607630284e-05,-0.0002715612050060295,0.0,0.0,0.0,0.0,0.0,0.0,0.0,-0.00016198501252295827,-4.587583897405767e-05,-9.270255123217108e-05,0.00023497749780032606,0.00016276403389536148,7.350603739419981e-05,-9.867350261538732e-06,-0.0007870051711116176,-0.0004540370477406057,-0.00048002174694767875,2.1763789362359695e-05,-6.446117533307007e-06,6.360472607630284e-05,0.0002715612050060295,0.09352988004684448,18.304895401000977,-0.8942596912384033,-18.245882034301758,-0.6475730538368225,-2.2689852714538574,0.22098104655742645,0
68,0.3350093364715576,-0.04592245817184448,-18.304895401000977,0.9696381092071533,18.245882034301758,0.6420798897743225,2.2818026542663574,-0.25485557317733765,0.0,0.0,0.0,0.0,0.0,0.0,0.0,-0.05632745732544294,0.36303102738990944,0.10691642555633332,0.6311794983655076,0.2247914108663608,0.09001334014695457,-0.23113681863494515,-0.6089265306748842,-0.057486091346594326,-0.6665156842449255,-2.5947915173580607,-0.05578360624107252,2.507901097032759,0.8763244798911941,-0.6090851748156966,-0.05753196718556838,-0.666603097082616,-2.5945565370258534,-0.05562143941554,2.507976027223799,0.8763108487046415,-0.0005720167445001186,0.0002829085925471398,-0.001143591174256229,0.00034458159918318863,0.00024004058296829455,3.193272175560124e-05,0.0008428997899362269,0.0,0.0,0.0,0.0,0.0,0.0,0.0,-0.00015864414081234735,-4.587583897405767e-05,-8.741283769053698e-05,0.00023498033220725745,0.0001621668255325226,7.493019103987919e-05,-1.3631186552620633e-05,0.0005720167445001186,-0.0002829085925471398,0.001143591174256229,-0.00034458159918318863,-0.00024004058296829455,-3.193272175560124e-05,-0.0008428997899362269,0.04592245817184448,18.304895401000977,-0.9696381092071533,-18.245882034301758,-0.6420798897743225,-2.2818026542663574,0.25485557317733765,0
69,0.3400602340698242,-0.04592245817184448,-18.304895401000977,0.9696381092071533,18.245882034301758,0.6420798897743225,2.2818026542663574,-0.25485557317733765,0.0,0.0,0.0,0.0,0.0,0.0,0.0,-0.05632745732544294,0.36303102738990944,0.10691642555633332,0.6311794983655076,0.2247914108663608,0.09001334014695457,-0.23113681863494515,-0.6089265306748842,-0.057486091346594326,-0.6665156842449255,-2.5947915173580607,-0.05578360624107252,2.507901097032759,0.8763244798911941,-0.6090851748156966,-0.05753196718556838,-0.666603097082616,-2.5945565370258534,-0.05562143941554,2.507976027223799,0.8763108487046415,-0.0005720167445001186,0.0002829085925471398,-0.001143591174256229,0.00034458159918318863,0.00024004058296829455,3.193272175560124e-05,0.0008428997899362269,0.0,0.0,0.0,0.0,0.0,0.0,0.0,-0.00015864414081234735,-4.587583897405767e-05,-8.741283769053698e-05,0.00023498033220725745,0.0001621668255325226,7.493019103987919e-05,-1.3631186552620633e-05,0.0005720167445001186,-0.0002829085925471398,0.001143591174256229,-0.00034458159918318863,-0.00024004058296829455,-3.193272175560124e-05,-0.0008428997899362269,0.04592245817184448,18.304895401000977,-0.9696381092071533,-18.245882034301758,-0.6420798897743225,-2.2818026542663574,0.25485557317733765,0
70,0.34500956535339355,-0.04592245817184448,-18.304895401000977,0.9418671131134033,18.245882034301758,0.6539817452430725,2.2818026542663574,-0.20083944499492645,0.0,0.0,0.0,0.0,0.0,0.0,0.0,-0.05906214980163478,0.36678890731380864,0.10701144627732956,0.6301487939163574,0.22462637029473345,0.09067701453743339,-0.23161487529841268,-0.6089265306748842,-0.057486091346594326,-0.6665137354030943,-2.5947915173580767,-0.05578488923971055,2.507901097032759,0.8763184780991738,-0.6090851748156966,-0.05753196718556838,-0.666603097082616,-2.5945565370258534,-0.05562143941554,2.507976027223799,0.8763108487046415,-0.00021480111492283953,0.0002580915382493895,-0.0003165575038184884,0.00018041264016382356,-0.000140124319927055,-0.00012194610933504816,-0.0014458063108291773,0.0,0.0,0.0,0.0,0.0,0.0,0.0,-0.00015864414081234735,-4.587583897405767e-05,-8.936167952167118e-05,0.00023498033222324466,0.00016344982417054732,7.493019103987919e-05,-7.629394532360223e-06,0.00021480111492283953,-0.0002580915382493895,0.0003165575038184884,-0.00018041264016382356,0.000140124319927055,0.00012194610933504816,0.0014458063108291773,0.04592245817184448,18.304895401000977,-0.9418671131134033,-18.245882034301758,-0.6539817452430725,-2.2818026542663574,0.20083944499492645,0
71,0.3500063419342041,-0.04592245817184448,-18.304895401000977,0.9418671131134033,18.245882034301758,0.6539817452430725,2.2818026542663574,-0.20083944499492645,0.0,0.0,0.0,0.0,0.0,0.0,0.0,-0.05906214980163478,0.36678890731380864,0.10701144627732956,0.6301487939163574,0.22462637029473345,0.09067701453743339,-0.23161487529841268,-0.6089265306748842,-0.057486091346594326,-0.6665137354030943,-2.5947915173580767,-0.05578488923971055,2.507901097032759,0.8763184780991738,-0.6090851748156966,-0.05753196718556838,-0.666603097082616,-2.5945565370258534,-0.05562143941554,2.507976027223799,0.8763108487046415,-0.00021480111492283953,0.0002580915382493895,-0.0003165575038184884,0.00018041264016382356,-0.000140124319927055,-0.00012194610933504816,-0.0014458063108291773,0.0,0.0,0.0,0.0,0.0,0.0,0.0,-0.00015864414081234735,-4.587583897405767e-05,-8.936167952167118e-05,0.00023498033222324466,0.00016344982417054732,7.493019103987919e-05,-7.629394532360223e-06,0.00021480111492283953,-0.0002580915382493895,0.0003165575038184884,-0.00018041264016382356,0.000140124319927055,0.00012194610933504816,0.0014458063108291773,0.04592245817184448,18.304895401000977,-0.9418671131134033,-18.245882034301758,-0.6539817452430725,-2.2818026542663574,0.20083944499492645,0
72,0.3549973964691162,-0.04592245817184448,-18.328699111938477,0.8942596912384033,18.269685745239258,0.6475730538368225,2.2689852714538574,-0.25485557317733765,0.0,0.0,0.0,0.0,0.0,0.0,0.0,-0.05948656225343461,0.36334191461548554,0.10624435288719858,0.6285427069672166,0.2247188133479912,0.0920846898160343,-0.23178102989385158,-0.6089265306748842,-0.05748442091073906,-0.6665103945313838,-2.594793187793932,-0.05578421659263503,2.5079025211864048,0.8763244798911941,-0.6090851748156966,-0.05753196718556838,-0.666603097082616,-2.5945565370258534,-0.05562143941554,2.507976027223799,0.8763108487046415,-0.00025960806764382504,0.0003957010506929169,0.0012246731779427939,-0.0006264456428158872,0.00024143146026482803,0.00027213538563462185,0.0008701568114826835,0.0,0.0,0.0,0.0,0.0,0.0,0.0,-0.00015864414081234735,-4.75462748293215e-05,-9.270255123217108e-05,0.00023665076807866114,0.00016277717709502898,7.350603739419981e-05,-1.3631186552620633e-05,0.00025960806764382504,-0.0003957010506929169,-0.0012246731779427939,0.0006264456428158872,-0.00024143146026482803,-0.00027213538563462185,-0.0008701568114826835,0.04592245817184448,18.328699111938477,-0.8942596912384033,-18.269685745239258,-0.6475730538368225,-2.2689852714538574,0.25485557317733765,0
73,0.3599982261657715,-0.04592245817184448,-18.328699111938477,0.8942596912384033,18.269685745239258,0.6475730538368225,2.2689852714538574,-0.25485557317733765,0.0,0.0,0.0,0.0,0.0,0.0,0.0,-0.05948656225343461,0.36334191461548554,0.10624435288719858,0.6285427069672166,0.2247188133479912,0.0920846898160343,-0.23178102989385158,-0.6089265306748842,-0.05748442091073906,-0.6665103945313838,-2.594793187793932,-0.05578421659263503,2.5079025211864048,0.8763244798911941,-0.6090851748156966,-0.05753196718556838,-0.666603097082616,-2.5945565370258534,-0.05562143941554,2.507976027223799,0.8763108487046415,-0.00025960806764382504,0.0003957010506929169,0.0012246731779427939,-0.0006264456428158872,0.00024143146026482803,0.00027213538563462185,0.0008701568114826835,0.0,0.0,0.0,0.0,0.0,0.0,0.0,-0.00015864414081234735,-4.75462748293215e-05,-9.270255123217108e-05,0.00023665076807866114,0.00016277717709502898,7.350603739419981e-05,-1.3631186552620633e-05,0.00025960806764382504,-0.0003957010506929169,-0.0012246731779427939,0.0006264456428158872,-0.00024143146026482803,-0.00027213538563462185,-0.0008701568114826835,0.04592245817184448,18.328699111938477,-0.8942596912384033,-18.269685745239258,-0.6475730538368225,-2.2689852714538574,0.25485557317733765,0
74,0.36500096321105957,-0.04592245817184448,-18.253320693969727,0.9180634021759033,18.269685745239258,0.6356711983680725,2.2689852714538574,-0.23471395671367645,0.0,0.0,0.0,0.0,0.0,0.0,0.0,-0.06584126326852775,0.36093136250941277,0.10337773376629456,0.6294891576871912,0.2250542404947616,0.09221875923920528,-0.23332099312617569,-0.6089265306748842,-0.05748971062428073,-0.6665120649672391,-2.594793184959509,-0.055782894164323804,2.5079025211864048,0.8763222419338093,-0.6090851748156966,-0.05753196718556838,-0.666603097082616,-2.5945565370258534,-0.05562143941554,2.507976027223799,0.8763108487046415,-0.0006264338287264417,-0.0012038738496478948,0.00017068138568499607,-7.765047331191145e-05,0.0006120781125691147,0.00025211398133058585,0.00040876579979811566,0.0,0.0,0.0,0.0,0.0,0.0,0.0,-0.00015864414081234735,-4.2256561287652705e-05,-9.103211537686562e-05,0.00023664793365574255,0.00016145474878380417,7.350603739419981e-05,-1.1393229167766528e-05,0.0006264338287264417,0.0012038738496478948,-0.00017068138568499607,7.765047331191145e-05,-0.0006120781125691147,-0.00025211398133058585,-0.00040876579979811566,0.04592245817184448,18.253320693969727,-0.9180634021759033,-18.269685745239258,-0.6356711983680725,-2.2689852714538574,0.23471395671367645,0
75,0.370006799697876,-0.04592245817184448,-18.253320693969727,0.9180634021759033,18.269685745239258,0.6356711983680725,2.2689852714538574,-0.23471395671367645,0.0,0.0,0.0,0.0,0.0,0.0,0.0,-0.06584126326852775,0.36093136250941277,0.10337773376629456,0.6294891576871912,0.2250542404947616,0.09221875923920528,-0.23332099312617569,-0.6089265306748842,-0.05748971062428073,-0.6665120649672391,-2.594793184959509,-0.055782894164323804,2.5079025211864048,0.8763222419338093,-0.6090851748156966,-0.05753196718556838,-0.666603097082616,-2.5945565370258534,-0.05562143941554,2.507976027223799,0.8763108487046415,-0.0006264338287264417,-0.0012038738496478948,0.00017068138568499607,-7.765047331191145e-05,0.0006120781125691147,0.00025211398133058585,0.00040876579979811566,0.0,0.0,0.0,0.0,0.0,0.0,0.0,-0.00015864414081234735,-4.2256561287652705e-05,-9.103211537686562e-05,0.00023664793365574255,0.00016145474878380417,7.350603739419981e-05,-1.1393229167766528e-05,0.0006264338287264417,0.0012038738496478948,-0.00017068138568499607,7.765047331191145e-05,-0.0006120781125691147,-0.00025211398133058585,-0.00040876579979811566,0.04592245817184448,18.253320693969727,-0.9180634021759033,-18.269685745239258,-0.6356711983680725,-2.2689852714538574,0.23471395671367645,0
76,0.3750154972076416,-0.04592245817184448,-18.253320693969727,0.9180634021759033,18.269685745239258,0.6356711983680725,2.2689852714538574,-0.23471395671367645,0.0,0.0,0.0,0.0,0.0,0.0,0.0,-0.06584126326852775,0.36093136250941277,0.10337773376629456,0.6294891576871912,0.2250542404947616,0.09221875923920528,-0.23332099312617569,-0.6089265306748842,-0.05748971062428073,-0.6665120649672391,-2.594793184959509,-0.055782894164323804,2.5079025211864048,0.8763222419338093,-0.6090851748156966,-0.05753196718556838,-0.666603097082616,-2.5945565370258534,-0.05562143941554,2.507976027223799,0.8763108487046415,-0.0006264338287264417,-0.0012038738496478948,0.00017068138568499607,-7.765047331191145e-05,0.0006120781125691147,0.00025211398133058585,0.00040876579979811566,0.0,0.0,0.0,0.0,0.0,0.0,0.0,-0.00015864414081234735,-4.2256561287652705e-05,-9.103211537686562e-05,0.00023664793365574255,0.00016145474878380417,7.350603739419981e-05,-1.1393229167766528e-05,0.0006264338287264417,0.0012038738496478948,-0.00017068138568499607,7.765047331191145e-05,-0.0006120781125691147,-0.00025211398133058585,-0.00040876579979811566,0.04592245817184448,18.253320693969727,-0.9180634021759033,-18.269685745239258,-0.6356711983680725,-2.2689852714538574,0.23471395671367645,0
77,0.380094051361084,-0.04592245817184448,-18.253320693969727,0.9180634021759033,18.269685745239258,0.6356711983680725,2.2689852714538574,-0.23471395671367645,0.0,0.0,0.0,0.0,0.0,0.0,0.0,-0.06584126326852775,0.36093136250941277,0.10337773376629456,0.6294891576871912,0.2250542404947616,0.09221875923920528,-0.23332099312617569,-0.6089265306748842,-0.05748971062428073,-0.6665120649672391,-2.594793184959509,-0.055782894164323804,2.5079025211864048,0.8763222419338093,-0.6090851748156966,-0.05753196718556838,-0.666603097082616,-2.5945565370258534,-0.05562143941554,2.507976027223799,0.8763108487046415,-0.0006264338287264417,-0.0012038738496478948,0.00017068138568499607,-7.765047331191145e-05,0.0006120781125691147,0.00025211398133058585,0.00040876579979811566,0.0,0.0,0.0,0.0,0.0,0.0,0.0,-0.00015864414081234735,-4.2256561287652705e-05,-9.103211537686562e-05,0.00023664793365574255,0.00016145474878380417,7.350603739419981e-05,-1.1393229167766528e-05,0.0006264338287264417,0.0012038738496478948,-0.00017068138568499607,7.765047331191145e-05,-0.0006120781125691147,-0.00025211398133058585,-0.00040876579979811566,0.04592245817184448,18.253320693969727,-0.9180634021759033,-18.269685745239258,-0.6356711983680725,-2.2689852714538574,0.23471395671367645,0
78,0.38500499725341797,-0.06972616910934448,-18.328699111938477,0.9180634021759033,18.269685745239258,0.6475730538368225,2.2689852714538574,-0.24112264811992645,0.0,0.0,0.0,0.0,0.0,0.0,0.0,-0.06193488250126142,0.35563114043686034,0.10804428924974119,0.6292610915906807,0.22434940003568485,0.09189376174909861,-0.23373334661264342,-0.6089248602390289,-0.05748442091073906,-0.6665120652882315,-2.5947931622840774,-0.055784216592709227,2.5079025211864048,0.8763229540106322,-0.6090851748156966,-0.05753196718556838,-0.666603097082616,-2.5945565370258534,-0.05562143941554,2.507976027223799,0.8763108487046415,-5.533359421987776e-05,0.0002264912379266941,-6.883754952186248e-05,-0.00041698710044372,0.00014506453859475515,0.00022009698728240562,-0.00011036890827487946,0.0,0.0,0.0,0.0,0.0,0.0,0.0,-0.0001603145766676528,-4.75462748293215e-05,-9.10317943845218e-05,0.00023662525822398806,0.00016277717716922657,7.350603739419981e-05,-1.2105305990717241e-05,5.533359421987776e-05,-0.0002264912379266941,6.883754952186248e-05,0.00041698710044372,-0.00014506453859475515,-0.00022009698728240562,0.00011036890827487946,0.06972616910934448,18.328699111938477,-0.9180634021759033,-18.269685745239258,-0.6475730538368225,-2.2689852714538574,0.24112264811992645,0
79,0.3899974822998047,-0.06972616910934448,-18.328699111938477,0.9180634021759033,18.269685745239258,0.6475730538368225,2.2689852714538574,-0.24112264811992645,0.0,0.0,0.0,0.0,0.0,0.0,0.0,-0.06193488250126142,0.35563114043686034,0.10804428924974119,0.6292610915906807,0.22434940003568485,0.09189376174909861,-0.23373334661264342,-0.6089248602390289,-0.05748442091073906,-0.6665120652882315,-2.5947931622840774,-0.055784216592709227,2.5079025211864048,0.8763229540106322,-0.6090851748156966,-0.05753196718556838,-0.666603097082616,-2.5945565370258534,-0.05562143941554,2.507976027223799,0.8763108487046415,-5.533359421987776e-05,0.0002264912379266941,-6.883754952186248e-05,-0.00041698710044372,0.00014506453859475515,0.00022009698728240562,-0.00011036890827487946,0.0,0.0,0.0,0.0,0.0,0.0,0.0,-0.0001603145766676528,-4.75462748293215e-05,-9.10317943845218e-05,0.00023662525822398806,0.00016277717716922657,7.350603739419981e-05,-1.2105305990717241e-05,5.533359421987776e-05,-0.0002264912379266941,6.883754952186248e-05,0.00041698710044372,-0.00014506453859475515,-0.00022009698728240562,0.00011036890827487946,0.06972616910934448,18.328699111938477,-0.9180634021759033,-18.269685745239258,-0.6475730538368225,-2.2689852714538574,0.24112264811992645,0
