rezayati/contactInterpretation/dataset/franka_main/labeled_data/link6/b11_8.csv
index,time,tau_J0,tau_J1,tau_J2,tau_J3,tau_J4,tau_J5,tau_J6,tau_J_d0,tau_J_d1,tau_J_d2,tau_J_d3,tau_J_d4,tau_J_d5,tau_J_d6,tau_ext0,tau_ext1,tau_ext2,tau_ext3,tau_ext4,tau_ext5,tau_ext6,q0,q1,q2,q3,q4,q5,q6,q_d0,q_d1,q_d2,q_d3,q_d4,q_d5,q_d6,dq0,dq1,dq2,dq3,dq4,dq5,dq6,dq_d0,dq_d1,dq_d2,dq_d3,dq_d4,dq_d5,dq_d6,e0,e1,e2,e3,e4,e5,e6,de0,de1,de2,de3,de4,de5,de6,etau_J0,etau_J1,etau_J2,etau_J3,etau_J4,etau_J5,etau_J6,label
1,0.0,-0.5021602511405945,-22.720483779907227,-0.1491362750530243,14.056428909301758,0.09367901086807251,2.1261630058288574,-0.41324180364608765,0.0,0.0,0.0,0.0,0.0,0.0,0.0,-0.4538890066487041,0.0430348397209895,-0.213820635941646,0.17479794121314146,-0.14796096049035964,-0.05535018305621016,-0.4059610382443718,1.6756215690394618,0.05245866938227869,0.029996357708999524,-2.7526093313276747,0.034317206273476286,2.76634124188953,0.7691982589752879,1.6754973547542302,0.052104326824870026,0.029969505109285054,-2.752394845125968,0.0342448039870148,2.7663679543071322,0.7691630533470046,-0.00016140546320605965,0.0007585475159170161,-0.0004181208485842109,-0.00041132598864461966,-0.0002998216145183813,0.00015927290156400378,0.0008008553524522791,0.0,0.0,0.0,0.0,0.0,0.0,0.0,-0.00012421428523157196,-0.00035434255740866144,-2.6852599714469877e-05,0.0002144862017066096,-7.240228646148567e-05,2.67124176023259e-05,-3.5205628283296875e-05,0.00016140546320605965,-0.0007585475159170161,0.0004181208485842109,0.00041132598864461966,0.0002998216145183813,-0.00015927290156400378,-0.0008008553524522791,0.5021602511405945,22.720483779907227,0.1491362750530243,-14.056428909301758,-0.09367901086807251,-2.1261630058288574,0.41324180364608765,0
2,0.005021095275878906,-0.4267818331718445,-22.720483779907227,-0.1253325641155243,14.008821487426758,0.09367901086807251,2.1261630058288574,-0.41965049505233765,0.0,0.0,0.0,0.0,0.0,0.0,0.0,-0.45229403796660683,0.05185314891544941,-0.21139694188796831,0.1801535733567002,-0.14911564742035555,-0.05476522405255099,-0.4049863921927427,1.6756136698081223,0.052458669382229185,0.02999421546521747,-2.7526057598919826,0.03431401245792707,2.76634124188953,0.7691989667452953,1.6754973547542302,0.052104326824870026,0.029969505109285054,-2.752394845125968,0.0342448039870148,2.7663679543071322,0.7691630533470046,-0.00019802178444924395,0.0011010164488452238,0.00020472135051077445,0.0008140502576691764,-0.0003522646206153057,0.00019057405370673177,0.00042681882771823085,0.0,0.0,0.0,0.0,0.0,0.0,0.0,-0.00011631505389209096,-0.00035434255735915937,-2.471035593241619e-05,0.00021091476601453607,-6.920847091226867e-05,2.67124176023259e-05,-3.5913398290676746e-05,0.00019802178444924395,-0.0011010164488452238,-0.00020472135051077445,-0.0008140502576691764,0.0003522646206153057,-0.00019057405370673177,-0.00042681882771823085,0.4267818331718445,22.720483779907227,0.1253325641155243,-14.008821487426758,-0.09367901086807251,-2.1261630058288574,0.41965049505233765,0
3,0.01000070571899414,-0.4267818331718445,-22.720483779907227,-0.1253325641155243,14.008821487426758,0.09367901086807251,2.1261630058288574,-0.41965049505233765,0.0,0.0,0.0,0.0,0.0,0.0,0.0,-0.45229403796660683,0.05185314891544941,-0.21139694188796831,0.1801535733567002,-0.14911564742035555,-0.05476522405255099,-0.4049863921927427,1.6756136698081223,0.052458669382229185,0.02999421546521747,-2.7526057598919826,0.03431401245792707,2.76634124188953,0.7691989667452953,1.6754973547542302,0.052104326824870026,0.029969505109285054,-2.752394845125968,0.0342448039870148,2.7663679543071322,0.7691630533470046,-0.00019802178444924395,0.0011010164488452238,0.00020472135051077445,0.0008140502576691764,-0.0003522646206153057,0.00019057405370673177,0.00042681882771823085,0.0,0.0,0.0,0.0,0.0,0.0,0.0,-0.00011631505389209096,-0.00035434255735915937,-2.471035593241619e-05,0.00021091476601453607,-6.920847091226867e-05,2.67124176023259e-05,-3.5913398290676746e-05,0.00019802178444924395,-0.0011010164488452238,-0.00020472135051077445,-0.0008140502576691764,0.0003522646206153057,-0.00019057405370673177,-0.00042681882771823085,0.4267818331718445,22.720483779907227,0.1253325641155243,-14.008821487426758,-0.09367901086807251,-2.1261630058288574,0.41965049505233765,0
4,0.014992952346801758,-0.4029781222343445,-22.748254776000977,-0.09756157547235489,14.032625198364258,0.08177715539932251,2.1197543144226074,-0.41965049505233765,0.0,0.0,0.0,0.0,0.0,0.0,0.0,-0.44894039823094867,0.05012060379829575,-0.21310766961111638,0.18690587388222743,-0.1485537747717595,-0.05394920535103814,-0.40631784953385885,1.6756145391822197,0.052460618224060326,0.02999222734605319,-2.7526055946002455,0.03431852868383252,2.7663419539663527,0.7691989573779472,1.6754973547542302,0.052104326824870026,0.029969505109285054,-2.752394845125968,0.0342448039870148,2.7663679543071322,0.7691630533470046,0.00012297426028532073,-0.00016682126952661226,0.00023181875276492245,0.00039798865152325863,0.00010757340405571632,0.00026123234449774134,0.0007447540669028304,0.0,0.0,0.0,0.0,0.0,0.0,0.0,-0.0001171844279894696,-0.0003562913991903005,-2.2722236768135673e-05,0.0002107494742773497,-7.372469681771882e-05,2.600034077948621e-05,-3.590403094255734e-05,-0.00012297426028532073,0.00016682126952661226,-0.00023181875276492245,-0.00039798865152325863,-0.00010757340405571632,-0.00026123234449774134,-0.0007447540669028304,0.4029781222343445,22.748254776000977,0.09756157547235489,-14.032625198364258,-0.08177715539932251,-2.1197543144226074,0.41965049505233765,0
5,0.01999044418334961,-0.4029781222343445,-22.748254776000977,-0.09756157547235489,14.032625198364258,0.08177715539932251,2.1197543144226074,-0.41965049505233765,0.0,0.0,0.0,0.0,0.0,0.0,0.0,-0.44894039823094867,0.05012060379829575,-0.21310766961111638,0.18690587388222743,-0.1485537747717595,-0.05394920535103814,-0.40631784953385885,1.6756145391822197,0.052460618224060326,0.02999222734605319,-2.7526055946002455,0.03431852868383252,2.7663419539663527,0.7691989573779472,1.6754973547542302,0.052104326824870026,0.029969505109285054,-2.752394845125968,0.0342448039870148,2.7663679543071322,0.7691630533470046,0.00012297426028532073,-0.00016682126952661226,0.00023181875276492245,0.00039798865152325863,0.00010757340405571632,0.00026123234449774134,0.0007447540669028304,0.0,0.0,0.0,0.0,0.0,0.0,0.0,-0.0001171844279894696,-0.0003562913991903005,-2.2722236768135673e-05,0.0002107494742773497,-7.372469681771882e-05,2.600034077948621e-05,-3.590403094255734e-05,-0.00012297426028532073,0.00016682126952661226,-0.00023181875276492245,-0.00039798865152325863,-0.00010757340405571632,-0.00026123234449774134,-0.0007447540669028304,0.4029781222343445,22.748254776000977,0.09756157547235489,-14.032625198364258,-0.08177715539932251,-2.1197543144226074,0.41965049505233765,0
6,0.024988174438476562,-0.3514034152030945,-22.795862197875977,-0.04995415359735489,14.032625198364258,0.06987529993057251,2.1325716972351074,-0.40591758489608765,0.0,0.0,0.0,0.0,0.0,0.0,0.0,-0.4415060756151126,0.055780458074728735,-0.20743005107995766,0.18079382377179218,-0.14798632018569738,-0.05494645731714048,-0.4052152201545848,1.6756101722853016,0.052463959095770854,0.029989529375483288,-2.7526055681352686,0.03431985113024701,2.766340529812707,0.7691974452269625,1.6754973547542302,0.052104326824870026,0.029969505109285054,-2.752394845125968,0.0342448039870148,2.7663679543071322,0.7691630533470046,-0.0004274391968946924,0.000567443633912255,-0.0008699971879598392,-0.0001679521807151174,0.0007100146212870109,9.371647951701202e-05,0.000863135725009375,0.0,0.0,0.0,0.0,0.0,0.0,0.0,-0.00011281753107139636,-0.00035963227090082817,-2.0024266198234025e-05,0.00021072300930047305,-7.504714323221251e-05,2.742449442516559e-05,-3.4391879957906824e-05,0.0004274391968946924,-0.000567443633912255,0.0008699971879598392,0.0001679521807151174,-0.0007100146212870109,-9.371647951701202e-05,-0.000863135725009375,0.3514034152030945,22.795862197875977,0.04995415359735489,-14.032625198364258,-0.06987529993057251,-2.1325716972351074,0.40591758489608765,0
7,0.029990196228027344,-0.3514034152030945,-22.795862197875977,-0.04995415359735489,14.032625198364258,0.06987529993057251,2.1325716972351074,-0.40591758489608765,0.0,0.0,0.0,0.0,0.0,0.0,0.0,-0.4415060756151126,0.055780458074728735,-0.20743005107995766,0.18079382377179218,-0.14798632018569738,-0.05494645731714048,-0.4052152201545848,1.6756101722853016,0.052463959095770854,0.029989529375483288,-2.7526055681352686,0.03431985113024701,2.766340529812707,0.7691974452269625,1.6754973547542302,0.052104326824870026,0.029969505109285054,-2.752394845125968,0.0342448039870148,2.7663679543071322,0.7691630533470046,-0.0004274391968946924,0.000567443633912255,-0.0008699971879598392,-0.0001679521807151174,0.0007100146212870109,9.371647951701202e-05,0.000863135725009375,0.0,0.0,0.0,0.0,0.0,0.0,0.0,-0.00011281753107139636,-0.00035963227090082817,-2.0024266198234025e-05,0.00021072300930047305,-7.504714323221251e-05,2.742449442516559e-05,-3.4391879957906824e-05,0.0004274391968946924,-0.000567443633912255,0.0008699971879598392,0.0001679521807151174,-0.0007100146212870109,-9.371647951701202e-05,-0.000863135725009375,0.3514034152030945,22.795862197875977,0.04995415359735489,-14.032625198364258,-0.06987529993057251,-2.1325716972351074,0.40591758489608765,0
8,0.034992218017578125,-0.3752071261405945,-22.819665908813477,-0.04995415359735489,14.008821487426758,0.08177715539932251,2.1389803886413574,-0.39950889348983765,0.0,0.0,0.0,0.0,0.0,0.0,0.0,-0.43309614200807983,0.04675095672505973,-0.20116696637685225,0.18246974494040075,-0.1471153193775541,-0.053586738700148094,-0.4029378182547092,1.6756119446714193,0.05246562953162612,0.02998741738959363,-2.7526059611355658,0.0343185287018617,2.7663398177358838,0.7691967331502172,1.6754973547542302,0.052104326824870026,0.029969505109285054,-2.752394845125968,0.0342448039870148,2.7663679543071322,0.7691630533470046,-4.109519262454624e-05,0.0006207125292499243,-0.000675530989676308,0.0006609731852912582,0.00012059986714970881,-7.275524003327031e-05,-0.00020962716843015238,0.0,0.0,0.0,0.0,0.0,0.0,0.0,-0.00011458991718904521,-0.000361302706756092,-1.7912280308576833e-05,0.0002111160095976672,-7.372471484690113e-05,2.813657124844937e-05,-3.36798032125607e-05,4.109519262454624e-05,-0.0006207125292499243,0.000675530989676308,-0.0006609731852912582,-0.00012059986714970881,7.275524003327031e-05,0.00020962716843015238,0.3752071261405945,22.819665908813477,0.04995415359735489,-14.008821487426758,-0.08177715539932251,-2.1389803886413574,0.39950889348983765,0
9,0.039992570877075195,-0.3752071261405945,-22.819665908813477,-0.04995415359735489,14.008821487426758,0.08177715539932251,2.1389803886413574,-0.39950889348983765,0.0,0.0,0.0,0.0,0.0,0.0,0.0,-0.43309614200807983,0.04675095672505973,-0.20116696637685225,0.18246974494040075,-0.1471153193775541,-0.053586738700148094,-0.4029378182547092,1.6756119446714193,0.05246562953162612,0.02998741738959363,-2.7526059611355658,0.0343185287018617,2.7663398177358838,0.7691967331502172,1.6754973547542302,0.052104326824870026,0.029969505109285054,-2.752394845125968,0.0342448039870148,2.7663679543071322,0.7691630533470046,-4.109519262454624e-05,0.0006207125292499243,-0.000675530989676308,0.0006609731852912582,0.00012059986714970881,-7.275524003327031e-05,-0.00020962716843015238,0.0,0.0,0.0,0.0,0.0,0.0,0.0,-0.00011458991718904521,-0.000361302706756092,-1.7912280308576833e-05,0.0002111160095976672,-7.372471484690113e-05,2.813657124844937e-05,-3.36798032125607e-05,4.109519262454624e-05,-0.0006207125292499243,0.000675530989676308,-0.0006609731852912582,-0.00012059986714970881,7.275524003327031e-05,0.00020962716843015238,0.3752071261405945,22.819665908813477,0.04995415359735489,-14.008821487426758,-0.08177715539932251,-2.1389803886413574,0.39950889348983765,0
10,0.044991493225097656,-0.4029781222343445,-22.772058486938477,-0.07375786453485489,14.032625198364258,0.08818584680557251,2.1389803886413574,-0.42605918645858765,0.0,0.0,0.0,0.0,0.0,0.0,0.0,-0.42564989927315905,0.04619601494444472,-0.19718995447935977,0.1747082743959687,-0.1464879630594445,-0.054141074355432056,-0.4039844134536006,1.6756116505924858,0.05246228865991559,0.02998906993464863,-2.752607659916044,0.034317816625038786,2.7663398177358838,0.7691996830212636,1.6754973547542302,0.052104326824870026,0.029969505109285054,-2.752394845125968,0.0342448039870148,2.7663679543071322,0.7691630533470046,-0.0003756685141211295,5.879713506607462e-05,-0.0006075291243765284,-0.00020923551990104496,-0.00016636941466957356,-0.000353109396530787,0.0006973301516088956,0.0,0.0,0.0,0.0,0.0,0.0,0.0,-0.00011429583825561807,-0.00035796183504556434,-1.956482536357579e-05,0.00021281479007573267,-7.301263802398511e-05,2.813657124844937e-05,-3.662967425899222e-05,0.0003756685141211295,-5.879713506607462e-05,0.0006075291243765284,0.00020923551990104496,0.00016636941466957356,0.000353109396530787,-0.0006973301516088956,0.4029781222343445,22.772058486938477,0.07375786453485489,-14.032625198364258,-0.08818584680557251,-2.1389803886413574,0.42605918645858765,0
11,0.04999399185180664,-0.4029781222343445,-22.772058486938477,-0.07375786453485489,14.032625198364258,0.08818584680557251,2.1389803886413574,-0.42605918645858765,0.0,0.0,0.0,0.0,0.0,0.0,0.0,-0.42564989927315905,0.04619601494444472,-0.19718995447935977,0.1747082743959687,-0.1464879630594445,-0.054141074355432056,-0.4039844134536006,1.6756116505924858,0.05246228865991559,0.02998906993464863,-2.752607659916044,0.034317816625038786,2.7663398177358838,0.7691996830212636,1.6754973547542302,0.052104326824870026,0.029969505109285054,-2.752394845125968,0.0342448039870148,2.7663679543071322,0.7691630533470046,-0.0003756685141211295,5.879713506607462e-05,-0.0006075291243765284,-0.00020923551990104496,-0.00016636941466957356,-0.000353109396530787,0.0006973301516088956,0.0,0.0,0.0,0.0,0.0,0.0,0.0,-0.00011429583825561807,-0.00035796183504556434,-1.956482536357579e-05,0.00021281479007573267,-7.301263802398511e-05,2.813657124844937e-05,-3.662967425899222e-05,0.0003756685141211295,-5.879713506607462e-05,0.0006075291243765284,0.00020923551990104496,0.00016636941466957356,0.000353109396530787,-0.0006973301516088956,0.4029781222343445,22.772058486938477,0.07375786453485489,-14.032625198364258,-0.08818584680557251,-2.1389803886413574,0.42605918645858765,0
12,0.05499148368835449,-0.4505855441093445,-22.748254776000977,-0.1491362750530243,14.032625198364258,0.08818584680557251,2.1261630058288574,-0.43338340520858765,0.0,0.0,0.0,0.0,0.0,0.0,0.0,-0.42205203394365526,0.04642956187393774,-0.19231501218666722,0.17726767038116298,-0.14683242099459334,-0.05321053686304112,-0.405451171194624,1.675615070920756,0.052460618224060326,0.02999364197433516,-2.7526076265678823,0.034317816625038786,2.76634124188953,0.7692004824493492,1.6754973547542302,0.052104326824870026,0.029969505109285054,-2.752394845125968,0.0342448039870148,2.7663679543071322,0.7691630533470046,-1.3994367473239265e-05,0.0007696920445673029,0.0008192595924988442,0.00035288115658579136,2.2200509348456585e-05,8.523128748604472e-05,0.0014652413036970193,0.0,0.0,0.0,0.0,0.0,0.0,0.0,-0.0001177161665257831,-0.0003562913991903005,-2.4136865050105455e-05,0.00021278144191416715,-7.301263802398511e-05,2.67124176023259e-05,-3.74291023446105e-05,1.3994367473239265e-05,-0.0007696920445673029,-0.0008192595924988442,-0.00035288115658579136,-2.2200509348456585e-05,-8.523128748604472e-05,-0.0014652413036970193,0.4505855441093445,22.748254776000977,0.1491362750530243,-14.032625198364258,-0.08818584680557251,-2.1261630058288574,0.43338340520858765,0
13,0.05999112129211426,-0.4505855441093445,-22.748254776000977,-0.1491362750530243,14.032625198364258,0.08818584680557251,2.1261630058288574,-0.43338340520858765,0.0,0.0,0.0,0.0,0.0,0.0,0.0,-0.42205203394365526,0.04642956187393774,-0.19231501218666722,0.17726767038116298,-0.14683242099459334,-0.05321053686304112,-0.405451171194624,1.675615070920756,0.052460618224060326,0.02999364197433516,-2.7526076265678823,0.034317816625038786,2.76634124188953,0.7692004824493492,1.6754973547542302,0.052104326824870026,0.029969505109285054,-2.752394845125968,0.0342448039870148,2.7663679543071322,0.7691630533470046,-1.3994367473239265e-05,0.0007696920445673029,0.0008192595924988442,0.00035288115658579136,2.2200509348456585e-05,8.523128748604472e-05,0.0014652413036970193,0.0,0.0,0.0,0.0,0.0,0.0,0.0,-0.0001177161665257831,-0.0003562913991903005,-2.4136865050105455e-05,0.00021278144191416715,-7.301263802398511e-05,2.67124176023259e-05,-3.74291023446105e-05,1.3994367473239265e-05,-0.0007696920445673029,-0.0008192595924988442,-0.00035288115658579136,-2.2200509348456585e-05,-8.523128748604472e-05,-0.0014652413036970193,0.4505855441093445,22.748254776000977,0.1491362750530243,-14.032625198364258,-0.08818584680557251,-2.1261630058288574,0.43338340520858765,0
14,0.06501603126525879,-0.5021602511405945,-22.696680068969727,-0.1729399859905243,14.032625198364258,0.08818584680557251,2.1325716972351074,-0.43338340520858765,0.0,0.0,0.0,0.0,0.0,0.0,0.0,-0.4255322361592892,0.04575045372213674,-0.19499369826886873,0.17974967911443443,-0.14674980837160814,-0.0533006026352967,-0.40391683040747717,1.6756186372169846,0.05245699894637392,0.029998262842280216,-2.7526054925271333,0.034317816625038786,2.766340529812707,0.7692004562315284,1.6754973547542302,0.052104326824870026,0.029969505109285054,-2.752394845125968,0.0342448039870148,2.7663679543071322,0.7691630533470046,0.0006344259924642219,-0.0007345594879467994,0.0009156145477831545,0.00017947132898994865,-9.357851380904821e-05,-7.94165689241576e-05,0.0018050089068557978,0.0,0.0,0.0,0.0,0.0,0.0,0.0,-0.00012128246275433519,-0.00035267212150389554,-2.8757732995161878e-05,0.0002106474011651649,-7.301263802398511e-05,2.742449442516559e-05,-3.7402884523807245e-05,-0.0006344259924642219,0.0007345594879467994,-0.0009156145477831545,-0.00017947132898994865,9.357851380904821e-05,7.94165689241576e-05,-0.0018050089068557978,0.5021602511405945,22.696680068969727,0.1729399859905243,-14.032625198364258,-0.08818584680557251,-2.1325716972351074,0.43338340520858765,0
15,0.07056260108947754,-0.5021602511405945,-22.696680068969727,-0.1729399859905243,14.032625198364258,0.08818584680557251,2.1325716972351074,-0.43338340520858765,0.0,0.0,0.0,0.0,0.0,0.0,0.0,-0.4255322361592892,0.04575045372213674,-0.19499369826886873,0.17974967911443443,-0.14674980837160814,-0.0533006026352967,-0.40391683040747717,1.6756186372169846,0.05245699894637392,0.029998262842280216,-2.7526054925271333,0.034317816625038786,2.766340529812707,0.7692004562315284,1.6754973547542302,0.052104326824870026,0.029969505109285054,-2.752394845125968,0.0342448039870148,2.7663679543071322,0.7691630533470046,0.0006344259924642219,-0.0007345594879467994,0.0009156145477831545,0.00017947132898994865,-9.357851380904821e-05,-7.94165689241576e-05,0.0018050089068557978,0.0,0.0,0.0,0.0,0.0,0.0,0.0,-0.00012128246275433519,-0.00035267212150389554,-2.8757732995161878e-05,0.0002106474011651649,-7.301263802398511e-05,2.742449442516559e-05,-3.7402884523807245e-05,-0.0006344259924642219,0.0007345594879467994,-0.0009156145477831545,-0.00017947132898994865,9.357851380904821e-05,7.94165689241576e-05,-0.0018050089068557978,0.5021602511405945,22.696680068969727,0.1729399859905243,-14.032625198364258,-0.08818584680557251,-2.1325716972351074,0.43338340520858765,0
16,0.07500672340393066,-0.5021602511405945,-22.696680068969727,-0.1729399859905243,14.032625198364258,0.08818584680557251,2.1325716972351074,-0.43338340520858765,0.0,0.0,0.0,0.0,0.0,0.0,0.0,-0.4255322361592892,0.04575045372213674,-0.19499369826886873,0.17974967911443443,-0.14674980837160814,-0.0533006026352967,-0.40391683040747717,1.6756186372169846,0.05245699894637392,0.029998262842280216,-2.7526054925271333,0.034317816625038786,2.766340529812707,0.7692004562315284,1.6754973547542302,0.052104326824870026,0.029969505109285054,-2.752394845125968,0.0342448039870148,2.7663679543071322,0.7691630533470046,0.0006344259924642219,-0.0007345594879467994,0.0009156145477831545,0.00017947132898994865,-9.357851380904821e-05,-7.94165689241576e-05,0.0018050089068557978,0.0,0.0,0.0,0.0,0.0,0.0,0.0,-0.00012128246275433519,-0.00035267212150389554,-2.8757732995161878e-05,0.0002106474011651649,-7.301263802398511e-05,2.742449442516559e-05,-3.7402884523807245e-05,-0.0006344259924642219,0.0007345594879467994,-0.0009156145477831545,-0.00017947132898994865,9.357851380904821e-05,7.94165689241576e-05,-0.0018050089068557978,0.5021602511405945,22.696680068969727,0.1729399859905243,-14.032625198364258,-0.08818584680557251,-2.1325716972351074,0.43338340520858765,0
17,0.07999324798583984,-0.5021602511405945,-22.696680068969727,-0.1729399859905243,14.032625198364258,0.08818584680557251,2.1325716972351074,-0.43338340520858765,0.0,0.0,0.0,0.0,0.0,0.0,0.0,-0.4255322361592892,0.04575045372213674,-0.19499369826886873,0.17974967911443443,-0.14674980837160814,-0.0533006026352967,-0.40391683040747717,1.6756186372169846,0.05245699894637392,0.029998262842280216,-2.7526054925271333,0.034317816625038786,2.766340529812707,0.7692004562315284,1.6754973547542302,0.052104326824870026,0.029969505109285054,-2.752394845125968,0.0342448039870148,2.7663679543071322,0.7691630533470046,0.0006344259924642219,-0.0007345594879467994,0.0009156145477831545,0.00017947132898994865,-9.357851380904821e-05,-7.94165689241576e-05,0.0018050089068557978,0.0,0.0,0.0,0.0,0.0,0.0,0.0,-0.00012128246275433519,-0.00035267212150389554,-2.8757732995161878e-05,0.0002106474011651649,-7.301263802398511e-05,2.742449442516559e-05,-3.7402884523807245e-05,-0.0006344259924642219,0.0007345594879467994,-0.0009156145477831545,-0.00017947132898994865,9.357851380904821e-05,7.94165689241576e-05,-0.0018050089068557978,0.5021602511405945,22.696680068969727,0.1729399859905243,-14.032625198364258,-0.08818584680557251,-2.1325716972351074,0.43338340520858765,0
18,0.0849916934967041,-0.4783565402030945,-22.748254776000977,-0.1491362750530243,14.056428909301758,0.08818584680557251,2.1261630058288574,-0.44711631536483765,0.0,0.0,0.0,0.0,0.0,0.0,0.0,-0.43666762177279134,0.04617953541478508,-0.203648231653664,0.18640060380019027,-0.1467079562432581,-0.05301384133664854,-0.4028400709571807,1.6756171699871545,0.052460618224060326,0.02999375595352195,-2.752608634051461,0.034317816462776145,2.76634124188953,0.7692020228635288,1.6754973547542302,0.052104326824870026,0.029969505109285054,-2.752394845125968,0.0342448039870148,2.7663679543071322,0.7691630533470046,-0.0005043045573463243,0.00024321363869116844,-0.00028251666184177454,-0.0003077695883553943,-0.00015304985937219815,0.00010334067990331709,0.0013437061382274857,0.0,0.0,0.0,0.0,0.0,0.0,0.0,-0.00011981523292425855,-0.0003562913991903005,-2.4250844236895636e-05,0.00021378892549295259,-7.301247576134429e-05,2.67124176023259e-05,-3.896951652415659e-05,0.0005043045573463243,-0.00024321363869116844,0.00028251666184177454,0.0003077695883553943,0.00015304985937219815,-0.00010334067990331709,-0.0013437061382274857,0.4783565402030945,22.748254776000977,0.1491362750530243,-14.056428909301758,-0.08818584680557251,-2.1261630058288574,0.44711631536483765,0
19,0.08999514579772949,-0.4783565402030945,-22.748254776000977,-0.1491362750530243,14.056428909301758,0.08818584680557251,2.1261630058288574,-0.44711631536483765,0.0,0.0,0.0,0.0,0.0,0.0,0.0,-0.43666762177279134,0.04617953541478508,-0.203648231653664,0.18640060380019027,-0.1467079562432581,-0.05301384133664854,-0.4028400709571807,1.6756171699871545,0.052460618224060326,0.02999375595352195,-2.752608634051461,0.034317816462776145,2.76634124188953,0.7692020228635288,1.6754973547542302,0.052104326824870026,0.029969505109285054,-2.752394845125968,0.0342448039870148,2.7663679543071322,0.7691630533470046,-0.0005043045573463243,0.00024321363869116844,-0.00028251666184177454,-0.0003077695883553943,-0.00015304985937219815,0.00010334067990331709,0.0013437061382274857,0.0,0.0,0.0,0.0,0.0,0.0,0.0,-0.00011981523292425855,-0.0003562913991903005,-2.4250844236895636e-05,0.00021378892549295259,-7.301247576134429e-05,2.67124176023259e-05,-3.896951652415659e-05,0.0005043045573463243,-0.00024321363869116844,0.00028251666184177454,0.0003077695883553943,0.00015304985937219815,-0.00010334067990331709,-0.0013437061382274857,0.4783565402030945,22.748254776000977,0.1491362750530243,-14.056428909301758,-0.08818584680557251,-2.1261630058288574,0.44711631536483765,0
20,0.09499549865722656,-0.4505855441093445,-22.795862197875977,-0.1491362750530243,14.032625198364258,0.08818584680557251,2.1453890800476074,-0.43338340520858765,0.0,0.0,0.0,0.0,0.0,0.0,0.0,-0.44028770522169236,0.044582658112342924,-0.20542389956045642,0.19000548716814866,-0.14694082716700974,-0.0525791432641495,-0.4049858530849517,1.675617208875102,0.052463959095770854,0.029995856256629483,-2.7526074312013615,0.034317816625014055,2.766339105659061,0.7692004926242019,1.6754973547542302,0.052104326824870026,0.029969505109285054,-2.752394845125968,0.0342448039870148,2.7663679543071322,0.7691630533470046,-0.0001472321795713307,0.0005850573614240488,-1.0939288334447415e-06,0.000892842556772791,-9.50680130685551e-06,-0.0004885934286181224,0.0007306287322865523,0.0,0.0,0.0,0.0,0.0,0.0,0.0,-0.00011985412087178737,-0.00035963227090082817,-2.635114734442917e-05,0.00021258607539342833,-7.301263799925489e-05,2.8848648071289062e-05,-3.743927719723761e-05,0.0001472321795713307,-0.0005850573614240488,1.0939288334447415e-06,-0.000892842556772791,9.50680130685551e-06,0.0004885934286181224,-0.0007306287322865523,0.4505855441093445,22.795862197875977,0.1491362750530243,-14.032625198364258,-0.08818584680557251,-2.1453890800476074,0.43338340520858765,0
21,0.09999537467956543,-0.4505855441093445,-22.795862197875977,-0.1491362750530243,14.032625198364258,0.08818584680557251,2.1453890800476074,-0.43338340520858765,0.0,0.0,0.0,0.0,0.0,0.0,0.0,-0.44028770522169236,0.044582658112342924,-0.20542389956045642,0.19000548716814866,-0.14694082716700974,-0.0525791432641495,-0.4049858530849517,1.675617208875102,0.052463959095770854,0.029995856256629483,-2.7526074312013615,0.034317816625014055,2.766339105659061,0.7692004926242019,1.6754973547542302,0.052104326824870026,0.029969505109285054,-2.752394845125968,0.0342448039870148,2.7663679543071322,0.7691630533470046,-0.0001472321795713307,0.0005850573614240488,-1.0939288334447415e-06,0.000892842556772791,-9.50680130685551e-06,-0.0004885934286181224,0.0007306287322865523,0.0,0.0,0.0,0.0,0.0,0.0,0.0,-0.00011985412087178737,-0.00035963227090082817,-2.635114734442917e-05,0.00021258607539342833,-7.301263799925489e-05,2.8848648071289062e-05,-3.743927719723761e-05,0.0001472321795713307,-0.0005850573614240488,1.0939288334447415e-06,-0.000892842556772791,9.50680130685551e-06,0.0004885934286181224,-0.0007306287322865523,0.4505855441093445,22.795862197875977,0.1491362750530243,-14.032625198364258,-0.08818584680557251,-2.1453890800476074,0.43338340520858765,0
22,0.10503816604614258,-0.3752071261405945,-22.772058486938477,-0.07375786453485489,14.008821487426758,0.08177715539932251,2.1453890800476074,-0.37845176458358765,0.0,0.0,0.0,0.0,0.0,0.0,0.0,-0.4404809091563421,0.045874548680733394,-0.2058064683605589,0.18458010994837867,-0.14688864673372184,-0.05312426833293567,-0.4068232414349972,1.6756097017483673,0.05246228865991559,0.029991268087269565,-2.7526059649139327,0.0343185287018617,2.766339105659061,0.7691939990725939,1.6754973547542302,0.052104326824870026,0.029969505109285054,-2.752394845125968,0.0342448039870148,2.7663679543071322,0.7691630533470046,-0.0012580420076877467,-8.97516049422851e-05,-0.000493487634206294,0.0008655518481995932,3.9732813174948756e-05,-0.0006259744629332475,-0.0011322991677110998,0.0,0.0,0.0,0.0,0.0,0.0,0.0,-0.00011234699413709137,-0.00035796183504556434,-2.1762977984510906e-05,0.00021111978796461983,-7.372471484690113e-05,2.8848648071289062e-05,-3.094572558925979e-05,0.0012580420076877467,8.97516049422851e-05,0.000493487634206294,-0.0008655518481995932,-3.9732813174948756e-05,0.0006259744629332475,0.0011322991677110998,0.3752071261405945,22.772058486938477,0.07375786453485489,-14.008821487426758,-0.08177715539932251,-2.1453890800476074,0.37845176458358765,0
23,0.10999298095703125,-0.3752071261405945,-22.772058486938477,-0.07375786453485489,14.008821487426758,0.08177715539932251,2.1453890800476074,-0.37845176458358765,0.0,0.0,0.0,0.0,0.0,0.0,0.0,-0.4404809091563421,0.045874548680733394,-0.2058064683605589,0.18458010994837867,-0.14688864673372184,-0.05312426833293567,-0.4068232414349972,1.6756097017483673,0.05246228865991559,0.029991268087269565,-2.7526059649139327,0.0343185287018617,2.766339105659061,0.7691939990725939,1.6754973547542302,0.052104326824870026,0.029969505109285054,-2.752394845125968,0.0342448039870148,2.7663679543071322,0.7691630533470046,-0.0012580420076877467,-8.97516049422851e-05,-0.000493487634206294,0.0008655518481995932,3.9732813174948756e-05,-0.0006259744629332475,-0.0011322991677110998,0.0,0.0,0.0,0.0,0.0,0.0,0.0,-0.00011234699413709137,-0.00035796183504556434,-2.1762977984510906e-05,0.00021111978796461983,-7.372471484690113e-05,2.8848648071289062e-05,-3.094572558925979e-05,0.0012580420076877467,8.97516049422851e-05,0.000493487634206294,-0.0008655518481995932,-3.9732813174948756e-05,0.0006259744629332475,0.0011322991677110998,0.3752071261405945,22.772058486938477,0.07375786453485489,-14.008821487426758,-0.08177715539932251,-2.1453890800476074,0.37845176458358765,0
24,0.114990234375,-0.4029781222343445,-22.748254776000977,-0.04995415359735489,14.008821487426758,0.08177715539932251,2.1261630058288574,-0.39218467473983765,0.0,0.0,0.0,0.0,0.0,0.0,0.0,-0.4371258775167641,0.04105865165747304,-0.20121386579368983,0.18299151538482056,-0.14687702549343848,-0.052937380893618075,-0.4061900006654617,1.675611644725646,0.052460618224060326,0.0299874004765181,-2.752605225165696,0.0343185287018617,2.76634124188953,0.7691916807933902,1.6754973547542302,0.052104326824870026,0.029969505109285054,-2.752394845125968,0.0342448039870148,2.7663679543071322,0.7691630533470046,0.0005848441863434251,-0.0004189035421263322,-0.00027899560609037313,0.00123143514558687,0.00017474584054295893,5.405539859972814e-05,-0.000934464809792523,0.0,0.0,0.0,0.0,0.0,0.0,0.0,-0.00011428997141571529,-0.0003562913991903005,-1.7895367233046466e-05,0.00021038003972773112,-7.372471484690113e-05,2.67124176023259e-05,-2.8627446385542932e-05,-0.0005848441863434251,0.0004189035421263322,0.00027899560609037313,-0.00123143514558687,-0.00017474584054295893,-5.405539859972814e-05,0.000934464809792523,0.4029781222343445,22.748254776000977,0.04995415359735489,-14.008821487426758,-0.08177715539932251,-2.1261630058288574,0.39218467473983765,0
25,0.12026286125183105,-0.4029781222343445,-22.748254776000977,-0.04995415359735489,14.008821487426758,0.08177715539932251,2.1261630058288574,-0.39218467473983765,0.0,0.0,0.0,0.0,0.0,0.0,0.0,-0.4371258775167641,0.04105865165747304,-0.20121386579368983,0.18299151538482056,-0.14687702549343848,-0.052937380893618075,-0.4061900006654617,1.675611644725646,0.052460618224060326,0.0299874004765181,-2.752605225165696,0.0343185287018617,2.76634124188953,0.7691916807933902,1.6754973547542302,0.052104326824870026,0.029969505109285054,-2.752394845125968,0.0342448039870148,2.7663679543071322,0.7691630533470046,0.0005848441863434251,-0.0004189035421263322,-0.00027899560609037313,0.00123143514558687,0.00017474584054295893,5.405539859972814e-05,-0.000934464809792523,0.0,0.0,0.0,0.0,0.0,0.0,0.0,-0.00011428997141571529,-0.0003562913991903005,-1.7895367233046466e-05,0.00021038003972773112,-7.372471484690113e-05,2.67124176023259e-05,-2.8627446385542932e-05,-0.0005848441863434251,0.0004189035421263322,0.00027899560609037313,-0.00123143514558687,-0.00017474584054295893,-5.405539859972814e-05,0.000934464809792523,0.4029781222343445,22.748254776000977,0.04995415359735489,-14.008821487426758,-0.08177715539932251,-2.1261630058288574,0.39218467473983765,0
26,0.12498855590820312,-0.4029781222343445,-22.748254776000977,-0.04995415359735489,14.080232620239258,0.07628399133682251,2.1325716972351074,-0.39950889348983765,0.0,0.0,0.0,0.0,0.0,0.0,0.0,-0.4312062327891592,0.04489481118930836,-0.19671436514665286,0.18066097809431486,-0.14626831131715093,-0.054053169428049046,-0.40708031292782415,1.6756116447256129,0.052460618224060326,0.029989544730944243,-2.7526109157508003,0.0343191390534242,2.766340529812707,0.7691967281196174,1.6754973547542302,0.052104326824870026,0.029969505109285054,-2.752394845125968,0.0342448039870148,2.7663679543071322,0.7691630533470046,0.0004894499385526913,0.0002911304789400759,-0.000535765482493409,-0.0007963745854216001,0.0003775050722700445,-0.00025412722356480457,-0.00043990173528192034,0.0,0.0,0.0,0.0,0.0,0.0,0.0,-0.00011428997138263064,-0.0003562913991903005,-2.0039621659188878e-05,0.00021607062483219863,-7.433506640940057e-05,2.742449442516559e-05,-3.3674772612735104e-05,-0.0004894499385526913,-0.0002911304789400759,0.000535765482493409,0.0007963745854216001,-0.0003775050722700445,0.00025412722356480457,0.00043990173528192034,0.4029781222343445,22.748254776000977,0.04995415359735489,-14.080232620239258,-0.07628399133682251,-2.1325716972351074,0.39950889348983765,0
27,0.12999701499938965,-0.4029781222343445,-22.748254776000977,-0.04995415359735489,14.080232620239258,0.07628399133682251,2.1325716972351074,-0.39950889348983765,0.0,0.0,0.0,0.0,0.0,0.0,0.0,-0.4312062327891592,0.04489481118930836,-0.19671436514665286,0.18066097809431486,-0.14626831131715093,-0.054053169428049046,-0.40708031292782415,1.6756116447256129,0.052460618224060326,0.029989544730944243,-2.7526109157508003,0.0343191390534242,2.766340529812707,0.7691967281196174,1.6754973547542302,0.052104326824870026,0.029969505109285054,-2.752394845125968,0.0342448039870148,2.7663679543071322,0.7691630533470046,0.0004894499385526913,0.0002911304789400759,-0.000535765482493409,-0.0007963745854216001,0.0003775050722700445,-0.00025412722356480457,-0.00043990173528192034,0.0,0.0,0.0,0.0,0.0,0.0,0.0,-0.00011428997138263064,-0.0003562913991903005,-2.0039621659188878e-05,0.00021607062483219863,-7.433506640940057e-05,2.742449442516559e-05,-3.3674772612735104e-05,-0.0004894499385526913,-0.0002911304789400759,0.000535765482493409,0.0007963745854216001,-0.0003775050722700445,0.00025412722356480457,0.00043990173528192034,0.4029781222343445,22.748254776000977,0.04995415359735489,-14.080232620239258,-0.07628399133682251,-2.1325716972351074,0.39950889348983765,0
28,0.13500714302062988,-0.4267818331718445,-22.748254776000977,-0.1491362750530243,14.032625198364258,0.08177715539932251,2.1325716972351074,-0.41965049505233765,0.0,0.0,0.0,0.0,0.0,0.0,0.0,-0.42682722323373457,0.04891417846649718,-0.1958818203741133,0.1810158686204802,-0.1459372780341247,-0.054695523783504174,-0.4069184054359398,1.6756133122907064,0.052460618224060326,0.029996347358367738,-2.752606883283717,0.0343185287018617,2.766340529812707,0.7691978678612813,1.6754973547542302,0.052104326824870026,0.029969505109285054,-2.752394845125968,0.0342448039870148,2.7663679543071322,0.7691630533470046,0.000335548884523215,0.0004443233513102928,0.0009851648466765058,-8.85800507092249e-06,0.00018954018478761455,7.013605655157224e-05,0.0009753562518584315,0.0,0.0,0.0,0.0,0.0,0.0,0.0,-0.00011595753647619667,-0.0003562913991903005,-2.6842249082684178e-05,0.0002120381577488395,-7.372471484690113e-05,2.742449442516559e-05,-3.481451427667093e-05,-0.000335548884523215,-0.0004443233513102928,-0.0009851648466765058,8.85800507092249e-06,-0.00018954018478761455,-7.013605655157224e-05,-0.0009753562518584315,0.4267818331718445,22.748254776000977,0.1491362750530243,-14.032625198364258,-0.08177715539932251,-2.1325716972351074,0.41965049505233765,0
29,0.13999652862548828,-0.4267818331718445,-22.748254776000977,-0.1491362750530243,14.032625198364258,0.08177715539932251,2.1325716972351074,-0.41965049505233765,0.0,0.0,0.0,0.0,0.0,0.0,0.0,-0.42682722323373457,0.04891417846649718,-0.1958818203741133,0.1810158686204802,-0.1459372780341247,-0.054695523783504174,-0.4069184054359398,1.6756133122907064,0.052460618224060326,0.029996347358367738,-2.752606883283717,0.0343185287018617,2.766340529812707,0.7691978678612813,1.6754973547542302,0.052104326824870026,0.029969505109285054,-2.752394845125968,0.0342448039870148,2.7663679543071322,0.7691630533470046,0.000335548884523215,0.0004443233513102928,0.0009851648466765058,-8.85800507092249e-06,0.00018954018478761455,7.013605655157224e-05,0.0009753562518584315,0.0,0.0,0.0,0.0,0.0,0.0,0.0,-0.00011595753647619667,-0.0003562913991903005,-2.6842249082684178e-05,0.0002120381577488395,-7.372471484690113e-05,2.742449442516559e-05,-3.481451427667093e-05,-0.000335548884523215,-0.0004443233513102928,-0.0009851648466765058,8.85800507092249e-06,-0.00018954018478761455,-7.013605655157224e-05,-0.0009753562518584315,0.4267818331718445,22.748254776000977,0.1491362750530243,-14.032625198364258,-0.08177715539932251,-2.1325716972351074,0.41965049505233765,0
30,0.13999652862548828,-0.4267818331718445,-22.748254776000977,-0.1491362750530243,14.032625198364258,0.08177715539932251,2.1325716972351074,-0.41965049505233765,0.0,0.0,0.0,0.0,0.0,0.0,0.0,-0.42682722323373457,0.04891417846649718,-0.1958818203741133,0.1810158686204802,-0.1459372780341247,-0.054695523783504174,-0.4069184054359398,1.6756133122907064,0.052460618224060326,0.029996347358367738,-2.752606883283717,0.0343185287018617,2.766340529812707,0.7691978678612813,1.6754973547542302,0.052104326824870026,0.029969505109285054,-2.752394845125968,0.0342448039870148,2.7663679543071322,0.7691630533470046,0.000335548884523215,0.0004443233513102928,0.0009851648466765058,-8.85800507092249e-06,0.00018954018478761455,7.013605655157224e-05,0.0009753562518584315,0.0,0.0,0.0,0.0,0.0,0.0,0.0,-0.00011595753647619667,-0.0003562913991903005,-2.6842249082684178e-05,0.0002120381577488395,-7.372471484690113e-05,2.742449442516559e-05,-3.481451427667093e-05,-0.000335548884523215,-0.0004443233513102928,-0.0009851648466765058,8.85800507092249e-06,-0.00018954018478761455,-7.013605655157224e-05,-0.0009753562518584315,0.4267818331718445,22.748254776000977,0.1491362750530243,-14.032625198364258,-0.08177715539932251,-2.1325716972351074,0.41965049505233765,0
31,0.15000414848327637,-0.4505855441093445,-22.696680068969727,-0.1491362750530243,14.056428909301758,0.07628399133682251,2.1261630058288574,-0.43979209661483765,0.0,0.0,0.0,0.0,0.0,0.0,0.0,-0.42584919962170353,0.050459293605612285,-0.1945824283034255,0.18456629343474726,-0.14613958586750023,-0.05385310074160259,-0.4059902342735333,1.6756152210361084,0.05245699894637392,0.02999656641856205,-2.7526070013266972,0.0343191390534242,2.76634124188953,0.769201169809591,1.6754973547542302,0.052104326824870026,0.029969505109285054,-2.752394845125968,0.0342448039870148,2.7663679543071322,0.7691630533470046,-0.0002802457768939393,-0.0007734229886270675,0.0004951404486542795,-0.0001467147503035153,0.00025117000716570157,0.0002448505175922334,0.0009360889511424116,0.0,0.0,0.0,0.0,0.0,0.0,0.0,-0.00011786628187815396,-0.00035267212150389554,-2.706130927699474e-05,0.0002121562007291189,-7.433506640940057e-05,2.67124176023259e-05,-3.8116462586335054e-05,0.0002802457768939393,0.0007734229886270675,-0.0004951404486542795,0.0001467147503035153,-0.00025117000716570157,-0.0002448505175922334,-0.0009360889511424116,0.4505855441093445,22.696680068969727,0.1491362750530243,-14.056428909301758,-0.07628399133682251,-2.1261630058288574,0.43979209661483765,0
32,0.15501952171325684,-0.4505855441093445,-22.696680068969727,-0.1491362750530243,14.056428909301758,0.07628399133682251,2.1261630058288574,-0.43979209661483765,0.0,0.0,0.0,0.0,0.0,0.0,0.0,-0.42584919962170353,0.050459293605612285,-0.1945824283034255,0.18456629343474726,-0.14613958586750023,-0.05385310074160259,-0.4059902342735333,1.6756152210361084,0.05245699894637392,0.02999656641856205,-2.7526070013266972,0.0343191390534242,2.76634124188953,0.769201169809591,1.6754973547542302,0.052104326824870026,0.029969505109285054,-2.752394845125968,0.0342448039870148,2.7663679543071322,0.7691630533470046,-0.0002802457768939393,-0.0007734229886270675,0.0004951404486542795,-0.0001467147503035153,0.00025117000716570157,0.0002448505175922334,0.0009360889511424116,0.0,0.0,0.0,0.0,0.0,0.0,0.0,-0.00011786628187815396,-0.00035267212150389554,-2.706130927699474e-05,0.0002121562007291189,-7.433506640940057e-05,2.67124176023259e-05,-3.8116462586335054e-05,0.0002802457768939393,0.0007734229886270675,-0.0004951404486542795,0.0001467147503035153,-0.00025117000716570157,-0.0002448505175922334,-0.0009360889511424116,0.4505855441093445,22.696680068969727,0.1491362750530243,-14.056428909301758,-0.07628399133682251,-2.1261630058288574,0.43979209661483765,0
33,0.15999817848205566,-0.4505855441093445,-22.696680068969727,-0.1491362750530243,14.056428909301758,0.07628399133682251,2.1261630058288574,-0.43979209661483765,0.0,0.0,0.0,0.0,0.0,0.0,0.0,-0.42584919962170353,0.050459293605612285,-0.1945824283034255,0.18456629343474726,-0.14613958586750023,-0.05385310074160259,-0.4059902342735333,1.6756152210361084,0.05245699894637392,0.02999656641856205,-2.7526070013266972,0.0343191390534242,2.76634124188953,0.769201169809591,1.6754973547542302,0.052104326824870026,0.029969505109285054,-2.752394845125968,0.0342448039870148,2.7663679543071322,0.7691630533470046,-0.0002802457768939393,-0.0007734229886270675,0.0004951404486542795,-0.0001467147503035153,0.00025117000716570157,0.0002448505175922334,0.0009360889511424116,0.0,0.0,0.0,0.0,0.0,0.0,0.0,-0.00011786628187815396,-0.00035267212150389554,-2.706130927699474e-05,0.0002121562007291189,-7.433506640940057e-05,2.67124176023259e-05,-3.8116462586335054e-05,0.0002802457768939393,0.0007734229886270675,-0.0004951404486542795,0.0001467147503035153,-0.00025117000716570157,-0.0002448505175922334,-0.0009360889511424116,0.4505855441093445,22.696680068969727,0.1491362750530243,-14.056428909301758,-0.07628399133682251,-2.1261630058288574,0.43979209661483765,0
34,0.1649930477142334,-0.4505855441093445,-22.696680068969727,-0.1491362750530243,14.056428909301758,0.07628399133682251,2.1261630058288574,-0.43979209661483765,0.0,0.0,0.0,0.0,0.0,0.0,0.0,-0.42584919962170353,0.050459293605612285,-0.1945824283034255,0.18456629343474726,-0.14613958586750023,-0.05385310074160259,-0.4059902342735333,1.6756152210361084,0.05245699894637392,0.02999656641856205,-2.7526070013266972,0.0343191390534242,2.76634124188953,0.769201169809591,1.6754973547542302,0.052104326824870026,0.029969505109285054,-2.752394845125968,0.0342448039870148,2.7663679543071322,0.7691630533470046,-0.0002802457768939393,-0.0007734229886270675,0.0004951404486542795,-0.0001467147503035153,0.00025117000716570157,0.0002448505175922334,0.0009360889511424116,0.0,0.0,0.0,0.0,0.0,0.0,0.0,-0.00011786628187815396,-0.00035267212150389554,-2.706130927699474e-05,0.0002121562007291189,-7.433506640940057e-05,2.67124176023259e-05,-3.8116462586335054e-05,0.0002802457768939393,0.0007734229886270675,-0.0004951404486542795,0.0001467147503035153,-0.00025117000716570157,-0.0002448505175922334,-0.0009360889511424116,0.4505855441093445,22.696680068969727,0.1491362750530243,-14.056428909301758,-0.07628399133682251,-2.1261630058288574,0.43979209661483765,0
35,0.17000293731689453,-0.4783565402030945,-22.819665908813477,-0.1253325641155243,14.056428909301758,0.07628399133682251,2.1261630058288574,-0.38577598333358765,0.0,0.0,0.0,0.0,0.0,0.0,0.0,-0.4315825065064265,0.050467822390396135,-0.1977785754839575,0.18237121933768158,-0.148592740567441,-0.053770941361474284,-0.4083025082794654,1.6756190806116107,0.05246562953162612,0.02999395242917111,-2.7526093227118267,0.0343191390534242,2.7663412462501804,0.7691952072712115,1.6754973547542302,0.052104326824870026,0.029969505109285054,-2.752394845125968,0.0342448039870148,2.7663679543071322,0.7691630533470046,0.0005741859801303748,0.001729829670657192,2.750743638681954e-05,-0.00030487181088051005,0.0006406116336459247,5.270729008369995e-05,-0.0007797355075887837,0.0,0.0,0.0,0.0,0.0,0.0,0.0,-0.00012172585738046138,-0.000361302706756092,-2.4447319886055502e-05,0.00021447758585857457,-7.433506640940057e-05,2.670805695181855e-05,-3.215392420685692e-05,-0.0005741859801303748,-0.001729829670657192,-2.750743638681954e-05,0.00030487181088051005,-0.0006406116336459247,-5.270729008369995e-05,0.0007797355075887837,0.4783565402030945,22.819665908813477,0.1253325641155243,-14.056428909301758,-0.07628399133682251,-2.1261630058288574,0.38577598333358765,0
36,0.17499542236328125,-0.4783565402030945,-22.819665908813477,-0.1253325641155243,14.056428909301758,0.07628399133682251,2.1261630058288574,-0.38577598333358765,0.0,0.0,0.0,0.0,0.0,0.0,0.0,-0.4315825065064265,0.050467822390396135,-0.1977785754839575,0.18237121933768158,-0.148592740567441,-0.053770941361474284,-0.4083025082794654,1.6756190806116107,0.05246562953162612,0.02999395242917111,-2.7526093227118267,0.0343191390534242,2.7663412462501804,0.7691952072712115,1.6754973547542302,0.052104326824870026,0.029969505109285054,-2.752394845125968,0.0342448039870148,2.7663679543071322,0.7691630533470046,0.0005741859801303748,0.001729829670657192,2.750743638681954e-05,-0.00030487181088051005,0.0006406116336459247,5.270729008369995e-05,-0.0007797355075887837,0.0,0.0,0.0,0.0,0.0,0.0,0.0,-0.00012172585738046138,-0.000361302706756092,-2.4447319886055502e-05,0.00021447758585857457,-7.433506640940057e-05,2.670805695181855e-05,-3.215392420685692e-05,-0.0005741859801303748,-0.001729829670657192,-2.750743638681954e-05,0.00030487181088051005,-0.0006406116336459247,-5.270729008369995e-05,0.0007797355075887837,0.4783565402030945,22.819665908813477,0.1253325641155243,-14.056428909301758,-0.07628399133682251,-2.1261630058288574,0.38577598333358765,0
37,0.17999696731567383,-0.4505855441093445,-22.720483779907227,-0.1253325641155243,14.032625198364258,0.08177715539932251,2.1389803886413574,-0.39950889348983765,0.0,0.0,0.0,0.0,0.0,0.0,0.0,-0.4364203827102841,0.04650137112205776,-0.20103024627861465,0.1826052522395679,-0.1483938237875601,-0.05389955006605154,-0.40817457992407813,1.6756150885934735,0.052458669382229185,0.029994608429387674,-2.752607660790872,0.0343185287018617,2.766339817735908,0.7691966939043605,1.6754973547542302,0.052104326824870026,0.029969505109285054,-2.752394845125968,0.0342448039870148,2.7663679543071322,0.7691630533470046,0.00041041932983131057,-0.001274893220438743,0.000171526011173339,0.000291934885627627,0.00021429348351009676,-0.0003666259204770746,-0.0011186500580600677,0.0,0.0,0.0,0.0,0.0,0.0,0.0,-0.00011773383924329472,-0.00035434255735915937,-2.5103320102620036e-05,0.00021281566490394255,-7.372471484690113e-05,2.8136571224024465e-05,-3.3640557355885115e-05,-0.00041041932983131057,0.001274893220438743,-0.000171526011173339,-0.000291934885627627,-0.00021429348351009676,0.0003666259204770746,0.0011186500580600677,0.4505855441093445,22.720483779907227,0.1253325641155243,-14.032625198364258,-0.08177715539932251,-2.1389803886413574,0.39950889348983765,0
38,0.1850121021270752,-0.4505855441093445,-22.720483779907227,-0.1253325641155243,14.032625198364258,0.08177715539932251,2.1389803886413574,-0.39950889348983765,0.0,0.0,0.0,0.0,0.0,0.0,0.0,-0.4364203827102841,0.04650137112205776,-0.20103024627861465,0.1826052522395679,-0.1483938237875601,-0.05389955006605154,-0.40817457992407813,1.6756150885934735,0.052458669382229185,0.029994608429387674,-2.752607660790872,0.0343185287018617,2.766339817735908,0.7691966939043605,1.6754973547542302,0.052104326824870026,0.029969505109285054,-2.752394845125968,0.0342448039870148,2.7663679543071322,0.7691630533470046,0.00041041932983131057,-0.001274893220438743,0.000171526011173339,0.000291934885627627,0.00021429348351009676,-0.0003666259204770746,-0.0011186500580600677,0.0,0.0,0.0,0.0,0.0,0.0,0.0,-0.00011773383924329472,-0.00035434255735915937,-2.5103320102620036e-05,0.00021281566490394255,-7.372471484690113e-05,2.8136571224024465e-05,-3.3640557355885115e-05,-0.00041041932983131057,0.001274893220438743,-0.000171526011173339,-0.000291934885627627,-0.00021429348351009676,0.0003666259204770746,0.0011186500580600677,0.4505855441093445,22.720483779907227,0.1253325641155243,-14.032625198364258,-0.08177715539932251,-2.1389803886413574,0.39950889348983765,0
39,0.18999552726745605,-0.4505855441093445,-22.720483779907227,-0.1253325641155243,14.032625198364258,0.08177715539932251,2.1389803886413574,-0.39950889348983765,0.0,0.0,0.0,0.0,0.0,0.0,0.0,-0.4364203827102841,0.04650137112205776,-0.20103024627861465,0.1826052522395679,-0.1483938237875601,-0.05389955006605154,-0.40817457992407813,1.6756150885934735,0.052458669382229185,0.029994608429387674,-2.752607660790872,0.0343185287018617,2.766339817735908,0.7691966939043605,1.6754973547542302,0.052104326824870026,0.029969505109285054,-2.752394845125968,0.0342448039870148,2.7663679543071322,0.7691630533470046,0.00041041932983131057,-0.001274893220438743,0.000171526011173339,0.000291934885627627,0.00021429348351009676,-0.0003666259204770746,-0.0011186500580600677,0.0,0.0,0.0,0.0,0.0,0.0,0.0,-0.00011773383924329472,-0.00035434255735915937,-2.5103320102620036e-05,0.00021281566490394255,-7.372471484690113e-05,2.8136571224024465e-05,-3.3640557355885115e-05,-0.00041041932983131057,0.001274893220438743,-0.000171526011173339,-0.000291934885627627,-0.00021429348351009676,0.0003666259204770746,0.0011186500580600677,0.4505855441093445,22.720483779907227,0.1253325641155243,-14.032625198364258,-0.08177715539932251,-2.1389803886413574,0.39950889348983765,0
40,0.1949925422668457,-0.4505855441093445,-22.720483779907227,-0.1253325641155243,14.032625198364258,0.08177715539932251,2.1389803886413574,-0.39950889348983765,0.0,0.0,0.0,0.0,0.0,0.0,0.0,-0.4364203827102841,0.04650137112205776,-0.20103024627861465,0.1826052522395679,-0.1483938237875601,-0.05389955006605154,-0.40817457992407813,1.6756150885934735,0.052458669382229185,0.029994608429387674,-2.752607660790872,0.0343185287018617,2.766339817735908,0.7691966939043605,1.6754973547542302,0.052104326824870026,0.029969505109285054,-2.752394845125968,0.0342448039870148,2.7663679543071322,0.7691630533470046,0.00041041932983131057,-0.001274893220438743,0.000171526011173339,0.000291934885627627,0.00021429348351009676,-0.0003666259204770746,-0.0011186500580600677,0.0,0.0,0.0,0.0,0.0,0.0,0.0,-0.00011773383924329472,-0.00035434255735915937,-2.5103320102620036e-05,0.00021281566490394255,-7.372471484690113e-05,2.8136571224024465e-05,-3.3640557355885115e-05,-0.00041041932983131057,0.001274893220438743,-0.000171526011173339,-0.000291934885627627,-0.00021429348351009676,0.0003666259204770746,0.0011186500580600677,0.4505855441093445,22.720483779907227,0.1253325641155243,-14.032625198364258,-0.08177715539932251,-2.1389803886413574,0.39950889348983765,0
41,0.2003617286682129,-0.4267818331718445,-22.772058486938477,-0.1253325641155243,14.032625198364258,0.08177715539932251,2.1261630058288574,-0.36471885442733765,0.0,0.0,0.0,0.0,0.0,0.0,0.0,-0.4375035338108176,0.04922973769270661,-0.20251579522242022,0.17757591805399406,-0.14813972798426167,-0.054453799594171584,-0.41050567978565244,1.675614039211766,0.05246228865991559,0.029992006965511502,-2.752607651447822,0.034318528647774155,2.7663412288075775,0.7691928496629801,1.6754973547542302,0.052104326824870026,0.029969505109285054,-2.752394845125968,0.0342448039870148,2.7663679543071322,0.7691630533470046,-4.211111098301479e-05,0.00025256034288886854,0.0002381424691477963,-3.851148155663699e-05,0.00011711626737968992,0.00011440673350421562,-0.0017518726780401115,0.0,0.0,0.0,0.0,0.0,0.0,0.0,-0.00011668445753576506,-0.00035796183504556434,-2.250185622644854e-05,0.00021280632185405324,-7.372466075935419e-05,2.6725499554736132e-05,-2.979631597543886e-05,4.211111098301479e-05,-0.00025256034288886854,-0.0002381424691477963,3.851148155663699e-05,-0.00011711626737968992,-0.00011440673350421562,0.0017518726780401115,0.4267818331718445,22.772058486938477,0.1253325641155243,-14.032625198364258,-0.08177715539932251,-2.1261630058288574,0.36471885442733765,0
42,0.2050020694732666,-0.4267818331718445,-22.772058486938477,-0.1253325641155243,14.032625198364258,0.08177715539932251,2.1261630058288574,-0.36471885442733765,0.0,0.0,0.0,0.0,0.0,0.0,0.0,-0.4375035338108176,0.04922973769270661,-0.20251579522242022,0.17757591805399406,-0.14813972798426167,-0.054453799594171584,-0.41050567978565244,1.675614039211766,0.05246228865991559,0.029992006965511502,-2.752607651447822,0.034318528647774155,2.7663412288075775,0.7691928496629801,1.6754973547542302,0.052104326824870026,0.029969505109285054,-2.752394845125968,0.0342448039870148,2.7663679543071322,0.7691630533470046,-4.211111098301479e-05,0.00025256034288886854,0.0002381424691477963,-3.851148155663699e-05,0.00011711626737968992,0.00011440673350421562,-0.0017518726780401115,0.0,0.0,0.0,0.0,0.0,0.0,0.0,-0.00011668445753576506,-0.00035796183504556434,-2.250185622644854e-05,0.00021280632185405324,-7.372466075935419e-05,2.6725499554736132e-05,-2.979631597543886e-05,4.211111098301479e-05,-0.00025256034288886854,-0.0002381424691477963,3.851148155663699e-05,-0.00011711626737968992,-0.00011440673350421562,0.0017518726780401115,0.4267818331718445,22.772058486938477,0.1253325641155243,-14.032625198364258,-0.08177715539932251,-2.1261630058288574,0.36471885442733765,0
43,0.2099895477294922,-0.4505855441093445,-22.748254776000977,-0.09756157547235489,14.056428909301758,0.07628399133682251,2.1261630058288574,-0.40591758489608765,0.0,0.0,0.0,0.0,0.0,0.0,0.0,-0.43513932407212574,0.04466599733873996,-0.20064127322946854,0.1781307127157434,-0.14761769153177456,-0.054254434135463214,-0.4079128583912443,1.6756150179522806,0.052460618224060326,0.029992938084900438,-2.752609331331737,0.0343191390534241,2.766341241889505,0.7691973129539339,1.6754973547542302,0.052104326824870026,0.029969505109285054,-2.752394845125968,0.0342448039870148,2.7663679543071322,0.7691630533470046,0.0009256145431767598,-1.4654345082708237e-05,-0.00017762452049601262,-0.0004944958353682092,0.00023916909052941224,0.0001924161959387816,0.0006186687485486941,0.0,0.0,0.0,0.0,0.0,0.0,0.0,-0.00011766319805039949,-0.0003562913991903005,-2.3432975615383933e-05,0.0002144862057686936,-7.433506640929649e-05,2.6712417627194895e-05,-3.425960692926555e-05,-0.0009256145431767598,1.4654345082708237e-05,0.00017762452049601262,0.0004944958353682092,-0.00023916909052941224,-0.0001924161959387816,-0.0006186687485486941,0.4505855441093445,22.748254776000977,0.09756157547235489,-14.056428909301758,-0.07628399133682251,-2.1261630058288574,0.40591758489608765,0
44,0.2150106430053711,-0.4505855441093445,-22.748254776000977,-0.09756157547235489,14.056428909301758,0.07628399133682251,2.1261630058288574,-0.40591758489608765,0.0,0.0,0.0,0.0,0.0,0.0,0.0,-0.43513932407212574,0.04466599733873996,-0.20064127322946854,0.1781307127157434,-0.14761769153177456,-0.054254434135463214,-0.4079128583912443,1.6756150179522806,0.052460618224060326,0.029992938084900438,-2.752609331331737,0.0343191390534241,2.766341241889505,0.7691973129539339,1.6754973547542302,0.052104326824870026,0.029969505109285054,-2.752394845125968,0.0342448039870148,2.7663679543071322,0.7691630533470046,0.0009256145431767598,-1.4654345082708237e-05,-0.00017762452049601262,-0.0004944958353682092,0.00023916909052941224,0.0001924161959387816,0.0006186687485486941,0.0,0.0,0.0,0.0,0.0,0.0,0.0,-0.00011766319805039949,-0.0003562913991903005,-2.3432975615383933e-05,0.0002144862057686936,-7.433506640929649e-05,2.6712417627194895e-05,-3.425960692926555e-05,-0.0009256145431767598,1.4654345082708237e-05,0.00017762452049601262,0.0004944958353682092,-0.00023916909052941224,-0.0001924161959387816,-0.0006186687485486941,0.4505855441093445,22.748254776000977,0.09756157547235489,-14.056428909301758,-0.07628399133682251,-2.1261630058288574,0.40591758489608765,0
45,0.21998810768127441,-0.4267818331718445,-22.720483779907227,-0.07375786453485489,14.056428909301758,0.08177715539932251,2.1389803886413574,-0.43338340520858765,0.0,0.0,0.0,0.0,0.0,0.0,0.0,-0.4233466787802504,0.053201980995306694,-0.18908979172434726,0.17530258658452072,-0.1485954222176525,-0.05508531261653351,-0.4052872803486347,1.675613315125312,0.052458669382229185,0.029990596080984838,-2.7526070345043334,0.0343185287018617,2.7663398177358833,0.7692004955305557,1.6754973547542302,0.052104326824870026,0.029969505109285054,-2.752394845125968,0.0342448039870148,2.7663679543071322,0.7691630533470046,0.0010358511733604735,7.370724657674027e-05,2.0794548949785894e-05,-0.0002482005650049179,0.0001700400316177976,-0.00017448124307007198,0.0011046737512851064,0.0,0.0,0.0,0.0,0.0,0.0,0.0,-0.00011596037108185797,-0.00035434255735915937,-2.1090971699784522e-05,0.00021218937836531282,-7.372471484690113e-05,2.813657124889346e-05,-3.744218355106188e-05,-0.0010358511733604735,-7.370724657674027e-05,-2.0794548949785894e-05,0.0002482005650049179,-0.0001700400316177976,0.00017448124307007198,-0.0011046737512851064,0.4267818331718445,22.720483779907227,0.07375786453485489,-14.056428909301758,-0.08177715539932251,-2.1389803886413574,0.43338340520858765,0
46,0.22502970695495605,-0.4267818331718445,-22.720483779907227,-0.07375786453485489,14.056428909301758,0.08177715539932251,2.1389803886413574,-0.43338340520858765,0.0,0.0,0.0,0.0,0.0,0.0,0.0,-0.4233466787802504,0.053201980995306694,-0.18908979172434726,0.17530258658452072,-0.1485954222176525,-0.05508531261653351,-0.4052872803486347,1.675613315125312,0.052458669382229185,0.029990596080984838,-2.7526070345043334,0.0343185287018617,2.7663398177358833,0.7692004955305557,1.6754973547542302,0.052104326824870026,0.029969505109285054,-2.752394845125968,0.0342448039870148,2.7663679543071322,0.7691630533470046,0.0010358511733604735,7.370724657674027e-05,2.0794548949785894e-05,-0.0002482005650049179,0.0001700400316177976,-0.00017448124307007198,0.0011046737512851064,0.0,0.0,0.0,0.0,0.0,0.0,0.0,-0.00011596037108185797,-0.00035434255735915937,-2.1090971699784522e-05,0.00021218937836531282,-7.372471484690113e-05,2.813657124889346e-05,-3.744218355106188e-05,-0.0010358511733604735,-7.370724657674027e-05,-2.0794548949785894e-05,0.0002482005650049179,-0.0001700400316177976,0.00017448124307007198,-0.0011046737512851064,0.4267818331718445,22.720483779907227,0.07375786453485489,-14.056428909301758,-0.08177715539932251,-2.1389803886413574,0.43338340520858765,0
47,0.23001837730407715,-0.4267818331718445,-22.748254776000977,-0.09756157547235489,14.008821487426758,0.07628399133682251,2.1261630058288574,-0.42605918645858765,0.0,0.0,0.0,0.0,0.0,0.0,0.0,-0.42783094095505664,0.0534331163860954,-0.1927861290910288,0.17997248980527275,-0.14730284393234097,-0.05414521376296967,-0.40523037595149114,1.6756133131991753,0.052460618224060326,0.02999273857273335,-2.7526032258348874,0.0343191390534242,2.7663412418895295,0.769196504268373,1.6754973547542302,0.052104326824870026,0.029969505109285054,-2.752394845125968,0.0342448039870148,2.7663679543071322,0.7691630533470046,0.00015606069011308852,0.0004910781151950553,0.0002355669835797192,0.0010630780944273842,0.0003314797192054429,0.0002640986543477709,0.001220848994064173,0.0,0.0,0.0,0.0,0.0,0.0,0.0,-0.00011595844494505236,-0.0003562913991903005,-2.3233463448294606e-05,0.00020838070891926463,-7.433506640940057e-05,2.671241760276999e-05,-3.345092136841643e-05,-0.00015606069011308852,-0.0004910781151950553,-0.0002355669835797192,-0.0010630780944273842,-0.0003314797192054429,-0.0002640986543477709,-0.001220848994064173,0.4267818331718445,22.748254776000977,0.09756157547235489,-14.008821487426758,-0.07628399133682251,-2.1261630058288574,0.42605918645858765,0
48,0.2350149154663086,-0.4267818331718445,-22.748254776000977,-0.09756157547235489,14.008821487426758,0.07628399133682251,2.1261630058288574,-0.42605918645858765,0.0,0.0,0.0,0.0,0.0,0.0,0.0,-0.42783094095505664,0.0534331163860954,-0.1927861290910288,0.17997248980527275,-0.14730284393234097,-0.05414521376296967,-0.40523037595149114,1.6756133131991753,0.052460618224060326,0.02999273857273335,-2.7526032258348874,0.0343191390534242,2.7663412418895295,0.769196504268373,1.6754973547542302,0.052104326824870026,0.029969505109285054,-2.752394845125968,0.0342448039870148,2.7663679543071322,0.7691630533470046,0.00015606069011308852,0.0004910781151950553,0.0002355669835797192,0.0010630780944273842,0.0003314797192054429,0.0002640986543477709,0.001220848994064173,0.0,0.0,0.0,0.0,0.0,0.0,0.0,-0.00011595844494505236,-0.0003562913991903005,-2.3233463448294606e-05,0.00020838070891926463,-7.433506640940057e-05,2.671241760276999e-05,-3.345092136841643e-05,-0.00015606069011308852,-0.0004910781151950553,-0.0002355669835797192,-0.0010630780944273842,-0.0003314797192054429,-0.0002640986543477709,-0.001220848994064173,0.4267818331718445,22.748254776000977,0.09756157547235489,-14.008821487426758,-0.07628399133682251,-2.1261630058288574,0.42605918645858765,0
49,0.239990234375,-0.4505855441093445,-22.772058486938477,-0.1253325641155243,14.032625198364258,0.09367901086807251,2.1261630058288574,-0.41965049505233765,0.0,0.0,0.0,0.0,0.0,0.0,0.0,-0.43166283570099084,0.05573973368410585,-0.19374520898868003,0.179439753361676,-0.14686814384997518,-0.05395670739200638,-0.4047267415141194,1.6756149829445832,0.05246228865991559,0.02999492108426653,-2.7526046758829668,0.034316141668293214,2.7663412418895295,0.7691989696344511,1.6754973547542302,0.052104326824870026,0.029969505109285054,-2.752394845125968,0.0342448039870148,2.7663679543071322,0.7691630533470046,-0.00019721345351547,0.0009517440797565918,-8.512333817978968e-05,9.480921554864143e-05,-0.0003222551369173305,0.00013897519988601784,0.0010460938759267826,0.0,0.0,0.0,0.0,0.0,0.0,0.0,-0.00011762819035299188,-0.00035796183504556434,-2.541597498147488e-05,0.0002098307569986524,-7.133768127841333e-05,2.671241760276999e-05,-3.591628744648023e-05,0.00019721345351547,-0.0009517440797565918,8.512333817978968e-05,-9.480921554864143e-05,0.0003222551369173305,-0.00013897519988601784,-0.0010460938759267826,0.4505855441093445,22.772058486938477,0.1253325641155243,-14.032625198364258,-0.09367901086807251,-2.1261630058288574,0.41965049505233765,0
50,0.24501395225524902,-0.4505855441093445,-22.772058486938477,-0.1253325641155243,14.032625198364258,0.09367901086807251,2.1261630058288574,-0.41965049505233765,0.0,0.0,0.0,0.0,0.0,0.0,0.0,-0.43166283570099084,0.05573973368410585,-0.19374520898868003,0.179439753361676,-0.14686814384997518,-0.05395670739200638,-0.4047267415141194,1.6756149829445832,0.05246228865991559,0.02999492108426653,-2.7526046758829668,0.034316141668293214,2.7663412418895295,0.7691989696344511,1.6754973547542302,0.052104326824870026,0.029969505109285054,-2.752394845125968,0.0342448039870148,2.7663679543071322,0.7691630533470046,-0.00019721345351547,0.0009517440797565918,-8.512333817978968e-05,9.480921554864143e-05,-0.0003222551369173305,0.00013897519988601784,0.0010460938759267826,0.0,0.0,0.0,0.0,0.0,0.0,0.0,-0.00011762819035299188,-0.00035796183504556434,-2.541597498147488e-05,0.0002098307569986524,-7.133768127841333e-05,2.671241760276999e-05,-3.591628744648023e-05,0.00019721345351547,-0.0009517440797565918,8.512333817978968e-05,-9.480921554864143e-05,0.0003222551369173305,-0.00013897519988601784,-0.0010460938759267826,0.4505855441093445,22.772058486938477,0.1253325641155243,-14.032625198364258,-0.09367901086807251,-2.1261630058288574,0.41965049505233765,0
51,0.24999523162841797,-0.4783565402030945,-22.772058486938477,-0.1491362750530243,14.032625198364258,0.08177715539932251,2.1261630058288574,-0.43979209661483765,0.0,0.0,0.0,0.0,0.0,0.0,0.0,-0.4323519269336059,0.05370316112593215,-0.19328816756365563,0.17990348283453803,-0.1472444198433608,-0.05408710313226953,-0.4027392500147912,1.675616940616728,0.05246228865991559,0.029993755845320824,-2.7526076599342413,0.034318528695851974,2.7663412418895295,0.7692012089001615,1.6754973547542302,0.052104326824870026,0.029969505109285054,-2.752394845125968,0.0342448039870148,2.7663679543071322,0.7691630533470046,0.0003536189273003214,0.0003284337531601731,0.00026844954018016067,-0.00010260187204347426,-4.101152380334955e-06,0.0002249127840316582,0.0014390469880995265,0.0,0.0,0.0,0.0,0.0,0.0,0.0,-0.00011958586249782854,-0.00035796183504556434,-2.4250736035770493e-05,0.00021281480827317623,-7.372470883717369e-05,2.671241760276999e-05,-3.815555315689334e-05,-0.0003536189273003214,-0.0003284337531601731,-0.00026844954018016067,0.00010260187204347426,4.101152380334955e-06,-0.0002249127840316582,-0.0014390469880995265,0.4783565402030945,22.772058486938477,0.1491362750530243,-14.032625198364258,-0.08177715539932251,-2.1261630058288574,0.43979209661483765,0
52,0.25499534606933594,-0.4783565402030945,-22.772058486938477,-0.1491362750530243,14.032625198364258,0.08177715539932251,2.1261630058288574,-0.43979209661483765,0.0,0.0,0.0,0.0,0.0,0.0,0.0,-0.4323519269336059,0.05370316112593215,-0.19328816756365563,0.17990348283453803,-0.1472444198433608,-0.05408710313226953,-0.4027392500147912,1.675616940616728,0.05246228865991559,0.029993755845320824,-2.7526076599342413,0.034318528695851974,2.7663412418895295,0.7692012089001615,1.6754973547542302,0.052104326824870026,0.029969505109285054,-2.752394845125968,0.0342448039870148,2.7663679543071322,0.7691630533470046,0.0003536189273003214,0.0003284337531601731,0.00026844954018016067,-0.00010260187204347426,-4.101152380334955e-06,0.0002249127840316582,0.0014390469880995265,0.0,0.0,0.0,0.0,0.0,0.0,0.0,-0.00011958586249782854,-0.00035796183504556434,-2.4250736035770493e-05,0.00021281480827317623,-7.372470883717369e-05,2.671241760276999e-05,-3.815555315689334e-05,-0.0003536189273003214,-0.0003284337531601731,-0.00026844954018016067,0.00010260187204347426,4.101152380334955e-06,-0.0002249127840316582,-0.0014390469880995265,0.4783565402030945,22.772058486938477,0.1491362750530243,-14.032625198364258,-0.08177715539932251,-2.1261630058288574,0.43979209661483765,0
53,0.25999975204467773,-0.5021602511405945,-22.819665908813477,-0.1491362750530243,14.032625198364258,0.09367901086807251,2.1261630058288574,-0.42605918645858765,0.0,0.0,0.0,0.0,0.0,0.0,0.0,-0.4397545288789363,0.05043179606480322,-0.19798802244112845,0.1793604045174573,-0.14778607668630675,-0.054171532784887955,-0.4033386177780636,1.6756193966238637,0.05246562953162612,0.029996508086222635,-2.7526075588566665,0.034317087984011466,2.7663412418895295,0.7691995649606816,1.6754973547542302,0.052104326824870026,0.029969505109285054,-2.752394845125968,0.0342448039870148,2.7663679543071322,0.7691630533470046,0.0009316602062451507,0.001576838648397597,-6.21874104757808e-05,0.0004570481111877035,-0.0005406010005765688,0.00019814629988723444,0.0006655453231453652,0.0,0.0,0.0,0.0,0.0,0.0,0.0,-0.0001220418696334935,-0.000361302706756092,-2.7002976937581108e-05,0.0002127137306984217,-7.228399699666516e-05,2.671241760276999e-05,-3.651161367701494e-05,-0.0009316602062451507,-0.001576838648397597,6.21874104757808e-05,-0.0004570481111877035,0.0005406010005765688,-0.00019814629988723444,-0.0006655453231453652,0.5021602511405945,22.819665908813477,0.1491362750530243,-14.032625198364258,-0.09367901086807251,-2.1261630058288574,0.42605918645858765,0
54,0.2649962902069092,-0.5021602511405945,-22.819665908813477,-0.1491362750530243,14.032625198364258,0.09367901086807251,2.1261630058288574,-0.42605918645858765,0.0,0.0,0.0,0.0,0.0,0.0,0.0,-0.4397545288789363,0.05043179606480322,-0.19798802244112845,0.1793604045174573,-0.14778607668630675,-0.054171532784887955,-0.4033386177780636,1.6756193966238637,0.05246562953162612,0.029996508086222635,-2.7526075588566665,0.034317087984011466,2.7663412418895295,0.7691995649606816,1.6754973547542302,0.052104326824870026,0.029969505109285054,-2.752394845125968,0.0342448039870148,2.7663679543071322,0.7691630533470046,0.0009316602062451507,0.001576838648397597,-6.21874104757808e-05,0.0004570481111877035,-0.0005406010005765688,0.00019814629988723444,0.0006655453231453652,0.0,0.0,0.0,0.0,0.0,0.0,0.0,-0.0001220418696334935,-0.000361302706756092,-2.7002976937581108e-05,0.0002127137306984217,-7.228399699666516e-05,2.671241760276999e-05,-3.651161367701494e-05,-0.0009316602062451507,-0.001576838648397597,6.21874104757808e-05,-0.0004570481111877035,0.0005406010005765688,-0.00019814629988723444,-0.0006655453231453652,0.5021602511405945,22.819665908813477,0.1491362750530243,-14.032625198364258,-0.09367901086807251,-2.1261630058288574,0.42605918645858765,0
55,0.27001285552978516,-0.4783565402030945,-22.795862197875977,-0.1491362750530243,14.032625198364258,0.08818584680557251,2.1325716972351074,-0.41965049505233765,0.0,0.0,0.0,0.0,0.0,0.0,0.0,-0.4441093718567786,0.0470385266318725,-0.20148274202596705,0.17899239349597645,-0.14790969266669837,-0.0545258337313319,-0.4032073962448094,1.6756176497720388,0.052463959095770854,0.029995856688968432,-2.752605585047916,0.034317816624371035,2.7663405298127066,0.7691989667446283,1.6754973547542302,0.052104326824870026,0.029969505109285054,-2.752394845125968,0.0342448039870148,2.7663679543071322,0.7691630533470046,0.0008278210596137728,0.0008585445215433473,0.00040179547192984377,0.0004499112374416775,-2.8202024896775815e-05,-8.200624019157175e-05,0.0006907754264624368,0.0,0.0,0.0,0.0,0.0,0.0,0.0,-0.00012029501780852492,-0.00035963227090082817,-2.6351579683378534e-05,0.0002107399219477557,-7.301263735623453e-05,2.742449442560968e-05,-3.591339762365475e-05,-0.0008278210596137728,-0.0008585445215433473,-0.00040179547192984377,-0.0004499112374416775,2.8202024896775815e-05,8.200624019157175e-05,-0.0006907754264624368,0.4783565402030945,22.795862197875977,0.1491362750530243,-14.032625198364258,-0.08818584680557251,-2.1325716972351074,0.41965049505233765,0
56,0.275012731552124,-0.4783565402030945,-22.795862197875977,-0.1491362750530243,14.032625198364258,0.08818584680557251,2.1325716972351074,-0.41965049505233765,0.0,0.0,0.0,0.0,0.0,0.0,0.0,-0.4441093718567786,0.0470385266318725,-0.20148274202596705,0.17899239349597645,-0.14790969266669837,-0.0545258337313319,-0.4032073962448094,1.6756176497720388,0.052463959095770854,0.029995856688968432,-2.752605585047916,0.034317816624371035,2.7663405298127066,0.7691989667446283,1.6754973547542302,0.052104326824870026,0.029969505109285054,-2.752394845125968,0.0342448039870148,2.7663679543071322,0.7691630533470046,0.0008278210596137728,0.0008585445215433473,0.00040179547192984377,0.0004499112374416775,-2.8202024896775815e-05,-8.200624019157175e-05,0.0006907754264624368,0.0,0.0,0.0,0.0,0.0,0.0,0.0,-0.00012029501780852492,-0.00035963227090082817,-2.6351579683378534e-05,0.0002107399219477557,-7.301263735623453e-05,2.742449442560968e-05,-3.591339762365475e-05,-0.0008278210596137728,-0.0008585445215433473,-0.00040179547192984377,-0.0004499112374416775,2.8202024896775815e-05,8.200624019157175e-05,-0.0006907754264624368,0.4783565402030945,22.795862197875977,0.1491362750530243,-14.032625198364258,-0.08818584680557251,-2.1325716972351074,0.41965049505233765,0
57,0.28003787994384766,-0.4029781222343445,-22.720483779907227,-0.07375786453485489,14.032625198364258,0.08177715539932251,2.1389803886413574,-0.37204307317733765,0.0,0.0,0.0,0.0,0.0,0.0,0.0,-0.43747622208569037,0.04572020028738693,-0.19676745693010367,0.1793546657817949,-0.14788566425612854,-0.05452200882456624,-0.4025456498065716,1.6756116774318282,0.052458669382229185,0.029989176101872073,-2.7526053621399638,0.0343185287018617,2.7663398177358833,0.7691936813923964,1.6754973547542302,0.052104326824870026,0.029969505109285054,-2.752394845125968,0.0342448039870148,2.7663679543071322,0.7691630533470046,0.00019780605464677256,-0.00042004983715010697,-0.0001335117395661327,0.00023565097947870047,0.000363635047678313,-0.00028919787982193643,-0.0015042297327162563,0.0,0.0,0.0,0.0,0.0,0.0,0.0,-0.00011432267759792225,-0.00035434255735915937,-1.9670992587018932e-05,0.00021051701399565914,-7.372471484690113e-05,2.813657124889346e-05,-3.0628045391778436e-05,-0.00019780605464677256,0.00042004983715010697,0.0001335117395661327,-0.00023565097947870047,-0.000363635047678313,0.00028919787982193643,0.0015042297327162563,0.4029781222343445,22.720483779907227,0.07375786453485489,-14.032625198364258,-0.08177715539932251,-2.1389803886413574,0.37204307317733765,0
58,0.28501296043395996,-0.4029781222343445,-22.720483779907227,-0.07375786453485489,14.032625198364258,0.08177715539932251,2.1389803886413574,-0.37204307317733765,0.0,0.0,0.0,0.0,0.0,0.0,0.0,-0.43747622208569037,0.04572020028738693,-0.19676745693010367,0.1793546657817949,-0.14788566425612854,-0.05452200882456624,-0.4025456498065716,1.6756116774318282,0.052458669382229185,0.029989176101872073,-2.7526053621399638,0.0343185287018617,2.7663398177358833,0.7691936813923964,1.6754973547542302,0.052104326824870026,0.029969505109285054,-2.752394845125968,0.0342448039870148,2.7663679543071322,0.7691630533470046,0.00019780605464677256,-0.00042004983715010697,-0.0001335117395661327,0.00023565097947870047,0.000363635047678313,-0.00028919787982193643,-0.0015042297327162563,0.0,0.0,0.0,0.0,0.0,0.0,0.0,-0.00011432267759792225,-0.00035434255735915937,-1.9670992587018932e-05,0.00021051701399565914,-7.372471484690113e-05,2.813657124889346e-05,-3.0628045391778436e-05,-0.00019780605464677256,0.00042004983715010697,0.0001335117395661327,-0.00023565097947870047,-0.000363635047678313,0.00028919787982193643,0.0015042297327162563,0.4029781222343445,22.720483779907227,0.07375786453485489,-14.032625198364258,-0.08177715539932251,-2.1389803886413574,0.37204307317733765,0
59,0.2900688648223877,-0.4029781222343445,-22.696680068969727,-0.07375786453485489,14.008821487426758,0.09367901086807251,2.1325716972351074,-0.36471885442733765,0.0,0.0,0.0,0.0,0.0,0.0,0.0,-0.4368242767561587,0.05067067440342238,-0.19756193631710273,0.1788949677416033,-0.14650267232325376,-0.05400760788589562,-0.4038955684142073,1.675611641782358,0.05245699894637392,0.029991276694921864,-2.7526059139176473,0.034317206273476286,2.7663405298127066,0.7691885897919475,1.6754973547542302,0.052104326824870026,0.029969505109285054,-2.752394845125968,0.0342448039870148,2.7663679543071322,0.7691630533470046,0.00010293430823591661,-0.00044418717435319645,5.391229443440303e-05,0.0006403296382738704,-0.0003939737383048555,2.0336597887216583e-05,-0.001897211476962805,0.0,0.0,0.0,0.0,0.0,0.0,0.0,-0.00011428702812787961,-0.00035267212150389554,-2.177158563681017e-05,0.00021106879167920312,-7.240228646148567e-05,2.742449442560968e-05,-2.553644494285301e-05,-0.00010293430823591661,0.00044418717435319645,-5.391229443440303e-05,-0.0006403296382738704,0.0003939737383048555,-2.0336597887216583e-05,0.001897211476962805,0.4029781222343445,22.696680068969727,0.07375786453485489,-14.008821487426758,-0.09367901086807251,-2.1325716972351074,0.36471885442733765,0
60,0.29500555992126465,-0.4029781222343445,-22.696680068969727,-0.07375786453485489,14.008821487426758,0.09367901086807251,2.1325716972351074,-0.36471885442733765,0.0,0.0,0.0,0.0,0.0,0.0,0.0,-0.4368242767561587,0.05067067440342238,-0.19756193631710273,0.1788949677416033,-0.14650267232325376,-0.05400760788589562,-0.4038955684142073,1.675611641782358,0.05245699894637392,0.029991276694921864,-2.7526059139176473,0.034317206273476286,2.7663405298127066,0.7691885897919475,1.6754973547542302,0.052104326824870026,0.029969505109285054,-2.752394845125968,0.0342448039870148,2.7663679543071322,0.7691630533470046,0.00010293430823591661,-0.00044418717435319645,5.391229443440303e-05,0.0006403296382738704,-0.0003939737383048555,2.0336597887216583e-05,-0.001897211476962805,0.0,0.0,0.0,0.0,0.0,0.0,0.0,-0.00011428702812787961,-0.00035267212150389554,-2.177158563681017e-05,0.00021106879167920312,-7.240228646148567e-05,2.742449442560968e-05,-2.553644494285301e-05,-0.00010293430823591661,0.00044418717435319645,-5.391229443440303e-05,-0.0006403296382738704,0.0003939737383048555,-2.0336597887216583e-05,0.001897211476962805,0.4029781222343445,22.696680068969727,0.07375786453485489,-14.008821487426758,-0.09367901086807251,-2.1325716972351074,0.36471885442733765,0
61,0.30000996589660645,-0.4029781222343445,-22.696680068969727,-0.07375786453485489,14.008821487426758,0.09367901086807251,2.1325716972351074,-0.36471885442733765,0.0,0.0,0.0,0.0,0.0,0.0,0.0,-0.4368242767561587,0.05067067440342238,-0.19756193631710273,0.1788949677416033,-0.14650267232325376,-0.05400760788589562,-0.4038955684142073,1.675611641782358,0.05245699894637392,0.029991276694921864,-2.7526059139176473,0.034317206273476286,2.7663405298127066,0.7691885897919475,1.6754973547542302,0.052104326824870026,0.029969505109285054,-2.752394845125968,0.0342448039870148,2.7663679543071322,0.7691630533470046,0.00010293430823591661,-0.00044418717435319645,5.391229443440303e-05,0.0006403296382738704,-0.0003939737383048555,2.0336597887216583e-05,-0.001897211476962805,0.0,0.0,0.0,0.0,0.0,0.0,0.0,-0.00011428702812787961,-0.00035267212150389554,-2.177158563681017e-05,0.00021106879167920312,-7.240228646148567e-05,2.742449442560968e-05,-2.553644494285301e-05,-0.00010293430823591661,0.00044418717435319645,-5.391229443440303e-05,-0.0006403296382738704,0.0003939737383048555,-2.0336597887216583e-05,0.001897211476962805,0.4029781222343445,22.696680068969727,0.07375786453485489,-14.008821487426758,-0.09367901086807251,-2.1325716972351074,0.36471885442733765,0
62,0.30500197410583496,-0.4029781222343445,-22.696680068969727,-0.07375786453485489,14.008821487426758,0.09367901086807251,2.1325716972351074,-0.36471885442733765,0.0,0.0,0.0,0.0,0.0,0.0,0.0,-0.4368242767561587,0.05067067440342238,-0.19756193631710273,0.1788949677416033,-0.14650267232325376,-0.05400760788589562,-0.4038955684142073,1.675611641782358,0.05245699894637392,0.029991276694921864,-2.7526059139176473,0.034317206273476286,2.7663405298127066,0.7691885897919475,1.6754973547542302,0.052104326824870026,0.029969505109285054,-2.752394845125968,0.0342448039870148,2.7663679543071322,0.7691630533470046,0.00010293430823591661,-0.00044418717435319645,5.391229443440303e-05,0.0006403296382738704,-0.0003939737383048555,2.0336597887216583e-05,-0.001897211476962805,0.0,0.0,0.0,0.0,0.0,0.0,0.0,-0.00011428702812787961,-0.00035267212150389554,-2.177158563681017e-05,0.00021106879167920312,-7.240228646148567e-05,2.742449442560968e-05,-2.553644494285301e-05,-0.00010293430823591661,0.00044418717435319645,-5.391229443440303e-05,-0.0006403296382738704,0.0003939737383048555,-2.0336597887216583e-05,0.001897211476962805,0.4029781222343445,22.696680068969727,0.07375786453485489,-14.008821487426758,-0.09367901086807251,-2.1325716972351074,0.36471885442733765,0
63,0.30999135971069336,-0.4267818331718445,-22.720483779907227,-0.09756157547235489,14.032625198364258,0.08818584680557251,2.1325716972351074,-0.38577598333358765,0.0,0.0,0.0,0.0,0.0,0.0,0.0,-0.4351148447322908,0.04561811488497235,-0.19553635968741925,0.18385438829660142,-0.1461903847904833,-0.05291823743769435,-0.40479646047027074,1.6756135509273016,0.052458669382229185,0.029992976391653596,-2.752607657956066,0.03431462280948957,2.7663405298127066,0.7691951665477557,1.6754973547542302,0.052104326824870026,0.029969505109285054,-2.752394845125968,0.0342448039870148,2.7663679543071322,0.7691630533470046,0.0003770845340966678,-0.0005312866713357911,-0.00041899485413481757,0.00013717383494677563,-2.024475439275252e-05,-7.020199504081766e-05,-0.0006394787926651137,0.0,0.0,0.0,0.0,0.0,0.0,0.0,-0.00011619617307134789,-0.00035434255735915937,-2.3471282368542346e-05,0.00021281283009777496,-6.981882247476812e-05,2.742449442560968e-05,-3.211320075102719e-05,-0.0003770845340966678,0.0005312866713357911,0.00041899485413481757,-0.00013717383494677563,2.024475439275252e-05,7.020199504081766e-05,0.0006394787926651137,0.4267818331718445,22.720483779907227,0.09756157547235489,-14.032625198364258,-0.08818584680557251,-2.1325716972351074,0.38577598333358765,0
64,0.3150014877319336,-0.4267818331718445,-22.720483779907227,-0.09756157547235489,14.032625198364258,0.08818584680557251,2.1325716972351074,-0.38577598333358765,0.0,0.0,0.0,0.0,0.0,0.0,0.0,-0.4351148447322908,0.04561811488497235,-0.19553635968741925,0.18385438829660142,-0.1461903847904833,-0.05291823743769435,-0.40479646047027074,1.6756135509273016,0.052458669382229185,0.029992976391653596,-2.752607657956066,0.03431462280948957,2.7663405298127066,0.7691951665477557,1.6754973547542302,0.052104326824870026,0.029969505109285054,-2.752394845125968,0.0342448039870148,2.7663679543071322,0.7691630533470046,0.0003770845340966678,-0.0005312866713357911,-0.00041899485413481757,0.00013717383494677563,-2.024475439275252e-05,-7.020199504081766e-05,-0.0006394787926651137,0.0,0.0,0.0,0.0,0.0,0.0,0.0,-0.00011619617307134789,-0.00035434255735915937,-2.3471282368542346e-05,0.00021281283009777496,-6.981882247476812e-05,2.742449442560968e-05,-3.211320075102719e-05,-0.0003770845340966678,0.0005312866713357911,0.00041899485413481757,-0.00013717383494677563,2.024475439275252e-05,7.020199504081766e-05,0.0006394787926651137,0.4267818331718445,22.720483779907227,0.09756157547235489,-14.032625198364258,-0.08818584680557251,-2.1325716972351074,0.38577598333358765,0
65,0.3199913501739502,-0.4505855441093445,-22.795862197875977,-0.1491362750530243,14.032625198364258,0.08818584680557251,2.1325716972351074,-0.39950889348983765,0.0,0.0,0.0,0.0,0.0,0.0,0.0,-0.4303742142643229,0.05118120569259673,-0.19391895545612767,0.1802787542666029,-0.1462562510918706,-0.05379323130383388,-0.4046534091918548,1.675617844622972,0.052463959095770854,0.02999414953497015,-2.752607626882807,0.0343178166070096,2.7663405298127066,0.7691924941129533,1.6754973547542302,0.052104326824870026,0.029969505109285054,-2.752394845125968,0.0342448039870148,2.7663679543071322,0.7691630533470046,0.0002021748745253405,0.0011729298096575303,0.0004449427903410859,0.0001316585897670917,-0.0002842421199829009,-0.00010681497052153869,-0.0002601106465189282,0.0,0.0,0.0,0.0,0.0,0.0,0.0,-0.0001204898687416911,-0.00035963227090082817,-2.464442568509556e-05,0.00021278175683869804,-7.30126199948028e-05,2.742449442560968e-05,-2.9440765948685055e-05,-0.0002021748745253405,-0.0011729298096575303,-0.0004449427903410859,-0.0001316585897670917,0.0002842421199829009,0.00010681497052153869,0.0002601106465189282,0.4505855441093445,22.795862197875977,0.1491362750530243,-14.032625198364258,-0.08818584680557251,-2.1325716972351074,0.39950889348983765,0
66,0.324995756149292,-0.4505855441093445,-22.795862197875977,-0.1491362750530243,14.032625198364258,0.08818584680557251,2.1325716972351074,-0.39950889348983765,0.0,0.0,0.0,0.0,0.0,0.0,0.0,-0.4303742142643229,0.05118120569259673,-0.19391895545612767,0.1802787542666029,-0.1462562510918706,-0.05379323130383388,-0.4046534091918548,1.675617844622972,0.052463959095770854,0.02999414953497015,-2.752607626882807,0.0343178166070096,2.7663405298127066,0.7691924941129533,1.6754973547542302,0.052104326824870026,0.029969505109285054,-2.752394845125968,0.0342448039870148,2.7663679543071322,0.7691630533470046,0.0002021748745253405,0.0011729298096575303,0.0004449427903410859,0.0001316585897670917,-0.0002842421199829009,-0.00010681497052153869,-0.0002601106465189282,0.0,0.0,0.0,0.0,0.0,0.0,0.0,-0.0001204898687416911,-0.00035963227090082817,-2.464442568509556e-05,0.00021278175683869804,-7.30126199948028e-05,2.742449442560968e-05,-2.9440765948685055e-05,-0.0002021748745253405,-0.0011729298096575303,-0.0004449427903410859,-0.0001316585897670917,0.0002842421199829009,0.00010681497052153869,0.0002601106465189282,0.4505855441093445,22.795862197875977,0.1491362750530243,-14.032625198364258,-0.08818584680557251,-2.1325716972351074,0.39950889348983765,0
67,0.33001136779785156,-0.4505855441093445,-22.748254776000977,-0.1491362750530243,14.032625198364258,0.08177715539932251,2.1197543144226074,-0.39218467473983765,0.0,0.0,0.0,0.0,0.0,0.0,0.0,-0.4308138615158643,0.05373169641935686,-0.19571650521021142,0.1767513027910412,-0.1473264219822063,-0.05462216247546003,-0.4054113610869872,1.6756149867036254,0.052460618224060326,0.029994427837655158,-2.7526069463061806,0.0343185287018616,2.7663419670483047,0.7691959188396875,1.6754973547542302,0.052104326824870026,0.029969505109285054,-2.752394845125968,0.0342448039870148,2.7663679543071322,0.7691630533470046,0.00010067612133208932,6.565913253121745e-05,0.00014313762660693994,0.00020066708224889855,-3.497338062048503e-05,0.0003221093361772345,-0.0007255483805758067,0.0,0.0,0.0,0.0,0.0,0.0,0.0,-0.00011763194939518051,-0.0003562913991903005,-2.4922728370103953e-05,0.00021210118021253166,-7.372471484679705e-05,2.5987258827520066e-05,-3.286549268288752e-05,-0.00010067612133208932,-6.565913253121745e-05,-0.00014313762660693994,-0.00020066708224889855,3.497338062048503e-05,-0.0003221093361772345,0.0007255483805758067,0.4505855441093445,22.748254776000977,0.1491362750530243,-14.032625198364258,-0.08177715539932251,-2.1197543144226074,0.39218467473983765,0
68,0.33499860763549805,-0.4505855441093445,-22.748254776000977,-0.1491362750530243,14.032625198364258,0.08177715539932251,2.1197543144226074,-0.39218467473983765,0.0,0.0,0.0,0.0,0.0,0.0,0.0,-0.4308138615158643,0.05373169641935686,-0.19571650521021142,0.1767513027910412,-0.1473264219822063,-0.05462216247546003,-0.4054113610869872,1.6756149867036254,0.052460618224060326,0.029994427837655158,-2.7526069463061806,0.0343185287018616,2.7663419670483047,0.7691959188396875,1.6754973547542302,0.052104326824870026,0.029969505109285054,-2.752394845125968,0.0342448039870148,2.7663679543071322,0.7691630533470046,0.00010067612133208932,6.565913253121745e-05,0.00014313762660693994,0.00020066708224889855,-3.497338062048503e-05,0.0003221093361772345,-0.0007255483805758067,0.0,0.0,0.0,0.0,0.0,0.0,0.0,-0.00011763194939518051,-0.0003562913991903005,-2.4922728370103953e-05,0.00021210118021253166,-7.372471484679705e-05,2.5987258827520066e-05,-3.286549268288752e-05,-0.00010067612133208932,-6.565913253121745e-05,-0.00014313762660693994,-0.00020066708224889855,3.497338062048503e-05,-0.0003221093361772345,0.0007255483805758067,0.4505855441093445,22.748254776000977,0.1491362750530243,-14.032625198364258,-0.08177715539932251,-2.1197543144226074,0.39218467473983765,0
69,0.3400247097015381,-0.4029781222343445,-22.772058486938477,-0.1253325641155243,14.032625198364258,0.08818584680557251,2.1261630058288574,-0.38577598333358765,0.0,0.0,0.0,0.0,0.0,0.0,0.0,-0.43441059610304855,0.042501169203147754,-0.2006104324701001,0.1804411319011917,-0.14818850437391679,-0.05428621941106657,-0.40754715640138606,1.6756117480367028,0.05246228865991559,0.029994676694395265,-2.7526076608918655,0.034317816625038786,2.7663412418896036,0.769195207271308,1.6754973547542302,0.052104326824870026,0.029969505109285054,-2.752394845125968,0.0342448039870148,2.7663679543071322,0.7691630533470046,-0.0014499459194469721,-0.0002502207252748298,-5.6394202963715376e-05,0.0002981283282474499,-5.081129707466539e-05,2.8163655065139737e-05,-0.0008028209775260946,0.0,0.0,0.0,0.0,0.0,0.0,0.0,-0.00011439328247253577,-0.00035796183504556434,-2.5171585110211198e-05,0.00021281576589737838,-7.301263802398511e-05,2.671241752860709e-05,-3.21539243033353e-05,0.0014499459194469721,0.0002502207252748298,5.6394202963715376e-05,-0.0002981283282474499,5.081129707466539e-05,-2.8163655065139737e-05,0.0008028209775260946,0.4029781222343445,22.772058486938477,0.1253325641155243,-14.032625198364258,-0.08818584680557251,-2.1261630058288574,0.38577598333358765,0
70,0.34499645233154297,-0.4029781222343445,-22.772058486938477,-0.1253325641155243,14.032625198364258,0.08818584680557251,2.1261630058288574,-0.38577598333358765,0.0,0.0,0.0,0.0,0.0,0.0,0.0,-0.43441059610304855,0.042501169203147754,-0.2006104324701001,0.1804411319011917,-0.14818850437391679,-0.05428621941106657,-0.40754715640138606,1.6756117480367028,0.05246228865991559,0.029994676694395265,-2.7526076608918655,0.034317816625038786,2.7663412418896036,0.769195207271308,1.6754973547542302,0.052104326824870026,0.029969505109285054,-2.752394845125968,0.0342448039870148,2.7663679543071322,0.7691630533470046,-0.0014499459194469721,-0.0002502207252748298,-5.6394202963715376e-05,0.0002981283282474499,-5.081129707466539e-05,2.8163655065139737e-05,-0.0008028209775260946,0.0,0.0,0.0,0.0,0.0,0.0,0.0,-0.00011439328247253577,-0.00035796183504556434,-2.5171585110211198e-05,0.00021281576589737838,-7.301263802398511e-05,2.671241752860709e-05,-3.21539243033353e-05,0.0014499459194469721,0.0002502207252748298,5.6394202963715376e-05,-0.0002981283282474499,5.081129707466539e-05,-2.8163655065139737e-05,0.0008028209775260946,0.4029781222343445,22.772058486938477,0.1253325641155243,-14.032625198364258,-0.08818584680557251,-2.1261630058288574,0.38577598333358765,0
71,0.3499908447265625,-0.5021602511405945,-22.748254776000977,-0.09756157547235489,14.056428909301758,0.09367901086807251,2.1325716972351074,-0.39218467473983765,0.0,0.0,0.0,0.0,0.0,0.0,0.0,-0.4382192714675283,0.043149072501059524,-0.20364043044458313,0.1783407571231292,-0.1480102404861926,-0.05568712134001008,-0.40811170395131546,1.675620986226961,0.052460618224060326,0.029990606354343367,-2.752609328392353,0.034317206273476286,2.766340529812707,0.769195918863617,1.6754973547542302,0.052104326824870026,0.029969505109285054,-2.752394845125968,0.0342448039870148,2.7663679543071322,0.7691630533470046,0.001482020198580796,-0.0003661012803289777,-0.0005082551087308102,-0.0004476965221375721,-0.0003795917922036063,-0.00035585149034094056,3.859715194605033e-05,0.0,0.0,0.0,0.0,0.0,0.0,0.0,-0.0001236314727308674,-0.0003562913991903005,-2.1101245058312984e-05,0.00021448326638484616,-7.240228646148567e-05,2.742449442516559e-05,-3.286551661241255e-05,-0.001482020198580796,0.0003661012803289777,0.0005082551087308102,0.0004476965221375721,0.0003795917922036063,0.00035585149034094056,-3.859715194605033e-05,0.5021602511405945,22.748254776000977,0.09756157547235489,-14.056428909301758,-0.09367901086807251,-2.1325716972351074,0.39218467473983765,0
72,0.35503506660461426,-0.5021602511405945,-22.748254776000977,-0.09756157547235489,14.056428909301758,0.09367901086807251,2.1325716972351074,-0.39218467473983765,0.0,0.0,0.0,0.0,0.0,0.0,0.0,-0.4382192714675283,0.043149072501059524,-0.20364043044458313,0.1783407571231292,-0.1480102404861926,-0.05568712134001008,-0.40811170395131546,1.675620986226961,0.052460618224060326,0.029990606354343367,-2.752609328392353,0.034317206273476286,2.766340529812707,0.769195918863617,1.6754973547542302,0.052104326824870026,0.029969505109285054,-2.752394845125968,0.0342448039870148,2.7663679543071322,0.7691630533470046,0.001482020198580796,-0.0003661012803289777,-0.0005082551087308102,-0.0004476965221375721,-0.0003795917922036063,-0.00035585149034094056,3.859715194605033e-05,0.0,0.0,0.0,0.0,0.0,0.0,0.0,-0.0001236314727308674,-0.0003562913991903005,-2.1101245058312984e-05,0.00021448326638484616,-7.240228646148567e-05,2.742449442516559e-05,-3.286551661241255e-05,-0.001482020198580796,0.0003661012803289777,0.0005082551087308102,0.0004476965221375721,0.0003795917922036063,0.00035585149034094056,-3.859715194605033e-05,0.5021602511405945,22.748254776000977,0.09756157547235489,-14.056428909301758,-0.09367901086807251,-2.1325716972351074,0.39218467473983765,0
73,0.36031341552734375,-0.5021602511405945,-22.748254776000977,-0.1253325641155243,14.080232620239258,0.08818584680557251,2.1261630058288574,-0.36471885442733765,0.0,0.0,0.0,0.0,0.0,0.0,0.0,-0.44667536195342983,0.046888203302265605,-0.21134730273423974,0.1757824658284288,-0.14714860455336348,-0.05681055270108425,-0.40589860891132684,1.6756186314790027,0.052460618224060326,0.0299919981632759,-2.7526089099634015,0.034317816625038786,2.7663408886768197,0.7691918079521838,1.6754973547542302,0.052104326824870026,0.029969505109285054,-2.752394845125968,0.0342448039870148,2.7663679543071322,0.7691630533470046,0.0010642643131242068,0.0004891468358787612,-0.00042069201408522123,-0.001262295044996937,0.00022670199104755107,9.64517915106388e-05,-0.0014863707100115117,0.0,0.0,0.0,0.0,0.0,0.0,0.0,-0.00012127672477246776,-0.0003562913991903005,-2.2493053990844947e-05,0.0002140648374333587,-7.301263802398511e-05,2.7065630312517186e-05,-2.875460517914874e-05,-0.0010642643131242068,-0.0004891468358787612,0.00042069201408522123,0.001262295044996937,-0.00022670199104755107,-9.64517915106388e-05,0.0014863707100115117,0.5021602511405945,22.748254776000977,0.1253325641155243,-14.080232620239258,-0.08818584680557251,-2.1261630058288574,0.36471885442733765,0
74,0.36501502990722656,-0.5021602511405945,-22.748254776000977,-0.1253325641155243,14.080232620239258,0.08818584680557251,2.1261630058288574,-0.36471885442733765,0.0,0.0,0.0,0.0,0.0,0.0,0.0,-0.44667536195342983,0.046888203302265605,-0.21134730273423974,0.1757824658284288,-0.14714860455336348,-0.05681055270108425,-0.40589860891132684,1.6756186314790027,0.052460618224060326,0.0299919981632759,-2.7526089099634015,0.034317816625038786,2.7663408886768197,0.7691918079521838,1.6754973547542302,0.052104326824870026,0.029969505109285054,-2.752394845125968,0.0342448039870148,2.7663679543071322,0.7691630533470046,0.0010642643131242068,0.0004891468358787612,-0.00042069201408522123,-0.001262295044996937,0.00022670199104755107,9.64517915106388e-05,-0.0014863707100115117,0.0,0.0,0.0,0.0,0.0,0.0,0.0,-0.00012127672477246776,-0.0003562913991903005,-2.2493053990844947e-05,0.0002140648374333587,-7.301263802398511e-05,2.7065630312517186e-05,-2.875460517914874e-05,-0.0010642643131242068,-0.0004891468358787612,0.00042069201408522123,0.001262295044996937,-0.00022670199104755107,-9.64517915106388e-05,0.0014863707100115117,0.5021602511405945,22.748254776000977,0.1253325641155243,-14.080232620239258,-0.08818584680557251,-2.1261630058288574,0.36471885442733765,0
75,0.3699977397918701,-0.4505855441093445,-22.748254776000977,-0.1491362750530243,14.032625198364258,0.09367901086807251,2.1197543144226074,-0.42605918645858765,0.0,0.0,0.0,0.0,0.0,0.0,0.0,-0.45103206190877393,0.04500863042785712,-0.21230549218314307,0.17960661587860066,-0.14662494529819287,-0.05594258356768855,-0.4049566679744687,1.6756152504826687,0.052460618224060326,0.029995876760347144,-2.752607397290626,0.034317206273476286,2.766341953965688,0.7691996655766667,1.6754973547542302,0.052104326824870026,0.029969505109285054,-2.752394845125968,0.0342448039870148,2.7663679543071322,0.7691630533470046,-0.0009004765105387129,0.00022120696630740057,0.0006057736013490945,0.00025516590025608703,-0.00037459720167839746,0.0003473737038537605,0.0005733753134464659,0.0,0.0,0.0,0.0,0.0,0.0,0.0,-0.0001178957284384552,-0.0003562913991903005,-2.6371651062090384e-05,0.0002125521646578754,-7.240228646148567e-05,2.6000341444287756e-05,-3.661222966211408e-05,0.0009004765105387129,-0.00022120696630740057,-0.0006057736013490945,-0.00025516590025608703,0.00037459720167839746,-0.0003473737038537605,-0.0005733753134464659,0.4505855441093445,22.748254776000977,0.1491362750530243,-14.032625198364258,-0.09367901086807251,-2.1197543144226074,0.42605918645858765,0
76,0.37503671646118164,-0.4505855441093445,-22.748254776000977,-0.1491362750530243,14.032625198364258,0.09367901086807251,2.1197543144226074,-0.42605918645858765,0.0,0.0,0.0,0.0,0.0,0.0,0.0,-0.45103206190877393,0.04500863042785712,-0.21230549218314307,0.17960661587860066,-0.14662494529819287,-0.05594258356768855,-0.4049566679744687,1.6756152504826687,0.052460618224060326,0.029995876760347144,-2.752607397290626,0.034317206273476286,2.766341953965688,0.7691996655766667,1.6754973547542302,0.052104326824870026,0.029969505109285054,-2.752394845125968,0.0342448039870148,2.7663679543071322,0.7691630533470046,-0.0009004765105387129,0.00022120696630740057,0.0006057736013490945,0.00025516590025608703,-0.00037459720167839746,0.0003473737038537605,0.0005733753134464659,0.0,0.0,0.0,0.0,0.0,0.0,0.0,-0.0001178957284384552,-0.0003562913991903005,-2.6371651062090384e-05,0.0002125521646578754,-7.240228646148567e-05,2.6000341444287756e-05,-3.661222966211408e-05,0.0009004765105387129,-0.00022120696630740057,-0.0006057736013490945,-0.00025516590025608703,0.00037459720167839746,-0.0003473737038537605,-0.0005733753134464659,0.4505855441093445,22.748254776000977,0.1491362750530243,-14.032625198364258,-0.09367901086807251,-2.1197543144226074,0.42605918645858765,0
77,0.3799889087677002,-0.4029781222343445,-22.772058486938477,-0.09756157547235489,14.032625198364258,0.08818584680557251,2.1325716972351074,-0.39950889348983765,0.0,0.0,0.0,0.0,0.0,0.0,0.0,-0.44437133633863735,0.10399496613768833,-0.2015721762406338,0.153768650721034,-0.1477056195812201,-0.06148785388919357,-0.4069143578058565,1.67561405547653,0.05246228865991559,0.029992735975975404,-2.752606861272195,0.034317816625038786,2.7663405298127066,0.7691924945976005,1.6754973547542302,0.052104326824870026,0.029969505109285054,-2.752394845125968,0.0342448039870148,2.7663679543071322,0.7691630533470046,-0.0002691068432365465,-2.0127284039822254e-05,-0.0003667410921917006,0.00010883562229376999,-0.00017690080486225108,-0.0001837117785701235,-0.0004059227802259516,0.0,0.0,0.0,0.0,0.0,0.0,0.0,-0.00011670072229974515,-0.00035796183504556434,-2.3230866690350516e-05,0.00021201614622690101,-7.301263802398511e-05,2.742449442560968e-05,-2.9441250595896307e-05,0.0002691068432365465,2.0127284039822254e-05,0.0003667410921917006,-0.00010883562229376999,0.00017690080486225108,0.0001837117785701235,0.0004059227802259516,0.4029781222343445,22.772058486938477,0.09756157547235489,-14.032625198364258,-0.08818584680557251,-2.1325716972351074,0.39950889348983765,0
78,0.3850066661834717,-0.4029781222343445,-22.772058486938477,-0.09756157547235489,14.032625198364258,0.08818584680557251,2.1325716972351074,-0.39950889348983765,0.0,0.0,0.0,0.0,0.0,0.0,0.0,-0.44437133633863735,0.10399496613768833,-0.2015721762406338,0.153768650721034,-0.1477056195812201,-0.06148785388919357,-0.4069143578058565,1.67561405547653,0.05246228865991559,0.029992735975975404,-2.752606861272195,0.034317816625038786,2.7663405298127066,0.7691924945976005,1.6754973547542302,0.052104326824870026,0.029969505109285054,-2.752394845125968,0.0342448039870148,2.7663679543071322,0.7691630533470046,-0.0002691068432365465,-2.0127284039822254e-05,-0.0003667410921917006,0.00010883562229376999,-0.00017690080486225108,-0.0001837117785701235,-0.0004059227802259516,0.0,0.0,0.0,0.0,0.0,0.0,0.0,-0.00011670072229974515,-0.00035796183504556434,-2.3230866690350516e-05,0.00021201614622690101,-7.301263802398511e-05,2.742449442560968e-05,-2.9441250595896307e-05,0.0002691068432365465,2.0127284039822254e-05,0.0003667410921917006,-0.00010883562229376999,0.00017690080486225108,0.0001837117785701235,0.0004059227802259516,0.4029781222343445,22.772058486938477,0.09756157547235489,-14.032625198364258,-0.08818584680557251,-2.1325716972351074,0.39950889348983765,0
79,0.3899986743927002,-0.4029781222343445,-22.795862197875977,-0.09756157547235489,14.032625198364258,0.08818584680557251,2.1197543144226074,-0.37204307317733765,0.0,0.0,0.0,0.0,0.0,0.0,0.0,-0.44028467288589523,0.038278313050818906,-0.20167754309406064,0.18454286342973827,-0.14725065346832922,-0.05552800791772844,-0.4068294370358824,1.6756116536422168,0.052463959095770854,0.029992631677614023,-2.752604905832249,0.034317816625038786,2.7663419539663523,0.7691936813684779,1.6754973547542302,0.052104326824870026,0.029969505109285054,-2.752394845125968,0.0342448039870148,2.7663679543071322,0.7691630533470046,-7.175906925471069e-05,0.00012137101539372208,0.0003825615866219206,0.00030540248172486993,-0.00020510289298884766,0.00031634846090269696,-0.001269964082088526,0.0,0.0,0.0,0.0,0.0,0.0,0.0,-0.00011429888798653032,-0.00035963227090082817,-2.3126568328969005e-05,0.00021006070628093454,-7.301263802398511e-05,2.6000340779930298e-05,-3.0628021473244615e-05,7.175906925471069e-05,-0.00012137101539372208,-0.0003825615866219206,-0.00030540248172486993,0.00020510289298884766,-0.00031634846090269696,0.001269964082088526,0.4029781222343445,22.795862197875977,0.09756157547235489,-14.032625198364258,-0.08818584680557251,-2.1197543144226074,0.37204307317733765,0
