rezayati/contactInterpretation/dataset/franka_main/labeled_data/link6/b12_6.csv
index,time,tau_J0,tau_J1,tau_J2,tau_J3,tau_J4,tau_J5,tau_J6,tau_J_d0,tau_J_d1,tau_J_d2,tau_J_d3,tau_J_d4,tau_J_d5,tau_J_d6,tau_ext0,tau_ext1,tau_ext2,tau_ext3,tau_ext4,tau_ext5,tau_ext6,q0,q1,q2,q3,q4,q5,q6,q_d0,q_d1,q_d2,q_d3,q_d4,q_d5,q_d6,dq0,dq1,dq2,dq3,dq4,dq5,dq6,dq_d0,dq_d1,dq_d2,dq_d3,dq_d4,dq_d5,dq_d6,e0,e1,e2,e3,e4,e5,e6,de0,de1,de2,de3,de4,de5,de6,etau_J0,etau_J1,etau_J2,etau_J3,etau_J4,etau_J5,etau_J6,label
1,0.0,-0.04592245817184448,-18.328699111938477,0.9180634021759033,18.269685745239258,0.5944724678993225,2.2625765800476074,-0.24112264811992645,0.0,0.0,0.0,0.0,0.0,0.0,0.0,-0.06446139278457848,0.36153380665511026,0.09969668065304281,0.6701606370957791,0.1772496880651911,0.09422516851458217,-0.23421495152045424,-0.6089265306749005,-0.05748122461166298,-0.6664034067697887,-2.594684467650436,-0.05577831214648507,2.5079032332632276,0.8763229540106322,-0.6090851748156966,-0.05753196718556838,-0.666603097082616,-2.5945565370258534,-0.05562143941554,2.507976027223799,0.8763108487046415,-0.0005924767377153936,0.0008472823178437247,0.0002343009145976944,0.0009534182965789265,0.0002352430770898814,0.0006092727874169902,0.00045218545543318636,0.0,0.0,0.0,0.0,0.0,0.0,0.0,-0.00015864414079602707,-5.074257390540182e-05,-0.00019969031282729421,0.0001279306245827172,0.0001568727309450707,7.279396057136012e-05,-1.2105305990717241e-05,0.0005924767377153936,-0.0008472823178437247,-0.0002343009145976944,-0.0009534182965789265,-0.0002352430770898814,-0.0006092727874169902,-0.00045218545543318636,0.04592245817184448,18.328699111938477,-0.9180634021759033,-18.269685745239258,-0.5944724678993225,-2.2625765800476074,0.24112264811992645,0
2,0.004997730255126953,-0.018151462078094482,-18.352502822875977,0.8942596912384033,18.297456741333008,0.5999656319618225,2.2818026542663574,-0.25485557317733765,0.0,0.0,0.0,0.0,0.0,0.0,0.0,-0.06383168511588073,0.357569987017088,0.10231971591204517,0.670975760553674,0.1770653320454905,0.09418575310104822,-0.23382012827217857,-0.6089305942142907,-0.05747958048279599,-0.6664045519718004,-2.5946861116460043,-0.05577573306359361,2.507901097032759,0.8763244798911941,-0.6090851748156966,-0.05753196718556838,-0.666603097082616,-2.5945565370258534,-0.05562143941554,2.507976027223799,0.8763108487046415,-0.000722565490757633,0.0007553797489705798,0.0011736367005955432,-0.000147703823763876,0.0001927518562311884,-0.0002101402793925808,0.00031659644625018106,0.0,0.0,0.0,0.0,0.0,0.0,0.0,-0.0001545806014058293,-5.238670277239038e-05,-0.00019854511081562887,0.00012957462015084076,0.00015429364805361057,7.493019103987919e-05,-1.3631186552620633e-05,0.000722565490757633,-0.0007553797489705798,-0.0011736367005955432,0.000147703823763876,-0.0001927518562311884,0.0002101402793925808,-0.00031659644625018106,0.018151462078094482,18.352502822875977,-0.8942596912384033,-18.297456741333008,-0.5999656319618225,-2.2818026542663574,0.25485557317733765,0
3,0.009996175765991211,-0.018151462078094482,-18.352502822875977,0.8942596912384033,18.297456741333008,0.5999656319618225,2.2818026542663574,-0.25485557317733765,0.0,0.0,0.0,0.0,0.0,0.0,0.0,-0.06383168511588073,0.357569987017088,0.10231971591204517,0.670975760553674,0.1770653320454905,0.09418575310104822,-0.23382012827217857,-0.6089305942142907,-0.05747958048279599,-0.6664045519718004,-2.5946861116460043,-0.05577573306359361,2.507901097032759,0.8763244798911941,-0.6090851748156966,-0.05753196718556838,-0.666603097082616,-2.5945565370258534,-0.05562143941554,2.507976027223799,0.8763108487046415,-0.000722565490757633,0.0007553797489705798,0.0011736367005955432,-0.000147703823763876,0.0001927518562311884,-0.0002101402793925808,0.00031659644625018106,0.0,0.0,0.0,0.0,0.0,0.0,0.0,-0.0001545806014058293,-5.238670277239038e-05,-0.00019854511081562887,0.00012957462015084076,0.00015429364805361057,7.493019103987919e-05,-1.3631186552620633e-05,0.000722565490757633,-0.0007553797489705798,-0.0011736367005955432,0.000147703823763876,-0.0001927518562311884,0.0002101402793925808,-0.00031659644625018106,0.018151462078094482,18.352502822875977,-0.8942596912384033,-18.297456741333008,-0.5999656319618225,-2.2818026542663574,0.25485557317733765,0
4,0.014996767044067383,-0.04592245817184448,-18.352502822875977,0.9418671131134033,18.269685745239258,0.5999656319618225,2.2753939628601074,-0.20083944499492645,0.0,0.0,0.0,0.0,0.0,0.0,0.0,-0.06011772491057022,0.3595043533653886,0.1061289439487904,0.6641718512751524,0.17703170985898614,0.09336602438445202,-0.23455192067304034,-0.6089265306868218,-0.05747955417595622,-0.6664050790405003,-2.594682146547913,-0.055778926698875735,2.507901809109582,0.8763184780991738,-0.6090851748156966,-0.05753196718556838,-0.666603097082616,-2.5945565370258534,-0.05562143941554,2.507976027223799,0.8763108487046415,0.00013886853331527093,0.0007424076018484183,-4.8931344509726597e-05,0.0001774952100138784,4.5482043680819117e-05,0.0001691914210358125,-0.0009753708907407156,0.0,0.0,0.0,0.0,0.0,0.0,0.0,-0.0001586441288747853,-5.2413009612166384e-05,-0.00019801804211572183,0.00012560952205964426,0.00015748728333573464,7.42181142170395e-05,-7.629394532360223e-06,-0.00013886853331527093,-0.0007424076018484183,4.8931344509726597e-05,-0.0001774952100138784,-4.5482043680819117e-05,-0.0001691914210358125,0.0009753708907407156,0.04592245817184448,18.352502822875977,-0.9418671131134033,-18.269685745239258,-0.5999656319618225,-2.2753939628601074,0.20083944499492645,0
5,0.019995689392089844,-0.04592245817184448,-18.352502822875977,0.9418671131134033,18.269685745239258,0.5999656319618225,2.2753939628601074,-0.20083944499492645,0.0,0.0,0.0,0.0,0.0,0.0,0.0,-0.06011772491057022,0.3595043533653886,0.1061289439487904,0.6641718512751524,0.17703170985898614,0.09336602438445202,-0.23455192067304034,-0.6089265306868218,-0.05747955417595622,-0.6664050790405003,-2.594682146547913,-0.055778926698875735,2.507901809109582,0.8763184780991738,-0.6090851748156966,-0.05753196718556838,-0.666603097082616,-2.5945565370258534,-0.05562143941554,2.507976027223799,0.8763108487046415,0.00013886853331527093,0.0007424076018484183,-4.8931344509726597e-05,0.0001774952100138784,4.5482043680819117e-05,0.0001691914210358125,-0.0009753708907407156,0.0,0.0,0.0,0.0,0.0,0.0,0.0,-0.0001586441288747853,-5.2413009612166384e-05,-0.00019801804211572183,0.00012560952205964426,0.00015748728333573464,7.42181142170395e-05,-7.629394532360223e-06,-0.00013886853331527093,-0.0007424076018484183,4.8931344509726597e-05,-0.0001774952100138784,-4.5482043680819117e-05,-0.0001691914210358125,0.0009753708907407156,0.04592245817184448,18.352502822875977,-0.9418671131134033,-18.269685745239258,-0.5999656319618225,-2.2753939628601074,0.20083944499492645,0
6,0.02499556541442871,-0.06972616910934448,-18.304895401000977,0.8704559803009033,18.269685745239258,0.5999656319618225,2.2818026542663574,-0.24844686686992645,0.0,0.0,0.0,0.0,0.0,0.0,0.0,-0.06405187778870321,0.3565552277807239,0.10264604691491418,0.662667209886785,0.1771174121710107,0.09359394087526288,-0.23428731031789227,-0.608924860239029,-0.057482895047518245,-0.6664003855351389,-2.5946844689087523,-0.055777862273983465,2.507901097032759,0.8763237678127155,-0.6090851748156966,-0.05753196718556838,-0.666603097082616,-2.5945565370258534,-0.05562143941554,2.507976027223799,0.8763108487046415,0.0004999912446411926,-7.383223315333841e-05,0.0010299766224239786,2.476178846683177e-05,5.3289477403418166e-05,-0.0003281855042009597,0.00034321816754308374,0.0,0.0,0.0,0.0,0.0,0.0,0.0,-0.00016031457666754179,-4.907213805013799e-05,-0.00020271154747708575,0.00012793188289883517,0.00015642285844346543,7.493019103987919e-05,-1.2919108073994323e-05,-0.0004999912446411926,7.383223315333841e-05,-0.0010299766224239786,-2.476178846683177e-05,-5.3289477403418166e-05,0.0003281855042009597,-0.00034321816754308374,0.06972616910934448,18.304895401000977,-0.8704559803009033,-18.269685745239258,-0.5999656319618225,-2.2818026542663574,0.24844686686992645,0
7,0.030092716217041016,-0.06972616910934448,-18.304895401000977,0.8704559803009033,18.269685745239258,0.5999656319618225,2.2818026542663574,-0.24844686686992645,0.0,0.0,0.0,0.0,0.0,0.0,0.0,-0.06405187778870321,0.3565552277807239,0.10264604691491418,0.662667209886785,0.1771174121710107,0.09359394087526288,-0.23428731031789227,-0.608924860239029,-0.057482895047518245,-0.6664003855351389,-2.5946844689087523,-0.055777862273983465,2.507901097032759,0.8763237678127155,-0.6090851748156966,-0.05753196718556838,-0.666603097082616,-2.5945565370258534,-0.05562143941554,2.507976027223799,0.8763108487046415,0.0004999912446411926,-7.383223315333841e-05,0.0010299766224239786,2.476178846683177e-05,5.3289477403418166e-05,-0.0003281855042009597,0.00034321816754308374,0.0,0.0,0.0,0.0,0.0,0.0,0.0,-0.00016031457666754179,-4.907213805013799e-05,-0.00020271154747708575,0.00012793188289883517,0.00015642285844346543,7.493019103987919e-05,-1.2919108073994323e-05,-0.0004999912446411926,7.383223315333841e-05,-0.0010299766224239786,-2.476178846683177e-05,-5.3289477403418166e-05,0.0003281855042009597,-0.00034321816754308374,0.06972616910934448,18.304895401000977,-0.8704559803009033,-18.269685745239258,-0.5999656319618225,-2.2818026542663574,0.24844686686992645,0
8,0.0356602668762207,-0.06972616910934448,-18.304895401000977,0.8704559803009033,18.269685745239258,0.5999656319618225,2.2818026542663574,-0.24844686686992645,0.0,0.0,0.0,0.0,0.0,0.0,0.0,-0.06405187778870321,0.3565552277807239,0.10264604691491418,0.662667209886785,0.1771174121710107,0.09359394087526288,-0.23428731031789227,-0.608924860239029,-0.057482895047518245,-0.6664003855351389,-2.5946844689087523,-0.055777862273983465,2.507901097032759,0.8763237678127155,-0.6090851748156966,-0.05753196718556838,-0.666603097082616,-2.5945565370258534,-0.05562143941554,2.507976027223799,0.8763108487046415,0.0004999912446411926,-7.383223315333841e-05,0.0010299766224239786,2.476178846683177e-05,5.3289477403418166e-05,-0.0003281855042009597,0.00034321816754308374,0.0,0.0,0.0,0.0,0.0,0.0,0.0,-0.00016031457666754179,-4.907213805013799e-05,-0.00020271154747708575,0.00012793188289883517,0.00015642285844346543,7.493019103987919e-05,-1.2919108073994323e-05,-0.0004999912446411926,7.383223315333841e-05,-0.0010299766224239786,-2.476178846683177e-05,-5.3289477403418166e-05,0.0003281855042009597,-0.00034321816754308374,0.06972616910934448,18.304895401000977,-0.8704559803009033,-18.269685745239258,-0.5999656319618225,-2.2818026542663574,0.24844686686992645,0
9,0.04000043869018555,-0.06972616910934448,-18.304895401000977,0.8704559803009033,18.269685745239258,0.5999656319618225,2.2818026542663574,-0.24844686686992645,0.0,0.0,0.0,0.0,0.0,0.0,0.0,-0.06405187778870321,0.3565552277807239,0.10264604691491418,0.662667209886785,0.1771174121710107,0.09359394087526288,-0.23428731031789227,-0.608924860239029,-0.057482895047518245,-0.6664003855351389,-2.5946844689087523,-0.055777862273983465,2.507901097032759,0.8763237678127155,-0.6090851748156966,-0.05753196718556838,-0.666603097082616,-2.5945565370258534,-0.05562143941554,2.507976027223799,0.8763108487046415,0.0004999912446411926,-7.383223315333841e-05,0.0010299766224239786,2.476178846683177e-05,5.3289477403418166e-05,-0.0003281855042009597,0.00034321816754308374,0.0,0.0,0.0,0.0,0.0,0.0,0.0,-0.00016031457666754179,-4.907213805013799e-05,-0.00020271154747708575,0.00012793188289883517,0.00015642285844346543,7.493019103987919e-05,-1.2919108073994323e-05,-0.0004999912446411926,7.383223315333841e-05,-0.0010299766224239786,-2.476178846683177e-05,-5.3289477403418166e-05,0.0003281855042009597,-0.00034321816754308374,0.06972616910934448,18.304895401000977,-0.8704559803009033,-18.269685745239258,-0.5999656319618225,-2.2818026542663574,0.24844686686992645,0
10,0.04499983787536621,-0.09352988004684448,-18.253320693969727,0.9418671131134033,18.297456741333008,0.6063743233680725,2.2818026542663574,-0.21457235515117645,0.0,0.0,0.0,0.0,0.0,0.0,0.0,-0.06699457845687837,0.3537229014772619,0.09842956527208803,0.6656300658226536,0.17696098640667374,0.09402278088378194,-0.23447929241867344,-0.6089231898031736,-0.05748651432520465,-0.6664050774250693,-2.594686417763693,-0.05577963893796129,2.507901097032759,0.8763200039780801,-0.6090851748156966,-0.05753196718556838,-0.666603097082616,-2.5945565370258534,-0.05562143941554,2.507976027223799,0.8763108487046415,0.000282423052141343,-0.001164254389313029,-0.0014341835755633536,-0.0002451849283807762,-0.0003189396239137437,-0.00011366827259898754,-0.0011918081675884272,0.0,0.0,0.0,0.0,0.0,0.0,0.0,-0.00016198501252295827,-4.545286036373303e-05,-0.000198019657546733,0.00012988073783937182,0.00015819952242129148,7.493019103987919e-05,-9.155273438588019e-06,-0.000282423052141343,0.001164254389313029,0.0014341835755633536,0.0002451849283807762,0.0003189396239137437,0.00011366827259898754,0.0011918081675884272,0.09352988004684448,18.253320693969727,-0.9418671131134033,-18.297456741333008,-0.6063743233680725,-2.2818026542663574,0.21457235515117645,0
11,0.049997806549072266,-0.09352988004684448,-18.253320693969727,0.9418671131134033,18.297456741333008,0.6063743233680725,2.2818026542663574,-0.21457235515117645,0.0,0.0,0.0,0.0,0.0,0.0,0.0,-0.06699457845687837,0.3537229014772619,0.09842956527208803,0.6656300658226536,0.17696098640667374,0.09402278088378194,-0.23447929241867344,-0.6089231898031736,-0.05748651432520465,-0.6664050774250693,-2.594686417763693,-0.05577963893796129,2.507901097032759,0.8763200039780801,-0.6090851748156966,-0.05753196718556838,-0.666603097082616,-2.5945565370258534,-0.05562143941554,2.507976027223799,0.8763108487046415,0.000282423052141343,-0.001164254389313029,-0.0014341835755633536,-0.0002451849283807762,-0.0003189396239137437,-0.00011366827259898754,-0.0011918081675884272,0.0,0.0,0.0,0.0,0.0,0.0,0.0,-0.00016198501252295827,-4.545286036373303e-05,-0.000198019657546733,0.00012988073783937182,0.00015819952242129148,7.493019103987919e-05,-9.155273438588019e-06,-0.000282423052141343,0.001164254389313029,0.0014341835755633536,0.0002451849283807762,0.0003189396239137437,0.00011366827259898754,0.0011918081675884272,0.09352988004684448,18.253320693969727,-0.9418671131134033,-18.297456741333008,-0.6063743233680725,-2.2818026542663574,0.21457235515117645,0
12,0.05499386787414551,-0.06972616910934448,-18.277124404907227,0.8426849842071533,18.269685745239258,0.6063743233680725,2.2753939628601074,-0.26858848333358765,0.0,0.0,0.0,0.0,0.0,0.0,0.0,-0.06208686870233178,0.360720071181355,0.10430150191206634,0.6653085870432695,0.17613549121236333,0.09337877129096729,-0.23472800559734594,-0.6089248602403499,-0.057484844358472634,-0.6664002220170542,-2.594684468606926,-0.05577962574059987,2.507901809109582,0.8763260057701003,-0.6090851748156966,-0.05753196718556838,-0.666603097082616,-2.5945565370258534,-0.05562143941554,2.507976027223799,0.8763108487046415,4.835915799118265e-05,-0.00034209136675227887,0.0013176533418063879,0.0004202604172894605,-0.00015141348736282984,9.404909957375559e-05,0.0008706280980962652,0.0,0.0,0.0,0.0,0.0,0.0,0.0,-0.00016031457534670945,-4.7122827095749664e-05,-0.000202875065561825,0.00012793158107271552,0.0001581863250598725,7.42181142170395e-05,-1.5157065458848429e-05,-4.835915799118265e-05,0.00034209136675227887,-0.0013176533418063879,-0.0004202604172894605,0.00015141348736282984,-9.404909957375559e-05,-0.0008706280980962652,0.06972616910934448,18.277124404907227,-0.8426849842071533,-18.269685745239258,-0.6063743233680725,-2.2753939628601074,0.26858848333358765,0
13,0.05999469757080078,-0.06972616910934448,-18.277124404907227,0.8426849842071533,18.269685745239258,0.6063743233680725,2.2753939628601074,-0.26858848333358765,0.0,0.0,0.0,0.0,0.0,0.0,0.0,-0.06208686870233178,0.360720071181355,0.10430150191206634,0.6653085870432695,0.17613549121236333,0.09337877129096729,-0.23472800559734594,-0.6089248602403499,-0.057484844358472634,-0.6664002220170542,-2.594684468606926,-0.05577962574059987,2.507901809109582,0.8763260057701003,-0.6090851748156966,-0.05753196718556838,-0.666603097082616,-2.5945565370258534,-0.05562143941554,2.507976027223799,0.8763108487046415,4.835915799118265e-05,-0.00034209136675227887,0.0013176533418063879,0.0004202604172894605,-0.00015141348736282984,9.404909957375559e-05,0.0008706280980962652,0.0,0.0,0.0,0.0,0.0,0.0,0.0,-0.00016031457534670945,-4.7122827095749664e-05,-0.000202875065561825,0.00012793158107271552,0.0001581863250598725,7.42181142170395e-05,-1.5157065458848429e-05,-4.835915799118265e-05,0.00034209136675227887,-0.0013176533418063879,-0.0004202604172894605,0.00015141348736282984,-9.404909957375559e-05,-0.0008706280980962652,0.06972616910934448,18.277124404907227,-0.8426849842071533,-18.269685745239258,-0.6063743233680725,-2.2753939628601074,0.26858848333358765,0
14,0.06499004364013672,-0.06972616910934448,-18.304895401000977,0.8704559803009033,18.321260452270508,0.5944724678993225,2.2689852714538574,-0.24112264811992645,0.0,0.0,0.0,0.0,0.0,0.0,0.0,-0.07063158756804251,0.3622718017010712,0.09172234741570236,0.6633586079507393,0.17709783637810797,0.0928213897076333,-0.23548057723257765,-0.6089248602390289,-0.057485025913576904,-0.6664022492166833,-2.594686021905191,-0.05577831506701749,2.5079025211864048,0.8763229540106322,-0.6090851748156966,-0.05753196718556838,-0.666603097082616,-2.5945565370258534,-0.05562143941554,2.507976027223799,0.8763108487046415,-0.0006581955515648899,0.00031920697967641735,0.00047631301071866426,-0.0011008290238811917,0.0003412338569430128,0.00021658928723999323,0.0006586636924494931,0.0,0.0,0.0,0.0,0.0,0.0,0.0,-0.0001603145766676528,-4.694127199147968e-05,-0.0002008478659326629,0.00012948487933739372,0.00015687565147749077,7.350603739419981e-05,-1.2105305990717241e-05,0.0006581955515648899,-0.00031920697967641735,-0.00047631301071866426,0.0011008290238811917,-0.0003412338569430128,-0.00021658928723999323,-0.0006586636924494931,0.06972616910934448,18.304895401000977,-0.8704559803009033,-18.321260452270508,-0.5944724678993225,-2.2689852714538574,0.24112264811992645,0
15,0.06999993324279785,-0.06972616910934448,-18.304895401000977,0.8704559803009033,18.321260452270508,0.5944724678993225,2.2689852714538574,-0.24112264811992645,0.0,0.0,0.0,0.0,0.0,0.0,0.0,-0.07063158756804251,0.3622718017010712,0.09172234741570236,0.6633586079507393,0.17709783637810797,0.0928213897076333,-0.23548057723257765,-0.6089248602390289,-0.057485025913576904,-0.6664022492166833,-2.594686021905191,-0.05577831506701749,2.5079025211864048,0.8763229540106322,-0.6090851748156966,-0.05753196718556838,-0.666603097082616,-2.5945565370258534,-0.05562143941554,2.507976027223799,0.8763108487046415,-0.0006581955515648899,0.00031920697967641735,0.00047631301071866426,-0.0011008290238811917,0.0003412338569430128,0.00021658928723999323,0.0006586636924494931,0.0,0.0,0.0,0.0,0.0,0.0,0.0,-0.0001603145766676528,-4.694127199147968e-05,-0.0002008478659326629,0.00012948487933739372,0.00015687565147749077,7.350603739419981e-05,-1.2105305990717241e-05,0.0006581955515648899,-0.00031920697967641735,-0.00047631301071866426,0.0011008290238811917,-0.0003412338569430128,-0.00021658928723999323,-0.0006586636924494931,0.06972616910934448,18.304895401000977,-0.8704559803009033,-18.321260452270508,-0.5944724678993225,-2.2689852714538574,0.24112264811992645,0
16,0.0749959945678711,-0.04592245817184448,-18.328699111938477,0.8942596912384033,18.269685745239258,0.5880637764930725,2.2753939628601074,-0.25485557317733765,0.0,0.0,0.0,0.0,0.0,0.0,0.0,-0.06524009146406873,0.3605540631103151,0.09756751782049464,0.6659933695365116,0.17659358611260043,0.09347782604060399,-0.234353994814596,-0.6089265306748842,-0.05748130353663742,-0.6664017439348618,-2.5946844574403105,-0.05577759130750553,2.507901809109582,0.8763244798911941,-0.6090851748156966,-0.05753196718556838,-0.666603097082616,-2.5945565370258534,-0.05562143941554,2.507976027223799,0.8763108487046415,-0.0004884969979411227,0.00025430338834988794,0.0008053650267029611,0.0002735419703101966,0.0005476730192119889,0.00019808098163562926,0.0007830054146304538,0.0,0.0,0.0,0.0,0.0,0.0,0.0,-0.00015864414081234735,-5.066364893096392e-05,-0.00020135314775415747,0.00012792041445708335,0.00015615189196552942,7.42181142170395e-05,-1.3631186552620633e-05,0.0004884969979411227,-0.00025430338834988794,-0.0008053650267029611,-0.0002735419703101966,-0.0005476730192119889,-0.00019808098163562926,-0.0007830054146304538,0.04592245817184448,18.328699111938477,-0.8942596912384033,-18.269685745239258,-0.5880637764930725,-2.2753939628601074,0.25485557317733765,0
17,0.07999610900878906,-0.04592245817184448,-18.328699111938477,0.8942596912384033,18.269685745239258,0.5880637764930725,2.2753939628601074,-0.25485557317733765,0.0,0.0,0.0,0.0,0.0,0.0,0.0,-0.06524009146406873,0.3605540631103151,0.09756751782049464,0.6659933695365116,0.17659358611260043,0.09347782604060399,-0.234353994814596,-0.6089265306748842,-0.05748130353663742,-0.6664017439348618,-2.5946844574403105,-0.05577759130750553,2.507901809109582,0.8763244798911941,-0.6090851748156966,-0.05753196718556838,-0.666603097082616,-2.5945565370258534,-0.05562143941554,2.507976027223799,0.8763108487046415,-0.0004884969979411227,0.00025430338834988794,0.0008053650267029611,0.0002735419703101966,0.0005476730192119889,0.00019808098163562926,0.0007830054146304538,0.0,0.0,0.0,0.0,0.0,0.0,0.0,-0.00015864414081234735,-5.066364893096392e-05,-0.00020135314775415747,0.00012792041445708335,0.00015615189196552942,7.42181142170395e-05,-1.3631186552620633e-05,0.0004884969979411227,-0.00025430338834988794,-0.0008053650267029611,-0.0002735419703101966,-0.0005476730192119889,-0.00019808098163562926,-0.0007830054146304538,0.04592245817184448,18.328699111938477,-0.8942596912384033,-18.269685745239258,-0.5880637764930725,-2.2753939628601074,0.25485557317733765,0
18,0.08501100540161133,-0.04592245817184448,-18.328699111938477,0.9418671131134033,18.297456741333008,0.6063743233680725,2.2753939628601074,-0.20724813640117645,0.0,0.0,0.0,0.0,0.0,0.0,0.0,-0.06579894692977599,0.3557079407461278,0.09928572249464628,0.6677856821567523,0.17623988678350017,0.09416522512831682,-0.23345624096498335,-0.6089265306748842,-0.057481934900792085,-0.6664050761357176,-2.5946836623895564,-0.05577963846912836,2.507901809109582,0.8763191901759968,-0.6090851748156966,-0.05753196718556838,-0.666603097082616,-2.5945565370258534,-0.05562143941554,2.507976027223799,0.8763108487046415,0.00031571998009287557,-0.00011824997472439011,-0.00014280842262311868,6.241840318870188e-05,-0.00031234914761315045,0.00021034940588639063,-0.0016489678920280496,0.0,0.0,0.0,0.0,0.0,0.0,0.0,-0.00015864414081234735,-5.003228477629823e-05,-0.00019802094689835847,0.00012712536370296235,0.00015819905358836067,7.42181142170395e-05,-8.341471355310937e-06,-0.00031571998009287557,0.00011824997472439011,0.00014280842262311868,-6.241840318870188e-05,0.00031234914761315045,-0.00021034940588639063,0.0016489678920280496,0.04592245817184448,18.328699111938477,-0.9418671131134033,-18.297456741333008,-0.6063743233680725,-2.2753939628601074,0.20724813640117645,0
19,0.08999466896057129,-0.04592245817184448,-18.328699111938477,0.9418671131134033,18.297456741333008,0.6063743233680725,2.2753939628601074,-0.20724813640117645,0.0,0.0,0.0,0.0,0.0,0.0,0.0,-0.06579894692977599,0.3557079407461278,0.09928572249464628,0.6677856821567523,0.17623988678350017,0.09416522512831682,-0.23345624096498335,-0.6089265306748842,-0.057481934900792085,-0.6664050761357176,-2.5946836623895564,-0.05577963846912836,2.507901809109582,0.8763191901759968,-0.6090851748156966,-0.05753196718556838,-0.666603097082616,-2.5945565370258534,-0.05562143941554,2.507976027223799,0.8763108487046415,0.00031571998009287557,-0.00011824997472439011,-0.00014280842262311868,6.241840318870188e-05,-0.00031234914761315045,0.00021034940588639063,-0.0016489678920280496,0.0,0.0,0.0,0.0,0.0,0.0,0.0,-0.00015864414081234735,-5.003228477629823e-05,-0.00019802094689835847,0.00012712536370296235,0.00015819905358836067,7.42181142170395e-05,-8.341471355310937e-06,-0.00031571998009287557,0.00011824997472439011,0.00014280842262311868,-6.241840318870188e-05,0.00031234914761315045,-0.00021034940588639063,0.0016489678920280496,0.04592245817184448,18.328699111938477,-0.9418671131134033,-18.297456741333008,-0.6063743233680725,-2.2753939628601074,0.20724813640117645,0
20,0.09503555297851562,-0.06972616910934448,-18.304895401000977,0.9418671131134033,18.321260452270508,0.5999656319618225,2.2689852714538574,-0.24844686686992645,0.0,0.0,0.0,0.0,0.0,0.0,0.0,-0.07200257057160737,0.3579826821478174,0.09407910632985396,0.664938827426356,0.17638920294829524,0.0933241064184148,-0.23339143337362578,-0.6089248602390289,-0.057482895051527844,-0.6664050761713346,-2.5946880881490015,-0.05577857201077045,2.5079025211864048,0.8763237678127155,-0.6090851748156966,-0.05753196718556838,-0.666603097082616,-2.5945565370258534,-0.05562143941554,2.507976027223799,0.8763108487046415,3.5484574768969406e-05,-4.632770583826023e-05,-0.00036884194399837146,-0.0005157816810807155,-0.0001365538569288457,0.00026291552290832326,0.0008573043034136286,0.0,0.0,0.0,0.0,0.0,0.0,0.0,-0.0001603145766676528,-4.907213404053978e-05,-0.00019802091128140464,0.00013155112314811035,0.00015713259523045253,7.350603739419981e-05,-1.2919108073994323e-05,-3.5484574768969406e-05,4.632770583826023e-05,0.00036884194399837146,0.0005157816810807155,0.0001365538569288457,-0.00026291552290832326,-0.0008573043034136286,0.06972616910934448,18.304895401000977,-0.9418671131134033,-18.321260452270508,-0.5999656319618225,-2.2689852714538574,0.24844686686992645,0
21,0.10000872611999512,-0.06972616910934448,-18.304895401000977,0.9418671131134033,18.321260452270508,0.5999656319618225,2.2689852714538574,-0.24844686686992645,0.0,0.0,0.0,0.0,0.0,0.0,0.0,-0.07200257057160737,0.3579826821478174,0.09407910632985396,0.664938827426356,0.17638920294829524,0.0933241064184148,-0.23339143337362578,-0.6089248602390289,-0.057482895051527844,-0.6664050761713346,-2.5946880881490015,-0.05577857201077045,2.5079025211864048,0.8763237678127155,-0.6090851748156966,-0.05753196718556838,-0.666603097082616,-2.5945565370258534,-0.05562143941554,2.507976027223799,0.8763108487046415,3.5484574768969406e-05,-4.632770583826023e-05,-0.00036884194399837146,-0.0005157816810807155,-0.0001365538569288457,0.00026291552290832326,0.0008573043034136286,0.0,0.0,0.0,0.0,0.0,0.0,0.0,-0.0001603145766676528,-4.907213404053978e-05,-0.00019802091128140464,0.00013155112314811035,0.00015713259523045253,7.350603739419981e-05,-1.2919108073994323e-05,-3.5484574768969406e-05,4.632770583826023e-05,0.00036884194399837146,0.0005157816810807155,0.0001365538569288457,-0.00026291552290832326,-0.0008573043034136286,0.06972616910934448,18.304895401000977,-0.9418671131134033,-18.321260452270508,-0.5999656319618225,-2.2689852714538574,0.24844686686992645,0
22,0.10509490966796875,-0.04592245817184448,-18.253320693969727,0.8704559803009033,18.297456741333008,0.5944724678993225,2.2753939628601074,-0.21457235515117645,0.0,0.0,0.0,0.0,0.0,0.0,0.0,-0.06867107775542343,0.35635035890656797,0.10148522831946821,0.6682871959575255,0.17582210250787603,0.09290317008280265,-0.23194598214637221,-0.6089265306748842,-0.05748651432520467,-0.6664010008417841,-2.5946863382948706,-0.05577831490297541,2.507901809109582,0.8763200039780801,-0.6090851748156966,-0.05753196718556838,-0.666603097082616,-2.5945565370258534,-0.05562143941554,2.507976027223799,0.8763108487046415,-0.0006333383040717566,-0.0012081119094330677,0.0009555808306430714,8.803188155830954e-05,0.0001651639687276512,-5.408832673641338e-05,-0.000791167412226568,0.0,0.0,0.0,0.0,0.0,0.0,0.0,-0.00015864414081234735,-4.545286036371221e-05,-0.00020209624083189492,0.00012980126901718236,0.00015687548743541224,7.42181142170395e-05,-9.155273438588019e-06,0.0006333383040717566,0.0012081119094330677,-0.0009555808306430714,-8.803188155830954e-05,-0.0001651639687276512,5.408832673641338e-05,0.000791167412226568,0.04592245817184448,18.253320693969727,-0.8704559803009033,-18.297456741333008,-0.5944724678993225,-2.2753939628601074,0.21457235515117645,0
23,0.11000728607177734,-0.04592245817184448,-18.253320693969727,0.8704559803009033,18.297456741333008,0.5944724678993225,2.2753939628601074,-0.21457235515117645,0.0,0.0,0.0,0.0,0.0,0.0,0.0,-0.06867107775542343,0.35635035890656797,0.10148522831946821,0.6682871959575255,0.17582210250787603,0.09290317008280265,-0.23194598214637221,-0.6089265306748842,-0.05748651432520467,-0.6664010008417841,-2.5946863382948706,-0.05577831490297541,2.507901809109582,0.8763200039780801,-0.6090851748156966,-0.05753196718556838,-0.666603097082616,-2.5945565370258534,-0.05562143941554,2.507976027223799,0.8763108487046415,-0.0006333383040717566,-0.0012081119094330677,0.0009555808306430714,8.803188155830954e-05,0.0001651639687276512,-5.408832673641338e-05,-0.000791167412226568,0.0,0.0,0.0,0.0,0.0,0.0,0.0,-0.00015864414081234735,-4.545286036371221e-05,-0.00020209624083189492,0.00012980126901718236,0.00015687548743541224,7.42181142170395e-05,-9.155273438588019e-06,0.0006333383040717566,0.0012081119094330677,-0.0009555808306430714,-8.803188155830954e-05,-0.0001651639687276512,5.408832673641338e-05,0.000791167412226568,0.04592245817184448,18.253320693969727,-0.8704559803009033,-18.297456741333008,-0.5944724678993225,-2.2753939628601074,0.21457235515117645,0
24,0.11500072479248047,-0.04592245817184448,-18.277124404907227,0.9418671131134033,18.269685745239258,0.6063743233680725,2.2753939628601074,-0.26217979192733765,0.0,0.0,0.0,0.0,0.0,0.0,0.0,-0.06749294340960725,0.3616696033548955,0.10364054251669857,0.667246849188772,0.1754750144447782,0.09224219501870562,-0.23228051657720528,-0.6089265306748842,-0.05748484388934939,-0.6664058658891212,-2.5946844660869903,-0.05577643183489558,2.507901809109582,0.8763252936932775,-0.6090851748156966,-0.05753196718556838,-0.666603097082616,-2.5945565370258534,-0.05562143941554,2.507976027223799,0.8763108487046415,-0.000783458434078697,-0.0003314023415816821,-0.00041020053745794327,0.00031910843536172505,-0.00039050746993559695,8.107899433491955e-05,0.0014578871935459607,0.0,0.0,0.0,0.0,0.0,0.0,0.0,-0.00015864414081234735,-4.712329621899686e-05,-0.00019723119349479568,0.00012792906113689995,0.00015499241935557767,7.42181142170395e-05,-1.4444988636008738e-05,0.000783458434078697,0.0003314023415816821,0.00041020053745794327,-0.00031910843536172505,0.00039050746993559695,-8.107899433491955e-05,-0.0014578871935459607,0.04592245817184448,18.277124404907227,-0.9418671131134033,-18.269685745239258,-0.6063743233680725,-2.2753939628601074,0.26217979192733765,0
25,0.1199960708618164,-0.04592245817184448,-18.277124404907227,0.9418671131134033,18.269685745239258,0.6063743233680725,2.2753939628601074,-0.26217979192733765,0.0,0.0,0.0,0.0,0.0,0.0,0.0,-0.06749294340960725,0.3616696033548955,0.10364054251669857,0.667246849188772,0.1754750144447782,0.09224219501870562,-0.23228051657720528,-0.6089265306748842,-0.05748484388934939,-0.6664058658891212,-2.5946844660869903,-0.05577643183489558,2.507901809109582,0.8763252936932775,-0.6090851748156966,-0.05753196718556838,-0.666603097082616,-2.5945565370258534,-0.05562143941554,2.507976027223799,0.8763108487046415,-0.000783458434078697,-0.0003314023415816821,-0.00041020053745794327,0.00031910843536172505,-0.00039050746993559695,8.107899433491955e-05,0.0014578871935459607,0.0,0.0,0.0,0.0,0.0,0.0,0.0,-0.00015864414081234735,-4.712329621899686e-05,-0.00019723119349479568,0.00012792906113689995,0.00015499241935557767,7.42181142170395e-05,-1.4444988636008738e-05,0.000783458434078697,0.0003314023415816821,0.00041020053745794327,-0.00031910843536172505,0.00039050746993559695,-8.107899433491955e-05,-0.0014578871935459607,0.04592245817184448,18.277124404907227,-0.9418671131134033,-18.269685745239258,-0.6063743233680725,-2.2753939628601074,0.26217979192733765,0
26,0.12499713897705078,-0.04592245817184448,-18.304895401000977,0.8704559803009033,18.269685745239258,0.5999656319618225,2.2625765800476074,-0.21457235515117645,0.0,0.0,0.0,0.0,0.0,0.0,0.0,-0.069423715140284,0.36493210284124683,0.10443737449466604,0.6663141437943053,0.17568800599311424,0.09250534232894095,-0.23344037609026638,-0.6089265306748842,-0.057482895047518245,-0.6664000677571582,-2.5946844679770384,-0.055778570532305144,2.5079032332632276,0.8763200039780801,-0.6090851748156966,-0.05753196718556838,-0.666603097082616,-2.5945565370258534,-0.05562143941554,2.507976027223799,0.8763108487046415,-0.0010181772829452806,0.000541962045786832,0.0013745244989346304,0.0002487566344225701,7.640178578742173e-05,0.0005164953340109839,-0.0013739742313328604,0.0,0.0,0.0,0.0,0.0,0.0,0.0,-0.00015864414081234735,-4.907213805013799e-05,-0.00020302932545779306,0.00012793095118501796,0.00015713111676514402,7.279396057136012e-05,-9.155273438588019e-06,0.0010181772829452806,-0.000541962045786832,-0.0013745244989346304,-0.0002487566344225701,-7.640178578742173e-05,-0.0005164953340109839,0.0013739742313328604,0.04592245817184448,18.304895401000977,-0.8704559803009033,-18.269685745239258,-0.5999656319618225,-2.2625765800476074,0.21457235515117645,0
27,0.12999415397644043,-0.04592245817184448,-18.304895401000977,0.8704559803009033,18.269685745239258,0.5999656319618225,2.2625765800476074,-0.21457235515117645,0.0,0.0,0.0,0.0,0.0,0.0,0.0,-0.069423715140284,0.36493210284124683,0.10443737449466604,0.6663141437943053,0.17568800599311424,0.09250534232894095,-0.23344037609026638,-0.6089265306748842,-0.057482895047518245,-0.6664000677571582,-2.5946844679770384,-0.055778570532305144,2.5079032332632276,0.8763200039780801,-0.6090851748156966,-0.05753196718556838,-0.666603097082616,-2.5945565370258534,-0.05562143941554,2.507976027223799,0.8763108487046415,-0.0010181772829452806,0.000541962045786832,0.0013745244989346304,0.0002487566344225701,7.640178578742173e-05,0.0005164953340109839,-0.0013739742313328604,0.0,0.0,0.0,0.0,0.0,0.0,0.0,-0.00015864414081234735,-4.907213805013799e-05,-0.00020302932545779306,0.00012793095118501796,0.00015713111676514402,7.279396057136012e-05,-9.155273438588019e-06,0.0010181772829452806,-0.000541962045786832,-0.0013745244989346304,-0.0002487566344225701,-7.640178578742173e-05,-0.0005164953340109839,0.0013739742313328604,0.04592245817184448,18.304895401000977,-0.8704559803009033,-18.269685745239258,-0.5999656319618225,-2.2625765800476074,0.21457235515117645,0
28,0.134995698928833,-0.06972616910934448,-18.277124404907227,0.8942596912384033,18.245882034301758,0.5999656319618225,2.2753939628601074,-0.25485557317733765,0.0,0.0,0.0,0.0,0.0,0.0,0.0,-0.07085621830221558,0.3638975937701018,0.1026173406099563,0.6663425495856962,0.17625075149162717,0.09236063945439126,-0.236255489536933,-0.6089248602390289,-0.05748697511626414,-0.6664026972780357,-2.594682798381023,-0.055778572008761615,2.507901809109582,0.8763244798911941,-0.6090851748156966,-0.05753196718556838,-0.666603097082616,-2.5945565370258534,-0.05562143941554,2.507976027223799,0.8763108487046415,-0.0004672284266886262,-0.0006256865578323495,0.0002684234675251006,0.001201657465410487,-4.306001778654091e-05,0.00015148817372273167,0.0007984204355993841,0.0,0.0,0.0,0.0,0.0,0.0,0.0,-0.0001603145766676528,-4.499206930424354e-05,-0.00020039980458030904,0.00012626135516935477,0.000157132593221615,7.42181142170395e-05,-1.3631186552620633e-05,0.0004672284266886262,0.0006256865578323495,-0.0002684234675251006,-0.001201657465410487,4.306001778654091e-05,-0.00015148817372273167,-0.0007984204355993841,0.06972616910934448,18.277124404907227,-0.8942596912384033,-18.245882034301758,-0.5999656319618225,-2.2753939628601074,0.25485557317733765,0
29,0.13999533653259277,-0.06972616910934448,-18.277124404907227,0.8942596912384033,18.245882034301758,0.5999656319618225,2.2753939628601074,-0.25485557317733765,0.0,0.0,0.0,0.0,0.0,0.0,0.0,-0.07085621830221558,0.3638975937701018,0.1026173406099563,0.6663425495856962,0.17625075149162717,0.09236063945439126,-0.236255489536933,-0.6089248602390289,-0.05748697511626414,-0.6664026972780357,-2.594682798381023,-0.055778572008761615,2.507901809109582,0.8763244798911941,-0.6090851748156966,-0.05753196718556838,-0.666603097082616,-2.5945565370258534,-0.05562143941554,2.507976027223799,0.8763108487046415,-0.0004672284266886262,-0.0006256865578323495,0.0002684234675251006,0.001201657465410487,-4.306001778654091e-05,0.00015148817372273167,0.0007984204355993841,0.0,0.0,0.0,0.0,0.0,0.0,0.0,-0.0001603145766676528,-4.499206930424354e-05,-0.00020039980458030904,0.00012626135516935477,0.000157132593221615,7.42181142170395e-05,-1.3631186552620633e-05,0.0004672284266886262,0.0006256865578323495,-0.0002684234675251006,-0.001201657465410487,4.306001778654091e-05,-0.00015148817372273167,-0.0007984204355993841,0.06972616910934448,18.277124404907227,-0.8942596912384033,-18.245882034301758,-0.5999656319618225,-2.2753939628601074,0.25485557317733765,0
30,0.14499521255493164,-0.04592245817184448,-18.328699111938477,0.8942596912384033,18.269685745239258,0.6182761788368225,2.2753939628601074,-0.26858848333358765,0.0,0.0,0.0,0.0,0.0,0.0,0.0,-0.07219921616392588,0.3630016536443829,0.10019280189364395,0.6663331281172585,0.17632873421248177,0.092333072649128,-0.2348873173361911,-0.6089265306748842,-0.057481224623693816,-0.6664038414428342,-2.5946824025925164,-0.05578095700128135,2.507901809109582,0.8763260057701003,-0.6090851748156966,-0.05753196718556838,-0.666603097082616,-2.5945565370258534,-0.05562143941554,2.507976027223799,0.8763108487046415,-0.0009943654447783351,0.0002312582249144687,0.00032779470759181767,0.0006454516753051988,-0.0006376900289350074,7.30567186658702e-05,0.0011217542966272418,0.0,0.0,0.0,0.0,0.0,0.0,0.0,-0.00015864414081234735,-5.074256187456716e-05,-0.0001992556397818479,0.00012586556666294157,0.00015951758574134917,7.42181142170395e-05,-1.5157065458848429e-05,0.0009943654447783351,-0.0002312582249144687,-0.00032779470759181767,-0.0006454516753051988,0.0006376900289350074,-7.30567186658702e-05,-0.0011217542966272418,0.04592245817184448,18.328699111938477,-0.8942596912384033,-18.269685745239258,-0.6182761788368225,-2.2753939628601074,0.26858848333358765,0
31,0.1499922275543213,-0.04592245817184448,-18.328699111938477,0.8942596912384033,18.269685745239258,0.6182761788368225,2.2753939628601074,-0.26858848333358765,0.0,0.0,0.0,0.0,0.0,0.0,0.0,-0.07219921616392588,0.3630016536443829,0.10019280189364395,0.6663331281172585,0.17632873421248177,0.092333072649128,-0.2348873173361911,-0.6089265306748842,-0.057481224623693816,-0.6664038414428342,-2.5946824025925164,-0.05578095700128135,2.507901809109582,0.8763260057701003,-0.6090851748156966,-0.05753196718556838,-0.666603097082616,-2.5945565370258534,-0.05562143941554,2.507976027223799,0.8763108487046415,-0.0009943654447783351,0.0002312582249144687,0.00032779470759181767,0.0006454516753051988,-0.0006376900289350074,7.30567186658702e-05,0.0011217542966272418,0.0,0.0,0.0,0.0,0.0,0.0,0.0,-0.00015864414081234735,-5.074256187456716e-05,-0.0001992556397818479,0.00012586556666294157,0.00015951758574134917,7.42181142170395e-05,-1.5157065458848429e-05,0.0009943654447783351,-0.0002312582249144687,-0.00032779470759181767,-0.0006454516753051988,0.0006376900289350074,-7.30567186658702e-05,-0.0011217542966272418,0.04592245817184448,18.328699111938477,-0.8942596912384033,-18.269685745239258,-0.6182761788368225,-2.2753939628601074,0.26858848333358765,0
32,0.15498852729797363,-0.09352988004684448,-18.376306533813477,0.9180634021759033,18.321260452270508,0.6063743233680725,2.2689852714538574,-0.25485557317733765,0.0,0.0,0.0,0.0,0.0,0.0,0.0,-0.0729585923201534,0.36116894269844046,0.09968525946647919,0.6673265053703835,0.17633768083366122,0.0925381643146314,-0.23368119720299357,-0.6089231898031736,-0.057477883739952516,-0.666403405711703,-2.594687398478292,-0.055779520666500944,2.5079025211864048,0.8763244798911941,-0.6090851748156966,-0.05753196718556838,-0.666603097082616,-2.5945565370258534,-0.05562143941554,2.507976027223799,0.8763108487046415,0.00037413946782014976,0.0014457792099117864,-0.0004056744544471205,-0.0005934115267326127,-0.0002794499638179411,0.00045709199586410225,0.0011264784345063228,0.0,0.0,0.0,0.0,0.0,0.0,0.0,-0.00016198501252295827,-5.408344561586703e-05,-0.00019969137091302436,0.00013086145243867975,0.0001580812509609439,7.350603739419981e-05,-1.3631186552620633e-05,-0.00037413946782014976,-0.0014457792099117864,0.0004056744544471205,0.0005934115267326127,0.0002794499638179411,-0.00045709199586410225,-0.0011264784345063228,0.09352988004684448,18.376306533813477,-0.9180634021759033,-18.321260452270508,-0.6063743233680725,-2.2689852714538574,0.25485557317733765,0
33,0.15999197959899902,-0.09352988004684448,-18.376306533813477,0.9180634021759033,18.321260452270508,0.6063743233680725,2.2689852714538574,-0.25485557317733765,0.0,0.0,0.0,0.0,0.0,0.0,0.0,-0.0729585923201534,0.36116894269844046,0.09968525946647919,0.6673265053703835,0.17633768083366122,0.0925381643146314,-0.23368119720299357,-0.6089231898031736,-0.057477883739952516,-0.666403405711703,-2.594687398478292,-0.055779520666500944,2.5079025211864048,0.8763244798911941,-0.6090851748156966,-0.05753196718556838,-0.666603097082616,-2.5945565370258534,-0.05562143941554,2.507976027223799,0.8763108487046415,0.00037413946782014976,0.0014457792099117864,-0.0004056744544471205,-0.0005934115267326127,-0.0002794499638179411,0.00045709199586410225,0.0011264784345063228,0.0,0.0,0.0,0.0,0.0,0.0,0.0,-0.00016198501252295827,-5.408344561586703e-05,-0.00019969137091302436,0.00013086145243867975,0.0001580812509609439,7.350603739419981e-05,-1.3631186552620633e-05,-0.00037413946782014976,-0.0014457792099117864,0.0004056744544471205,0.0005934115267326127,0.0002794499638179411,-0.00045709199586410225,-0.0011264784345063228,0.09352988004684448,18.376306533813477,-0.9180634021759033,-18.321260452270508,-0.6063743233680725,-2.2689852714538574,0.25485557317733765,0
34,0.1650080680847168,-0.09352988004684448,-18.277124404907227,0.8942596912384033,18.321260452270508,0.5944724678993225,2.2946200370788574,-0.21457235515117645,0.0,0.0,0.0,0.0,0.0,0.0,0.0,-0.07085180053264264,0.36189230683013834,0.09925281793851636,0.6641196796522655,0.176508575210996,0.09195413269416122,-0.2317410803663492,-0.6089231898031736,-0.057485080652243906,-0.6664017616923281,-2.594687135829534,-0.05577725143496632,2.507899672879113,0.8763200039780801,-0.6090851748156966,-0.05753196718556838,-0.666603097082616,-2.5945565370258534,-0.05562143941554,2.507976027223799,0.8763108487046415,0.0007819988656285659,-0.0004663101854849398,0.00020029192331229328,-0.0007242217734192117,0.00019764948671181765,-0.0006997728381420839,-0.0008198536361434403,0.0,0.0,0.0,0.0,0.0,0.0,0.0,-0.00016198501252295827,-4.6886533324477786e-05,-0.00020133539028788228,0.0001305988036803818,0.0001558120194263199,7.635434468600266e-05,-9.155273438588019e-06,-0.0007819988656285659,0.0004663101854849398,-0.00020029192331229328,0.0007242217734192117,-0.00019764948671181765,0.0006997728381420839,0.0008198536361434403,0.09352988004684448,18.277124404907227,-0.8942596912384033,-18.321260452270508,-0.5944724678993225,-2.2946200370788574,0.21457235515117645,0
35,0.1700000762939453,-0.09352988004684448,-18.277124404907227,0.8942596912384033,18.321260452270508,0.5944724678993225,2.2946200370788574,-0.21457235515117645,0.0,0.0,0.0,0.0,0.0,0.0,0.0,-0.07085180053264264,0.36189230683013834,0.09925281793851636,0.6641196796522655,0.176508575210996,0.09195413269416122,-0.2317410803663492,-0.6089231898031736,-0.057485080652243906,-0.6664017616923281,-2.594687135829534,-0.05577725143496632,2.507899672879113,0.8763200039780801,-0.6090851748156966,-0.05753196718556838,-0.666603097082616,-2.5945565370258534,-0.05562143941554,2.507976027223799,0.8763108487046415,0.0007819988656285659,-0.0004663101854849398,0.00020029192331229328,-0.0007242217734192117,0.00019764948671181765,-0.0006997728381420839,-0.0008198536361434403,0.0,0.0,0.0,0.0,0.0,0.0,0.0,-0.00016198501252295827,-4.6886533324477786e-05,-0.00020133539028788228,0.0001305988036803818,0.0001558120194263199,7.635434468600266e-05,-9.155273438588019e-06,-0.0007819988656285659,0.0004663101854849398,-0.00020029192331229328,0.0007242217734192117,-0.00019764948671181765,0.0006997728381420839,0.0008198536361434403,0.09352988004684448,18.277124404907227,-0.8942596912384033,-18.321260452270508,-0.5944724678993225,-2.2946200370788574,0.21457235515117645,0
36,0.1750028133392334,-0.09352988004684448,-18.277124404907227,0.8942596912384033,18.321260452270508,0.5944724678993225,2.2946200370788574,-0.21457235515117645,0.0,0.0,0.0,0.0,0.0,0.0,0.0,-0.07085180053264264,0.36189230683013834,0.09925281793851636,0.6641196796522655,0.176508575210996,0.09195413269416122,-0.2317410803663492,-0.6089231898031736,-0.057485080652243906,-0.6664017616923281,-2.594687135829534,-0.05577725143496632,2.507899672879113,0.8763200039780801,-0.6090851748156966,-0.05753196718556838,-0.666603097082616,-2.5945565370258534,-0.05562143941554,2.507976027223799,0.8763108487046415,0.0007819988656285659,-0.0004663101854849398,0.00020029192331229328,-0.0007242217734192117,0.00019764948671181765,-0.0006997728381420839,-0.0008198536361434403,0.0,0.0,0.0,0.0,0.0,0.0,0.0,-0.00016198501252295827,-4.6886533324477786e-05,-0.00020133539028788228,0.0001305988036803818,0.0001558120194263199,7.635434468600266e-05,-9.155273438588019e-06,-0.0007819988656285659,0.0004663101854849398,-0.00020029192331229328,0.0007242217734192117,-0.00019764948671181765,0.0006997728381420839,0.0008198536361434403,0.09352988004684448,18.277124404907227,-0.8942596912384033,-18.321260452270508,-0.5944724678993225,-2.2946200370788574,0.21457235515117645,0
37,0.18000221252441406,-0.09352988004684448,-18.277124404907227,0.8942596912384033,18.321260452270508,0.5944724678993225,2.2946200370788574,-0.21457235515117645,0.0,0.0,0.0,0.0,0.0,0.0,0.0,-0.07085180053264264,0.36189230683013834,0.09925281793851636,0.6641196796522655,0.176508575210996,0.09195413269416122,-0.2317410803663492,-0.6089231898031736,-0.057485080652243906,-0.6664017616923281,-2.594687135829534,-0.05577725143496632,2.507899672879113,0.8763200039780801,-0.6090851748156966,-0.05753196718556838,-0.666603097082616,-2.5945565370258534,-0.05562143941554,2.507976027223799,0.8763108487046415,0.0007819988656285659,-0.0004663101854849398,0.00020029192331229328,-0.0007242217734192117,0.00019764948671181765,-0.0006997728381420839,-0.0008198536361434403,0.0,0.0,0.0,0.0,0.0,0.0,0.0,-0.00016198501252295827,-4.6886533324477786e-05,-0.00020133539028788228,0.0001305988036803818,0.0001558120194263199,7.635434468600266e-05,-9.155273438588019e-06,-0.0007819988656285659,0.0004663101854849398,-0.00020029192331229328,0.0007242217734192117,-0.00019764948671181765,0.0006997728381420839,0.0008198536361434403,0.09352988004684448,18.277124404907227,-0.8942596912384033,-18.321260452270508,-0.5944724678993225,-2.2946200370788574,0.21457235515117645,0
38,0.1849987506866455,-0.06972616910934448,-18.277124404907227,0.9180634021759033,18.269685745239258,0.5999656319618225,2.2818026542663574,-0.20724813640117645,0.0,0.0,0.0,0.0,0.0,0.0,0.0,-0.06870785034902509,0.35888327293336564,0.10087902882322537,0.6678984145575393,0.1767562861156343,0.09322830234302501,-0.2322864465852022,-0.6089248602390289,-0.057484843890685915,-0.6664034317003428,-2.5946844689164856,-0.055778926873155076,2.507901097032759,0.8763191901759968,-0.6090851748156966,-0.05753196718556838,-0.666603097082616,-2.5945565370258534,-0.05562143941554,2.507976027223799,0.8763108487046415,1.9507626299905795e-05,-0.000447140698772265,0.0002734277133319482,0.0008779790844063354,4.879002389896272e-05,-0.00033158706231097614,-6.168850121259123e-05,0.0,0.0,0.0,0.0,0.0,0.0,0.0,-0.0001603145766676528,-4.712329488246875e-05,-0.0001996653822732286,0.00012793189063220467,0.0001574874576150756,7.493019103987919e-05,-8.341471355310937e-06,-1.9507626299905795e-05,0.000447140698772265,-0.0002734277133319482,-0.0008779790844063354,-4.879002389896272e-05,0.00033158706231097614,6.168850121259123e-05,0.06972616910934448,18.277124404907227,-0.9180634021759033,-18.269685745239258,-0.5999656319618225,-2.2818026542663574,0.20724813640117645,0
39,0.18999409675598145,-0.06972616910934448,-18.277124404907227,0.9180634021759033,18.269685745239258,0.5999656319618225,2.2818026542663574,-0.20724813640117645,0.0,0.0,0.0,0.0,0.0,0.0,0.0,-0.06870785034902509,0.35888327293336564,0.10087902882322537,0.6678984145575393,0.1767562861156343,0.09322830234302501,-0.2322864465852022,-0.6089248602390289,-0.057484843890685915,-0.6664034317003428,-2.5946844689164856,-0.055778926873155076,2.507901097032759,0.8763191901759968,-0.6090851748156966,-0.05753196718556838,-0.666603097082616,-2.5945565370258534,-0.05562143941554,2.507976027223799,0.8763108487046415,1.9507626299905795e-05,-0.000447140698772265,0.0002734277133319482,0.0008779790844063354,4.879002389896272e-05,-0.00033158706231097614,-6.168850121259123e-05,0.0,0.0,0.0,0.0,0.0,0.0,0.0,-0.0001603145766676528,-4.712329488246875e-05,-0.0001996653822732286,0.00012793189063220467,0.0001574874576150756,7.493019103987919e-05,-8.341471355310937e-06,-1.9507626299905795e-05,0.000447140698772265,-0.0002734277133319482,-0.0008779790844063354,-4.879002389896272e-05,0.00033158706231097614,6.168850121259123e-05,0.06972616910934448,18.277124404907227,-0.9180634021759033,-18.269685745239258,-0.5999656319618225,-2.2818026542663574,0.20724813640117645,0
40,0.19499444961547852,-0.06972616910934448,-18.304895401000977,0.9180634021759033,18.297456741333008,0.5944724678993225,2.2818026542663574,-0.21457235515117645,0.0,0.0,0.0,0.0,0.0,0.0,0.0,-0.07282853276719564,0.3576094140312384,0.09683914419039004,0.6698624761662272,0.1767641203910826,0.09360276678209282,-0.22928368880358044,-0.6089248602390289,-0.057482895047518245,-0.6664034146876482,-2.594686315724466,-0.055777251435634057,2.507901097032759,0.8763200039780801,-0.6090851748156966,-0.05753196718556838,-0.666603097082616,-2.5945565370258534,-0.05562143941554,2.507976027223799,0.8763108487046415,0.00018362323295509795,0.00012521200307364386,-0.0002862735816375125,3.4853677018401815e-06,0.00030815045966831327,-0.0002975007409133977,-0.0011765384560383505,0.0,0.0,0.0,0.0,0.0,0.0,0.0,-0.0001603145766676528,-4.907213805013799e-05,-0.00019968239496781504,0.000129778698612526,0.0001558120200940566,7.493019103987919e-05,-9.155273438588019e-06,-0.00018362323295509795,-0.00012521200307364386,0.0002862735816375125,-3.4853677018401815e-06,-0.00030815045966831327,0.0002975007409133977,0.0011765384560383505,0.06972616910934448,18.304895401000977,-0.9180634021759033,-18.297456741333008,-0.5944724678993225,-2.2818026542663574,0.21457235515117645,0
41,0.1999955177307129,-0.06972616910934448,-18.304895401000977,0.9180634021759033,18.297456741333008,0.5944724678993225,2.2818026542663574,-0.21457235515117645,0.0,0.0,0.0,0.0,0.0,0.0,0.0,-0.07282853276719564,0.3576094140312384,0.09683914419039004,0.6698624761662272,0.1767641203910826,0.09360276678209282,-0.22928368880358044,-0.6089248602390289,-0.057482895047518245,-0.6664034146876482,-2.594686315724466,-0.055777251435634057,2.507901097032759,0.8763200039780801,-0.6090851748156966,-0.05753196718556838,-0.666603097082616,-2.5945565370258534,-0.05562143941554,2.507976027223799,0.8763108487046415,0.00018362323295509795,0.00012521200307364386,-0.0002862735816375125,3.4853677018401815e-06,0.00030815045966831327,-0.0002975007409133977,-0.0011765384560383505,0.0,0.0,0.0,0.0,0.0,0.0,0.0,-0.0001603145766676528,-4.907213805013799e-05,-0.00019968239496781504,0.000129778698612526,0.0001558120200940566,7.493019103987919e-05,-9.155273438588019e-06,-0.00018362323295509795,-0.00012521200307364386,0.0002862735816375125,-3.4853677018401815e-06,-0.00030815045966831327,0.0002975007409133977,0.0011765384560383505,0.06972616910934448,18.304895401000977,-0.9180634021759033,-18.297456741333008,-0.5944724678993225,-2.2818026542663574,0.21457235515117645,0
42,0.20499587059020996,-0.06972616910934448,-18.253320693969727,0.8704559803009033,18.297456741333008,0.5999656319618225,2.2818026542663574,-0.26217979192733765,0.0,0.0,0.0,0.0,0.0,0.0,0.0,-0.06659936158797568,0.36671743087174274,0.09908157758951266,0.6683683167211392,0.17644351913565495,0.09301612820429855,-0.22999775047553664,-0.6089248602390289,-0.05748651432520465,-0.6664022488600759,-2.594686389418887,-0.05577892687315508,2.507901097032759,0.8763252936932775,-0.6090851748156966,-0.05753196718556838,-0.666603097082616,-2.5945565370258534,-0.05562143941554,2.507976027223799,0.8763108487046415,0.00035806422129480286,-0.0004619038767897535,0.0006932781769084793,0.00024349209488326546,8.752246702976365e-05,-0.00023263033373204298,0.0009088729937701599,0.0,0.0,0.0,0.0,0.0,0.0,0.0,-0.0001603145766676528,-4.545286036373303e-05,-0.00020084822254007317,0.00012985239303375806,0.00015748745761508254,7.493019103987919e-05,-1.4444988636008738e-05,-0.00035806422129480286,0.0004619038767897535,-0.0006932781769084793,-0.00024349209488326546,-8.752246702976365e-05,0.00023263033373204298,-0.0009088729937701599,0.06972616910934448,18.253320693969727,-0.8704559803009033,-18.297456741333008,-0.5999656319618225,-2.2818026542663574,0.26217979192733765,0
43,0.20999598503112793,-0.06972616910934448,-18.253320693969727,0.8704559803009033,18.297456741333008,0.5999656319618225,2.2818026542663574,-0.26217979192733765,0.0,0.0,0.0,0.0,0.0,0.0,0.0,-0.06659936158797568,0.36671743087174274,0.09908157758951266,0.6683683167211392,0.17644351913565495,0.09301612820429855,-0.22999775047553664,-0.6089248602390289,-0.05748651432520465,-0.6664022488600759,-2.594686389418887,-0.05577892687315508,2.507901097032759,0.8763252936932775,-0.6090851748156966,-0.05753196718556838,-0.666603097082616,-2.5945565370258534,-0.05562143941554,2.507976027223799,0.8763108487046415,0.00035806422129480286,-0.0004619038767897535,0.0006932781769084793,0.00024349209488326546,8.752246702976365e-05,-0.00023263033373204298,0.0009088729937701599,0.0,0.0,0.0,0.0,0.0,0.0,0.0,-0.0001603145766676528,-4.545286036373303e-05,-0.00020084822254007317,0.00012985239303375806,0.00015748745761508254,7.493019103987919e-05,-1.4444988636008738e-05,-0.00035806422129480286,0.0004619038767897535,-0.0006932781769084793,-0.00024349209488326546,-8.752246702976365e-05,0.00023263033373204298,-0.0009088729937701599,0.06972616910934448,18.253320693969727,-0.8704559803009033,-18.297456741333008,-0.5999656319618225,-2.2818026542663574,0.26217979192733765,0
44,0.21499896049499512,-0.018151462078094482,-18.352502822875977,0.8426849842071533,18.269685745239258,0.5944724678993225,2.2689852714538574,-0.22098104655742645,0.0,0.0,0.0,0.0,0.0,0.0,0.0,-0.06974562375921156,0.3639126513146333,0.09110828424494163,0.6707326326265243,0.17703627513180878,0.09267368805526141,-0.23029314438869553,-0.6089284795167154,-0.05747955460884456,-0.6663981169972436,-2.594684468921702,-0.05577725192242195,2.5079025211864048,0.876320716054903,-0.6090851748156966,-0.05753196718556838,-0.666603097082616,-2.5945565370258534,-0.05562143941554,2.507976027223799,0.8763108487046415,-0.0014660433080255085,0.0010031776978469186,0.0013125942219071366,0.0007551933876835926,0.0002876700461250513,0.00010142064381591809,-0.00027558053262924994,0.0,0.0,0.0,0.0,0.0,0.0,0.0,-0.00015669529898121315,-5.2412576723823157e-05,-0.0002049800853723971,0.00012793189584847653,0.0001558125068819513,7.350603739419981e-05,-9.867350261538732e-06,0.0014660433080255085,-0.0010031776978469186,-0.0013125942219071366,-0.0007551933876835926,-0.0002876700461250513,-0.00010142064381591809,0.00027558053262924994,0.018151462078094482,18.352502822875977,-0.8426849842071533,-18.269685745239258,-0.5944724678993225,-2.2689852714538574,0.22098104655742645,0
45,0.21999621391296387,-0.018151462078094482,-18.352502822875977,0.8426849842071533,18.269685745239258,0.5944724678993225,2.2689852714538574,-0.22098104655742645,0.0,0.0,0.0,0.0,0.0,0.0,0.0,-0.06974562375921156,0.3639126513146333,0.09110828424494163,0.6707326326265243,0.17703627513180878,0.09267368805526141,-0.23029314438869553,-0.6089284795167154,-0.05747955460884456,-0.6663981169972436,-2.594684468921702,-0.05577725192242195,2.5079025211864048,0.876320716054903,-0.6090851748156966,-0.05753196718556838,-0.666603097082616,-2.5945565370258534,-0.05562143941554,2.507976027223799,0.8763108487046415,-0.0014660433080255085,0.0010031776978469186,0.0013125942219071366,0.0007551933876835926,0.0002876700461250513,0.00010142064381591809,-0.00027558053262924994,0.0,0.0,0.0,0.0,0.0,0.0,0.0,-0.00015669529898121315,-5.2412576723823157e-05,-0.0002049800853723971,0.00012793189584847653,0.0001558125068819513,7.350603739419981e-05,-9.867350261538732e-06,0.0014660433080255085,-0.0010031776978469186,-0.0013125942219071366,-0.0007551933876835926,-0.0002876700461250513,-0.00010142064381591809,0.00027558053262924994,0.018151462078094482,18.352502822875977,-0.8426849842071533,-18.269685745239258,-0.5944724678993225,-2.2689852714538574,0.22098104655742645,0
46,0.22510218620300293,-0.06972616910934448,-18.328699111938477,0.9180634021759033,18.297456741333008,0.5999656319618225,2.2753939628601074,-0.26217979192733765,0.0,0.0,0.0,0.0,0.0,0.0,0.0,-0.06655750714702514,0.3665573054577834,0.09321859876144244,0.6674504750523932,0.17682549100883121,0.09151119140406697,-0.23111487778812476,-0.6089248602390289,-0.05748122464775183,-0.6664034085887504,-2.5946863409193366,-0.05577892687315783,2.507901809109582,0.8763252936932775,-0.6090851748156966,-0.05753196718556838,-0.666603097082616,-2.5945565370258534,-0.05562143941554,2.507976027223799,0.8763108487046415,-0.00034959276045911676,0.00030621803240829694,0.0002601606197008948,-0.0003881588391117133,2.660668124369368e-05,1.654889426775507e-06,0.0014795615222492238,0.0,0.0,0.0,0.0,0.0,0.0,0.0,-0.0001603145766676528,-5.0742537816554634e-05,-0.00019968849386564624,0.00012980389348316024,0.00015748745761783034,7.42181142170395e-05,-1.4444988636008738e-05,0.00034959276045911676,-0.00030621803240829694,-0.0002601606197008948,0.0003881588391117133,-2.660668124369368e-05,-1.654889426775507e-06,-0.0014795615222492238,0.06972616910934448,18.328699111938477,-0.9180634021759033,-18.297456741333008,-0.5999656319618225,-2.2753939628601074,0.26217979192733765,0
47,0.23000025749206543,-0.06972616910934448,-18.328699111938477,0.9180634021759033,18.297456741333008,0.5999656319618225,2.2753939628601074,-0.26217979192733765,0.0,0.0,0.0,0.0,0.0,0.0,0.0,-0.06655750714702514,0.3665573054577834,0.09321859876144244,0.6674504750523932,0.17682549100883121,0.09151119140406697,-0.23111487778812476,-0.6089248602390289,-0.05748122464775183,-0.6664034085887504,-2.5946863409193366,-0.05577892687315783,2.507901809109582,0.8763252936932775,-0.6090851748156966,-0.05753196718556838,-0.666603097082616,-2.5945565370258534,-0.05562143941554,2.507976027223799,0.8763108487046415,-0.00034959276045911676,0.00030621803240829694,0.0002601606197008948,-0.0003881588391117133,2.660668124369368e-05,1.654889426775507e-06,0.0014795615222492238,0.0,0.0,0.0,0.0,0.0,0.0,0.0,-0.0001603145766676528,-5.0742537816554634e-05,-0.00019968849386564624,0.00012980389348316024,0.00015748745761783034,7.42181142170395e-05,-1.4444988636008738e-05,0.00034959276045911676,-0.00030621803240829694,-0.0002601606197008948,0.0003881588391117133,-2.660668124369368e-05,-1.654889426775507e-06,-0.0014795615222492238,0.06972616910934448,18.328699111938477,-0.9180634021759033,-18.297456741333008,-0.5999656319618225,-2.2753939628601074,0.26217979192733765,0
48,0.2349998950958252,-0.09352988004684448,-18.304895401000977,0.9180634021759033,18.297456741333008,0.5944724678993225,2.2753939628601074,-0.22830526530742645,0.0,0.0,0.0,0.0,0.0,0.0,0.0,-0.07079061596421127,0.35813292622349524,0.09389265174260926,0.6706471422239051,0.17664814843918075,0.09233131112387964,-0.23111795018722617,-0.6089232158392195,-0.05748289504751845,-0.6664034057354957,-2.59468412156571,-0.05577831636534238,2.507901809109582,0.8763215300184919,-0.6090851748156966,-0.05753196718556838,-0.666603097082616,-2.5945565370258534,-0.05562143941554,2.507976027223799,0.8763108487046415,0.0003813485265411493,-0.0005615761455943205,0.0001807662294970461,0.00012609126662733016,0.0002890175644357135,0.00011826648553622481,-0.0005158037890400132,0.0,0.0,0.0,0.0,0.0,0.0,0.0,-0.00016195897647708346,-4.9072138049936764e-05,-0.0001996913471202788,0.00012758453985650675,0.00015687694980238281,7.42181142170395e-05,-1.0681313850402496e-05,-0.0003813485265411493,0.0005615761455943205,-0.0001807662294970461,-0.00012609126662733016,-0.0002890175644357135,-0.00011826648553622481,0.0005158037890400132,0.09352988004684448,18.304895401000977,-0.9180634021759033,-18.297456741333008,-0.5944724678993225,-2.2753939628601074,0.22830526530742645,0
49,0.24000239372253418,-0.09352988004684448,-18.304895401000977,0.9180634021759033,18.297456741333008,0.5944724678993225,2.2753939628601074,-0.22830526530742645,0.0,0.0,0.0,0.0,0.0,0.0,0.0,-0.07079061596421127,0.35813292622349524,0.09389265174260926,0.6706471422239051,0.17664814843918075,0.09233131112387964,-0.23111795018722617,-0.6089232158392195,-0.05748289504751845,-0.6664034057354957,-2.59468412156571,-0.05577831636534238,2.507901809109582,0.8763215300184919,-0.6090851748156966,-0.05753196718556838,-0.666603097082616,-2.5945565370258534,-0.05562143941554,2.507976027223799,0.8763108487046415,0.0003813485265411493,-0.0005615761455943205,0.0001807662294970461,0.00012609126662733016,0.0002890175644357135,0.00011826648553622481,-0.0005158037890400132,0.0,0.0,0.0,0.0,0.0,0.0,0.0,-0.00016195897647708346,-4.9072138049936764e-05,-0.0001996913471202788,0.00012758453985650675,0.00015687694980238281,7.42181142170395e-05,-1.0681313850402496e-05,-0.0003813485265411493,0.0005615761455943205,-0.0001807662294970461,-0.00012609126662733016,-0.0002890175644357135,-0.00011826648553622481,0.0005158037890400132,0.09352988004684448,18.304895401000977,-0.9180634021759033,-18.297456741333008,-0.5944724678993225,-2.2753939628601074,0.22830526530742645,0
50,0.2449960708618164,-0.12130087614059448,-18.328699111938477,0.8942596912384033,18.297456741333008,0.5999656319618225,2.2818026542663574,-0.24844686686992645,0.0,0.0,0.0,0.0,0.0,0.0,0.0,-0.07147799368541653,0.36072343177591915,0.09576330372998983,0.6660565975424118,0.17625536066908123,0.09195748072914724,-0.23188299337704574,-0.6089212409614895,-0.05748122461166298,-0.6664017352639584,-2.5946843514563787,-0.05577892687916664,2.507901097032759,0.8763237678127165,-0.6090851748156966,-0.05753196718556838,-0.666603097082616,-2.5945565370258534,-0.05562143941554,2.507976027223799,0.8763108487046415,0.0012211130020211116,0.0003236776975619516,0.0005739986782712689,5.650809461678205e-05,0.00024939315529226065,-0.00015669112653066697,0.00047170155222967837,0.0,0.0,0.0,0.0,0.0,0.0,0.0,-0.00016393385420709894,-5.074257390540182e-05,-0.00020136181865759717,0.00012781443052523045,0.00015748746362664184,7.493019103987919e-05,-1.2919108074993524e-05,-0.0012211130020211116,-0.0003236776975619516,-0.0005739986782712689,-5.650809461678205e-05,-0.00024939315529226065,0.00015669112653066697,-0.00047170155222967837,0.12130087614059448,18.328699111938477,-0.8942596912384033,-18.297456741333008,-0.5999656319618225,-2.2818026542663574,0.24844686686992645,0
51,0.2499995231628418,-0.12130087614059448,-18.328699111938477,0.8942596912384033,18.297456741333008,0.5999656319618225,2.2818026542663574,-0.24844686686992645,0.0,0.0,0.0,0.0,0.0,0.0,0.0,-0.07147799368541653,0.36072343177591915,0.09576330372998983,0.6660565975424118,0.17625536066908123,0.09195748072914724,-0.23188299337704574,-0.6089212409614895,-0.05748122461166298,-0.6664017352639584,-2.5946843514563787,-0.05577892687916664,2.507901097032759,0.8763237678127165,-0.6090851748156966,-0.05753196718556838,-0.666603097082616,-2.5945565370258534,-0.05562143941554,2.507976027223799,0.8763108487046415,0.0012211130020211116,0.0003236776975619516,0.0005739986782712689,5.650809461678205e-05,0.00024939315529226065,-0.00015669112653066697,0.00047170155222967837,0.0,0.0,0.0,0.0,0.0,0.0,0.0,-0.00016393385420709894,-5.074257390540182e-05,-0.00020136181865759717,0.00012781443052523045,0.00015748746362664184,7.493019103987919e-05,-1.2919108074993524e-05,-0.0012211130020211116,-0.0003236776975619516,-0.0005739986782712689,-5.650809461678205e-05,-0.00024939315529226065,0.00015669112653066697,-0.00047170155222967837,0.12130087614059448,18.328699111938477,-0.8942596912384033,-18.297456741333008,-0.5999656319618225,-2.2818026542663574,0.24844686686992645,0
52,0.25499558448791504,-0.09352988004684448,-18.352502822875977,0.9418671131134033,18.321260452270508,0.6063743233680725,2.2753939628601074,-0.22830526530742645,0.0,0.0,0.0,0.0,0.0,0.0,0.0,-0.07256574599332963,0.35635967652476463,0.09525591884945402,0.6672805156241073,0.1765247951714161,0.09239666143007544,-0.2314859980141881,-0.6089252958339556,-0.05747955417580772,-0.6664050848024621,-2.594685230739592,-0.055779638955990474,2.507901809109582,0.8763215298569864,-0.6090851748156966,-0.05753196718556838,-0.666603097082616,-2.5945565370258534,-0.05562143941554,2.507976027223799,0.8763108487046415,0.0004929491243684561,0.0009140813527280287,-0.000680861589766842,-0.0005944996552420252,-0.00010773990208780816,-8.995135070437862e-05,-4.109142487335808e-05,0.0,0.0,0.0,0.0,0.0,0.0,0.0,-0.00015987898174096848,-5.241300976066565e-05,-0.00019801228015392525,0.0001286937137385813,0.0001581995404504738,7.42181142170395e-05,-1.0681152344926836e-05,-0.0004929491243684561,-0.0009140813527280287,0.000680861589766842,0.0005944996552420252,0.00010773990208780816,8.995135070437862e-05,4.109142487335808e-05,0.09352988004684448,18.352502822875977,-0.9418671131134033,-18.321260452270508,-0.6063743233680725,-2.2753939628601074,0.22830526530742645,0
53,0.2599949836730957,-0.09352988004684448,-18.352502822875977,0.9418671131134033,18.321260452270508,0.6063743233680725,2.2753939628601074,-0.22830526530742645,0.0,0.0,0.0,0.0,0.0,0.0,0.0,-0.07256574599332963,0.35635967652476463,0.09525591884945402,0.6672805156241073,0.1765247951714161,0.09239666143007544,-0.2314859980141881,-0.6089252958339556,-0.05747955417580772,-0.6664050848024621,-2.594685230739592,-0.055779638955990474,2.507901809109582,0.8763215298569864,-0.6090851748156966,-0.05753196718556838,-0.666603097082616,-2.5945565370258534,-0.05562143941554,2.507976027223799,0.8763108487046415,0.0004929491243684561,0.0009140813527280287,-0.000680861589766842,-0.0005944996552420252,-0.00010773990208780816,-8.995135070437862e-05,-4.109142487335808e-05,0.0,0.0,0.0,0.0,0.0,0.0,0.0,-0.00015987898174096848,-5.241300976066565e-05,-0.00019801228015392525,0.0001286937137385813,0.0001581995404504738,7.42181142170395e-05,-1.0681152344926836e-05,-0.0004929491243684561,-0.0009140813527280287,0.000680861589766842,0.0005944996552420252,0.00010773990208780816,8.995135070437862e-05,4.109142487335808e-05,0.09352988004684448,18.352502822875977,-0.9418671131134033,-18.321260452270508,-0.6063743233680725,-2.2753939628601074,0.22830526530742645,0
54,0.26499485969543457,-0.09352988004684448,-18.352502822875977,0.9418671131134033,18.321260452270508,0.6063743233680725,2.2753939628601074,-0.22830526530742645,0.0,0.0,0.0,0.0,0.0,0.0,0.0,-0.07256574599332963,0.35635967652476463,0.09525591884945402,0.6672805156241073,0.1765247951714161,0.09239666143007544,-0.2314859980141881,-0.6089252958339556,-0.05747955417580772,-0.6664050848024621,-2.594685230739592,-0.055779638955990474,2.507901809109582,0.8763215298569864,-0.6090851748156966,-0.05753196718556838,-0.666603097082616,-2.5945565370258534,-0.05562143941554,2.507976027223799,0.8763108487046415,0.0004929491243684561,0.0009140813527280287,-0.000680861589766842,-0.0005944996552420252,-0.00010773990208780816,-8.995135070437862e-05,-4.109142487335808e-05,0.0,0.0,0.0,0.0,0.0,0.0,0.0,-0.00015987898174096848,-5.241300976066565e-05,-0.00019801228015392525,0.0001286937137385813,0.0001581995404504738,7.42181142170395e-05,-1.0681152344926836e-05,-0.0004929491243684561,-0.0009140813527280287,0.000680861589766842,0.0005944996552420252,0.00010773990208780816,8.995135070437862e-05,4.109142487335808e-05,0.09352988004684448,18.352502822875977,-0.9418671131134033,-18.321260452270508,-0.6063743233680725,-2.2753939628601074,0.22830526530742645,0
55,0.2702016830444336,-0.09352988004684448,-18.352502822875977,0.9418671131134033,18.321260452270508,0.6063743233680725,2.2753939628601074,-0.22830526530742645,0.0,0.0,0.0,0.0,0.0,0.0,0.0,-0.07256574599332963,0.35635967652476463,0.09525591884945402,0.6672805156241073,0.1765247951714161,0.09239666143007544,-0.2314859980141881,-0.6089252958339556,-0.05747955417580772,-0.6664050848024621,-2.594685230739592,-0.055779638955990474,2.507901809109582,0.8763215298569864,-0.6090851748156966,-0.05753196718556838,-0.666603097082616,-2.5945565370258534,-0.05562143941554,2.507976027223799,0.8763108487046415,0.0004929491243684561,0.0009140813527280287,-0.000680861589766842,-0.0005944996552420252,-0.00010773990208780816,-8.995135070437862e-05,-4.109142487335808e-05,0.0,0.0,0.0,0.0,0.0,0.0,0.0,-0.00015987898174096848,-5.241300976066565e-05,-0.00019801228015392525,0.0001286937137385813,0.0001581995404504738,7.42181142170395e-05,-1.0681152344926836e-05,-0.0004929491243684561,-0.0009140813527280287,0.000680861589766842,0.0005944996552420252,0.00010773990208780816,8.995135070437862e-05,4.109142487335808e-05,0.09352988004684448,18.352502822875977,-0.9418671131134033,-18.321260452270508,-0.6063743233680725,-2.2753939628601074,0.22830526530742645,0
56,0.2749958038330078,-0.04592245817184448,-18.253320693969727,0.8942596912384033,18.297456741333008,0.5999656319618225,2.2753939628601074,-0.17978231608867645,0.0,0.0,0.0,0.0,0.0,0.0,0.0,-0.07305308614036951,0.35909484581500706,0.09695426009890724,0.6647990073535119,0.17675107703701834,0.09258428909396335,-0.2317494421813188,-0.6089265306788471,-0.05748675108809917,-0.6664038412947566,-2.5946864177233233,-0.05577573306361834,2.507901809109582,0.8763161384181843,-0.6090851748156966,-0.05753196718556838,-0.666603097082616,-2.5945565370258534,-0.05562143941554,2.507976027223799,0.8763108487046415,-0.0003772909210060996,-0.0009457574939969241,-3.04423922344252e-06,-0.00011014285977009196,-7.963745666047123e-05,8.34456192927662e-05,-0.0016189601026054426,0.0,0.0,0.0,0.0,0.0,0.0,0.0,-0.00015864413684951728,-4.5216097469213956e-05,-0.00019925578785939813,0.00012988069746988629,0.00015429364807834078,7.42181142170395e-05,-5.2897135428553455e-06,0.0003772909210060996,0.0009457574939969241,3.04423922344252e-06,0.00011014285977009196,7.963745666047123e-05,-8.34456192927662e-05,0.0016189601026054426,0.04592245817184448,18.253320693969727,-0.8942596912384033,-18.297456741333008,-0.5999656319618225,-2.2753939628601074,0.17978231608867645,0
57,0.27999401092529297,-0.04592245817184448,-18.253320693969727,0.8942596912384033,18.297456741333008,0.5999656319618225,2.2753939628601074,-0.17978231608867645,0.0,0.0,0.0,0.0,0.0,0.0,0.0,-0.07305308614036951,0.35909484581500706,0.09695426009890724,0.6647990073535119,0.17675107703701834,0.09258428909396335,-0.2317494421813188,-0.6089265306788471,-0.05748675108809917,-0.6664038412947566,-2.5946864177233233,-0.05577573306361834,2.507901809109582,0.8763161384181843,-0.6090851748156966,-0.05753196718556838,-0.666603097082616,-2.5945565370258534,-0.05562143941554,2.507976027223799,0.8763108487046415,-0.0003772909210060996,-0.0009457574939969241,-3.04423922344252e-06,-0.00011014285977009196,-7.963745666047123e-05,8.34456192927662e-05,-0.0016189601026054426,0.0,0.0,0.0,0.0,0.0,0.0,0.0,-0.00015864413684951728,-4.5216097469213956e-05,-0.00019925578785939813,0.00012988069746988629,0.00015429364807834078,7.42181142170395e-05,-5.2897135428553455e-06,0.0003772909210060996,0.0009457574939969241,3.04423922344252e-06,0.00011014285977009196,7.963745666047123e-05,-8.34456192927662e-05,0.0016189601026054426,0.04592245817184448,18.253320693969727,-0.8942596912384033,-18.297456741333008,-0.5999656319618225,-2.2753939628601074,0.17978231608867645,0
58,0.28499364852905273,-0.06972616910934448,-18.304895401000977,0.9418671131134033,18.321260452270508,0.5999656319618225,2.2689852714538574,-0.23471395671367645,0.0,0.0,0.0,0.0,0.0,0.0,0.0,-0.06876449594550778,0.35712668845265866,0.09697453960566307,0.6709217416679653,0.1767000244751937,0.09400349171585985,-0.22948944443183544,-0.6089248602390289,-0.057482976891927294,-0.6664050761396316,-2.594685255549541,-0.05577892665680764,2.5079025211864048,0.8763222462944601,-0.6090851748156966,-0.05753196718556838,-0.666603097082616,-2.5945565370258534,-0.05562143941554,2.507976027223799,0.8763108487046415,0.000298806610138123,0.00031775212283076295,-0.0006483722607648554,-0.0002455978116998643,-3.3582562177414095e-05,0.00015078677355599804,0.00016082421482510001,0.0,0.0,0.0,0.0,0.0,0.0,0.0,-0.0001603145766676528,-4.8990293641089366e-05,-0.00019802094298437822,0.00012871852368778747,0.00015748724126764257,7.350603739419981e-05,-1.1397589818606946e-05,-0.000298806610138123,-0.00031775212283076295,0.0006483722607648554,0.0002455978116998643,3.3582562177414095e-05,-0.00015078677355599804,-0.00016082421482510001,0.06972616910934448,18.304895401000977,-0.9418671131134033,-18.321260452270508,-0.5999656319618225,-2.2689852714538574,0.23471395671367645,0
59,0.2900044918060303,-0.06972616910934448,-18.304895401000977,0.9418671131134033,18.321260452270508,0.5999656319618225,2.2689852714538574,-0.23471395671367645,0.0,0.0,0.0,0.0,0.0,0.0,0.0,-0.06876449594550778,0.35712668845265866,0.09697453960566307,0.6709217416679653,0.1767000244751937,0.09400349171585985,-0.22948944443183544,-0.6089248602390289,-0.057482976891927294,-0.6664050761396316,-2.594685255549541,-0.05577892665680764,2.5079025211864048,0.8763222462944601,-0.6090851748156966,-0.05753196718556838,-0.666603097082616,-2.5945565370258534,-0.05562143941554,2.507976027223799,0.8763108487046415,0.000298806610138123,0.00031775212283076295,-0.0006483722607648554,-0.0002455978116998643,-3.3582562177414095e-05,0.00015078677355599804,0.00016082421482510001,0.0,0.0,0.0,0.0,0.0,0.0,0.0,-0.0001603145766676528,-4.8990293641089366e-05,-0.00019802094298437822,0.00012871852368778747,0.00015748724126764257,7.350603739419981e-05,-1.1397589818606946e-05,-0.000298806610138123,-0.00031775212283076295,0.0006483722607648554,0.0002455978116998643,3.3582562177414095e-05,-0.00015078677355599804,-0.00016082421482510001,0.06972616910934448,18.304895401000977,-0.9418671131134033,-18.321260452270508,-0.5999656319618225,-2.2689852714538574,0.23471395671367645,0
60,0.295025110244751,-0.04592245817184448,-18.277124404907227,0.9180634021759033,18.269685745239258,0.6063743233680725,2.2753939628601074,-0.20083944499492645,0.0,0.0,0.0,0.0,0.0,0.0,0.0,-0.06503011455140376,0.36280388402140723,0.09900281427707938,0.6674645709739754,0.17665841749013142,0.09249035029572525,-0.23088112674927394,-0.6089265306748842,-0.05748697475586212,-0.6664034056998136,-2.594683754596288,-0.05577962581271535,2.507901809109582,0.8763184780991985,-0.6090851748156966,-0.05753196718556838,-0.666603097082616,-2.5945565370258534,-0.05562143941554,2.507976027223799,0.8763108487046415,0.00023822945149495819,-0.0005638143590577914,0.00028383347930424364,0.00041034002016237614,-0.00010450637580386259,4.698893027255717e-05,-0.0010196013736712625,0.0,0.0,0.0,0.0,0.0,0.0,0.0,-0.00015864414081234735,-4.499242970626427e-05,-0.00019969138280240273,0.00012721757043454573,0.00015818639717535277,7.42181142170395e-05,-7.629394557007174e-06,-0.00023822945149495819,0.0005638143590577914,-0.00028383347930424364,-0.00041034002016237614,0.00010450637580386259,-4.698893027255717e-05,0.0010196013736712625,0.04592245817184448,18.277124404907227,-0.9180634021759033,-18.269685745239258,-0.6063743233680725,-2.2753939628601074,0.20083944499492645,0
61,0.29999852180480957,-0.04592245817184448,-18.277124404907227,0.9180634021759033,18.269685745239258,0.6063743233680725,2.2753939628601074,-0.20083944499492645,0.0,0.0,0.0,0.0,0.0,0.0,0.0,-0.06503011455140376,0.36280388402140723,0.09900281427707938,0.6674645709739754,0.17665841749013142,0.09249035029572525,-0.23088112674927394,-0.6089265306748842,-0.05748697475586212,-0.6664034056998136,-2.594683754596288,-0.05577962581271535,2.507901809109582,0.8763184780991985,-0.6090851748156966,-0.05753196718556838,-0.666603097082616,-2.5945565370258534,-0.05562143941554,2.507976027223799,0.8763108487046415,0.00023822945149495819,-0.0005638143590577914,0.00028383347930424364,0.00041034002016237614,-0.00010450637580386259,4.698893027255717e-05,-0.0010196013736712625,0.0,0.0,0.0,0.0,0.0,0.0,0.0,-0.00015864414081234735,-4.499242970626427e-05,-0.00019969138280240273,0.00012721757043454573,0.00015818639717535277,7.42181142170395e-05,-7.629394557007174e-06,-0.00023822945149495819,0.0005638143590577914,-0.00028383347930424364,-0.00041034002016237614,0.00010450637580386259,-4.698893027255717e-05,0.0010196013736712625,0.04592245817184448,18.277124404907227,-0.9180634021759033,-18.269685745239258,-0.6063743233680725,-2.2753939628601074,0.20083944499492645,0
62,0.3050119876861572,-0.018151462078094482,-18.352502822875977,0.9180634021759033,18.297456741333008,0.6063743233680725,2.2753939628601074,-0.26217979192733765,0.0,0.0,0.0,0.0,0.0,0.0,0.0,-0.06375334335914458,0.36179719505614744,0.09800810327109453,0.672363235831252,0.17750392570708054,0.09370912704617078,-0.2306246008029228,-0.6089291815269761,-0.05747955711083522,-0.6664036425921649,-2.5946861102772565,-0.05577962575855487,2.507901809109582,0.8763252936932776,-0.6090851748156966,-0.05753196718556838,-0.666603097082616,-2.5945565370258534,-0.05562143941554,2.507976027223799,0.8763108487046415,-0.0004452772266787286,0.0011060117939807477,7.08857752259334e-05,9.226376030043786e-05,-0.00022307638711946897,0.00022907493179381784,0.0012907063738479972,0.0,0.0,0.0,0.0,0.0,0.0,0.0,-0.00015599328872051288,-5.2410074733166834e-05,-0.00019945449045111197,0.00012957325140305898,0.0001581863430148711,7.42181142170395e-05,-1.444498863611976e-05,0.0004452772266787286,-0.0011060117939807477,-7.08857752259334e-05,-9.226376030043786e-05,0.00022307638711946897,-0.00022907493179381784,-0.0012907063738479972,0.018151462078094482,18.352502822875977,-0.9180634021759033,-18.297456741333008,-0.6063743233680725,-2.2753939628601074,0.26217979192733765,0
63,0.309995174407959,-0.018151462078094482,-18.352502822875977,0.9180634021759033,18.297456741333008,0.6063743233680725,2.2753939628601074,-0.26217979192733765,0.0,0.0,0.0,0.0,0.0,0.0,0.0,-0.06375334335914458,0.36179719505614744,0.09800810327109453,0.672363235831252,0.17750392570708054,0.09370912704617078,-0.2306246008029228,-0.6089291815269761,-0.05747955711083522,-0.6664036425921649,-2.5946861102772565,-0.05577962575855487,2.507901809109582,0.8763252936932776,-0.6090851748156966,-0.05753196718556838,-0.666603097082616,-2.5945565370258534,-0.05562143941554,2.507976027223799,0.8763108487046415,-0.0004452772266787286,0.0011060117939807477,7.08857752259334e-05,9.226376030043786e-05,-0.00022307638711946897,0.00022907493179381784,0.0012907063738479972,0.0,0.0,0.0,0.0,0.0,0.0,0.0,-0.00015599328872051288,-5.2410074733166834e-05,-0.00019945449045111197,0.00012957325140305898,0.0001581863430148711,7.42181142170395e-05,-1.444498863611976e-05,0.0004452772266787286,-0.0011060117939807477,-7.08857752259334e-05,-9.226376030043786e-05,0.00022307638711946897,-0.00022907493179381784,-0.0012907063738479972,0.018151462078094482,18.352502822875977,-0.9180634021759033,-18.297456741333008,-0.6063743233680725,-2.2753939628601074,0.26217979192733765,0
64,0.3150317668914795,-0.04592245817184448,-18.328699111938477,0.8942596912384033,18.321260452270508,0.6063743233680725,2.2818026542663574,-0.21457235515117645,0.0,0.0,0.0,0.0,0.0,0.0,0.0,-0.06185794974149532,0.3632892733928798,0.09775881556645857,0.6670221250754731,0.17753233635631913,0.09309304655173808,-0.23152919050319976,-0.6089265306867728,-0.05748146169938484,-0.6664017355889624,-2.5946860190655663,-0.05577963700861529,2.507901097032759,0.8763200039780802,-0.6090851748156966,-0.05753196718556838,-0.666603097082616,-2.5945565370258534,-0.05562143941554,2.507976027223799,0.8763108487046415,-0.00047682847899195943,0.00040535277375118383,0.0006288768201757022,-0.0008575551229944278,-9.276804956818917e-05,-0.0002824427829588457,-0.0004987298916030957,0.0,0.0,0.0,0.0,0.0,0.0,0.0,-0.00015864412892374613,-5.050548618354411e-05,-0.00020136149365357348,0.0001294820397128582,0.00015819759307528908,7.493019103987919e-05,-9.155273438699041e-06,0.00047682847899195943,-0.00040535277375118383,-0.0006288768201757022,0.0008575551229944278,9.276804956818917e-05,0.0002824427829588457,0.0004987298916030957,0.04592245817184448,18.328699111938477,-0.8942596912384033,-18.321260452270508,-0.6063743233680725,-2.2818026542663574,0.21457235515117645,0
65,0.32000207901000977,-0.04592245817184448,-18.328699111938477,0.8942596912384033,18.321260452270508,0.6063743233680725,2.2818026542663574,-0.21457235515117645,0.0,0.0,0.0,0.0,0.0,0.0,0.0,-0.06185794974149532,0.3632892733928798,0.09775881556645857,0.6670221250754731,0.17753233635631913,0.09309304655173808,-0.23152919050319976,-0.6089265306867728,-0.05748146169938484,-0.6664017355889624,-2.5946860190655663,-0.05577963700861529,2.507901097032759,0.8763200039780802,-0.6090851748156966,-0.05753196718556838,-0.666603097082616,-2.5945565370258534,-0.05562143941554,2.507976027223799,0.8763108487046415,-0.00047682847899195943,0.00040535277375118383,0.0006288768201757022,-0.0008575551229944278,-9.276804956818917e-05,-0.0002824427829588457,-0.0004987298916030957,0.0,0.0,0.0,0.0,0.0,0.0,0.0,-0.00015864412892374613,-5.050548618354411e-05,-0.00020136149365357348,0.0001294820397128582,0.00015819759307528908,7.493019103987919e-05,-9.155273438699041e-06,0.00047682847899195943,-0.00040535277375118383,-0.0006288768201757022,0.0008575551229944278,9.276804956818917e-05,0.0002824427829588457,0.0004987298916030957,0.04592245817184448,18.328699111938477,-0.8942596912384033,-18.321260452270508,-0.6063743233680725,-2.2818026542663574,0.21457235515117645,0
66,0.3250546455383301,-0.018151462078094482,-18.328699111938477,0.9418671131134033,18.321260452270508,0.6063743233680725,2.2882113456726074,-0.26217979192733765,0.0,0.0,0.0,0.0,0.0,0.0,0.0,-0.06799086593078353,0.3546152501806089,0.09249935619091104,0.6714754038621439,0.17805824248766336,0.09334243514772686,-0.2299732972203483,-0.6089306635486375,-0.05748146141109003,-0.66640577814593,-2.5946873229014504,-0.05577963895598681,2.507900384955936,0.8763252936932776,-0.6090851748156966,-0.05753196718556838,-0.666603097082616,-2.5945565370258534,-0.05562143941554,2.507976027223799,0.8763108487046415,-0.0020892925499855276,2.39165930815474e-05,-0.0010518469354804,-0.0004650826527654521,-0.00012494422850990288,-0.00041003920732722343,0.0005763509952834731,0.0,0.0,0.0,0.0,0.0,0.0,0.0,-0.00015451126705912088,-5.050577447835575e-05,-0.0001973189366859529,0.00013078587559700594,0.00015819954044681006,7.564226786316297e-05,-1.444498863611976e-05,0.0020892925499855276,-2.39165930815474e-05,0.0010518469354804,0.0004650826527654521,0.00012494422850990288,0.00041003920732722343,-0.0005763509952834731,0.018151462078094482,18.328699111938477,-0.9418671131134033,-18.321260452270508,-0.6063743233680725,-2.2882113456726074,0.26217979192733765,0
67,0.32999277114868164,-0.018151462078094482,-18.328699111938477,0.9418671131134033,18.321260452270508,0.6063743233680725,2.2882113456726074,-0.26217979192733765,0.0,0.0,0.0,0.0,0.0,0.0,0.0,-0.06799086593078353,0.3546152501806089,0.09249935619091104,0.6714754038621439,0.17805824248766336,0.09334243514772686,-0.2299732972203483,-0.6089306635486375,-0.05748146141109003,-0.66640577814593,-2.5946873229014504,-0.05577963895598681,2.507900384955936,0.8763252936932776,-0.6090851748156966,-0.05753196718556838,-0.666603097082616,-2.5945565370258534,-0.05562143941554,2.507976027223799,0.8763108487046415,-0.0020892925499855276,2.39165930815474e-05,-0.0010518469354804,-0.0004650826527654521,-0.00012494422850990288,-0.00041003920732722343,0.0005763509952834731,0.0,0.0,0.0,0.0,0.0,0.0,0.0,-0.00015451126705912088,-5.050577447835575e-05,-0.0001973189366859529,0.00013078587559700594,0.00015819954044681006,7.564226786316297e-05,-1.444498863611976e-05,0.0020892925499855276,-2.39165930815474e-05,0.0010518469354804,0.0004650826527654521,0.00012494422850990288,0.00041003920732722343,-0.0005763509952834731,0.018151462078094482,18.328699111938477,-0.9418671131134033,-18.321260452270508,-0.6063743233680725,-2.2882113456726074,0.26217979192733765,0
68,0.3349940776824951,-0.12130087614059448,-18.352502822875977,0.8704559803009033,18.269685745239258,0.6063743233680725,2.2753939628601074,-0.20724813640117645,0.0,0.0,0.0,0.0,0.0,0.0,0.0,-0.06517248321270203,0.36009937293657635,0.09643807383603342,0.666160595509968,0.17770728475360165,0.09286604947082545,-0.23189115787990663,-0.6089212410806688,-0.05747955421323086,-0.6664000738198516,-2.594682377008404,-0.055779638955990474,2.507901809109582,0.8763191901759969,-0.6090851748156966,-0.05753196718556838,-0.666603097082616,-2.5945565370258534,-0.05562143941554,2.507976027223799,0.8763108487046415,0.000999644187828397,0.0013446347370259365,0.000666149545161275,0.0004957294096406005,-0.00010575670367094342,0.0001830033802127029,-0.0007853603822286948,0.0,0.0,0.0,0.0,0.0,0.0,0.0,-0.00016393373502776587,-5.241297233752468e-05,-0.0002030232627644457,0.00012583998255077944,0.0001581995404504738,7.42181142170395e-05,-8.341471355421959e-06,-0.000999644187828397,-0.0013446347370259365,-0.000666149545161275,-0.0004957294096406005,0.00010575670367094342,-0.0001830033802127029,0.0007853603822286948,0.12130087614059448,18.352502822875977,-0.8704559803009033,-18.269685745239258,-0.6063743233680725,-2.2753939628601074,0.20724813640117645,0
69,0.34001851081848145,-0.12130087614059448,-18.352502822875977,0.8704559803009033,18.269685745239258,0.6063743233680725,2.2753939628601074,-0.20724813640117645,0.0,0.0,0.0,0.0,0.0,0.0,0.0,-0.06517248321270203,0.36009937293657635,0.09643807383603342,0.666160595509968,0.17770728475360165,0.09286604947082545,-0.23189115787990663,-0.6089212410806688,-0.05747955421323086,-0.6664000738198516,-2.594682377008404,-0.055779638955990474,2.507901809109582,0.8763191901759969,-0.6090851748156966,-0.05753196718556838,-0.666603097082616,-2.5945565370258534,-0.05562143941554,2.507976027223799,0.8763108487046415,0.000999644187828397,0.0013446347370259365,0.000666149545161275,0.0004957294096406005,-0.00010575670367094342,0.0001830033802127029,-0.0007853603822286948,0.0,0.0,0.0,0.0,0.0,0.0,0.0,-0.00016393373502776587,-5.241297233752468e-05,-0.0002030232627644457,0.00012583998255077944,0.0001581995404504738,7.42181142170395e-05,-8.341471355421959e-06,-0.000999644187828397,-0.0013446347370259365,-0.000666149545161275,-0.0004957294096406005,0.00010575670367094342,-0.0001830033802127029,0.0007853603822286948,0.12130087614059448,18.352502822875977,-0.8704559803009033,-18.269685745239258,-0.6063743233680725,-2.2753939628601074,0.20724813640117645,0
70,0.34535884857177734,-0.09352988004684448,-18.304895401000977,0.8942596912384033,18.297456741333008,0.5999656319618225,2.2625765800476074,-0.21457235515117645,0.0,0.0,0.0,0.0,0.0,0.0,0.0,-0.06719743990823732,0.35838765723881516,0.09507503663396383,0.6667488740844426,0.17781470604988028,0.09352413011716,-0.2321847059170275,-0.6089231898031756,-0.0574850259135696,-0.6664017612644906,-2.5946863922184593,-0.05577892687916756,2.5079032332632276,0.8763200039780802,-0.6090851748156966,-0.05753196718556838,-0.666603097082616,-2.5945565370258534,-0.05562143941554,2.507976027223799,0.8763108487046415,0.00015495180735050195,0.00034571336000984153,0.0003834672445492706,6.227975675811107e-05,-3.012631571037553e-05,0.0004209966844782211,-0.0007862638168272443,0.0,0.0,0.0,0.0,0.0,0.0,0.0,-0.00016198501252095987,-4.694127199878634e-05,-0.00020133581812542545,0.00012985519260588774,0.00015748746362755778,7.279396057136012e-05,-9.155273438699041e-06,-0.00015495180735050195,-0.00034571336000984153,-0.0003834672445492706,-6.227975675811107e-05,3.012631571037553e-05,-0.0004209966844782211,0.0007862638168272443,0.09352988004684448,18.304895401000977,-0.8942596912384033,-18.297456741333008,-0.5999656319618225,-2.2625765800476074,0.21457235515117645,0
71,0.3500032424926758,-0.09352988004684448,-18.304895401000977,0.8942596912384033,18.297456741333008,0.5999656319618225,2.2625765800476074,-0.21457235515117645,0.0,0.0,0.0,0.0,0.0,0.0,0.0,-0.06719743990823732,0.35838765723881516,0.09507503663396383,0.6667488740844426,0.17781470604988028,0.09352413011716,-0.2321847059170275,-0.6089231898031756,-0.0574850259135696,-0.6664017612644906,-2.5946863922184593,-0.05577892687916756,2.5079032332632276,0.8763200039780802,-0.6090851748156966,-0.05753196718556838,-0.666603097082616,-2.5945565370258534,-0.05562143941554,2.507976027223799,0.8763108487046415,0.00015495180735050195,0.00034571336000984153,0.0003834672445492706,6.227975675811107e-05,-3.012631571037553e-05,0.0004209966844782211,-0.0007862638168272443,0.0,0.0,0.0,0.0,0.0,0.0,0.0,-0.00016198501252095987,-4.694127199878634e-05,-0.00020133581812542545,0.00012985519260588774,0.00015748746362755778,7.279396057136012e-05,-9.155273438699041e-06,-0.00015495180735050195,-0.00034571336000984153,-0.0003834672445492706,-6.227975675811107e-05,3.012631571037553e-05,-0.0004209966844782211,0.0007862638168272443,0.09352988004684448,18.304895401000977,-0.8942596912384033,-18.297456741333008,-0.5999656319618225,-2.2625765800476074,0.21457235515117645,0
72,0.3549935817718506,-0.018151462078094482,-18.304895401000977,0.9180634021759033,18.345064163208008,0.5999656319618225,2.2882113456726074,-0.22098104655742645,0.0,0.0,0.0,0.0,0.0,0.0,0.0,-0.07151568602070521,0.3573537443488574,0.0932014784066001,0.6694331357844234,0.17746966779673398,0.0930997650777341,-0.2318852086824606,-0.6089284795167154,-0.057482895051527844,-0.6664034060208548,-2.594688993224508,-0.0557789254188038,2.507900384955936,0.8763207160549031,-0.6090851748156966,-0.05753196718556838,-0.666603097082616,-2.5945565370258534,-0.05562143941554,2.507976027223799,0.8763108487046415,-0.0010511415656260033,0.00043376707703298014,-0.0004618858264485217,-0.0012484327853613723,6.827029135449712e-05,-0.0005377632365884339,-0.00011377254379563483,0.0,0.0,0.0,0.0,0.0,0.0,0.0,-0.00015669529898121315,-4.907213404053978e-05,-0.0001996910617612091,0.0001324561986546513,0.0001574860032637973,7.564226786316297e-05,-9.867350261649754e-06,0.0010511415656260033,-0.00043376707703298014,0.0004618858264485217,0.0012484327853613723,-6.827029135449712e-05,0.0005377632365884339,0.00011377254379563483,0.018151462078094482,18.304895401000977,-0.9180634021759033,-18.345064163208008,-0.5999656319618225,-2.2882113456726074,0.22098104655742645,0
73,0.36000585556030273,-0.018151462078094482,-18.304895401000977,0.9180634021759033,18.345064163208008,0.5999656319618225,2.2882113456726074,-0.22098104655742645,0.0,0.0,0.0,0.0,0.0,0.0,0.0,-0.07151568602070521,0.3573537443488574,0.0932014784066001,0.6694331357844234,0.17746966779673398,0.0930997650777341,-0.2318852086824606,-0.6089284795167154,-0.057482895051527844,-0.6664034060208548,-2.594688993224508,-0.0557789254188038,2.507900384955936,0.8763207160549031,-0.6090851748156966,-0.05753196718556838,-0.666603097082616,-2.5945565370258534,-0.05562143941554,2.507976027223799,0.8763108487046415,-0.0010511415656260033,0.00043376707703298014,-0.0004618858264485217,-0.0012484327853613723,6.827029135449712e-05,-0.0005377632365884339,-0.00011377254379563483,0.0,0.0,0.0,0.0,0.0,0.0,0.0,-0.00015669529898121315,-4.907213404053978e-05,-0.0001996910617612091,0.0001324561986546513,0.0001574860032637973,7.564226786316297e-05,-9.867350261649754e-06,0.0010511415656260033,-0.00043376707703298014,0.0004618858264485217,0.0012484327853613723,-6.827029135449712e-05,0.0005377632365884339,0.00011377254379563483,0.018151462078094482,18.304895401000977,-0.9180634021759033,-18.345064163208008,-0.5999656319618225,-2.2882113456726074,0.22098104655742645,0
74,0.3650190830230713,-0.018151462078094482,-18.304895401000977,0.9180634021759033,18.345064163208008,0.5999656319618225,2.2882113456726074,-0.22098104655742645,0.0,0.0,0.0,0.0,0.0,0.0,0.0,-0.07151568602070521,0.3573537443488574,0.0932014784066001,0.6694331357844234,0.17746966779673398,0.0930997650777341,-0.2318852086824606,-0.6089284795167154,-0.057482895051527844,-0.6664034060208548,-2.594688993224508,-0.0557789254188038,2.507900384955936,0.8763207160549031,-0.6090851748156966,-0.05753196718556838,-0.666603097082616,-2.5945565370258534,-0.05562143941554,2.507976027223799,0.8763108487046415,-0.0010511415656260033,0.00043376707703298014,-0.0004618858264485217,-0.0012484327853613723,6.827029135449712e-05,-0.0005377632365884339,-0.00011377254379563483,0.0,0.0,0.0,0.0,0.0,0.0,0.0,-0.00015669529898121315,-4.907213404053978e-05,-0.0001996910617612091,0.0001324561986546513,0.0001574860032637973,7.564226786316297e-05,-9.867350261649754e-06,0.0010511415656260033,-0.00043376707703298014,0.0004618858264485217,0.0012484327853613723,-6.827029135449712e-05,0.0005377632365884339,0.00011377254379563483,0.018151462078094482,18.304895401000977,-0.9180634021759033,-18.345064163208008,-0.5999656319618225,-2.2882113456726074,0.22098104655742645,0
75,0.37000489234924316,-0.018151462078094482,-18.304895401000977,0.9180634021759033,18.345064163208008,0.5999656319618225,2.2882113456726074,-0.22098104655742645,0.0,0.0,0.0,0.0,0.0,0.0,0.0,-0.07151568602070521,0.3573537443488574,0.0932014784066001,0.6694331357844234,0.17746966779673398,0.0930997650777341,-0.2318852086824606,-0.6089284795167154,-0.057482895051527844,-0.6664034060208548,-2.594688993224508,-0.0557789254188038,2.507900384955936,0.8763207160549031,-0.6090851748156966,-0.05753196718556838,-0.666603097082616,-2.5945565370258534,-0.05562143941554,2.507976027223799,0.8763108487046415,-0.0010511415656260033,0.00043376707703298014,-0.0004618858264485217,-0.0012484327853613723,6.827029135449712e-05,-0.0005377632365884339,-0.00011377254379563483,0.0,0.0,0.0,0.0,0.0,0.0,0.0,-0.00015669529898121315,-4.907213404053978e-05,-0.0001996910617612091,0.0001324561986546513,0.0001574860032637973,7.564226786316297e-05,-9.867350261649754e-06,0.0010511415656260033,-0.00043376707703298014,0.0004618858264485217,0.0012484327853613723,-6.827029135449712e-05,0.0005377632365884339,0.00011377254379563483,0.018151462078094482,18.304895401000977,-0.9180634021759033,-18.345064163208008,-0.5999656319618225,-2.2882113456726074,0.22098104655742645,0
76,0.3750174045562744,-0.018151462078094482,-18.304895401000977,0.9180634021759033,18.345064163208008,0.5999656319618225,2.2882113456726074,-0.22098104655742645,0.0,0.0,0.0,0.0,0.0,0.0,0.0,-0.07151568602070521,0.3573537443488574,0.0932014784066001,0.6694331357844234,0.17746966779673398,0.0930997650777341,-0.2318852086824606,-0.6089284795167154,-0.057482895051527844,-0.6664034060208548,-2.594688993224508,-0.0557789254188038,2.507900384955936,0.8763207160549031,-0.6090851748156966,-0.05753196718556838,-0.666603097082616,-2.5945565370258534,-0.05562143941554,2.507976027223799,0.8763108487046415,-0.0010511415656260033,0.00043376707703298014,-0.0004618858264485217,-0.0012484327853613723,6.827029135449712e-05,-0.0005377632365884339,-0.00011377254379563483,0.0,0.0,0.0,0.0,0.0,0.0,0.0,-0.00015669529898121315,-4.907213404053978e-05,-0.0001996910617612091,0.0001324561986546513,0.0001574860032637973,7.564226786316297e-05,-9.867350261649754e-06,0.0010511415656260033,-0.00043376707703298014,0.0004618858264485217,0.0012484327853613723,-6.827029135449712e-05,0.0005377632365884339,0.00011377254379563483,0.018151462078094482,18.304895401000977,-0.9180634021759033,-18.345064163208008,-0.5999656319618225,-2.2882113456726074,0.22098104655742645,0
77,0.3800175189971924,-0.06972616910934448,-18.304895401000977,0.9180634021759033,18.297456741333008,0.5944724678993225,2.2818026542663574,-0.25485557317733765,0.0,0.0,0.0,0.0,0.0,0.0,0.0,-0.07136120616219215,0.3586223367691802,0.088562468341366,0.6689917491171733,0.17759311122717333,0.09261217495734045,-0.23077377452408906,-0.6089248602390289,-0.057482898006603354,-0.66640410902971,-2.594686408944048,-0.05577831650957313,2.507901097032759,0.8763245976287641,-0.6090851748156966,-0.05753196718556838,-0.666603097082616,-2.5945565370258534,-0.05562143941554,2.507976027223799,0.8763108487046415,-0.00020935453979207817,0.00011730062580811962,-6.97969842806514e-05,4.241494673349096e-05,0.00031192464256155376,-0.00032712048185408,0.0005958018492765918,0.0,0.0,0.0,0.0,0.0,0.0,0.0,-0.0001603145766676528,-4.90691789650291e-05,-0.00019898805290596844,0.0001298719181943575,0.00015687709403312822,7.493019103987919e-05,-1.3748924122647388e-05,0.00020935453979207817,-0.00011730062580811962,6.97969842806514e-05,-4.241494673349096e-05,-0.00031192464256155376,0.00032712048185408,-0.0005958018492765918,0.06972616910934448,18.304895401000977,-0.9180634021759033,-18.297456741333008,-0.5944724678993225,-2.2818026542663574,0.25485557317733765,0
78,0.3850247859954834,-0.06972616910934448,-18.304895401000977,0.9180634021759033,18.297456741333008,0.5944724678993225,2.2818026542663574,-0.25485557317733765,0.0,0.0,0.0,0.0,0.0,0.0,0.0,-0.07136120616219215,0.3586223367691802,0.088562468341366,0.6689917491171733,0.17759311122717333,0.09261217495734045,-0.23077377452408906,-0.6089248602390289,-0.057482898006603354,-0.66640410902971,-2.594686408944048,-0.05577831650957313,2.507901097032759,0.8763245976287641,-0.6090851748156966,-0.05753196718556838,-0.666603097082616,-2.5945565370258534,-0.05562143941554,2.507976027223799,0.8763108487046415,-0.00020935453979207817,0.00011730062580811962,-6.97969842806514e-05,4.241494673349096e-05,0.00031192464256155376,-0.00032712048185408,0.0005958018492765918,0.0,0.0,0.0,0.0,0.0,0.0,0.0,-0.0001603145766676528,-4.90691789650291e-05,-0.00019898805290596844,0.0001298719181943575,0.00015687709403312822,7.493019103987919e-05,-1.3748924122647388e-05,0.00020935453979207817,-0.00011730062580811962,6.97969842806514e-05,-4.241494673349096e-05,-0.00031192464256155376,0.00032712048185408,-0.0005958018492765918,0.06972616910934448,18.304895401000977,-0.9180634021759033,-18.297456741333008,-0.5944724678993225,-2.2818026542663574,0.25485557317733765,0
79,0.3900289535522461,-0.04592245817184448,-18.352502822875977,0.9418671131134033,18.321260452270508,0.6063743233680725,2.2753939628601074,-0.22830526530742645,0.0,0.0,0.0,0.0,0.0,0.0,0.0,-0.06725316734208198,0.358253184071615,0.09495850004202942,0.669298928987827,0.17694890415267422,0.09251056722106168,-0.23063865978356102,-0.6089265306748842,-0.05747955417582442,-0.6664071823130844,-2.5946880881994985,-0.05577644514044115,2.507901809109582,0.87632187870971,-0.6090851748156966,-0.05753196718556838,-0.666603097082616,-2.5945565370258534,-0.05562143941554,2.507976027223799,0.8763108487046415,-0.00045827837134403067,0.0011311707433939626,-0.0005688307409843175,-0.0003532664516544955,-0.00012312963262856662,5.700397392735229e-05,-0.00021983258748904948,0.0,0.0,0.0,0.0,0.0,0.0,0.0,-0.00015864414081234735,-5.2413009743963734e-05,-0.00019591476953162434,0.0001315511736450503,0.00015500572490115272,7.42181142170395e-05,-1.103000506852414e-05,0.00045827837134403067,-0.0011311707433939626,0.0005688307409843175,0.0003532664516544955,0.00012312963262856662,-5.700397392735229e-05,0.00021983258748904948,0.04592245817184448,18.352502822875977,-0.9418671131134033,-18.321260452270508,-0.6063743233680725,-2.2753939628601074,0.22830526530742645,0
