rezayati/contactInterpretation/dataset/franka_main/labeled_data/link6/b12_5.csv
index,time,tau_J0,tau_J1,tau_J2,tau_J3,tau_J4,tau_J5,tau_J6,tau_J_d0,tau_J_d1,tau_J_d2,tau_J_d3,tau_J_d4,tau_J_d5,tau_J_d6,tau_ext0,tau_ext1,tau_ext2,tau_ext3,tau_ext4,tau_ext5,tau_ext6,q0,q1,q2,q3,q4,q5,q6,q_d0,q_d1,q_d2,q_d3,q_d4,q_d5,q_d6,dq0,dq1,dq2,dq3,dq4,dq5,dq6,dq_d0,dq_d1,dq_d2,dq_d3,dq_d4,dq_d5,dq_d6,e0,e1,e2,e3,e4,e5,e6,de0,de1,de2,de3,de4,de5,de6,etau_J0,etau_J1,etau_J2,etau_J3,etau_J4,etau_J5,etau_J6,label
1,0.0,-0.8354122042655945,-46.64718246459961,-5.786648273468018,19.586824417114258,0.7903953194618225,2.3852572441101074,-0.43338340520858765,0.0,0.0,0.0,0.0,0.0,0.0,0.0,-0.8354531336902872,-0.326426311029114,-0.5973571016880541,0.3946726693097501,0.21830370222967335,0.11511627124059878,-0.4129021614798858,0.8782019955693628,0.7556552658546496,-0.2824289979881371,-1.6692111801013612,0.14132603087027867,2.4034157728089225,1.0273694923652514,0.878092876070424,0.7554597494309409,-0.2825552651693207,-1.6690993614607135,0.1414185955172306,2.4034451173676383,1.0273381002308042,-0.0002766772341447372,-0.0003432532394108971,-5.707318873291786e-05,0.00019915919206639585,0.0007845751976515356,-0.0003177391131245498,0.0010946354128171657,0.0,0.0,0.0,0.0,0.0,0.0,0.0,-0.00010911949893888107,-0.00019551642370874145,-0.0001262671811836369,0.00011181864064768732,9.25646469519259e-05,2.9344558715838076e-05,-3.1392134447250086e-05,0.0002766772341447372,0.0003432532394108971,5.707318873291786e-05,-0.00019915919206639585,-0.0007845751976515356,0.0003177391131245498,-0.0010946354128171657,0.8354122042655945,46.64718246459961,5.786648273468018,-19.586824417114258,-0.7903953194618225,-2.3852572441101074,0.43338340520858765,0
2,0.005003213882446289,-0.8354122042655945,-46.64718246459961,-5.786648273468018,19.586824417114258,0.7903953194618225,2.3852572441101074,-0.43338340520858765,0.0,0.0,0.0,0.0,0.0,0.0,0.0,-0.8354531336902872,-0.326426311029114,-0.5973571016880541,0.3946726693097501,0.21830370222967335,0.11511627124059878,-0.4129021614798858,0.8782019955693628,0.7556552658546496,-0.2824289979881371,-1.6692111801013612,0.14132603087027867,2.4034157728089225,1.0273694923652514,0.878092876070424,0.7554597494309409,-0.2825552651693207,-1.6690993614607135,0.1414185955172306,2.4034451173676383,1.0273381002308042,-0.0002766772341447372,-0.0003432532394108971,-5.707318873291786e-05,0.00019915919206639585,0.0007845751976515356,-0.0003177391131245498,0.0010946354128171657,0.0,0.0,0.0,0.0,0.0,0.0,0.0,-0.00010911949893888107,-0.00019551642370874145,-0.0001262671811836369,0.00011181864064768732,9.25646469519259e-05,2.9344558715838076e-05,-3.1392134447250086e-05,0.0002766772341447372,0.0003432532394108971,5.707318873291786e-05,-0.00019915919206639585,-0.0007845751976515356,0.0003177391131245498,-0.0010946354128171657,0.8354122042655945,46.64718246459961,5.786648273468018,-19.586824417114258,-0.7903953194618225,-2.3852572441101074,0.43338340520858765,0
3,0.009999752044677734,-0.8076412081718445,-46.69875717163086,-5.786648273468018,19.586824417114258,0.8087058663368225,2.3788485527038574,-0.44711631536483765,0.0,0.0,0.0,0.0,0.0,0.0,0.0,-0.8307306218724747,-0.3177151578487769,-0.5908846789922249,0.3908394986182841,0.21804394749787548,0.11414102555716461,-0.41362550838632306,0.8782000467275317,0.7556596226145924,-0.2824308729034821,-1.6692111801013612,0.14132399636507034,2.4034164848857458,1.0273710182441602,0.878092876070424,0.7554597494309409,-0.2825552651693207,-1.6690993614607135,0.1414185955172306,2.4034451173676383,1.0273381002308042,-0.0011595592895195716,0.001000458194123682,0.0002944621782535959,0.00014986630697540418,-0.00036968522069715946,1.9581097458517874e-05,0.0016937362245284888,0.0,0.0,0.0,0.0,0.0,0.0,0.0,-0.00010717065710774687,-0.00019987318365155549,-0.00012439226583860208,0.00011181864064768732,9.459915216025738e-05,2.8632481892554296e-05,-3.2918013356031395e-05,0.0011595592895195716,-0.001000458194123682,-0.0002944621782535959,-0.00014986630697540418,0.00036968522069715946,-1.9581097458517874e-05,-0.0016937362245284888,0.8076412081718445,46.69875717163086,5.786648273468018,-19.586824417114258,-0.8087058663368225,-2.3788485527038574,0.44711631536483765,0
4,0.014997243881225586,-0.8076412081718445,-46.69875717163086,-5.786648273468018,19.586824417114258,0.8087058663368225,2.3788485527038574,-0.44711631536483765,0.0,0.0,0.0,0.0,0.0,0.0,0.0,-0.8307306218724747,-0.3177151578487769,-0.5908846789922249,0.3908394986182841,0.21804394749787548,0.11414102555716461,-0.41362550838632306,0.8782000467275317,0.7556596226145924,-0.2824308729034821,-1.6692111801013612,0.14132399636507034,2.4034164848857458,1.0273710182441602,0.878092876070424,0.7554597494309409,-0.2825552651693207,-1.6690993614607135,0.1414185955172306,2.4034451173676383,1.0273381002308042,-0.0011595592895195716,0.001000458194123682,0.0002944621782535959,0.00014986630697540418,-0.00036968522069715946,1.9581097458517874e-05,0.0016937362245284888,0.0,0.0,0.0,0.0,0.0,0.0,0.0,-0.00010717065710774687,-0.00019987318365155549,-0.00012439226583860208,0.00011181864064768732,9.459915216025738e-05,2.8632481892554296e-05,-3.2918013356031395e-05,0.0011595592895195716,-0.001000458194123682,-0.0002944621782535959,-0.00014986630697540418,0.00036968522069715946,-1.9581097458517874e-05,-0.0016937362245284888,0.8076412081718445,46.69875717163086,5.786648273468018,-19.586824417114258,-0.8087058663368225,-2.3788485527038574,0.44711631536483765,0
5,0.020723581314086914,-0.8076412081718445,-46.69875717163086,-5.786648273468018,19.586824417114258,0.8087058663368225,2.3788485527038574,-0.44711631536483765,0.0,0.0,0.0,0.0,0.0,0.0,0.0,-0.8307306218724747,-0.3177151578487769,-0.5908846789922249,0.3908394986182841,0.21804394749787548,0.11414102555716461,-0.41362550838632306,0.8782000467275317,0.7556596226145924,-0.2824308729034821,-1.6692111801013612,0.14132399636507034,2.4034164848857458,1.0273710182441602,0.878092876070424,0.7554597494309409,-0.2825552651693207,-1.6690993614607135,0.1414185955172306,2.4034451173676383,1.0273381002308042,-0.0011595592895195716,0.001000458194123682,0.0002944621782535959,0.00014986630697540418,-0.00036968522069715946,1.9581097458517874e-05,0.0016937362245284888,0.0,0.0,0.0,0.0,0.0,0.0,0.0,-0.00010717065710774687,-0.00019987318365155549,-0.00012439226583860208,0.00011181864064768732,9.459915216025738e-05,2.8632481892554296e-05,-3.2918013356031395e-05,0.0011595592895195716,-0.001000458194123682,-0.0002944621782535959,-0.00014986630697540418,0.00036968522069715946,-1.9581097458517874e-05,-0.0016937362245284888,0.8076412081718445,46.69875717163086,5.786648273468018,-19.586824417114258,-0.8087058663368225,-2.3788485527038574,0.44711631536483765,0
6,0.02499675750732422,-0.8076412081718445,-46.69875717163086,-5.786648273468018,19.586824417114258,0.8087058663368225,2.3788485527038574,-0.44711631536483765,0.0,0.0,0.0,0.0,0.0,0.0,0.0,-0.8307306218724747,-0.3177151578487769,-0.5908846789922249,0.3908394986182841,0.21804394749787548,0.11414102555716461,-0.41362550838632306,0.8782000467275317,0.7556596226145924,-0.2824308729034821,-1.6692111801013612,0.14132399636507034,2.4034164848857458,1.0273710182441602,0.878092876070424,0.7554597494309409,-0.2825552651693207,-1.6690993614607135,0.1414185955172306,2.4034451173676383,1.0273381002308042,-0.0011595592895195716,0.001000458194123682,0.0002944621782535959,0.00014986630697540418,-0.00036968522069715946,1.9581097458517874e-05,0.0016937362245284888,0.0,0.0,0.0,0.0,0.0,0.0,0.0,-0.00010717065710774687,-0.00019987318365155549,-0.00012439226583860208,0.00011181864064768732,9.459915216025738e-05,2.8632481892554296e-05,-3.2918013356031395e-05,0.0011595592895195716,-0.001000458194123682,-0.0002944621782535959,-0.00014986630697540418,0.00036968522069715946,-1.9581097458517874e-05,-0.0016937362245284888,0.8076412081718445,46.69875717163086,5.786648273468018,-19.586824417114258,-0.8087058663368225,-2.3788485527038574,0.44711631536483765,0
7,0.029998302459716797,-0.8354122042655945,-46.64718246459961,-5.711269855499268,19.586824417114258,0.8022971749305725,2.3852572441101074,-0.43979209661483765,0.0,0.0,0.0,0.0,0.0,0.0,0.0,-0.8305779064859323,-0.32750683216209203,-0.5920990588913632,0.39569807011185365,0.21741503656461617,0.11477257515894784,-0.4140889679230963,0.8782019955693628,0.7556559730371266,-0.28243429948573145,-1.6692111801013612,0.14132470844189327,2.4034157728089225,1.027370086704507,0.878092876070424,0.7554597494309409,-0.2825552651693207,-1.6690993614607135,0.1414185955172306,2.4034451173676383,1.0273381002308042,0.000172067852225614,-0.0004724738106140738,-0.0019052577697656749,-0.0003969863914677307,7.999378896123778e-05,-0.00011585436052878374,0.0005718012072884206,0.0,0.0,0.0,0.0,0.0,0.0,0.0,-0.00010911949893888107,-0.00019622360618576362,-0.00012096568358926918,0.00011181864064768732,9.388707533733442e-05,2.9344558715838076e-05,-3.198647370283858e-05,-0.000172067852225614,0.0004724738106140738,0.0019052577697656749,0.0003969863914677307,-7.999378896123778e-05,0.00011585436052878374,-0.0005718012072884206,0.8354122042655945,46.64718246459961,5.711269855499268,-19.586824417114258,-0.8022971749305725,-2.3852572441101074,0.43979209661483765,0
8,0.03500771522521973,-0.8354122042655945,-46.64718246459961,-5.711269855499268,19.586824417114258,0.8022971749305725,2.3852572441101074,-0.43979209661483765,0.0,0.0,0.0,0.0,0.0,0.0,0.0,-0.8305779064859323,-0.32750683216209203,-0.5920990588913632,0.39569807011185365,0.21741503656461617,0.11477257515894784,-0.4140889679230963,0.8782019955693628,0.7556559730371266,-0.28243429948573145,-1.6692111801013612,0.14132470844189327,2.4034157728089225,1.027370086704507,0.878092876070424,0.7554597494309409,-0.2825552651693207,-1.6690993614607135,0.1414185955172306,2.4034451173676383,1.0273381002308042,0.000172067852225614,-0.0004724738106140738,-0.0019052577697656749,-0.0003969863914677307,7.999378896123778e-05,-0.00011585436052878374,0.0005718012072884206,0.0,0.0,0.0,0.0,0.0,0.0,0.0,-0.00010911949893888107,-0.00019622360618576362,-0.00012096568358926918,0.00011181864064768732,9.388707533733442e-05,2.9344558715838076e-05,-3.198647370283858e-05,-0.000172067852225614,0.0004724738106140738,0.0019052577697656749,0.0003969863914677307,-7.999378896123778e-05,0.00011585436052878374,-0.0005718012072884206,0.8354122042655945,46.64718246459961,5.711269855499268,-19.586824417114258,-0.8022971749305725,-2.3852572441101074,0.43979209661483765,0
9,0.04000353813171387,-0.8354122042655945,-46.67495346069336,-5.735073566436768,19.586824417114258,0.8022971749305725,2.3916659355163574,-0.43979209661483765,0.0,0.0,0.0,0.0,0.0,0.0,0.0,-0.8442320890995564,-0.3409925550569681,-0.602794172843814,0.4021231565827665,0.21775993921371092,0.11622046536143911,-0.41568375888874975,0.8782019955693628,0.7556557666877239,-0.2824317890023893,-1.6692111801013612,0.14132470844189327,2.4034150607320997,1.0273702044414124,0.878092876070424,0.7554597494309409,-0.2825552651693207,-1.6690993614607135,0.1414185955172306,2.4034451173676383,1.0273381002308042,-0.0005468734690967915,5.4384069984057335e-06,-0.0006072675259956807,0.0006005210990779759,1.2483154224792305e-05,-0.0004506206496737669,0.0013892855976141143,0.0,0.0,0.0,0.0,0.0,0.0,0.0,-0.00010911949893888107,-0.00019601725678308757,-0.00012347616693142438,0.00011181864064768732,9.388707533733442e-05,3.0056635538677767e-05,-3.210421060817481e-05,0.0005468734690967915,-5.4384069984057335e-06,0.0006072675259956807,-0.0006005210990779759,-1.2483154224792305e-05,0.0004506206496737669,-0.0013892855976141143,0.8354122042655945,46.67495346069336,5.735073566436768,-19.586824417114258,-0.8022971749305725,-2.3916659355163574,0.43979209661483765,0
10,0.04500317573547363,-0.8354122042655945,-46.67495346069336,-5.735073566436768,19.586824417114258,0.8022971749305725,2.3916659355163574,-0.43979209661483765,0.0,0.0,0.0,0.0,0.0,0.0,0.0,-0.8442320890995564,-0.3409925550569681,-0.602794172843814,0.4021231565827665,0.21775993921371092,0.11622046536143911,-0.41568375888874975,0.8782019955693628,0.7556557666877239,-0.2824317890023893,-1.6692111801013612,0.14132470844189327,2.4034150607320997,1.0273702044414124,0.878092876070424,0.7554597494309409,-0.2825552651693207,-1.6690993614607135,0.1414185955172306,2.4034451173676383,1.0273381002308042,-0.0005468734690967915,5.4384069984057335e-06,-0.0006072675259956807,0.0006005210990779759,1.2483154224792305e-05,-0.0004506206496737669,0.0013892855976141143,0.0,0.0,0.0,0.0,0.0,0.0,0.0,-0.00010911949893888107,-0.00019601725678308757,-0.00012347616693142438,0.00011181864064768732,9.388707533733442e-05,3.0056635538677767e-05,-3.210421060817481e-05,0.0005468734690967915,-5.4384069984057335e-06,0.0006072675259956807,-0.0006005210990779759,-1.2483154224792305e-05,0.0004506206496737669,-0.0013892855976141143,0.8354122042655945,46.67495346069336,5.735073566436768,-19.586824417114258,-0.8022971749305725,-2.3916659355163574,0.43979209661483765,0
11,0.04994797706604004,-0.8076412081718445,-46.64718246459961,-5.762844562530518,19.586824417114258,0.7903953194618225,2.3724398612976074,-0.38577598333358765,0.0,0.0,0.0,0.0,0.0,0.0,0.0,-0.8300085405058074,-0.32518947119190655,-0.5871856133239997,0.3924988390859852,0.2173096855226301,0.11498758002041949,-0.4159575018602469,0.8782000466185155,0.7556530793475796,-0.28243052420198805,-1.6692111801013612,0.14132603087027867,2.4034171969625686,1.0273642026517125,0.878092876070424,0.7554597494309409,-0.2825552651693207,-1.6690993614607135,0.1414185955172306,2.4034451173676383,1.0273381002308042,-0.00041254905148215823,-0.00016340184501532182,5.293014995590612e-06,0.00018119984232150516,0.0004724958786944101,0.00014335027203489896,-0.0013284630902005228,0.0,0.0,0.0,0.0,0.0,0.0,0.0,-0.00010717054809150639,-0.00019332991663878474,-0.00012474096733267048,0.00011181864064768732,9.25646469519259e-05,2.7920405069714604e-05,-2.610242090828052e-05,0.00041254905148215823,0.00016340184501532182,-5.293014995590612e-06,-0.00018119984232150516,-0.0004724958786944101,-0.00014335027203489896,0.0013284630902005228,0.8076412081718445,46.64718246459961,5.762844562530518,-19.586824417114258,-0.7903953194618225,-2.3724398612976074,0.38577598333358765,0
12,0.05500960350036621,-0.8076412081718445,-46.64718246459961,-5.762844562530518,19.586824417114258,0.7903953194618225,2.3724398612976074,-0.38577598333358765,0.0,0.0,0.0,0.0,0.0,0.0,0.0,-0.8300085405058074,-0.32518947119190655,-0.5871856133239997,0.3924988390859852,0.2173096855226301,0.11498758002041949,-0.4159575018602469,0.8782000466185155,0.7556530793475796,-0.28243052420198805,-1.6692111801013612,0.14132603087027867,2.4034171969625686,1.0273642026517125,0.878092876070424,0.7554597494309409,-0.2825552651693207,-1.6690993614607135,0.1414185955172306,2.4034451173676383,1.0273381002308042,-0.00041254905148215823,-0.00016340184501532182,5.293014995590612e-06,0.00018119984232150516,0.0004724958786944101,0.00014335027203489896,-0.0013284630902005228,0.0,0.0,0.0,0.0,0.0,0.0,0.0,-0.00010717054809150639,-0.00019332991663878474,-0.00012474096733267048,0.00011181864064768732,9.25646469519259e-05,2.7920405069714604e-05,-2.610242090828052e-05,0.00041254905148215823,0.00016340184501532182,-5.293014995590612e-06,-0.00018119984232150516,-0.0004724958786944101,-0.00014335027203489896,0.0013284630902005228,0.8076412081718445,46.64718246459961,5.762844562530518,-19.586824417114258,-0.7903953194618225,-2.3724398612976074,0.38577598333358765,0
13,0.05999636650085449,-0.8076412081718445,-46.64718246459961,-5.735073566436768,19.610628128051758,0.8087058663368225,2.3852572441101074,-0.40591758489608765,0.0,0.0,0.0,0.0,0.0,0.0,0.0,-0.8193540609019774,-0.3348158110190614,-0.5811805166714153,0.39797923366029475,0.21716530270694542,0.1150101650048549,-0.41563886312550435,0.8782000457463847,0.7556530889952386,-0.2824338131792425,-1.6692128505372164,0.14132399782770527,2.4034157728089225,1.0273664406074416,0.878092876070424,0.7554597494309409,-0.2825552651693207,-1.6690993614607135,0.1414185955172306,2.4034451173676383,1.0273381002308042,0.000424402595715178,-3.977746303938949e-05,-5.206282071518013e-05,-0.0003046991101961219,-0.0004186089195994152,-0.0003510427798159134,-0.0003308406662477082,0.0,0.0,0.0,0.0,0.0,0.0,0.0,-0.00010716967596069438,-0.00019333956429778976,-0.00012145199007823626,0.00011348907650288176,9.459768952532754e-05,2.9344558715838076e-05,-2.834037663745903e-05,-0.000424402595715178,3.977746303938949e-05,5.206282071518013e-05,0.0003046991101961219,0.0004186089195994152,0.0003510427798159134,0.0003308406662477082,0.8076412081718445,46.64718246459961,5.735073566436768,-19.610628128051758,-0.8087058663368225,-2.3852572441101074,0.40591758489608765,0
14,0.06499791145324707,-0.8076412081718445,-46.64718246459961,-5.735073566436768,19.610628128051758,0.8087058663368225,2.3852572441101074,-0.40591758489608765,0.0,0.0,0.0,0.0,0.0,0.0,0.0,-0.8193540609019774,-0.3348158110190614,-0.5811805166714153,0.39797923366029475,0.21716530270694542,0.1150101650048549,-0.41563886312550435,0.8782000457463847,0.7556530889952386,-0.2824338131792425,-1.6692128505372164,0.14132399782770527,2.4034157728089225,1.0273664406074416,0.878092876070424,0.7554597494309409,-0.2825552651693207,-1.6690993614607135,0.1414185955172306,2.4034451173676383,1.0273381002308042,0.000424402595715178,-3.977746303938949e-05,-5.206282071518013e-05,-0.0003046991101961219,-0.0004186089195994152,-0.0003510427798159134,-0.0003308406662477082,0.0,0.0,0.0,0.0,0.0,0.0,0.0,-0.00010716967596069438,-0.00019333956429778976,-0.00012145199007823626,0.00011348907650288176,9.459768952532754e-05,2.9344558715838076e-05,-2.834037663745903e-05,-0.000424402595715178,3.977746303938949e-05,5.206282071518013e-05,0.0003046991101961219,0.0004186089195994152,0.0003510427798159134,0.0003308406662477082,0.8076412081718445,46.64718246459961,5.735073566436768,-19.610628128051758,-0.8087058663368225,-2.3852572441101074,0.40591758489608765,0
15,0.07000017166137695,-0.7838374972343445,-46.67495346069336,-5.735073566436768,19.610628128051758,0.7968040108680725,2.3788485527038574,-0.43338340520858765,0.0,0.0,0.0,0.0,0.0,0.0,0.0,-0.8284226163805068,-0.32563498241194305,-0.588648696448861,0.3932219368997229,0.2170234495145455,0.11365375010006973,-0.4153356100953068,0.8781983762916709,0.7556579511757695,-0.28243460314897106,-1.6692128505372164,0.141325318793464,2.4034164848857458,1.0273684327271249,0.878092876070424,0.7554597494309409,-0.2825552651693207,-1.6690993614607135,0.1414185955172306,2.4034451173676383,1.0273381002308042,-0.0004459443433748097,0.00018495237946893273,-6.130375941509242e-05,-0.0003692142496381095,0.000356209988835802,0.00028492546495318587,0.000766533518039889,0.0,0.0,0.0,0.0,0.0,0.0,0.0,-0.00010550022124689029,-0.00019820174482865216,-0.00012066202034966,0.00011348907650288176,9.327672376660545e-05,2.8632481892554296e-05,-3.033249632067303e-05,0.0004459443433748097,-0.00018495237946893273,6.130375941509242e-05,0.0003692142496381095,-0.000356209988835802,-0.00028492546495318587,-0.000766533518039889,0.7838374972343445,46.67495346069336,5.735073566436768,-19.610628128051758,-0.7968040108680725,-2.3788485527038574,0.43338340520858765,0
16,0.07500243186950684,-0.7838374972343445,-46.67495346069336,-5.735073566436768,19.610628128051758,0.7968040108680725,2.3788485527038574,-0.43338340520858765,0.0,0.0,0.0,0.0,0.0,0.0,0.0,-0.8284226163805068,-0.32563498241194305,-0.588648696448861,0.3932219368997229,0.2170234495145455,0.11365375010006973,-0.4153356100953068,0.8781983762916709,0.7556579511757695,-0.28243460314897106,-1.6692128505372164,0.141325318793464,2.4034164848857458,1.0273684327271249,0.878092876070424,0.7554597494309409,-0.2825552651693207,-1.6690993614607135,0.1414185955172306,2.4034451173676383,1.0273381002308042,-0.0004459443433748097,0.00018495237946893273,-6.130375941509242e-05,-0.0003692142496381095,0.000356209988835802,0.00028492546495318587,0.000766533518039889,0.0,0.0,0.0,0.0,0.0,0.0,0.0,-0.00010550022124689029,-0.00019820174482865216,-0.00012066202034966,0.00011348907650288176,9.327672376660545e-05,2.8632481892554296e-05,-3.033249632067303e-05,0.0004459443433748097,-0.00018495237946893273,6.130375941509242e-05,0.0003692142496381095,-0.000356209988835802,-0.00028492546495318587,-0.000766533518039889,0.7838374972343445,46.67495346069336,5.735073566436768,-19.610628128051758,-0.7968040108680725,-2.3788485527038574,0.43338340520858765,0
17,0.08000826835632324,-0.8076412081718445,-46.67495346069336,-5.735073566436768,19.610628128051758,0.7968040108680725,2.3916659355163574,-0.38577598333358765,0.0,0.0,0.0,0.0,0.0,0.0,0.0,-0.818529556796274,-0.3442252317076289,-0.5829467175193451,0.4023493789949531,0.21741283367537223,0.11554238051197037,-0.4149750043318764,0.8782000467275317,0.7556572206923698,-0.28243179514805355,-1.6692128505372164,0.14132531879345575,2.4034150607320997,1.0273642026457308,0.878092876070424,0.7554597494309409,-0.2825552651693207,-1.6690993614607135,0.1414185955172306,2.4034451173676383,1.0273381002308042,0.00018323016196275274,-0.0004258834269454048,0.0001129815249237868,-0.0002833298305018811,0.00026041502106625134,-0.0005447028838329705,-0.0014033618574874854,0.0,0.0,0.0,0.0,0.0,0.0,0.0,-0.00010717065710774687,-0.00019747126142899418,-0.0001234700212671691,0.00011348907650288176,9.327672377484886e-05,3.0056635538677767e-05,-2.610241492662091e-05,-0.00018323016196275274,0.0004258834269454048,-0.0001129815249237868,0.0002833298305018811,-0.00026041502106625134,0.0005447028838329705,0.0014033618574874854,0.8076412081718445,46.67495346069336,5.735073566436768,-19.610628128051758,-0.7968040108680725,-2.3916659355163574,0.38577598333358765,0
18,0.08499598503112793,-0.8076412081718445,-46.67495346069336,-5.735073566436768,19.610628128051758,0.7968040108680725,2.3916659355163574,-0.38577598333358765,0.0,0.0,0.0,0.0,0.0,0.0,0.0,-0.818529556796274,-0.3442252317076289,-0.5829467175193451,0.4023493789949531,0.21741283367537223,0.11554238051197037,-0.4149750043318764,0.8782000467275317,0.7556572206923698,-0.28243179514805355,-1.6692128505372164,0.14132531879345575,2.4034150607320997,1.0273642026457308,0.878092876070424,0.7554597494309409,-0.2825552651693207,-1.6690993614607135,0.1414185955172306,2.4034451173676383,1.0273381002308042,0.00018323016196275274,-0.0004258834269454048,0.0001129815249237868,-0.0002833298305018811,0.00026041502106625134,-0.0005447028838329705,-0.0014033618574874854,0.0,0.0,0.0,0.0,0.0,0.0,0.0,-0.00010717065710774687,-0.00019747126142899418,-0.0001234700212671691,0.00011348907650288176,9.327672377484886e-05,3.0056635538677767e-05,-2.610241492662091e-05,-0.00018323016196275274,0.0004258834269454048,-0.0001129815249237868,0.0002833298305018811,-0.00026041502106625134,0.0005447028838329705,0.0014033618574874854,0.8076412081718445,46.67495346069336,5.735073566436768,-19.610628128051758,-0.7968040108680725,-2.3916659355163574,0.38577598333358765,0
19,0.0902249813079834,-0.8354122042655945,-46.64718246459961,-5.762844562530518,19.610628128051758,0.8087058663368225,2.3852572441101074,-0.37204307317733765,0.0,0.0,0.0,0.0,0.0,0.0,0.0,-0.8390991903674792,-0.33343727695424913,-0.5956030809290725,0.391935329623979,0.21772995912169693,0.11442333869420701,-0.4142385543654411,0.8782019954603466,0.7556560033455764,-0.28243007362428374,-1.6692128505372164,0.14132399636507034,2.4034157728089225,1.0273626767728061,0.878092876070424,0.7554597494309409,-0.2825552651693207,-1.6690993614607135,0.1414185955172306,2.4034451173676383,1.0273381002308042,0.0001261057744167454,-0.000889609567089739,-2.109240238422241e-05,-0.0007594258162578963,-0.0002467002246994026,-0.00017163941507968624,-0.0015926273151795013,0.0,0.0,0.0,0.0,0.0,0.0,0.0,-0.00010911938992264059,-0.00019625391463551356,-0.00012519154503698449,0.00011348907650288176,9.459915216025738e-05,2.9344558715838076e-05,-2.4576542001941704e-05,-0.0001261057744167454,0.000889609567089739,2.109240238422241e-05,0.0007594258162578963,0.0002467002246994026,0.00017163941507968624,0.0015926273151795013,0.8354122042655945,46.64718246459961,5.762844562530518,-19.610628128051758,-0.8087058663368225,-2.3852572441101074,0.37204307317733765,0
20,0.09496307373046875,-0.8354122042655945,-46.64718246459961,-5.762844562530518,19.610628128051758,0.8087058663368225,2.3852572441101074,-0.37204307317733765,0.0,0.0,0.0,0.0,0.0,0.0,0.0,-0.8390991903674792,-0.33343727695424913,-0.5956030809290725,0.391935329623979,0.21772995912169693,0.11442333869420701,-0.4142385543654411,0.8782019954603466,0.7556560033455764,-0.28243007362428374,-1.6692128505372164,0.14132399636507034,2.4034157728089225,1.0273626767728061,0.878092876070424,0.7554597494309409,-0.2825552651693207,-1.6690993614607135,0.1414185955172306,2.4034451173676383,1.0273381002308042,0.0001261057744167454,-0.000889609567089739,-2.109240238422241e-05,-0.0007594258162578963,-0.0002467002246994026,-0.00017163941507968624,-0.0015926273151795013,0.0,0.0,0.0,0.0,0.0,0.0,0.0,-0.00010911938992264059,-0.00019625391463551356,-0.00012519154503698449,0.00011348907650288176,9.459915216025738e-05,2.9344558715838076e-05,-2.4576542001941704e-05,-0.0001261057744167454,0.000889609567089739,2.109240238422241e-05,0.0007594258162578963,0.0002467002246994026,0.00017163941507968624,0.0015926273151795013,0.8354122042655945,46.64718246459961,5.762844562530518,-19.610628128051758,-0.8087058663368225,-2.3852572441101074,0.37204307317733765,0
21,0.09996247291564941,-0.8592159152030945,-46.64718246459961,-5.786648273468018,19.586824417114258,0.7968040108680725,2.3788485527038574,-0.43979209661483765,0.0,0.0,0.0,0.0,0.0,0.0,0.0,-0.8255188506426828,-0.3238064659653052,-0.5832293202908104,0.3861165639012342,0.2172556288416356,0.11431864217153449,-0.41391928880638007,0.8782036646970227,0.7556560033497057,-0.28242908502372444,-1.6692111801013612,0.14132531881151295,2.4034164848857458,1.027370204442077,0.878092876070424,0.7554597494309409,-0.2825552651693207,-1.6690993614607135,0.1414185955172306,2.4034451173676383,1.0273381002308042,0.0003741842352219447,0.00012289348713132806,0.0008480562419941864,0.00036501953305619007,-2.261221014598362e-05,7.197624487664644e-05,0.0010806993386311028,0.0,0.0,0.0,0.0,0.0,0.0,0.0,-0.00011078862659874567,-0.00019625391876487708,-0.00012618014559628854,0.00011181864064768732,9.327670571765423e-05,2.8632481892554296e-05,-3.210421127275431e-05,-0.0003741842352219447,-0.00012289348713132806,-0.0008480562419941864,-0.00036501953305619007,2.261221014598362e-05,-7.197624487664644e-05,-0.0010806993386311028,0.8592159152030945,46.64718246459961,5.786648273468018,-19.586824417114258,-0.7968040108680725,-2.3788485527038574,0.43979209661483765,0
22,0.10499238967895508,-0.8592159152030945,-46.64718246459961,-5.786648273468018,19.586824417114258,0.7968040108680725,2.3788485527038574,-0.43979209661483765,0.0,0.0,0.0,0.0,0.0,0.0,0.0,-0.8255188506426828,-0.3238064659653052,-0.5832293202908104,0.3861165639012342,0.2172556288416356,0.11431864217153449,-0.41391928880638007,0.8782036646970227,0.7556560033497057,-0.28242908502372444,-1.6692111801013612,0.14132531881151295,2.4034164848857458,1.027370204442077,0.878092876070424,0.7554597494309409,-0.2825552651693207,-1.6690993614607135,0.1414185955172306,2.4034451173676383,1.0273381002308042,0.0003741842352219447,0.00012289348713132806,0.0008480562419941864,0.00036501953305619007,-2.261221014598362e-05,7.197624487664644e-05,0.0010806993386311028,0.0,0.0,0.0,0.0,0.0,0.0,0.0,-0.00011078862659874567,-0.00019625391876487708,-0.00012618014559628854,0.00011181864064768732,9.327670571765423e-05,2.8632481892554296e-05,-3.210421127275431e-05,-0.0003741842352219447,-0.00012289348713132806,-0.0008480562419941864,-0.00036501953305619007,2.261221014598362e-05,-7.197624487664644e-05,-0.0010806993386311028,0.8592159152030945,46.64718246459961,5.786648273468018,-19.586824417114258,-0.7968040108680725,-2.3788485527038574,0.43979209661483765,0
23,0.1101984977722168,-0.8869869112968445,-46.62337875366211,-5.810451984405518,19.535249710083008,0.8022971749305725,2.3916659355163574,-0.38577598333358765,0.0,0.0,0.0,0.0,0.0,0.0,0.0,-0.828972457544197,-0.34112658183252853,-0.5877926687872994,0.393769817799781,0.216779720950039,0.11531476157554121,-0.41427808934250393,0.8782056148107031,0.7556521472991736,-0.2824270963707018,-1.6692075608236747,0.14132470844189335,2.4034150607320997,1.0273641895697603,0.878092876070424,0.7554597494309409,-0.2825552651693207,-1.6690993614607135,0.1414185955172306,2.4034451173676383,1.0273381002308042,0.00046976921941436415,-0.0011959180730708049,0.0014590911657569562,0.0013718082005929678,4.698262357601892e-05,-0.0005362875006760683,-0.0011618689516263575,0.0,0.0,0.0,0.0,0.0,0.0,0.0,-0.00011273874027917241,-0.00019239786823277427,-0.00012816879861893282,0.00010819936296124766,9.388707533725116e-05,3.0056635538677767e-05,-2.6089338956092334e-05,-0.00046976921941436415,0.0011959180730708049,-0.0014590911657569562,-0.0013718082005929678,-4.698262357601892e-05,0.0005362875006760683,0.0011618689516263575,0.8869869112968445,46.62337875366211,5.810451984405518,-19.535249710083008,-0.8022971749305725,-2.3916659355163574,0.38577598333358765,0
24,0.11499714851379395,-0.8869869112968445,-46.62337875366211,-5.810451984405518,19.535249710083008,0.8022971749305725,2.3916659355163574,-0.38577598333358765,0.0,0.0,0.0,0.0,0.0,0.0,0.0,-0.828972457544197,-0.34112658183252853,-0.5877926687872994,0.393769817799781,0.216779720950039,0.11531476157554121,-0.41427808934250393,0.8782056148107031,0.7556521472991736,-0.2824270963707018,-1.6692075608236747,0.14132470844189335,2.4034150607320997,1.0273641895697603,0.878092876070424,0.7554597494309409,-0.2825552651693207,-1.6690993614607135,0.1414185955172306,2.4034451173676383,1.0273381002308042,0.00046976921941436415,-0.0011959180730708049,0.0014590911657569562,0.0013718082005929678,4.698262357601892e-05,-0.0005362875006760683,-0.0011618689516263575,0.0,0.0,0.0,0.0,0.0,0.0,0.0,-0.00011273874027917241,-0.00019239786823277427,-0.00012816879861893282,0.00010819936296124766,9.388707533725116e-05,3.0056635538677767e-05,-2.6089338956092334e-05,-0.00046976921941436415,0.0011959180730708049,-0.0014590911657569562,-0.0013718082005929678,-4.698262357601892e-05,0.0005362875006760683,0.0011618689516263575,0.8869869112968445,46.62337875366211,5.810451984405518,-19.535249710083008,-0.8022971749305725,-2.3916659355163574,0.38577598333358765,0
25,0.11999845504760742,-0.8869869112968445,-46.62337875366211,-5.810451984405518,19.535249710083008,0.8022971749305725,2.3916659355163574,-0.38577598333358765,0.0,0.0,0.0,0.0,0.0,0.0,0.0,-0.828972457544197,-0.34112658183252853,-0.5877926687872994,0.393769817799781,0.216779720950039,0.11531476157554121,-0.41427808934250393,0.8782056148107031,0.7556521472991736,-0.2824270963707018,-1.6692075608236747,0.14132470844189335,2.4034150607320997,1.0273641895697603,0.878092876070424,0.7554597494309409,-0.2825552651693207,-1.6690993614607135,0.1414185955172306,2.4034451173676383,1.0273381002308042,0.00046976921941436415,-0.0011959180730708049,0.0014590911657569562,0.0013718082005929678,4.698262357601892e-05,-0.0005362875006760683,-0.0011618689516263575,0.0,0.0,0.0,0.0,0.0,0.0,0.0,-0.00011273874027917241,-0.00019239786823277427,-0.00012816879861893282,0.00010819936296124766,9.388707533725116e-05,3.0056635538677767e-05,-2.6089338956092334e-05,-0.00046976921941436415,0.0011959180730708049,-0.0014590911657569562,-0.0013718082005929678,-4.698262357601892e-05,0.0005362875006760683,0.0011618689516263575,0.8869869112968445,46.62337875366211,5.810451984405518,-19.535249710083008,-0.8022971749305725,-2.3916659355163574,0.38577598333358765,0
26,0.12499642372131348,-0.8869869112968445,-46.62337875366211,-5.810451984405518,19.535249710083008,0.8022971749305725,2.3916659355163574,-0.38577598333358765,0.0,0.0,0.0,0.0,0.0,0.0,0.0,-0.828972457544197,-0.34112658183252853,-0.5877926687872994,0.393769817799781,0.216779720950039,0.11531476157554121,-0.41427808934250393,0.8782056148107031,0.7556521472991736,-0.2824270963707018,-1.6692075608236747,0.14132470844189335,2.4034150607320997,1.0273641895697603,0.878092876070424,0.7554597494309409,-0.2825552651693207,-1.6690993614607135,0.1414185955172306,2.4034451173676383,1.0273381002308042,0.00046976921941436415,-0.0011959180730708049,0.0014590911657569562,0.0013718082005929678,4.698262357601892e-05,-0.0005362875006760683,-0.0011618689516263575,0.0,0.0,0.0,0.0,0.0,0.0,0.0,-0.00011273874027917241,-0.00019239786823277427,-0.00012816879861893282,0.00010819936296124766,9.388707533725116e-05,3.0056635538677767e-05,-2.6089338956092334e-05,-0.00046976921941436415,0.0011959180730708049,-0.0014590911657569562,-0.0013718082005929678,-4.698262357601892e-05,0.0005362875006760683,0.0011618689516263575,0.8869869112968445,46.62337875366211,5.810451984405518,-19.535249710083008,-0.8022971749305725,-2.3916659355163574,0.38577598333358765,0
27,0.1299433708190918,-0.8592159152030945,-46.67495346069336,-5.735073566436768,19.610628128051758,0.7968040108680725,2.3788485527038574,-0.39218467473983765,0.0,0.0,0.0,0.0,0.0,0.0,0.0,-0.8284090286362942,-0.32065592370619134,-0.5846556529140746,0.38341732130259926,0.2166724144167792,0.11369050575146561,-0.4148509629498302,0.8782036660052179,0.7556579520311523,-0.2824319248877776,-1.6692128505372164,0.14132533195717015,2.4034164848857458,1.0273649147284616,0.878092876070424,0.7554597494309409,-0.2825552651693207,-1.6690993614607135,0.1414185955172306,2.4034451173676383,1.0273381002308042,-0.0003117371507075568,0.0011290156701426063,-0.0006972395163994234,-0.0006365880543655763,3.002877474469375e-05,0.00011230458328406161,-0.00041006426080613577,0.0,0.0,0.0,0.0,0.0,0.0,0.0,-0.00011078993479396448,-0.00019820260021141678,-0.00012334028154314947,0.00011348907650288176,9.326356006045255e-05,2.8632481892554296e-05,-2.6814497657401404e-05,0.0003117371507075568,-0.0011290156701426063,0.0006972395163994234,0.0006365880543655763,-3.002877474469375e-05,-0.00011230458328406161,0.00041006426080613577,0.8592159152030945,46.67495346069336,5.735073566436768,-19.610628128051758,-0.7968040108680725,-2.3788485527038574,0.39218467473983765,0
28,0.1349947452545166,-0.8592159152030945,-46.67495346069336,-5.735073566436768,19.610628128051758,0.7968040108680725,2.3788485527038574,-0.39218467473983765,0.0,0.0,0.0,0.0,0.0,0.0,0.0,-0.8284090286362942,-0.32065592370619134,-0.5846556529140746,0.38341732130259926,0.2166724144167792,0.11369050575146561,-0.4148509629498302,0.8782036660052179,0.7556579520311523,-0.2824319248877776,-1.6692128505372164,0.14132533195717015,2.4034164848857458,1.0273649147284616,0.878092876070424,0.7554597494309409,-0.2825552651693207,-1.6690993614607135,0.1414185955172306,2.4034451173676383,1.0273381002308042,-0.0003117371507075568,0.0011290156701426063,-0.0006972395163994234,-0.0006365880543655763,3.002877474469375e-05,0.00011230458328406161,-0.00041006426080613577,0.0,0.0,0.0,0.0,0.0,0.0,0.0,-0.00011078993479396448,-0.00019820260021141678,-0.00012334028154314947,0.00011348907650288176,9.326356006045255e-05,2.8632481892554296e-05,-2.6814497657401404e-05,0.0003117371507075568,-0.0011290156701426063,0.0006972395163994234,0.0006365880543655763,-3.002877474469375e-05,-0.00011230458328406161,0.00041006426080613577,0.8592159152030945,46.67495346069336,5.735073566436768,-19.610628128051758,-0.7968040108680725,-2.3788485527038574,0.39218467473983765,0
29,0.14002037048339844,-0.8076412081718445,-46.67495346069336,-5.786648273468018,19.559053421020508,0.8022971749305725,2.3724398612976074,-0.41965049505233765,0.0,0.0,0.0,0.0,0.0,0.0,0.0,-0.8427378183135938,-0.33796458049809913,-0.5962955179228517,0.39194088149721273,0.21702060531419506,0.11514126552976525,-0.4133649420134052,0.8782000467275317,0.7556577003639559,-0.28242808797467706,-1.6692092312595301,0.14132472160568196,2.4034171969625686,1.0273679664863478,0.878092876070424,0.7554597494309409,-0.2825552651693207,-1.6690993614607135,0.1414185955172306,2.4034451173676383,1.0273381002308042,-0.001483438151334866,0.0003394916613993112,4.556252924036986e-05,0.0005894859631019054,-2.917462168336866e-05,0.00020761721551259413,-5.368915535711944e-05,0.0,0.0,0.0,0.0,0.0,0.0,0.0,-0.00010717065710774687,-0.00019795093301500089,-0.0001271771946436684,0.00010986979881666414,9.387391154863645e-05,2.7920405069714604e-05,-2.9866255543575804e-05,0.001483438151334866,-0.0003394916613993112,-4.556252924036986e-05,-0.0005894859631019054,2.917462168336866e-05,-0.00020761721551259413,5.368915535711944e-05,0.8076412081718445,46.67495346069336,5.786648273468018,-19.559053421020508,-0.8022971749305725,-2.3724398612976074,0.41965049505233765,0
30,0.1450183391571045,-0.8076412081718445,-46.67495346069336,-5.786648273468018,19.559053421020508,0.8022971749305725,2.3724398612976074,-0.41965049505233765,0.0,0.0,0.0,0.0,0.0,0.0,0.0,-0.8427378183135938,-0.33796458049809913,-0.5962955179228517,0.39194088149721273,0.21702060531419506,0.11514126552976525,-0.4133649420134052,0.8782000467275317,0.7556577003639559,-0.28242808797467706,-1.6692092312595301,0.14132472160568196,2.4034171969625686,1.0273679664863478,0.878092876070424,0.7554597494309409,-0.2825552651693207,-1.6690993614607135,0.1414185955172306,2.4034451173676383,1.0273381002308042,-0.001483438151334866,0.0003394916613993112,4.556252924036986e-05,0.0005894859631019054,-2.917462168336866e-05,0.00020761721551259413,-5.368915535711944e-05,0.0,0.0,0.0,0.0,0.0,0.0,0.0,-0.00010717065710774687,-0.00019795093301500089,-0.0001271771946436684,0.00010986979881666414,9.387391154863645e-05,2.7920405069714604e-05,-2.9866255543575804e-05,0.001483438151334866,-0.0003394916613993112,-4.556252924036986e-05,-0.0005894859631019054,2.917462168336866e-05,-0.00020761721551259413,5.368915535711944e-05,0.8076412081718445,46.67495346069336,5.786648273468018,-19.559053421020508,-0.8022971749305725,-2.3724398612976074,0.41965049505233765,0
31,0.15000438690185547,-0.8076412081718445,-46.64718246459961,-5.762844562530518,19.586824417114258,0.8087058663368225,2.3724398612976074,-0.38577598333358765,0.0,0.0,0.0,0.0,0.0,0.0,0.0,-0.8242046250060255,-0.3334701480707014,-0.5821838418512026,0.39308799033386854,0.2168374171734653,0.1149404181165565,-0.4128988081767723,0.8782000457463853,0.7556560033482842,-0.2824307062997015,-1.6692111801013612,0.14132399636514464,2.4034171969625686,1.0273642026517125,0.878092876070424,0.7554597494309409,-0.2825552651693207,-1.6690993614607135,0.1414185955172306,2.4034451173676383,1.0273381002308042,-0.00036218443490414453,-0.00022964936249723962,0.00038313046040440576,0.0005190090061627543,-0.00020518149472642093,0.0001389533088828593,-0.0007553390178899476,0.0,0.0,0.0,0.0,0.0,0.0,0.0,-0.00010716967596136051,-0.00019625391734334752,-0.0001245588696192068,0.00011181864064768732,9.45991520859557e-05,2.7920405069714604e-05,-2.610242090828052e-05,0.00036218443490414453,0.00022964936249723962,-0.00038313046040440576,-0.0005190090061627543,0.00020518149472642093,-0.0001389533088828593,0.0007553390178899476,0.8076412081718445,46.64718246459961,5.762844562530518,-19.586824417114258,-0.8087058663368225,-2.3724398612976074,0.38577598333358765,0
32,0.15576958656311035,-0.8076412081718445,-46.64718246459961,-5.762844562530518,19.586824417114258,0.8087058663368225,2.3724398612976074,-0.38577598333358765,0.0,0.0,0.0,0.0,0.0,0.0,0.0,-0.8242046250060255,-0.3334701480707014,-0.5821838418512026,0.39308799033386854,0.2168374171734653,0.1149404181165565,-0.4128988081767723,0.8782000457463853,0.7556560033482842,-0.2824307062997015,-1.6692111801013612,0.14132399636514464,2.4034171969625686,1.0273642026517125,0.878092876070424,0.7554597494309409,-0.2825552651693207,-1.6690993614607135,0.1414185955172306,2.4034451173676383,1.0273381002308042,-0.00036218443490414453,-0.00022964936249723962,0.00038313046040440576,0.0005190090061627543,-0.00020518149472642093,0.0001389533088828593,-0.0007553390178899476,0.0,0.0,0.0,0.0,0.0,0.0,0.0,-0.00010716967596136051,-0.00019625391734334752,-0.0001245588696192068,0.00011181864064768732,9.45991520859557e-05,2.7920405069714604e-05,-2.610242090828052e-05,0.00036218443490414453,0.00022964936249723962,-0.00038313046040440576,-0.0005190090061627543,0.00020518149472642093,-0.0001389533088828593,0.0007553390178899476,0.8076412081718445,46.64718246459961,5.762844562530518,-19.586824417114258,-0.8087058663368225,-2.3724398612976074,0.38577598333358765,0
33,0.15999650955200195,-0.8076412081718445,-46.67495346069336,-5.762844562530518,19.586824417114258,0.8022971749305725,2.3788485527038574,-0.44711631536483765,0.0,0.0,0.0,0.0,0.0,0.0,0.0,-0.8296562874284679,-0.32991330501924315,-0.5858442742002663,0.3905853999476073,0.21697563526696623,0.11426058553808448,-0.4131866777435684,0.8782000467275262,0.755657223690323,-0.2824321079716299,-1.6692112065923144,0.14132470844189327,2.4034164848857458,1.0273709789983037,0.878092876070424,0.7554597494309409,-0.2825552651693207,-1.6690993614607135,0.1414185955172306,2.4034451173676383,1.0273381002308042,-0.000141052439713486,0.00021373369743903564,0.0005609160074025292,0.0002991306623388025,-0.00014940449304727457,9.815548435044068e-05,0.0014395835400675767,0.0,0.0,0.0,0.0,0.0,0.0,0.0,-0.00010717065710219575,-0.00019747425938210217,-0.00012315719769084854,0.00011184513160089615,9.388707533733442e-05,2.8632481892554296e-05,-3.287876749946683e-05,0.000141052439713486,-0.00021373369743903564,-0.0005609160074025292,-0.0002991306623388025,0.00014940449304727457,-9.815548435044068e-05,-0.0014395835400675767,0.8076412081718445,46.67495346069336,5.762844562530518,-19.586824417114258,-0.8022971749305725,-2.3788485527038574,0.44711631536483765,0
34,0.1649935245513916,-0.8076412081718445,-46.67495346069336,-5.762844562530518,19.586824417114258,0.8022971749305725,2.3788485527038574,-0.44711631536483765,0.0,0.0,0.0,0.0,0.0,0.0,0.0,-0.8296562874284679,-0.32991330501924315,-0.5858442742002663,0.3905853999476073,0.21697563526696623,0.11426058553808448,-0.4131866777435684,0.8782000467275262,0.755657223690323,-0.2824321079716299,-1.6692112065923144,0.14132470844189327,2.4034164848857458,1.0273709789983037,0.878092876070424,0.7554597494309409,-0.2825552651693207,-1.6690993614607135,0.1414185955172306,2.4034451173676383,1.0273381002308042,-0.000141052439713486,0.00021373369743903564,0.0005609160074025292,0.0002991306623388025,-0.00014940449304727457,9.815548435044068e-05,0.0014395835400675767,0.0,0.0,0.0,0.0,0.0,0.0,0.0,-0.00010717065710219575,-0.00019747425938210217,-0.00012315719769084854,0.00011184513160089615,9.388707533733442e-05,2.8632481892554296e-05,-3.287876749946683e-05,0.000141052439713486,-0.00021373369743903564,-0.0005609160074025292,-0.0002991306623388025,0.00014940449304727457,-9.815548435044068e-05,-0.0014395835400675767,0.8076412081718445,46.67495346069336,5.762844562530518,-19.586824417114258,-0.8022971749305725,-2.3788485527038574,0.44711631536483765,0
35,0.16999578475952148,-0.7838374972343445,-46.69875717163086,-5.735073566436768,19.586824417114258,0.8022971749305725,2.3852572441101074,-0.45352500677108765,0.0,0.0,0.0,0.0,0.0,0.0,0.0,-0.8271337976719836,-0.33447852787141025,-0.585398176093145,0.3926476960905011,0.21679845383259705,0.11458818277442827,-0.41447867999723814,0.8781983762916764,0.7556596226232798,-0.2824324738297863,-1.6692111801378493,0.14132470844189327,2.4034157728089225,1.027371730320762,0.878092876070424,0.7554597494309409,-0.2825552651693207,-1.6690993614607135,0.1414185955172306,2.4034451173676383,1.0273381002308042,-0.00031946523468112545,0.0007758209125309763,-0.0005209836624874863,0.00033824887918922146,0.00012081541570501017,-0.00026779484412179744,0.001309539318129894,0.0,0.0,0.0,0.0,0.0,0.0,0.0,-0.0001055002212524414,-0.00019987319233893963,-0.00012279133953441157,0.00011181867713583316,9.388707533733442e-05,2.9344558715838076e-05,-3.363008995771466e-05,0.00031946523468112545,-0.0007758209125309763,0.0005209836624874863,-0.00033824887918922146,-0.00012081541570501017,0.00026779484412179744,-0.001309539318129894,0.7838374972343445,46.69875717163086,5.735073566436768,-19.586824417114258,-0.8022971749305725,-2.3852572441101074,0.45352500677108765,0
36,0.17499518394470215,-0.7838374972343445,-46.69875717163086,-5.735073566436768,19.586824417114258,0.8022971749305725,2.3852572441101074,-0.45352500677108765,0.0,0.0,0.0,0.0,0.0,0.0,0.0,-0.8271337976719836,-0.33447852787141025,-0.585398176093145,0.3926476960905011,0.21679845383259705,0.11458818277442827,-0.41447867999723814,0.8781983762916764,0.7556596226232798,-0.2824324738297863,-1.6692111801378493,0.14132470844189327,2.4034157728089225,1.027371730320762,0.878092876070424,0.7554597494309409,-0.2825552651693207,-1.6690993614607135,0.1414185955172306,2.4034451173676383,1.0273381002308042,-0.00031946523468112545,0.0007758209125309763,-0.0005209836624874863,0.00033824887918922146,0.00012081541570501017,-0.00026779484412179744,0.001309539318129894,0.0,0.0,0.0,0.0,0.0,0.0,0.0,-0.0001055002212524414,-0.00019987319233893963,-0.00012279133953441157,0.00011181867713583316,9.388707533733442e-05,2.9344558715838076e-05,-3.363008995771466e-05,0.00031946523468112545,-0.0007758209125309763,0.0005209836624874863,-0.00033824887918922146,-0.00012081541570501017,0.00026779484412179744,-0.001309539318129894,0.7838374972343445,46.69875717163086,5.735073566436768,-19.586824417114258,-0.8022971749305725,-2.3852572441101074,0.45352500677108765,0
37,0.1799945831298828,-0.7838374972343445,-46.69875717163086,-5.735073566436768,19.610628128051758,0.7903953194618225,2.3788485527038574,-0.39218467473983765,0.0,0.0,0.0,0.0,0.0,0.0,0.0,-0.8189421543480796,-0.32942308181104124,-0.5832369555094065,0.3884917093784297,0.21696692238966983,0.11414667564087722,-0.4158836039804862,0.8781983498007232,0.7556574361244345,-0.28243202336159146,-1.6692128505372164,0.14132603087027867,2.4034164848857458,1.0273649147285353,0.878092876070424,0.7554597494309409,-0.2825552651693207,-1.6690993614607135,0.1414185955172306,2.4034451173676383,1.0273381002308042,-4.586278032009454e-05,0.0006860031023782473,-2.976069817961058e-05,-0.0005411520942335843,0.0003617250362914187,3.1939675793438354e-05,-0.0009560915115763154,0.0,0.0,0.0,0.0,0.0,0.0,0.0,-0.00010547373029923257,-0.0001976866934936261,-0.00012324180772926852,0.00011348907650288176,9.25646469519259e-05,2.8632481892554296e-05,-2.6814497731120213e-05,4.586278032009454e-05,-0.0006860031023782473,2.976069817961058e-05,0.0005411520942335843,-0.0003617250362914187,-3.1939675793438354e-05,0.0009560915115763154,0.7838374972343445,46.69875717163086,5.735073566436768,-19.610628128051758,-0.7903953194618225,-2.3788485527038574,0.39218467473983765,0
38,0.18499255180358887,-0.7838374972343445,-46.69875717163086,-5.735073566436768,19.610628128051758,0.7903953194618225,2.3788485527038574,-0.39218467473983765,0.0,0.0,0.0,0.0,0.0,0.0,0.0,-0.8189421543480796,-0.32942308181104124,-0.5832369555094065,0.3884917093784297,0.21696692238966983,0.11414667564087722,-0.4158836039804862,0.8781983498007232,0.7556574361244345,-0.28243202336159146,-1.6692128505372164,0.14132603087027867,2.4034164848857458,1.0273649147285353,0.878092876070424,0.7554597494309409,-0.2825552651693207,-1.6690993614607135,0.1414185955172306,2.4034451173676383,1.0273381002308042,-4.586278032009454e-05,0.0006860031023782473,-2.976069817961058e-05,-0.0005411520942335843,0.0003617250362914187,3.1939675793438354e-05,-0.0009560915115763154,0.0,0.0,0.0,0.0,0.0,0.0,0.0,-0.00010547373029923257,-0.0001976866934936261,-0.00012324180772926852,0.00011348907650288176,9.25646469519259e-05,2.8632481892554296e-05,-2.6814497731120213e-05,4.586278032009454e-05,-0.0006860031023782473,2.976069817961058e-05,0.0005411520942335843,-0.0003617250362914187,-3.1939675793438354e-05,0.0009560915115763154,0.7838374972343445,46.69875717163086,5.735073566436768,-19.610628128051758,-0.7903953194618225,-2.3788485527038574,0.39218467473983765,0
39,0.19004321098327637,-0.8354122042655945,-46.64718246459961,-5.762844562530518,19.610628128051758,0.7968040108680725,2.3788485527038574,-0.39218467473983765,0.0,0.0,0.0,0.0,0.0,0.0,0.0,-0.8237381530270022,-0.3292902100748692,-0.5880840052377336,0.3860070504142186,0.21599738943511332,0.11424916610662375,-0.4161699420313566,0.8782019952418654,0.7556538178090353,-0.2824300485920327,-1.6692128505372164,0.14132532025609068,2.4034164848857458,1.0273649147285353,0.878092876070424,0.7554597494309409,-0.2825552651693207,-1.6690993614607135,0.1414185955172306,2.4034451173676383,1.0273381002308042,0.0007133174825193948,-0.00026884347323064315,0.0003632518706141174,-0.00044461033002623026,0.001414237458451042,-3.6527798988234655e-05,-0.0013788758050921337,0.0,0.0,0.0,0.0,0.0,0.0,0.0,-0.00010911917144140748,-0.00019406837809443633,-0.00012521657728803426,0.00011348907650288176,9.327526113991902e-05,2.8632481892554296e-05,-2.6814497731120213e-05,-0.0007133174825193948,0.00026884347323064315,-0.0003632518706141174,0.00044461033002623026,-0.001414237458451042,3.6527798988234655e-05,0.0013788758050921337,0.8354122042655945,46.64718246459961,5.762844562530518,-19.610628128051758,-0.7968040108680725,-2.3788485527038574,0.39218467473983765,0
40,0.19503569602966309,-0.8354122042655945,-46.64718246459961,-5.762844562530518,19.610628128051758,0.7968040108680725,2.3788485527038574,-0.39218467473983765,0.0,0.0,0.0,0.0,0.0,0.0,0.0,-0.8237381530270022,-0.3292902100748692,-0.5880840052377336,0.3860070504142186,0.21599738943511332,0.11424916610662375,-0.4161699420313566,0.8782019952418654,0.7556538178090353,-0.2824300485920327,-1.6692128505372164,0.14132532025609068,2.4034164848857458,1.0273649147285353,0.878092876070424,0.7554597494309409,-0.2825552651693207,-1.6690993614607135,0.1414185955172306,2.4034451173676383,1.0273381002308042,0.0007133174825193948,-0.00026884347323064315,0.0003632518706141174,-0.00044461033002623026,0.001414237458451042,-3.6527798988234655e-05,-0.0013788758050921337,0.0,0.0,0.0,0.0,0.0,0.0,0.0,-0.00010911917144140748,-0.00019406837809443633,-0.00012521657728803426,0.00011348907650288176,9.327526113991902e-05,2.8632481892554296e-05,-2.6814497731120213e-05,-0.0007133174825193948,0.00026884347323064315,-0.0003632518706141174,0.00044461033002623026,-0.001414237458451042,3.6527798988234655e-05,0.0013788758050921337,0.8354122042655945,46.64718246459961,5.762844562530518,-19.610628128051758,-0.7968040108680725,-2.3788485527038574,0.39218467473983765,0
41,0.20002317428588867,-0.8076412081718445,-46.64718246459961,-5.762844562530518,19.610628128051758,0.8022971749305725,2.3852572441101074,-0.44711631536483765,0.0,0.0,0.0,0.0,0.0,0.0,0.0,-0.8224403050146067,-0.34106236823412334,-0.5859513119224892,0.3929805537806192,0.2172107774451102,0.11476745402233876,-0.41757877336325605,0.8782000467275316,0.7556538175125017,-0.28243288734750244,-1.6692149963044283,0.14132470844189357,2.4034157728089225,1.0273710182441602,0.878092876070424,0.7554597494309409,-0.2825552651693207,-1.6690993614607135,0.1414185955172306,2.4034451173676383,1.0273381002308042,-0.00041635722062312476,-0.00037182894310741534,-0.00016082300678239153,-0.00015171757260200428,4.513982205817035e-05,-0.0002497226963641787,0.0014543699554412806,0.0,0.0,0.0,0.0,0.0,0.0,0.0,-0.00010717065710763585,-0.00019406808156086086,-0.00012237782181828694,0.00011563484371479582,9.388707533702911e-05,2.9344558715838076e-05,-3.2918013356031395e-05,0.00041635722062312476,0.00037182894310741534,0.00016082300678239153,0.00015171757260200428,-4.513982205817035e-05,0.0002497226963641787,-0.0014543699554412806,0.8076412081718445,46.64718246459961,5.762844562530518,-19.610628128051758,-0.8022971749305725,-2.3852572441101074,0.44711631536483765,0
42,0.2049999237060547,-0.8076412081718445,-46.64718246459961,-5.762844562530518,19.610628128051758,0.8022971749305725,2.3852572441101074,-0.44711631536483765,0.0,0.0,0.0,0.0,0.0,0.0,0.0,-0.8224403050146067,-0.34106236823412334,-0.5859513119224892,0.3929805537806192,0.2172107774451102,0.11476745402233876,-0.41757877336325605,0.8782000467275316,0.7556538175125017,-0.28243288734750244,-1.6692149963044283,0.14132470844189357,2.4034157728089225,1.0273710182441602,0.878092876070424,0.7554597494309409,-0.2825552651693207,-1.6690993614607135,0.1414185955172306,2.4034451173676383,1.0273381002308042,-0.00041635722062312476,-0.00037182894310741534,-0.00016082300678239153,-0.00015171757260200428,4.513982205817035e-05,-0.0002497226963641787,0.0014543699554412806,0.0,0.0,0.0,0.0,0.0,0.0,0.0,-0.00010717065710763585,-0.00019406808156086086,-0.00012237782181828694,0.00011563484371479582,9.388707533702911e-05,2.9344558715838076e-05,-3.2918013356031395e-05,0.00041635722062312476,0.00037182894310741534,0.00016082300678239153,0.00015171757260200428,-4.513982205817035e-05,0.0002497226963641787,-0.0014543699554412806,0.8076412081718445,46.64718246459961,5.762844562530518,-19.610628128051758,-0.8022971749305725,-2.3852572441101074,0.44711631536483765,0
43,0.20999360084533691,-0.8076412081718445,-46.64718246459961,-5.762844562530518,19.610628128051758,0.8022971749305725,2.3852572441101074,-0.44711631536483765,0.0,0.0,0.0,0.0,0.0,0.0,0.0,-0.8224403050146067,-0.34106236823412334,-0.5859513119224892,0.3929805537806192,0.2172107774451102,0.11476745402233876,-0.41757877336325605,0.8782000467275316,0.7556538175125017,-0.28243288734750244,-1.6692149963044283,0.14132470844189357,2.4034157728089225,1.0273710182441602,0.878092876070424,0.7554597494309409,-0.2825552651693207,-1.6690993614607135,0.1414185955172306,2.4034451173676383,1.0273381002308042,-0.00041635722062312476,-0.00037182894310741534,-0.00016082300678239153,-0.00015171757260200428,4.513982205817035e-05,-0.0002497226963641787,0.0014543699554412806,0.0,0.0,0.0,0.0,0.0,0.0,0.0,-0.00010717065710763585,-0.00019406808156086086,-0.00012237782181828694,0.00011563484371479582,9.388707533702911e-05,2.9344558715838076e-05,-3.2918013356031395e-05,0.00041635722062312476,0.00037182894310741534,0.00016082300678239153,0.00015171757260200428,-4.513982205817035e-05,0.0002497226963641787,-0.0014543699554412806,0.8076412081718445,46.64718246459961,5.762844562530518,-19.610628128051758,-0.8022971749305725,-2.3852572441101074,0.44711631536483765,0
44,0.2149968147277832,-0.8076412081718445,-46.64718246459961,-5.762844562530518,19.610628128051758,0.8022971749305725,2.3852572441101074,-0.44711631536483765,0.0,0.0,0.0,0.0,0.0,0.0,0.0,-0.8224403050146067,-0.34106236823412334,-0.5859513119224892,0.3929805537806192,0.2172107774451102,0.11476745402233876,-0.41757877336325605,0.8782000467275316,0.7556538175125017,-0.28243288734750244,-1.6692149963044283,0.14132470844189357,2.4034157728089225,1.0273710182441602,0.878092876070424,0.7554597494309409,-0.2825552651693207,-1.6690993614607135,0.1414185955172306,2.4034451173676383,1.0273381002308042,-0.00041635722062312476,-0.00037182894310741534,-0.00016082300678239153,-0.00015171757260200428,4.513982205817035e-05,-0.0002497226963641787,0.0014543699554412806,0.0,0.0,0.0,0.0,0.0,0.0,0.0,-0.00010717065710763585,-0.00019406808156086086,-0.00012237782181828694,0.00011563484371479582,9.388707533702911e-05,2.9344558715838076e-05,-3.2918013356031395e-05,0.00041635722062312476,0.00037182894310741534,0.00016082300678239153,0.00015171757260200428,-4.513982205817035e-05,0.0002497226963641787,-0.0014543699554412806,0.8076412081718445,46.64718246459961,5.762844562530518,-19.610628128051758,-0.8022971749305725,-2.3852572441101074,0.44711631536483765,0
45,0.22048211097717285,-0.8354122042655945,-46.62337875366211,-5.735073566436768,19.535249710083008,0.7968040108680725,2.3788485527038574,-0.41324180364608765,0.0,0.0,0.0,0.0,0.0,0.0,0.0,-0.8305415966101259,-0.32585477411943037,-0.5889663976515083,0.3868602281626664,0.21744579423559024,0.11405882009255702,-0.41769358251772853,0.8782019955693628,0.7556540630862469,-0.2824324882788415,-1.6692075608357875,0.14132531879345575,2.4034164848857458,1.027367254409525,0.878092876070424,0.7554597494309409,-0.2825552651693207,-1.6690993614607135,0.1414185955172306,2.4034451173676383,1.0273381002308042,-0.00042102295934671856,-0.0003387530209481922,-0.0006389757799156715,0.0012652102982638222,0.0003093496122450896,4.8962990378884435e-05,-0.00032306208114621387,0.0,0.0,0.0,0.0,0.0,0.0,0.0,-0.00010911949893888107,-0.00019431365530608868,-0.000122776890479237,0.0001081993750740029,9.327672377484886e-05,2.8632481892554296e-05,-2.9154178720736112e-05,0.00042102295934671856,0.0003387530209481922,0.0006389757799156715,-0.0012652102982638222,-0.0003093496122450896,-4.8962990378884435e-05,0.00032306208114621387,0.8354122042655945,46.62337875366211,5.735073566436768,-19.535249710083008,-0.7968040108680725,-2.3788485527038574,0.41324180364608765,0
46,0.22499895095825195,-0.8354122042655945,-46.62337875366211,-5.735073566436768,19.535249710083008,0.7968040108680725,2.3788485527038574,-0.41324180364608765,0.0,0.0,0.0,0.0,0.0,0.0,0.0,-0.8305415966101259,-0.32585477411943037,-0.5889663976515083,0.3868602281626664,0.21744579423559024,0.11405882009255702,-0.41769358251772853,0.8782019955693628,0.7556540630862469,-0.2824324882788415,-1.6692075608357875,0.14132531879345575,2.4034164848857458,1.027367254409525,0.878092876070424,0.7554597494309409,-0.2825552651693207,-1.6690993614607135,0.1414185955172306,2.4034451173676383,1.0273381002308042,-0.00042102295934671856,-0.0003387530209481922,-0.0006389757799156715,0.0012652102982638222,0.0003093496122450896,4.8962990378884435e-05,-0.00032306208114621387,0.0,0.0,0.0,0.0,0.0,0.0,0.0,-0.00010911949893888107,-0.00019431365530608868,-0.000122776890479237,0.0001081993750740029,9.327672377484886e-05,2.8632481892554296e-05,-2.9154178720736112e-05,0.00042102295934671856,0.0003387530209481922,0.0006389757799156715,-0.0012652102982638222,-0.0003093496122450896,-4.8962990378884435e-05,0.00032306208114621387,0.8354122042655945,46.62337875366211,5.735073566436768,-19.535249710083008,-0.7968040108680725,-2.3788485527038574,0.41324180364608765,0
47,0.22999286651611328,-0.8354122042655945,-46.69875717163086,-5.711269855499268,19.586824417114258,0.8141990303993225,2.3788485527038574,-0.39218467473983765,0.0,0.0,0.0,0.0,0.0,0.0,0.0,-0.8254145838600533,-0.3347901068260017,-0.5869253583137765,0.39549544786483265,0.21764064569435723,0.11522019021721501,-0.41708352492487727,0.8782019955693628,0.7556571942884892,-0.2824340805576394,-1.6692111801013612,0.14132480915729964,2.4034164848857458,1.0273649147285353,0.878092876070424,0.7554597494309409,-0.2825552651693207,-1.6690993614607135,0.1414185955172306,2.4034451173676383,1.0273381002308042,-7.434204130111865e-05,0.001379277958194618,-0.001775559913988928,0.00010648457591104833,-0.00027998171491843847,1.0760007379253504e-05,-0.0010469151351452347,0.0,0.0,0.0,0.0,0.0,0.0,0.0,-0.00010911949893888107,-0.00019744485754835672,-0.00012118461168131311,0.00011181864064768732,9.378635993095852e-05,2.8632481892554296e-05,-2.6814497731120213e-05,7.434204130111865e-05,-0.001379277958194618,0.001775559913988928,-0.00010648457591104833,0.00027998171491843847,-1.0760007379253504e-05,0.0010469151351452347,0.8354122042655945,46.69875717163086,5.711269855499268,-19.586824417114258,-0.8141990303993225,-2.3788485527038574,0.39218467473983765,0
48,0.23499703407287598,-0.8354122042655945,-46.69875717163086,-5.711269855499268,19.586824417114258,0.8141990303993225,2.3788485527038574,-0.39218467473983765,0.0,0.0,0.0,0.0,0.0,0.0,0.0,-0.8254145838600533,-0.3347901068260017,-0.5869253583137765,0.39549544786483265,0.21764064569435723,0.11522019021721501,-0.41708352492487727,0.8782019955693628,0.7556571942884892,-0.2824340805576394,-1.6692111801013612,0.14132480915729964,2.4034164848857458,1.0273649147285353,0.878092876070424,0.7554597494309409,-0.2825552651693207,-1.6690993614607135,0.1414185955172306,2.4034451173676383,1.0273381002308042,-7.434204130111865e-05,0.001379277958194618,-0.001775559913988928,0.00010648457591104833,-0.00027998171491843847,1.0760007379253504e-05,-0.0010469151351452347,0.0,0.0,0.0,0.0,0.0,0.0,0.0,-0.00010911949893888107,-0.00019744485754835672,-0.00012118461168131311,0.00011181864064768732,9.378635993095852e-05,2.8632481892554296e-05,-2.6814497731120213e-05,7.434204130111865e-05,-0.001379277958194618,0.001775559913988928,-0.00010648457591104833,0.00027998171491843847,-1.0760007379253504e-05,0.0010469151351452347,0.8354122042655945,46.69875717163086,5.711269855499268,-19.586824417114258,-0.8141990303993225,-2.3788485527038574,0.39218467473983765,0
49,0.24015498161315918,-0.8592159152030945,-46.67495346069336,-5.735073566436768,19.610628128051758,0.8087058663368225,2.3788485527038574,-0.37845176458358765,0.0,0.0,0.0,0.0,0.0,0.0,0.0,-0.8293419930901117,-0.32689783261425326,-0.5877221413420304,0.3921923320558878,0.2179413537870892,0.11442605087349562,-0.41612204439858635,0.8782036660052182,0.755657951178513,-0.2824317594698576,-1.6692128505372164,0.14132399637310403,2.403419663800134,1.0273633496037724,0.878092876070424,0.7554597494309409,-0.2825552651693207,-1.6690993614607135,0.1414185955172306,2.4034451173676383,1.0273381002308042,0.00018300002712626443,0.00040926952208739575,-0.0010949693811022677,-0.0005438692446032478,-0.0003143732344416105,8.217038125209456e-05,-0.0016164668482655316,0.0,0.0,0.0,0.0,0.0,0.0,0.0,-0.00011078993479418653,-0.00019820174757212428,-0.0001235056994631223,0.00011348907650288176,9.459914412657255e-05,2.5453567504385433e-05,-2.5249372968216832e-05,-0.00018300002712626443,-0.00040926952208739575,0.0010949693811022677,0.0005438692446032478,0.0003143732344416105,-8.217038125209456e-05,0.0016164668482655316,0.8592159152030945,46.67495346069336,5.735073566436768,-19.610628128051758,-0.8087058663368225,-2.3788485527038574,0.37845176458358765,0
50,0.24499750137329102,-0.8592159152030945,-46.67495346069336,-5.735073566436768,19.610628128051758,0.8087058663368225,2.3788485527038574,-0.37845176458358765,0.0,0.0,0.0,0.0,0.0,0.0,0.0,-0.8293419930901117,-0.32689783261425326,-0.5877221413420304,0.3921923320558878,0.2179413537870892,0.11442605087349562,-0.41612204439858635,0.8782036660052182,0.755657951178513,-0.2824317594698576,-1.6692128505372164,0.14132399637310403,2.403419663800134,1.0273633496037724,0.878092876070424,0.7554597494309409,-0.2825552651693207,-1.6690993614607135,0.1414185955172306,2.4034451173676383,1.0273381002308042,0.00018300002712626443,0.00040926952208739575,-0.0010949693811022677,-0.0005438692446032478,-0.0003143732344416105,8.217038125209456e-05,-0.0016164668482655316,0.0,0.0,0.0,0.0,0.0,0.0,0.0,-0.00011078993479418653,-0.00019820174757212428,-0.0001235056994631223,0.00011348907650288176,9.459914412657255e-05,2.5453567504385433e-05,-2.5249372968216832e-05,-0.00018300002712626443,-0.00040926952208739575,0.0010949693811022677,0.0005438692446032478,0.0003143732344416105,-8.217038125209456e-05,0.0016164668482655316,0.8592159152030945,46.67495346069336,5.735073566436768,-19.610628128051758,-0.8087058663368225,-2.3788485527038574,0.37845176458358765,0
51,0.24995803833007812,-0.8592159152030945,-46.67495346069336,-5.735073566436768,19.610628128051758,0.8087058663368225,2.3788485527038574,-0.37845176458358765,0.0,0.0,0.0,0.0,0.0,0.0,0.0,-0.8293419930901117,-0.32689783261425326,-0.5877221413420304,0.3921923320558878,0.2179413537870892,0.11442605087349562,-0.41612204439858635,0.8782036660052182,0.755657951178513,-0.2824317594698576,-1.6692128505372164,0.14132399637310403,2.403419663800134,1.0273633496037724,0.878092876070424,0.7554597494309409,-0.2825552651693207,-1.6690993614607135,0.1414185955172306,2.4034451173676383,1.0273381002308042,0.00018300002712626443,0.00040926952208739575,-0.0010949693811022677,-0.0005438692446032478,-0.0003143732344416105,8.217038125209456e-05,-0.0016164668482655316,0.0,0.0,0.0,0.0,0.0,0.0,0.0,-0.00011078993479418653,-0.00019820174757212428,-0.0001235056994631223,0.00011348907650288176,9.459914412657255e-05,2.5453567504385433e-05,-2.5249372968216832e-05,-0.00018300002712626443,-0.00040926952208739575,0.0010949693811022677,0.0005438692446032478,0.0003143732344416105,-8.217038125209456e-05,0.0016164668482655316,0.8592159152030945,46.67495346069336,5.735073566436768,-19.610628128051758,-0.8087058663368225,-2.3788485527038574,0.37845176458358765,0
52,0.25499749183654785,-0.8354122042655945,-46.67495346069336,-5.687466144561768,19.559053421020508,0.8022971749305725,2.3852572441101074,-0.41965049505233765,0.0,0.0,0.0,0.0,0.0,0.0,0.0,-0.8158825062591241,-0.3342987815671003,-0.576741766965357,0.3967363991356867,0.21789278806873763,0.11489551801553229,-0.4158080546889442,0.8782019955693628,0.7556577093577932,-0.28243572406168926,-1.6692092312595301,0.14132470849606496,2.4034157728268672,1.0273679664861264,0.878092876070424,0.7554597494309409,-0.2825552651693207,-1.6690993614607135,0.1414185955172306,2.4034451173676383,1.0273381002308042,4.892449570741196e-05,4.245021029025395e-05,-0.0015155942084358453,0.0010178817574159709,0.00018190491189174388,-0.00013137836976980915,0.0008077594625403626,0.0,0.0,0.0,0.0,0.0,0.0,0.0,-0.00010911949893888107,-0.00019795992685234243,-0.00011954110763146009,0.00010986979881666414,9.388702116563952e-05,2.9344540771081284e-05,-2.9866255322197333e-05,-4.892449570741196e-05,-4.245021029025395e-05,0.0015155942084358453,-0.0010178817574159709,-0.00018190491189174388,0.00013137836976980915,-0.0008077594625403626,0.8354122042655945,46.67495346069336,5.687466144561768,-19.559053421020508,-0.8022971749305725,-2.3852572441101074,0.41965049505233765,0
53,0.26003408432006836,-0.8354122042655945,-46.67495346069336,-5.687466144561768,19.559053421020508,0.8022971749305725,2.3852572441101074,-0.41965049505233765,0.0,0.0,0.0,0.0,0.0,0.0,0.0,-0.8158825062591241,-0.3342987815671003,-0.576741766965357,0.3967363991356867,0.21789278806873763,0.11489551801553229,-0.4158080546889442,0.8782019955693628,0.7556577093577932,-0.28243572406168926,-1.6692092312595301,0.14132470849606496,2.4034157728268672,1.0273679664861264,0.878092876070424,0.7554597494309409,-0.2825552651693207,-1.6690993614607135,0.1414185955172306,2.4034451173676383,1.0273381002308042,4.892449570741196e-05,4.245021029025395e-05,-0.0015155942084358453,0.0010178817574159709,0.00018190491189174388,-0.00013137836976980915,0.0008077594625403626,0.0,0.0,0.0,0.0,0.0,0.0,0.0,-0.00010911949893888107,-0.00019795992685234243,-0.00011954110763146009,0.00010986979881666414,9.388702116563952e-05,2.9344540771081284e-05,-2.9866255322197333e-05,-4.892449570741196e-05,-4.245021029025395e-05,0.0015155942084358453,-0.0010178817574159709,-0.00018190491189174388,0.00013137836976980915,-0.0008077594625403626,0.8354122042655945,46.67495346069336,5.687466144561768,-19.559053421020508,-0.8022971749305725,-2.3852572441101074,0.41965049505233765,0
54,0.26531291007995605,-0.8354122042655945,-46.67495346069336,-5.762844562530518,19.586824417114258,0.8087058663368225,2.3852572441101074,-0.43338340520858765,0.0,0.0,0.0,0.0,0.0,0.0,0.0,-0.8395615935354768,-0.3251304358571049,-0.5901787152376241,0.3877863556934628,0.21822036003181527,0.1150842412848686,-0.41477038741274147,0.8782019955693628,0.7556579431593122,-0.2824321503410844,-1.6692112595742208,0.14132435227290482,2.4034157728089225,1.027369492365254,0.878092876070424,0.7554597494309409,-0.2825552651693207,-1.6690993614607135,0.1414185955172306,2.4034451173676383,1.0273381002308042,0.00010104806652606581,0.00047572516530481007,-3.622397247379418e-05,0.0002058207099451215,-0.00013110507358257174,-9.895626281443416e-05,0.0002515096127960427,0.0,0.0,0.0,0.0,0.0,0.0,0.0,-0.00010911949893888107,-0.0001981937283713764,-0.00012311482823634812,0.00011189811350731382,9.424324432577569e-05,2.9344558715838076e-05,-3.139213444991462e-05,-0.00010104806652606581,-0.00047572516530481007,3.622397247379418e-05,-0.0002058207099451215,0.00013110507358257174,9.895626281443416e-05,-0.0002515096127960427,0.8354122042655945,46.67495346069336,5.762844562530518,-19.586824417114258,-0.8087058663368225,-2.3852572441101074,0.43338340520858765,0
55,0.2700026035308838,-0.8354122042655945,-46.67495346069336,-5.762844562530518,19.586824417114258,0.8087058663368225,2.3852572441101074,-0.43338340520858765,0.0,0.0,0.0,0.0,0.0,0.0,0.0,-0.8395615935354768,-0.3251304358571049,-0.5901787152376241,0.3877863556934628,0.21822036003181527,0.1150842412848686,-0.41477038741274147,0.8782019955693628,0.7556579431593122,-0.2824321503410844,-1.6692112595742208,0.14132435227290482,2.4034157728089225,1.027369492365254,0.878092876070424,0.7554597494309409,-0.2825552651693207,-1.6690993614607135,0.1414185955172306,2.4034451173676383,1.0273381002308042,0.00010104806652606581,0.00047572516530481007,-3.622397247379418e-05,0.0002058207099451215,-0.00013110507358257174,-9.895626281443416e-05,0.0002515096127960427,0.0,0.0,0.0,0.0,0.0,0.0,0.0,-0.00010911949893888107,-0.0001981937283713764,-0.00012311482823634812,0.00011189811350731382,9.424324432577569e-05,2.9344558715838076e-05,-3.139213444991462e-05,-0.00010104806652606581,-0.00047572516530481007,3.622397247379418e-05,-0.0002058207099451215,0.00013110507358257174,9.895626281443416e-05,-0.0002515096127960427,0.8354122042655945,46.67495346069336,5.762844562530518,-19.586824417114258,-0.8087058663368225,-2.3852572441101074,0.43338340520858765,0
56,0.2749927043914795,-0.7838374972343445,-46.67495346069336,-5.711269855499268,19.586824417114258,0.8087058663368225,2.3788485527038574,-0.41965049505233765,0.0,0.0,0.0,0.0,0.0,0.0,0.0,-0.8289244406014961,-0.3321907271879248,-0.5833267993762131,0.38891985728264467,0.21816394693790517,0.11586483063078062,-0.41649687810288993,0.8781982850450597,0.7556572226909561,-0.28243369837184634,-1.6692133258690216,0.14132510211909033,2.4034164848857458,1.0273647875719598,0.878092876070424,0.7554597494309409,-0.2825552651693207,-1.6690993614607135,0.1414185955172306,2.4034451173676383,1.0273381002308042,-0.000838440786931231,-6.55714739881238e-05,-0.0008349876388182715,0.00010119289709264197,-0.00011332293676336101,-1.5253163049227245e-05,0.00013986616466642136,0.0,0.0,0.0,0.0,0.0,0.0,0.0,-0.00010540897463573451,-0.00019747326001529064,-0.0001215667974743817,0.00011396440830813148,9.34933981402708e-05,2.8632481892554296e-05,-2.6687341155628985e-05,0.000838440786931231,6.55714739881238e-05,0.0008349876388182715,-0.00010119289709264197,0.00011332293676336101,1.5253163049227245e-05,-0.00013986616466642136,0.7838374972343445,46.67495346069336,5.711269855499268,-19.586824417114258,-0.8087058663368225,-2.3788485527038574,0.41965049505233765,0
57,0.27999401092529297,-0.7838374972343445,-46.67495346069336,-5.711269855499268,19.586824417114258,0.8087058663368225,2.3788485527038574,-0.41965049505233765,0.0,0.0,0.0,0.0,0.0,0.0,0.0,-0.8289244406014961,-0.3321907271879248,-0.5833267993762131,0.38891985728264467,0.21816394693790517,0.11586483063078062,-0.41649687810288993,0.8781982850450597,0.7556572226909561,-0.28243369837184634,-1.6692133258690216,0.14132510211909033,2.4034164848857458,1.0273647875719598,0.878092876070424,0.7554597494309409,-0.2825552651693207,-1.6690993614607135,0.1414185955172306,2.4034451173676383,1.0273381002308042,-0.000838440786931231,-6.55714739881238e-05,-0.0008349876388182715,0.00010119289709264197,-0.00011332293676336101,-1.5253163049227245e-05,0.00013986616466642136,0.0,0.0,0.0,0.0,0.0,0.0,0.0,-0.00010540897463573451,-0.00019747326001529064,-0.0001215667974743817,0.00011396440830813148,9.34933981402708e-05,2.8632481892554296e-05,-2.6687341155628985e-05,0.000838440786931231,6.55714739881238e-05,0.0008349876388182715,-0.00010119289709264197,0.00011332293676336101,1.5253163049227245e-05,-0.00013986616466642136,0.7838374972343445,46.67495346069336,5.711269855499268,-19.586824417114258,-0.8087058663368225,-2.3788485527038574,0.41965049505233765,0
58,0.2850074768066406,-0.7560665011405945,-46.62337875366211,-5.735073566436768,19.610628128051758,0.8022971749305725,2.3852572441101074,-0.46084922552108765,0.0,0.0,0.0,0.0,0.0,0.0,0.0,-0.8145945034956474,-0.3238314627254338,-0.5731263410649838,0.38132736012898294,0.2179093115545946,0.11439128897621845,-0.4170609279619319,0.8781964186179823,0.7556542516238118,-0.2824341252922029,-1.669212850573555,0.14132470992325422,2.4034157728089225,1.0273725440692314,0.878092876070424,0.7554597494309409,-0.2825552651693207,-1.6690993614607135,0.1414185955172306,2.4034451173676383,1.0273381002308042,-0.0008189699360201968,-0.0008865113951034312,3.6242174233889424e-05,-0.0012163826926609484,-5.05839724032221e-05,-0.00012622164057523398,0.0012551144759589438,0.0,0.0,0.0,0.0,0.0,0.0,0.0,-0.00010354254755828851,-0.00019450219287098225,-0.00012113987711781515,0.00011348911284159158,9.388559397638385e-05,2.9344558715838076e-05,-3.444383842721166e-05,0.0008189699360201968,0.0008865113951034312,-3.6242174233889424e-05,0.0012163826926609484,5.05839724032221e-05,0.00012622164057523398,-0.0012551144759589438,0.7560665011405945,46.62337875366211,5.735073566436768,-19.610628128051758,-0.8022971749305725,-2.3852572441101074,0.46084922552108765,0
59,0.2900278568267822,-0.7560665011405945,-46.62337875366211,-5.735073566436768,19.610628128051758,0.8022971749305725,2.3852572441101074,-0.46084922552108765,0.0,0.0,0.0,0.0,0.0,0.0,0.0,-0.8145945034956474,-0.3238314627254338,-0.5731263410649838,0.38132736012898294,0.2179093115545946,0.11439128897621845,-0.4170609279619319,0.8781964186179823,0.7556542516238118,-0.2824341252922029,-1.669212850573555,0.14132470992325422,2.4034157728089225,1.0273725440692314,0.878092876070424,0.7554597494309409,-0.2825552651693207,-1.6690993614607135,0.1414185955172306,2.4034451173676383,1.0273381002308042,-0.0008189699360201968,-0.0008865113951034312,3.6242174233889424e-05,-0.0012163826926609484,-5.05839724032221e-05,-0.00012622164057523398,0.0012551144759589438,0.0,0.0,0.0,0.0,0.0,0.0,0.0,-0.00010354254755828851,-0.00019450219287098225,-0.00012113987711781515,0.00011348911284159158,9.388559397638385e-05,2.9344558715838076e-05,-3.444383842721166e-05,0.0008189699360201968,0.0008865113951034312,-3.6242174233889424e-05,0.0012163826926609484,5.05839724032221e-05,0.00012622164057523398,-0.0012551144759589438,0.7560665011405945,46.62337875366211,5.735073566436768,-19.610628128051758,-0.8022971749305725,-2.3852572441101074,0.46084922552108765,0
60,0.29512763023376465,-0.7838374972343445,-46.64718246459961,-5.762844562530518,19.559053421020508,0.7968040108680725,2.3852572441101074,-0.37845176458358765,0.0,0.0,0.0,0.0,0.0,0.0,0.0,-0.8235529130003153,-0.34026398510105776,-0.5842468203131402,0.38841536193905646,0.21853058043977755,0.11577315476506897,-0.4176176368206518,0.8781983762916266,0.7556560003512994,-0.2824318413422869,-1.6692092312595301,0.1413253187934641,2.4034157728089225,1.0273633888496287,0.878092876070424,0.7554597494309409,-0.2825552651693207,-1.6690993614607135,0.1414185955172306,2.4034451173676383,1.0273381002308042,-0.00011832254306396014,-0.0004057901795681997,0.0002431007081343947,0.0007693676142100989,0.000288462241846191,-0.00030166611550072207,-0.0012341083513818835,0.0,0.0,0.0,0.0,0.0,0.0,0.0,-0.00010550022120259239,-0.00019625092035857605,-0.0001234238270338417,0.00010986979881666414,9.327672376649443e-05,2.9344558715838076e-05,-2.528861882455935e-05,0.00011832254306396014,0.0004057901795681997,-0.0002431007081343947,-0.0007693676142100989,-0.000288462241846191,0.00030166611550072207,0.0012341083513818835,0.7838374972343445,46.64718246459961,5.762844562530518,-19.559053421020508,-0.7968040108680725,-2.3852572441101074,0.37845176458358765,0
61,0.30001330375671387,-0.7838374972343445,-46.64718246459961,-5.762844562530518,19.559053421020508,0.7968040108680725,2.3852572441101074,-0.37845176458358765,0.0,0.0,0.0,0.0,0.0,0.0,0.0,-0.8235529130003153,-0.34026398510105776,-0.5842468203131402,0.38841536193905646,0.21853058043977755,0.11577315476506897,-0.4176176368206518,0.8781983762916266,0.7556560003512994,-0.2824318413422869,-1.6692092312595301,0.1413253187934641,2.4034157728089225,1.0273633888496287,0.878092876070424,0.7554597494309409,-0.2825552651693207,-1.6690993614607135,0.1414185955172306,2.4034451173676383,1.0273381002308042,-0.00011832254306396014,-0.0004057901795681997,0.0002431007081343947,0.0007693676142100989,0.000288462241846191,-0.00030166611550072207,-0.0012341083513818835,0.0,0.0,0.0,0.0,0.0,0.0,0.0,-0.00010550022120259239,-0.00019625092035857605,-0.0001234238270338417,0.00010986979881666414,9.327672376649443e-05,2.9344558715838076e-05,-2.528861882455935e-05,0.00011832254306396014,0.0004057901795681997,-0.0002431007081343947,-0.0007693676142100989,-0.000288462241846191,0.00030166611550072207,0.0012341083513818835,0.7838374972343445,46.64718246459961,5.762844562530518,-19.559053421020508,-0.7968040108680725,-2.3852572441101074,0.37845176458358765,0
62,0.30501389503479004,-0.7560665011405945,-46.62337875366211,-5.735073566436768,19.535249710083008,0.8022971749305725,2.3724398612976074,-0.45352500677108765,0.0,0.0,0.0,0.0,0.0,0.0,0.0,-0.8094055065733169,-0.3380026469226921,-0.5779399999439765,0.3877774270565879,0.21791921977988576,0.11561902266279005,-0.41582988683802186,0.8781964274498453,0.7556513915943573,-0.2824319411513789,-1.6692075608236747,0.1413247610967509,2.4034171969625686,1.0273717303209833,0.878092876070424,0.7554597494309409,-0.2825552651693207,-1.6690993614607135,0.1414185955172306,2.4034451173676383,1.0273381002308042,-0.0007145469967454707,-0.0008455261787579692,-0.00031435729723881627,0.0010352085272161504,-5.057579169643722e-05,0.00032139167255430026,0.0011782948185506876,0.0,0.0,0.0,0.0,0.0,0.0,0.0,-0.00010355137942130721,-0.00019164216341649443,-0.00012332401794185044,0.00010819936296124766,9.38344204796937e-05,2.7920405069714604e-05,-3.363009017909313e-05,0.0007145469967454707,0.0008455261787579692,0.00031435729723881627,-0.0010352085272161504,5.057579169643722e-05,-0.00032139167255430026,-0.0011782948185506876,0.7560665011405945,46.62337875366211,5.735073566436768,-19.535249710083008,-0.8022971749305725,-2.3724398612976074,0.45352500677108765,0
63,0.309948205947876,-0.7560665011405945,-46.62337875366211,-5.735073566436768,19.535249710083008,0.8022971749305725,2.3724398612976074,-0.45352500677108765,0.0,0.0,0.0,0.0,0.0,0.0,0.0,-0.8094055065733169,-0.3380026469226921,-0.5779399999439765,0.3877774270565879,0.21791921977988576,0.11561902266279005,-0.41582988683802186,0.8781964274498453,0.7556513915943573,-0.2824319411513789,-1.6692075608236747,0.1413247610967509,2.4034171969625686,1.0273717303209833,0.878092876070424,0.7554597494309409,-0.2825552651693207,-1.6690993614607135,0.1414185955172306,2.4034451173676383,1.0273381002308042,-0.0007145469967454707,-0.0008455261787579692,-0.00031435729723881627,0.0010352085272161504,-5.057579169643722e-05,0.00032139167255430026,0.0011782948185506876,0.0,0.0,0.0,0.0,0.0,0.0,0.0,-0.00010355137942130721,-0.00019164216341649443,-0.00012332401794185044,0.00010819936296124766,9.38344204796937e-05,2.7920405069714604e-05,-3.363009017909313e-05,0.0007145469967454707,0.0008455261787579692,0.00031435729723881627,-0.0010352085272161504,5.057579169643722e-05,-0.00032139167255430026,-0.0011782948185506876,0.7560665011405945,46.62337875366211,5.735073566436768,-19.535249710083008,-0.8022971749305725,-2.3724398612976074,0.45352500677108765,0
64,0.3150010108947754,-0.8354122042655945,-46.67495346069336,-5.762844562530518,19.610628128051758,0.7968040108680725,2.3852572441101074,-0.43338340520858765,0.0,0.0,0.0,0.0,0.0,0.0,0.0,-0.8172202660478349,-0.3357879256152143,-0.5856272459046656,0.38379390941544406,0.2179578314579881,0.11516392228931344,-0.41646213106611885,0.8782019955693628,0.75565770923016,-0.28242974143369565,-1.6692129309912223,0.14132567421404219,2.4034157728089225,1.027369492365254,0.878092876070424,0.7554597494309409,-0.2825552651693207,-1.6690993614607135,0.1414185955172306,2.4034451173676383,1.0273381002308042,0.0006633587332097313,0.00026997927214078365,0.00015082352828140136,-0.00079121888018459,0.00011880481307227377,-0.00017661993915290246,0.0009037755991896099,0.0,0.0,0.0,0.0,0.0,0.0,0.0,-0.00010911949893888107,-0.00019795979921910511,-0.00012552373562507713,0.0001135695305087836,9.292130318841463e-05,2.9344558715838076e-05,-3.139213444991462e-05,-0.0006633587332097313,-0.00026997927214078365,-0.00015082352828140136,0.00079121888018459,-0.00011880481307227377,0.00017661993915290246,-0.0009037755991896099,0.8354122042655945,46.67495346069336,5.762844562530518,-19.610628128051758,-0.7968040108680725,-2.3852572441101074,0.43338340520858765,0
65,0.31999921798706055,-0.8354122042655945,-46.67495346069336,-5.762844562530518,19.610628128051758,0.7968040108680725,2.3852572441101074,-0.43338340520858765,0.0,0.0,0.0,0.0,0.0,0.0,0.0,-0.8172202660478349,-0.3357879256152143,-0.5856272459046656,0.38379390941544406,0.2179578314579881,0.11516392228931344,-0.41646213106611885,0.8782019955693628,0.75565770923016,-0.28242974143369565,-1.6692129309912223,0.14132567421404219,2.4034157728089225,1.027369492365254,0.878092876070424,0.7554597494309409,-0.2825552651693207,-1.6690993614607135,0.1414185955172306,2.4034451173676383,1.0273381002308042,0.0006633587332097313,0.00026997927214078365,0.00015082352828140136,-0.00079121888018459,0.00011880481307227377,-0.00017661993915290246,0.0009037755991896099,0.0,0.0,0.0,0.0,0.0,0.0,0.0,-0.00010911949893888107,-0.00019795979921910511,-0.00012552373562507713,0.0001135695305087836,9.292130318841463e-05,2.9344558715838076e-05,-3.139213444991462e-05,-0.0006633587332097313,-0.00026997927214078365,-0.00015082352828140136,0.00079121888018459,-0.00011880481307227377,0.00017661993915290246,-0.0009037755991896099,0.8354122042655945,46.67495346069336,5.762844562530518,-19.610628128051758,-0.7968040108680725,-2.3852572441101074,0.43338340520858765,0
66,0.32500576972961426,-0.8076412081718445,-46.67495346069336,-5.762844562530518,19.610628128051758,0.7968040108680725,2.3788485527038574,-0.43979209661483765,0.0,0.0,0.0,0.0,0.0,0.0,0.0,-0.8224697519721272,-0.347682431654945,-0.5913747056964409,0.38992968202733347,0.21764960005790357,0.11651415864428451,-0.41555546769994917,0.8782000467275317,0.7556572236519397,-0.28242973265848864,-1.6692128505376704,0.14132533195917651,2.4034164848857458,1.027370204442077,0.878092876070424,0.7554597494309409,-0.2825552651693207,-1.6690993614607135,0.1414185955172306,2.4034451173676383,1.0273381002308042,-0.0006651040833992073,-0.0002034543104422072,-0.0006049983239068814,-9.833301487294155e-05,0.0001378099757862652,0.00022609585513302667,0.0007195582818551043,0.0,0.0,0.0,0.0,0.0,0.0,0.0,-0.00010717065710774687,-0.00019747422099880563,-0.0001255325108320826,0.00011348907695696298,9.326355805408526e-05,2.8632481892554296e-05,-3.210421127275431e-05,0.0006651040833992073,0.0002034543104422072,0.0006049983239068814,9.833301487294155e-05,-0.0001378099757862652,-0.00022609585513302667,-0.0007195582818551043,0.8076412081718445,46.67495346069336,5.762844562530518,-19.610628128051758,-0.7968040108680725,-2.3788485527038574,0.43979209661483765,0
67,0.33003950119018555,-0.8076412081718445,-46.67495346069336,-5.762844562530518,19.610628128051758,0.7968040108680725,2.3788485527038574,-0.43979209661483765,0.0,0.0,0.0,0.0,0.0,0.0,0.0,-0.8224697519721272,-0.347682431654945,-0.5913747056964409,0.38992968202733347,0.21764960005790357,0.11651415864428451,-0.41555546769994917,0.8782000467275317,0.7556572236519397,-0.28242973265848864,-1.6692128505376704,0.14132533195917651,2.4034164848857458,1.027370204442077,0.878092876070424,0.7554597494309409,-0.2825552651693207,-1.6690993614607135,0.1414185955172306,2.4034451173676383,1.0273381002308042,-0.0006651040833992073,-0.0002034543104422072,-0.0006049983239068814,-9.833301487294155e-05,0.0001378099757862652,0.00022609585513302667,0.0007195582818551043,0.0,0.0,0.0,0.0,0.0,0.0,0.0,-0.00010717065710774687,-0.00019747422099880563,-0.0001255325108320826,0.00011348907695696298,9.326355805408526e-05,2.8632481892554296e-05,-3.210421127275431e-05,0.0006651040833992073,0.0002034543104422072,0.0006049983239068814,9.833301487294155e-05,-0.0001378099757862652,-0.00022609585513302667,-0.0007195582818551043,0.8076412081718445,46.67495346069336,5.762844562530518,-19.610628128051758,-0.7968040108680725,-2.3788485527038574,0.43979209661483765,0
68,0.3350348472595215,-0.8354122042655945,-46.64718246459961,-5.762844562530518,19.586824417114258,0.8087058663368225,2.3852572441101074,-0.37845176458358765,0.0,0.0,0.0,0.0,0.0,0.0,0.0,-0.8172102283371856,-0.33529484201817383,-0.5863657879917721,0.38679804781364113,0.21668767361138022,0.11544917226156025,-0.41570621160598026,0.8782019955693628,0.7556557600677147,-0.2824318394382033,-1.6692111801013612,0.14132400075304946,2.4034157728089225,1.027363388849629,0.878092876070424,0.7554597494309409,-0.2825552651693207,-1.6690993614607135,0.1414185955172306,2.4034451173676383,1.0273381002308042,-0.00037722191327431995,-0.0005266239084753486,-0.0002142205903719761,0.00037746399077803175,-0.00035261306824749917,-0.00014158460237642832,-0.0008963892212147627,0.0,0.0,0.0,0.0,0.0,0.0,0.0,-0.00010911949893888107,-0.0001960106367738801,-0.00012342573111739918,0.00011181864064768732,9.459476418113844e-05,2.9344558715838076e-05,-2.5288618824781395e-05,0.00037722191327431995,0.0005266239084753486,0.0002142205903719761,-0.00037746399077803175,0.00035261306824749917,0.00014158460237642832,0.0008963892212147627,0.8354122042655945,46.64718246459961,5.762844562530518,-19.586824417114258,-0.8087058663368225,-2.3852572441101074,0.37845176458358765,0
69,0.3400094509124756,-0.8354122042655945,-46.64718246459961,-5.762844562530518,19.586824417114258,0.8087058663368225,2.3852572441101074,-0.37845176458358765,0.0,0.0,0.0,0.0,0.0,0.0,0.0,-0.8172102283371856,-0.33529484201817383,-0.5863657879917721,0.38679804781364113,0.21668767361138022,0.11544917226156025,-0.41570621160598026,0.8782019955693628,0.7556557600677147,-0.2824318394382033,-1.6692111801013612,0.14132400075304946,2.4034157728089225,1.027363388849629,0.878092876070424,0.7554597494309409,-0.2825552651693207,-1.6690993614607135,0.1414185955172306,2.4034451173676383,1.0273381002308042,-0.00037722191327431995,-0.0005266239084753486,-0.0002142205903719761,0.00037746399077803175,-0.00035261306824749917,-0.00014158460237642832,-0.0008963892212147627,0.0,0.0,0.0,0.0,0.0,0.0,0.0,-0.00010911949893888107,-0.0001960106367738801,-0.00012342573111739918,0.00011181864064768732,9.459476418113844e-05,2.9344558715838076e-05,-2.5288618824781395e-05,0.00037722191327431995,0.0005266239084753486,0.0002142205903719761,-0.00037746399077803175,0.00035261306824749917,0.00014158460237642832,0.0008963892212147627,0.8354122042655945,46.64718246459961,5.762844562530518,-19.586824417114258,-0.8087058663368225,-2.3852572441101074,0.37845176458358765,0
70,0.3449990749359131,-0.8354122042655945,-46.64718246459961,-5.762844562530518,19.586824417114258,0.8087058663368225,2.3852572441101074,-0.37845176458358765,0.0,0.0,0.0,0.0,0.0,0.0,0.0,-0.8172102283371856,-0.33529484201817383,-0.5863657879917721,0.38679804781364113,0.21668767361138022,0.11544917226156025,-0.41570621160598026,0.8782019955693628,0.7556557600677147,-0.2824318394382033,-1.6692111801013612,0.14132400075304946,2.4034157728089225,1.027363388849629,0.878092876070424,0.7554597494309409,-0.2825552651693207,-1.6690993614607135,0.1414185955172306,2.4034451173676383,1.0273381002308042,-0.00037722191327431995,-0.0005266239084753486,-0.0002142205903719761,0.00037746399077803175,-0.00035261306824749917,-0.00014158460237642832,-0.0008963892212147627,0.0,0.0,0.0,0.0,0.0,0.0,0.0,-0.00010911949893888107,-0.0001960106367738801,-0.00012342573111739918,0.00011181864064768732,9.459476418113844e-05,2.9344558715838076e-05,-2.5288618824781395e-05,0.00037722191327431995,0.0005266239084753486,0.0002142205903719761,-0.00037746399077803175,0.00035261306824749917,0.00014158460237642832,0.0008963892212147627,0.8354122042655945,46.64718246459961,5.762844562530518,-19.586824417114258,-0.8087058663368225,-2.3852572441101074,0.37845176458358765,0
71,0.34999942779541016,-0.8354122042655945,-46.64718246459961,-5.762844562530518,19.586824417114258,0.8087058663368225,2.3852572441101074,-0.37845176458358765,0.0,0.0,0.0,0.0,0.0,0.0,0.0,-0.8172102283371856,-0.33529484201817383,-0.5863657879917721,0.38679804781364113,0.21668767361138022,0.11544917226156025,-0.41570621160598026,0.8782019955693628,0.7556557600677147,-0.2824318394382033,-1.6692111801013612,0.14132400075304946,2.4034157728089225,1.027363388849629,0.878092876070424,0.7554597494309409,-0.2825552651693207,-1.6690993614607135,0.1414185955172306,2.4034451173676383,1.0273381002308042,-0.00037722191327431995,-0.0005266239084753486,-0.0002142205903719761,0.00037746399077803175,-0.00035261306824749917,-0.00014158460237642832,-0.0008963892212147627,0.0,0.0,0.0,0.0,0.0,0.0,0.0,-0.00010911949893888107,-0.0001960106367738801,-0.00012342573111739918,0.00011181864064768732,9.459476418113844e-05,2.9344558715838076e-05,-2.5288618824781395e-05,0.00037722191327431995,0.0005266239084753486,0.0002142205903719761,-0.00037746399077803175,0.00035261306824749917,0.00014158460237642832,0.0008963892212147627,0.8354122042655945,46.64718246459961,5.762844562530518,-19.586824417114258,-0.8087058663368225,-2.3852572441101074,0.37845176458358765,0
72,0.35501646995544434,-0.8869869112968445,-46.67495346069336,-5.786648273468018,19.559053421020508,0.7903953194618225,2.3788485527038574,-0.41324180364608765,0.0,0.0,0.0,0.0,0.0,0.0,0.0,-0.8295316395204515,-0.3262925797487827,-0.5930902717530403,0.38197741768740545,0.21669272895740685,0.11464486764233804,-0.41368233239920865,0.8782056148470493,0.7556572206910022,-0.2824288432801861,-1.6692092312595301,0.14132603087030343,2.4034164848857458,1.027367254409525,0.878092876070424,0.7554597494309409,-0.2825552651693207,-1.6690993614607135,0.1414185955172306,2.4034451173676383,1.0273381002308042,0.0006171430592902013,0.00016329351720087166,0.00015611140151814017,0.0001736451124026802,0.000224097372308144,-3.231517089291342e-05,0.0001382236853209251,0.0,0.0,0.0,0.0,0.0,0.0,0.0,-0.00011273877662532072,-0.00019747126006131044,-0.00012642188913464247,0.00010986979881666414,9.256464692716793e-05,2.8632481892554296e-05,-2.9154178720736112e-05,-0.0006171430592902013,-0.00016329351720087166,-0.00015611140151814017,-0.0001736451124026802,-0.000224097372308144,3.231517089291342e-05,-0.0001382236853209251,0.8869869112968445,46.67495346069336,5.786648273468018,-19.559053421020508,-0.7903953194618225,-2.3788485527038574,0.41324180364608765,0
73,0.3599987030029297,-0.8869869112968445,-46.67495346069336,-5.786648273468018,19.559053421020508,0.7903953194618225,2.3788485527038574,-0.41324180364608765,0.0,0.0,0.0,0.0,0.0,0.0,0.0,-0.8295316395204515,-0.3262925797487827,-0.5930902717530403,0.38197741768740545,0.21669272895740685,0.11464486764233804,-0.41368233239920865,0.8782056148470493,0.7556572206910022,-0.2824288432801861,-1.6692092312595301,0.14132603087030343,2.4034164848857458,1.027367254409525,0.878092876070424,0.7554597494309409,-0.2825552651693207,-1.6690993614607135,0.1414185955172306,2.4034451173676383,1.0273381002308042,0.0006171430592902013,0.00016329351720087166,0.00015611140151814017,0.0001736451124026802,0.000224097372308144,-3.231517089291342e-05,0.0001382236853209251,0.0,0.0,0.0,0.0,0.0,0.0,0.0,-0.00011273877662532072,-0.00019747126006131044,-0.00012642188913464247,0.00010986979881666414,9.256464692716793e-05,2.8632481892554296e-05,-2.9154178720736112e-05,-0.0006171430592902013,-0.00016329351720087166,-0.00015611140151814017,-0.0001736451124026802,-0.000224097372308144,3.231517089291342e-05,-0.0001382236853209251,0.8869869112968445,46.67495346069336,5.786648273468018,-19.559053421020508,-0.7903953194618225,-2.3788485527038574,0.41324180364608765,0
74,0.3649556636810303,-0.8354122042655945,-46.64718246459961,-5.786648273468018,19.586824417114258,0.8087058663368225,2.3724398612976074,-0.37204307317733765,0.0,0.0,0.0,0.0,0.0,0.0,0.0,-0.8246153023694025,-0.33869416513226197,-0.5886805181983724,0.39033921311980857,0.2165044105580919,0.11590764382407008,-0.4136348616806716,0.8782019955693628,0.7556556435946434,-0.2824280628422597,-1.6692112595742208,0.14132506262593797,2.4034171969625686,1.0273626767728061,0.878092876070424,0.7554597494309409,-0.2825552651693207,-1.6690993614607135,0.1414185955172306,2.4034451173676383,1.0273381002308042,0.00010658795008249095,-1.9113695299115936e-05,5.844752304897611e-05,0.00031188531265850046,-0.00025420656175018097,0.0002383278441845334,-0.0019154444180074365,0.0,0.0,0.0,0.0,0.0,0.0,0.0,-0.00010911949893888107,-0.00019589416370258128,-0.00012720232706103785,0.00011189811350731382,9.353289129263032e-05,2.7920405069714604e-05,-2.4576542001941704e-05,-0.00010658795008249095,1.9113695299115936e-05,-5.844752304897611e-05,-0.00031188531265850046,0.00025420656175018097,-0.0002383278441845334,0.0019154444180074365,0.8354122042655945,46.64718246459961,5.786648273468018,-19.586824417114258,-0.8087058663368225,-2.3724398612976074,0.37204307317733765,0
75,0.370377779006958,-0.8354122042655945,-46.64718246459961,-5.786648273468018,19.586824417114258,0.8087058663368225,2.3724398612976074,-0.37204307317733765,0.0,0.0,0.0,0.0,0.0,0.0,0.0,-0.8246153023694025,-0.33869416513226197,-0.5886805181983724,0.39033921311980857,0.2165044105580919,0.11590764382407008,-0.4136348616806716,0.8782019955693628,0.7556556435946434,-0.2824280628422597,-1.6692112595742208,0.14132506262593797,2.4034171969625686,1.0273626767728061,0.878092876070424,0.7554597494309409,-0.2825552651693207,-1.6690993614607135,0.1414185955172306,2.4034451173676383,1.0273381002308042,0.00010658795008249095,-1.9113695299115936e-05,5.844752304897611e-05,0.00031188531265850046,-0.00025420656175018097,0.0002383278441845334,-0.0019154444180074365,0.0,0.0,0.0,0.0,0.0,0.0,0.0,-0.00010911949893888107,-0.00019589416370258128,-0.00012720232706103785,0.00011189811350731382,9.353289129263032e-05,2.7920405069714604e-05,-2.4576542001941704e-05,-0.00010658795008249095,1.9113695299115936e-05,-5.844752304897611e-05,-0.00031188531265850046,0.00025420656175018097,-0.0002383278441845334,0.0019154444180074365,0.8354122042655945,46.64718246459961,5.786648273468018,-19.586824417114258,-0.8087058663368225,-2.3724398612976074,0.37204307317733765,0
76,0.3749995231628418,-0.7838374972343445,-46.64718246459961,-5.735073566436768,19.610628128051758,0.8141990303993225,2.3788485527038574,-0.42605918645858765,0.0,0.0,0.0,0.0,0.0,0.0,0.0,-0.8127093393064146,-0.3380542874706755,-0.5787349395503132,0.3909133650254788,0.21619665658147094,0.11521940382811033,-0.41334211599006887,0.8781983762916764,0.7556560031996281,-0.28243176299666384,-1.6692128505376649,0.1413233860195269,2.4034164848857458,1.0273686785631708,0.878092876070424,0.7554597494309409,-0.2825552651693207,-1.6690993614607135,0.1414185955172306,2.4034451173676383,1.0273381002308042,-0.0006060723686466477,-0.0006102963560989502,-5.125027754225672e-05,-0.0008749509294349672,-0.0006597294060331121,6.061077600596965e-05,0.0003219821299094934,0.0,0.0,0.0,0.0,0.0,0.0,0.0,-0.0001055002212524414,-0.00019625376868726008,-0.00012350217265688634,0.00011348907695141186,9.520949770369658e-05,2.8632481892554296e-05,-3.057833236663754e-05,0.0006060723686466477,0.0006102963560989502,5.125027754225672e-05,0.0008749509294349672,0.0006597294060331121,-6.061077600596965e-05,-0.0003219821299094934,0.7838374972343445,46.64718246459961,5.735073566436768,-19.610628128051758,-0.8141990303993225,-2.3788485527038574,0.42605918645858765,0
77,0.37999391555786133,-0.7838374972343445,-46.64718246459961,-5.735073566436768,19.610628128051758,0.8141990303993225,2.3788485527038574,-0.42605918645858765,0.0,0.0,0.0,0.0,0.0,0.0,0.0,-0.8127093393064146,-0.3380542874706755,-0.5787349395503132,0.3909133650254788,0.21619665658147094,0.11521940382811033,-0.41334211599006887,0.8781983762916764,0.7556560031996281,-0.28243176299666384,-1.6692128505376649,0.1413233860195269,2.4034164848857458,1.0273686785631708,0.878092876070424,0.7554597494309409,-0.2825552651693207,-1.6690993614607135,0.1414185955172306,2.4034451173676383,1.0273381002308042,-0.0006060723686466477,-0.0006102963560989502,-5.125027754225672e-05,-0.0008749509294349672,-0.0006597294060331121,6.061077600596965e-05,0.0003219821299094934,0.0,0.0,0.0,0.0,0.0,0.0,0.0,-0.0001055002212524414,-0.00019625376868726008,-0.00012350217265688634,0.00011348907695141186,9.520949770369658e-05,2.8632481892554296e-05,-3.057833236663754e-05,0.0006060723686466477,0.0006102963560989502,5.125027754225672e-05,0.0008749509294349672,0.0006597294060331121,-6.061077600596965e-05,-0.0003219821299094934,0.7838374972343445,46.64718246459961,5.735073566436768,-19.610628128051758,-0.8141990303993225,-2.3788485527038574,0.42605918645858765,0
78,0.3849949836730957,-0.7560665011405945,-46.62337875366211,-5.762844562530518,19.610628128051758,0.8022971749305725,2.3852572441101074,-0.46725791692733765,0.0,0.0,0.0,0.0,0.0,0.0,0.0,-0.8326543954430515,-0.33161110517729536,-0.5902379503666145,0.38738972177426073,0.216679775913593,0.11483995192060513,-0.41557741837675727,0.8781964009588921,0.7556518236318905,-0.2824298363037611,-1.6692128505372164,0.14132577470276095,2.4034157728089225,1.0273732561998894,0.878092876070424,0.7554597494309409,-0.2825552651693207,-1.6690993614607135,0.1414185955172306,2.4034451173676383,1.0273381002308042,-0.0014654262103990137,-0.0007926264197840292,0.0005002449886940538,-0.0006588805995219546,-0.00017469713339306235,-0.00029138635930135113,0.002085597452961162,0.0,0.0,0.0,0.0,0.0,0.0,0.0,-0.00010352488846809837,-0.00019207420094968786,-0.00012542886555960697,0.00011348907650288176,9.282081446965185e-05,2.9344558715838076e-05,-3.5155969085209904e-05,0.0014654262103990137,0.0007926264197840292,-0.0005002449886940538,0.0006588805995219546,0.00017469713339306235,0.00029138635930135113,-0.002085597452961162,0.7560665011405945,46.62337875366211,5.762844562530518,-19.610628128051758,-0.8022971749305725,-2.3852572441101074,0.46725791692733765,0
79,0.39003586769104004,-0.7560665011405945,-46.62337875366211,-5.762844562530518,19.610628128051758,0.8022971749305725,2.3852572441101074,-0.46725791692733765,0.0,0.0,0.0,0.0,0.0,0.0,0.0,-0.8326543954430515,-0.33161110517729536,-0.5902379503666145,0.38738972177426073,0.216679775913593,0.11483995192060513,-0.41557741837675727,0.8781964009588921,0.7556518236318905,-0.2824298363037611,-1.6692128505372164,0.14132577470276095,2.4034157728089225,1.0273732561998894,0.878092876070424,0.7554597494309409,-0.2825552651693207,-1.6690993614607135,0.1414185955172306,2.4034451173676383,1.0273381002308042,-0.0014654262103990137,-0.0007926264197840292,0.0005002449886940538,-0.0006588805995219546,-0.00017469713339306235,-0.00029138635930135113,0.002085597452961162,0.0,0.0,0.0,0.0,0.0,0.0,0.0,-0.00010352488846809837,-0.00019207420094968786,-0.00012542886555960697,0.00011348907650288176,9.282081446965185e-05,2.9344558715838076e-05,-3.5155969085209904e-05,0.0014654262103990137,0.0007926264197840292,-0.0005002449886940538,0.0006588805995219546,0.00017469713339306235,0.00029138635930135113,-0.002085597452961162,0.7560665011405945,46.62337875366211,5.762844562530518,-19.610628128051758,-0.8022971749305725,-2.3852572441101074,0.46725791692733765,0
80,0.394956111907959,-0.8076412081718445,-46.69875717163086,-5.735073566436768,19.658235549926758,0.7968040108680725,2.3788485527038574,-0.45352500677108765,0.0,0.0,0.0,0.0,0.0,0.0,0.0,-0.8190817489726127,-0.3338484369816264,-0.580043634656125,0.38996212044581685,0.2166448053692387,0.1149543158465251,-0.4170551264064333,0.8782000437839429,0.7556588911140659,-0.28243405627356266,-1.669216191408927,0.14132532026210975,2.4034164848857458,1.0273717298364666,0.878092876070424,0.7554597494309409,-0.2825552651693207,-1.6690993614607135,0.1414185955172306,2.4034451173676383,1.0273381002308042,0.00020649081214816842,0.0010231310938456865,0.0001911452982873267,-0.0016645876335405498,0.00026024127140276726,6.757084515675778e-05,0.0012378296781787505,0.0,0.0,0.0,0.0,0.0,0.0,0.0,-0.00010716771351892973,-0.0001991416831250703,-0.0001212088957580626,0.00011682994821349268,9.327525512084489e-05,2.8632481892554296e-05,-3.3629605662444106e-05,-0.00020649081214816842,-0.0010231310938456865,-0.0001911452982873267,0.0016645876335405498,-0.00026024127140276726,-6.757084515675778e-05,-0.0012378296781787505,0.8076412081718445,46.69875717163086,5.735073566436768,-19.658235549926758,-0.7968040108680725,-2.3788485527038574,0.45352500677108765,0
