rezayati/contactInterpretation/dataset/franka_main/labeled_data/link6/b12_8.csv
index,time,tau_J0,tau_J1,tau_J2,tau_J3,tau_J4,tau_J5,tau_J6,tau_J_d0,tau_J_d1,tau_J_d2,tau_J_d3,tau_J_d4,tau_J_d5,tau_J_d6,tau_ext0,tau_ext1,tau_ext2,tau_ext3,tau_ext4,tau_ext5,tau_ext6,q0,q1,q2,q3,q4,q5,q6,q_d0,q_d1,q_d2,q_d3,q_d4,q_d5,q_d6,dq0,dq1,dq2,dq3,dq4,dq5,dq6,dq_d0,dq_d1,dq_d2,dq_d3,dq_d4,dq_d5,dq_d6,e0,e1,e2,e3,e4,e5,e6,de0,de1,de2,de3,de4,de5,de6,etau_J0,etau_J1,etau_J2,etau_J3,etau_J4,etau_J5,etau_J6,label
1,0.0,-0.4029781222343445,-22.696680068969727,-0.09756157547235489,13.933443069458008,0.08818584680557251,2.1517977714538574,-0.39218467473983765,0.0,0.0,0.0,0.0,0.0,0.0,0.0,-0.4354820627386426,0.07872620944568719,-0.208805502660205,0.11695217822781541,-0.14988491188022646,-0.03974666030831867,-0.40550089670452655,1.6756532457878714,0.05209268045634553,0.02999617466173674,-2.7522485300142145,0.034317816625038786,2.7663383935822377,0.7691959130493915,1.6754973547542302,0.052104326824870026,0.029969505109285054,-2.752394845125968,0.0342448039870148,2.7663679543071322,0.7691630533470046,-0.0002413737887577025,-0.0004710963953704917,-0.0001746764591791847,0.0012685044323305023,-0.00032038803444094186,-0.00019441008296706142,-0.0008552227253725461,0.0,0.0,0.0,0.0,0.0,0.0,0.0,-0.00015589103364122003,1.1646368524492745e-05,-2.666955245168509e-05,-0.00014631511175355882,-7.301263802398511e-05,2.9560724894572843e-05,-3.2859702386867085e-05,0.0002413737887577025,0.0004710963953704917,0.0001746764591791847,-0.0012685044323305023,0.00032038803444094186,0.00019441008296706142,0.0008552227253725461,0.4029781222343445,22.696680068969727,0.09756157547235489,-13.933443069458008,-0.08818584680557251,-2.1517977714538574,0.39218467473983765,0
2,0.004975080490112305,-0.4029781222343445,-22.696680068969727,-0.09756157547235489,13.933443069458008,0.08818584680557251,2.1517977714538574,-0.39218467473983765,0.0,0.0,0.0,0.0,0.0,0.0,0.0,-0.4354820627386426,0.07872620944568719,-0.208805502660205,0.11695217822781541,-0.14988491188022646,-0.03974666030831867,-0.40550089670452655,1.6756532457878714,0.05209268045634553,0.02999617466173674,-2.7522485300142145,0.034317816625038786,2.7663383935822377,0.7691959130493915,1.6754973547542302,0.052104326824870026,0.029969505109285054,-2.752394845125968,0.0342448039870148,2.7663679543071322,0.7691630533470046,-0.0002413737887577025,-0.0004710963953704917,-0.0001746764591791847,0.0012685044323305023,-0.00032038803444094186,-0.00019441008296706142,-0.0008552227253725461,0.0,0.0,0.0,0.0,0.0,0.0,0.0,-0.00015589103364122003,1.1646368524492745e-05,-2.666955245168509e-05,-0.00014631511175355882,-7.301263802398511e-05,2.9560724894572843e-05,-3.2859702386867085e-05,0.0002413737887577025,0.0004710963953704917,0.0001746764591791847,-0.0012685044323305023,0.00032038803444094186,0.00019441008296706142,0.0008552227253725461,0.4029781222343445,22.696680068969727,0.09756157547235489,-13.933443069458008,-0.08818584680557251,-2.1517977714538574,0.39218467473983765,0
3,0.00997614860534668,-0.4267818331718445,-22.696680068969727,-0.1253325641155243,13.981050491333008,0.09367901086807251,2.1453890800476074,-0.36471885442733765,0.0,0.0,0.0,0.0,0.0,0.0,0.0,-0.43522307243448416,0.0883420415584589,-0.20869079270852547,0.11608082098135415,-0.14952103727728322,-0.04057058239435911,-0.40539243008432924,1.6756548887516272,0.05209268045634553,0.02999812350304503,-2.752252530212131,0.034317206273476286,2.7663391056590605,0.7691928671057691,1.6754973547542302,0.052104326824870026,0.029969505109285054,-2.752394845125968,0.0342448039870148,2.7663679543071322,0.7691630533470046,0.0006851879853724249,0.0005069613313083553,0.0003431955747448735,0.0003508687059616568,-0.000399233338360959,-8.740480698745186e-05,-0.0016003569015489872,0.0,0.0,0.0,0.0,0.0,0.0,0.0,-0.0001575339973969303,1.1646368524492745e-05,-2.86183937599771e-05,-0.00014231491383709383,-7.240228646148567e-05,2.8848648071733152e-05,-2.981375876442982e-05,-0.0006851879853724249,-0.0005069613313083553,-0.0003431955747448735,-0.0003508687059616568,0.000399233338360959,8.740480698745186e-05,0.0016003569015489872,0.4267818331718445,22.696680068969727,0.1253325641155243,-13.981050491333008,-0.09367901086807251,-2.1453890800476074,0.36471885442733765,0
4,0.01497197151184082,-0.4267818331718445,-22.696680068969727,-0.1253325641155243,13.981050491333008,0.09367901086807251,2.1453890800476074,-0.36471885442733765,0.0,0.0,0.0,0.0,0.0,0.0,0.0,-0.43522307243448416,0.0883420415584589,-0.20869079270852547,0.11608082098135415,-0.14952103727728322,-0.04057058239435911,-0.40539243008432924,1.6756548887516272,0.05209268045634553,0.02999812350304503,-2.752252530212131,0.034317206273476286,2.7663391056590605,0.7691928671057691,1.6754973547542302,0.052104326824870026,0.029969505109285054,-2.752394845125968,0.0342448039870148,2.7663679543071322,0.7691630533470046,0.0006851879853724249,0.0005069613313083553,0.0003431955747448735,0.0003508687059616568,-0.000399233338360959,-8.740480698745186e-05,-0.0016003569015489872,0.0,0.0,0.0,0.0,0.0,0.0,0.0,-0.0001575339973969303,1.1646368524492745e-05,-2.86183937599771e-05,-0.00014231491383709383,-7.240228646148567e-05,2.8848648071733152e-05,-2.981375876442982e-05,-0.0006851879853724249,-0.0005069613313083553,-0.0003431955747448735,-0.0003508687059616568,0.000399233338360959,8.740480698745186e-05,0.0016003569015489872,0.4267818331718445,22.696680068969727,0.1253325641155243,-13.981050491333008,-0.09367901086807251,-2.1453890800476074,0.36471885442733765,0
5,0.019971847534179688,-0.4029781222343445,-22.748254776000977,-0.09756157547235489,14.032625198364258,0.06987529993057251,2.1453890800476074,-0.41324180364608765,0.0,0.0,0.0,0.0,0.0,0.0,0.0,-0.4305633017899656,0.08728017859010374,-0.20765473662545023,0.12084248316715158,-0.149017616154782,-0.039492225358398955,-0.4058147395412217,1.6756532447702313,0.05209629973403194,0.02999617466173674,-2.752256222752472,0.03431996951169438,2.7663391056590605,0.769198140807034,1.6754973547542302,0.052104326824870026,0.029969505109285054,-2.752394845125968,0.0342448039870148,2.7663679543071322,0.7691630533470046,-0.0006577621827990773,0.001124152574922201,-0.00039429543131835404,-0.000774550567942271,0.0005344547752117903,3.511667604142022e-06,0.00020852771651599483,0.0,0.0,0.0,0.0,0.0,0.0,0.0,-0.0001558900160010257,8.02709083808778e-06,-2.666955245168509e-05,-0.00013862237349604456,-7.51655246795796e-05,2.8848648071733152e-05,-3.508746002933716e-05,0.0006577621827990773,-0.001124152574922201,0.00039429543131835404,0.000774550567942271,-0.0005344547752117903,-3.511667604142022e-06,-0.00020852771651599483,0.4029781222343445,22.748254776000977,0.09756157547235489,-14.032625198364258,-0.06987529993057251,-2.1453890800476074,0.41324180364608765,0
6,0.02497386932373047,-0.4029781222343445,-22.748254776000977,-0.09756157547235489,14.032625198364258,0.06987529993057251,2.1453890800476074,-0.41324180364608765,0.0,0.0,0.0,0.0,0.0,0.0,0.0,-0.4305633017899656,0.08728017859010374,-0.20765473662545023,0.12084248316715158,-0.149017616154782,-0.039492225358398955,-0.4058147395412217,1.6756532447702313,0.05209629973403194,0.02999617466173674,-2.752256222752472,0.03431996951169438,2.7663391056590605,0.769198140807034,1.6754973547542302,0.052104326824870026,0.029969505109285054,-2.752394845125968,0.0342448039870148,2.7663679543071322,0.7691630533470046,-0.0006577621827990773,0.001124152574922201,-0.00039429543131835404,-0.000774550567942271,0.0005344547752117903,3.511667604142022e-06,0.00020852771651599483,0.0,0.0,0.0,0.0,0.0,0.0,0.0,-0.0001558900160010257,8.02709083808778e-06,-2.666955245168509e-05,-0.00013862237349604456,-7.51655246795796e-05,2.8848648071733152e-05,-3.508746002933716e-05,0.0006577621827990773,-0.001124152574922201,0.00039429543131835404,0.000774550567942271,-0.0005344547752117903,-3.511667604142022e-06,-0.00020852771651599483,0.4029781222343445,22.748254776000977,0.09756157547235489,-14.032625198364258,-0.06987529993057251,-2.1453890800476074,0.41324180364608765,0
7,0.02998065948486328,-0.4029781222343445,-22.748254776000977,-0.09756157547235489,14.032625198364258,0.06987529993057251,2.1453890800476074,-0.41324180364608765,0.0,0.0,0.0,0.0,0.0,0.0,0.0,-0.4305633017899656,0.08728017859010374,-0.20765473662545023,0.12084248316715158,-0.149017616154782,-0.039492225358398955,-0.4058147395412217,1.6756532447702313,0.05209629973403194,0.02999617466173674,-2.752256222752472,0.03431996951169438,2.7663391056590605,0.769198140807034,1.6754973547542302,0.052104326824870026,0.029969505109285054,-2.752394845125968,0.0342448039870148,2.7663679543071322,0.7691630533470046,-0.0006577621827990773,0.001124152574922201,-0.00039429543131835404,-0.000774550567942271,0.0005344547752117903,3.511667604142022e-06,0.00020852771651599483,0.0,0.0,0.0,0.0,0.0,0.0,0.0,-0.0001558900160010257,8.02709083808778e-06,-2.666955245168509e-05,-0.00013862237349604456,-7.51655246795796e-05,2.8848648071733152e-05,-3.508746002933716e-05,0.0006577621827990773,-0.001124152574922201,0.00039429543131835404,0.000774550567942271,-0.0005344547752117903,-3.511667604142022e-06,-0.00020852771651599483,0.4029781222343445,22.748254776000977,0.09756157547235489,-14.032625198364258,-0.06987529993057251,-2.1453890800476074,0.41324180364608765,0
8,0.035407066345214844,-0.4029781222343445,-22.748254776000977,-0.09756157547235489,14.032625198364258,0.06987529993057251,2.1453890800476074,-0.41324180364608765,0.0,0.0,0.0,0.0,0.0,0.0,0.0,-0.4305633017899656,0.08728017859010374,-0.20765473662545023,0.12084248316715158,-0.149017616154782,-0.039492225358398955,-0.4058147395412217,1.6756532447702313,0.05209629973403194,0.02999617466173674,-2.752256222752472,0.03431996951169438,2.7663391056590605,0.769198140807034,1.6754973547542302,0.052104326824870026,0.029969505109285054,-2.752394845125968,0.0342448039870148,2.7663679543071322,0.7691630533470046,-0.0006577621827990773,0.001124152574922201,-0.00039429543131835404,-0.000774550567942271,0.0005344547752117903,3.511667604142022e-06,0.00020852771651599483,0.0,0.0,0.0,0.0,0.0,0.0,0.0,-0.0001558900160010257,8.02709083808778e-06,-2.666955245168509e-05,-0.00013862237349604456,-7.51655246795796e-05,2.8848648071733152e-05,-3.508746002933716e-05,0.0006577621827990773,-0.001124152574922201,0.00039429543131835404,0.000774550567942271,-0.0005344547752117903,-3.511667604142022e-06,-0.00020852771651599483,0.4029781222343445,22.748254776000977,0.09756157547235489,-14.032625198364258,-0.06987529993057251,-2.1453890800476074,0.41324180364608765,0
9,0.03997325897216797,-0.4267818331718445,-22.748254776000977,-0.1253325641155243,14.008821487426758,0.07628399133682251,2.1582064628601074,-0.42605918645858765,0.0,0.0,0.0,0.0,0.0,0.0,0.0,-0.4311831126337511,0.08960696881263751,-0.20775700059061838,0.12250336781954069,-0.14879033556833304,-0.03928262898521235,-0.4060357627375711,1.6756526909836493,0.05209629973403194,0.029998120578342953,-2.7522523265870587,0.034319139054092465,2.766337681505415,0.7691996439362452,1.6754973547542302,0.052104326824870026,0.029969505109285054,-2.752394845125968,0.0342448039870148,2.7663679543071322,0.7691630533470046,-0.00043131671250863543,0.0007907719367603209,0.0005066153744864693,-0.000228725377329905,-0.0021626430313792613,-0.00017302332886586215,0.0010257417495935447,0.0,0.0,0.0,0.0,0.0,0.0,0.0,-0.00015533622941910075,8.02709083808778e-06,-2.8615469057899356e-05,-0.00014251853890945299,-7.433506707766463e-05,3.0272801717412534e-05,-3.6590589240548255e-05,0.00043131671250863543,-0.0007907719367603209,-0.0005066153744864693,0.000228725377329905,0.0021626430313792613,0.00017302332886586215,-0.0010257417495935447,0.4267818331718445,22.748254776000977,0.1253325641155243,-14.008821487426758,-0.07628399133682251,-2.1582064628601074,0.42605918645858765,0
10,0.044976234436035156,-0.4267818331718445,-22.748254776000977,-0.1253325641155243,14.008821487426758,0.07628399133682251,2.1582064628601074,-0.42605918645858765,0.0,0.0,0.0,0.0,0.0,0.0,0.0,-0.4311831126337511,0.08960696881263751,-0.20775700059061838,0.12250336781954069,-0.14879033556833304,-0.03928262898521235,-0.4060357627375711,1.6756526909836493,0.05209629973403194,0.029998120578342953,-2.7522523265870587,0.034319139054092465,2.766337681505415,0.7691996439362452,1.6754973547542302,0.052104326824870026,0.029969505109285054,-2.752394845125968,0.0342448039870148,2.7663679543071322,0.7691630533470046,-0.00043131671250863543,0.0007907719367603209,0.0005066153744864693,-0.000228725377329905,-0.0021626430313792613,-0.00017302332886586215,0.0010257417495935447,0.0,0.0,0.0,0.0,0.0,0.0,0.0,-0.00015533622941910075,8.02709083808778e-06,-2.8615469057899356e-05,-0.00014251853890945299,-7.433506707766463e-05,3.0272801717412534e-05,-3.6590589240548255e-05,0.00043131671250863543,-0.0007907719367603209,-0.0005066153744864693,0.000228725377329905,0.0021626430313792613,0.00017302332886586215,-0.0010257417495935447,0.4267818331718445,22.748254776000977,0.1253325641155243,-14.008821487426758,-0.07628399133682251,-2.1582064628601074,0.42605918645858765,0
11,0.04997873306274414,-0.4505855441093445,-22.720483779907227,-0.1729399859905243,13.957246780395508,0.08177715539932251,2.1453890800476074,-0.41324180364608765,0.0,0.0,0.0,0.0,0.0,0.0,0.0,-0.43124709054414156,0.09028282844890201,-0.2034605437731542,0.12067742566998306,-0.15076671398392522,-0.03826065953107131,-0.40554113280685605,1.6756565866470206,0.0520943508922008,0.030001464374739047,-2.7522509421841463,0.03431852870186171,2.7663391056590605,0.7691950670325617,1.6754973547542302,0.052104326824870026,0.029969505109285054,-2.752394845125968,0.0342448039870148,2.7663679543071322,0.7691630533470046,0.00029232126682006713,0.00018729039676691387,0.0008404478342613338,0.0010167914529842486,-0.00013887452041003767,0.00021538647553499238,-4.748527767375124e-05,0.0,0.0,0.0,0.0,0.0,0.0,0.0,-0.00015923189279032357,9.975932669228915e-06,-3.195926545399366e-05,-0.00014390294182176078,-7.372471484690807e-05,2.8848648071733152e-05,-3.201368555705297e-05,-0.00029232126682006713,-0.00018729039676691387,-0.0008404478342613338,-0.0010167914529842486,0.00013887452041003767,-0.00021538647553499238,4.748527767375124e-05,0.4505855441093445,22.720483779907227,0.1729399859905243,-13.957246780395508,-0.08177715539932251,-2.1453890800476074,0.41324180364608765,0
12,0.0549776554107666,-0.4505855441093445,-22.720483779907227,-0.1729399859905243,13.957246780395508,0.08177715539932251,2.1453890800476074,-0.41324180364608765,0.0,0.0,0.0,0.0,0.0,0.0,0.0,-0.43124709054414156,0.09028282844890201,-0.2034605437731542,0.12067742566998306,-0.15076671398392522,-0.03826065953107131,-0.40554113280685605,1.6756565866470206,0.0520943508922008,0.030001464374739047,-2.7522509421841463,0.03431852870186171,2.7663391056590605,0.7691950670325617,1.6754973547542302,0.052104326824870026,0.029969505109285054,-2.752394845125968,0.0342448039870148,2.7663679543071322,0.7691630533470046,0.00029232126682006713,0.00018729039676691387,0.0008404478342613338,0.0010167914529842486,-0.00013887452041003767,0.00021538647553499238,-4.748527767375124e-05,0.0,0.0,0.0,0.0,0.0,0.0,0.0,-0.00015923189279032357,9.975932669228915e-06,-3.195926545399366e-05,-0.00014390294182176078,-7.372471484690807e-05,2.8848648071733152e-05,-3.201368555705297e-05,-0.00029232126682006713,-0.00018729039676691387,-0.0008404478342613338,-0.0010167914529842486,0.00013887452041003767,-0.00021538647553499238,4.748527767375124e-05,0.4505855441093445,22.720483779907227,0.1729399859905243,-13.957246780395508,-0.08177715539932251,-2.1453890800476074,0.41324180364608765,0
13,0.05998563766479492,-0.4267818331718445,-22.720483779907227,-0.1253325641155243,13.981050491333008,0.08818584680557251,2.1517977714538574,-0.37845176458358765,0.0,0.0,0.0,0.0,0.0,0.0,0.0,-0.4268136017682518,0.08811687269879358,-0.19905636383594227,0.11916197335662004,-0.1525394612746786,-0.03770422710001293,-0.4058057790899858,1.6756549162237269,0.0520943508922008,0.029998123503045027,-2.752252612632617,0.034317816625038786,2.7663383935822377,0.7691943890905579,1.6754973547542302,0.052104326824870026,0.029969505109285054,-2.752394845125968,0.0342448039870148,2.7663679543071322,0.7691630533470046,-0.0012150911816125368,-1.7772174958646968e-05,-0.005005481727147108,0.0003548611577917838,-0.0003200459722792471,7.222776734958491e-05,-0.0011170168307266751,0.0,0.0,0.0,0.0,0.0,0.0,0.0,-0.00015756146949663652,9.975932669228915e-06,-2.861839375997363e-05,-0.0001422324933511021,-7.301263802398511e-05,2.9560724894572843e-05,-3.1335743553295714e-05,0.0012150911816125368,1.7772174958646968e-05,0.005005481727147108,-0.0003548611577917838,0.0003200459722792471,-7.222776734958491e-05,0.0011170168307266751,0.4267818331718445,22.720483779907227,0.1253325641155243,-13.981050491333008,-0.08818584680557251,-2.1517977714538574,0.37845176458358765,0
14,0.06497812271118164,-0.4267818331718445,-22.720483779907227,-0.1253325641155243,13.981050491333008,0.08818584680557251,2.1517977714538574,-0.37845176458358765,0.0,0.0,0.0,0.0,0.0,0.0,0.0,-0.4268136017682518,0.08811687269879358,-0.19905636383594227,0.11916197335662004,-0.1525394612746786,-0.03770422710001293,-0.4058057790899858,1.6756549162237269,0.0520943508922008,0.029998123503045027,-2.752252612632617,0.034317816625038786,2.7663383935822377,0.7691943890905579,1.6754973547542302,0.052104326824870026,0.029969505109285054,-2.752394845125968,0.0342448039870148,2.7663679543071322,0.7691630533470046,-0.0012150911816125368,-1.7772174958646968e-05,-0.005005481727147108,0.0003548611577917838,-0.0003200459722792471,7.222776734958491e-05,-0.0011170168307266751,0.0,0.0,0.0,0.0,0.0,0.0,0.0,-0.00015756146949663652,9.975932669228915e-06,-2.861839375997363e-05,-0.0001422324933511021,-7.301263802398511e-05,2.9560724894572843e-05,-3.1335743553295714e-05,0.0012150911816125368,1.7772174958646968e-05,0.005005481727147108,-0.0003548611577917838,0.0003200459722792471,-7.222776734958491e-05,0.0011170168307266751,0.4267818331718445,22.720483779907227,0.1253325641155243,-13.981050491333008,-0.08818584680557251,-2.1517977714538574,0.37845176458358765,0
15,0.06998586654663086,-0.4029781222343445,-22.696680068969727,-0.1491362750530243,13.981050491333008,0.07628399133682251,2.1453890800476074,-0.42605918645858765,0.0,0.0,0.0,0.0,0.0,0.0,0.0,-0.41870535020223715,0.08364375238638883,-0.1880264958452583,0.11903859632323009,-0.15359526578050167,-0.03644025841950131,-0.40467796898526615,1.6756532457878714,0.05209268045634553,0.02999979393890029,-2.752252576003151,0.0343191390534242,2.7663391056590605,0.7691995654451745,1.6754973547542302,0.052104326824870026,0.029969505109285054,-2.752394845125968,0.0342448039870148,2.7663679543071322,0.7691630533470046,-0.0007273762733491751,-0.000556621370533108,0.00038713326068217356,0.00010387778193080913,0.00016172554625521027,0.00011733381287463396,0.0009377944304638525,0.0,0.0,0.0,0.0,0.0,0.0,0.0,-0.00015589103364122003,1.1646368524492745e-05,-3.028882961523746e-05,-0.00014226912281722903,-7.433506640940057e-05,2.8848648071733152e-05,-3.6512098169905194e-05,0.0007273762733491751,0.000556621370533108,-0.00038713326068217356,-0.00010387778193080913,-0.00016172554625521027,-0.00011733381287463396,-0.0009377944304638525,0.4029781222343445,22.696680068969727,0.1491362750530243,-13.981050491333008,-0.07628399133682251,-2.1453890800476074,0.42605918645858765,0
16,0.07497811317443848,-0.4029781222343445,-22.696680068969727,-0.1491362750530243,13.981050491333008,0.07628399133682251,2.1453890800476074,-0.42605918645858765,0.0,0.0,0.0,0.0,0.0,0.0,0.0,-0.41870535020223715,0.08364375238638883,-0.1880264958452583,0.11903859632323009,-0.15359526578050167,-0.03644025841950131,-0.40467796898526615,1.6756532457878714,0.05209268045634553,0.02999979393890029,-2.752252576003151,0.0343191390534242,2.7663391056590605,0.7691995654451745,1.6754973547542302,0.052104326824870026,0.029969505109285054,-2.752394845125968,0.0342448039870148,2.7663679543071322,0.7691630533470046,-0.0007273762733491751,-0.000556621370533108,0.00038713326068217356,0.00010387778193080913,0.00016172554625521027,0.00011733381287463396,0.0009377944304638525,0.0,0.0,0.0,0.0,0.0,0.0,0.0,-0.00015589103364122003,1.1646368524492745e-05,-3.028882961523746e-05,-0.00014226912281722903,-7.433506640940057e-05,2.8848648071733152e-05,-3.6512098169905194e-05,0.0007273762733491751,0.000556621370533108,-0.00038713326068217356,-0.00010387778193080913,-0.00016172554625521027,-0.00011733381287463396,-0.0009377944304638525,0.4029781222343445,22.696680068969727,0.1491362750530243,-13.981050491333008,-0.07628399133682251,-2.1453890800476074,0.42605918645858765,0
17,0.07997822761535645,-0.4267818331718445,-22.696680068969727,-0.1253325641155243,13.957246780395508,0.08177715539932251,2.1453890800476074,-0.41324180364608765,0.0,0.0,0.0,0.0,0.0,0.0,0.0,-0.4445392247616932,0.0837754729048588,-0.21491216866997695,0.11719029499302668,-0.15055141561022364,-0.035453934208924585,-0.40424692722216116,1.6756549162237269,0.05209268045634553,0.029998149794702895,-2.7522509330379976,0.034318489272040106,2.7663391056590605,0.7691971993723762,1.6754973547542302,0.052104326824870026,0.029969505109285054,-2.752394845125968,0.0342448039870148,2.7663679543071322,0.7691630533470046,0.000255601563628924,-0.000705241823844606,0.0004549477639680151,0.00046441511057645953,-0.00023931283152714037,-2.2634135060715887e-05,0.00046024907827313025,0.0,0.0,0.0,0.0,0.0,0.0,0.0,-0.00015756146949663652,1.1646368524492745e-05,-2.864468541784182e-05,-0.00014391208797048805,-7.368528502530586e-05,2.8848648071733152e-05,-3.414602537155087e-05,-0.000255601563628924,0.000705241823844606,-0.0004549477639680151,-0.00046441511057645953,0.00023931283152714037,2.2634135060715887e-05,-0.00046024907827313025,0.4267818331718445,22.696680068969727,0.1253325641155243,-13.957246780395508,-0.08177715539932251,-2.1453890800476074,0.41324180364608765,0
18,0.08497858047485352,-0.4267818331718445,-22.696680068969727,-0.1253325641155243,13.957246780395508,0.08177715539932251,2.1453890800476074,-0.41324180364608765,0.0,0.0,0.0,0.0,0.0,0.0,0.0,-0.4445392247616932,0.0837754729048588,-0.21491216866997695,0.11719029499302668,-0.15055141561022364,-0.035453934208924585,-0.40424692722216116,1.6756549162237269,0.05209268045634553,0.029998149794702895,-2.7522509330379976,0.034318489272040106,2.7663391056590605,0.7691971993723762,1.6754973547542302,0.052104326824870026,0.029969505109285054,-2.752394845125968,0.0342448039870148,2.7663679543071322,0.7691630533470046,0.000255601563628924,-0.000705241823844606,0.0004549477639680151,0.00046441511057645953,-0.00023931283152714037,-2.2634135060715887e-05,0.00046024907827313025,0.0,0.0,0.0,0.0,0.0,0.0,0.0,-0.00015756146949663652,1.1646368524492745e-05,-2.864468541784182e-05,-0.00014391208797048805,-7.368528502530586e-05,2.8848648071733152e-05,-3.414602537155087e-05,-0.000255601563628924,0.000705241823844606,-0.0004549477639680151,-0.00046441511057645953,0.00023931283152714037,2.2634135060715887e-05,-0.00046024907827313025,0.4267818331718445,22.696680068969727,0.1253325641155243,-13.957246780395508,-0.08177715539932251,-2.1453890800476074,0.41324180364608765,0
19,0.0899820327758789,-0.3752071261405945,-22.720483779907227,-0.09756157547235489,13.981050491333008,0.08177715539932251,2.1517977714538574,-0.41324180364608765,0.0,0.0,0.0,0.0,0.0,0.0,0.0,-0.44512603032488196,0.08691041958613896,-0.21709808964257127,0.11663175054435955,-0.15075365535118457,-0.03632510441127193,-0.4028609129978051,1.6756512969460404,0.0520943508922008,0.029996174661885155,-2.7522526094670563,0.034318528701639116,2.7663383935822377,0.7691940189632389,1.6754973547542302,0.052104326824870026,0.029969505109285054,-2.752394845125968,0.0342448039870148,2.7663679543071322,0.7691630533470046,-0.00100285487917608,0.00018709721058694299,-0.0004835327216526745,0.0002721844653484585,6.193710501225384e-05,-5.952001011612867e-05,-0.0001265451295448294,0.0,0.0,0.0,0.0,0.0,0.0,0.0,-0.00015394219181019686,9.975932669228915e-06,-2.6669552600101093e-05,-0.00014223565891180456,-7.372471462431529e-05,2.9560724894572843e-05,-3.0965616234279736e-05,0.00100285487917608,-0.00018709721058694299,0.0004835327216526745,-0.0002721844653484585,-6.193710501225384e-05,5.952001011612867e-05,0.0001265451295448294,0.3752071261405945,22.720483779907227,0.09756157547235489,-13.981050491333008,-0.08177715539932251,-2.1517977714538574,0.41324180364608765,0
20,0.09497380256652832,-0.3752071261405945,-22.720483779907227,-0.09756157547235489,13.981050491333008,0.08177715539932251,2.1517977714538574,-0.41324180364608765,0.0,0.0,0.0,0.0,0.0,0.0,0.0,-0.44512603032488196,0.08691041958613896,-0.21709808964257127,0.11663175054435955,-0.15075365535118457,-0.03632510441127193,-0.4028609129978051,1.6756512969460404,0.0520943508922008,0.029996174661885155,-2.7522526094670563,0.034318528701639116,2.7663383935822377,0.7691940189632389,1.6754973547542302,0.052104326824870026,0.029969505109285054,-2.752394845125968,0.0342448039870148,2.7663679543071322,0.7691630533470046,-0.00100285487917608,0.00018709721058694299,-0.0004835327216526745,0.0002721844653484585,6.193710501225384e-05,-5.952001011612867e-05,-0.0001265451295448294,0.0,0.0,0.0,0.0,0.0,0.0,0.0,-0.00015394219181019686,9.975932669228915e-06,-2.6669552600101093e-05,-0.00014223565891180456,-7.372471462431529e-05,2.9560724894572843e-05,-3.0965616234279736e-05,0.00100285487917608,-0.00018709721058694299,0.0004835327216526745,-0.0002721844653484585,-6.193710501225384e-05,5.952001011612867e-05,0.0001265451295448294,0.3752071261405945,22.720483779907227,0.09756157547235489,-13.981050491333008,-0.08177715539932251,-2.1517977714538574,0.41324180364608765,0
21,0.09997367858886719,-0.4267818331718445,-22.748254776000977,-0.07375786453485489,13.957246780395508,0.06987529993057251,2.1453890800476074,-0.41965049505233765,0.0,0.0,0.0,0.0,0.0,0.0,0.0,-0.4345760309431129,0.09026739147908504,-0.21143344583247714,0.11377081986826097,-0.15131013164273166,-0.03728595035631369,-0.4047454357436941,1.6756549162237269,0.05209629973403194,0.029994504334077597,-2.7522506949478474,0.03431985113024712,2.7663391056590605,0.7691978591160729,1.6754973547542302,0.052104326824870026,0.029969505109285054,-2.752394845125968,0.0342448039870148,2.7663679543071322,0.7691630533470046,0.0005407922730659363,0.0009187872109147781,-0.0006830705309343878,0.0006452405204574045,0.0005966070518405235,0.00011854808615138418,0.000324098384057182,0.0,0.0,0.0,0.0,0.0,0.0,0.0,-0.00015756146949663652,8.02709083808778e-06,-2.4999224792543462e-05,-0.00014415017812074993,-7.50471432323166e-05,2.8848648071733152e-05,-3.4805769068224635e-05,-0.0005407922730659363,-0.0009187872109147781,0.0006830705309343878,-0.0006452405204574045,-0.0005966070518405235,-0.00011854808615138418,-0.000324098384057182,0.4267818331718445,22.748254776000977,0.07375786453485489,-13.957246780395508,-0.06987529993057251,-2.1453890800476074,0.41965049505233765,0
22,0.10497236251831055,-0.4267818331718445,-22.748254776000977,-0.07375786453485489,13.957246780395508,0.06987529993057251,2.1453890800476074,-0.41965049505233765,0.0,0.0,0.0,0.0,0.0,0.0,0.0,-0.4345760309431129,0.09026739147908504,-0.21143344583247714,0.11377081986826097,-0.15131013164273166,-0.03728595035631369,-0.4047454357436941,1.6756549162237269,0.05209629973403194,0.029994504334077597,-2.7522506949478474,0.03431985113024712,2.7663391056590605,0.7691978591160729,1.6754973547542302,0.052104326824870026,0.029969505109285054,-2.752394845125968,0.0342448039870148,2.7663679543071322,0.7691630533470046,0.0005407922730659363,0.0009187872109147781,-0.0006830705309343878,0.0006452405204574045,0.0005966070518405235,0.00011854808615138418,0.000324098384057182,0.0,0.0,0.0,0.0,0.0,0.0,0.0,-0.00015756146949663652,8.02709083808778e-06,-2.4999224792543462e-05,-0.00014415017812074993,-7.50471432323166e-05,2.8848648071733152e-05,-3.4805769068224635e-05,-0.0005407922730659363,-0.0009187872109147781,0.0006830705309343878,-0.0006452405204574045,-0.0005966070518405235,-0.00011854808615138418,-0.000324098384057182,0.4267818331718445,22.748254776000977,0.07375786453485489,-13.957246780395508,-0.06987529993057251,-2.1453890800476074,0.41965049505233765,0
23,0.10997581481933594,-0.4267818331718445,-22.748254776000977,-0.07375786453485489,13.957246780395508,0.06987529993057251,2.1453890800476074,-0.41965049505233765,0.0,0.0,0.0,0.0,0.0,0.0,0.0,-0.4345760309431129,0.09026739147908504,-0.21143344583247714,0.11377081986826097,-0.15131013164273166,-0.03728595035631369,-0.4047454357436941,1.6756549162237269,0.05209629973403194,0.029994504334077597,-2.7522506949478474,0.03431985113024712,2.7663391056590605,0.7691978591160729,1.6754973547542302,0.052104326824870026,0.029969505109285054,-2.752394845125968,0.0342448039870148,2.7663679543071322,0.7691630533470046,0.0005407922730659363,0.0009187872109147781,-0.0006830705309343878,0.0006452405204574045,0.0005966070518405235,0.00011854808615138418,0.000324098384057182,0.0,0.0,0.0,0.0,0.0,0.0,0.0,-0.00015756146949663652,8.02709083808778e-06,-2.4999224792543462e-05,-0.00014415017812074993,-7.50471432323166e-05,2.8848648071733152e-05,-3.4805769068224635e-05,-0.0005407922730659363,-0.0009187872109147781,0.0006830705309343878,-0.0006452405204574045,-0.0005966070518405235,-0.00011854808615138418,-0.000324098384057182,0.4267818331718445,22.748254776000977,0.07375786453485489,-13.957246780395508,-0.06987529993057251,-2.1453890800476074,0.41965049505233765,0
24,0.11497712135314941,-0.4267818331718445,-22.748254776000977,-0.07375786453485489,13.957246780395508,0.06987529993057251,2.1453890800476074,-0.41965049505233765,0.0,0.0,0.0,0.0,0.0,0.0,0.0,-0.4345760309431129,0.09026739147908504,-0.21143344583247714,0.11377081986826097,-0.15131013164273166,-0.03728595035631369,-0.4047454357436941,1.6756549162237269,0.05209629973403194,0.029994504334077597,-2.7522506949478474,0.03431985113024712,2.7663391056590605,0.7691978591160729,1.6754973547542302,0.052104326824870026,0.029969505109285054,-2.752394845125968,0.0342448039870148,2.7663679543071322,0.7691630533470046,0.0005407922730659363,0.0009187872109147781,-0.0006830705309343878,0.0006452405204574045,0.0005966070518405235,0.00011854808615138418,0.000324098384057182,0.0,0.0,0.0,0.0,0.0,0.0,0.0,-0.00015756146949663652,8.02709083808778e-06,-2.4999224792543462e-05,-0.00014415017812074993,-7.50471432323166e-05,2.8848648071733152e-05,-3.4805769068224635e-05,-0.0005407922730659363,-0.0009187872109147781,0.0006830705309343878,-0.0006452405204574045,-0.0005966070518405235,-0.00011854808615138418,-0.000324098384057182,0.4267818331718445,22.748254776000977,0.07375786453485489,-13.957246780395508,-0.06987529993057251,-2.1453890800476074,0.41965049505233765,0
25,0.11999750137329102,-0.4267818331718445,-22.696680068969727,-0.1253325641155243,13.981050491333008,0.08177715539932251,2.1517977714538574,-0.38577598333358765,0.0,0.0,0.0,0.0,0.0,0.0,0.0,-0.4329889781737264,0.09284032571785805,-0.21198627763895914,0.11166881282738408,-0.15075458304333403,-0.03776016254382962,-0.40579539632028366,1.6756549162237269,0.05209268045634553,0.02999812350304564,-2.75225035991905,0.0343185287018617,2.7663383935822377,0.7691950894736285,1.6754973547542302,0.052104326824870026,0.029969505109285054,-2.752394845125968,0.0342448039870148,2.7663679543071322,0.7691630533470046,9.683341744933261e-05,-6.79520904220939e-05,-3.2609276851492505e-06,-2.4462185645659937e-06,1.3111590214197941e-06,-0.00015794201562667286,-0.0009724761002048727,0.0,0.0,0.0,0.0,0.0,0.0,0.0,-0.00015756146949663652,1.1646368524492745e-05,-2.8618393760587724e-05,-0.00014448520691789923,-7.372471484690113e-05,2.9560724894572843e-05,-3.203612662383559e-05,-9.683341744933261e-05,6.79520904220939e-05,3.2609276851492505e-06,2.4462185645659937e-06,-1.3111590214197941e-06,0.00015794201562667286,0.0009724761002048727,0.4267818331718445,22.696680068969727,0.1253325641155243,-13.981050491333008,-0.08177715539932251,-2.1517977714538574,0.38577598333358765,0
26,0.12498807907104492,-0.4267818331718445,-22.696680068969727,-0.1253325641155243,13.981050491333008,0.08177715539932251,2.1517977714538574,-0.38577598333358765,0.0,0.0,0.0,0.0,0.0,0.0,0.0,-0.4329889781737264,0.09284032571785805,-0.21198627763895914,0.11166881282738408,-0.15075458304333403,-0.03776016254382962,-0.40579539632028366,1.6756549162237269,0.05209268045634553,0.02999812350304564,-2.75225035991905,0.0343185287018617,2.7663383935822377,0.7691950894736285,1.6754973547542302,0.052104326824870026,0.029969505109285054,-2.752394845125968,0.0342448039870148,2.7663679543071322,0.7691630533470046,9.683341744933261e-05,-6.79520904220939e-05,-3.2609276851492505e-06,-2.4462185645659937e-06,1.3111590214197941e-06,-0.00015794201562667286,-0.0009724761002048727,0.0,0.0,0.0,0.0,0.0,0.0,0.0,-0.00015756146949663652,1.1646368524492745e-05,-2.8618393760587724e-05,-0.00014448520691789923,-7.372471484690113e-05,2.9560724894572843e-05,-3.203612662383559e-05,-9.683341744933261e-05,6.79520904220939e-05,3.2609276851492505e-06,2.4462185645659937e-06,-1.3111590214197941e-06,0.00015794201562667286,0.0009724761002048727,0.4267818331718445,22.696680068969727,0.1253325641155243,-13.981050491333008,-0.08177715539932251,-2.1517977714538574,0.38577598333358765,0
27,0.13010644912719727,-0.4505855441093445,-22.748254776000977,-0.1253325641155243,13.981050491333008,0.07628399133682251,2.1453890800476074,-0.39950889348983765,0.0,0.0,0.0,0.0,0.0,0.0,0.0,-0.42736650486101596,0.09068535434363141,-0.20662612958351678,0.11264603726558392,-0.150895570337778,-0.03775561734064681,-0.40647448719509105,1.675656586659582,0.05209629973403194,0.02999812350304503,-2.752252365031842,0.0343191390534242,2.7663391056590605,0.7691956720578726,1.6754973547542302,0.052104326824870026,0.029969505109285054,-2.752394845125968,0.0342448039870148,2.7663679543071322,0.7691630533470046,0.0004968319674179794,0.0007153404500833814,0.00022749048231131104,0.00011012899911126909,3.9347869086127765e-05,0.00016136558682205973,-0.0001211820346110904,0.0,0.0,0.0,0.0,0.0,0.0,0.0,-0.00015923190535183096,8.02709083808778e-06,-2.86183937599771e-05,-0.0001424800941260962,-7.433506640940057e-05,2.8848648071733152e-05,-3.261871086801538e-05,-0.0004968319674179794,-0.0007153404500833814,-0.00022749048231131104,-0.00011012899911126909,-3.9347869086127765e-05,-0.00016136558682205973,0.0001211820346110904,0.4505855441093445,22.748254776000977,0.1253325641155243,-13.981050491333008,-0.07628399133682251,-2.1453890800476074,0.39950889348983765,0
28,0.1349811553955078,-0.4505855441093445,-22.748254776000977,-0.1253325641155243,13.981050491333008,0.07628399133682251,2.1453890800476074,-0.39950889348983765,0.0,0.0,0.0,0.0,0.0,0.0,0.0,-0.42736650486101596,0.09068535434363141,-0.20662612958351678,0.11264603726558392,-0.150895570337778,-0.03775561734064681,-0.40647448719509105,1.675656586659582,0.05209629973403194,0.02999812350304503,-2.752252365031842,0.0343191390534242,2.7663391056590605,0.7691956720578726,1.6754973547542302,0.052104326824870026,0.029969505109285054,-2.752394845125968,0.0342448039870148,2.7663679543071322,0.7691630533470046,0.0004968319674179794,0.0007153404500833814,0.00022749048231131104,0.00011012899911126909,3.9347869086127765e-05,0.00016136558682205973,-0.0001211820346110904,0.0,0.0,0.0,0.0,0.0,0.0,0.0,-0.00015923190535183096,8.02709083808778e-06,-2.86183937599771e-05,-0.0001424800941260962,-7.433506640940057e-05,2.8848648071733152e-05,-3.261871086801538e-05,-0.0004968319674179794,-0.0007153404500833814,-0.00022749048231131104,-0.00011012899911126909,-3.9347869086127765e-05,-0.00016136558682205973,0.0001211820346110904,0.4505855441093445,22.748254776000977,0.1253325641155243,-13.981050491333008,-0.07628399133682251,-2.1453890800476074,0.39950889348983765,0
29,0.1399846076965332,-0.4267818331718445,-22.748254776000977,-0.09756157547235489,14.008821487426758,0.08177715539932251,2.1389803886413574,-0.44711631536483765,0.0,0.0,0.0,0.0,0.0,0.0,0.0,-0.42641255314906756,0.08889597057900744,-0.20707371352733075,0.1137951942226891,-0.15122590122234075,-0.038361965576305536,-0.4065312657249956,1.6756549162237269,0.05209629973403194,0.02999617466173674,-2.7522544790567522,0.0343185287018617,2.7663398177358833,0.7692009627351228,1.6754973547542302,0.052104326824870026,0.029969505109285054,-2.752394845125968,0.0342448039870148,2.7663679543071322,0.7691630533470046,0.0002191370741467667,0.000944888262468563,-0.0006794375568674381,-0.0003757575788962533,0.00013891729850371297,0.0002597008155608355,0.0018745823993332037,0.0,0.0,0.0,0.0,0.0,0.0,0.0,-0.00015756146949663652,8.02709083808778e-06,-2.666955245168509e-05,-0.00014036606921585815,-7.372471484690113e-05,2.813657124889346e-05,-3.790938811820688e-05,-0.0002191370741467667,-0.000944888262468563,0.0006794375568674381,0.0003757575788962533,-0.00013891729850371297,-0.0002597008155608355,-0.0018745823993332037,0.4267818331718445,22.748254776000977,0.09756157547235489,-14.008821487426758,-0.08177715539932251,-2.1389803886413574,0.44711631536483765,0
30,0.1449263095855713,-0.4267818331718445,-22.748254776000977,-0.09756157547235489,14.008821487426758,0.08177715539932251,2.1389803886413574,-0.44711631536483765,0.0,0.0,0.0,0.0,0.0,0.0,0.0,-0.42641255314906756,0.08889597057900744,-0.20707371352733075,0.1137951942226891,-0.15122590122234075,-0.038361965576305536,-0.4065312657249956,1.6756549162237269,0.05209629973403194,0.02999617466173674,-2.7522544790567522,0.0343185287018617,2.7663398177358833,0.7692009627351228,1.6754973547542302,0.052104326824870026,0.029969505109285054,-2.752394845125968,0.0342448039870148,2.7663679543071322,0.7691630533470046,0.0002191370741467667,0.000944888262468563,-0.0006794375568674381,-0.0003757575788962533,0.00013891729850371297,0.0002597008155608355,0.0018745823993332037,0.0,0.0,0.0,0.0,0.0,0.0,0.0,-0.00015756146949663652,8.02709083808778e-06,-2.666955245168509e-05,-0.00014036606921585815,-7.372471484690113e-05,2.813657124889346e-05,-3.790938811820688e-05,-0.0002191370741467667,-0.000944888262468563,0.0006794375568674381,0.0003757575788962533,-0.00013891729850371297,-0.0002597008155608355,-0.0018745823993332037,0.4267818331718445,22.748254776000977,0.09756157547235489,-14.008821487426758,-0.08177715539932251,-2.1389803886413574,0.44711631536483765,0
31,0.15016674995422363,-0.4267818331718445,-22.720483779907227,-0.09756157547235489,13.981050491333008,0.07628399133682251,2.1389803886413574,-0.39950889348983765,0.0,0.0,0.0,0.0,0.0,0.0,0.0,-0.4279082036586237,0.09064319792802732,-0.20922886514374076,0.10941575907169146,-0.15109974020570033,-0.039638179252293605,-0.4063791454588327,1.6756549162237269,0.0520943508922008,0.02999617466173674,-2.7522526125944675,0.0343191390534242,2.7663398177358833,0.7691966023247105,1.6754973547542302,0.052104326824870026,0.029969505109285054,-2.752394845125968,0.0342448039870148,2.7663679543071322,0.7691630533470046,-0.0004071381000189409,0.0002464421858374119,-0.0007162093191317799,-0.00029803402284939813,0.0003567201945011924,0.00025986490503066104,-0.00012675283821527797,0.0,0.0,0.0,0.0,0.0,0.0,0.0,-0.00015756146949663652,9.975932669228915e-06,-2.666955245168509e-05,-0.00014223253150058568,-7.433506640940057e-05,2.813657124889346e-05,-3.354897770591059e-05,0.0004071381000189409,-0.0002464421858374119,0.0007162093191317799,0.00029803402284939813,-0.0003567201945011924,-0.00025986490503066104,0.00012675283821527797,0.4267818331718445,22.720483779907227,0.09756157547235489,-13.981050491333008,-0.07628399133682251,-2.1389803886413574,0.39950889348983765,0
32,0.15576887130737305,-0.4267818331718445,-22.720483779907227,-0.09756157547235489,13.981050491333008,0.07628399133682251,2.1389803886413574,-0.39950889348983765,0.0,0.0,0.0,0.0,0.0,0.0,0.0,-0.4279082036586237,0.09064319792802732,-0.20922886514374076,0.10941575907169146,-0.15109974020570033,-0.039638179252293605,-0.4063791454588327,1.6756549162237269,0.0520943508922008,0.02999617466173674,-2.7522526125944675,0.0343191390534242,2.7663398177358833,0.7691966023247105,1.6754973547542302,0.052104326824870026,0.029969505109285054,-2.752394845125968,0.0342448039870148,2.7663679543071322,0.7691630533470046,-0.0004071381000189409,0.0002464421858374119,-0.0007162093191317799,-0.00029803402284939813,0.0003567201945011924,0.00025986490503066104,-0.00012675283821527797,0.0,0.0,0.0,0.0,0.0,0.0,0.0,-0.00015756146949663652,9.975932669228915e-06,-2.666955245168509e-05,-0.00014223253150058568,-7.433506640940057e-05,2.813657124889346e-05,-3.354897770591059e-05,0.0004071381000189409,-0.0002464421858374119,0.0007162093191317799,0.00029803402284939813,-0.0003567201945011924,-0.00025986490503066104,0.00012675283821527797,0.4267818331718445,22.720483779907227,0.09756157547235489,-13.981050491333008,-0.07628399133682251,-2.1389803886413574,0.39950889348983765,0
33,0.15993213653564453,-0.4505855441093445,-22.720483779907227,-0.1253325641155243,13.957246780395508,0.08818584680557251,2.1389803886413574,-0.38577598333358765,0.0,0.0,0.0,0.0,0.0,0.0,0.0,-0.4339129874846034,0.08625729960298921,-0.21266416892883666,0.1145201404681793,-0.15038295202226923,-0.03934774752511552,-0.4061743817305278,1.675656586659582,0.0520943508922008,0.02999812350304503,-2.7522509143855007,0.034317816625038786,2.7663398177358833,0.7691950488335956,1.6754973547542302,0.052104326824870026,0.029969505109285054,-2.752394845125968,0.0342448039870148,2.7663679543071322,0.7691630533470046,-3.193978774034442e-05,3.082377893618895e-05,-0.000561328098060236,0.0010314296698380118,3.1897841361416657e-05,4.436294013724405e-05,-0.0007482327528488481,0.0,0.0,0.0,0.0,0.0,0.0,0.0,-0.00015923190535183096,9.975932669228915e-06,-2.86183937599771e-05,-0.00014393074046736842,-7.301263802398511e-05,2.813657124889346e-05,-3.199548659094109e-05,3.193978774034442e-05,-3.082377893618895e-05,0.000561328098060236,-0.0010314296698380118,-3.1897841361416657e-05,-4.436294013724405e-05,0.0007482327528488481,0.4505855441093445,22.720483779907227,0.1253325641155243,-13.957246780395508,-0.08818584680557251,-2.1389803886413574,0.38577598333358765,0
34,0.16496968269348145,-0.4505855441093445,-22.720483779907227,-0.1253325641155243,13.957246780395508,0.08818584680557251,2.1389803886413574,-0.38577598333358765,0.0,0.0,0.0,0.0,0.0,0.0,0.0,-0.4339129874846034,0.08625729960298921,-0.21266416892883666,0.1145201404681793,-0.15038295202226923,-0.03934774752511552,-0.4061743817305278,1.675656586659582,0.0520943508922008,0.02999812350304503,-2.7522509143855007,0.034317816625038786,2.7663398177358833,0.7691950488335956,1.6754973547542302,0.052104326824870026,0.029969505109285054,-2.752394845125968,0.0342448039870148,2.7663679543071322,0.7691630533470046,-3.193978774034442e-05,3.082377893618895e-05,-0.000561328098060236,0.0010314296698380118,3.1897841361416657e-05,4.436294013724405e-05,-0.0007482327528488481,0.0,0.0,0.0,0.0,0.0,0.0,0.0,-0.00015923190535183096,9.975932669228915e-06,-2.86183937599771e-05,-0.00014393074046736842,-7.301263802398511e-05,2.813657124889346e-05,-3.199548659094109e-05,3.193978774034442e-05,-3.082377893618895e-05,0.000561328098060236,-0.0010314296698380118,-3.1897841361416657e-05,-4.436294013724405e-05,0.0007482327528488481,0.4505855441093445,22.720483779907227,0.1253325641155243,-13.957246780395508,-0.08818584680557251,-2.1389803886413574,0.38577598333358765,0
35,0.1699831485748291,-0.4505855441093445,-22.696680068969727,-0.1253325641155243,13.981050491333008,0.08177715539932251,2.1389803886413574,-0.36471885442733765,0.0,0.0,0.0,0.0,0.0,0.0,0.0,-0.4319810610138639,0.09108438614301992,-0.20921536214874287,0.109572926674489,-0.15059171734979157,-0.041661271349882775,-0.4058409039347253,1.675656586659582,0.05209268045634553,0.02999812350304503,-2.752252582107905,0.03431852432077041,2.7663398177358833,0.7691918063362418,1.6754973547542302,0.052104326824870026,0.029969505109285054,-2.752394845125968,0.0342448039870148,2.7663679543071322,0.7691630533470046,0.000297152210356479,-0.00012083362694587426,-6.936022939452054e-05,-1.6087995564174608e-05,0.00012970818477905975,1.6430871085319402e-05,-0.0017501646033980082,0.0,0.0,0.0,0.0,0.0,0.0,0.0,-0.00015923190535183096,1.1646368524492745e-05,-2.86183937599771e-05,-0.00014226301806319341,-7.372033375561277e-05,2.813657124889346e-05,-2.8752989237212923e-05,-0.000297152210356479,0.00012083362694587426,6.936022939452054e-05,1.6087995564174608e-05,-0.00012970818477905975,-1.6430871085319402e-05,0.0017501646033980082,0.4505855441093445,22.696680068969727,0.1253325641155243,-13.981050491333008,-0.08177715539932251,-2.1389803886413574,0.36471885442733765,0
36,0.17501091957092285,-0.4505855441093445,-22.696680068969727,-0.1253325641155243,13.981050491333008,0.08177715539932251,2.1389803886413574,-0.36471885442733765,0.0,0.0,0.0,0.0,0.0,0.0,0.0,-0.4319810610138639,0.09108438614301992,-0.20921536214874287,0.109572926674489,-0.15059171734979157,-0.041661271349882775,-0.4058409039347253,1.675656586659582,0.05209268045634553,0.02999812350304503,-2.752252582107905,0.03431852432077041,2.7663398177358833,0.7691918063362418,1.6754973547542302,0.052104326824870026,0.029969505109285054,-2.752394845125968,0.0342448039870148,2.7663679543071322,0.7691630533470046,0.000297152210356479,-0.00012083362694587426,-6.936022939452054e-05,-1.6087995564174608e-05,0.00012970818477905975,1.6430871085319402e-05,-0.0017501646033980082,0.0,0.0,0.0,0.0,0.0,0.0,0.0,-0.00015923190535183096,1.1646368524492745e-05,-2.86183937599771e-05,-0.00014226301806319341,-7.372033375561277e-05,2.813657124889346e-05,-2.8752989237212923e-05,-0.000297152210356479,0.00012083362694587426,6.936022939452054e-05,1.6087995564174608e-05,-0.00012970818477905975,-1.6430871085319402e-05,0.0017501646033980082,0.4505855441093445,22.696680068969727,0.1253325641155243,-13.981050491333008,-0.08177715539932251,-2.1389803886413574,0.36471885442733765,0
37,0.18002104759216309,-0.5021602511405945,-22.720483779907227,-0.1491362750530243,13.981050491333008,0.08818584680557251,2.1389803886413574,-0.39950889348983765,0.0,0.0,0.0,0.0,0.0,0.0,0.0,-0.435169958148383,0.09072664154513072,-0.2099721786604893,0.10929864824550388,-0.15068788001651198,-0.04244260523467593,-0.4049566991676064,1.6756602059372685,0.0520943508922008,0.029999793938900295,-2.752252530216146,0.034317816625014055,2.7663398177358833,0.7691967273300254,1.6754973547542302,0.052104326824870026,0.029969505109285054,-2.752394845125968,0.0342448039870148,2.7663679543071322,0.7691630533470046,0.0020191900761332517,0.0006153781952450083,0.0004999444218999352,-0.00038986666403419444,-0.0004657882048572866,0.0001237995834278489,0.00013058754700399043,0.0,0.0,0.0,0.0,0.0,0.0,0.0,-0.00016285118303827062,9.975932669228915e-06,-3.028882961524093e-05,-0.00014231490982208328,-7.301263799925489e-05,2.813657124889346e-05,-3.367398302078772e-05,-0.0020191900761332517,-0.0006153781952450083,-0.0004999444218999352,0.00038986666403419444,0.0004657882048572866,-0.0001237995834278489,-0.00013058754700399043,0.5021602511405945,22.720483779907227,0.1491362750530243,-13.981050491333008,-0.08818584680557251,-2.1389803886413574,0.39950889348983765,0
38,0.1850128173828125,-0.5021602511405945,-22.720483779907227,-0.1491362750530243,13.981050491333008,0.08818584680557251,2.1389803886413574,-0.39950889348983765,0.0,0.0,0.0,0.0,0.0,0.0,0.0,-0.435169958148383,0.09072664154513072,-0.2099721786604893,0.10929864824550388,-0.15068788001651198,-0.04244260523467593,-0.4049566991676064,1.6756602059372685,0.0520943508922008,0.029999793938900295,-2.752252530216146,0.034317816625014055,2.7663398177358833,0.7691967273300254,1.6754973547542302,0.052104326824870026,0.029969505109285054,-2.752394845125968,0.0342448039870148,2.7663679543071322,0.7691630533470046,0.0020191900761332517,0.0006153781952450083,0.0004999444218999352,-0.00038986666403419444,-0.0004657882048572866,0.0001237995834278489,0.00013058754700399043,0.0,0.0,0.0,0.0,0.0,0.0,0.0,-0.00016285118303827062,9.975932669228915e-06,-3.028882961524093e-05,-0.00014231490982208328,-7.301263799925489e-05,2.813657124889346e-05,-3.367398302078772e-05,-0.0020191900761332517,-0.0006153781952450083,-0.0004999444218999352,0.00038986666403419444,0.0004657882048572866,-0.0001237995834278489,-0.00013058754700399043,0.5021602511405945,22.720483779907227,0.1491362750530243,-13.981050491333008,-0.08818584680557251,-2.1389803886413574,0.39950889348983765,0
39,0.19002437591552734,-0.4267818331718445,-22.720483779907227,-0.07375786453485489,14.008821487426758,0.08177715539932251,2.1389803886413574,-0.43338340520858765,0.0,0.0,0.0,0.0,0.0,0.0,0.0,-0.43133849282171044,0.08637919297494764,-0.20669101634279244,0.11191847894650096,-0.15142278282598937,-0.04164979750518074,-0.4037320854711587,1.6756549162237269,0.0520943508922008,0.029994504225881475,-2.752253819614239,0.0343185287018617,2.7663398177358833,0.7692004968233142,1.6754973547542302,0.052104326824870026,0.029969505109285054,-2.752394845125968,0.0342448039870148,2.7663679543071322,0.7691630533470046,0.00024671680935802663,5.539425518247079e-05,-0.0007759953948974413,-0.0009110385539438817,-5.8541426892906584e-05,9.419775929669181e-05,0.0009545896293162929,0.0,0.0,0.0,0.0,0.0,0.0,0.0,-0.00015756146949663652,9.975932669228915e-06,-2.499911659642126e-05,-0.00014102551172889832,-7.372471484690113e-05,2.813657124889346e-05,-3.744347630951772e-05,-0.00024671680935802663,-5.539425518247079e-05,0.0007759953948974413,0.0009110385539438817,5.8541426892906584e-05,-9.419775929669181e-05,-0.0009545896293162929,0.4267818331718445,22.720483779907227,0.07375786453485489,-14.008821487426758,-0.08177715539932251,-2.1389803886413574,0.43338340520858765,0
40,0.1949911117553711,-0.4267818331718445,-22.720483779907227,-0.07375786453485489,14.008821487426758,0.08177715539932251,2.1389803886413574,-0.43338340520858765,0.0,0.0,0.0,0.0,0.0,0.0,0.0,-0.43133849282171044,0.08637919297494764,-0.20669101634279244,0.11191847894650096,-0.15142278282598937,-0.04164979750518074,-0.4037320854711587,1.6756549162237269,0.0520943508922008,0.029994504225881475,-2.752253819614239,0.0343185287018617,2.7663398177358833,0.7692004968233142,1.6754973547542302,0.052104326824870026,0.029969505109285054,-2.752394845125968,0.0342448039870148,2.7663679543071322,0.7691630533470046,0.00024671680935802663,5.539425518247079e-05,-0.0007759953948974413,-0.0009110385539438817,-5.8541426892906584e-05,9.419775929669181e-05,0.0009545896293162929,0.0,0.0,0.0,0.0,0.0,0.0,0.0,-0.00015756146949663652,9.975932669228915e-06,-2.499911659642126e-05,-0.00014102551172889832,-7.372471484690113e-05,2.813657124889346e-05,-3.744347630951772e-05,-0.00024671680935802663,-5.539425518247079e-05,0.0007759953948974413,0.0009110385539438817,5.8541426892906584e-05,-9.419775929669181e-05,-0.0009545896293162929,0.4267818331718445,22.720483779907227,0.07375786453485489,-14.008821487426758,-0.08177715539932251,-2.1389803886413574,0.43338340520858765,0
41,0.19997477531433105,-0.4267818331718445,-22.748254776000977,-0.1253325641155243,13.957246780395508,0.10008770227432251,2.1453890800476074,-0.42605918645858765,0.0,0.0,0.0,0.0,0.0,0.0,0.0,-0.43241610905345024,0.08364317137658633,-0.20552805372634878,0.11275422867022064,-0.15116152140521705,-0.04142384412791572,-0.405724067632395,1.6756549162237269,0.05209629973403194,0.02999812350304503,-2.7522478927518286,0.03431649419665336,2.7663391056590605,0.7691995596309974,1.6754973547542302,0.052104326824870026,0.029969505109285054,-2.752394845125968,0.0342448039870148,2.7663679543071322,0.7691630533470046,-0.0001415629341608384,0.0003199098185242408,0.0004886222983443538,0.0005600247168960188,-0.0005333489132309349,5.0402634391670715e-05,0.000927649265251847,0.0,0.0,0.0,0.0,0.0,0.0,0.0,-0.00015756146949663652,8.02709083808778e-06,-2.86183937599771e-05,-0.00014695237413953066,-7.169020963856271e-05,2.8848648071733152e-05,-3.6506283992765454e-05,0.0001415629341608384,-0.0003199098185242408,-0.0004886222983443538,-0.0005600247168960188,0.0005333489132309349,-5.0402634391670715e-05,-0.000927649265251847,0.4267818331718445,22.748254776000977,0.1253325641155243,-13.957246780395508,-0.10008770227432251,-2.1453890800476074,0.42605918645858765,0
42,0.20497369766235352,-0.4267818331718445,-22.748254776000977,-0.1253325641155243,13.957246780395508,0.10008770227432251,2.1453890800476074,-0.42605918645858765,0.0,0.0,0.0,0.0,0.0,0.0,0.0,-0.43241610905345024,0.08364317137658633,-0.20552805372634878,0.11275422867022064,-0.15116152140521705,-0.04142384412791572,-0.405724067632395,1.6756549162237269,0.05209629973403194,0.02999812350304503,-2.7522478927518286,0.03431649419665336,2.7663391056590605,0.7691995596309974,1.6754973547542302,0.052104326824870026,0.029969505109285054,-2.752394845125968,0.0342448039870148,2.7663679543071322,0.7691630533470046,-0.0001415629341608384,0.0003199098185242408,0.0004886222983443538,0.0005600247168960188,-0.0005333489132309349,5.0402634391670715e-05,0.000927649265251847,0.0,0.0,0.0,0.0,0.0,0.0,0.0,-0.00015756146949663652,8.02709083808778e-06,-2.86183937599771e-05,-0.00014695237413953066,-7.169020963856271e-05,2.8848648071733152e-05,-3.6506283992765454e-05,0.0001415629341608384,-0.0003199098185242408,-0.0004886222983443538,-0.0005600247168960188,0.0005333489132309349,-5.0402634391670715e-05,-0.000927649265251847,0.4267818331718445,22.748254776000977,0.1253325641155243,-13.957246780395508,-0.10008770227432251,-2.1453890800476074,0.42605918645858765,0
43,0.20998334884643555,-0.4029781222343445,-22.672876358032227,-0.1491362750530243,14.008821487426758,0.08818584680557251,2.1517977714538574,-0.42605918645858765,0.0,0.0,0.0,0.0,0.0,0.0,0.0,-0.4300389223116753,0.086505535152754,-0.20167512517938685,0.10743386016324563,-0.150756598404459,-0.04166845965458086,-0.404793974756268,1.6756510205477997,0.05209101002049027,0.029999793938900295,-2.752254533985135,0.034317816625038786,2.7663383935822377,0.769199329969362,1.6754973547542302,0.052104326824870026,0.029969505109285054,-2.752394845125968,0.0342448039870148,2.7663679543071322,0.7691630533470046,-0.00045142193065284057,-0.0010835098008094232,0.0008362415938332809,-0.0004738912469226841,-0.00018372228048112982,-0.00015117684057399614,0.0008793639017029663,0.0,0.0,0.0,0.0,0.0,0.0,0.0,-0.00015366579356945742,1.3316804379756575e-05,-3.028882961524093e-05,-0.000140311140833127,-7.301263802398511e-05,2.9560724894572843e-05,-3.62766223573896e-05,0.00045142193065284057,0.0010835098008094232,-0.0008362415938332809,0.0004738912469226841,0.00018372228048112982,0.00015117684057399614,-0.0008793639017029663,0.4029781222343445,22.672876358032227,0.1491362750530243,-14.008821487426758,-0.08818584680557251,-2.1517977714538574,0.42605918645858765,0
44,0.21497821807861328,-0.4029781222343445,-22.672876358032227,-0.1491362750530243,14.008821487426758,0.08818584680557251,2.1517977714538574,-0.42605918645858765,0.0,0.0,0.0,0.0,0.0,0.0,0.0,-0.4300389223116753,0.086505535152754,-0.20167512517938685,0.10743386016324563,-0.150756598404459,-0.04166845965458086,-0.404793974756268,1.6756510205477997,0.05209101002049027,0.029999793938900295,-2.752254533985135,0.034317816625038786,2.7663383935822377,0.769199329969362,1.6754973547542302,0.052104326824870026,0.029969505109285054,-2.752394845125968,0.0342448039870148,2.7663679543071322,0.7691630533470046,-0.00045142193065284057,-0.0010835098008094232,0.0008362415938332809,-0.0004738912469226841,-0.00018372228048112982,-0.00015117684057399614,0.0008793639017029663,0.0,0.0,0.0,0.0,0.0,0.0,0.0,-0.00015366579356945742,1.3316804379756575e-05,-3.028882961524093e-05,-0.000140311140833127,-7.301263802398511e-05,2.9560724894572843e-05,-3.62766223573896e-05,0.00045142193065284057,0.0010835098008094232,-0.0008362415938332809,0.0004738912469226841,0.00018372228048112982,0.00015117684057399614,-0.0008793639017029663,0.4029781222343445,22.672876358032227,0.1491362750530243,-14.008821487426758,-0.08818584680557251,-2.1517977714538574,0.42605918645858765,0
45,0.21999430656433105,-0.4267818331718445,-22.672876358032227,-0.1253325641155243,14.008821487426758,0.08818584680557251,2.1655306816101074,-0.43338340520858765,0.0,0.0,0.0,0.0,0.0,0.0,0.0,-0.43614422439215284,0.08180682356849905,-0.20709339959970785,0.11139178627802057,-0.1500339660041147,-0.04015403850928323,-0.40354723539355325,1.6756549161860421,0.05209101002049027,0.02999812350304503,-2.7522545611348215,0.034317816625038786,2.7663368677033313,0.769197318064483,1.6754973547542302,0.052104326824870026,0.029969505109285054,-2.752394845125968,0.0342448039870148,2.7663679543071322,0.7691630533470046,-0.0006813889104100712,-0.0012132965237428503,-0.0002890484645400098,-0.0002332756776468824,-0.00015166952083499455,-0.0006397736519689132,0.0008423975587485268,0.0,0.0,0.0,0.0,0.0,0.0,0.0,-0.0001575614318118923,1.3316804379756575e-05,-2.86183937599771e-05,-0.00014028399114662804,-7.301263802398511e-05,3.108660380091166e-05,-3.4264717478360573e-05,0.0006813889104100712,0.0012132965237428503,0.0002890484645400098,0.0002332756776468824,0.00015166952083499455,0.0006397736519689132,-0.0008423975587485268,0.4267818331718445,22.672876358032227,0.1253325641155243,-14.008821487426758,-0.08818584680557251,-2.1655306816101074,0.43338340520858765,0
46,0.22501158714294434,-0.4267818331718445,-22.672876358032227,-0.1253325641155243,14.008821487426758,0.08818584680557251,2.1655306816101074,-0.43338340520858765,0.0,0.0,0.0,0.0,0.0,0.0,0.0,-0.43614422439215284,0.08180682356849905,-0.20709339959970785,0.11139178627802057,-0.1500339660041147,-0.04015403850928323,-0.40354723539355325,1.6756549161860421,0.05209101002049027,0.02999812350304503,-2.7522545611348215,0.034317816625038786,2.7663368677033313,0.769197318064483,1.6754973547542302,0.052104326824870026,0.029969505109285054,-2.752394845125968,0.0342448039870148,2.7663679543071322,0.7691630533470046,-0.0006813889104100712,-0.0012132965237428503,-0.0002890484645400098,-0.0002332756776468824,-0.00015166952083499455,-0.0006397736519689132,0.0008423975587485268,0.0,0.0,0.0,0.0,0.0,0.0,0.0,-0.0001575614318118923,1.3316804379756575e-05,-2.86183937599771e-05,-0.00014028399114662804,-7.301263802398511e-05,3.108660380091166e-05,-3.4264717478360573e-05,0.0006813889104100712,0.0012132965237428503,0.0002890484645400098,0.0002332756776468824,0.00015166952083499455,0.0006397736519689132,-0.0008423975587485268,0.4267818331718445,22.672876358032227,0.1253325641155243,-14.008821487426758,-0.08818584680557251,-2.1655306816101074,0.43338340520858765,0
47,0.2299807071685791,-0.4267818331718445,-22.672876358032227,-0.1253325641155243,14.032625198364258,0.07628399133682251,2.1453890800476074,-0.37204307317733765,0.0,0.0,0.0,0.0,0.0,0.0,0.0,-0.43340128129571365,0.08639252361007313,-0.2040207745881465,0.10736587693634157,-0.15091420904237154,-0.03979245037037287,-0.40405630399380493,1.6756549162237269,0.05209101002049027,0.02999812350304503,-2.752256231910303,0.034319138999336654,2.7663391056590605,0.769193681386423,1.6754973547542302,0.052104326824870026,0.029969505109285054,-2.752394845125968,0.0342448039870148,2.7663679543071322,0.7691630533470046,-0.0008963875077772041,-0.0009742396126996805,-8.183302351627308e-05,-0.001303371189749536,2.0023779822091126e-06,0.007195762593441852,-0.0010836035181481447,0.0,0.0,0.0,0.0,0.0,0.0,0.0,-0.00015756146949663652,1.3316804379756575e-05,-2.86183937599771e-05,-0.00013861321566510654,-7.433501232185363e-05,2.8848648071733152e-05,-3.0628039418334474e-05,0.0008963875077772041,0.0009742396126996805,8.183302351627308e-05,0.001303371189749536,-2.0023779822091126e-06,-0.007195762593441852,0.0010836035181481447,0.4267818331718445,22.672876358032227,0.1253325641155243,-14.032625198364258,-0.07628399133682251,-2.1453890800476074,0.37204307317733765,0
48,0.23502087593078613,-0.4267818331718445,-22.672876358032227,-0.1253325641155243,14.032625198364258,0.07628399133682251,2.1453890800476074,-0.37204307317733765,0.0,0.0,0.0,0.0,0.0,0.0,0.0,-0.43340128129571365,0.08639252361007313,-0.2040207745881465,0.10736587693634157,-0.15091420904237154,-0.03979245037037287,-0.40405630399380493,1.6756549162237269,0.05209101002049027,0.02999812350304503,-2.752256231910303,0.034319138999336654,2.7663391056590605,0.769193681386423,1.6754973547542302,0.052104326824870026,0.029969505109285054,-2.752394845125968,0.0342448039870148,2.7663679543071322,0.7691630533470046,-0.0008963875077772041,-0.0009742396126996805,-8.183302351627308e-05,-0.001303371189749536,2.0023779822091126e-06,0.007195762593441852,-0.0010836035181481447,0.0,0.0,0.0,0.0,0.0,0.0,0.0,-0.00015756146949663652,1.3316804379756575e-05,-2.86183937599771e-05,-0.00013861321566510654,-7.433501232185363e-05,2.8848648071733152e-05,-3.0628039418334474e-05,0.0008963875077772041,0.0009742396126996805,8.183302351627308e-05,0.001303371189749536,-2.0023779822091126e-06,-0.007195762593441852,0.0010836035181481447,0.4267818331718445,22.672876358032227,0.1253325641155243,-14.032625198364258,-0.07628399133682251,-2.1453890800476074,0.37204307317733765,0
49,0.23997712135314941,-0.4267818331718445,-22.672876358032227,-0.1253325641155243,14.032625198364258,0.07628399133682251,2.1453890800476074,-0.37204307317733765,0.0,0.0,0.0,0.0,0.0,0.0,0.0,-0.43340128129571365,0.08639252361007313,-0.2040207745881465,0.10736587693634157,-0.15091420904237154,-0.03979245037037287,-0.40405630399380493,1.6756549162237269,0.05209101002049027,0.02999812350304503,-2.752256231910303,0.034319138999336654,2.7663391056590605,0.769193681386423,1.6754973547542302,0.052104326824870026,0.029969505109285054,-2.752394845125968,0.0342448039870148,2.7663679543071322,0.7691630533470046,-0.0008963875077772041,-0.0009742396126996805,-8.183302351627308e-05,-0.001303371189749536,2.0023779822091126e-06,0.007195762593441852,-0.0010836035181481447,0.0,0.0,0.0,0.0,0.0,0.0,0.0,-0.00015756146949663652,1.3316804379756575e-05,-2.86183937599771e-05,-0.00013861321566510654,-7.433501232185363e-05,2.8848648071733152e-05,-3.0628039418334474e-05,0.0008963875077772041,0.0009742396126996805,8.183302351627308e-05,0.001303371189749536,-2.0023779822091126e-06,-0.007195762593441852,0.0010836035181481447,0.4267818331718445,22.672876358032227,0.1253325641155243,-14.032625198364258,-0.07628399133682251,-2.1453890800476074,0.37204307317733765,0
50,0.24498367309570312,-0.4267818331718445,-22.672876358032227,-0.1253325641155243,14.032625198364258,0.07628399133682251,2.1453890800476074,-0.37204307317733765,0.0,0.0,0.0,0.0,0.0,0.0,0.0,-0.43340128129571365,0.08639252361007313,-0.2040207745881465,0.10736587693634157,-0.15091420904237154,-0.03979245037037287,-0.40405630399380493,1.6756549162237269,0.05209101002049027,0.02999812350304503,-2.752256231910303,0.034319138999336654,2.7663391056590605,0.769193681386423,1.6754973547542302,0.052104326824870026,0.029969505109285054,-2.752394845125968,0.0342448039870148,2.7663679543071322,0.7691630533470046,-0.0008963875077772041,-0.0009742396126996805,-8.183302351627308e-05,-0.001303371189749536,2.0023779822091126e-06,0.007195762593441852,-0.0010836035181481447,0.0,0.0,0.0,0.0,0.0,0.0,0.0,-0.00015756146949663652,1.3316804379756575e-05,-2.86183937599771e-05,-0.00013861321566510654,-7.433501232185363e-05,2.8848648071733152e-05,-3.0628039418334474e-05,0.0008963875077772041,0.0009742396126996805,8.183302351627308e-05,0.001303371189749536,-2.0023779822091126e-06,-0.007195762593441852,0.0010836035181481447,0.4267818331718445,22.672876358032227,0.1253325641155243,-14.032625198364258,-0.07628399133682251,-2.1453890800476074,0.37204307317733765,0
51,0.24997425079345703,-0.4267818331718445,-22.696680068969727,-0.1491362750530243,13.981050491333008,0.07628399133682251,2.1453890800476074,-0.41965049505233765,0.0,0.0,0.0,0.0,0.0,0.0,0.0,-0.43197129914330834,0.09352897732329764,-0.2015699140172217,0.10165796065330769,-0.15234858921316638,-0.040712954104647085,-0.4036802843101603,1.675652690983655,0.05209268045634553,0.029999793938900295,-2.752252612632617,0.034319139053423896,2.7663391056590605,0.7691989662607789,1.6754973547542302,0.052104326824870026,0.029969505109285054,-2.752394845125968,0.0342448039870148,2.7663679543071322,0.7691630533470046,-0.0002052459225200054,-2.3823509774478112e-05,0.0008886431808644659,-0.0002698325487318642,8.375453460675352e-05,0.0003909174286511724,0.0005208014856734408,0.0,0.0,0.0,0.0,0.0,0.0,0.0,-0.0001553362294248739,1.1646368524492745e-05,-3.028882961524093e-05,-0.0001422324933511021,-7.433506640909526e-05,2.8848648071733152e-05,-3.5912913774249766e-05,0.0002052459225200054,2.3823509774478112e-05,-0.0008886431808644659,0.0002698325487318642,-8.375453460675352e-05,-0.0003909174286511724,-0.0005208014856734408,0.4267818331718445,22.696680068969727,0.1491362750530243,-13.981050491333008,-0.07628399133682251,-2.1453890800476074,0.41965049505233765,0
52,0.25498342514038086,-0.4267818331718445,-22.696680068969727,-0.1491362750530243,13.981050491333008,0.07628399133682251,2.1453890800476074,-0.41965049505233765,0.0,0.0,0.0,0.0,0.0,0.0,0.0,-0.43197129914330834,0.09352897732329764,-0.2015699140172217,0.10165796065330769,-0.15234858921316638,-0.040712954104647085,-0.4036802843101603,1.675652690983655,0.05209268045634553,0.029999793938900295,-2.752252612632617,0.034319139053423896,2.7663391056590605,0.7691989662607789,1.6754973547542302,0.052104326824870026,0.029969505109285054,-2.752394845125968,0.0342448039870148,2.7663679543071322,0.7691630533470046,-0.0002052459225200054,-2.3823509774478112e-05,0.0008886431808644659,-0.0002698325487318642,8.375453460675352e-05,0.0003909174286511724,0.0005208014856734408,0.0,0.0,0.0,0.0,0.0,0.0,0.0,-0.0001553362294248739,1.1646368524492745e-05,-3.028882961524093e-05,-0.0001422324933511021,-7.433506640909526e-05,2.8848648071733152e-05,-3.5912913774249766e-05,0.0002052459225200054,2.3823509774478112e-05,-0.0008886431808644659,0.0002698325487318642,-8.375453460675352e-05,-0.0003909174286511724,-0.0005208014856734408,0.4267818331718445,22.696680068969727,0.1491362750530243,-13.981050491333008,-0.07628399133682251,-2.1453890800476074,0.41965049505233765,0
53,0.2599935531616211,-0.4505855441093445,-22.696680068969727,-0.1253325641155243,13.981050491333008,0.07628399133682251,2.1582064628601074,-0.41965049505233765,0.0,0.0,0.0,0.0,0.0,0.0,0.0,-0.43538570343880617,0.08303498454051904,-0.20747865100896826,0.11694174091420391,-0.15253543698766672,-0.03671692765346367,-0.4049519065859785,1.6756565866470206,0.05209268045634553,0.02999812350304503,-2.752252612632617,0.0343191390534242,2.766337681505415,0.7691957921376958,1.6754973547542302,0.052104326824870026,0.029969505109285054,-2.752394845125968,0.0342448039870148,2.7663679543071322,0.7691630533470046,0.00013326336710632573,-0.00040479837819975694,0.0002806360112522105,0.0004786370391125124,0.0002749231018553779,-0.00015351243305688055,0.0007495898287771647,0.0,0.0,0.0,0.0,0.0,0.0,0.0,-0.00015923189279032357,1.1646368524492745e-05,-2.86183937599771e-05,-0.0001422324933511021,-7.433506640940057e-05,3.0272801717412534e-05,-3.273879069121133e-05,-0.00013326336710632573,0.00040479837819975694,-0.0002806360112522105,-0.0004786370391125124,-0.0002749231018553779,0.00015351243305688055,-0.0007495898287771647,0.4505855441093445,22.696680068969727,0.1253325641155243,-13.981050491333008,-0.07628399133682251,-2.1582064628601074,0.41965049505233765,0
54,0.26497745513916016,-0.4505855441093445,-22.696680068969727,-0.1253325641155243,13.981050491333008,0.07628399133682251,2.1582064628601074,-0.41965049505233765,0.0,0.0,0.0,0.0,0.0,0.0,0.0,-0.43538570343880617,0.08303498454051904,-0.20747865100896826,0.11694174091420391,-0.15253543698766672,-0.03671692765346367,-0.4049519065859785,1.6756565866470206,0.05209268045634553,0.02999812350304503,-2.752252612632617,0.0343191390534242,2.766337681505415,0.7691957921376958,1.6754973547542302,0.052104326824870026,0.029969505109285054,-2.752394845125968,0.0342448039870148,2.7663679543071322,0.7691630533470046,0.00013326336710632573,-0.00040479837819975694,0.0002806360112522105,0.0004786370391125124,0.0002749231018553779,-0.00015351243305688055,0.0007495898287771647,0.0,0.0,0.0,0.0,0.0,0.0,0.0,-0.00015923189279032357,1.1646368524492745e-05,-2.86183937599771e-05,-0.0001422324933511021,-7.433506640940057e-05,3.0272801717412534e-05,-3.273879069121133e-05,-0.00013326336710632573,0.00040479837819975694,-0.0002806360112522105,-0.0004786370391125124,-0.0002749231018553779,0.00015351243305688055,-0.0007495898287771647,0.4505855441093445,22.696680068969727,0.1253325641155243,-13.981050491333008,-0.07628399133682251,-2.1582064628601074,0.41965049505233765,0
55,0.2699923515319824,-0.4267818331718445,-22.720483779907227,-0.1253325641155243,13.957246780395508,0.08177715539932251,2.1453890800476074,-0.42605918645858765,0.0,0.0,0.0,0.0,0.0,0.0,0.0,-0.43536151429646336,0.08243322906990103,-0.20610869703187498,0.11462587975692115,-0.15206398170783428,-0.036119533199408034,-0.403992346719797,1.6756549162237266,0.0520943508922008,0.02999812350304503,-2.752250942196762,0.0343185287018617,2.7663391056590605,0.769199683128933,1.6754973547542302,0.052104326824870026,0.029969505109285054,-2.752394845125968,0.0342448039870148,2.7663679543071322,0.7691630533470046,-0.00022914942640597262,-0.00041299965967474484,0.00019041401396709855,0.0007068117405241259,2.0258341343063784e-05,0.00031677165194097585,0.0010659499712858725,0.0,0.0,0.0,0.0,0.0,0.0,0.0,-0.00015756146949641447,9.975932669228915e-06,-2.86183937599771e-05,-0.0001439029292060745,-7.372471484690113e-05,2.8848648071733152e-05,-3.6629781928421146e-05,0.00022914942640597262,0.00041299965967474484,-0.00019041401396709855,-0.0007068117405241259,-2.0258341343063784e-05,-0.00031677165194097585,-0.0010659499712858725,0.4267818331718445,22.720483779907227,0.1253325641155243,-13.957246780395508,-0.08177715539932251,-2.1453890800476074,0.42605918645858765,0
56,0.2749922275543213,-0.4267818331718445,-22.720483779907227,-0.1253325641155243,13.957246780395508,0.08177715539932251,2.1453890800476074,-0.42605918645858765,0.0,0.0,0.0,0.0,0.0,0.0,0.0,-0.43536151429646336,0.08243322906990103,-0.20610869703187498,0.11462587975692115,-0.15206398170783428,-0.036119533199408034,-0.403992346719797,1.6756549162237266,0.0520943508922008,0.02999812350304503,-2.752250942196762,0.0343185287018617,2.7663391056590605,0.769199683128933,1.6754973547542302,0.052104326824870026,0.029969505109285054,-2.752394845125968,0.0342448039870148,2.7663679543071322,0.7691630533470046,-0.00022914942640597262,-0.00041299965967474484,0.00019041401396709855,0.0007068117405241259,2.0258341343063784e-05,0.00031677165194097585,0.0010659499712858725,0.0,0.0,0.0,0.0,0.0,0.0,0.0,-0.00015756146949641447,9.975932669228915e-06,-2.86183937599771e-05,-0.0001439029292060745,-7.372471484690113e-05,2.8848648071733152e-05,-3.6629781928421146e-05,0.00022914942640597262,0.00041299965967474484,-0.00019041401396709855,-0.0007068117405241259,-2.0258341343063784e-05,-0.00031677165194097585,-0.0010659499712858725,0.4267818331718445,22.720483779907227,0.1253325641155243,-13.957246780395508,-0.08177715539932251,-2.1453890800476074,0.42605918645858765,0
57,0.28015804290771484,-0.4267818331718445,-22.696680068969727,-0.1491362750530243,14.008821487426758,0.07628399133682251,2.1517977714538574,-0.41324180364608765,0.0,0.0,0.0,0.0,0.0,0.0,0.0,-0.43376769041368485,0.08549244244348597,-0.20243347717495477,0.11107473249432102,-0.1515805818742482,-0.03646277305485931,-0.4045925973013817,1.6756549162237269,0.05209268045634553,0.029999793938900295,-2.7522545614744485,0.0343191390534242,2.7663383935822377,0.7691982546684726,1.6754973547542302,0.052104326824870026,0.029969505109285054,-2.752394845125968,0.0342448039870148,2.7663679543071322,0.7691630533470046,0.00023527349809744007,-0.0006209316371382061,0.0009637175719281672,-0.0007049069271111749,0.0002596838856538668,-6.853661567379694e-06,8.138959049025328e-05,0.0,0.0,0.0,0.0,0.0,0.0,0.0,-0.00015756146949663652,1.1646368524492745e-05,-3.028882961524093e-05,-0.00014028365151963484,-7.433506640940057e-05,2.9560724894572843e-05,-3.520132146794808e-05,-0.00023527349809744007,0.0006209316371382061,-0.0009637175719281672,0.0007049069271111749,-0.0002596838856538668,6.853661567379694e-06,-8.138959049025328e-05,0.4267818331718445,22.696680068969727,0.1491362750530243,-14.008821487426758,-0.07628399133682251,-2.1517977714538574,0.41324180364608765,0
58,0.28583312034606934,-0.4267818331718445,-22.696680068969727,-0.1491362750530243,14.008821487426758,0.07628399133682251,2.1517977714538574,-0.41324180364608765,0.0,0.0,0.0,0.0,0.0,0.0,0.0,-0.43376769041368485,0.08549244244348597,-0.20243347717495477,0.11107473249432102,-0.1515805818742482,-0.03646277305485931,-0.4045925973013817,1.6756549162237269,0.05209268045634553,0.029999793938900295,-2.7522545614744485,0.0343191390534242,2.7663383935822377,0.7691982546684726,1.6754973547542302,0.052104326824870026,0.029969505109285054,-2.752394845125968,0.0342448039870148,2.7663679543071322,0.7691630533470046,0.00023527349809744007,-0.0006209316371382061,0.0009637175719281672,-0.0007049069271111749,0.0002596838856538668,-6.853661567379694e-06,8.138959049025328e-05,0.0,0.0,0.0,0.0,0.0,0.0,0.0,-0.00015756146949663652,1.1646368524492745e-05,-3.028882961524093e-05,-0.00014028365151963484,-7.433506640940057e-05,2.9560724894572843e-05,-3.520132146794808e-05,-0.00023527349809744007,0.0006209316371382061,-0.0009637175719281672,0.0007049069271111749,-0.0002596838856538668,6.853661567379694e-06,-8.138959049025328e-05,0.4267818331718445,22.696680068969727,0.1491362750530243,-14.008821487426758,-0.07628399133682251,-2.1517977714538574,0.41324180364608765,0
59,0.2899775505065918,-0.4267818331718445,-22.720483779907227,-0.1253325641155243,13.957246780395508,0.07628399133682251,2.1582064628601074,-0.37845176458358765,0.0,0.0,0.0,0.0,0.0,0.0,0.0,-0.43496112510821877,0.08115074931090485,-0.20514662323790878,0.11314829334396205,-0.15144061814733992,-0.035679158911962904,-0.4042577045235256,1.6756549162237269,0.0520943508922008,0.02999812350304503,-2.752250939144307,0.0343191390534242,2.766337681505415,0.7691943934692029,1.6754973547542302,0.052104326824870026,0.029969505109285054,-2.752394845125968,0.0342448039870148,2.7663679543071322,0.7691630533470046,-0.00018061143442408146,0.0002714583994891926,-0.0003863751878905375,0.0007440136171216311,0.0002604050710938888,-0.00021344737729079894,-0.0009435103960207304,0.0,0.0,0.0,0.0,0.0,0.0,0.0,-0.00015756146949663652,9.975932669228915e-06,-2.86183937599771e-05,-0.00014390598166125201,-7.433506640940057e-05,3.0272801717412534e-05,-3.134012219829785e-05,0.00018061143442408146,-0.0002714583994891926,0.0003863751878905375,-0.0007440136171216311,-0.0002604050710938888,0.00021344737729079894,0.0009435103960207304,0.4267818331718445,22.720483779907227,0.1253325641155243,-13.957246780395508,-0.07628399133682251,-2.1582064628601074,0.37845176458358765,0
60,0.2949850559234619,-0.4267818331718445,-22.720483779907227,-0.1253325641155243,13.957246780395508,0.07628399133682251,2.1582064628601074,-0.37845176458358765,0.0,0.0,0.0,0.0,0.0,0.0,0.0,-0.43496112510821877,0.08115074931090485,-0.20514662323790878,0.11314829334396205,-0.15144061814733992,-0.035679158911962904,-0.4042577045235256,1.6756549162237269,0.0520943508922008,0.02999812350304503,-2.752250939144307,0.0343191390534242,2.766337681505415,0.7691943934692029,1.6754973547542302,0.052104326824870026,0.029969505109285054,-2.752394845125968,0.0342448039870148,2.7663679543071322,0.7691630533470046,-0.00018061143442408146,0.0002714583994891926,-0.0003863751878905375,0.0007440136171216311,0.0002604050710938888,-0.00021344737729079894,-0.0009435103960207304,0.0,0.0,0.0,0.0,0.0,0.0,0.0,-0.00015756146949663652,9.975932669228915e-06,-2.86183937599771e-05,-0.00014390598166125201,-7.433506640940057e-05,3.0272801717412534e-05,-3.134012219829785e-05,0.00018061143442408146,-0.0002714583994891926,0.0003863751878905375,-0.0007440136171216311,-0.0002604050710938888,0.00021344737729079894,0.0009435103960207304,0.4267818331718445,22.720483779907227,0.1253325641155243,-13.957246780395508,-0.07628399133682251,-2.1582064628601074,0.37845176458358765,0
61,0.29997730255126953,-0.4505855441093445,-22.696680068969727,-0.09756157547235489,14.008821487426758,0.08818584680557251,2.1389803886413574,-0.40591758489608765,0.0,0.0,0.0,0.0,0.0,0.0,0.0,-0.4316639071668509,0.08485752100966028,-0.20396182485755862,0.11148214155000379,-0.15153970679404877,-0.03588986254410399,-0.4030189691807871,1.675656586659582,0.05209268045634553,0.02999617466173674,-2.7522523357821442,0.034317816625038786,2.7663398177358833,0.7691973229134786,1.6754973547542302,0.052104326824870026,0.029969505109285054,-2.752394845125968,0.0342448039870148,2.7663679543071322,0.7691630533470046,0.0005073115724199141,0.00019291022929727805,-0.0006424256424895064,-0.0005105341917721731,-0.00023192279423758783,0.0001245024500770635,-0.00022837111839207246,0.0,0.0,0.0,0.0,0.0,0.0,0.0,-0.00015923190535183096,1.1646368524492745e-05,-2.666955245168509e-05,-0.00014250934382387115,-7.301263802398511e-05,2.813657124889346e-05,-3.426956647401003e-05,-0.0005073115724199141,-0.00019291022929727805,0.0006424256424895064,0.0005105341917721731,0.00023192279423758783,-0.0001245024500770635,0.00022837111839207246,0.4505855441093445,22.696680068969727,0.09756157547235489,-14.008821487426758,-0.08818584680557251,-2.1389803886413574,0.40591758489608765,0
62,0.30498337745666504,-0.4505855441093445,-22.696680068969727,-0.09756157547235489,14.008821487426758,0.08818584680557251,2.1389803886413574,-0.40591758489608765,0.0,0.0,0.0,0.0,0.0,0.0,0.0,-0.4316639071668509,0.08485752100966028,-0.20396182485755862,0.11148214155000379,-0.15153970679404877,-0.03588986254410399,-0.4030189691807871,1.675656586659582,0.05209268045634553,0.02999617466173674,-2.7522523357821442,0.034317816625038786,2.7663398177358833,0.7691973229134786,1.6754973547542302,0.052104326824870026,0.029969505109285054,-2.752394845125968,0.0342448039870148,2.7663679543071322,0.7691630533470046,0.0005073115724199141,0.00019291022929727805,-0.0006424256424895064,-0.0005105341917721731,-0.00023192279423758783,0.0001245024500770635,-0.00022837111839207246,0.0,0.0,0.0,0.0,0.0,0.0,0.0,-0.00015923190535183096,1.1646368524492745e-05,-2.666955245168509e-05,-0.00014250934382387115,-7.301263802398511e-05,2.813657124889346e-05,-3.426956647401003e-05,-0.0005073115724199141,-0.00019291022929727805,0.0006424256424895064,0.0005105341917721731,0.00023192279423758783,-0.0001245024500770635,0.00022837111839207246,0.4505855441093445,22.696680068969727,0.09756157547235489,-14.008821487426758,-0.08818584680557251,-2.1389803886413574,0.40591758489608765,0
63,0.30997323989868164,-0.4505855441093445,-22.696680068969727,-0.1491362750530243,13.981050491333008,0.07628399133682251,2.1517977714538574,-0.41324180364608765,0.0,0.0,0.0,0.0,0.0,0.0,0.0,-0.4358601394028158,0.08355506359681258,-0.20746894640347474,0.1166819507930042,-0.15079814543490663,-0.03584980938761,-0.40417839942142053,1.675656586659582,0.05209268045634553,0.029999793938900295,-2.7522526126200533,0.0343191390534242,2.7663383935822377,0.7691981276705588,1.6754973547542302,0.052104326824870026,0.029969505109285054,-2.752394845125968,0.0342448039870148,2.7663679543071322,0.7691630533470046,0.0002725138015517949,-0.00011888430498624966,0.0002387435572895281,0.0006942609080050533,7.327316063751294e-05,0.00010803995214771828,-0.00023608051612384007,0.0,0.0,0.0,0.0,0.0,0.0,0.0,-0.00015923190535183096,1.1646368524492745e-05,-3.028882961524093e-05,-0.00014223250591482994,-7.433506640940057e-05,2.9560724894572843e-05,-3.5074323554207254e-05,-0.0002725138015517949,0.00011888430498624966,-0.0002387435572895281,-0.0006942609080050533,-7.327316063751294e-05,-0.00010803995214771828,0.00023608051612384007,0.4505855441093445,22.696680068969727,0.1491362750530243,-13.981050491333008,-0.07628399133682251,-2.1517977714538574,0.41324180364608765,0
64,0.31498050689697266,-0.4505855441093445,-22.696680068969727,-0.1491362750530243,13.981050491333008,0.07628399133682251,2.1517977714538574,-0.41324180364608765,0.0,0.0,0.0,0.0,0.0,0.0,0.0,-0.4358601394028158,0.08355506359681258,-0.20746894640347474,0.1166819507930042,-0.15079814543490663,-0.03584980938761,-0.40417839942142053,1.675656586659582,0.05209268045634553,0.029999793938900295,-2.7522526126200533,0.0343191390534242,2.7663383935822377,0.7691981276705588,1.6754973547542302,0.052104326824870026,0.029969505109285054,-2.752394845125968,0.0342448039870148,2.7663679543071322,0.7691630533470046,0.0002725138015517949,-0.00011888430498624966,0.0002387435572895281,0.0006942609080050533,7.327316063751294e-05,0.00010803995214771828,-0.00023608051612384007,0.0,0.0,0.0,0.0,0.0,0.0,0.0,-0.00015923190535183096,1.1646368524492745e-05,-3.028882961524093e-05,-0.00014223250591482994,-7.433506640940057e-05,2.9560724894572843e-05,-3.5074323554207254e-05,-0.0002725138015517949,0.00011888430498624966,-0.0002387435572895281,-0.0006942609080050533,-7.327316063751294e-05,-0.00010803995214771828,0.00023608051612384007,0.4505855441093445,22.696680068969727,0.1491362750530243,-13.981050491333008,-0.07628399133682251,-2.1517977714538574,0.41324180364608765,0
65,0.32000732421875,-0.4783565402030945,-22.720483779907227,-0.1491362750530243,13.957246780395508,0.08177715539932251,2.1453890800476074,-0.37845176458358765,0.0,0.0,0.0,0.0,0.0,0.0,0.0,-0.4374674938751338,0.09418424560978296,-0.2101632672333003,0.1062875117127731,-0.1511116794849265,-0.03904009060101477,-0.4053005222672353,1.675658535501413,0.0520943508922008,0.029999793938900295,-2.7522509421590775,0.0343185287018617,2.7663391056590605,0.7691901403266311,1.6754973547542302,0.052104326824870026,0.029969505109285054,-2.752394845125968,0.0342448039870148,2.7663679543071322,0.7691630533470046,0.00042380763867786375,0.00016981161103397482,0.00023116532648880962,0.0007713572841941832,-8.51381727380356e-05,0.0030132453724462833,-0.0011575358817679242,0.0,0.0,0.0,0.0,0.0,0.0,0.0,-0.00016118074718285413,9.975932669228915e-06,-3.028882961524093e-05,-0.00014390296689059667,-7.372471484690113e-05,2.8848648071733152e-05,-2.708697962650053e-05,-0.00042380763867786375,-0.00016981161103397482,-0.00023116532648880962,-0.0007713572841941832,8.51381727380356e-05,-0.0030132453724462833,0.0011575358817679242,0.4783565402030945,22.720483779907227,0.1491362750530243,-13.957246780395508,-0.08177715539932251,-2.1453890800476074,0.37845176458358765,0
66,0.3249850273132324,-0.4783565402030945,-22.720483779907227,-0.1491362750530243,13.957246780395508,0.08177715539932251,2.1453890800476074,-0.37845176458358765,0.0,0.0,0.0,0.0,0.0,0.0,0.0,-0.4374674938751338,0.09418424560978296,-0.2101632672333003,0.1062875117127731,-0.1511116794849265,-0.03904009060101477,-0.4053005222672353,1.675658535501413,0.0520943508922008,0.029999793938900295,-2.7522509421590775,0.0343185287018617,2.7663391056590605,0.7691901403266311,1.6754973547542302,0.052104326824870026,0.029969505109285054,-2.752394845125968,0.0342448039870148,2.7663679543071322,0.7691630533470046,0.00042380763867786375,0.00016981161103397482,0.00023116532648880962,0.0007713572841941832,-8.51381727380356e-05,0.0030132453724462833,-0.0011575358817679242,0.0,0.0,0.0,0.0,0.0,0.0,0.0,-0.00016118074718285413,9.975932669228915e-06,-3.028882961524093e-05,-0.00014390296689059667,-7.372471484690113e-05,2.8848648071733152e-05,-2.708697962650053e-05,-0.00042380763867786375,-0.00016981161103397482,-0.00023116532648880962,-0.0007713572841941832,8.51381727380356e-05,-0.0030132453724462833,0.0011575358817679242,0.4783565402030945,22.720483779907227,0.1491362750530243,-13.957246780395508,-0.08177715539932251,-2.1453890800476074,0.37845176458358765,0
67,0.32998180389404297,-0.4029781222343445,-22.649072647094727,-0.1253325641155243,14.008821487426758,0.08177715539932251,2.1389803886413574,-0.37204307317733765,0.0,0.0,0.0,0.0,0.0,0.0,0.0,-0.4395040966014751,0.08320176765043327,-0.21089293846812868,0.11905247540018869,-0.15139431104861373,-0.036214181350195725,-0.4032165125185352,1.6756532457878714,0.052089339584635005,0.02999812350304503,-2.7522543142255516,0.0343185287018617,2.7663398177358833,0.7691935635769904,1.6754973547542302,0.052104326824870026,0.029969505109285054,-2.752394845125968,0.0342448039870148,2.7663679543071322,0.7691630533470046,-0.001072237759910646,-0.0018876085122150842,-0.0005856879430994708,-0.0003714794938735272,4.497116046479762e-05,0.00027580385091976274,-0.0015872018010873168,0.0,0.0,0.0,0.0,0.0,0.0,0.0,-0.00015589103364122003,1.4987240235020405e-05,-2.86183937599771e-05,-0.0001405309004165467,-7.372471484690113e-05,2.813657124889346e-05,-3.051022998579178e-05,0.001072237759910646,0.0018876085122150842,0.0005856879430994708,0.0003714794938735272,-4.497116046479762e-05,-0.00027580385091976274,0.0015872018010873168,0.4029781222343445,22.649072647094727,0.1253325641155243,-14.008821487426758,-0.08177715539932251,-2.1389803886413574,0.37204307317733765,0
68,0.3349955081939697,-0.4029781222343445,-22.649072647094727,-0.1253325641155243,14.008821487426758,0.08177715539932251,2.1389803886413574,-0.37204307317733765,0.0,0.0,0.0,0.0,0.0,0.0,0.0,-0.4395040966014751,0.08320176765043327,-0.21089293846812868,0.11905247540018869,-0.15139431104861373,-0.036214181350195725,-0.4032165125185352,1.6756532457878714,0.052089339584635005,0.02999812350304503,-2.7522543142255516,0.0343185287018617,2.7663398177358833,0.7691935635769904,1.6754973547542302,0.052104326824870026,0.029969505109285054,-2.752394845125968,0.0342448039870148,2.7663679543071322,0.7691630533470046,-0.001072237759910646,-0.0018876085122150842,-0.0005856879430994708,-0.0003714794938735272,4.497116046479762e-05,0.00027580385091976274,-0.0015872018010873168,0.0,0.0,0.0,0.0,0.0,0.0,0.0,-0.00015589103364122003,1.4987240235020405e-05,-2.86183937599771e-05,-0.0001405309004165467,-7.372471484690113e-05,2.813657124889346e-05,-3.051022998579178e-05,0.001072237759910646,0.0018876085122150842,0.0005856879430994708,0.0003714794938735272,-4.497116046479762e-05,-0.00027580385091976274,0.0015872018010873168,0.4029781222343445,22.649072647094727,0.1253325641155243,-14.008821487426758,-0.08177715539932251,-2.1389803886413574,0.37204307317733765,0
69,0.34001922607421875,-0.4029781222343445,-22.696680068969727,-0.1253325641155243,13.981050491333008,0.07628399133682251,2.1517977714538574,-0.36471885442733765,0.0,0.0,0.0,0.0,0.0,0.0,0.0,-0.43482152479434005,0.08871569969196315,-0.20829718326947005,0.11471904837749866,-0.151106177548855,-0.037512768431571704,-0.40430067620049154,1.6756532457878714,0.05209268045634553,0.02999812350304503,-2.752251870884531,0.0343191390534242,2.7663383935822377,0.7691896489448949,1.6754973547542302,0.052104326824870026,0.029969505109285054,-2.752394845125968,0.0342448039870148,2.7663679543071322,0.7691630533470046,-0.00038865842734569334,-7.41038540113419e-05,0.00031194185094080457,5.281290646749076e-05,0.0002816975432813016,-0.00022296013513346314,-0.001992368239788329,0.0,0.0,0.0,0.0,0.0,0.0,0.0,-0.00015589103364122003,1.1646368524492745e-05,-2.86183937599771e-05,-0.00014297424143716597,-7.433506640940057e-05,2.9560724894572843e-05,-2.6595597890310962e-05,0.00038865842734569334,7.41038540113419e-05,-0.00031194185094080457,-5.281290646749076e-05,-0.0002816975432813016,0.00022296013513346314,0.001992368239788329,0.4029781222343445,22.696680068969727,0.1253325641155243,-13.981050491333008,-0.07628399133682251,-2.1517977714538574,0.36471885442733765,0
70,0.3450148105621338,-0.4029781222343445,-22.696680068969727,-0.1253325641155243,13.981050491333008,0.07628399133682251,2.1517977714538574,-0.36471885442733765,0.0,0.0,0.0,0.0,0.0,0.0,0.0,-0.43482152479434005,0.08871569969196315,-0.20829718326947005,0.11471904837749866,-0.151106177548855,-0.037512768431571704,-0.40430067620049154,1.6756532457878714,0.05209268045634553,0.02999812350304503,-2.752251870884531,0.0343191390534242,2.7663383935822377,0.7691896489448949,1.6754973547542302,0.052104326824870026,0.029969505109285054,-2.752394845125968,0.0342448039870148,2.7663679543071322,0.7691630533470046,-0.00038865842734569334,-7.41038540113419e-05,0.00031194185094080457,5.281290646749076e-05,0.0002816975432813016,-0.00022296013513346314,-0.001992368239788329,0.0,0.0,0.0,0.0,0.0,0.0,0.0,-0.00015589103364122003,1.1646368524492745e-05,-2.86183937599771e-05,-0.00014297424143716597,-7.433506640940057e-05,2.9560724894572843e-05,-2.6595597890310962e-05,0.00038865842734569334,7.41038540113419e-05,-0.00031194185094080457,-5.281290646749076e-05,-0.0002816975432813016,0.00022296013513346314,0.001992368239788329,0.4029781222343445,22.696680068969727,0.1253325641155243,-13.981050491333008,-0.07628399133682251,-2.1517977714538574,0.36471885442733765,0
71,0.3499722480773926,-0.4029781222343445,-22.696680068969727,-0.1253325641155243,13.981050491333008,0.07628399133682251,2.1517977714538574,-0.36471885442733765,0.0,0.0,0.0,0.0,0.0,0.0,0.0,-0.43482152479434005,0.08871569969196315,-0.20829718326947005,0.11471904837749866,-0.151106177548855,-0.037512768431571704,-0.40430067620049154,1.6756532457878714,0.05209268045634553,0.02999812350304503,-2.752251870884531,0.0343191390534242,2.7663383935822377,0.7691896489448949,1.6754973547542302,0.052104326824870026,0.029969505109285054,-2.752394845125968,0.0342448039870148,2.7663679543071322,0.7691630533470046,-0.00038865842734569334,-7.41038540113419e-05,0.00031194185094080457,5.281290646749076e-05,0.0002816975432813016,-0.00022296013513346314,-0.001992368239788329,0.0,0.0,0.0,0.0,0.0,0.0,0.0,-0.00015589103364122003,1.1646368524492745e-05,-2.86183937599771e-05,-0.00014297424143716597,-7.433506640940057e-05,2.9560724894572843e-05,-2.6595597890310962e-05,0.00038865842734569334,7.41038540113419e-05,-0.00031194185094080457,-5.281290646749076e-05,-0.0002816975432813016,0.00022296013513346314,0.001992368239788329,0.4029781222343445,22.696680068969727,0.1253325641155243,-13.981050491333008,-0.07628399133682251,-2.1517977714538574,0.36471885442733765,0
72,0.35497498512268066,-0.4029781222343445,-22.696680068969727,-0.1253325641155243,13.981050491333008,0.07628399133682251,2.1517977714538574,-0.36471885442733765,0.0,0.0,0.0,0.0,0.0,0.0,0.0,-0.43482152479434005,0.08871569969196315,-0.20829718326947005,0.11471904837749866,-0.151106177548855,-0.037512768431571704,-0.40430067620049154,1.6756532457878714,0.05209268045634553,0.02999812350304503,-2.752251870884531,0.0343191390534242,2.7663383935822377,0.7691896489448949,1.6754973547542302,0.052104326824870026,0.029969505109285054,-2.752394845125968,0.0342448039870148,2.7663679543071322,0.7691630533470046,-0.00038865842734569334,-7.41038540113419e-05,0.00031194185094080457,5.281290646749076e-05,0.0002816975432813016,-0.00022296013513346314,-0.001992368239788329,0.0,0.0,0.0,0.0,0.0,0.0,0.0,-0.00015589103364122003,1.1646368524492745e-05,-2.86183937599771e-05,-0.00014297424143716597,-7.433506640940057e-05,2.9560724894572843e-05,-2.6595597890310962e-05,0.00038865842734569334,7.41038540113419e-05,-0.00031194185094080457,-5.281290646749076e-05,-0.0002816975432813016,0.00022296013513346314,0.001992368239788329,0.4029781222343445,22.696680068969727,0.1253325641155243,-13.981050491333008,-0.07628399133682251,-2.1517977714538574,0.36471885442733765,0
73,0.3599822521209717,-0.4029781222343445,-22.720483779907227,-0.1253325641155243,14.008821487426758,0.08177715539932251,2.1453890800476074,-0.37845176458358765,0.0,0.0,0.0,0.0,0.0,0.0,0.0,-0.43795494025823345,0.08214317988002422,-0.21316443083483957,0.12123206288905751,-0.1500184455543208,-0.03678463952504138,-0.4056026116647541,1.6756532457878714,0.0520943508922008,0.02999812350304503,-2.7522545523128947,0.034318528647774155,2.7663391056590605,0.7691943932357175,1.6754973547542302,0.052104326824870026,0.029969505109285054,-2.752394845125968,0.0342448039870148,2.7663679543071322,0.7691630533470046,-0.0005211726096216034,8.698056020571093e-05,0.00010420976750436592,-0.0004052089612163201,7.134574193616099e-05,2.0545291197162833e-05,-0.0013080543430437424,0.0,0.0,0.0,0.0,0.0,0.0,0.0,-0.00015589103364122003,9.975932669228915e-06,-2.86183937599771e-05,-0.0001402928130733727,-7.372466075935419e-05,2.8848648071733152e-05,-3.1339888712844655e-05,0.0005211726096216034,-8.698056020571093e-05,-0.00010420976750436592,0.0004052089612163201,-7.134574193616099e-05,-2.0545291197162833e-05,0.0013080543430437424,0.4029781222343445,22.720483779907227,0.1253325641155243,-14.008821487426758,-0.08177715539932251,-2.1453890800476074,0.37845176458358765,0
74,0.36497926712036133,-0.4029781222343445,-22.720483779907227,-0.1253325641155243,14.008821487426758,0.08177715539932251,2.1453890800476074,-0.37845176458358765,0.0,0.0,0.0,0.0,0.0,0.0,0.0,-0.43795494025823345,0.08214317988002422,-0.21316443083483957,0.12123206288905751,-0.1500184455543208,-0.03678463952504138,-0.4056026116647541,1.6756532457878714,0.0520943508922008,0.02999812350304503,-2.7522545523128947,0.034318528647774155,2.7663391056590605,0.7691943932357175,1.6754973547542302,0.052104326824870026,0.029969505109285054,-2.752394845125968,0.0342448039870148,2.7663679543071322,0.7691630533470046,-0.0005211726096216034,8.698056020571093e-05,0.00010420976750436592,-0.0004052089612163201,7.134574193616099e-05,2.0545291197162833e-05,-0.0013080543430437424,0.0,0.0,0.0,0.0,0.0,0.0,0.0,-0.00015589103364122003,9.975932669228915e-06,-2.86183937599771e-05,-0.0001402928130733727,-7.372466075935419e-05,2.8848648071733152e-05,-3.1339888712844655e-05,0.0005211726096216034,-8.698056020571093e-05,-0.00010420976750436592,0.0004052089612163201,-7.134574193616099e-05,-2.0545291197162833e-05,0.0013080543430437424,0.4029781222343445,22.720483779907227,0.1253325641155243,-14.008821487426758,-0.08177715539932251,-2.1453890800476074,0.37845176458358765,0
75,0.3699941635131836,-0.4505855441093445,-22.720483779907227,-0.1491362750530243,14.008821487426758,0.07628399133682251,2.1655306816101074,-0.42605918645858765,0.0,0.0,0.0,0.0,0.0,0.0,0.0,-0.43596030413170594,0.09165234263891953,-0.2115014242996002,0.11318902769422615,-0.14932088698082055,-0.03831765703974113,-0.4055154487725914,1.675656586659582,0.0520943508922008,0.029999793938900295,-2.7522544789450785,0.0343191390534241,2.766336906949188,0.7691985043355742,1.6754973547542302,0.052104326824870026,0.029969505109285054,-2.752394845125968,0.0342448039870148,2.7663679543071322,0.7691630533470046,0.00011079867362894946,0.0006186651138124507,0.000819525944706701,-0.0006397199088470127,0.00038073163581101846,-0.0006163257338396434,0.001102003034513331,0.0,0.0,0.0,0.0,0.0,0.0,0.0,-0.00015923190535183096,9.975932669228915e-06,-3.028882961524093e-05,-0.00014036618088963948,-7.433506640929649e-05,3.1047357944125054e-05,-3.545098856960749e-05,-0.00011079867362894946,-0.0006186651138124507,-0.000819525944706701,0.0006397199088470127,-0.00038073163581101846,0.0006163257338396434,-0.001102003034513331,0.4505855441093445,22.720483779907227,0.1491362750530243,-14.008821487426758,-0.07628399133682251,-2.1655306816101074,0.42605918645858765,0
76,0.37497758865356445,-0.4505855441093445,-22.720483779907227,-0.1491362750530243,14.008821487426758,0.07628399133682251,2.1655306816101074,-0.42605918645858765,0.0,0.0,0.0,0.0,0.0,0.0,0.0,-0.43596030413170594,0.09165234263891953,-0.2115014242996002,0.11318902769422615,-0.14932088698082055,-0.03831765703974113,-0.4055154487725914,1.675656586659582,0.0520943508922008,0.029999793938900295,-2.7522544789450785,0.0343191390534241,2.766336906949188,0.7691985043355742,1.6754973547542302,0.052104326824870026,0.029969505109285054,-2.752394845125968,0.0342448039870148,2.7663679543071322,0.7691630533470046,0.00011079867362894946,0.0006186651138124507,0.000819525944706701,-0.0006397199088470127,0.00038073163581101846,-0.0006163257338396434,0.001102003034513331,0.0,0.0,0.0,0.0,0.0,0.0,0.0,-0.00015923190535183096,9.975932669228915e-06,-3.028882961524093e-05,-0.00014036618088963948,-7.433506640929649e-05,3.1047357944125054e-05,-3.545098856960749e-05,-0.00011079867362894946,-0.0006186651138124507,-0.000819525944706701,0.0006397199088470127,-0.00038073163581101846,0.0006163257338396434,-0.001102003034513331,0.4505855441093445,22.720483779907227,0.1491362750530243,-14.008821487426758,-0.07628399133682251,-2.1655306816101074,0.42605918645858765,0
77,0.37999558448791504,-0.5021602511405945,-22.696680068969727,-0.09756157547235489,13.981050491333008,0.09367901086807251,2.1517977714538574,-0.41324180364608765,0.0,0.0,0.0,0.0,0.0,0.0,0.0,-0.43384869553843713,0.09080039944209944,-0.20811090346486236,0.11278458587870346,-0.1497358313515207,-0.03789037114150142,-0.40550118716016054,1.6756602059372685,0.05209268045634553,0.02999617466173674,-2.7522523640256757,0.034317206273476286,2.7663383935829025,0.7691982197633029,1.6754973547542302,0.052104326824870026,0.029969505109285054,-2.752394845125968,0.0342448039870148,2.7663679543071322,0.7691630533470046,0.0019621919967201633,-0.00031275586256143646,-0.000919366712351538,-0.00013762089036731688,-0.00042174306856968257,-0.00010755665024594343,0.0004892458487962679,0.0,0.0,0.0,0.0,0.0,0.0,0.0,-0.00016285118303827062,1.1646368524492745e-05,-2.666955245168509e-05,-0.0001424811002923576,-7.240228646148567e-05,2.9560724229771296e-05,-3.5166416298304526e-05,-0.0019621919967201633,0.00031275586256143646,0.000919366712351538,0.00013762089036731688,0.00042174306856968257,0.00010755665024594343,-0.0004892458487962679,0.5021602511405945,22.696680068969727,0.09756157547235489,-13.981050491333008,-0.09367901086807251,-2.1517977714538574,0.41324180364608765,0
78,0.3849775791168213,-0.5021602511405945,-22.696680068969727,-0.09756157547235489,13.981050491333008,0.09367901086807251,2.1517977714538574,-0.41324180364608765,0.0,0.0,0.0,0.0,0.0,0.0,0.0,-0.43384869553843713,0.09080039944209944,-0.20811090346486236,0.11278458587870346,-0.1497358313515207,-0.03789037114150142,-0.40550118716016054,1.6756602059372685,0.05209268045634553,0.02999617466173674,-2.7522523640256757,0.034317206273476286,2.7663383935829025,0.7691982197633029,1.6754973547542302,0.052104326824870026,0.029969505109285054,-2.752394845125968,0.0342448039870148,2.7663679543071322,0.7691630533470046,0.0019621919967201633,-0.00031275586256143646,-0.000919366712351538,-0.00013762089036731688,-0.00042174306856968257,-0.00010755665024594343,0.0004892458487962679,0.0,0.0,0.0,0.0,0.0,0.0,0.0,-0.00016285118303827062,1.1646368524492745e-05,-2.666955245168509e-05,-0.0001424811002923576,-7.240228646148567e-05,2.9560724229771296e-05,-3.5166416298304526e-05,-0.0019621919967201633,0.00031275586256143646,0.000919366712351538,0.00013762089036731688,0.00042174306856968257,0.00010755665024594343,-0.0004892458487962679,0.5021602511405945,22.696680068969727,0.09756157547235489,-13.981050491333008,-0.09367901086807251,-2.1517977714538574,0.41324180364608765,0
79,0.3899857997894287,-0.4505855441093445,-22.672876358032227,-0.09756157547235489,13.981050491333008,0.08818584680557251,2.1453890800476074,-0.40591758489608765,0.0,0.0,0.0,0.0,0.0,0.0,0.0,-0.4352971370495445,0.088192837290495,-0.2091241613501606,0.115093232036588,-0.14959025625006495,-0.037064546221522436,-0.4047626122437484,1.675656586659582,0.05209101002049027,0.02999617466173674,-2.7522526126312137,0.034317816625038786,2.766339105659061,0.7691970920141086,1.6754973547542302,0.052104326824870026,0.029969505109285054,-2.752394845125968,0.0342448039870148,2.7663679543071322,0.7691630533470046,0.0003992898169810081,-0.0010392375385790186,-0.0008342575630670401,0.00018218202054663942,-0.0003609546755513752,0.000290083907089391,0.00036150652819498877,0.0,0.0,0.0,0.0,0.0,0.0,0.0,-0.00015923190535183096,1.3316804379756575e-05,-2.666955245168509e-05,-0.000142232494754424,-7.301263802398511e-05,2.8848648071289062e-05,-3.4038667103941656e-05,-0.0003992898169810081,0.0010392375385790186,0.0008342575630670401,-0.00018218202054663942,0.0003609546755513752,-0.000290083907089391,-0.00036150652819498877,0.4505855441093445,22.672876358032227,0.09756157547235489,-13.981050491333008,-0.08818584680557251,-2.1453890800476074,0.40591758489608765,0
