rezayati/contactInterpretation/dataset/franka_main/labeled_data/link6/b12_3.csv
index,time,tau_J0,tau_J1,tau_J2,tau_J3,tau_J4,tau_J5,tau_J6,tau_J_d0,tau_J_d1,tau_J_d2,tau_J_d3,tau_J_d4,tau_J_d5,tau_J_d6,tau_ext0,tau_ext1,tau_ext2,tau_ext3,tau_ext4,tau_ext5,tau_ext6,q0,q1,q2,q3,q4,q5,q6,q_d0,q_d1,q_d2,q_d3,q_d4,q_d5,q_d6,dq0,dq1,dq2,dq3,dq4,dq5,dq6,dq_d0,dq_d1,dq_d2,dq_d3,dq_d4,dq_d5,dq_d6,e0,e1,e2,e3,e4,e5,e6,de0,de1,de2,de3,de4,de5,de6,etau_J0,etau_J1,etau_J2,etau_J3,etau_J4,etau_J5,etau_J6,label
1,0.0,-0.6291133761405945,-34.09072494506836,-3.9497954845428467,19.313081741333008,0.1650901436805725,1.790164589881897,-0.06351034343242645,0.0,0.0,0.0,0.0,0.0,0.0,0.0,-0.6305592244649879,0.01925971014039275,-0.44155688200666277,0.30758704609463294,0.11707016016263232,-0.11439617289572859,-0.08183791264165236,1.054630439620269,0.3240234055268137,-0.39239637340578565,-2.1534634964131336,0.8646435290376344,2.4659292037089666,0.5444839830315777,1.0544104758940245,0.3238615046091247,-0.39250456234122666,-2.153291787532338,0.8647539153680389,2.46587817577521,0.5445020185570556,-4.104877547518534e-06,0.0003711025940483649,-0.0008461468357473014,0.00029520825110740064,0.00016600502283957633,-0.00013508106627673126,-0.0010816070694475743,0.0,0.0,0.0,0.0,0.0,0.0,0.0,-0.00021996372624455418,-0.00016190091768897297,-0.00010818893544101149,0.0001717088807957623,0.00011038633040449941,-5.102793375666437e-05,1.8035525477855252e-05,4.104877547518534e-06,-0.0003711025940483649,0.0008461468357473014,-0.00029520825110740064,-0.00016600502283957633,0.00013508106627673126,0.0010816070694475743,0.6291133761405945,34.09072494506836,3.9497954845428467,-19.313081741333008,-0.1650901436805725,-1.790164589881897,0.06351034343242645,0
2,0.00498509407043457,-0.6806880831718445,-34.01534652709961,-3.9735991954803467,19.336885452270508,0.1714988350868225,1.783755898475647,-0.08365194499492645,0.0,0.0,0.0,0.0,0.0,0.0,0.0,-0.635034598181885,0.032838334040895395,-0.4401543910545063,0.2994813061688968,0.11637219845364213,-0.1155000931618219,-0.08248172516341591,1.0546340588979555,0.32401811581327206,-0.39239470296993584,-2.1534651668615505,0.8646428169608115,2.4659299157857895,0.5444862209873067,1.0544104758940245,0.3238615046091247,-0.39250456234122666,-2.153291787532338,0.8647539153680389,2.46587817577521,0.5445020185570556,0.0010117691303510778,-0.00040701255467073865,-3.6376981984227953e-05,-0.00021780689859950058,-9.997547444821936e-05,-6.180081606131887e-05,0.0003211213876447073,0.0,0.0,0.0,0.0,0.0,0.0,0.0,-0.00022358300393099384,-0.00015661120414733887,-0.00010985937129082135,0.00017337932921268617,0.00011109840722745012,-5.174001057950406e-05,1.5797569748898788e-05,-0.0010117691303510778,0.00040701255467073865,3.6376981984227953e-05,0.00021780689859950058,9.997547444821936e-05,6.180081606131887e-05,-0.0003211213876447073,0.6806880831718445,34.01534652709961,3.9735991954803467,-19.336885452270508,-0.1714988350868225,-1.783755898475647,0.08365194499492645,0
3,0.009986400604248047,-0.6806880831718445,-34.01534652709961,-3.9735991954803467,19.336885452270508,0.1714988350868225,1.783755898475647,-0.08365194499492645,0.0,0.0,0.0,0.0,0.0,0.0,0.0,-0.635034598181885,0.032838334040895395,-0.4401543910545063,0.2994813061688968,0.11637219845364213,-0.1155000931618219,-0.08248172516341591,1.0546340588979555,0.32401811581327206,-0.39239470296993584,-2.1534651668615505,0.8646428169608115,2.4659299157857895,0.5444862209873067,1.0544104758940245,0.3238615046091247,-0.39250456234122666,-2.153291787532338,0.8647539153680389,2.46587817577521,0.5445020185570556,0.0010117691303510778,-0.00040701255467073865,-3.6376981984227953e-05,-0.00021780689859950058,-9.997547444821936e-05,-6.180081606131887e-05,0.0003211213876447073,0.0,0.0,0.0,0.0,0.0,0.0,0.0,-0.00022358300393099384,-0.00015661120414733887,-0.00010985937129082135,0.00017337932921268617,0.00011109840722745012,-5.174001057950406e-05,1.5797569748898788e-05,-0.0010117691303510778,0.00040701255467073865,3.6376981984227953e-05,0.00021780689859950058,9.997547444821936e-05,6.180081606131887e-05,-0.0003211213876447073,0.6806880831718445,34.01534652709961,3.9735991954803467,-19.336885452270508,-0.1714988350868225,-1.783755898475647,0.08365194499492645,0
4,0.014987945556640625,-0.7084590792655945,-34.03915023803711,-3.9974029064178467,19.313081741333008,0.1714988350868225,1.777347207069397,-0.08365194499492645,0.0,0.0,0.0,0.0,0.0,0.0,0.0,-0.6459079556922044,0.03273424130586984,-0.445322564613076,0.29991006768469414,0.11659992135388952,-0.1157323589117181,-0.08159924125858126,1.0546360077397865,0.3240197862491273,-0.3923930325340806,-2.153461271185624,0.8646428169608115,2.4659306278626123,0.5444862209873067,1.0544104758940245,0.3238615046091247,-0.39250456234122666,-2.153291787532338,0.8647539153680389,2.46587817577521,0.5445020185570556,0.001356638387177384,0.000725338742414537,-0.00030028526455558026,0.00012655510654151819,-0.00010753588511032479,0.0005385998922434159,0.0003758310774654379,0.0,0.0,0.0,0.0,0.0,0.0,0.0,-0.00022553184576201701,-0.00015828164000258882,-0.0001115298071460713,0.00016948365328595116,0.00011109840722745012,-5.245208740234375e-05,1.5797569748898788e-05,-0.001356638387177384,-0.000725338742414537,0.00030028526455558026,-0.00012655510654151819,0.00010753588511032479,-0.0005385998922434159,-0.0003758310774654379,0.7084590792655945,34.03915023803711,3.9974029064178467,-19.313081741333008,-0.1714988350868225,-1.777347207069397,0.08365194499492645,0
5,0.019989728927612305,-0.7084590792655945,-34.03915023803711,-3.9974029064178467,19.313081741333008,0.1714988350868225,1.777347207069397,-0.08365194499492645,0.0,0.0,0.0,0.0,0.0,0.0,0.0,-0.6459079556922044,0.03273424130586984,-0.445322564613076,0.29991006768469414,0.11659992135388952,-0.1157323589117181,-0.08159924125858126,1.0546360077397865,0.3240197862491273,-0.3923930325340806,-2.153461271185624,0.8646428169608115,2.4659306278626123,0.5444862209873067,1.0544104758940245,0.3238615046091247,-0.39250456234122666,-2.153291787532338,0.8647539153680389,2.46587817577521,0.5445020185570556,0.001356638387177384,0.000725338742414537,-0.00030028526455558026,0.00012655510654151819,-0.00010753588511032479,0.0005385998922434159,0.0003758310774654379,0.0,0.0,0.0,0.0,0.0,0.0,0.0,-0.00022553184576201701,-0.00015828164000258882,-0.0001115298071460713,0.00016948365328595116,0.00011109840722745012,-5.245208740234375e-05,1.5797569748898788e-05,-0.001356638387177384,-0.000725338742414537,0.00030028526455558026,-0.00012655510654151819,0.00010753588511032479,-0.0005385998922434159,-0.0003758310774654379,0.7084590792655945,34.03915023803711,3.9974029064178467,-19.313081741333008,-0.1714988350868225,-1.777347207069397,0.08365194499492645,0
6,0.024948835372924805,-0.6568843722343445,-34.01534652709961,-4.048977375030518,19.313081741333008,0.1769919991493225,1.802981972694397,-0.06991903483867645,0.0,0.0,0.0,0.0,0.0,0.0,0.0,-0.6505042193663898,0.026117701072762265,-0.4504729849518631,0.30816116232299245,0.11693908943969043,-0.11392529091549768,-0.080921174177961,1.0546323884621,0.32401811581327206,-0.3923894123010636,-2.1534634689410344,0.864642206609249,2.465927779555321,0.5444846951084005,1.0544104758940245,0.3238615046091247,-0.39250456234122666,-2.153291787532338,0.8647539153680389,2.46587817577521,0.5445020185570556,-0.00019140691078256146,7.437441141874574e-05,0.00022705196440060972,0.0006287146128043209,-9.358824067486857e-05,-0.00034403735620103476,-0.00021939249748838873,0.0,0.0,0.0,0.0,0.0,0.0,0.0,-0.00022191256807557735,-0.00015661120414733887,-0.00011515004016304786,0.00017168140869650017,0.00011170875878996345,-4.9603780110984985e-05,1.7323448655126583e-05,0.00019140691078256146,-7.437441141874574e-05,-0.00022705196440060972,-0.0006287146128043209,9.358824067486857e-05,0.00034403735620103476,0.00021939249748838873,0.6568843722343445,34.01534652709961,4.048977375030518,-19.313081741333008,-0.1769919991493225,-1.802981972694397,0.06991903483867645,0
7,0.02999138832092285,-0.6568843722343445,-34.01534652709961,-4.048977375030518,19.313081741333008,0.1769919991493225,1.802981972694397,-0.06991903483867645,0.0,0.0,0.0,0.0,0.0,0.0,0.0,-0.6505042193663898,0.026117701072762265,-0.4504729849518631,0.30816116232299245,0.11693908943969043,-0.11392529091549768,-0.080921174177961,1.0546323884621,0.32401811581327206,-0.3923894123010636,-2.1534634689410344,0.864642206609249,2.465927779555321,0.5444846951084005,1.0544104758940245,0.3238615046091247,-0.39250456234122666,-2.153291787532338,0.8647539153680389,2.46587817577521,0.5445020185570556,-0.00019140691078256146,7.437441141874574e-05,0.00022705196440060972,0.0006287146128043209,-9.358824067486857e-05,-0.00034403735620103476,-0.00021939249748838873,0.0,0.0,0.0,0.0,0.0,0.0,0.0,-0.00022191256807557735,-0.00015661120414733887,-0.00011515004016304786,0.00017168140869650017,0.00011170875878996345,-4.9603780110984985e-05,1.7323448655126583e-05,0.00019140691078256146,-7.437441141874574e-05,-0.00022705196440060972,-0.0006287146128043209,9.358824067486857e-05,0.00034403735620103476,0.00021939249748838873,0.6568843722343445,34.01534652709961,4.048977375030518,-19.313081741333008,-0.1769919991493225,-1.802981972694397,0.06991903483867645,0
8,0.03494620323181152,-0.5815059542655945,-34.03915023803711,-3.9735991954803467,19.336885452270508,0.1650901436805725,1.783755898475647,-0.10470907390117645,0.0,0.0,0.0,0.0,0.0,0.0,0.0,-0.6305404216529166,0.027065501685883647,-0.43475290089367985,0.30919102472221677,0.11674038857919139,-0.11481550614428225,-0.08143918077858232,1.0546270987485584,0.3240197862491273,-0.39239470296993406,-2.153465166861499,0.8646435290376344,2.4659299157857895,0.5444885606682963,1.0544104758940245,0.3238615046091247,-0.39250456234122666,-2.153291787532338,0.8647539153680389,2.46587817577521,0.5445020185570556,-0.0013072399762073313,-0.0005666569242971489,-0.0005840520081346094,-0.00036064472963150796,0.00011866590682916019,0.00024126478745448,0.0010130979736175999,0.0,0.0,0.0,0.0,0.0,0.0,0.0,-0.00021662285453394325,-0.00015828164000258882,-0.00010985937129259771,0.00017337932916117182,0.00011038633040449941,-5.174001057950406e-05,1.3457888759282888e-05,0.0013072399762073313,0.0005666569242971489,0.0005840520081346094,0.00036064472963150796,-0.00011866590682916019,-0.00024126478745448,-0.0010130979736175999,0.5815059542655945,34.03915023803711,3.9735991954803467,-19.336885452270508,-0.1650901436805725,-1.783755898475647,0.10470907390117645,0
9,0.039986610412597656,-0.5815059542655945,-34.03915023803711,-3.9735991954803467,19.336885452270508,0.1650901436805725,1.783755898475647,-0.10470907390117645,0.0,0.0,0.0,0.0,0.0,0.0,0.0,-0.6305404216529166,0.027065501685883647,-0.43475290089367985,0.30919102472221677,0.11674038857919139,-0.11481550614428225,-0.08143918077858232,1.0546270987485584,0.3240197862491273,-0.39239470296993406,-2.153465166861499,0.8646435290376344,2.4659299157857895,0.5444885606682963,1.0544104758940245,0.3238615046091247,-0.39250456234122666,-2.153291787532338,0.8647539153680389,2.46587817577521,0.5445020185570556,-0.0013072399762073313,-0.0005666569242971489,-0.0005840520081346094,-0.00036064472963150796,0.00011866590682916019,0.00024126478745448,0.0010130979736175999,0.0,0.0,0.0,0.0,0.0,0.0,0.0,-0.00021662285453394325,-0.00015828164000258882,-0.00010985937129259771,0.00017337932916117182,0.00011038633040449941,-5.174001057950406e-05,1.3457888759282888e-05,0.0013072399762073313,0.0005666569242971489,0.0005840520081346094,0.00036064472963150796,-0.00011866590682916019,-0.00024126478745448,-0.0010130979736175999,0.5815059542655945,34.03915023803711,3.9735991954803467,-19.336885452270508,-0.1650901436805725,-1.783755898475647,0.10470907390117645,0
10,0.044983863830566406,-0.5815059542655945,-34.03915023803711,-3.9735991954803467,19.336885452270508,0.1650901436805725,1.783755898475647,-0.10470907390117645,0.0,0.0,0.0,0.0,0.0,0.0,0.0,-0.6305404216529166,0.027065501685883647,-0.43475290089367985,0.30919102472221677,0.11674038857919139,-0.11481550614428225,-0.08143918077858232,1.0546270987485584,0.3240197862491273,-0.39239470296993406,-2.153465166861499,0.8646435290376344,2.4659299157857895,0.5444885606682963,1.0544104758940245,0.3238615046091247,-0.39250456234122666,-2.153291787532338,0.8647539153680389,2.46587817577521,0.5445020185570556,-0.0013072399762073313,-0.0005666569242971489,-0.0005840520081346094,-0.00036064472963150796,0.00011866590682916019,0.00024126478745448,0.0010130979736175999,0.0,0.0,0.0,0.0,0.0,0.0,0.0,-0.00021662285453394325,-0.00015828164000258882,-0.00010985937129259771,0.00017337932916117182,0.00011038633040449941,-5.174001057950406e-05,1.3457888759282888e-05,0.0013072399762073313,0.0005666569242971489,0.0005840520081346094,0.00036064472963150796,-0.00011866590682916019,-0.00024126478745448,-0.0010130979736175999,0.5815059542655945,34.03915023803711,3.9735991954803467,-19.336885452270508,-0.1650901436805725,-1.783755898475647,0.10470907390117645,0
11,0.04995012283325195,-0.5815059542655945,-34.03915023803711,-3.9735991954803467,19.336885452270508,0.1650901436805725,1.783755898475647,-0.10470907390117645,0.0,0.0,0.0,0.0,0.0,0.0,0.0,-0.6305404216529166,0.027065501685883647,-0.43475290089367985,0.30919102472221677,0.11674038857919139,-0.11481550614428225,-0.08143918077858232,1.0546270987485584,0.3240197862491273,-0.39239470296993406,-2.153465166861499,0.8646435290376344,2.4659299157857895,0.5444885606682963,1.0544104758940245,0.3238615046091247,-0.39250456234122666,-2.153291787532338,0.8647539153680389,2.46587817577521,0.5445020185570556,-0.0013072399762073313,-0.0005666569242971489,-0.0005840520081346094,-0.00036064472963150796,0.00011866590682916019,0.00024126478745448,0.0010130979736175999,0.0,0.0,0.0,0.0,0.0,0.0,0.0,-0.00021662285453394325,-0.00015828164000258882,-0.00010985937129259771,0.00017337932916117182,0.00011038633040449941,-5.174001057950406e-05,1.3457888759282888e-05,0.0013072399762073313,0.0005666569242971489,0.0005840520081346094,0.00036064472963150796,-0.00011866590682916019,-0.00024126478745448,-0.0010130979736175999,0.5815059542655945,34.03915023803711,3.9735991954803467,-19.336885452270508,-0.1650901436805725,-1.783755898475647,0.10470907390117645,0
12,0.05498790740966797,-0.5815059542655945,-34.03915023803711,-3.9974029064178467,19.336885452270508,0.1650901436805725,1.777347207069397,-0.06351034343242645,0.0,0.0,0.0,0.0,0.0,0.0,0.0,-0.638374424997703,0.03300774223923973,-0.4413822772539809,0.305307700836822,0.11714861416197779,-0.11429958669174264,-0.08369424702674054,1.0546270987485584,0.3240197862491273,-0.3923930325340806,-2.1534651668615505,0.8646435290376344,2.4659306278626123,0.5444839830315775,1.0544104758940245,0.3238615046091247,-0.39250456234122666,-2.153291787532338,0.8647539153680389,2.46587817577521,0.5445020185570556,-0.0010671895447218322,-0.00016040545307250046,0.00020355832252200938,-4.1077107395470046e-05,0.00017616257215258066,0.0005039044827945906,-0.0008071160519362463,0.0,0.0,0.0,0.0,0.0,0.0,0.0,-0.00021662285453394325,-0.00015828164000258882,-0.0001115298071460713,0.00017337932921268617,0.00011038633040449941,-5.245208740234375e-05,1.8035525478077297e-05,0.0010671895447218322,0.00016040545307250046,-0.00020355832252200938,4.1077107395470046e-05,-0.00017616257215258066,-0.0005039044827945906,0.0008071160519362463,0.5815059542655945,34.03915023803711,3.9974029064178467,-19.336885452270508,-0.1650901436805725,-1.777347207069397,0.06351034343242645,0
13,0.05998730659484863,-0.5815059542655945,-34.03915023803711,-3.9974029064178467,19.336885452270508,0.1650901436805725,1.777347207069397,-0.06351034343242645,0.0,0.0,0.0,0.0,0.0,0.0,0.0,-0.638374424997703,0.03300774223923973,-0.4413822772539809,0.305307700836822,0.11714861416197779,-0.11429958669174264,-0.08369424702674054,1.0546270987485584,0.3240197862491273,-0.3923930325340806,-2.1534651668615505,0.8646435290376344,2.4659306278626123,0.5444839830315775,1.0544104758940245,0.3238615046091247,-0.39250456234122666,-2.153291787532338,0.8647539153680389,2.46587817577521,0.5445020185570556,-0.0010671895447218322,-0.00016040545307250046,0.00020355832252200938,-4.1077107395470046e-05,0.00017616257215258066,0.0005039044827945906,-0.0008071160519362463,0.0,0.0,0.0,0.0,0.0,0.0,0.0,-0.00021662285453394325,-0.00015828164000258882,-0.0001115298071460713,0.00017337932921268617,0.00011038633040449941,-5.245208740234375e-05,1.8035525478077297e-05,0.0010671895447218322,0.00016040545307250046,-0.00020355832252200938,4.1077107395470046e-05,-0.00017616257215258066,-0.0005039044827945906,0.0008071160519362463,0.5815059542655945,34.03915023803711,3.9974029064178467,-19.336885452270508,-0.1650901436805725,-1.777347207069397,0.06351034343242645,0
14,0.06493973731994629,-0.6291133761405945,-34.03915023803711,-3.9974029064178467,19.289278030395508,0.1595969796180725,1.802981972694397,-0.09097616374492645,0.0,0.0,0.0,0.0,0.0,0.0,0.0,-0.6393186286638489,0.034401048241791694,-0.44537383551560367,0.301989787039403,0.11713815489819596,-0.11540483066468372,-0.0840929027095311,1.054630439620269,0.3240197862491273,-0.3923930325340806,-2.1534618259898397,0.8646441393891969,2.465927740309464,0.54448703478939,1.0544104758940245,0.3238615046091247,-0.39250456234122666,-2.153291787532338,0.8647539153680389,2.46587817577521,0.5445020185570556,-0.00015585249926201375,-0.0001344920382960144,-9.442502034249856e-05,0.0010181451928463151,0.00023441630697162137,-0.0005225637674749949,0.0008822456938614746,0.0,0.0,0.0,0.0,0.0,0.0,0.0,-0.00021996372624455418,-0.00015828164000258882,-0.0001115298071460713,0.0001700384575018532,0.00010977597884198609,-4.956453425419838e-05,1.4983767665621706e-05,0.00015585249926201375,0.0001344920382960144,9.442502034249856e-05,-0.0010181451928463151,-0.00023441630697162137,0.0005225637674749949,-0.0008822456938614746,0.6291133761405945,34.03915023803711,3.9974029064178467,-19.289278030395508,-0.1595969796180725,-1.802981972694397,0.09097616374492645,0
15,0.06998682022094727,-0.6291133761405945,-34.03915023803711,-3.9974029064178467,19.289278030395508,0.1595969796180725,1.802981972694397,-0.09097616374492645,0.0,0.0,0.0,0.0,0.0,0.0,0.0,-0.6393186286638489,0.034401048241791694,-0.44537383551560367,0.301989787039403,0.11713815489819596,-0.11540483066468372,-0.0840929027095311,1.054630439620269,0.3240197862491273,-0.3923930325340806,-2.1534618259898397,0.8646441393891969,2.465927740309464,0.54448703478939,1.0544104758940245,0.3238615046091247,-0.39250456234122666,-2.153291787532338,0.8647539153680389,2.46587817577521,0.5445020185570556,-0.00015585249926201375,-0.0001344920382960144,-9.442502034249856e-05,0.0010181451928463151,0.00023441630697162137,-0.0005225637674749949,0.0008822456938614746,0.0,0.0,0.0,0.0,0.0,0.0,0.0,-0.00021996372624455418,-0.00015828164000258882,-0.0001115298071460713,0.0001700384575018532,0.00010977597884198609,-4.956453425419838e-05,1.4983767665621706e-05,0.00015585249926201375,0.0001344920382960144,9.442502034249856e-05,-0.0010181451928463151,-0.00023441630697162137,0.0005225637674749949,-0.0008822456938614746,0.6291133761405945,34.03915023803711,3.9974029064178467,-19.289278030395508,-0.1595969796180725,-1.802981972694397,0.09097616374492645,0
16,0.07498526573181152,-0.6568843722343445,-34.06295394897461,-3.9974029064178467,19.388460159301758,0.1650901436805725,1.796573281288147,-0.06351034343242645,0.0,0.0,0.0,0.0,0.0,0.0,0.0,-0.6329522817082046,0.03051577531745303,-0.43951476135647377,0.30488609276579803,0.1161097055588092,-0.11604374648816326,-0.08407856247200737,1.0546323884621,0.32402145668498256,-0.3923930325340806,-2.1534687860261834,0.8646435290376344,2.46592849163207,0.5444839830315775,1.0544104758940245,0.3238615046091247,-0.39250456234122666,-2.153291787532338,0.8647539153680389,2.46587817577521,0.5445020185570556,-5.021186342447796e-05,0.0004667468183654789,0.0002457387176319775,-0.0012876701185738448,3.9287699219299375e-05,-0.00023004830275660985,-0.001051617375594262,0.0,0.0,0.0,0.0,0.0,0.0,0.0,-0.00022191256807557735,-0.00015995207585783877,-0.0001115298071460713,0.00017699849384555932,0.00011038633040449941,-5.031585686010587e-05,1.8035525478077297e-05,5.021186342447796e-05,-0.0004667468183654789,-0.0002457387176319775,0.0012876701185738448,-3.9287699219299375e-05,0.00023004830275660985,0.001051617375594262,0.6568843722343445,34.06295394897461,3.9974029064178467,-19.388460159301758,-0.1650901436805725,-1.796573281288147,0.06351034343242645,0
17,0.08001208305358887,-0.6568843722343445,-34.06295394897461,-3.9974029064178467,19.388460159301758,0.1650901436805725,1.796573281288147,-0.06351034343242645,0.0,0.0,0.0,0.0,0.0,0.0,0.0,-0.6329522817082046,0.03051577531745303,-0.43951476135647377,0.30488609276579803,0.1161097055588092,-0.11604374648816326,-0.08407856247200737,1.0546323884621,0.32402145668498256,-0.3923930325340806,-2.1534687860261834,0.8646435290376344,2.46592849163207,0.5444839830315775,1.0544104758940245,0.3238615046091247,-0.39250456234122666,-2.153291787532338,0.8647539153680389,2.46587817577521,0.5445020185570556,-5.021186342447796e-05,0.0004667468183654789,0.0002457387176319775,-0.0012876701185738448,3.9287699219299375e-05,-0.00023004830275660985,-0.001051617375594262,0.0,0.0,0.0,0.0,0.0,0.0,0.0,-0.00022191256807557735,-0.00015995207585783877,-0.0001115298071460713,0.00017699849384555932,0.00011038633040449941,-5.031585686010587e-05,1.8035525478077297e-05,5.021186342447796e-05,-0.0004667468183654789,-0.0002457387176319775,0.0012876701185738448,-3.9287699219299375e-05,0.00023004830275660985,0.001051617375594262,0.6568843722343445,34.06295394897461,3.9974029064178467,-19.388460159301758,-0.1650901436805725,-1.796573281288147,0.06351034343242645,0
18,0.08498954772949219,-0.6806880831718445,-34.01534652709961,-4.048977375030518,19.313081741333008,0.1714988350868225,1.777347207069397,-0.07724325358867645,0.0,0.0,0.0,0.0,0.0,0.0,0.0,-0.6379451087330439,0.03557440985487404,-0.4405388315248126,0.3010678421649901,0.11561803406253993,-0.11607872785753436,-0.08464084351771183,1.0546340588979555,0.32401811581327206,-0.3923894132731253,-2.1534634964256947,0.8646428169608115,2.4659306278626123,0.5444855089104838,1.0544104758940245,0.3238615046091247,-0.39250456234122666,-2.153291787532338,0.8647539153680389,2.46587817577521,0.5445020185570556,0.001202095533933425,-0.0005226491351869665,0.0005360930564680304,0.0004899928948709772,-9.225487976216388e-05,0.00034794620131524645,0.00036684020519828345,0.0,0.0,0.0,0.0,0.0,0.0,0.0,-0.00022358300393099384,-0.00015661120414733887,-0.00011514906810133896,0.0001717088933568256,0.00011109840722745012,-5.245208740234375e-05,1.65096465718495e-05,-0.001202095533933425,0.0005226491351869665,-0.0005360930564680304,-0.0004899928948709772,9.225487976216388e-05,-0.00034794620131524645,-0.00036684020519828345,0.6806880831718445,34.01534652709961,4.048977375030518,-19.313081741333008,-0.1714988350868225,-1.777347207069397,0.07724325358867645,0
19,0.09001302719116211,-0.6806880831718445,-34.01534652709961,-4.048977375030518,19.313081741333008,0.1714988350868225,1.777347207069397,-0.07724325358867645,0.0,0.0,0.0,0.0,0.0,0.0,0.0,-0.6379451087330439,0.03557440985487404,-0.4405388315248126,0.3010678421649901,0.11561803406253993,-0.11607872785753436,-0.08464084351771183,1.0546340588979555,0.32401811581327206,-0.3923894132731253,-2.1534634964256947,0.8646428169608115,2.4659306278626123,0.5444855089104838,1.0544104758940245,0.3238615046091247,-0.39250456234122666,-2.153291787532338,0.8647539153680389,2.46587817577521,0.5445020185570556,0.001202095533933425,-0.0005226491351869665,0.0005360930564680304,0.0004899928948709772,-9.225487976216388e-05,0.00034794620131524645,0.00036684020519828345,0.0,0.0,0.0,0.0,0.0,0.0,0.0,-0.00022358300393099384,-0.00015661120414733887,-0.00011514906810133896,0.0001717088933568256,0.00011109840722745012,-5.245208740234375e-05,1.65096465718495e-05,-0.001202095533933425,0.0005226491351869665,-0.0005360930564680304,-0.0004899928948709772,9.225487976216388e-05,-0.00034794620131524645,-0.00036684020519828345,0.6806880831718445,34.01534652709961,4.048977375030518,-19.313081741333008,-0.1714988350868225,-1.777347207069397,0.07724325358867645,0
20,0.09494233131408691,-0.6053096652030945,-34.01534652709961,-3.9974029064178467,19.336885452270508,0.1769919991493225,1.790164589881897,-0.04977743700146675,0.0,0.0,0.0,0.0,0.0,0.0,0.0,-0.6313609824689101,0.03666118243764793,-0.43706745519594853,0.30155530100762934,0.11467759424563109,-0.11710228918692174,-0.08299084347679714,1.0546287691844136,0.32401811581327206,-0.3923930325340806,-2.1534651668615505,0.8646423243468189,2.4659292037089666,0.5444824576376018,1.0544104758940245,0.3238615046091247,-0.39250456234122666,-2.153291787532338,0.8647539153680389,2.46587817577521,0.5445020185570556,-0.000643686126985973,-0.00017360740276092297,-0.0005946798265054974,-0.0004214704594893478,-0.0005085328936017404,-3.255660704526772e-05,-0.0011742494447576108,0.0,0.0,0.0,0.0,0.0,0.0,0.0,-0.0002182932903891377,-0.00015661120414733887,-0.0001115298071460713,0.00017337932921268617,0.00011159102122004771,-5.102793375666437e-05,1.9560919453764924e-05,0.000643686126985973,0.00017360740276092297,0.0005946798265054974,0.0004214704594893478,0.0005085328936017404,3.255660704526772e-05,0.0011742494447576108,0.6053096652030945,34.01534652709961,3.9974029064178467,-19.336885452270508,-0.1769919991493225,-1.790164589881897,0.04977743700146675,0
21,0.09993624687194824,-0.6053096652030945,-34.01534652709961,-3.9974029064178467,19.336885452270508,0.1769919991493225,1.790164589881897,-0.04977743700146675,0.0,0.0,0.0,0.0,0.0,0.0,0.0,-0.6313609824689101,0.03666118243764793,-0.43706745519594853,0.30155530100762934,0.11467759424563109,-0.11710228918692174,-0.08299084347679714,1.0546287691844136,0.32401811581327206,-0.3923930325340806,-2.1534651668615505,0.8646423243468189,2.4659292037089666,0.5444824576376018,1.0544104758940245,0.3238615046091247,-0.39250456234122666,-2.153291787532338,0.8647539153680389,2.46587817577521,0.5445020185570556,-0.000643686126985973,-0.00017360740276092297,-0.0005946798265054974,-0.0004214704594893478,-0.0005085328936017404,-3.255660704526772e-05,-0.0011742494447576108,0.0,0.0,0.0,0.0,0.0,0.0,0.0,-0.0002182932903891377,-0.00015661120414733887,-0.0001115298071460713,0.00017337932921268617,0.00011159102122004771,-5.102793375666437e-05,1.9560919453764924e-05,0.000643686126985973,0.00017360740276092297,0.0005946798265054974,0.0004214704594893478,0.0005085328936017404,3.255660704526772e-05,0.0011742494447576108,0.6053096652030945,34.01534652709961,3.9974029064178467,-19.336885452270508,-0.1769919991493225,-1.790164589881897,0.04977743700146675,0
22,0.10499286651611328,-0.6291133761405945,-34.06295394897461,-4.025173664093018,19.313081741333008,0.1714988350868225,1.783755898475647,-0.11111776530742645,0.0,0.0,0.0,0.0,0.0,0.0,0.0,-0.6292119639510366,0.032014926845689864,-0.43711058854385304,0.3066282018661903,0.1143119776726057,-0.1166398285774172,-0.08217951055464244,1.054630439620269,0.32402145668498256,-0.39239108370898057,-2.153463496425695,0.864642816961476,2.4659299157857895,0.544489272798957,1.0544104758940245,0.3238615046091247,-0.39250456234122666,-2.153291787532338,0.8647539153680389,2.46587817577521,0.5445020185570556,9.191550862779986e-05,0.0007407294654428441,0.0006783902821147857,0.00043792531282162936,-4.234927294935203e-05,0.0001416956950890388,0.0013231600767376179,0.0,0.0,0.0,0.0,0.0,0.0,0.0,-0.00021996372624455418,-0.00015995207585783877,-0.000113478632246089,0.0001717088933572697,0.00011109840656287062,-5.174001057950406e-05,1.2745758098620108e-05,-9.191550862779986e-05,-0.0007407294654428441,-0.0006783902821147857,-0.00043792531282162936,4.234927294935203e-05,-0.0001416956950890388,-0.0013231600767376179,0.6291133761405945,34.06295394897461,4.025173664093018,-19.313081741333008,-0.1714988350868225,-1.783755898475647,0.11111776530742645,0
23,0.11001324653625488,-0.6291133761405945,-34.06295394897461,-4.025173664093018,19.313081741333008,0.1714988350868225,1.783755898475647,-0.11111776530742645,0.0,0.0,0.0,0.0,0.0,0.0,0.0,-0.6292119639510366,0.032014926845689864,-0.43711058854385304,0.3066282018661903,0.1143119776726057,-0.1166398285774172,-0.08217951055464244,1.054630439620269,0.32402145668498256,-0.39239108370898057,-2.153463496425695,0.864642816961476,2.4659299157857895,0.544489272798957,1.0544104758940245,0.3238615046091247,-0.39250456234122666,-2.153291787532338,0.8647539153680389,2.46587817577521,0.5445020185570556,9.191550862779986e-05,0.0007407294654428441,0.0006783902821147857,0.00043792531282162936,-4.234927294935203e-05,0.0001416956950890388,0.0013231600767376179,0.0,0.0,0.0,0.0,0.0,0.0,0.0,-0.00021996372624455418,-0.00015995207585783877,-0.000113478632246089,0.0001717088933572697,0.00011109840656287062,-5.174001057950406e-05,1.2745758098620108e-05,-9.191550862779986e-05,-0.0007407294654428441,-0.0006783902821147857,-0.00043792531282162936,4.234927294935203e-05,-0.0001416956950890388,-0.0013231600767376179,0.6291133761405945,34.06295394897461,4.025173664093018,-19.313081741333008,-0.1714988350868225,-1.783755898475647,0.11111776530742645,0
24,0.11001324653625488,-0.6291133761405945,-34.06295394897461,-4.025173664093018,19.313081741333008,0.1714988350868225,1.783755898475647,-0.11111776530742645,0.0,0.0,0.0,0.0,0.0,0.0,0.0,-0.6292119639510366,0.032014926845689864,-0.43711058854385304,0.3066282018661903,0.1143119776726057,-0.1166398285774172,-0.08217951055464244,1.054630439620269,0.32402145668498256,-0.39239108370898057,-2.153463496425695,0.864642816961476,2.4659299157857895,0.544489272798957,1.0544104758940245,0.3238615046091247,-0.39250456234122666,-2.153291787532338,0.8647539153680389,2.46587817577521,0.5445020185570556,9.191550862779986e-05,0.0007407294654428441,0.0006783902821147857,0.00043792531282162936,-4.234927294935203e-05,0.0001416956950890388,0.0013231600767376179,0.0,0.0,0.0,0.0,0.0,0.0,0.0,-0.00021996372624455418,-0.00015995207585783877,-0.000113478632246089,0.0001717088933572697,0.00011109840656287062,-5.174001057950406e-05,1.2745758098620108e-05,-9.191550862779986e-05,-0.0007407294654428441,-0.0006783902821147857,-0.00043792531282162936,4.234927294935203e-05,-0.0001416956950890388,-0.0013231600767376179,0.6291133761405945,34.06295394897461,4.025173664093018,-19.313081741333008,-0.1714988350868225,-1.783755898475647,0.11111776530742645,0
25,0.1199336051940918,-0.6053096652030945,-34.03915023803711,-3.9497954845428467,19.313081741333008,0.1650901436805725,1.783755898475647,-0.10470907390117645,0.0,0.0,0.0,0.0,0.0,0.0,0.0,-0.6278400420375772,0.03411961935758936,-0.43646311393088616,0.30332244172703193,0.11483347716882716,-0.1174772331257464,-0.08302353502854995,1.0546287691844136,0.3240197862491273,-0.3923963734057911,-2.153463496425695,0.8646435290376344,2.4659299157857895,0.5444885606682965,1.0544104758940245,0.3238615046091247,-0.39250456234122666,-2.153291787532338,0.8647539153680389,2.46587817577521,0.5445020185570556,-0.0003667129348242078,-0.0003210312932411286,-0.000948914502244298,-4.931798188309105e-05,0.0003108259766999637,0.00015976890898666704,0.00036367998330495693,0.0,0.0,0.0,0.0,0.0,0.0,0.0,-0.0002182932903891377,-0.00015828164000258882,-0.0001081889354355714,0.0001717088933572697,0.00011038633040449941,-5.174001057950406e-05,1.3457888759060843e-05,0.0003667129348242078,0.0003210312932411286,0.000948914502244298,4.931798188309105e-05,-0.0003108259766999637,-0.00015976890898666704,-0.00036367998330495693,0.6053096652030945,34.03915023803711,3.9497954845428467,-19.313081741333008,-0.1650901436805725,-1.783755898475647,0.10470907390117645,0
26,0.12499403953552246,-0.6053096652030945,-34.03915023803711,-3.9497954845428467,19.313081741333008,0.1650901436805725,1.783755898475647,-0.10470907390117645,0.0,0.0,0.0,0.0,0.0,0.0,0.0,-0.6278400420375772,0.03411961935758936,-0.43646311393088616,0.30332244172703193,0.11483347716882716,-0.1174772331257464,-0.08302353502854995,1.0546287691844136,0.3240197862491273,-0.3923963734057911,-2.153463496425695,0.8646435290376344,2.4659299157857895,0.5444885606682965,1.0544104758940245,0.3238615046091247,-0.39250456234122666,-2.153291787532338,0.8647539153680389,2.46587817577521,0.5445020185570556,-0.0003667129348242078,-0.0003210312932411286,-0.000948914502244298,-4.931798188309105e-05,0.0003108259766999637,0.00015976890898666704,0.00036367998330495693,0.0,0.0,0.0,0.0,0.0,0.0,0.0,-0.0002182932903891377,-0.00015828164000258882,-0.0001081889354355714,0.0001717088933572697,0.00011038633040449941,-5.174001057950406e-05,1.3457888759060843e-05,0.0003667129348242078,0.0003210312932411286,0.000948914502244298,4.931798188309105e-05,-0.0003108259766999637,-0.00015976890898666704,-0.00036367998330495693,0.6053096652030945,34.03915023803711,3.9497954845428467,-19.313081741333008,-0.1650901436805725,-1.783755898475647,0.10470907390117645,0
27,0.12999582290649414,-0.6806880831718445,-34.03915023803711,-3.9974029064178467,19.313081741333008,0.1834006905555725,1.796573281288147,-0.08365194499492645,0.0,0.0,0.0,0.0,0.0,0.0,0.0,-0.6382929277757012,0.032783609644340565,-0.4453241455573451,0.30077534997016064,0.11663557399542274,-0.11711057638559927,-0.0850379235023119,1.0546340588979555,0.3240200202525475,-0.3923930325340806,-2.153463496425695,0.8646414945324261,2.465928491632144,0.5444862209873067,1.0544104758940245,0.3238615046091247,-0.39250456234122666,-2.153291787532338,0.8647539153680389,2.46587817577521,0.5445020185570556,0.0011998399063598941,-0.0002863466272551071,-0.00025207294020385243,0.0001062678736486364,-0.0026628887747305254,-0.00012036770026223215,-9.6437198373542e-05,0.0,0.0,0.0,0.0,0.0,0.0,0.0,-0.00022358300393099384,-0.00015851564342278524,-0.0001115298071460713,0.0001717088933572697,0.00011242083561280314,-5.0315856933824676e-05,1.5797569748898788e-05,-0.0011998399063598941,0.0002863466272551071,0.00025207294020385243,-0.0001062678736486364,0.0026628887747305254,0.00012036770026223215,9.6437198373542e-05,0.6806880831718445,34.03915023803711,3.9974029064178467,-19.313081741333008,-0.1834006905555725,-1.796573281288147,0.08365194499492645,0
28,0.1349942684173584,-0.6806880831718445,-34.03915023803711,-3.9974029064178467,19.313081741333008,0.1834006905555725,1.796573281288147,-0.08365194499492645,0.0,0.0,0.0,0.0,0.0,0.0,0.0,-0.6382929277757012,0.032783609644340565,-0.4453241455573451,0.30077534997016064,0.11663557399542274,-0.11711057638559927,-0.0850379235023119,1.0546340588979555,0.3240200202525475,-0.3923930325340806,-2.153463496425695,0.8646414945324261,2.465928491632144,0.5444862209873067,1.0544104758940245,0.3238615046091247,-0.39250456234122666,-2.153291787532338,0.8647539153680389,2.46587817577521,0.5445020185570556,0.0011998399063598941,-0.0002863466272551071,-0.00025207294020385243,0.0001062678736486364,-0.0026628887747305254,-0.00012036770026223215,-9.6437198373542e-05,0.0,0.0,0.0,0.0,0.0,0.0,0.0,-0.00022358300393099384,-0.00015851564342278524,-0.0001115298071460713,0.0001717088933572697,0.00011242083561280314,-5.0315856933824676e-05,1.5797569748898788e-05,-0.0011998399063598941,0.0002863466272551071,0.00025207294020385243,-0.0001062678736486364,0.0026628887747305254,0.00012036770026223215,9.6437198373542e-05,0.6806880831718445,34.03915023803711,3.9974029064178467,-19.313081741333008,-0.1834006905555725,-1.796573281288147,0.08365194499492645,0
29,0.1399986743927002,-0.6291133761405945,-34.06295394897461,-3.9735991954803467,19.336885452270508,0.1769919991493225,1.790164589881897,-0.08365194499492645,0.0,0.0,0.0,0.0,0.0,0.0,0.0,-0.6312858594914201,0.03643812810052331,-0.4393030823765446,0.3014542615550493,0.11662241399613962,-0.11644431143165851,-0.08488450074265813,1.054630439620269,0.3240214566863035,-0.39239470296993584,-2.1534651668615505,0.864642206609249,2.4659292037089666,0.5444862209873067,1.0544104758940245,0.3238615046091247,-0.39250456234122666,-2.153291787532338,0.8647539153680389,2.46587817577521,0.5445020185570556,0.00018287287020498868,0.0008265561369126827,-0.0006800284993614035,-5.9328706990621366e-05,-0.00023989036472310822,6.507005560335266e-05,0.00024859422657899443,0.0,0.0,0.0,0.0,0.0,0.0,0.0,-0.00021996372624455418,-0.00015995207717878213,-0.00010985937129082135,0.00017337932921268617,0.00011170875878996345,-5.102793375666437e-05,1.5797569748898788e-05,-0.00018287287020498868,-0.0008265561369126827,0.0006800284993614035,5.9328706990621366e-05,0.00023989036472310822,-6.507005560335266e-05,-0.00024859422657899443,0.6291133761405945,34.06295394897461,3.9735991954803467,-19.336885452270508,-0.1769919991493225,-1.790164589881897,0.08365194499492645,0
30,0.14493656158447266,-0.6291133761405945,-34.06295394897461,-3.9735991954803467,19.336885452270508,0.1769919991493225,1.790164589881897,-0.08365194499492645,0.0,0.0,0.0,0.0,0.0,0.0,0.0,-0.6312858594914201,0.03643812810052331,-0.4393030823765446,0.3014542615550493,0.11662241399613962,-0.11644431143165851,-0.08488450074265813,1.054630439620269,0.3240214566863035,-0.39239470296993584,-2.1534651668615505,0.864642206609249,2.4659292037089666,0.5444862209873067,1.0544104758940245,0.3238615046091247,-0.39250456234122666,-2.153291787532338,0.8647539153680389,2.46587817577521,0.5445020185570556,0.00018287287020498868,0.0008265561369126827,-0.0006800284993614035,-5.9328706990621366e-05,-0.00023989036472310822,6.507005560335266e-05,0.00024859422657899443,0.0,0.0,0.0,0.0,0.0,0.0,0.0,-0.00021996372624455418,-0.00015995207717878213,-0.00010985937129082135,0.00017337932921268617,0.00011170875878996345,-5.102793375666437e-05,1.5797569748898788e-05,-0.00018287287020498868,-0.0008265561369126827,0.0006800284993614035,5.9328706990621366e-05,0.00023989036472310822,-6.507005560335266e-05,-0.00024859422657899443,0.6291133761405945,34.06295394897461,3.9735991954803467,-19.336885452270508,-0.1769919991493225,-1.790164589881897,0.08365194499492645,0
31,0.14998722076416016,-0.6568843722343445,-34.01534652709961,-4.025173664093018,19.336885452270508,0.1650901436805725,1.783755898475647,-0.11111776530742645,0.0,0.0,0.0,0.0,0.0,0.0,0.0,-0.6344560938993025,0.03487729413770097,-0.4423014069869252,0.30519899712918447,0.11758521663001918,-0.11496144410332992,-0.08367975416359948,1.0546323884621,0.32401811581327206,-0.39239108370898057,-2.153462941621479,0.8646435290376344,2.4659299157857895,0.5444892771057699,1.0544104758940245,0.3238615046091247,-0.39250456234122666,-2.153291787532338,0.8647539153680389,2.46587817577521,0.5445020185570556,0.0004148991041807111,-0.00013450107307748973,0.0001896256303097845,0.00014614332452926574,0.00017191984476834277,0.0002834493515326763,0.0015861316991397133,0.0,0.0,0.0,0.0,0.0,0.0,0.0,-0.00022191256807557735,-0.00015661120414733887,-0.000113478632246089,0.00017115408914136765,0.00011038633040449941,-5.174001057950406e-05,1.27414512857138e-05,-0.0004148991041807111,0.00013450107307748973,-0.0001896256303097845,-0.00014614332452926574,-0.00017191984476834277,-0.0002834493515326763,-0.0015861316991397133,0.6568843722343445,34.01534652709961,4.025173664093018,-19.336885452270508,-0.1650901436805725,-1.783755898475647,0.11111776530742645,0
32,0.15498852729797363,-0.6568843722343445,-34.01534652709961,-4.025173664093018,19.336885452270508,0.1650901436805725,1.783755898475647,-0.11111776530742645,0.0,0.0,0.0,0.0,0.0,0.0,0.0,-0.6344560938993025,0.03487729413770097,-0.4423014069869252,0.30519899712918447,0.11758521663001918,-0.11496144410332992,-0.08367975416359948,1.0546323884621,0.32401811581327206,-0.39239108370898057,-2.153462941621479,0.8646435290376344,2.4659299157857895,0.5444892771057699,1.0544104758940245,0.3238615046091247,-0.39250456234122666,-2.153291787532338,0.8647539153680389,2.46587817577521,0.5445020185570556,0.0004148991041807111,-0.00013450107307748973,0.0001896256303097845,0.00014614332452926574,0.00017191984476834277,0.0002834493515326763,0.0015861316991397133,0.0,0.0,0.0,0.0,0.0,0.0,0.0,-0.00022191256807557735,-0.00015661120414733887,-0.000113478632246089,0.00017115408914136765,0.00011038633040449941,-5.174001057950406e-05,1.27414512857138e-05,-0.0004148991041807111,0.00013450107307748973,-0.0001896256303097845,-0.00014614332452926574,-0.00017191984476834277,-0.0002834493515326763,-0.0015861316991397133,0.6568843722343445,34.01534652709961,4.025173664093018,-19.336885452270508,-0.1650901436805725,-1.783755898475647,0.11111776530742645,0
33,0.1600348949432373,-0.6568843722343445,-34.01534652709961,-4.025173664093018,19.336885452270508,0.1650901436805725,1.783755898475647,-0.11111776530742645,0.0,0.0,0.0,0.0,0.0,0.0,0.0,-0.6344560938993025,0.03487729413770097,-0.4423014069869252,0.30519899712918447,0.11758521663001918,-0.11496144410332992,-0.08367975416359948,1.0546323884621,0.32401811581327206,-0.39239108370898057,-2.153462941621479,0.8646435290376344,2.4659299157857895,0.5444892771057699,1.0544104758940245,0.3238615046091247,-0.39250456234122666,-2.153291787532338,0.8647539153680389,2.46587817577521,0.5445020185570556,0.0004148991041807111,-0.00013450107307748973,0.0001896256303097845,0.00014614332452926574,0.00017191984476834277,0.0002834493515326763,0.0015861316991397133,0.0,0.0,0.0,0.0,0.0,0.0,0.0,-0.00022191256807557735,-0.00015661120414733887,-0.000113478632246089,0.00017115408914136765,0.00011038633040449941,-5.174001057950406e-05,1.27414512857138e-05,-0.0004148991041807111,0.00013450107307748973,-0.0001896256303097845,-0.00014614332452926574,-0.00017191984476834277,-0.0002834493515326763,-0.0015861316991397133,0.6568843722343445,34.01534652709961,4.025173664093018,-19.336885452270508,-0.1650901436805725,-1.783755898475647,0.11111776530742645,0
34,0.16504526138305664,-0.6568843722343445,-34.01534652709961,-4.025173664093018,19.336885452270508,0.1650901436805725,1.783755898475647,-0.11111776530742645,0.0,0.0,0.0,0.0,0.0,0.0,0.0,-0.6344560938993025,0.03487729413770097,-0.4423014069869252,0.30519899712918447,0.11758521663001918,-0.11496144410332992,-0.08367975416359948,1.0546323884621,0.32401811581327206,-0.39239108370898057,-2.153462941621479,0.8646435290376344,2.4659299157857895,0.5444892771057699,1.0544104758940245,0.3238615046091247,-0.39250456234122666,-2.153291787532338,0.8647539153680389,2.46587817577521,0.5445020185570556,0.0004148991041807111,-0.00013450107307748973,0.0001896256303097845,0.00014614332452926574,0.00017191984476834277,0.0002834493515326763,0.0015861316991397133,0.0,0.0,0.0,0.0,0.0,0.0,0.0,-0.00022191256807557735,-0.00015661120414733887,-0.000113478632246089,0.00017115408914136765,0.00011038633040449941,-5.174001057950406e-05,1.27414512857138e-05,-0.0004148991041807111,0.00013450107307748973,-0.0001896256303097845,-0.00014614332452926574,-0.00017191984476834277,-0.0002834493515326763,-0.0015861316991397133,0.6568843722343445,34.01534652709961,4.025173664093018,-19.336885452270508,-0.1650901436805725,-1.783755898475647,0.11111776530742645,0
35,0.17005324363708496,-0.6053096652030945,-34.03915023803711,-3.9735991954803467,19.313081741333008,0.1595969796180725,1.796573281288147,-0.06991903483867645,0.0,0.0,0.0,0.0,0.0,0.0,0.0,-0.6222123158973256,0.03796735758446457,-0.4309606668420455,0.3070601586196614,0.11685451199088659,-0.11593790082703469,-0.08270504108934175,1.0546287691844136,0.3240197862491273,-0.39239470296993584,-2.1534634964131336,0.8646441393891969,2.465928491147627,0.544484695108425,1.0544104758940245,0.3238615046091247,-0.39250456234122666,-2.153291787532338,0.8647539153680389,2.46587817577521,0.5445020185570556,-0.0005655940043221226,0.0002948663703733886,-0.0005080368608622037,0.000622308878878469,0.000358475757415407,-0.00039969741076877914,-0.00052038564374298,0.0,0.0,0.0,0.0,0.0,0.0,0.0,-0.0002182932903891377,-0.00015828164000258882,-0.00010985937129082135,0.0001717088807957623,0.00010977597884198609,-5.031537241695361e-05,1.7323448630590654e-05,0.0005655940043221226,-0.0002948663703733886,0.0005080368608622037,-0.000622308878878469,-0.000358475757415407,0.00039969741076877914,0.00052038564374298,0.6053096652030945,34.03915023803711,3.9735991954803467,-19.313081741333008,-0.1595969796180725,-1.796573281288147,0.06991903483867645,0
36,0.17499756813049316,-0.6053096652030945,-34.03915023803711,-3.9735991954803467,19.313081741333008,0.1595969796180725,1.796573281288147,-0.06991903483867645,0.0,0.0,0.0,0.0,0.0,0.0,0.0,-0.6222123158973256,0.03796735758446457,-0.4309606668420455,0.3070601586196614,0.11685451199088659,-0.11593790082703469,-0.08270504108934175,1.0546287691844136,0.3240197862491273,-0.39239470296993584,-2.1534634964131336,0.8646441393891969,2.465928491147627,0.544484695108425,1.0544104758940245,0.3238615046091247,-0.39250456234122666,-2.153291787532338,0.8647539153680389,2.46587817577521,0.5445020185570556,-0.0005655940043221226,0.0002948663703733886,-0.0005080368608622037,0.000622308878878469,0.000358475757415407,-0.00039969741076877914,-0.00052038564374298,0.0,0.0,0.0,0.0,0.0,0.0,0.0,-0.0002182932903891377,-0.00015828164000258882,-0.00010985937129082135,0.0001717088807957623,0.00010977597884198609,-5.031537241695361e-05,1.7323448630590654e-05,0.0005655940043221226,-0.0002948663703733886,0.0005080368608622037,-0.000622308878878469,-0.000358475757415407,0.00039969741076877914,0.00052038564374298,0.6053096652030945,34.03915023803711,3.9735991954803467,-19.313081741333008,-0.1595969796180725,-1.796573281288147,0.06991903483867645,0
37,0.1799945831298828,-0.6291133761405945,-34.06295394897461,-4.025173664093018,19.313081741333008,0.1595969796180725,1.796573281288147,-0.09097616374492645,0.0,0.0,0.0,0.0,0.0,0.0,0.0,-0.6285755626971352,0.0425385567816673,-0.43459618865347016,0.3037615234349877,0.11653932689066458,-0.11593599685480102,-0.08358092965107523,1.054630439620269,0.3240214653517759,-0.39239108370898057,-2.153463496425695,0.8646441393891969,2.465928491632143,0.54448703478939,1.0544104758940245,0.3238615046091247,-0.39250456234122666,-2.153291787532338,0.8647539153680389,2.46587817577521,0.5445020185570556,0.00045772865186613124,0.0009401402644409444,0.0007775133884029081,0.0003268223584094038,0.00039732573279191273,-0.0003487488760697303,0.00037269561940923444,0.0,0.0,0.0,0.0,0.0,0.0,0.0,-0.00021996372624455418,-0.00015996074265117732,-0.000113478632246089,0.0001717088933572697,0.00010977597884198609,-5.03158569329365e-05,1.4983767665621706e-05,-0.00045772865186613124,-0.0009401402644409444,-0.0007775133884029081,-0.0003268223584094038,-0.00039732573279191273,0.0003487488760697303,-0.00037269561940923444,0.6291133761405945,34.06295394897461,4.025173664093018,-19.313081741333008,-0.1595969796180725,-1.796573281288147,0.09097616374492645,0
38,0.18499159812927246,-0.6291133761405945,-34.06295394897461,-4.025173664093018,19.313081741333008,0.1595969796180725,1.796573281288147,-0.09097616374492645,0.0,0.0,0.0,0.0,0.0,0.0,0.0,-0.6285755626971352,0.0425385567816673,-0.43459618865347016,0.3037615234349877,0.11653932689066458,-0.11593599685480102,-0.08358092965107523,1.054630439620269,0.3240214653517759,-0.39239108370898057,-2.153463496425695,0.8646441393891969,2.465928491632143,0.54448703478939,1.0544104758940245,0.3238615046091247,-0.39250456234122666,-2.153291787532338,0.8647539153680389,2.46587817577521,0.5445020185570556,0.00045772865186613124,0.0009401402644409444,0.0007775133884029081,0.0003268223584094038,0.00039732573279191273,-0.0003487488760697303,0.00037269561940923444,0.0,0.0,0.0,0.0,0.0,0.0,0.0,-0.00021996372624455418,-0.00015996074265117732,-0.000113478632246089,0.0001717088933572697,0.00010977597884198609,-5.03158569329365e-05,1.4983767665621706e-05,-0.00045772865186613124,-0.0009401402644409444,-0.0007775133884029081,-0.0003268223584094038,-0.00039732573279191273,0.0003487488760697303,-0.00037269561940923444,0.6291133761405945,34.06295394897461,4.025173664093018,-19.313081741333008,-0.1595969796180725,-1.796573281288147,0.09097616374492645,0
39,0.18999218940734863,-0.6291133761405945,-34.03915023803711,-4.025173664093018,19.313081741333008,0.1650901436805725,1.796573281288147,-0.04977743700146675,0.0,0.0,0.0,0.0,0.0,0.0,0.0,-0.6350524133421873,0.02724327093255024,-0.44370971779392643,0.3146885969937566,0.11616166849562998,-0.1124331241930101,-0.08389963103802138,1.054630439620269,0.3240197862491762,-0.39239108370898057,-2.153463468953596,0.8646435290376344,2.465928491632144,0.5444824571530852,1.0544104758940245,0.3238615046091247,-0.39250456234122666,-2.153291787532338,0.8647539153680389,2.46587817577521,0.5445020185570556,0.00038586342959004454,-5.687369203337043e-05,0.0006630738366908669,0.000294108179860341,0.00021014040476572708,-0.0033832038597424226,-0.000945897538167306,0.0,0.0,0.0,0.0,0.0,0.0,0.0,-0.00021996372624455418,-0.00015828164005149414,-0.000113478632246089,0.00017168142125800756,0.00011038633040449941,-5.0315856933824676e-05,1.956140397041395e-05,-0.00038586342959004454,5.687369203337043e-05,-0.0006630738366908669,-0.000294108179860341,-0.00021014040476572708,0.0033832038597424226,0.000945897538167306,0.6291133761405945,34.03915023803711,4.025173664093018,-19.313081741333008,-0.1650901436805725,-1.796573281288147,0.04977743700146675,0
40,0.19500207901000977,-0.6291133761405945,-34.03915023803711,-4.025173664093018,19.313081741333008,0.1650901436805725,1.796573281288147,-0.04977743700146675,0.0,0.0,0.0,0.0,0.0,0.0,0.0,-0.6350524133421873,0.02724327093255024,-0.44370971779392643,0.3146885969937566,0.11616166849562998,-0.1124331241930101,-0.08389963103802138,1.054630439620269,0.3240197862491762,-0.39239108370898057,-2.153463468953596,0.8646435290376344,2.465928491632144,0.5444824571530852,1.0544104758940245,0.3238615046091247,-0.39250456234122666,-2.153291787532338,0.8647539153680389,2.46587817577521,0.5445020185570556,0.00038586342959004454,-5.687369203337043e-05,0.0006630738366908669,0.000294108179860341,0.00021014040476572708,-0.0033832038597424226,-0.000945897538167306,0.0,0.0,0.0,0.0,0.0,0.0,0.0,-0.00021996372624455418,-0.00015828164005149414,-0.000113478632246089,0.00017168142125800756,0.00011038633040449941,-5.0315856933824676e-05,1.956140397041395e-05,-0.00038586342959004454,5.687369203337043e-05,-0.0006630738366908669,-0.000294108179860341,-0.00021014040476572708,0.0033832038597424226,0.000945897538167306,0.6291133761405945,34.03915023803711,4.025173664093018,-19.313081741333008,-0.1650901436805725,-1.796573281288147,0.04977743700146675,0
41,0.2001800537109375,-0.6568843722343445,-34.03915023803711,-4.048977375030518,19.336885452270508,0.1650901436805725,1.796573281288147,-0.03604452684521675,0.0,0.0,0.0,0.0,0.0,0.0,0.0,-0.632502958029316,0.03178749584079604,-0.44155136951454615,0.31025027841453906,0.11634914087717323,-0.11387228198136767,-0.08355066296784948,1.0546323884621,0.3240204883663854,-0.3923894132731253,-2.1534651668613956,0.8646435290376344,2.465928491632144,0.544480931274179,1.0544104758940245,0.3238615046091247,-0.39250456234122666,-2.153291787532338,0.8647539153680389,2.46587817577521,0.5445020185570556,0.0007941053590603559,0.00011342250027203028,0.0008892519166602941,0.00010314712656340588,0.0001605963699391544,-0.000383532082431035,-0.0017352942331813092,0.0,0.0,0.0,0.0,0.0,0.0,0.0,-0.00022191256807557735,-0.00015898375726070002,-0.00011514906810133896,0.00017337932905769904,0.00011038633040449941,-5.0315856933824676e-05,2.1087282876641744e-05,-0.0007941053590603559,-0.00011342250027203028,-0.0008892519166602941,-0.00010314712656340588,-0.0001605963699391544,0.000383532082431035,0.0017352942331813092,0.6568843722343445,34.03915023803711,4.048977375030518,-19.336885452270508,-0.1650901436805725,-1.796573281288147,0.03604452684521675,0
42,0.2050037384033203,-0.6568843722343445,-34.03915023803711,-4.048977375030518,19.336885452270508,0.1650901436805725,1.796573281288147,-0.03604452684521675,0.0,0.0,0.0,0.0,0.0,0.0,0.0,-0.632502958029316,0.03178749584079604,-0.44155136951454615,0.31025027841453906,0.11634914087717323,-0.11387228198136767,-0.08355066296784948,1.0546323884621,0.3240204883663854,-0.3923894132731253,-2.1534651668613956,0.8646435290376344,2.465928491632144,0.544480931274179,1.0544104758940245,0.3238615046091247,-0.39250456234122666,-2.153291787532338,0.8647539153680389,2.46587817577521,0.5445020185570556,0.0007941053590603559,0.00011342250027203028,0.0008892519166602941,0.00010314712656340588,0.0001605963699391544,-0.000383532082431035,-0.0017352942331813092,0.0,0.0,0.0,0.0,0.0,0.0,0.0,-0.00022191256807557735,-0.00015898375726070002,-0.00011514906810133896,0.00017337932905769904,0.00011038633040449941,-5.0315856933824676e-05,2.1087282876641744e-05,-0.0007941053590603559,-0.00011342250027203028,-0.0008892519166602941,-0.00010314712656340588,-0.0001605963699391544,0.000383532082431035,0.0017352942331813092,0.6568843722343445,34.03915023803711,4.048977375030518,-19.336885452270508,-0.1650901436805725,-1.796573281288147,0.03604452684521675,0
43,0.20998692512512207,-0.6806880831718445,-34.03915023803711,-4.048977375030518,19.313081741333008,0.1650901436805725,1.790164589881897,-0.08365194499492645,0.0,0.0,0.0,0.0,0.0,0.0,0.0,-0.6294155343833132,0.048821719526019984,-0.43677448213105136,0.29837156373918644,0.11640069079854234,-0.11614803596857613,-0.08298026136624005,1.0546340588979555,0.32401978625309075,-0.3923894132731253,-2.153463496425695,0.8646435290376344,2.4659292037089666,0.5444862209873067,1.0544104758940245,0.3238615046091247,-0.39250456234122666,-2.153291787532338,0.8647539153680389,2.46587817577521,0.5445020185570556,0.0009621938994476579,0.0005766996603547321,0.0010213483823626984,2.8943973294728806e-05,0.0002707208155798866,0.0001458840186949409,-0.00013678454378031522,0.0,0.0,0.0,0.0,0.0,0.0,0.0,-0.00022358300393099384,-0.0001582816439660295,-0.00011514906810133896,0.0001717088933572697,0.00011038633040449941,-5.102793375666437e-05,1.5797569748898788e-05,-0.0009621938994476579,-0.0005766996603547321,-0.0010213483823626984,-2.8943973294728806e-05,-0.0002707208155798866,-0.0001458840186949409,0.00013678454378031522,0.6806880831718445,34.03915023803711,4.048977375030518,-19.313081741333008,-0.1650901436805725,-1.790164589881897,0.08365194499492645,0
44,0.2149825096130371,-0.6806880831718445,-34.03915023803711,-4.048977375030518,19.313081741333008,0.1650901436805725,1.790164589881897,-0.08365194499492645,0.0,0.0,0.0,0.0,0.0,0.0,0.0,-0.6294155343833132,0.048821719526019984,-0.43677448213105136,0.29837156373918644,0.11640069079854234,-0.11614803596857613,-0.08298026136624005,1.0546340588979555,0.32401978625309075,-0.3923894132731253,-2.153463496425695,0.8646435290376344,2.4659292037089666,0.5444862209873067,1.0544104758940245,0.3238615046091247,-0.39250456234122666,-2.153291787532338,0.8647539153680389,2.46587817577521,0.5445020185570556,0.0009621938994476579,0.0005766996603547321,0.0010213483823626984,2.8943973294728806e-05,0.0002707208155798866,0.0001458840186949409,-0.00013678454378031522,0.0,0.0,0.0,0.0,0.0,0.0,0.0,-0.00022358300393099384,-0.0001582816439660295,-0.00011514906810133896,0.0001717088933572697,0.00011038633040449941,-5.102793375666437e-05,1.5797569748898788e-05,-0.0009621938994476579,-0.0005766996603547321,-0.0010213483823626984,-2.8943973294728806e-05,-0.0002707208155798866,-0.0001458840186949409,0.00013678454378031522,0.6806880831718445,34.03915023803711,4.048977375030518,-19.313081741333008,-0.1650901436805725,-1.790164589881897,0.08365194499492645,0
45,0.21999335289001465,-0.6568843722343445,-33.99154281616211,-3.9735991954803467,19.313081741333008,0.1650901436805725,1.783755898475647,-0.11111776530742645,0.0,0.0,0.0,0.0,0.0,0.0,0.0,-0.6265342043750991,0.042806490524592636,-0.4367297470099862,0.3025366219344624,0.11680353364791482,-0.11575425396337458,-0.08350040072993038,1.0546323884621,0.32401644537741675,-0.39239470296993584,-2.153463496425695,0.8646435290376344,2.4659299218907007,0.5444903323832484,1.0544104758940245,0.3238615046091247,-0.39250456234122666,-2.153291787532338,0.8647539153680389,2.46587817577521,0.5445020185570556,0.0005481131791662515,-0.0007362107527030113,-0.001024132179830652,0.00020542028187565142,0.0004886778961674864,0.00036258212584219416,0.0009679626080659764,0.0,0.0,0.0,0.0,0.0,0.0,0.0,-0.00022191256807557735,-0.0001549407682920334,-0.00010985937129082135,0.0001717088933572697,0.00011038633040449941,-5.174611549074726e-05,1.1686173807201605e-05,-0.0005481131791662515,0.0007362107527030113,0.001024132179830652,-0.00020542028187565142,-0.0004886778961674864,-0.00036258212584219416,-0.0009679626080659764,0.6568843722343445,33.99154281616211,3.9735991954803467,-19.313081741333008,-0.1650901436805725,-1.783755898475647,0.11111776530742645,0
46,0.22505569458007812,-0.6568843722343445,-33.99154281616211,-3.9735991954803467,19.313081741333008,0.1650901436805725,1.783755898475647,-0.11111776530742645,0.0,0.0,0.0,0.0,0.0,0.0,0.0,-0.6265342043750991,0.042806490524592636,-0.4367297470099862,0.3025366219344624,0.11680353364791482,-0.11575425396337458,-0.08350040072993038,1.0546323884621,0.32401644537741675,-0.39239470296993584,-2.153463496425695,0.8646435290376344,2.4659299218907007,0.5444903323832484,1.0544104758940245,0.3238615046091247,-0.39250456234122666,-2.153291787532338,0.8647539153680389,2.46587817577521,0.5445020185570556,0.0005481131791662515,-0.0007362107527030113,-0.001024132179830652,0.00020542028187565142,0.0004886778961674864,0.00036258212584219416,0.0009679626080659764,0.0,0.0,0.0,0.0,0.0,0.0,0.0,-0.00022191256807557735,-0.0001549407682920334,-0.00010985937129082135,0.0001717088933572697,0.00011038633040449941,-5.174611549074726e-05,1.1686173807201605e-05,-0.0005481131791662515,0.0007362107527030113,0.001024132179830652,-0.00020542028187565142,-0.0004886778961674864,-0.00036258212584219416,-0.0009679626080659764,0.6568843722343445,33.99154281616211,3.9735991954803467,-19.313081741333008,-0.1650901436805725,-1.783755898475647,0.11111776530742645,0
47,0.2299966812133789,-0.6568843722343445,-34.01534652709961,-3.9974029064178467,19.360689163208008,0.1769919991493225,1.790164589881897,-0.13217489421367645,0.0,0.0,0.0,0.0,0.0,0.0,0.0,-0.6297146203415174,0.03344128563338661,-0.4406558043138904,0.30856593562720314,0.11747857265120305,-0.11451876208884947,-0.08352449320367673,1.0546323884621,0.32401811581327206,-0.3923930325340806,-2.1534668372974055,0.864642206609249,2.46592920370907,0.5444916124440538,1.0544104758940245,0.3238615046091247,-0.39250456234122666,-2.153291787532338,0.8647539153680389,2.46587817577521,0.5445020185570556,0.0005597304558300824,-0.0009417346211422224,-7.507266180527107e-05,-0.0006894893672958295,-0.0003373370249132648,1.153661043406052e-05,0.0023509799868418712,0.0,0.0,0.0,0.0,0.0,0.0,0.0,-0.00022191256807557735,-0.00015661120414733887,-0.0001115298071460713,0.00017504976506765857,0.00011170875878996345,-5.1027933860137153e-05,1.040611300184846e-05,-0.0005597304558300824,0.0009417346211422224,7.507266180527107e-05,0.0006894893672958295,0.0003373370249132648,-1.153661043406052e-05,-0.0023509799868418712,0.6568843722343445,34.01534652709961,3.9974029064178467,-19.360689163208008,-0.1769919991493225,-1.790164589881897,0.13217489421367645,0
48,0.2350904941558838,-0.6568843722343445,-34.01534652709961,-3.9974029064178467,19.360689163208008,0.1769919991493225,1.790164589881897,-0.13217489421367645,0.0,0.0,0.0,0.0,0.0,0.0,0.0,-0.6297146203415174,0.03344128563338661,-0.4406558043138904,0.30856593562720314,0.11747857265120305,-0.11451876208884947,-0.08352449320367673,1.0546323884621,0.32401811581327206,-0.3923930325340806,-2.1534668372974055,0.864642206609249,2.46592920370907,0.5444916124440538,1.0544104758940245,0.3238615046091247,-0.39250456234122666,-2.153291787532338,0.8647539153680389,2.46587817577521,0.5445020185570556,0.0005597304558300824,-0.0009417346211422224,-7.507266180527107e-05,-0.0006894893672958295,-0.0003373370249132648,1.153661043406052e-05,0.0023509799868418712,0.0,0.0,0.0,0.0,0.0,0.0,0.0,-0.00022191256807557735,-0.00015661120414733887,-0.0001115298071460713,0.00017504976506765857,0.00011170875878996345,-5.1027933860137153e-05,1.040611300184846e-05,-0.0005597304558300824,0.0009417346211422224,7.507266180527107e-05,0.0006894893672958295,0.0003373370249132648,-1.153661043406052e-05,-0.0023509799868418712,0.6568843722343445,34.01534652709961,3.9974029064178467,-19.360689163208008,-0.1769919991493225,-1.790164589881897,0.13217489421367645,0
49,0.23998594284057617,-0.6291133761405945,-34.03915023803711,-3.9974029064178467,19.336885452270508,0.1714988350868225,1.790164589881897,-0.08365194499492645,0.0,0.0,0.0,0.0,0.0,0.0,0.0,-0.6364196799426058,0.040081688344508204,-0.44259121764598447,0.30379710124665066,0.11769521057278341,-0.11418136447217551,-0.08303052809850418,1.054630439620269,0.3240197862491273,-0.3923930325340806,-2.1534651668615505,0.8646428169608115,2.4659292037089666,0.5444862214718235,1.0544104758940245,0.3238615046091247,-0.39250456234122666,-2.153291787532338,0.8647539153680389,2.46587817577521,0.5445020185570556,-0.0002249532150829779,5.334742638573254e-05,-0.00038120447601513156,0.00013138973440539415,0.0001640796279423158,-8.90117836452746e-05,0.0005780271299996348,0.0,0.0,0.0,0.0,0.0,0.0,0.0,-0.00021996372624455418,-0.00015828164000258882,-0.0001115298071460713,0.00017337932921268617,0.00011109840722745012,-5.102793375666437e-05,1.579708523213874e-05,0.0002249532150829779,-5.334742638573254e-05,0.00038120447601513156,-0.00013138973440539415,-0.0001640796279423158,8.90117836452746e-05,-0.0005780271299996348,0.6291133761405945,34.03915023803711,3.9974029064178467,-19.336885452270508,-0.1714988350868225,-1.790164589881897,0.08365194499492645,0
50,0.24494481086730957,-0.6291133761405945,-34.03915023803711,-3.9974029064178467,19.336885452270508,0.1714988350868225,1.790164589881897,-0.08365194499492645,0.0,0.0,0.0,0.0,0.0,0.0,0.0,-0.6364196799426058,0.040081688344508204,-0.44259121764598447,0.30379710124665066,0.11769521057278341,-0.11418136447217551,-0.08303052809850418,1.054630439620269,0.3240197862491273,-0.3923930325340806,-2.1534651668615505,0.8646428169608115,2.4659292037089666,0.5444862214718235,1.0544104758940245,0.3238615046091247,-0.39250456234122666,-2.153291787532338,0.8647539153680389,2.46587817577521,0.5445020185570556,-0.0002249532150829779,5.334742638573254e-05,-0.00038120447601513156,0.00013138973440539415,0.0001640796279423158,-8.90117836452746e-05,0.0005780271299996348,0.0,0.0,0.0,0.0,0.0,0.0,0.0,-0.00021996372624455418,-0.00015828164000258882,-0.0001115298071460713,0.00017337932921268617,0.00011109840722745012,-5.102793375666437e-05,1.579708523213874e-05,0.0002249532150829779,-5.334742638573254e-05,0.00038120447601513156,-0.00013138973440539415,-0.0001640796279423158,8.90117836452746e-05,-0.0005780271299996348,0.6291133761405945,34.03915023803711,3.9974029064178467,-19.336885452270508,-0.1714988350868225,-1.790164589881897,0.08365194499492645,0
51,0.24998807907104492,-0.6291133761405945,-34.01534652709961,-3.9735991954803467,19.313081741333008,0.1714988350868225,1.790164589881897,-0.04336874559521675,0.0,0.0,0.0,0.0,0.0,0.0,0.0,-0.6335356000219053,0.03597424302895056,-0.4389082268319414,0.3052119380440269,0.11779037587640309,-0.11491343299026906,-0.08182345894408201,1.054630439620269,0.3240202218440541,-0.39239470296993584,-2.153463496425695,0.8646428169608115,2.4659292037089666,0.5444817452377705,1.0544104758940245,0.3238615046091247,-0.39250456234122666,-2.153291787532338,0.8647539153680389,2.46587817577521,0.5445020185570556,-0.0002597239234527149,-0.00041991776495189334,-0.0009060162324277761,0.0005611315599051049,-0.00010677436467456751,-0.0001068395021474306,-0.0012408318029304313,0.0,0.0,0.0,0.0,0.0,0.0,0.0,-0.00021996372624455418,-0.00015871723492938417,-0.00010985937129082135,0.0001717088933572697,0.00011109840722745012,-5.102793375666437e-05,2.0273319285113445e-05,0.0002597239234527149,0.00041991776495189334,0.0009060162324277761,-0.0005611315599051049,0.00010677436467456751,0.0001068395021474306,0.0012408318029304313,0.6291133761405945,34.01534652709961,3.9735991954803467,-19.313081741333008,-0.1714988350868225,-1.790164589881897,0.04336874559521675,0
52,0.25498437881469727,-0.6291133761405945,-34.01534652709961,-3.9735991954803467,19.313081741333008,0.1714988350868225,1.790164589881897,-0.04336874559521675,0.0,0.0,0.0,0.0,0.0,0.0,0.0,-0.6335356000219053,0.03597424302895056,-0.4389082268319414,0.3052119380440269,0.11779037587640309,-0.11491343299026906,-0.08182345894408201,1.054630439620269,0.3240202218440541,-0.39239470296993584,-2.153463496425695,0.8646428169608115,2.4659292037089666,0.5444817452377705,1.0544104758940245,0.3238615046091247,-0.39250456234122666,-2.153291787532338,0.8647539153680389,2.46587817577521,0.5445020185570556,-0.0002597239234527149,-0.00041991776495189334,-0.0009060162324277761,0.0005611315599051049,-0.00010677436467456751,-0.0001068395021474306,-0.0012408318029304313,0.0,0.0,0.0,0.0,0.0,0.0,0.0,-0.00021996372624455418,-0.00015871723492938417,-0.00010985937129082135,0.0001717088933572697,0.00011109840722745012,-5.102793375666437e-05,2.0273319285113445e-05,0.0002597239234527149,0.00041991776495189334,0.0009060162324277761,-0.0005611315599051049,0.00010677436467456751,0.0001068395021474306,0.0012408318029304313,0.6291133761405945,34.01534652709961,3.9735991954803467,-19.313081741333008,-0.1714988350868225,-1.790164589881897,0.04336874559521675,0
53,0.2600433826446533,-0.6291133761405945,-34.01534652709961,-4.025173664093018,19.313081741333008,0.1650901436805725,1.790164589881897,-0.10470907390117645,0.0,0.0,0.0,0.0,0.0,0.0,0.0,-0.6257726533030606,0.040190658138528686,-0.4331430238041341,0.3033857058874748,0.11761345243921574,-0.11631690355856385,-0.0814946532707929,1.054630439620269,0.32401811582516066,-0.39239108370898057,-2.153463496425695,0.8646435290376344,2.4659292037089666,0.5444885606682972,1.0544104758940245,0.3238615046091247,-0.39250456234122666,-2.153291787532338,0.8647539153680389,2.46587817577521,0.5445020185570556,2.529101925793797e-05,-0.0003716024166447722,0.0008404828635698587,0.00046817280193412885,0.0004107055952933312,5.194136432234688e-05,0.0008399040665526385,0.0,0.0,0.0,0.0,0.0,0.0,0.0,-0.00021996372624455418,-0.00015661121603594008,-0.000113478632246089,0.0001717088933572697,0.00011038633040449941,-5.102793375666437e-05,1.345788875839471e-05,-2.529101925793797e-05,0.0003716024166447722,-0.0008404828635698587,-0.00046817280193412885,-0.0004107055952933312,-5.194136432234688e-05,-0.0008399040665526385,0.6291133761405945,34.01534652709961,4.025173664093018,-19.313081741333008,-0.1650901436805725,-1.790164589881897,0.10470907390117645,0
54,0.2650461196899414,-0.6291133761405945,-34.01534652709961,-4.025173664093018,19.313081741333008,0.1650901436805725,1.790164589881897,-0.10470907390117645,0.0,0.0,0.0,0.0,0.0,0.0,0.0,-0.6257726533030606,0.040190658138528686,-0.4331430238041341,0.3033857058874748,0.11761345243921574,-0.11631690355856385,-0.0814946532707929,1.054630439620269,0.32401811582516066,-0.39239108370898057,-2.153463496425695,0.8646435290376344,2.4659292037089666,0.5444885606682972,1.0544104758940245,0.3238615046091247,-0.39250456234122666,-2.153291787532338,0.8647539153680389,2.46587817577521,0.5445020185570556,2.529101925793797e-05,-0.0003716024166447722,0.0008404828635698587,0.00046817280193412885,0.0004107055952933312,5.194136432234688e-05,0.0008399040665526385,0.0,0.0,0.0,0.0,0.0,0.0,0.0,-0.00021996372624455418,-0.00015661121603594008,-0.000113478632246089,0.0001717088933572697,0.00011038633040449941,-5.102793375666437e-05,1.345788875839471e-05,-2.529101925793797e-05,0.0003716024166447722,-0.0008404828635698587,-0.00046817280193412885,-0.0004107055952933312,-5.194136432234688e-05,-0.0008399040665526385,0.6291133761405945,34.01534652709961,4.025173664093018,-19.313081741333008,-0.1650901436805725,-1.790164589881897,0.10470907390117645,0
55,0.26999664306640625,-0.5815059542655945,-34.03915023803711,-3.9735991954803467,19.289278030395508,0.1769919991493225,1.790164589881897,-0.11111776530742645,0.0,0.0,0.0,0.0,0.0,0.0,0.0,-0.6382109142529551,0.0384808761759696,-0.4462034051174989,0.30083501483340924,0.11860356641260969,-0.11536185775671065,-0.08274461423293068,1.0546270987485584,0.32401978624912736,-0.39239470296993584,-2.1534618259898397,0.864642206609249,2.4659292037089666,0.5444892732296358,1.0544104758940245,0.3238615046091247,-0.39250456234122666,-2.153291787532338,0.8647539153680389,2.46587817577521,0.5445020185570556,-0.0014049060086144289,0.00018245829940218206,-0.0009422514178499985,0.0007583802795247987,-0.00022487285346706927,-0.00015165347374064818,0.0008088248324247507,0.0,0.0,0.0,0.0,0.0,0.0,0.0,-0.00021662285453394325,-0.00015828164000264433,-0.00010985937129082135,0.0001700384575018532,0.00011170875878996345,-5.102793375666437e-05,1.2745327419794172e-05,0.0014049060086144289,-0.00018245829940218206,0.0009422514178499985,-0.0007583802795247987,0.00022487285346706927,0.00015165347374064818,-0.0008088248324247507,0.5815059542655945,34.03915023803711,3.9735991954803467,-19.289278030395508,-0.1769919991493225,-1.790164589881897,0.11111776530742645,0
56,0.2749340534210205,-0.5815059542655945,-34.03915023803711,-3.9735991954803467,19.289278030395508,0.1769919991493225,1.790164589881897,-0.11111776530742645,0.0,0.0,0.0,0.0,0.0,0.0,0.0,-0.6382109142529551,0.0384808761759696,-0.4462034051174989,0.30083501483340924,0.11860356641260969,-0.11536185775671065,-0.08274461423293068,1.0546270987485584,0.32401978624912736,-0.39239470296993584,-2.1534618259898397,0.864642206609249,2.4659292037089666,0.5444892732296358,1.0544104758940245,0.3238615046091247,-0.39250456234122666,-2.153291787532338,0.8647539153680389,2.46587817577521,0.5445020185570556,-0.0014049060086144289,0.00018245829940218206,-0.0009422514178499985,0.0007583802795247987,-0.00022487285346706927,-0.00015165347374064818,0.0008088248324247507,0.0,0.0,0.0,0.0,0.0,0.0,0.0,-0.00021662285453394325,-0.00015828164000264433,-0.00010985937129082135,0.0001700384575018532,0.00011170875878996345,-5.102793375666437e-05,1.2745327419794172e-05,0.0014049060086144289,-0.00018245829940218206,0.0009422514178499985,-0.0007583802795247987,0.00022487285346706927,0.00015165347374064818,-0.0008088248324247507,0.5815059542655945,34.03915023803711,3.9735991954803467,-19.289278030395508,-0.1769919991493225,-1.790164589881897,0.11111776530742645,0
57,0.2799415588378906,-0.6291133761405945,-34.03915023803711,-3.9735991954803467,19.313081741333008,0.1714988350868225,1.790164589881897,-0.10470907390117645,0.0,0.0,0.0,0.0,0.0,0.0,0.0,-0.6224982649721157,0.03903977093780558,-0.43260389912999797,0.3017799308075093,0.11751478038260643,-0.11639953584877875,-0.0847921997598547,1.054630439620269,0.3240197862491273,-0.39239470296993584,-2.153463496425695,0.8646428169608115,2.4659292037089666,0.5444885606683044,1.0544104758940245,0.3238615046091247,-0.39250456234122666,-2.153291787532338,0.8647539153680389,2.46587817577521,0.5445020185570556,8.79440226349907e-05,0.00022625098567618582,-0.0004510187683624882,0.0003044430796097839,0.0006299420851769613,-0.00010103202479642955,0.0006555849784327846,0.0,0.0,0.0,0.0,0.0,0.0,0.0,-0.00021996372624455418,-0.00015828164000258882,-0.00010985937129082135,0.0001717088933572697,0.00011109840722745012,-5.102793375666437e-05,1.345788875117826e-05,-8.79440226349907e-05,-0.00022625098567618582,0.0004510187683624882,-0.0003044430796097839,-0.0006299420851769613,0.00010103202479642955,-0.0006555849784327846,0.6291133761405945,34.03915023803711,3.9735991954803467,-19.313081741333008,-0.1714988350868225,-1.790164589881897,0.10470907390117645,0
58,0.2849843502044678,-0.6291133761405945,-34.03915023803711,-3.9735991954803467,19.313081741333008,0.1714988350868225,1.790164589881897,-0.10470907390117645,0.0,0.0,0.0,0.0,0.0,0.0,0.0,-0.6224982649721157,0.03903977093780558,-0.43260389912999797,0.3017799308075093,0.11751478038260643,-0.11639953584877875,-0.0847921997598547,1.054630439620269,0.3240197862491273,-0.39239470296993584,-2.153463496425695,0.8646428169608115,2.4659292037089666,0.5444885606683044,1.0544104758940245,0.3238615046091247,-0.39250456234122666,-2.153291787532338,0.8647539153680389,2.46587817577521,0.5445020185570556,8.79440226349907e-05,0.00022625098567618582,-0.0004510187683624882,0.0003044430796097839,0.0006299420851769613,-0.00010103202479642955,0.0006555849784327846,0.0,0.0,0.0,0.0,0.0,0.0,0.0,-0.00021996372624455418,-0.00015828164000258882,-0.00010985937129082135,0.0001717088933572697,0.00011109840722745012,-5.102793375666437e-05,1.345788875117826e-05,-8.79440226349907e-05,-0.00022625098567618582,0.0004510187683624882,-0.0003044430796097839,-0.0006299420851769613,0.00010103202479642955,-0.0006555849784327846,0.6291133761405945,34.03915023803711,3.9735991954803467,-19.313081741333008,-0.1714988350868225,-1.790164589881897,0.10470907390117645,0
59,0.2900102138519287,-0.6291133761405945,-34.03915023803711,-3.9735991954803467,19.313081741333008,0.1714988350868225,1.790164589881897,-0.10470907390117645,0.0,0.0,0.0,0.0,0.0,0.0,0.0,-0.6224982649721157,0.03903977093780558,-0.43260389912999797,0.3017799308075093,0.11751478038260643,-0.11639953584877875,-0.0847921997598547,1.054630439620269,0.3240197862491273,-0.39239470296993584,-2.153463496425695,0.8646428169608115,2.4659292037089666,0.5444885606683044,1.0544104758940245,0.3238615046091247,-0.39250456234122666,-2.153291787532338,0.8647539153680389,2.46587817577521,0.5445020185570556,8.79440226349907e-05,0.00022625098567618582,-0.0004510187683624882,0.0003044430796097839,0.0006299420851769613,-0.00010103202479642955,0.0006555849784327846,0.0,0.0,0.0,0.0,0.0,0.0,0.0,-0.00021996372624455418,-0.00015828164000258882,-0.00010985937129082135,0.0001717088933572697,0.00011109840722745012,-5.102793375666437e-05,1.345788875117826e-05,-8.79440226349907e-05,-0.00022625098567618582,0.0004510187683624882,-0.0003044430796097839,-0.0006299420851769613,0.00010103202479642955,-0.0006555849784327846,0.6291133761405945,34.03915023803711,3.9735991954803467,-19.313081741333008,-0.1714988350868225,-1.790164589881897,0.10470907390117645,0
60,0.29499292373657227,-0.6291133761405945,-34.03915023803711,-3.9735991954803467,19.313081741333008,0.1714988350868225,1.790164589881897,-0.10470907390117645,0.0,0.0,0.0,0.0,0.0,0.0,0.0,-0.6224982649721157,0.03903977093780558,-0.43260389912999797,0.3017799308075093,0.11751478038260643,-0.11639953584877875,-0.0847921997598547,1.054630439620269,0.3240197862491273,-0.39239470296993584,-2.153463496425695,0.8646428169608115,2.4659292037089666,0.5444885606683044,1.0544104758940245,0.3238615046091247,-0.39250456234122666,-2.153291787532338,0.8647539153680389,2.46587817577521,0.5445020185570556,8.79440226349907e-05,0.00022625098567618582,-0.0004510187683624882,0.0003044430796097839,0.0006299420851769613,-0.00010103202479642955,0.0006555849784327846,0.0,0.0,0.0,0.0,0.0,0.0,0.0,-0.00021996372624455418,-0.00015828164000258882,-0.00010985937129082135,0.0001717088933572697,0.00011109840722745012,-5.102793375666437e-05,1.345788875117826e-05,-8.79440226349907e-05,-0.00022625098567618582,0.0004510187683624882,-0.0003044430796097839,-0.0006299420851769613,0.00010103202479642955,-0.0006555849784327846,0.6291133761405945,34.03915023803711,3.9735991954803467,-19.313081741333008,-0.1714988350868225,-1.790164589881897,0.10470907390117645,0
61,0.3000154495239258,-0.6291133761405945,-34.06295394897461,-4.025173664093018,19.360689163208008,0.1714988350868225,1.777347207069397,-0.06351034343242645,0.0,0.0,0.0,0.0,0.0,0.0,0.0,-0.6447576314158873,0.03255761012540351,-0.4513844936710342,0.3020734719187222,0.11851636188191725,-0.1148982322458047,-0.08504119248769497,1.054630439620269,0.32402145668498256,-0.39239108370898057,-2.153466754881107,0.8646428169063033,2.4659306278626123,0.5444839830315775,1.0544104758940245,0.3238615046091247,-0.39250456234122666,-2.153291787532338,0.8647539153680389,2.46587817577521,0.5445020185570556,-6.357588337478019e-05,0.0008020138334434869,-9.611755936965329e-05,-0.0007147068470432968,3.923984659547823e-05,0.00045280363938829437,-0.0009476440884230741,0.0,0.0,0.0,0.0,0.0,0.0,0.0,-0.00021996372624455418,-0.00015995207585783877,-0.000113478632246089,0.000174967348768984,0.00011109846173562588,-5.245208740234375e-05,1.8035525478077297e-05,6.357588337478019e-05,-0.0008020138334434869,9.611755936965329e-05,0.0007147068470432968,-3.923984659547823e-05,-0.00045280363938829437,0.0009476440884230741,0.6291133761405945,34.06295394897461,4.025173664093018,-19.360689163208008,-0.1714988350868225,-1.777347207069397,0.06351034343242645,0
62,0.3050096035003662,-0.6291133761405945,-34.06295394897461,-4.025173664093018,19.360689163208008,0.1714988350868225,1.777347207069397,-0.06351034343242645,0.0,0.0,0.0,0.0,0.0,0.0,0.0,-0.6447576314158873,0.03255761012540351,-0.4513844936710342,0.3020734719187222,0.11851636188191725,-0.1148982322458047,-0.08504119248769497,1.054630439620269,0.32402145668498256,-0.39239108370898057,-2.153466754881107,0.8646428169063033,2.4659306278626123,0.5444839830315775,1.0544104758940245,0.3238615046091247,-0.39250456234122666,-2.153291787532338,0.8647539153680389,2.46587817577521,0.5445020185570556,-6.357588337478019e-05,0.0008020138334434869,-9.611755936965329e-05,-0.0007147068470432968,3.923984659547823e-05,0.00045280363938829437,-0.0009476440884230741,0.0,0.0,0.0,0.0,0.0,0.0,0.0,-0.00021996372624455418,-0.00015995207585783877,-0.000113478632246089,0.000174967348768984,0.00011109846173562588,-5.245208740234375e-05,1.8035525478077297e-05,6.357588337478019e-05,-0.0008020138334434869,9.611755936965329e-05,0.0007147068470432968,-3.923984659547823e-05,-0.00045280363938829437,0.0009476440884230741,0.6291133761405945,34.06295394897461,4.025173664093018,-19.360689163208008,-0.1714988350868225,-1.777347207069397,0.06351034343242645,0
63,0.30992865562438965,-0.6291133761405945,-34.06295394897461,-4.025173664093018,19.313081741333008,0.1769919991493225,1.783755898475647,-0.07724325358867645,0.0,0.0,0.0,0.0,0.0,0.0,0.0,-0.6299540698004789,0.03458040055561476,-0.4408872900089331,0.3021113005664577,0.11793506339976609,-0.11637689695385132,-0.08480074123336363,1.054630439620269,0.32402145668498256,-0.39239108370898057,-2.1534634140080007,0.8646422066092481,2.4659299157857895,0.5444855089104838,1.0544104758940245,0.3238615046091247,-0.39250456234122666,-2.153291787532338,0.8647539153680389,2.46587817577521,0.5445020185570556,0.00012136048219035786,0.0004374790127910954,0.0003176480481091567,0.0005595807337328905,-0.0002529234222041332,0.00014766532221763756,-0.00034966915781648903,0.0,0.0,0.0,0.0,0.0,0.0,0.0,-0.00021996372624455418,-0.00015995207585783877,-0.000113478632246089,0.00017162647566282274,0.00011170875879085163,-5.174001057950406e-05,1.65096465718495e-05,-0.00012136048219035786,-0.0004374790127910954,-0.0003176480481091567,-0.0005595807337328905,0.0002529234222041332,-0.00014766532221763756,0.00034966915781648903,0.6291133761405945,34.06295394897461,4.025173664093018,-19.313081741333008,-0.1769919991493225,-1.783755898475647,0.07724325358867645,0
64,0.3149387836456299,-0.6291133761405945,-34.06295394897461,-4.025173664093018,19.313081741333008,0.1769919991493225,1.783755898475647,-0.07724325358867645,0.0,0.0,0.0,0.0,0.0,0.0,0.0,-0.6299540698004789,0.03458040055561476,-0.4408872900089331,0.3021113005664577,0.11793506339976609,-0.11637689695385132,-0.08480074123336363,1.054630439620269,0.32402145668498256,-0.39239108370898057,-2.1534634140080007,0.8646422066092481,2.4659299157857895,0.5444855089104838,1.0544104758940245,0.3238615046091247,-0.39250456234122666,-2.153291787532338,0.8647539153680389,2.46587817577521,0.5445020185570556,0.00012136048219035786,0.0004374790127910954,0.0003176480481091567,0.0005595807337328905,-0.0002529234222041332,0.00014766532221763756,-0.00034966915781648903,0.0,0.0,0.0,0.0,0.0,0.0,0.0,-0.00021996372624455418,-0.00015995207585783877,-0.000113478632246089,0.00017162647566282274,0.00011170875879085163,-5.174001057950406e-05,1.65096465718495e-05,-0.00012136048219035786,-0.0004374790127910954,-0.0003176480481091567,-0.0005595807337328905,0.0002529234222041332,-0.00014766532221763756,0.00034966915781648903,0.6291133761405945,34.06295394897461,4.025173664093018,-19.313081741333008,-0.1769919991493225,-1.783755898475647,0.07724325358867645,0
65,0.31998229026794434,-0.6568843722343445,-34.03915023803711,-3.9974029064178467,19.336885452270508,0.1650901436805725,1.802981972694397,-0.08365194499492645,0.0,0.0,0.0,0.0,0.0,0.0,0.0,-0.6305287100426551,0.03140062761038438,-0.44322717002732404,0.3033304350150818,0.11729666374786533,-0.11682667694904296,-0.08427747764569078,1.0546323884621,0.3240197891380584,-0.3923930325340806,-2.1534651668613956,0.8646435290376344,2.465927779555321,0.5444862209873067,1.0544104758940245,0.3238615046091247,-0.39250456234122666,-2.153291787532338,0.8647539153680389,2.46587817577521,0.5445020185570556,0.0001705560787151776,-0.0005926392430521866,-0.00015868088900766294,0.00017152274453383185,7.459214227609299e-05,-0.00031631458610848997,-0.009528195774626396,0.0,0.0,0.0,0.0,0.0,0.0,0.0,-0.00022191256807557735,-0.00015828452893368317,-0.0001115298071460713,0.00017337932905769904,0.00011038633040449941,-4.9603780110984985e-05,1.5797569748898788e-05,-0.0001705560787151776,0.0005926392430521866,0.00015868088900766294,-0.00017152274453383185,-7.459214227609299e-05,0.00031631458610848997,0.009528195774626396,0.6568843722343445,34.03915023803711,3.9974029064178467,-19.336885452270508,-0.1650901436805725,-1.802981972694397,0.08365194499492645,0
66,0.3249962329864502,-0.6568843722343445,-34.03915023803711,-3.9974029064178467,19.336885452270508,0.1650901436805725,1.802981972694397,-0.08365194499492645,0.0,0.0,0.0,0.0,0.0,0.0,0.0,-0.6305287100426551,0.03140062761038438,-0.44322717002732404,0.3033304350150818,0.11729666374786533,-0.11682667694904296,-0.08427747764569078,1.0546323884621,0.3240197891380584,-0.3923930325340806,-2.1534651668613956,0.8646435290376344,2.465927779555321,0.5444862209873067,1.0544104758940245,0.3238615046091247,-0.39250456234122666,-2.153291787532338,0.8647539153680389,2.46587817577521,0.5445020185570556,0.0001705560787151776,-0.0005926392430521866,-0.00015868088900766294,0.00017152274453383185,7.459214227609299e-05,-0.00031631458610848997,-0.009528195774626396,0.0,0.0,0.0,0.0,0.0,0.0,0.0,-0.00022191256807557735,-0.00015828452893368317,-0.0001115298071460713,0.00017337932905769904,0.00011038633040449941,-4.9603780110984985e-05,1.5797569748898788e-05,-0.0001705560787151776,0.0005926392430521866,0.00015868088900766294,-0.00017152274453383185,-7.459214227609299e-05,0.00031631458610848997,0.009528195774626396,0.6568843722343445,34.03915023803711,3.9974029064178467,-19.336885452270508,-0.1650901436805725,-1.802981972694397,0.08365194499492645,0
67,0.3299901485443115,-0.6053096652030945,-34.03915023803711,-4.025173664093018,19.336885452270508,0.1714988350868225,1.790164589881897,-0.11844198405742645,0.0,0.0,0.0,0.0,0.0,0.0,0.0,-0.6248371119303847,0.036353478808432434,-0.43383906653939003,0.2984326624771999,0.1172432966379939,-0.11727551351032453,-0.08335644535541448,1.0546287691844136,0.3240197862491762,-0.39239108370898057,-2.1534651668615505,0.8646428169608115,2.46592920828765,0.5444900865472025,1.0544104758940245,0.3238615046091247,-0.39250456234122666,-2.153291787532338,0.8647539153680389,2.46587817577521,0.5445020185570556,-0.00015913813995247243,-0.000345430936681666,0.00044826889055023315,-0.0004459999012426787,0.00028337256862982064,4.484923576485753e-05,0.0012307323905869725,0.0,0.0,0.0,0.0,0.0,0.0,0.0,-0.0002182932903891377,-0.00015828164005149414,-0.000113478632246089,0.00017337932921268617,0.00011109840722745012,-5.103251243987472e-05,1.1932009853055092e-05,0.00015913813995247243,0.000345430936681666,-0.00044826889055023315,0.0004459999012426787,-0.00028337256862982064,-4.484923576485753e-05,-0.0012307323905869725,0.6053096652030945,34.03915023803711,4.025173664093018,-19.336885452270508,-0.1714988350868225,-1.790164589881897,0.11844198405742645,0
68,0.3349494934082031,-0.6053096652030945,-34.03915023803711,-4.025173664093018,19.336885452270508,0.1714988350868225,1.790164589881897,-0.11844198405742645,0.0,0.0,0.0,0.0,0.0,0.0,0.0,-0.6248371119303847,0.036353478808432434,-0.43383906653939003,0.2984326624771999,0.1172432966379939,-0.11727551351032453,-0.08335644535541448,1.0546287691844136,0.3240197862491762,-0.39239108370898057,-2.1534651668615505,0.8646428169608115,2.46592920828765,0.5444900865472025,1.0544104758940245,0.3238615046091247,-0.39250456234122666,-2.153291787532338,0.8647539153680389,2.46587817577521,0.5445020185570556,-0.00015913813995247243,-0.000345430936681666,0.00044826889055023315,-0.0004459999012426787,0.00028337256862982064,4.484923576485753e-05,0.0012307323905869725,0.0,0.0,0.0,0.0,0.0,0.0,0.0,-0.0002182932903891377,-0.00015828164005149414,-0.000113478632246089,0.00017337932921268617,0.00011109840722745012,-5.103251243987472e-05,1.1932009853055092e-05,0.00015913813995247243,0.000345430936681666,-0.00044826889055023315,0.0004459999012426787,-0.00028337256862982064,-4.484923576485753e-05,-0.0012307323905869725,0.6053096652030945,34.03915023803711,4.025173664093018,-19.336885452270508,-0.1714988350868225,-1.790164589881897,0.11844198405742645,0
69,0.339996337890625,-0.6053096652030945,-34.03915023803711,-3.9974029064178467,19.313081741333008,0.1769919991493225,1.790164589881897,-0.10470907390117645,0.0,0.0,0.0,0.0,0.0,0.0,0.0,-0.6266004303399514,0.032280044701425585,-0.4378432268083526,0.3004367009882118,0.1179794024578106,-0.11558891685007694,-0.08199657631472665,1.0546287691844136,0.3240197862491273,-0.3923930325340806,-2.1534634954082104,0.864642206609249,2.465929203708975,0.5444885606682963,1.0544104758940245,0.3238615046091247,-0.39250456234122666,-2.153291787532338,0.8647539153680389,2.46587817577521,0.5445020185570556,-0.00019475143053310272,0.00043357254237423256,-2.0411192623811587e-05,0.0003854008116640407,-3.07905979345862e-05,-3.8033034653158544e-05,0.001264868267362265,0.0,0.0,0.0,0.0,0.0,0.0,0.0,-0.0002182932903891377,-0.00015828164000258882,-0.0001115298071460713,0.00017170787587250658,0.00011170875878996345,-5.102793376510206e-05,1.3457888759282888e-05,0.00019475143053310272,-0.00043357254237423256,2.0411192623811587e-05,-0.0003854008116640407,3.07905979345862e-05,3.8033034653158544e-05,-0.001264868267362265,0.6053096652030945,34.03915023803711,3.9974029064178467,-19.313081741333008,-0.1769919991493225,-1.790164589881897,0.10470907390117645,0
70,0.34499406814575195,-0.6053096652030945,-34.03915023803711,-3.9974029064178467,19.313081741333008,0.1769919991493225,1.790164589881897,-0.10470907390117645,0.0,0.0,0.0,0.0,0.0,0.0,0.0,-0.6266004303399514,0.032280044701425585,-0.4378432268083526,0.3004367009882118,0.1179794024578106,-0.11558891685007694,-0.08199657631472665,1.0546287691844136,0.3240197862491273,-0.3923930325340806,-2.1534634954082104,0.864642206609249,2.465929203708975,0.5444885606682963,1.0544104758940245,0.3238615046091247,-0.39250456234122666,-2.153291787532338,0.8647539153680389,2.46587817577521,0.5445020185570556,-0.00019475143053310272,0.00043357254237423256,-2.0411192623811587e-05,0.0003854008116640407,-3.07905979345862e-05,-3.8033034653158544e-05,0.001264868267362265,0.0,0.0,0.0,0.0,0.0,0.0,0.0,-0.0002182932903891377,-0.00015828164000258882,-0.0001115298071460713,0.00017170787587250658,0.00011170875878996345,-5.102793376510206e-05,1.3457888759282888e-05,0.00019475143053310272,-0.00043357254237423256,2.0411192623811587e-05,-0.0003854008116640407,3.07905979345862e-05,3.8033034653158544e-05,-0.001264868267362265,0.6053096652030945,34.03915023803711,3.9974029064178467,-19.313081741333008,-0.1769919991493225,-1.790164589881897,0.10470907390117645,0
71,0.3500361442565918,-0.6291133761405945,-34.01534652709961,-4.025173664093018,19.313081741333008,0.1834006905555725,1.777347207069397,-0.09097616374492645,0.0,0.0,0.0,0.0,0.0,0.0,0.0,-0.628482509300297,0.026711587992766267,-0.43950385911140977,0.30418494959110237,0.11811884052221441,-0.11455673338043151,-0.08147028664454817,1.054630439620269,0.32401811581327206,-0.39239108370898057,-2.15346349642569,0.8646414945862613,2.465931740482648,0.5444871525269599,1.0544104758940245,0.3238615046091247,-0.39250456234122666,-2.153291787532338,0.8647539153680389,2.46587817577521,0.5445020185570556,-0.0004563509130479887,-0.0007066155572623996,0.0014469660883109836,0.0004198321184475608,0.0014014507738624934,0.00035174583360076143,0.00033362205652774705,0.0,0.0,0.0,0.0,0.0,0.0,0.0,-0.00021996372624455418,-0.00015661120414733887,-0.000113478632246089,0.00017170889335194062,0.00011242078177764459,-5.356470743800301e-05,1.4866030095705973e-05,0.0004563509130479887,0.0007066155572623996,-0.0014469660883109836,-0.0004198321184475608,-0.0014014507738624934,-0.00035174583360076143,-0.00033362205652774705,0.6291133761405945,34.01534652709961,4.025173664093018,-19.313081741333008,-0.1834006905555725,-1.777347207069397,0.09097616374492645,0
72,0.3550107479095459,-0.6291133761405945,-34.01534652709961,-4.025173664093018,19.313081741333008,0.1834006905555725,1.777347207069397,-0.09097616374492645,0.0,0.0,0.0,0.0,0.0,0.0,0.0,-0.628482509300297,0.026711587992766267,-0.43950385911140977,0.30418494959110237,0.11811884052221441,-0.11455673338043151,-0.08147028664454817,1.054630439620269,0.32401811581327206,-0.39239108370898057,-2.15346349642569,0.8646414945862613,2.465931740482648,0.5444871525269599,1.0544104758940245,0.3238615046091247,-0.39250456234122666,-2.153291787532338,0.8647539153680389,2.46587817577521,0.5445020185570556,-0.0004563509130479887,-0.0007066155572623996,0.0014469660883109836,0.0004198321184475608,0.0014014507738624934,0.00035174583360076143,0.00033362205652774705,0.0,0.0,0.0,0.0,0.0,0.0,0.0,-0.00021996372624455418,-0.00015661120414733887,-0.000113478632246089,0.00017170889335194062,0.00011242078177764459,-5.356470743800301e-05,1.4866030095705973e-05,0.0004563509130479887,0.0007066155572623996,-0.0014469660883109836,-0.0004198321184475608,-0.0014014507738624934,-0.00035174583360076143,-0.00033362205652774705,0.6291133761405945,34.01534652709961,4.025173664093018,-19.313081741333008,-0.1834006905555725,-1.777347207069397,0.09097616374492645,0
73,0.3599848747253418,-0.6291133761405945,-34.03915023803711,-3.9974029064178467,19.313081741333008,0.1650901436805725,1.790164589881897,-0.09097616374492645,0.0,0.0,0.0,0.0,0.0,0.0,0.0,-0.617134449865466,0.03904717143759274,-0.42204418654865467,0.2981628808189973,0.1188113918811438,-0.11768623736759452,-0.0811132388779139,1.054630439620269,0.3240197862491273,-0.3923930325340806,-2.153461271185624,0.8646435290376345,2.46592920371106,0.5444870478715637,1.0544104758940245,0.3238615046091247,-0.39250456234122666,-2.153291787532338,0.8647539153680389,2.46587817577521,0.5445020185570556,-0.00025678847369582707,0.0004592726248189368,-0.004665395159732927,0.00025688105383942335,0.0001370382159287614,-0.00014622937362255097,-3.8563985402138986e-05,0.0,0.0,0.0,0.0,0.0,0.0,0.0,-0.00021996372624455418,-0.00015828164000258882,-0.0001115298071460713,0.00016948365328595116,0.00011038633040438839,-5.10279358501009e-05,1.4970685491944025e-05,0.00025678847369582707,-0.0004592726248189368,0.004665395159732927,-0.00025688105383942335,-0.0001370382159287614,0.00014622937362255097,3.8563985402138986e-05,0.6291133761405945,34.03915023803711,3.9974029064178467,-19.313081741333008,-0.1650901436805725,-1.790164589881897,0.09097616374492645,0
74,0.36493515968322754,-0.6291133761405945,-34.03915023803711,-3.9974029064178467,19.313081741333008,0.1650901436805725,1.790164589881897,-0.09097616374492645,0.0,0.0,0.0,0.0,0.0,0.0,0.0,-0.617134449865466,0.03904717143759274,-0.42204418654865467,0.2981628808189973,0.1188113918811438,-0.11768623736759452,-0.0811132388779139,1.054630439620269,0.3240197862491273,-0.3923930325340806,-2.153461271185624,0.8646435290376345,2.46592920371106,0.5444870478715637,1.0544104758940245,0.3238615046091247,-0.39250456234122666,-2.153291787532338,0.8647539153680389,2.46587817577521,0.5445020185570556,-0.00025678847369582707,0.0004592726248189368,-0.004665395159732927,0.00025688105383942335,0.0001370382159287614,-0.00014622937362255097,-3.8563985402138986e-05,0.0,0.0,0.0,0.0,0.0,0.0,0.0,-0.00021996372624455418,-0.00015828164000258882,-0.0001115298071460713,0.00016948365328595116,0.00011038633040438839,-5.10279358501009e-05,1.4970685491944025e-05,0.00025678847369582707,-0.0004592726248189368,0.004665395159732927,-0.00025688105383942335,-0.0001370382159287614,0.00014622937362255097,3.8563985402138986e-05,0.6291133761405945,34.03915023803711,3.9974029064178467,-19.313081741333008,-0.1650901436805725,-1.790164589881897,0.09097616374492645,0
75,0.36998414993286133,-0.6291133761405945,-34.03915023803711,-3.9974029064178467,19.313081741333008,0.1714988350868225,1.783755898475647,-0.06991903483867645,0.0,0.0,0.0,0.0,0.0,0.0,0.0,-0.5892650349261578,0.041488136738319865,-0.39530267032081345,0.29680973364376795,0.1177311897654152,-0.12160216516309443,-0.08143004215529963,1.054630439620269,0.3240197862491273,-0.3923930325340806,-2.1534634964131336,0.8646428169608115,2.4659299157857895,0.5444846951084743,1.0544104758940245,0.3238615046091247,-0.39250456234122666,-2.153291787532338,0.8647539153680389,2.46587817577521,0.5445020185570556,-6.0579240133106004e-05,-1.324790951881043e-05,-0.0004069503575518809,0.000379184923908942,-8.102808641256383e-05,0.0007106486505121488,-0.0007661759714507191,0.0,0.0,0.0,0.0,0.0,0.0,0.0,-0.00021996372624455418,-0.00015828164000258882,-0.0001115298071460713,0.0001717088807957623,0.00011109840722745012,-5.174001057950406e-05,1.7323448581296752e-05,6.0579240133106004e-05,1.324790951881043e-05,0.0004069503575518809,-0.000379184923908942,8.102808641256383e-05,-0.0007106486505121488,0.0007661759714507191,0.6291133761405945,34.03915023803711,3.9974029064178467,-19.313081741333008,-0.1714988350868225,-1.783755898475647,0.06991903483867645,0
76,0.37499260902404785,-0.6291133761405945,-34.03915023803711,-3.9974029064178467,19.313081741333008,0.1714988350868225,1.783755898475647,-0.06991903483867645,0.0,0.0,0.0,0.0,0.0,0.0,0.0,-0.5892650349261578,0.041488136738319865,-0.39530267032081345,0.29680973364376795,0.1177311897654152,-0.12160216516309443,-0.08143004215529963,1.054630439620269,0.3240197862491273,-0.3923930325340806,-2.1534634964131336,0.8646428169608115,2.4659299157857895,0.5444846951084743,1.0544104758940245,0.3238615046091247,-0.39250456234122666,-2.153291787532338,0.8647539153680389,2.46587817577521,0.5445020185570556,-6.0579240133106004e-05,-1.324790951881043e-05,-0.0004069503575518809,0.000379184923908942,-8.102808641256383e-05,0.0007106486505121488,-0.0007661759714507191,0.0,0.0,0.0,0.0,0.0,0.0,0.0,-0.00021996372624455418,-0.00015828164000258882,-0.0001115298071460713,0.0001717088807957623,0.00011109840722745012,-5.174001057950406e-05,1.7323448581296752e-05,6.0579240133106004e-05,1.324790951881043e-05,0.0004069503575518809,-0.000379184923908942,8.102808641256383e-05,-0.0007106486505121488,0.0007661759714507191,0.6291133761405945,34.03915023803711,3.9974029064178467,-19.313081741333008,-0.1714988350868225,-1.783755898475647,0.06991903483867645,0
77,0.38001346588134766,-0.6291133761405945,-34.06295394897461,-4.025173664093018,19.289278030395508,0.1769919991493225,1.777347207069397,-0.06991903483867645,0.0,0.0,0.0,0.0,0.0,0.0,0.0,-0.646988493794749,0.026460192127718402,-0.45213379933996517,0.303643272675949,0.1193837129175307,-0.11454667805951653,-0.08079227345393676,1.054630439620269,0.32402145668498256,-0.39239108370898057,-2.1534618259898397,0.864642206609249,2.4659306278626123,0.5444846951622356,1.0544104758940245,0.3238615046091247,-0.39250456234122666,-2.153291787532338,0.8647539153680389,2.46587817577521,0.5445020185570556,-0.0006793482224884103,0.00025063805928344493,0.0005286356957102179,0.0013153185739102997,-5.057871469314196e-05,0.0003500328911562577,-0.00040041628374477617,0.0,0.0,0.0,0.0,0.0,0.0,0.0,-0.00021996372624455418,-0.00015995207585783877,-0.000113478632246089,0.0001700384575018532,0.00011170875878996345,-5.245208740234375e-05,1.732339481996803e-05,0.0006793482224884103,-0.00025063805928344493,-0.0005286356957102179,-0.0013153185739102997,5.057871469314196e-05,-0.0003500328911562577,0.00040041628374477617,0.6291133761405945,34.06295394897461,4.025173664093018,-19.289278030395508,-0.1769919991493225,-1.777347207069397,0.06991903483867645,0
78,0.3849940299987793,-0.6291133761405945,-34.06295394897461,-4.025173664093018,19.289278030395508,0.1769919991493225,1.777347207069397,-0.06991903483867645,0.0,0.0,0.0,0.0,0.0,0.0,0.0,-0.646988493794749,0.026460192127718402,-0.45213379933996517,0.303643272675949,0.1193837129175307,-0.11454667805951653,-0.08079227345393676,1.054630439620269,0.32402145668498256,-0.39239108370898057,-2.1534618259898397,0.864642206609249,2.4659306278626123,0.5444846951622356,1.0544104758940245,0.3238615046091247,-0.39250456234122666,-2.153291787532338,0.8647539153680389,2.46587817577521,0.5445020185570556,-0.0006793482224884103,0.00025063805928344493,0.0005286356957102179,0.0013153185739102997,-5.057871469314196e-05,0.0003500328911562577,-0.00040041628374477617,0.0,0.0,0.0,0.0,0.0,0.0,0.0,-0.00021996372624455418,-0.00015995207585783877,-0.000113478632246089,0.0001700384575018532,0.00011170875878996345,-5.245208740234375e-05,1.732339481996803e-05,0.0006793482224884103,-0.00025063805928344493,-0.0005286356957102179,-0.0013153185739102997,5.057871469314196e-05,-0.0003500328911562577,0.00040041628374477617,0.6291133761405945,34.06295394897461,4.025173664093018,-19.289278030395508,-0.1769919991493225,-1.777347207069397,0.06991903483867645,0
79,0.39000725746154785,-0.6806880831718445,-34.03915023803711,-4.025173664093018,19.336885452270508,0.1769919991493225,1.790164589881897,-0.11111776530742645,0.0,0.0,0.0,0.0,0.0,0.0,0.0,-0.6542066507378801,0.019868232176716693,-0.4579808974249955,0.3088473899855234,0.11946713464358778,-0.11406270618607514,-0.0805767986207838,1.0546340588979555,0.3240197862491273,-0.39239108370898057,-2.1534651668615505,0.864642206609249,2.4659292037089666,0.544489311990976,1.0544104758940245,0.3238615046091247,-0.39250456234122666,-2.153291787532338,0.8647539153680389,2.46587817577521,0.5445020185570556,0.000983666858549032,-0.0004301783308735602,6.909395097610723e-05,0.00036973332480763,-0.00015277205359002578,-0.00012997795777569085,0.0012569421058457712,0.0,0.0,0.0,0.0,0.0,0.0,0.0,-0.00022358300393099384,-0.00015828164000258882,-0.000113478632246089,0.00017337932921268617,0.00011170875878996345,-5.102793375666437e-05,1.2706566079545567e-05,-0.000983666858549032,0.0004301783308735602,-6.909395097610723e-05,-0.00036973332480763,0.00015277205359002578,0.00012997795777569085,-0.0012569421058457712,0.6806880831718445,34.03915023803711,4.025173664093018,-19.336885452270508,-0.1769919991493225,-1.790164589881897,0.11111776530742645,0
80,0.3949897289276123,-0.6806880831718445,-34.03915023803711,-4.025173664093018,19.336885452270508,0.1769919991493225,1.790164589881897,-0.11111776530742645,0.0,0.0,0.0,0.0,0.0,0.0,0.0,-0.6542066507378801,0.019868232176716693,-0.4579808974249955,0.3088473899855234,0.11946713464358778,-0.11406270618607514,-0.0805767986207838,1.0546340588979555,0.3240197862491273,-0.39239108370898057,-2.1534651668615505,0.864642206609249,2.4659292037089666,0.544489311990976,1.0544104758940245,0.3238615046091247,-0.39250456234122666,-2.153291787532338,0.8647539153680389,2.46587817577521,0.5445020185570556,0.000983666858549032,-0.0004301783308735602,6.909395097610723e-05,0.00036973332480763,-0.00015277205359002578,-0.00012997795777569085,0.0012569421058457712,0.0,0.0,0.0,0.0,0.0,0.0,0.0,-0.00022358300393099384,-0.00015828164000258882,-0.000113478632246089,0.00017337932921268617,0.00011170875878996345,-5.102793375666437e-05,1.2706566079545567e-05,-0.000983666858549032,0.0004301783308735602,-6.909395097610723e-05,-0.00036973332480763,0.00015277205359002578,0.00012997795777569085,-0.0012569421058457712,0.6806880831718445,34.03915023803711,4.025173664093018,-19.336885452270508,-0.1769919991493225,-1.790164589881897,0.11111776530742645,0
