rezayati/contactInterpretation/dataset/franka_main/labeled_data/link6/b13_6.csv
index,time,tau_J0,tau_J1,tau_J2,tau_J3,tau_J4,tau_J5,tau_J6,tau_J_d0,tau_J_d1,tau_J_d2,tau_J_d3,tau_J_d4,tau_J_d5,tau_J_d6,tau_ext0,tau_ext1,tau_ext2,tau_ext3,tau_ext4,tau_ext5,tau_ext6,q0,q1,q2,q3,q4,q5,q6,q_d0,q_d1,q_d2,q_d3,q_d4,q_d5,q_d6,dq0,dq1,dq2,dq3,dq4,dq5,dq6,dq_d0,dq_d1,dq_d2,dq_d3,dq_d4,dq_d5,dq_d6,e0,e1,e2,e3,e4,e5,e6,de0,de1,de2,de3,de4,de5,de6,etau_J0,etau_J1,etau_J2,etau_J3,etau_J4,etau_J5,etau_J6,label
1,0.0,-0.04592245817184448,-18.253320693969727,0.9180634021759033,18.245882034301758,0.5697532296180725,2.2753939628601074,-0.19351522624492645,0.0,0.0,0.0,0.0,0.0,0.0,0.0,-0.0682099409661232,0.34927034761278447,0.09204199090025915,0.5968136856108528,0.13573499295296093,0.09312750619016096,-0.22944640866804947,-0.6089680156146454,-0.05750888096815661,-0.6665279794078427,-2.594788417916549,-0.055774091508297784,2.507901809109582,0.8763176642970907,-0.6090851748156966,-0.05753196718556838,-0.666603097082616,-2.5945565370258534,-0.05562143941554,2.507976027223799,0.8763108487046415,-0.0009916207825820744,-0.000938654926636061,-0.0005409096347301864,-0.0006295758727859936,-0.0002760628961827829,0.00011016370351181385,-0.0014691390915209295,0.0,0.0,0.0,0.0,0.0,0.0,0.0,-0.00011715920105115352,-2.3086217411774634e-05,-7.511767477330622e-05,0.00023188089069536844,0.00015265209275778374,7.42181142170395e-05,-6.815592449194163e-06,0.0009916207825820744,0.000938654926636061,0.0005409096347301864,0.0006295758727859936,0.0002760628961827829,-0.00011016370351181385,0.0014691390915209295,0.04592245817184448,18.253320693969727,-0.9180634021759033,-18.245882034301758,-0.5697532296180725,-2.2753939628601074,0.19351522624492645,0
2,0.004942178726196289,-0.04592245817184448,-18.253320693969727,0.9180634021759033,18.245882034301758,0.5697532296180725,2.2753939628601074,-0.19351522624492645,0.0,0.0,0.0,0.0,0.0,0.0,0.0,-0.0682099409661232,0.34927034761278447,0.09204199090025915,0.5968136856108528,0.13573499295296093,0.09312750619016096,-0.22944640866804947,-0.6089680156146454,-0.05750888096815661,-0.6665279794078427,-2.594788417916549,-0.055774091508297784,2.507901809109582,0.8763176642970907,-0.6090851748156966,-0.05753196718556838,-0.666603097082616,-2.5945565370258534,-0.05562143941554,2.507976027223799,0.8763108487046415,-0.0009916207825820744,-0.000938654926636061,-0.0005409096347301864,-0.0006295758727859936,-0.0002760628961827829,0.00011016370351181385,-0.0014691390915209295,0.0,0.0,0.0,0.0,0.0,0.0,0.0,-0.00011715920105115352,-2.3086217411774634e-05,-7.511767477330622e-05,0.00023188089069536844,0.00015265209275778374,7.42181142170395e-05,-6.815592449194163e-06,0.0009916207825820744,0.000938654926636061,0.0005409096347301864,0.0006295758727859936,0.0002760628961827829,-0.00011016370351181385,0.0014691390915209295,0.04592245817184448,18.253320693969727,-0.9180634021759033,-18.245882034301758,-0.5697532296180725,-2.2753939628601074,0.19351522624492645,0
3,0.009940624237060547,-0.06972616910934448,-18.253320693969727,0.9418671131134033,18.222078323364258,0.5523582100868225,2.2625765800476074,-0.25485557317733765,0.0,0.0,0.0,0.0,0.0,0.0,0.0,-0.06378135471569536,0.36140091866051227,0.09795278728808073,0.5959316059694955,0.13533731169472796,0.09296790565754458,-0.22879465362445842,-0.6089663451074591,-0.05750888389456207,-0.6665296498432494,-2.594786747480694,-0.05577204043881187,2.5079032332632276,0.8763244798911942,-0.6090851748156966,-0.05753196718556838,-0.666603097082616,-2.5945565370258534,-0.05562143941554,2.507976027223799,0.8763108487046415,-0.0004632438393329472,0.0008123102998947016,-0.000554003516246133,-0.0003274626206084564,0.0002704342046543205,0.0002521025420401824,0.0011713132729110878,0.0,0.0,0.0,0.0,0.0,0.0,0.0,-0.00011882970823751116,-2.3083291006316398e-05,-7.344723936664188e-05,0.00023021045484039604,0.00015060102327187075,7.279396057136012e-05,-1.3631186552731656e-05,0.0004632438393329472,-0.0008123102998947016,0.000554003516246133,0.0003274626206084564,-0.0002704342046543205,-0.0002521025420401824,-0.0011713132729110878,0.06972616910934448,18.253320693969727,-0.9418671131134033,-18.222078323364258,-0.5523582100868225,-2.2625765800476074,0.25485557317733765,0
4,0.014942169189453125,-0.06972616910934448,-18.253320693969727,0.9418671131134033,18.222078323364258,0.5523582100868225,2.2625765800476074,-0.25485557317733765,0.0,0.0,0.0,0.0,0.0,0.0,0.0,-0.06378135471569536,0.36140091866051227,0.09795278728808073,0.5959316059694955,0.13533731169472796,0.09296790565754458,-0.22879465362445842,-0.6089663451074591,-0.05750888389456207,-0.6665296498432494,-2.594786747480694,-0.05577204043881187,2.5079032332632276,0.8763244798911942,-0.6090851748156966,-0.05753196718556838,-0.666603097082616,-2.5945565370258534,-0.05562143941554,2.507976027223799,0.8763108487046415,-0.0004632438393329472,0.0008123102998947016,-0.000554003516246133,-0.0003274626206084564,0.0002704342046543205,0.0002521025420401824,0.0011713132729110878,0.0,0.0,0.0,0.0,0.0,0.0,0.0,-0.00011882970823751116,-2.3083291006316398e-05,-7.344723936664188e-05,0.00023021045484039604,0.00015060102327187075,7.279396057136012e-05,-1.3631186552731656e-05,0.0004632438393329472,-0.0008123102998947016,0.000554003516246133,0.0003274626206084564,-0.0002704342046543205,-0.0002521025420401824,-0.0011713132729110878,0.06972616910934448,18.253320693969727,-0.9418671131134033,-18.222078323364258,-0.5523582100868225,-2.2625765800476074,0.25485557317733765,0
5,0.01994156837463379,0.005652248859405518,-18.253320693969727,0.9180634021759033,18.170503616333008,0.5642600655555725,2.2552523612976074,-0.24112264811992645,0.0,0.0,0.0,0.0,0.0,0.0,0.0,-0.06975562119130041,0.356684469024653,0.09629336797327938,0.6076205361590452,0.13540942777301543,0.09342228339686201,-0.22799497910003716,-0.608972336831261,-0.05750888096817313,-0.6665279794073942,-2.5947831282030074,-0.0557701693755056,2.507904047065311,0.8763229540106323,-0.6090851748156966,-0.05753196718556838,-0.666603097082616,-2.5945565370258534,-0.05562143941554,2.507976027223799,0.8763108487046415,-0.0017105444358630336,-0.0008378653237547701,0.00010590553973177014,0.001220481008967651,-0.00015657769027490373,0.0003494351987441595,0.0006086423838507464,0.0,0.0,0.0,0.0,0.0,0.0,0.0,-0.00011283798443562087,-2.3086217395253128e-05,-7.511767522183632e-05,0.00022659117715395638,0.0001487299599656003,7.198015848786099e-05,-1.2105305990828263e-05,0.0017105444358630336,0.0008378653237547701,-0.00010590553973177014,-0.001220481008967651,0.00015657769027490373,-0.0003494351987441595,-0.0006086423838507464,-0.005652248859405518,18.253320693969727,-0.9180634021759033,-18.170503616333008,-0.5642600655555725,-2.2552523612976074,0.24112264811992645,0
6,0.024941682815551758,0.005652248859405518,-18.253320693969727,0.9180634021759033,18.170503616333008,0.5642600655555725,2.2552523612976074,-0.24112264811992645,0.0,0.0,0.0,0.0,0.0,0.0,0.0,-0.06975562119130041,0.356684469024653,0.09629336797327938,0.6076205361590452,0.13540942777301543,0.09342228339686201,-0.22799497910003716,-0.608972336831261,-0.05750888096817313,-0.6665279794073942,-2.5947831282030074,-0.0557701693755056,2.507904047065311,0.8763229540106323,-0.6090851748156966,-0.05753196718556838,-0.666603097082616,-2.5945565370258534,-0.05562143941554,2.507976027223799,0.8763108487046415,-0.0017105444358630336,-0.0008378653237547701,0.00010590553973177014,0.001220481008967651,-0.00015657769027490373,0.0003494351987441595,0.0006086423838507464,0.0,0.0,0.0,0.0,0.0,0.0,0.0,-0.00011283798443562087,-2.3086217395253128e-05,-7.511767522183632e-05,0.00022659117715395638,0.0001487299599656003,7.198015848786099e-05,-1.2105305990828263e-05,0.0017105444358630336,0.0008378653237547701,-0.00010590553973177014,-0.001220481008967651,0.00015657769027490373,-0.0003494351987441595,-0.0006086423838507464,-0.005652248859405518,18.253320693969727,-0.9180634021759033,-18.170503616333008,-0.5642600655555725,-2.2552523612976074,0.24112264811992645,0
7,0.029940366744995117,-0.06972616910934448,-18.376306533813477,0.8942596912384033,18.245882034301758,0.5523582100868225,2.2882113456726074,-0.21457235515117645,0.0,0.0,0.0,0.0,0.0,0.0,0.0,-0.0729199227044592,0.35878787476779517,0.09125174414047701,0.6074805166167782,0.1357374592510367,0.09165407494912627,-0.22770363146169367,-0.6089684514275301,-0.05750025330930987,-0.6665263089715389,-2.5947884944459694,-0.05576888587212651,2.507900384955936,0.8763200039780802,-0.6090851748156966,-0.05753196718556838,-0.666603097082616,-2.5945565370258534,-0.05562143941554,2.507976027223799,0.8763108487046415,-6.660646962034972e-05,0.0009885905900652448,0.00021358030339716156,-0.0003845539871998864,0.00031334763339618317,-0.00028225659733073077,-0.0007984415981356647,0.0,0.0,0.0,0.0,0.0,0.0,0.0,-0.0001167233881664842,-3.171387625851285e-05,-7.678811107714179e-05,0.0002319574201159469,0.00014744645658650718,7.564226786316297e-05,-9.155273438699041e-06,6.660646962034972e-05,-0.0009885905900652448,-0.00021358030339716156,0.0003845539871998864,-0.00031334763339618317,0.00028225659733073077,0.0007984415981356647,0.06972616910934448,18.376306533813477,-0.8942596912384033,-18.245882034301758,-0.5523582100868225,-2.2882113456726074,0.21457235515117645,0
8,0.03495168685913086,-0.06972616910934448,-18.376306533813477,0.8942596912384033,18.245882034301758,0.5523582100868225,2.2882113456726074,-0.21457235515117645,0.0,0.0,0.0,0.0,0.0,0.0,0.0,-0.0729199227044592,0.35878787476779517,0.09125174414047701,0.6074805166167782,0.1357374592510367,0.09165407494912627,-0.22770363146169367,-0.6089684514275301,-0.05750025330930987,-0.6665263089715389,-2.5947884944459694,-0.05576888587212651,2.507900384955936,0.8763200039780802,-0.6090851748156966,-0.05753196718556838,-0.666603097082616,-2.5945565370258534,-0.05562143941554,2.507976027223799,0.8763108487046415,-6.660646962034972e-05,0.0009885905900652448,0.00021358030339716156,-0.0003845539871998864,0.00031334763339618317,-0.00028225659733073077,-0.0007984415981356647,0.0,0.0,0.0,0.0,0.0,0.0,0.0,-0.0001167233881664842,-3.171387625851285e-05,-7.678811107714179e-05,0.0002319574201159469,0.00014744645658650718,7.564226786316297e-05,-9.155273438699041e-06,6.660646962034972e-05,-0.0009885905900652448,-0.00021358030339716156,0.0003845539871998864,-0.00031334763339618317,0.00028225659733073077,0.0007984415981356647,0.06972616910934448,18.376306533813477,-0.8942596912384033,-18.245882034301758,-0.5523582100868225,-2.2882113456726074,0.21457235515117645,0
9,0.03998064994812012,-0.018151462078094482,-18.328699111938477,0.9418671131134033,18.222078323364258,0.5697532296180725,2.2753939628601074,-0.20083944499492645,0.0,0.0,0.0,0.0,0.0,0.0,0.0,-0.06410886487218866,0.361291130863022,0.09620333091537694,0.59914551824388,0.135332164571967,0.09260218883827709,-0.22875504013406642,-0.608969991423797,-0.05750359223008893,-0.6665296498432494,-2.5947867474808377,-0.05577081865214577,2.507901809109582,0.876318478099174,-0.6090851748156966,-0.05753196718556838,-0.666603097082616,-2.5945565370258534,-0.05562143941554,2.507976027223799,0.8763108487046415,-0.0008254623878076288,-0.0005128380615974712,-0.0007613830334615466,6.795806494081816e-06,-0.00028410051486413605,0.0005355658827950406,-0.0013481855333698832,0.0,0.0,0.0,0.0,0.0,0.0,0.0,-0.00011518339189953153,-2.837495547945018e-05,-7.344723936664188e-05,0.00023021045498428094,0.0001493792366057678,7.42181142170395e-05,-7.629394532471245e-06,0.0008254623878076288,0.0005128380615974712,0.0007613830334615466,-6.795806494081816e-06,0.00028410051486413605,-0.0005355658827950406,0.0013481855333698832,0.018151462078094482,18.328699111938477,-0.9418671131134033,-18.222078323364258,-0.5697532296180725,-2.2753939628601074,0.20083944499492645,0
10,0.04496479034423828,-0.018151462078094482,-18.328699111938477,0.9418671131134033,18.222078323364258,0.5697532296180725,2.2753939628601074,-0.20083944499492645,0.0,0.0,0.0,0.0,0.0,0.0,0.0,-0.06410886487218866,0.361291130863022,0.09620333091537694,0.59914551824388,0.135332164571967,0.09260218883827709,-0.22875504013406642,-0.608969991423797,-0.05750359223008893,-0.6665296498432494,-2.5947867474808377,-0.05577081865214577,2.507901809109582,0.876318478099174,-0.6090851748156966,-0.05753196718556838,-0.666603097082616,-2.5945565370258534,-0.05562143941554,2.507976027223799,0.8763108487046415,-0.0008254623878076288,-0.0005128380615974712,-0.0007613830334615466,6.795806494081816e-06,-0.00028410051486413605,0.0005355658827950406,-0.0013481855333698832,0.0,0.0,0.0,0.0,0.0,0.0,0.0,-0.00011518339189953153,-2.837495547945018e-05,-7.344723936664188e-05,0.00023021045498428094,0.0001493792366057678,7.42181142170395e-05,-7.629394532471245e-06,0.0008254623878076288,0.0005128380615974712,0.0007613830334615466,-6.795806494081816e-06,0.00028410051486413605,-0.0005355658827950406,0.0013481855333698832,0.018151462078094482,18.328699111938477,-0.9418671131134033,-18.222078323364258,-0.5697532296180725,-2.2753939628601074,0.20083944499492645,0
11,0.04994606971740723,-0.018151462078094482,-18.328699111938477,0.9418671131134033,18.222078323364258,0.5697532296180725,2.2753939628601074,-0.20083944499492645,0.0,0.0,0.0,0.0,0.0,0.0,0.0,-0.06410886487218866,0.361291130863022,0.09620333091537694,0.59914551824388,0.135332164571967,0.09260218883827709,-0.22875504013406642,-0.608969991423797,-0.05750359223008893,-0.6665296498432494,-2.5947867474808377,-0.05577081865214577,2.507901809109582,0.876318478099174,-0.6090851748156966,-0.05753196718556838,-0.666603097082616,-2.5945565370258534,-0.05562143941554,2.507976027223799,0.8763108487046415,-0.0008254623878076288,-0.0005128380615974712,-0.0007613830334615466,6.795806494081816e-06,-0.00028410051486413605,0.0005355658827950406,-0.0013481855333698832,0.0,0.0,0.0,0.0,0.0,0.0,0.0,-0.00011518339189953153,-2.837495547945018e-05,-7.344723936664188e-05,0.00023021045498428094,0.0001493792366057678,7.42181142170395e-05,-7.629394532471245e-06,0.0008254623878076288,0.0005128380615974712,0.0007613830334615466,-6.795806494081816e-06,0.00028410051486413605,-0.0005355658827950406,0.0013481855333698832,0.018151462078094482,18.328699111938477,-0.9418671131134033,-18.222078323364258,-0.5697532296180725,-2.2753939628601074,0.20083944499492645,0
12,0.05593371391296387,-0.018151462078094482,-18.328699111938477,0.9418671131134033,18.222078323364258,0.5697532296180725,2.2753939628601074,-0.20083944499492645,0.0,0.0,0.0,0.0,0.0,0.0,0.0,-0.06410886487218866,0.361291130863022,0.09620333091537694,0.59914551824388,0.135332164571967,0.09260218883827709,-0.22875504013406642,-0.608969991423797,-0.05750359223008893,-0.6665296498432494,-2.5947867474808377,-0.05577081865214577,2.507901809109582,0.876318478099174,-0.6090851748156966,-0.05753196718556838,-0.666603097082616,-2.5945565370258534,-0.05562143941554,2.507976027223799,0.8763108487046415,-0.0008254623878076288,-0.0005128380615974712,-0.0007613830334615466,6.795806494081816e-06,-0.00028410051486413605,0.0005355658827950406,-0.0013481855333698832,0.0,0.0,0.0,0.0,0.0,0.0,0.0,-0.00011518339189953153,-2.837495547945018e-05,-7.344723936664188e-05,0.00023021045498428094,0.0001493792366057678,7.42181142170395e-05,-7.629394532471245e-06,0.0008254623878076288,0.0005128380615974712,0.0007613830334615466,-6.795806494081816e-06,0.00028410051486413605,-0.0005355658827950406,0.0013481855333698832,0.018151462078094482,18.328699111938477,-0.9418671131134033,-18.222078323364258,-0.5697532296180725,-2.2753939628601074,0.20083944499492645,0
13,0.05994153022766113,-0.018151462078094482,-18.328699111938477,0.9418671131134033,18.222078323364258,0.5697532296180725,2.2753939628601074,-0.20083944499492645,0.0,0.0,0.0,0.0,0.0,0.0,0.0,-0.06410886487218866,0.361291130863022,0.09620333091537694,0.59914551824388,0.135332164571967,0.09260218883827709,-0.22875504013406642,-0.608969991423797,-0.05750359223008893,-0.6665296498432494,-2.5947867474808377,-0.05577081865214577,2.507901809109582,0.876318478099174,-0.6090851748156966,-0.05753196718556838,-0.666603097082616,-2.5945565370258534,-0.05562143941554,2.507976027223799,0.8763108487046415,-0.0008254623878076288,-0.0005128380615974712,-0.0007613830334615466,6.795806494081816e-06,-0.00028410051486413605,0.0005355658827950406,-0.0013481855333698832,0.0,0.0,0.0,0.0,0.0,0.0,0.0,-0.00011518339189953153,-2.837495547945018e-05,-7.344723936664188e-05,0.00023021045498428094,0.0001493792366057678,7.42181142170395e-05,-7.629394532471245e-06,0.0008254623878076288,0.0005128380615974712,0.0007613830334615466,-6.795806494081816e-06,0.00028410051486413605,-0.0005355658827950406,0.0013481855333698832,0.018151462078094482,18.328699111938477,-0.9418671131134033,-18.222078323364258,-0.5697532296180725,-2.2753939628601074,0.20083944499492645,0
14,0.0649406909942627,-0.06972616910934448,-18.304895401000977,0.9180634021759033,18.222078323364258,0.5697532296180725,2.2625765800476074,-0.24112264811992645,0.0,0.0,0.0,0.0,0.0,0.0,0.0,-0.06037508566014119,0.3602626076004871,0.09819736256347855,0.5933858155989176,0.13539273209544928,0.09371596223198711,-0.2299269860763761,-0.6089670557489995,-0.05750526169047571,-0.6665279794073942,-2.594786747480694,-0.055770899513176576,2.5079032332632276,0.8763229540106323,-0.6090851748156966,-0.05753196718556838,-0.666603097082616,-2.5945565370258534,-0.05562143941554,2.507976027223799,0.8763108487046415,0.00041412826180963776,-0.00033732487734773955,0.00011735704728297136,-0.000417259294656624,-0.00043201764273935206,0.00039632715797029725,0.001033747354787655,0.0,0.0,0.0,0.0,0.0,0.0,0.0,-0.00011811906669711991,-2.6705495092670117e-05,-7.511767522183632e-05,0.00023021045484039604,0.00014946009763657647,7.279396057136012e-05,-1.2105305990828263e-05,-0.00041412826180963776,0.00033732487734773955,-0.00011735704728297136,0.000417259294656624,0.00043201764273935206,-0.00039632715797029725,-0.001033747354787655,0.06972616910934448,18.304895401000977,-0.9180634021759033,-18.222078323364258,-0.5697532296180725,-2.2625765800476074,0.24112264811992645,0
15,0.06994223594665527,-0.06972616910934448,-18.304895401000977,0.9180634021759033,18.222078323364258,0.5697532296180725,2.2625765800476074,-0.24112264811992645,0.0,0.0,0.0,0.0,0.0,0.0,0.0,-0.06037508566014119,0.3602626076004871,0.09819736256347855,0.5933858155989176,0.13539273209544928,0.09371596223198711,-0.2299269860763761,-0.6089670557489995,-0.05750526169047571,-0.6665279794073942,-2.594786747480694,-0.055770899513176576,2.5079032332632276,0.8763229540106323,-0.6090851748156966,-0.05753196718556838,-0.666603097082616,-2.5945565370258534,-0.05562143941554,2.507976027223799,0.8763108487046415,0.00041412826180963776,-0.00033732487734773955,0.00011735704728297136,-0.000417259294656624,-0.00043201764273935206,0.00039632715797029725,0.001033747354787655,0.0,0.0,0.0,0.0,0.0,0.0,0.0,-0.00011811906669711991,-2.6705495092670117e-05,-7.511767522183632e-05,0.00023021045484039604,0.00014946009763657647,7.279396057136012e-05,-1.2105305990828263e-05,-0.00041412826180963776,0.00033732487734773955,-0.00011735704728297136,0.000417259294656624,0.00043201764273935206,-0.00039632715797029725,-0.001033747354787655,0.06972616910934448,18.304895401000977,-0.9180634021759033,-18.222078323364258,-0.5697532296180725,-2.2625765800476074,0.24112264811992645,0
16,0.07494044303894043,-0.04592245817184448,-18.253320693969727,0.9418671131134033,18.198274612426758,0.5697532296180725,2.2818026542663574,-0.20083944499492645,0.0,0.0,0.0,0.0,0.0,0.0,0.0,-0.0654389705542625,0.35048527163663024,0.09382425017519584,0.5965796444130419,0.13568848500805536,0.09306620785071631,-0.230218951349949,-0.6089680155116597,-0.05750888096815661,-0.6665296498432494,-2.5947850770448384,-0.05577508150866174,2.507901097032759,0.876318478099174,-0.6090851748156966,-0.05753196718556838,-0.666603097082616,-2.5945565370258534,-0.05562143941554,2.507976027223799,0.8763108487046415,-0.00028249625501002696,-0.0012723775880980662,-0.0008376660279932174,0.0001788281014166116,-0.0002391073151202167,-0.0002936587135628517,-0.0012463563159751411,0.0,0.0,0.0,0.0,0.0,0.0,0.0,-0.00011715930403688457,-2.3086217411774634e-05,-7.344723936664188e-05,0.00022854001898497955,0.00015364209312174193,7.493019103987919e-05,-7.629394532471245e-06,0.00028249625501002696,0.0012723775880980662,0.0008376660279932174,-0.0001788281014166116,0.0002391073151202167,0.0002936587135628517,0.0012463563159751411,0.04592245817184448,18.253320693969727,-0.9418671131134033,-18.198274612426758,-0.5697532296180725,-2.2818026542663574,0.20083944499492645,0
17,0.07993960380554199,-0.04592245817184448,-18.253320693969727,0.9418671131134033,18.198274612426758,0.5697532296180725,2.2818026542663574,-0.20083944499492645,0.0,0.0,0.0,0.0,0.0,0.0,0.0,-0.0654389705542625,0.35048527163663024,0.09382425017519584,0.5965796444130419,0.13568848500805536,0.09306620785071631,-0.230218951349949,-0.6089680155116597,-0.05750888096815661,-0.6665296498432494,-2.5947850770448384,-0.05577508150866174,2.507901097032759,0.876318478099174,-0.6090851748156966,-0.05753196718556838,-0.666603097082616,-2.5945565370258534,-0.05562143941554,2.507976027223799,0.8763108487046415,-0.00028249625501002696,-0.0012723775880980662,-0.0008376660279932174,0.0001788281014166116,-0.0002391073151202167,-0.0002936587135628517,-0.0012463563159751411,0.0,0.0,0.0,0.0,0.0,0.0,0.0,-0.00011715930403688457,-2.3086217411774634e-05,-7.344723936664188e-05,0.00022854001898497955,0.00015364209312174193,7.493019103987919e-05,-7.629394532471245e-06,0.00028249625501002696,0.0012723775880980662,0.0008376660279932174,-0.0001788281014166116,0.0002391073151202167,0.0002936587135628517,0.0012463563159751411,0.04592245817184448,18.253320693969727,-0.9418671131134033,-18.198274612426758,-0.5697532296180725,-2.2818026542663574,0.20083944499492645,0
18,0.08495211601257324,-0.12130087614059448,-18.304895401000977,0.8704559803009033,18.245882034301758,0.5642600655555725,2.2882113456726074,-0.20724813640117645,0.0,0.0,0.0,0.0,0.0,0.0,0.0,-0.06303405311324715,0.35111814437223776,0.09383930760167612,0.5953693736371255,0.1360419560214843,0.0920507974865813,-0.22962120592527563,-0.6089627257941062,-0.057505261690470204,-0.6665246385356837,-2.594788417916549,-0.0557705385311068,2.507900384955936,0.8763191901759969,-0.6090851748156966,-0.05753196718556838,-0.666603097082616,-2.5945565370258534,-0.05562143941554,2.507976027223799,0.8763108487046415,0.001488779138498785,0.0004877047886784842,0.0007479762823977595,-0.0008994999267530567,-6.570319535749482e-05,-0.0006084747980674504,-0.0008443504090400457,0.0,0.0,0.0,0.0,0.0,0.0,0.0,-0.0001224490215904206,-2.67054950981796e-05,-7.845854693233623e-05,0.00023188089069536844,0.00014909911556679895,7.564226786316297e-05,-8.341471355421959e-06,-0.001488779138498785,-0.0004877047886784842,-0.0007479762823977595,0.0008994999267530567,6.570319535749482e-05,0.0006084747980674504,0.0008443504090400457,0.12130087614059448,18.304895401000977,-0.8704559803009033,-18.245882034301758,-0.5642600655555725,-2.2882113456726074,0.20724813640117645,0
19,0.09003567695617676,-0.12130087614059448,-18.304895401000977,0.8704559803009033,18.245882034301758,0.5642600655555725,2.2882113456726074,-0.20724813640117645,0.0,0.0,0.0,0.0,0.0,0.0,0.0,-0.06303405311324715,0.35111814437223776,0.09383930760167612,0.5953693736371255,0.1360419560214843,0.0920507974865813,-0.22962120592527563,-0.6089627257941062,-0.057505261690470204,-0.6665246385356837,-2.594788417916549,-0.0557705385311068,2.507900384955936,0.8763191901759969,-0.6090851748156966,-0.05753196718556838,-0.666603097082616,-2.5945565370258534,-0.05562143941554,2.507976027223799,0.8763108487046415,0.001488779138498785,0.0004877047886784842,0.0007479762823977595,-0.0008994999267530567,-6.570319535749482e-05,-0.0006084747980674504,-0.0008443504090400457,0.0,0.0,0.0,0.0,0.0,0.0,0.0,-0.0001224490215904206,-2.67054950981796e-05,-7.845854693233623e-05,0.00023188089069536844,0.00014909911556679895,7.564226786316297e-05,-8.341471355421959e-06,-0.001488779138498785,-0.0004877047886784842,-0.0007479762823977595,0.0008994999267530567,6.570319535749482e-05,0.0006084747980674504,0.0008443504090400457,0.12130087614059448,18.304895401000977,-0.8704559803009033,-18.245882034301758,-0.5642600655555725,-2.2882113456726074,0.20724813640117645,0
20,0.09494328498840332,-0.06972616910934448,-18.376306533813477,0.9180634021759033,18.245882034301758,0.5642600655555725,2.2689852714538574,-0.25485557317733765,0.0,0.0,0.0,0.0,0.0,0.0,0.0,-0.05848706595123991,0.35173012397669207,0.09702593057148878,0.5971856510964506,0.13669595228025755,0.09242808909257781,-0.22886884334507243,-0.608966379738966,-0.05750025916212078,-0.6665279794073942,-2.5947884179515417,-0.055774428916132913,2.5079025211864048,0.8763244798911942,-0.6090851748156966,-0.05753196718556838,-0.666603097082616,-2.5945565370258534,-0.05562143941554,2.507976027223799,0.8763108487046415,0.0007036800007732124,0.002133948614865357,-0.0003903875236996417,-0.00046072194592026744,-0.00023098989583614688,0.0001285927746169468,0.00067902395878656,0.0,0.0,0.0,0.0,0.0,0.0,0.0,-0.00011879507673062673,-3.170802344760332e-05,-7.511767522183632e-05,0.0002318809256882659,0.00015298950059291355,7.350603739419981e-05,-1.3631186552731656e-05,-0.0007036800007732124,-0.002133948614865357,0.0003903875236996417,0.00046072194592026744,0.00023098989583614688,-0.0001285927746169468,-0.00067902395878656,0.06972616910934448,18.376306533813477,-0.9180634021759033,-18.245882034301758,-0.5642600655555725,-2.2689852714538574,0.25485557317733765,0
21,0.09995079040527344,-0.06972616910934448,-18.376306533813477,0.9180634021759033,18.245882034301758,0.5642600655555725,2.2689852714538574,-0.25485557317733765,0.0,0.0,0.0,0.0,0.0,0.0,0.0,-0.05848706595123991,0.35173012397669207,0.09702593057148878,0.5971856510964506,0.13669595228025755,0.09242808909257781,-0.22886884334507243,-0.608966379738966,-0.05750025916212078,-0.6665279794073942,-2.5947884179515417,-0.055774428916132913,2.5079025211864048,0.8763244798911942,-0.6090851748156966,-0.05753196718556838,-0.666603097082616,-2.5945565370258534,-0.05562143941554,2.507976027223799,0.8763108487046415,0.0007036800007732124,0.002133948614865357,-0.0003903875236996417,-0.00046072194592026744,-0.00023098989583614688,0.0001285927746169468,0.00067902395878656,0.0,0.0,0.0,0.0,0.0,0.0,0.0,-0.00011879507673062673,-3.170802344760332e-05,-7.511767522183632e-05,0.0002318809256882659,0.00015298950059291355,7.350603739419981e-05,-1.3631186552731656e-05,-0.0007036800007732124,-0.002133948614865357,0.0003903875236996417,0.00046072194592026744,0.00023098989583614688,-0.0001285927746169468,-0.00067902395878656,0.06972616910934448,18.376306533813477,-0.9180634021759033,-18.245882034301758,-0.5642600655555725,-2.2689852714538574,0.25485557317733765,0
22,0.10505485534667969,-0.018151462078094482,-18.304895401000977,0.9180634021759033,18.245882034301758,0.5578513741493225,2.2818026542663574,-0.20083944499492645,0.0,0.0,0.0,0.0,0.0,0.0,0.0,-0.05797004115261774,0.3556908157970183,0.09573071538022605,0.5959205973703504,0.136628386412423,0.09275979347604857,-0.22993540213096153,-0.6089706663956013,-0.05750739504009735,-0.6665279794073942,-2.594788417916549,-0.055770521423095715,2.507901097032759,0.876318478099174,-0.6090851748156966,-0.05753196718556838,-0.666603097082616,-2.5945565370258534,-0.05562143941554,2.507976027223799,0.8763108487046415,-0.0008706194060769742,-2.4325887204994318e-05,-0.00027211757910125496,-0.00048451341203719283,-4.6111891577013796e-05,0.00018369137626706738,-0.0018960209859099856,0.0,0.0,0.0,0.0,0.0,0.0,0.0,-0.00011450842009530504,-2.4572145471031537e-05,-7.511767522183632e-05,0.00023188089069536844,0.00014908200755571477,7.493019103987919e-05,-7.629394532471245e-06,0.0008706194060769742,2.4325887204994318e-05,0.00027211757910125496,0.00048451341203719283,4.6111891577013796e-05,-0.00018369137626706738,0.0018960209859099856,0.018151462078094482,18.304895401000977,-0.9180634021759033,-18.245882034301758,-0.5578513741493225,-2.2818026542663574,0.20083944499492645,0
23,0.10994815826416016,-0.018151462078094482,-18.304895401000977,0.9180634021759033,18.245882034301758,0.5578513741493225,2.2818026542663574,-0.20083944499492645,0.0,0.0,0.0,0.0,0.0,0.0,0.0,-0.05797004115261774,0.3556908157970183,0.09573071538022605,0.5959205973703504,0.136628386412423,0.09275979347604857,-0.22993540213096153,-0.6089706663956013,-0.05750739504009735,-0.6665279794073942,-2.594788417916549,-0.055770521423095715,2.507901097032759,0.876318478099174,-0.6090851748156966,-0.05753196718556838,-0.666603097082616,-2.5945565370258534,-0.05562143941554,2.507976027223799,0.8763108487046415,-0.0008706194060769742,-2.4325887204994318e-05,-0.00027211757910125496,-0.00048451341203719283,-4.6111891577013796e-05,0.00018369137626706738,-0.0018960209859099856,0.0,0.0,0.0,0.0,0.0,0.0,0.0,-0.00011450842009530504,-2.4572145471031537e-05,-7.511767522183632e-05,0.00023188089069536844,0.00014908200755571477,7.493019103987919e-05,-7.629394532471245e-06,0.0008706194060769742,2.4325887204994318e-05,0.00027211757910125496,0.00048451341203719283,4.6111891577013796e-05,-0.00018369137626706738,0.0018960209859099856,0.018151462078094482,18.304895401000977,-0.9180634021759033,-18.245882034301758,-0.5578513741493225,-2.2818026542663574,0.20083944499492645,0
24,0.11494779586791992,-0.06972616910934448,-18.304895401000977,0.9180634021759033,18.170503616333008,0.5578513741493225,2.2946200370788574,-0.24844686686992645,0.0,0.0,0.0,0.0,0.0,0.0,0.0,-0.06461097517632336,0.358572086645312,0.08888429796082706,0.5945128134825476,0.13588504514966157,0.09379891336199611,-0.23200983123440988,-0.6089671260501335,-0.05750526170251302,-0.6665279794073942,-2.5947831282030074,-0.05577265061542364,2.507899672879113,0.8763237678127156,-0.6090851748156966,-0.05753196718556838,-0.666603097082616,-2.5945565370258534,-0.05562143941554,2.507976027223799,0.8763108487046415,-0.0001898354163510206,0.0003476904836545318,-0.0004743051699104504,0.0013296618612059425,3.99101944257351e-05,-0.0005772992248107554,0.0006746012220467441,0.0,0.0,0.0,0.0,0.0,0.0,0.0,-0.00011804876556309463,-2.6705483055361467e-05,-7.511767522183632e-05,0.00022659117715395638,0.00015121119988364268,7.635434468600266e-05,-1.2919108074105345e-05,0.0001898354163510206,-0.0003476904836545318,0.0004743051699104504,-0.0013296618612059425,-3.99101944257351e-05,0.0005772992248107554,-0.0006746012220467441,0.06972616910934448,18.304895401000977,-0.9180634021759033,-18.170503616333008,-0.5578513741493225,-2.2946200370788574,0.24844686686992645,0
25,0.1203618049621582,-0.06972616910934448,-18.304895401000977,0.9180634021759033,18.170503616333008,0.5578513741493225,2.2946200370788574,-0.24844686686992645,0.0,0.0,0.0,0.0,0.0,0.0,0.0,-0.06461097517632336,0.358572086645312,0.08888429796082706,0.5945128134825476,0.13588504514966157,0.09379891336199611,-0.23200983123440988,-0.6089671260501335,-0.05750526170251302,-0.6665279794073942,-2.5947831282030074,-0.05577265061542364,2.507899672879113,0.8763237678127156,-0.6090851748156966,-0.05753196718556838,-0.666603097082616,-2.5945565370258534,-0.05562143941554,2.507976027223799,0.8763108487046415,-0.0001898354163510206,0.0003476904836545318,-0.0004743051699104504,0.0013296618612059425,3.99101944257351e-05,-0.0005772992248107554,0.0006746012220467441,0.0,0.0,0.0,0.0,0.0,0.0,0.0,-0.00011804876556309463,-2.6705483055361467e-05,-7.511767522183632e-05,0.00022659117715395638,0.00015121119988364268,7.635434468600266e-05,-1.2919108074105345e-05,0.0001898354163510206,-0.0003476904836545318,0.0004743051699104504,-0.0013296618612059425,-3.99101944257351e-05,0.0005772992248107554,-0.0006746012220467441,0.06972616910934448,18.304895401000977,-0.9180634021759033,-18.170503616333008,-0.5578513741493225,-2.2946200370788574,0.24844686686992645,0
26,0.12494254112243652,-0.018151462078094482,-18.304895401000977,0.8426849842071533,18.245882034301758,0.5761619210243225,2.2689852714538574,-0.22098104655742645,0.0,0.0,0.0,0.0,0.0,0.0,0.0,-0.05999159772667992,0.35625905013884285,0.09547594849505685,0.5958667146869737,0.13520857886050153,0.09476262959068667,-0.2336698561320384,-0.6089721483858098,-0.05750526169047027,-0.6665229281124315,-2.594788417916549,-0.05577184764586024,2.5079025211864048,0.8763207160549031,-0.6090851748156966,-0.05753196718556838,-0.666603097082616,-2.5945565370258534,-0.05562143941554,2.507976027223799,0.8763108487046415,-0.0010891090845880675,-3.1284987787435195e-05,0.001855162776218433,-0.0009224450883028914,-0.0006055356823105332,-0.000136208823355191,-0.0005615385288197987,0.0,0.0,0.0,0.0,0.0,0.0,0.0,-0.00011302642988675338,-2.670549509811021e-05,-8.016897018447988e-05,0.00023188089069536844,0.00015040823032023976,7.350603739419981e-05,-9.867350261649754e-06,0.0010891090845880675,3.1284987787435195e-05,-0.001855162776218433,0.0009224450883028914,0.0006055356823105332,0.000136208823355191,0.0005615385288197987,0.018151462078094482,18.304895401000977,-0.8426849842071533,-18.245882034301758,-0.5761619210243225,-2.2689852714538574,0.22098104655742645,0
27,0.13004541397094727,-0.018151462078094482,-18.304895401000977,0.8426849842071533,18.245882034301758,0.5761619210243225,2.2689852714538574,-0.22098104655742645,0.0,0.0,0.0,0.0,0.0,0.0,0.0,-0.05999159772667992,0.35625905013884285,0.09547594849505685,0.5958667146869737,0.13520857886050153,0.09476262959068667,-0.2336698561320384,-0.6089721483858098,-0.05750526169047027,-0.6665229281124315,-2.594788417916549,-0.05577184764586024,2.5079025211864048,0.8763207160549031,-0.6090851748156966,-0.05753196718556838,-0.666603097082616,-2.5945565370258534,-0.05562143941554,2.507976027223799,0.8763108487046415,-0.0010891090845880675,-3.1284987787435195e-05,0.001855162776218433,-0.0009224450883028914,-0.0006055356823105332,-0.000136208823355191,-0.0005615385288197987,0.0,0.0,0.0,0.0,0.0,0.0,0.0,-0.00011302642988675338,-2.670549509811021e-05,-8.016897018447988e-05,0.00023188089069536844,0.00015040823032023976,7.350603739419981e-05,-9.867350261649754e-06,0.0010891090845880675,3.1284987787435195e-05,-0.001855162776218433,0.0009224450883028914,0.0006055356823105332,0.000136208823355191,0.0005615385288197987,0.018151462078094482,18.304895401000977,-0.8426849842071533,-18.245882034301758,-0.5761619210243225,-2.2689852714538574,0.22098104655742645,0
28,0.13494324684143066,-0.06972616910934448,-18.277124404907227,0.9180634021759033,18.170503616333008,0.5578513741493225,2.2689852714538574,-0.26217979192733765,0.0,0.0,0.0,0.0,0.0,0.0,0.0,-0.06101629482843694,0.36265757047173774,0.09477972142334093,0.5912913909177019,0.13562727174489536,0.0921684452206636,-0.23374439763858215,-0.6089663450841215,-0.057507210532301345,-0.66652797940874,-2.5947831282030074,-0.055769579466432226,2.5079025211864048,0.8763252936932776,-0.6090851748156966,-0.05753196718556838,-0.666603097082616,-2.5945565370258534,-0.05562143941554,2.507976027223799,0.8763108487046415,0.0001571112232777464,5.016242813884143e-05,-0.00011921151063982691,0.0007510493273582429,8.354358292314497e-05,5.62474440826206e-05,0.0009218957684921983,0.0,0.0,0.0,0.0,0.0,0.0,0.0,-0.00011882973157506527,-2.4756653267038464e-05,-7.511767387602397e-05,0.00022659117715395638,0.00014814005089222593,7.350603739419981e-05,-1.444498863611976e-05,-0.0001571112232777464,-5.016242813884143e-05,0.00011921151063982691,-0.0007510493273582429,-8.354358292314497e-05,-5.62474440826206e-05,-0.0009218957684921983,0.06972616910934448,18.277124404907227,-0.9180634021759033,-18.170503616333008,-0.5578513741493225,-2.2689852714538574,0.26217979192733765,0
29,0.13994169235229492,-0.06972616910934448,-18.277124404907227,0.9180634021759033,18.170503616333008,0.5578513741493225,2.2689852714538574,-0.26217979192733765,0.0,0.0,0.0,0.0,0.0,0.0,0.0,-0.06101629482843694,0.36265757047173774,0.09477972142334093,0.5912913909177019,0.13562727174489536,0.0921684452206636,-0.23374439763858215,-0.6089663450841215,-0.057507210532301345,-0.66652797940874,-2.5947831282030074,-0.055769579466432226,2.5079025211864048,0.8763252936932776,-0.6090851748156966,-0.05753196718556838,-0.666603097082616,-2.5945565370258534,-0.05562143941554,2.507976027223799,0.8763108487046415,0.0001571112232777464,5.016242813884143e-05,-0.00011921151063982691,0.0007510493273582429,8.354358292314497e-05,5.62474440826206e-05,0.0009218957684921983,0.0,0.0,0.0,0.0,0.0,0.0,0.0,-0.00011882973157506527,-2.4756653267038464e-05,-7.511767387602397e-05,0.00022659117715395638,0.00014814005089222593,7.350603739419981e-05,-1.444498863611976e-05,-0.0001571112232777464,-5.016242813884143e-05,0.00011921151063982691,-0.0007510493273582429,-8.354358292314497e-05,-5.62474440826206e-05,-0.0009218957684921983,0.06972616910934448,18.277124404907227,-0.9180634021759033,-18.170503616333008,-0.5578513741493225,-2.2689852714538574,0.26217979192733765,0
30,0.14494085311889648,-0.06972616910934448,-18.376306533813477,0.9180634021759033,18.222078323364258,0.5642600655555725,2.2753939628601074,-0.21457235515117645,0.0,0.0,0.0,0.0,0.0,0.0,0.0,-0.06403005220308941,0.3549385060655781,0.09482917097632818,0.5952550801047709,0.13601208891621305,0.09215859970547231,-0.23458150595299973,-0.6089663749597467,-0.05750025038290441,-0.6665279794073942,-2.594786747480694,-0.05577340211675078,2.507901809109582,0.8763200039242449,-0.6090851748156966,-0.05753196718556838,-0.666603097082616,-2.5945565370258534,-0.05562143941554,2.507976027223799,0.8763108487046415,0.0001913525178301766,0.001600243047860981,-0.00013666552856808696,-0.00024137909539163655,-0.0002768599307927436,-0.000257910828950133,-0.0005448212484034573,0.0,0.0,0.0,0.0,0.0,0.0,0.0,-0.0001187998559498693,-3.171680266397109e-05,-7.511767522183632e-05,0.00023021045484039604,0.00015196270121078242,7.42181142170395e-05,-9.155219603429465e-06,-0.0001913525178301766,-0.001600243047860981,0.00013666552856808696,0.00024137909539163655,0.0002768599307927436,0.000257910828950133,0.0005448212484034573,0.06972616910934448,18.376306533813477,-0.9180634021759033,-18.222078323364258,-0.5642600655555725,-2.2753939628601074,0.21457235515117645,0
31,0.14994072914123535,-0.06972616910934448,-18.376306533813477,0.9180634021759033,18.222078323364258,0.5642600655555725,2.2753939628601074,-0.21457235515117645,0.0,0.0,0.0,0.0,0.0,0.0,0.0,-0.06403005220308941,0.3549385060655781,0.09482917097632818,0.5952550801047709,0.13601208891621305,0.09215859970547231,-0.23458150595299973,-0.6089663749597467,-0.05750025038290441,-0.6665279794073942,-2.594786747480694,-0.05577340211675078,2.507901809109582,0.8763200039242449,-0.6090851748156966,-0.05753196718556838,-0.666603097082616,-2.5945565370258534,-0.05562143941554,2.507976027223799,0.8763108487046415,0.0001913525178301766,0.001600243047860981,-0.00013666552856808696,-0.00024137909539163655,-0.0002768599307927436,-0.000257910828950133,-0.0005448212484034573,0.0,0.0,0.0,0.0,0.0,0.0,0.0,-0.0001187998559498693,-3.171680266397109e-05,-7.511767522183632e-05,0.00023021045484039604,0.00015196270121078242,7.42181142170395e-05,-9.155219603429465e-06,-0.0001913525178301766,-0.001600243047860981,0.00013666552856808696,0.00024137909539163655,0.0002768599307927436,0.000257910828950133,0.0005448212484034573,0.06972616910934448,18.376306533813477,-0.9180634021759033,-18.222078323364258,-0.5642600655555725,-2.2753939628601074,0.21457235515117645,0
32,0.1550464630126953,-0.06972616910934448,-18.328699111938477,0.9180634021759033,18.198274612426758,0.5642600655555725,2.2753939628601074,-0.22098104655742645,0.0,0.0,0.0,0.0,0.0,0.0,0.0,-0.06529930082114144,0.35192436747462114,0.09535339271450562,0.5937114155455514,0.13577147137370138,0.09174062791316122,-0.23423197325877873,-0.6089663451789588,-0.05750367026756226,-0.6665279794073942,-2.5947850770448384,-0.05577028766519195,2.507901809109582,0.8763207160549028,-0.6090851748156966,-0.05753196718556838,-0.666603097082616,-2.5945565370258534,-0.05562143941554,2.507976027223799,0.8763108487046415,0.0002726202834594674,-0.0003723306470393109,-0.00014608637838892888,0.0007816250496398978,-0.0003081801736427644,0.00022516408892383943,-0.0008936866920485026,0.0,0.0,0.0,0.0,0.0,0.0,0.0,-0.0001188296367378161,-2.8296918006126548e-05,-7.511767522183632e-05,0.00022854001898497955,0.00014884824965195192,7.42181142170395e-05,-9.867350261316687e-06,-0.0002726202834594674,0.0003723306470393109,0.00014608637838892888,-0.0007816250496398978,0.0003081801736427644,-0.00022516408892383943,0.0008936866920485026,0.06972616910934448,18.328699111938477,-0.9180634021759033,-18.198274612426758,-0.5642600655555725,-2.2753939628601074,0.22098104655742645,0
33,0.1599435806274414,-0.06972616910934448,-18.328699111938477,0.9180634021759033,18.198274612426758,0.5642600655555725,2.2753939628601074,-0.22098104655742645,0.0,0.0,0.0,0.0,0.0,0.0,0.0,-0.06529930082114144,0.35192436747462114,0.09535339271450562,0.5937114155455514,0.13577147137370138,0.09174062791316122,-0.23423197325877873,-0.6089663451789588,-0.05750367026756226,-0.6665279794073942,-2.5947850770448384,-0.05577028766519195,2.507901809109582,0.8763207160549028,-0.6090851748156966,-0.05753196718556838,-0.666603097082616,-2.5945565370258534,-0.05562143941554,2.507976027223799,0.8763108487046415,0.0002726202834594674,-0.0003723306470393109,-0.00014608637838892888,0.0007816250496398978,-0.0003081801736427644,0.00022516408892383943,-0.0008936866920485026,0.0,0.0,0.0,0.0,0.0,0.0,0.0,-0.0001188296367378161,-2.8296918006126548e-05,-7.511767522183632e-05,0.00022854001898497955,0.00014884824965195192,7.42181142170395e-05,-9.867350261316687e-06,-0.0002726202834594674,0.0003723306470393109,0.00014608637838892888,-0.0007816250496398978,0.0003081801736427644,-0.00022516408892383943,0.0008936866920485026,0.06972616910934448,18.328699111938477,-0.9180634021759033,-18.198274612426758,-0.5642600655555725,-2.2753939628601074,0.22098104655742645,0
34,0.16494393348693848,-0.018151462078094482,-18.328699111938477,0.9180634021759033,18.245882034301758,0.5578513741493225,2.2818026542663574,-0.25485557317733765,0.0,0.0,0.0,0.0,0.0,0.0,0.0,-0.06420589732024258,0.3559292517359404,0.09729802043661316,0.5896480525686633,0.13525560234904346,0.09193694517687825,-0.23391888355531457,-0.6089699672384108,-0.05750359125506097,-0.6665279882377119,-2.594788417916549,-0.05576994309566817,2.507901097032759,0.8763244798911941,-0.6090851748156966,-0.05753196718556838,-0.666603097082616,-2.5945565370258534,-0.05562143941554,2.507976027223799,0.8763108487046415,-0.001226357932889634,0.0004626710656076907,-0.00030882234045576183,-0.0006948122463653921,0.00017959105764712378,-3.5194060931144145e-05,0.0006389564568666439,0.0,0.0,0.0,0.0,0.0,0.0,0.0,-0.0001152075772857808,-2.837593050741133e-05,-7.510884490413705e-05,0.00023188089069536844,0.00014850368012817028,7.493019103987919e-05,-1.3631186552620633e-05,0.001226357932889634,-0.0004626710656076907,0.00030882234045576183,0.0006948122463653921,-0.00017959105764712378,3.5194060931144145e-05,-0.0006389564568666439,0.018151462078094482,18.328699111938477,-0.9180634021759033,-18.245882034301758,-0.5578513741493225,-2.2818026542663574,0.25485557317733765,0
35,0.16995906829833984,-0.018151462078094482,-18.328699111938477,0.9180634021759033,18.245882034301758,0.5578513741493225,2.2818026542663574,-0.25485557317733765,0.0,0.0,0.0,0.0,0.0,0.0,0.0,-0.06420589732024258,0.3559292517359404,0.09729802043661316,0.5896480525686633,0.13525560234904346,0.09193694517687825,-0.23391888355531457,-0.6089699672384108,-0.05750359125506097,-0.6665279882377119,-2.594788417916549,-0.05576994309566817,2.507901097032759,0.8763244798911941,-0.6090851748156966,-0.05753196718556838,-0.666603097082616,-2.5945565370258534,-0.05562143941554,2.507976027223799,0.8763108487046415,-0.001226357932889634,0.0004626710656076907,-0.00030882234045576183,-0.0006948122463653921,0.00017959105764712378,-3.5194060931144145e-05,0.0006389564568666439,0.0,0.0,0.0,0.0,0.0,0.0,0.0,-0.0001152075772857808,-2.837593050741133e-05,-7.510884490413705e-05,0.00023188089069536844,0.00014850368012817028,7.493019103987919e-05,-1.3631186552620633e-05,0.001226357932889634,-0.0004626710656076907,0.00030882234045576183,0.0006948122463653921,-0.00017959105764712378,3.5194060931144145e-05,-0.0006389564568666439,0.018151462078094482,18.328699111938477,-0.9180634021759033,-18.245882034301758,-0.5578513741493225,-2.2818026542663574,0.25485557317733765,0
36,0.17494940757751465,-0.06972616910934448,-18.253320693969727,0.8426849842071533,18.222078323364258,0.5578513741493225,2.2552523612976074,-0.20083944499492645,0.0,0.0,0.0,0.0,0.0,0.0,0.0,-0.06467606469917044,0.35999585682959806,0.09546443985592774,0.586569909014664,0.1354508150890786,0.0922771342152059,-0.23483027907022413,-0.6089663450718089,-0.05750888096815661,-0.6665226896939022,-2.5947867503151167,-0.055770521564055466,2.507904047065311,0.8763184780991738,-0.6090851748156966,-0.05753196718556838,-0.666603097082616,-2.5945565370258534,-0.05562143941554,2.507976027223799,0.8763108487046415,-0.00016848803645580252,-0.0005937078759823683,0.0013520610932672658,-0.0005523032431285346,1.6121068408339642e-05,0.00045763960685537354,-0.0010969081171788384,0.0,0.0,0.0,0.0,0.0,0.0,0.0,-0.00011882974388766065,-2.3086217411774634e-05,-8.040738871384345e-05,0.00023021328926331464,0.00014908214851546558,7.198015848786099e-05,-7.629394532360223e-06,0.00016848803645580252,0.0005937078759823683,-0.0013520610932672658,0.0005523032431285346,-1.6121068408339642e-05,-0.00045763960685537354,0.0010969081171788384,0.06972616910934448,18.253320693969727,-0.8426849842071533,-18.222078323364258,-0.5578513741493225,-2.2552523612976074,0.20083944499492645,0
37,0.18004775047302246,-0.06972616910934448,-18.253320693969727,0.8426849842071533,18.222078323364258,0.5578513741493225,2.2552523612976074,-0.20083944499492645,0.0,0.0,0.0,0.0,0.0,0.0,0.0,-0.06467606469917044,0.35999585682959806,0.09546443985592774,0.586569909014664,0.1354508150890786,0.0922771342152059,-0.23483027907022413,-0.6089663450718089,-0.05750888096815661,-0.6665226896939022,-2.5947867503151167,-0.055770521564055466,2.507904047065311,0.8763184780991738,-0.6090851748156966,-0.05753196718556838,-0.666603097082616,-2.5945565370258534,-0.05562143941554,2.507976027223799,0.8763108487046415,-0.00016848803645580252,-0.0005937078759823683,0.0013520610932672658,-0.0005523032431285346,1.6121068408339642e-05,0.00045763960685537354,-0.0010969081171788384,0.0,0.0,0.0,0.0,0.0,0.0,0.0,-0.00011882974388766065,-2.3086217411774634e-05,-8.040738871384345e-05,0.00023021328926331464,0.00014908214851546558,7.198015848786099e-05,-7.629394532360223e-06,0.00016848803645580252,0.0005937078759823683,-0.0013520610932672658,0.0005523032431285346,-1.6121068408339642e-05,-0.00045763960685537354,0.0010969081171788384,0.06972616910934448,18.253320693969727,-0.8426849842071533,-18.222078323364258,-0.5578513741493225,-2.2552523612976074,0.20083944499492645,0
38,0.18494105339050293,-0.06972616910934448,-18.253320693969727,0.8426849842071533,18.222078323364258,0.5578513741493225,2.2552523612976074,-0.20083944499492645,0.0,0.0,0.0,0.0,0.0,0.0,0.0,-0.06467606469917044,0.35999585682959806,0.09546443985592774,0.586569909014664,0.1354508150890786,0.0922771342152059,-0.23483027907022413,-0.6089663450718089,-0.05750888096815661,-0.6665226896939022,-2.5947867503151167,-0.055770521564055466,2.507904047065311,0.8763184780991738,-0.6090851748156966,-0.05753196718556838,-0.666603097082616,-2.5945565370258534,-0.05562143941554,2.507976027223799,0.8763108487046415,-0.00016848803645580252,-0.0005937078759823683,0.0013520610932672658,-0.0005523032431285346,1.6121068408339642e-05,0.00045763960685537354,-0.0010969081171788384,0.0,0.0,0.0,0.0,0.0,0.0,0.0,-0.00011882974388766065,-2.3086217411774634e-05,-8.040738871384345e-05,0.00023021328926331464,0.00014908214851546558,7.198015848786099e-05,-7.629394532360223e-06,0.00016848803645580252,0.0005937078759823683,-0.0013520610932672658,0.0005523032431285346,-1.6121068408339642e-05,-0.00045763960685537354,0.0010969081171788384,0.06972616910934448,18.253320693969727,-0.8426849842071533,-18.222078323364258,-0.5578513741493225,-2.2552523612976074,0.20083944499492645,0
39,0.18994545936584473,-0.06972616910934448,-18.253320693969727,0.8426849842071533,18.222078323364258,0.5578513741493225,2.2552523612976074,-0.20083944499492645,0.0,0.0,0.0,0.0,0.0,0.0,0.0,-0.06467606469917044,0.35999585682959806,0.09546443985592774,0.586569909014664,0.1354508150890786,0.0922771342152059,-0.23483027907022413,-0.6089663450718089,-0.05750888096815661,-0.6665226896939022,-2.5947867503151167,-0.055770521564055466,2.507904047065311,0.8763184780991738,-0.6090851748156966,-0.05753196718556838,-0.666603097082616,-2.5945565370258534,-0.05562143941554,2.507976027223799,0.8763108487046415,-0.00016848803645580252,-0.0005937078759823683,0.0013520610932672658,-0.0005523032431285346,1.6121068408339642e-05,0.00045763960685537354,-0.0010969081171788384,0.0,0.0,0.0,0.0,0.0,0.0,0.0,-0.00011882974388766065,-2.3086217411774634e-05,-8.040738871384345e-05,0.00023021328926331464,0.00014908214851546558,7.198015848786099e-05,-7.629394532360223e-06,0.00016848803645580252,0.0005937078759823683,-0.0013520610932672658,0.0005523032431285346,-1.6121068408339642e-05,-0.00045763960685537354,0.0010969081171788384,0.06972616910934448,18.253320693969727,-0.8426849842071533,-18.222078323364258,-0.5578513741493225,-2.2552523612976074,0.20083944499492645,0
40,0.19494104385375977,-0.018151462078094482,-18.277124404907227,0.9180634021759033,18.170503616333008,0.5578513741493225,2.2552523612976074,-0.26858848333358765,0.0,0.0,0.0,0.0,0.0,0.0,0.0,-0.06165503304790104,0.3622883112240762,0.09497880394784475,0.5923241520855637,0.1351015501962943,0.0914402000336774,-0.23382959430415054,-0.6089702272422104,-0.057509343881878935,-0.6665279794073942,-2.5947831282030234,-0.055769589692977635,2.507904047065311,0.8763260057701003,-0.6090851748156966,-0.05753196718556838,-0.666603097082616,-2.5945565370258534,-0.05562143941554,2.507976027223799,0.8763108487046415,-0.0011702025281884365,0.0003905585520833498,-0.00025353056128298013,0.0009007150316341519,-1.250035411429568e-05,0.0002649102155345455,0.0013165407656758785,0.0,0.0,0.0,0.0,0.0,0.0,0.0,-0.00011494757348617934,-2.2623303689447982e-05,-7.511767522183632e-05,0.0002265911771699436,0.00014815027743763504,7.198015848786099e-05,-1.5157065458848429e-05,0.0011702025281884365,-0.0003905585520833498,0.00025353056128298013,-0.0009007150316341519,1.250035411429568e-05,-0.0002649102155345455,-0.0013165407656758785,0.018151462078094482,18.277124404907227,-0.9180634021759033,-18.170503616333008,-0.5578513741493225,-2.2552523612976074,0.26858848333358765,0
41,0.20018959045410156,-0.018151462078094482,-18.277124404907227,0.9180634021759033,18.170503616333008,0.5578513741493225,2.2552523612976074,-0.26858848333358765,0.0,0.0,0.0,0.0,0.0,0.0,0.0,-0.06165503304790104,0.3622883112240762,0.09497880394784475,0.5923241520855637,0.1351015501962943,0.0914402000336774,-0.23382959430415054,-0.6089702272422104,-0.057509343881878935,-0.6665279794073942,-2.5947831282030234,-0.055769589692977635,2.507904047065311,0.8763260057701003,-0.6090851748156966,-0.05753196718556838,-0.666603097082616,-2.5945565370258534,-0.05562143941554,2.507976027223799,0.8763108487046415,-0.0011702025281884365,0.0003905585520833498,-0.00025353056128298013,0.0009007150316341519,-1.250035411429568e-05,0.0002649102155345455,0.0013165407656758785,0.0,0.0,0.0,0.0,0.0,0.0,0.0,-0.00011494757348617934,-2.2623303689447982e-05,-7.511767522183632e-05,0.0002265911771699436,0.00014815027743763504,7.198015848786099e-05,-1.5157065458848429e-05,0.0011702025281884365,-0.0003905585520833498,0.00025353056128298013,-0.0009007150316341519,1.250035411429568e-05,-0.0002649102155345455,-0.0013165407656758785,0.018151462078094482,18.277124404907227,-0.9180634021759033,-18.170503616333008,-0.5578513741493225,-2.2552523612976074,0.26858848333358765,0
42,0.2049407958984375,-0.04592245817184448,-18.304895401000977,0.9180634021759033,18.198274612426758,0.5578513741493225,2.2625765800476074,-0.21457235515117645,0.0,0.0,0.0,0.0,0.0,0.0,0.0,-0.06405776202488678,0.36133641181337534,0.09068273594545902,0.5978627132403311,0.1351189816211018,0.09024894415801638,-0.23267121461678097,-0.6089680155091319,-0.05750527340813485,-0.6665279794073942,-2.5947850770448384,-0.0557695007677903,2.5079032332632276,0.8763200039780801,-0.6090851748156966,-0.05753196718556838,-0.666603097082616,-2.5945565370258534,-0.05562143941554,2.507976027223799,0.8763108487046415,-0.0004829591770472669,0.0002865705092345376,-0.0001729101103404586,0.0007552179671385856,0.00017493098046180672,0.0003276518152800485,-0.0006814443180979958,0.0,0.0,0.0,0.0,0.0,0.0,0.0,-0.00011715930656464035,-2.669377743353546e-05,-7.511767522183632e-05,0.00022854001898497955,0.00014806135225030326,7.279396057136012e-05,-9.155273438588019e-06,0.0004829591770472669,-0.0002865705092345376,0.0001729101103404586,-0.0007552179671385856,-0.00017493098046180672,-0.0003276518152800485,0.0006814443180979958,0.04592245817184448,18.304895401000977,-0.9180634021759033,-18.198274612426758,-0.5578513741493225,-2.2625765800476074,0.21457235515117645,0
43,0.20993995666503906,-0.04592245817184448,-18.304895401000977,0.9180634021759033,18.198274612426758,0.5578513741493225,2.2625765800476074,-0.21457235515117645,0.0,0.0,0.0,0.0,0.0,0.0,0.0,-0.06405776202488678,0.36133641181337534,0.09068273594545902,0.5978627132403311,0.1351189816211018,0.09024894415801638,-0.23267121461678097,-0.6089680155091319,-0.05750527340813485,-0.6665279794073942,-2.5947850770448384,-0.0557695007677903,2.5079032332632276,0.8763200039780801,-0.6090851748156966,-0.05753196718556838,-0.666603097082616,-2.5945565370258534,-0.05562143941554,2.507976027223799,0.8763108487046415,-0.0004829591770472669,0.0002865705092345376,-0.0001729101103404586,0.0007552179671385856,0.00017493098046180672,0.0003276518152800485,-0.0006814443180979958,0.0,0.0,0.0,0.0,0.0,0.0,0.0,-0.00011715930656464035,-2.669377743353546e-05,-7.511767522183632e-05,0.00022854001898497955,0.00014806135225030326,7.279396057136012e-05,-9.155273438588019e-06,0.0004829591770472669,-0.0002865705092345376,0.0001729101103404586,-0.0007552179671385856,-0.00017493098046180672,-0.0003276518152800485,0.0006814443180979958,0.04592245817184448,18.304895401000977,-0.9180634021759033,-18.198274612426758,-0.5578513741493225,-2.2625765800476074,0.21457235515117645,0
44,0.21494150161743164,-0.09352988004684448,-18.328699111938477,0.8942596912384033,18.269685745239258,0.5578513741493225,2.2882113456726074,-0.24112264811992645,0.0,0.0,0.0,0.0,0.0,0.0,0.0,-0.06204823856582784,0.36091975075230814,0.09216535074273959,0.5949414576966194,0.13556754832094503,0.08862556662555739,-0.23181005103033864,-0.6089647093031106,-0.05750359125468109,-0.6665270242272762,-2.594790088352404,-0.05576951374829955,2.507900384955936,0.8763229540106322,-0.6090851748156966,-0.05753196718556838,-0.666603097082616,-2.5945565370258534,-0.05562143941554,2.507976027223799,0.8763108487046415,0.0011214069448825617,-0.0001705510107223366,0.0005954359067663049,-0.001209920358764696,0.000253501934088852,-0.0004529015629072901,0.00037400307805403576,0.0,0.0,0.0,0.0,0.0,0.0,0.0,-0.00012046551258593219,-2.8375930887294953e-05,-7.60728553398371e-05,0.00023355132655078492,0.00014807433275954712,7.564226786316297e-05,-1.2105305990717241e-05,-0.0011214069448825617,0.0001705510107223366,-0.0005954359067663049,0.001209920358764696,-0.000253501934088852,0.0004529015629072901,-0.00037400307805403576,0.09352988004684448,18.328699111938477,-0.8942596912384033,-18.269685745239258,-0.5578513741493225,-2.2882113456726074,0.24112264811992645,0
45,0.21996569633483887,-0.09352988004684448,-18.328699111938477,0.8942596912384033,18.269685745239258,0.5578513741493225,2.2882113456726074,-0.24112264811992645,0.0,0.0,0.0,0.0,0.0,0.0,0.0,-0.06204823856582784,0.36091975075230814,0.09216535074273959,0.5949414576966194,0.13556754832094503,0.08862556662555739,-0.23181005103033864,-0.6089647093031106,-0.05750359125468109,-0.6665270242272762,-2.594790088352404,-0.05576951374829955,2.507900384955936,0.8763229540106322,-0.6090851748156966,-0.05753196718556838,-0.666603097082616,-2.5945565370258534,-0.05562143941554,2.507976027223799,0.8763108487046415,0.0011214069448825617,-0.0001705510107223366,0.0005954359067663049,-0.001209920358764696,0.000253501934088852,-0.0004529015629072901,0.00037400307805403576,0.0,0.0,0.0,0.0,0.0,0.0,0.0,-0.00012046551258593219,-2.8375930887294953e-05,-7.60728553398371e-05,0.00023355132655078492,0.00014807433275954712,7.564226786316297e-05,-1.2105305990717241e-05,-0.0011214069448825617,0.0001705510107223366,-0.0005954359067663049,0.001209920358764696,-0.000253501934088852,0.0004529015629072901,-0.00037400307805403576,0.09352988004684448,18.328699111938477,-0.8942596912384033,-18.269685745239258,-0.5578513741493225,-2.2882113456726074,0.24112264811992645,0
46,0.22495055198669434,-0.09352988004684448,-18.328699111938477,0.8942596912384033,18.269685745239258,0.5578513741493225,2.2882113456726074,-0.24112264811992645,0.0,0.0,0.0,0.0,0.0,0.0,0.0,-0.06204823856582784,0.36091975075230814,0.09216535074273959,0.5949414576966194,0.13556754832094503,0.08862556662555739,-0.23181005103033864,-0.6089647093031106,-0.05750359125468109,-0.6665270242272762,-2.594790088352404,-0.05576951374829955,2.507900384955936,0.8763229540106322,-0.6090851748156966,-0.05753196718556838,-0.666603097082616,-2.5945565370258534,-0.05562143941554,2.507976027223799,0.8763108487046415,0.0011214069448825617,-0.0001705510107223366,0.0005954359067663049,-0.001209920358764696,0.000253501934088852,-0.0004529015629072901,0.00037400307805403576,0.0,0.0,0.0,0.0,0.0,0.0,0.0,-0.00012046551258593219,-2.8375930887294953e-05,-7.60728553398371e-05,0.00023355132655078492,0.00014807433275954712,7.564226786316297e-05,-1.2105305990717241e-05,-0.0011214069448825617,0.0001705510107223366,-0.0005954359067663049,0.001209920358764696,-0.000253501934088852,0.0004529015629072901,-0.00037400307805403576,0.09352988004684448,18.328699111938477,-0.8942596912384033,-18.269685745239258,-0.5578513741493225,-2.2882113456726074,0.24112264811992645,0
47,0.22994518280029297,-0.04592245817184448,-18.304895401000977,0.9418671131134033,18.222078323364258,0.5642600655555725,2.2818026542663574,-0.20724813640117645,0.0,0.0,0.0,0.0,0.0,0.0,0.0,-0.05912266565207713,0.35508016442643586,0.09373710490653218,0.5957505153964617,0.13586505794388484,0.08973978408227863,-0.23106284638545427,-0.608968015828836,-0.057505261690470204,-0.6665296763382402,-2.5947867484255016,-0.05577016935779691,2.507901097032759,0.8763191900144913,-0.6090851748156966,-0.05753196718556838,-0.666603097082616,-2.5945565370258534,-0.05562143941554,2.507976027223799,0.8763108487046415,-0.0001715738243627073,-0.001091946061631457,-0.00013233092861928358,-2.3219549848728644e-05,-0.0002946667677034386,3.1222625181459675e-05,-0.0009109417913025413,0.0,0.0,0.0,0.0,0.0,0.0,0.0,-0.00011715898686059933,-2.67054950981796e-05,-7.342074437577395e-05,0.0002302113996481836,0.0001487299422569116,7.493019103987919e-05,-8.341309849835277e-06,0.0001715738243627073,0.001091946061631457,0.00013233092861928358,2.3219549848728644e-05,0.0002946667677034386,-3.1222625181459675e-05,0.0009109417913025413,0.04592245817184448,18.304895401000977,-0.9418671131134033,-18.222078323364258,-0.5642600655555725,-2.2818026542663574,0.20724813640117645,0
48,0.23494243621826172,-0.04592245817184448,-18.304895401000977,0.9418671131134033,18.222078323364258,0.5642600655555725,2.2818026542663574,-0.20724813640117645,0.0,0.0,0.0,0.0,0.0,0.0,0.0,-0.05912266565207713,0.35508016442643586,0.09373710490653218,0.5957505153964617,0.13586505794388484,0.08973978408227863,-0.23106284638545427,-0.608968015828836,-0.057505261690470204,-0.6665296763382402,-2.5947867484255016,-0.05577016935779691,2.507901097032759,0.8763191900144913,-0.6090851748156966,-0.05753196718556838,-0.666603097082616,-2.5945565370258534,-0.05562143941554,2.507976027223799,0.8763108487046415,-0.0001715738243627073,-0.001091946061631457,-0.00013233092861928358,-2.3219549848728644e-05,-0.0002946667677034386,3.1222625181459675e-05,-0.0009109417913025413,0.0,0.0,0.0,0.0,0.0,0.0,0.0,-0.00011715898686059933,-2.67054950981796e-05,-7.342074437577395e-05,0.0002302113996481836,0.0001487299422569116,7.493019103987919e-05,-8.341309849835277e-06,0.0001715738243627073,0.001091946061631457,0.00013233092861928358,2.3219549848728644e-05,0.0002946667677034386,-3.1222625181459675e-05,0.0009109417913025413,0.04592245817184448,18.304895401000977,-0.9418671131134033,-18.222078323364258,-0.5642600655555725,-2.2818026542663574,0.20724813640117645,0
49,0.2399458885192871,-0.12130087614059448,-18.328699111938477,0.8942596912384033,18.170503616333008,0.5642600655555725,2.2753939628601074,-0.25485557317733765,0.0,0.0,0.0,0.0,0.0,0.0,0.0,-0.06708138040496289,0.34843626060044136,0.08938337359270686,0.6001802102944264,0.13654346781541213,0.0915679618115525,-0.23163046419351935,-0.6089655367240818,-0.05750359125461494,-0.6665263089716884,-2.5947831282030127,-0.05577016887069023,2.507901809109582,0.8763244798911932,-0.6090851748156966,-0.05753196718556838,-0.666603097082616,-2.5945565370258534,-0.05562143941554,2.507976027223799,0.8763108487046415,0.000880316648089922,-7.28418144587927e-05,0.00037282759353607494,0.0017911169385411284,-0.0002455857773069846,7.560160718344535e-05,0.0009510672712182261,0.0,0.0,0.0,0.0,0.0,0.0,0.0,-0.00011963809161474881,-2.837593095344343e-05,-7.678811092759474e-05,0.00022659117715928545,0.00014872945515023023,7.42181142170395e-05,-1.3631186551732455e-05,-0.000880316648089922,7.28418144587927e-05,-0.00037282759353607494,-0.0017911169385411284,0.0002455857773069846,-7.560160718344535e-05,-0.0009510672712182261,0.12130087614059448,18.328699111938477,-0.8942596912384033,-18.170503616333008,-0.5642600655555725,-2.2753939628601074,0.25485557317733765,0
50,0.2449488639831543,-0.12130087614059448,-18.328699111938477,0.8942596912384033,18.170503616333008,0.5642600655555725,2.2753939628601074,-0.25485557317733765,0.0,0.0,0.0,0.0,0.0,0.0,0.0,-0.06708138040496289,0.34843626060044136,0.08938337359270686,0.6001802102944264,0.13654346781541213,0.0915679618115525,-0.23163046419351935,-0.6089655367240818,-0.05750359125461494,-0.6665263089716884,-2.5947831282030127,-0.05577016887069023,2.507901809109582,0.8763244798911932,-0.6090851748156966,-0.05753196718556838,-0.666603097082616,-2.5945565370258534,-0.05562143941554,2.507976027223799,0.8763108487046415,0.000880316648089922,-7.28418144587927e-05,0.00037282759353607494,0.0017911169385411284,-0.0002455857773069846,7.560160718344535e-05,0.0009510672712182261,0.0,0.0,0.0,0.0,0.0,0.0,0.0,-0.00011963809161474881,-2.837593095344343e-05,-7.678811092759474e-05,0.00022659117715928545,0.00014872945515023023,7.42181142170395e-05,-1.3631186551732455e-05,-0.000880316648089922,7.28418144587927e-05,-0.00037282759353607494,-0.0017911169385411284,0.0002455857773069846,-7.560160718344535e-05,-0.0009510672712182261,0.12130087614059448,18.328699111938477,-0.8942596912384033,-18.170503616333008,-0.5642600655555725,-2.2753939628601074,0.25485557317733765,0
51,0.24994301795959473,-0.06972616910934448,-18.277124404907227,0.8704559803009033,18.170503616333008,0.5578513741493225,2.2689852714538574,-0.22830526530742645,0.0,0.0,0.0,0.0,0.0,0.0,0.0,-0.06092232490242689,0.35845040603234657,0.09896687749185319,0.5904296324793259,0.13551639845884192,0.09012102279396769,-0.22990903484245478,-0.6089663454086527,-0.05750728954524866,-0.6665246414791228,-2.5947831282030074,-0.05577087675422991,2.5079025211864048,0.8763215298569863,-0.6090851748156966,-0.05753196718556838,-0.666603097082616,-2.5945565370258534,-0.05562143941554,2.507976027223799,0.8763108487046415,2.543140384625303e-05,-9.617995254279451e-06,0.0011668363838610025,0.0006814606532097995,9.357027948217845e-05,2.46097535130383e-05,2.6295367560692255e-05,0.0,0.0,0.0,0.0,0.0,0.0,0.0,-0.00011882940704388556,-2.4677640319721583e-05,-7.845560349317715e-05,0.00022659117715395638,0.00014943733868991171,7.350603739419981e-05,-1.0681152344815814e-05,-2.543140384625303e-05,9.617995254279451e-06,-0.0011668363838610025,-0.0006814606532097995,-9.357027948217845e-05,-2.46097535130383e-05,-2.6295367560692255e-05,0.06972616910934448,18.277124404907227,-0.8704559803009033,-18.170503616333008,-0.5578513741493225,-2.2689852714538574,0.22830526530742645,0
52,0.2549409866333008,-0.06972616910934448,-18.277124404907227,0.8704559803009033,18.170503616333008,0.5578513741493225,2.2689852714538574,-0.22830526530742645,0.0,0.0,0.0,0.0,0.0,0.0,0.0,-0.06092232490242689,0.35845040603234657,0.09896687749185319,0.5904296324793259,0.13551639845884192,0.09012102279396769,-0.22990903484245478,-0.6089663454086527,-0.05750728954524866,-0.6665246414791228,-2.5947831282030074,-0.05577087675422991,2.5079025211864048,0.8763215298569863,-0.6090851748156966,-0.05753196718556838,-0.666603097082616,-2.5945565370258534,-0.05562143941554,2.507976027223799,0.8763108487046415,2.543140384625303e-05,-9.617995254279451e-06,0.0011668363838610025,0.0006814606532097995,9.357027948217845e-05,2.46097535130383e-05,2.6295367560692255e-05,0.0,0.0,0.0,0.0,0.0,0.0,0.0,-0.00011882940704388556,-2.4677640319721583e-05,-7.845560349317715e-05,0.00022659117715395638,0.00014943733868991171,7.350603739419981e-05,-1.0681152344815814e-05,-2.543140384625303e-05,9.617995254279451e-06,-0.0011668363838610025,-0.0006814606532097995,-9.357027948217845e-05,-2.46097535130383e-05,-2.6295367560692255e-05,0.06972616910934448,18.277124404907227,-0.8704559803009033,-18.170503616333008,-0.5578513741493225,-2.2689852714538574,0.22830526530742645,0
53,0.26003479957580566,-0.12130087614059448,-18.277124404907227,0.8942596912384033,18.198274612426758,0.5642600655555725,2.2753939628601074,-0.24112264811992645,0.0,0.0,0.0,0.0,0.0,0.0,0.0,-0.06969223134145204,0.35479795153067756,0.09194622658924186,0.5955483788829568,0.13643318974463056,0.08987092406620627,-0.22909427113554287,-0.6089634306932998,-0.05750721053274738,-0.6665263089715554,-2.5947850770448384,-0.055770681953171856,2.507901809109582,0.8763229540106322,-0.6090851748156966,-0.05753196718556838,-0.666603097082616,-2.5945565370258534,-0.05562143941554,2.507976027223799,0.8763108487046415,0.000934636519115507,4.756516356432661e-05,0.000134246035646369,-0.0002875449874835119,-0.00019269219980243388,-0.0002792777739971552,0.00042742406114634887,0.0,0.0,0.0,0.0,0.0,0.0,0.0,-0.0001217441223967386,-2.4756652821006364e-05,-7.678811106059946e-05,0.00022854001898497955,0.00014924253763185652,7.42181142170395e-05,-1.2105305990717241e-05,-0.000934636519115507,-4.756516356432661e-05,-0.000134246035646369,0.0002875449874835119,0.00019269219980243388,0.0002792777739971552,-0.00042742406114634887,0.12130087614059448,18.277124404907227,-0.8942596912384033,-18.198274612426758,-0.5642600655555725,-2.2753939628601074,0.24112264811992645,0
54,0.2649409770965576,-0.12130087614059448,-18.277124404907227,0.8942596912384033,18.198274612426758,0.5642600655555725,2.2753939628601074,-0.24112264811992645,0.0,0.0,0.0,0.0,0.0,0.0,0.0,-0.06969223134145204,0.35479795153067756,0.09194622658924186,0.5955483788829568,0.13643318974463056,0.08987092406620627,-0.22909427113554287,-0.6089634306932998,-0.05750721053274738,-0.6665263089715554,-2.5947850770448384,-0.055770681953171856,2.507901809109582,0.8763229540106322,-0.6090851748156966,-0.05753196718556838,-0.666603097082616,-2.5945565370258534,-0.05562143941554,2.507976027223799,0.8763108487046415,0.000934636519115507,4.756516356432661e-05,0.000134246035646369,-0.0002875449874835119,-0.00019269219980243388,-0.0002792777739971552,0.00042742406114634887,0.0,0.0,0.0,0.0,0.0,0.0,0.0,-0.0001217441223967386,-2.4756652821006364e-05,-7.678811106059946e-05,0.00022854001898497955,0.00014924253763185652,7.42181142170395e-05,-1.2105305990717241e-05,-0.000934636519115507,-4.756516356432661e-05,-0.000134246035646369,0.0002875449874835119,0.00019269219980243388,0.0002792777739971552,-0.00042742406114634887,0.12130087614059448,18.277124404907227,-0.8942596912384033,-18.198274612426758,-0.5642600655555725,-2.2753939628601074,0.24112264811992645,0
55,0.27004051208496094,-0.06972616910934448,-18.328699111938477,0.8704559803009033,18.269685745239258,0.5578513741493225,2.2689852714538574,-0.24112264811992645,0.0,0.0,0.0,0.0,0.0,0.0,0.0,-0.06749153078786936,0.35834094333480987,0.09668706822210534,0.5992992482829488,0.13664193714021494,0.09021077319493365,-0.22815771344552244,-0.6089663450757717,-0.05750359125461494,-0.6665246385356837,-2.594790088352404,-0.05576945825712469,2.5079025211864048,0.8763229540106322,-0.6090851748156966,-0.05753196718556838,-0.666603097082616,-2.5945565370258534,-0.05562143941554,2.507976027223799,0.8763108487046415,-0.0003529123236978905,0.0008331888176187944,0.0011094804103896382,-0.0008236009458125346,0.0001506917970569195,0.0003080765052167696,0.0006988169744608774,0.0,0.0,0.0,0.0,0.0,0.0,0.0,-0.00011882973992483059,-2.837593095344343e-05,-7.845854693233623e-05,0.00023355132655078492,0.00014801884158469059,7.350603739419981e-05,-1.2105305990717241e-05,0.0003529123236978905,-0.0008331888176187944,-0.0011094804103896382,0.0008236009458125346,-0.0001506917970569195,-0.0003080765052167696,-0.0006988169744608774,0.06972616910934448,18.328699111938477,-0.8704559803009033,-18.269685745239258,-0.5578513741493225,-2.2689852714538574,0.24112264811992645,0
56,0.27494311332702637,-0.06972616910934448,-18.328699111938477,0.8704559803009033,18.269685745239258,0.5578513741493225,2.2689852714538574,-0.24112264811992645,0.0,0.0,0.0,0.0,0.0,0.0,0.0,-0.06749153078786936,0.35834094333480987,0.09668706822210534,0.5992992482829488,0.13664193714021494,0.09021077319493365,-0.22815771344552244,-0.6089663450757717,-0.05750359125461494,-0.6665246385356837,-2.594790088352404,-0.05576945825712469,2.5079025211864048,0.8763229540106322,-0.6090851748156966,-0.05753196718556838,-0.666603097082616,-2.5945565370258534,-0.05562143941554,2.507976027223799,0.8763108487046415,-0.0003529123236978905,0.0008331888176187944,0.0011094804103896382,-0.0008236009458125346,0.0001506917970569195,0.0003080765052167696,0.0006988169744608774,0.0,0.0,0.0,0.0,0.0,0.0,0.0,-0.00011882973992483059,-2.837593095344343e-05,-7.845854693233623e-05,0.00023355132655078492,0.00014801884158469059,7.350603739419981e-05,-1.2105305990717241e-05,0.0003529123236978905,-0.0008331888176187944,-0.0011094804103896382,0.0008236009458125346,-0.0001506917970569195,-0.0003080765052167696,-0.0006988169744608774,0.06972616910934448,18.328699111938477,-0.8704559803009033,-18.269685745239258,-0.5578513741493225,-2.2689852714538574,0.24112264811992645,0
57,0.2799396514892578,-0.06972616910934448,-18.376306533813477,0.8942596912384033,18.222078323364258,0.5523582100868225,2.2689852714538574,-0.20083944499492645,0.0,0.0,0.0,0.0,0.0,0.0,0.0,-0.07023815065397694,0.3534645935470671,0.09411415315543478,0.5979815503634027,0.13653415991568865,0.09078598643709414,-0.22791851995062978,-0.6089666571833504,-0.057500970278646646,-0.6665263089715389,-2.594788813775046,-0.055769319654257014,2.5079025211864048,0.8763184780991738,-0.6090851748156966,-0.05753196718556838,-0.666603097082616,-2.5945565370258534,-0.05562143941554,2.507976027223799,0.8763108487046415,0.00012062721777349877,0.0004154599028682143,-1.2614495628049176e-05,-0.00036670301659418226,0.00011239630127308149,0.0002528872501420465,-0.0010058268891746337,0.0,0.0,0.0,0.0,0.0,0.0,0.0,-0.00011851763234616008,-3.099690692173751e-05,-7.678811107714179e-05,0.00023227674919246155,0.00014788023871701445,7.350603739419981e-05,-7.629394532360223e-06,-0.00012062721777349877,-0.0004154599028682143,1.2614495628049176e-05,0.00036670301659418226,-0.00011239630127308149,-0.0002528872501420465,0.0010058268891746337,0.06972616910934448,18.376306533813477,-0.8942596912384033,-18.222078323364258,-0.5523582100868225,-2.2689852714538574,0.20083944499492645,0
58,0.2849609851837158,-0.06972616910934448,-18.376306533813477,0.8942596912384033,18.222078323364258,0.5523582100868225,2.2689852714538574,-0.20083944499492645,0.0,0.0,0.0,0.0,0.0,0.0,0.0,-0.07023815065397694,0.3534645935470671,0.09411415315543478,0.5979815503634027,0.13653415991568865,0.09078598643709414,-0.22791851995062978,-0.6089666571833504,-0.057500970278646646,-0.6665263089715389,-2.594788813775046,-0.055769319654257014,2.5079025211864048,0.8763184780991738,-0.6090851748156966,-0.05753196718556838,-0.666603097082616,-2.5945565370258534,-0.05562143941554,2.507976027223799,0.8763108487046415,0.00012062721777349877,0.0004154599028682143,-1.2614495628049176e-05,-0.00036670301659418226,0.00011239630127308149,0.0002528872501420465,-0.0010058268891746337,0.0,0.0,0.0,0.0,0.0,0.0,0.0,-0.00011851763234616008,-3.099690692173751e-05,-7.678811107714179e-05,0.00023227674919246155,0.00014788023871701445,7.350603739419981e-05,-7.629394532360223e-06,-0.00012062721777349877,-0.0004154599028682143,1.2614495628049176e-05,0.00036670301659418226,-0.00011239630127308149,-0.0002528872501420465,0.0010058268891746337,0.06972616910934448,18.376306533813477,-0.8942596912384033,-18.222078323364258,-0.5523582100868225,-2.2689852714538574,0.20083944499492645,0
59,0.2899587154388428,-0.018151462078094482,-18.328699111938477,0.9180634021759033,18.222078323364258,0.5523582100868225,2.2882113456726074,-0.26858848333358765,0.0,0.0,0.0,0.0,0.0,0.0,0.0,-0.06673234816389581,0.35499488373593624,0.09673227037959929,0.5938698705251075,0.13556069840671864,0.0904970606813151,-0.228295314313103,-0.608969967240172,-0.05750359125867877,-0.6665279794073942,-2.594786750326781,-0.05577205340379644,2.507900384955936,0.8763260057701003,-0.6090851748156966,-0.05753196718556838,-0.666603097082616,-2.5945565370258534,-0.05562143941554,2.507976027223799,0.8763108487046415,-0.0010289418641086577,-0.0004798247696225204,0.00013092642777530328,-0.00029947266377877756,0.00017815104391589908,-0.00036467340847214655,0.0015866663310472827,0.0,0.0,0.0,0.0,0.0,0.0,0.0,-0.00011520757552452299,-2.8375926889610825e-05,-7.511767522183632e-05,0.00023021330092776182,0.0001506139882564428,7.564226786316297e-05,-1.5157065458848429e-05,0.0010289418641086577,0.0004798247696225204,-0.00013092642777530328,0.00029947266377877756,-0.00017815104391589908,0.00036467340847214655,-0.0015866663310472827,0.018151462078094482,18.328699111938477,-0.9180634021759033,-18.222078323364258,-0.5523582100868225,-2.2882113456726074,0.26858848333358765,0
60,0.29497575759887695,-0.018151462078094482,-18.328699111938477,0.9180634021759033,18.222078323364258,0.5523582100868225,2.2882113456726074,-0.26858848333358765,0.0,0.0,0.0,0.0,0.0,0.0,0.0,-0.06673234816389581,0.35499488373593624,0.09673227037959929,0.5938698705251075,0.13556069840671864,0.0904970606813151,-0.228295314313103,-0.608969967240172,-0.05750359125867877,-0.6665279794073942,-2.594786750326781,-0.05577205340379644,2.507900384955936,0.8763260057701003,-0.6090851748156966,-0.05753196718556838,-0.666603097082616,-2.5945565370258534,-0.05562143941554,2.507976027223799,0.8763108487046415,-0.0010289418641086577,-0.0004798247696225204,0.00013092642777530328,-0.00029947266377877756,0.00017815104391589908,-0.00036467340847214655,0.0015866663310472827,0.0,0.0,0.0,0.0,0.0,0.0,0.0,-0.00011520757552452299,-2.8375926889610825e-05,-7.511767522183632e-05,0.00023021330092776182,0.0001506139882564428,7.564226786316297e-05,-1.5157065458848429e-05,0.0010289418641086577,0.0004798247696225204,-0.00013092642777530328,0.00029947266377877756,-0.00017815104391589908,0.00036467340847214655,-0.0015866663310472827,0.018151462078094482,18.328699111938477,-0.9180634021759033,-18.222078323364258,-0.5523582100868225,-2.2882113456726074,0.26858848333358765,0
61,0.3000485897064209,-0.018151462078094482,-18.277124404907227,0.8942596912384033,18.198274612426758,0.5642600655555725,2.2818026542663574,-0.20083944499492645,0.0,0.0,0.0,0.0,0.0,0.0,0.0,-0.06425585020738658,0.34633973482426184,0.09949694632758323,0.5973466792480254,0.13515846288681957,0.09168401843949522,-0.22976912598099433,-0.6089699906708678,-0.057507210532301366,-0.6665263089715389,-2.5947850770448544,-0.055773364164703854,2.507901097032759,0.8763184780991738,-0.6090851748156966,-0.05753196718556838,-0.666603097082616,-2.5945565370258534,-0.05562143941554,2.507976027223799,0.8763108487046415,-0.0004789214965721388,-0.0010291037764766507,0.0005023228482396547,0.0008548913872750909,-0.00023054001490362897,-0.000169341027221148,-0.0007088974324569609,0.0,0.0,0.0,0.0,0.0,0.0,0.0,-0.00011518414482880601,-2.4756653267017648e-05,-7.678811107714179e-05,0.00022854001900096677,0.00015192474916385368,7.493019103987919e-05,-7.629394532360223e-06,0.0004789214965721388,0.0010291037764766507,-0.0005023228482396547,-0.0008548913872750909,0.00023054001490362897,0.000169341027221148,0.0007088974324569609,0.018151462078094482,18.277124404907227,-0.8942596912384033,-18.198274612426758,-0.5642600655555725,-2.2818026542663574,0.20083944499492645,0
62,0.304943323135376,-0.018151462078094482,-18.277124404907227,0.8942596912384033,18.198274612426758,0.5642600655555725,2.2818026542663574,-0.20083944499492645,0.0,0.0,0.0,0.0,0.0,0.0,0.0,-0.06425585020738658,0.34633973482426184,0.09949694632758323,0.5973466792480254,0.13515846288681957,0.09168401843949522,-0.22976912598099433,-0.6089699906708678,-0.057507210532301366,-0.6665263089715389,-2.5947850770448544,-0.055773364164703854,2.507901097032759,0.8763184780991738,-0.6090851748156966,-0.05753196718556838,-0.666603097082616,-2.5945565370258534,-0.05562143941554,2.507976027223799,0.8763108487046415,-0.0004789214965721388,-0.0010291037764766507,0.0005023228482396547,0.0008548913872750909,-0.00023054001490362897,-0.000169341027221148,-0.0007088974324569609,0.0,0.0,0.0,0.0,0.0,0.0,0.0,-0.00011518414482880601,-2.4756653267017648e-05,-7.678811107714179e-05,0.00022854001900096677,0.00015192474916385368,7.493019103987919e-05,-7.629394532360223e-06,0.0004789214965721388,0.0010291037764766507,-0.0005023228482396547,-0.0008548913872750909,0.00023054001490362897,0.000169341027221148,0.0007088974324569609,0.018151462078094482,18.277124404907227,-0.8942596912384033,-18.198274612426758,-0.5642600655555725,-2.2818026542663574,0.20083944499492645,0
63,0.30994224548339844,-0.018151462078094482,-18.277124404907227,0.8942596912384033,18.245882034301758,0.5642600655555725,2.2689852714538574,-0.25485557317733765,0.0,0.0,0.0,0.0,0.0,0.0,0.0,-0.06251458262499812,0.3491257535509454,0.09752806957230224,0.5929084425949535,0.1352593435885559,0.09163372556355573,-0.22903106089001538,-0.6089720703804097,-0.057507210532301345,-0.6665263089715389,-2.594788417916549,-0.05577017083587669,2.5079025211864048,0.8763244798911941,-0.6090851748156966,-0.05753196718556838,-0.666603097082616,-2.5945565370258534,-0.05562143941554,2.507976027223799,0.8763108487046415,-0.000903568852393722,-0.00011109750507540393,0.0003186268819437801,-0.00068495360170781,-0.00022884717098330137,0.00011784923980243716,0.0009763584063844708,0.0,0.0,0.0,0.0,0.0,0.0,0.0,-0.00011310443528689262,-2.4756653267038464e-05,-7.678811107714179e-05,0.00023188089069536844,0.00014873142033668824,7.350603739419981e-05,-1.3631186552620633e-05,0.000903568852393722,0.00011109750507540393,-0.0003186268819437801,0.00068495360170781,0.00022884717098330137,-0.00011784923980243716,-0.0009763584063844708,0.018151462078094482,18.277124404907227,-0.8942596912384033,-18.245882034301758,-0.5642600655555725,-2.2689852714538574,0.25485557317733765,0
64,0.3149406909942627,-0.018151462078094482,-18.277124404907227,0.8942596912384033,18.245882034301758,0.5642600655555725,2.2689852714538574,-0.25485557317733765,0.0,0.0,0.0,0.0,0.0,0.0,0.0,-0.06251458262499812,0.3491257535509454,0.09752806957230224,0.5929084425949535,0.1352593435885559,0.09163372556355573,-0.22903106089001538,-0.6089720703804097,-0.057507210532301345,-0.6665263089715389,-2.594788417916549,-0.05577017083587669,2.5079025211864048,0.8763244798911941,-0.6090851748156966,-0.05753196718556838,-0.666603097082616,-2.5945565370258534,-0.05562143941554,2.507976027223799,0.8763108487046415,-0.000903568852393722,-0.00011109750507540393,0.0003186268819437801,-0.00068495360170781,-0.00022884717098330137,0.00011784923980243716,0.0009763584063844708,0.0,0.0,0.0,0.0,0.0,0.0,0.0,-0.00011310443528689262,-2.4756653267038464e-05,-7.678811107714179e-05,0.00023188089069536844,0.00014873142033668824,7.350603739419981e-05,-1.3631186552620633e-05,0.000903568852393722,0.00011109750507540393,-0.0003186268819437801,0.00068495360170781,0.00022884717098330137,-0.00011784923980243716,-0.0009763584063844708,0.018151462078094482,18.277124404907227,-0.8942596912384033,-18.245882034301758,-0.5642600655555725,-2.2689852714538574,0.25485557317733765,0
65,0.3199450969696045,-0.09352988004684448,-18.304895401000977,0.9180634021759033,18.222078323364258,0.5523582100868225,2.2753939628601074,-0.26858848333358765,0.0,0.0,0.0,0.0,0.0,0.0,0.0,-0.06235958723116591,0.3517949891352407,0.09358157017757726,0.595220502286887,0.13523174232952584,0.09069333996359025,-0.22804586385199838,-0.6089646746755659,-0.057505261690470204,-0.6665279794073942,-2.594788813775046,-0.05576885131018497,2.507901809109582,0.8763260057701003,-0.6090851748156966,-0.05753196718556838,-0.666603097082616,-2.5945565370258534,-0.05562143941554,2.507976027223799,0.8763108487046415,0.0004167481924461596,0.0005233432080987934,-8.205912522344729e-05,-0.00018065512163533315,0.00010241978625713371,-9.26049110107559e-05,0.0014609056344846137,0.0,0.0,0.0,0.0,0.0,0.0,0.0,-0.00012050014013065269,-2.67054950981796e-05,-7.511767522183632e-05,0.00023227674919246155,0.0001474118946449693,7.42181142170395e-05,-1.5157065458848429e-05,-0.0004167481924461596,-0.0005233432080987934,8.205912522344729e-05,0.00018065512163533315,-0.00010241978625713371,9.26049110107559e-05,-0.0014609056344846137,0.09352988004684448,18.304895401000977,-0.9180634021759033,-18.222078323364258,-0.5523582100868225,-2.2753939628601074,0.26858848333358765,0
66,0.3249533176422119,-0.09352988004684448,-18.304895401000977,0.9180634021759033,18.222078323364258,0.5523582100868225,2.2753939628601074,-0.26858848333358765,0.0,0.0,0.0,0.0,0.0,0.0,0.0,-0.06235958723116591,0.3517949891352407,0.09358157017757726,0.595220502286887,0.13523174232952584,0.09069333996359025,-0.22804586385199838,-0.6089646746755659,-0.057505261690470204,-0.6665279794073942,-2.594788813775046,-0.05576885131018497,2.507901809109582,0.8763260057701003,-0.6090851748156966,-0.05753196718556838,-0.666603097082616,-2.5945565370258534,-0.05562143941554,2.507976027223799,0.8763108487046415,0.0004167481924461596,0.0005233432080987934,-8.205912522344729e-05,-0.00018065512163533315,0.00010241978625713371,-9.26049110107559e-05,0.0014609056344846137,0.0,0.0,0.0,0.0,0.0,0.0,0.0,-0.00012050014013065269,-2.67054950981796e-05,-7.511767522183632e-05,0.00023227674919246155,0.0001474118946449693,7.42181142170395e-05,-1.5157065458848429e-05,-0.0004167481924461596,-0.0005233432080987934,8.205912522344729e-05,0.00018065512163533315,-0.00010241978625713371,9.26049110107559e-05,-0.0014609056344846137,0.09352988004684448,18.304895401000977,-0.9180634021759033,-18.222078323364258,-0.5523582100868225,-2.2753939628601074,0.26858848333358765,0
67,0.32995033264160156,-0.09352988004684448,-18.304895401000977,0.9180634021759033,18.222078323364258,0.5523582100868225,2.2753939628601074,-0.26858848333358765,0.0,0.0,0.0,0.0,0.0,0.0,0.0,-0.06235958723116591,0.3517949891352407,0.09358157017757726,0.595220502286887,0.13523174232952584,0.09069333996359025,-0.22804586385199838,-0.6089646746755659,-0.057505261690470204,-0.6665279794073942,-2.594788813775046,-0.05576885131018497,2.507901809109582,0.8763260057701003,-0.6090851748156966,-0.05753196718556838,-0.666603097082616,-2.5945565370258534,-0.05562143941554,2.507976027223799,0.8763108487046415,0.0004167481924461596,0.0005233432080987934,-8.205912522344729e-05,-0.00018065512163533315,0.00010241978625713371,-9.26049110107559e-05,0.0014609056344846137,0.0,0.0,0.0,0.0,0.0,0.0,0.0,-0.00012050014013065269,-2.67054950981796e-05,-7.511767522183632e-05,0.00023227674919246155,0.0001474118946449693,7.42181142170395e-05,-1.5157065458848429e-05,-0.0004167481924461596,-0.0005233432080987934,8.205912522344729e-05,0.00018065512163533315,-0.00010241978625713371,9.26049110107559e-05,-0.0014609056344846137,0.09352988004684448,18.304895401000977,-0.9180634021759033,-18.222078323364258,-0.5523582100868225,-2.2753939628601074,0.26858848333358765,0
68,0.3349418640136719,-0.09352988004684448,-18.304895401000977,0.9180634021759033,18.222078323364258,0.5523582100868225,2.2753939628601074,-0.26858848333358765,0.0,0.0,0.0,0.0,0.0,0.0,0.0,-0.06235958723116591,0.3517949891352407,0.09358157017757726,0.595220502286887,0.13523174232952584,0.09069333996359025,-0.22804586385199838,-0.6089646746755659,-0.057505261690470204,-0.6665279794073942,-2.594788813775046,-0.05576885131018497,2.507901809109582,0.8763260057701003,-0.6090851748156966,-0.05753196718556838,-0.666603097082616,-2.5945565370258534,-0.05562143941554,2.507976027223799,0.8763108487046415,0.0004167481924461596,0.0005233432080987934,-8.205912522344729e-05,-0.00018065512163533315,0.00010241978625713371,-9.26049110107559e-05,0.0014609056344846137,0.0,0.0,0.0,0.0,0.0,0.0,0.0,-0.00012050014013065269,-2.67054950981796e-05,-7.511767522183632e-05,0.00023227674919246155,0.0001474118946449693,7.42181142170395e-05,-1.5157065458848429e-05,-0.0004167481924461596,-0.0005233432080987934,8.205912522344729e-05,0.00018065512163533315,-0.00010241978625713371,9.26049110107559e-05,-0.0014609056344846137,0.09352988004684448,18.304895401000977,-0.9180634021759033,-18.222078323364258,-0.5523582100868225,-2.2753939628601074,0.26858848333358765,0
69,0.3399477005004883,-0.09352988004684448,-18.304895401000977,0.8942596912384033,18.198274612426758,0.5578513741493225,2.2818026542663574,-0.20083944499492645,0.0,0.0,0.0,0.0,0.0,0.0,0.0,-0.06480704712750887,0.3485447774270652,0.093405361209699,0.5991631027295524,0.13460297502870502,0.09127561214098594,-0.2290081242720575,-0.6089646746359375,-0.057505261690470204,-0.6665263089715389,-2.594785077056503,-0.055770652885901315,2.507901097032759,0.8763181248864641,-0.6090851748156966,-0.05753196718556838,-0.666603097082616,-2.5945565370258534,-0.05562143941554,2.507976027223799,0.8763108487046415,0.00033880085032087485,-0.0006583728423710874,0.0002984335657972891,0.0006023431737337013,-4.107324843935859e-05,1.2093892288901643e-05,-0.0009974574106100254,0.0,0.0,0.0,0.0,0.0,0.0,0.0,-0.00012050017975906435,-2.67054950981796e-05,-7.678811107714179e-05,0.00022854003064942674,0.0001492134703613146,7.493019103987919e-05,-7.276181822613026e-06,-0.00033880085032087485,0.0006583728423710874,-0.0002984335657972891,-0.0006023431737337013,4.107324843935859e-05,-1.2093892288901643e-05,0.0009974574106100254,0.09352988004684448,18.304895401000977,-0.8942596912384033,-18.198274612426758,-0.5578513741493225,-2.2818026542663574,0.20083944499492645,0
70,0.3449442386627197,-0.09352988004684448,-18.304895401000977,0.8942596912384033,18.198274612426758,0.5578513741493225,2.2818026542663574,-0.20083944499492645,0.0,0.0,0.0,0.0,0.0,0.0,0.0,-0.06480704712750887,0.3485447774270652,0.093405361209699,0.5991631027295524,0.13460297502870502,0.09127561214098594,-0.2290081242720575,-0.6089646746359375,-0.057505261690470204,-0.6665263089715389,-2.594785077056503,-0.055770652885901315,2.507901097032759,0.8763181248864641,-0.6090851748156966,-0.05753196718556838,-0.666603097082616,-2.5945565370258534,-0.05562143941554,2.507976027223799,0.8763108487046415,0.00033880085032087485,-0.0006583728423710874,0.0002984335657972891,0.0006023431737337013,-4.107324843935859e-05,1.2093892288901643e-05,-0.0009974574106100254,0.0,0.0,0.0,0.0,0.0,0.0,0.0,-0.00012050017975906435,-2.67054950981796e-05,-7.678811107714179e-05,0.00022854003064942674,0.0001492134703613146,7.493019103987919e-05,-7.276181822613026e-06,-0.00033880085032087485,0.0006583728423710874,-0.0002984335657972891,-0.0006023431737337013,4.107324843935859e-05,-1.2093892288901643e-05,0.0009974574106100254,0.09352988004684448,18.304895401000977,-0.8942596912384033,-18.198274612426758,-0.5578513741493225,-2.2818026542663574,0.20083944499492645,0
71,0.34995508193969727,-0.04592245817184448,-18.328699111938477,0.9418671131134033,18.269685745239258,0.5642600655555725,2.2882113456726074,-0.26858848333358765,0.0,0.0,0.0,0.0,0.0,0.0,0.0,-0.06389360717800582,0.3500950923030873,0.09707775942356449,0.5981544511733371,0.13420843452346376,0.09257392870206399,-0.2294254733483231,-0.6089680241744413,-0.05750359125461494,-0.6665296498432494,-2.5947903179756584,-0.055770523962183995,2.507900384955936,0.8763260057681065,-0.6090851748156966,-0.05753196718556838,-0.666603097082616,-2.5945565370258534,-0.05562143941554,2.507976027223799,0.8763108487046415,-0.0006934347105105881,7.737805767137389e-05,-0.0010135951365956538,-0.001008742619937166,-0.00011644705487969064,-0.0003120376971100075,0.001148635877332211,0.0,0.0,0.0,0.0,0.0,0.0,0.0,-0.00011715064125528141,-2.837593095344343e-05,-7.344723936664188e-05,0.00023378094980497366,0.00014908454664399468,7.564226786316297e-05,-1.5157063464998899e-05,0.0006934347105105881,-7.737805767137389e-05,0.0010135951365956538,0.001008742619937166,0.00011644705487969064,0.0003120376971100075,-0.001148635877332211,0.04592245817184448,18.328699111938477,-0.9418671131134033,-18.269685745239258,-0.5642600655555725,-2.2882113456726074,0.26858848333358765,0
72,0.35498046875,-0.04592245817184448,-18.328699111938477,0.9418671131134033,18.269685745239258,0.5642600655555725,2.2882113456726074,-0.26858848333358765,0.0,0.0,0.0,0.0,0.0,0.0,0.0,-0.06389360717800582,0.3500950923030873,0.09707775942356449,0.5981544511733371,0.13420843452346376,0.09257392870206399,-0.2294254733483231,-0.6089680241744413,-0.05750359125461494,-0.6665296498432494,-2.5947903179756584,-0.055770523962183995,2.507900384955936,0.8763260057681065,-0.6090851748156966,-0.05753196718556838,-0.666603097082616,-2.5945565370258534,-0.05562143941554,2.507976027223799,0.8763108487046415,-0.0006934347105105881,7.737805767137389e-05,-0.0010135951365956538,-0.001008742619937166,-0.00011644705487969064,-0.0003120376971100075,0.001148635877332211,0.0,0.0,0.0,0.0,0.0,0.0,0.0,-0.00011715064125528141,-2.837593095344343e-05,-7.344723936664188e-05,0.00023378094980497366,0.00014908454664399468,7.564226786316297e-05,-1.5157063464998899e-05,0.0006934347105105881,-7.737805767137389e-05,0.0010135951365956538,0.001008742619937166,0.00011644705487969064,0.0003120376971100075,-0.001148635877332211,0.04592245817184448,18.328699111938477,-0.9418671131134033,-18.269685745239258,-0.5642600655555725,-2.2882113456726074,0.26858848333358765,0
73,0.36105799674987793,-0.09352988004684448,-18.328699111938477,0.9418671131134033,18.222078323364258,0.5642600655555725,2.2689852714538574,-0.22098104655742645,0.0,0.0,0.0,0.0,0.0,0.0,0.0,-0.06316789424542953,0.3523882742746027,0.10020004840694176,0.5948246342937786,0.1345660510269992,0.09303516733203757,-0.23127218681468864,-0.6089646749569786,-0.0575035912907434,-0.6665296498432494,-2.59478674748199,-0.05577341526133666,2.5079025342683567,0.8763207146013529,-0.6090851748156966,-0.05753196718556838,-0.666603097082616,-2.5945565370258534,-0.05562143941554,2.507976027223799,0.8763108487046415,0.0008312794427589907,-7.997599447928532e-06,-0.0003367208308763225,0.00023422570224847613,-0.00023519886560142533,1.884424251096283e-05,-0.0006198455953060339,0.0,0.0,0.0,0.0,0.0,0.0,0.0,-0.00012049985871798174,-2.8375894824982095e-05,-7.344723936664188e-05,0.00023021045613669244,0.00015197584579666051,7.349295544223367e-05,-9.865896711369615e-06,-0.0008312794427589907,7.997599447928532e-06,0.0003367208308763225,-0.00023422570224847613,0.00023519886560142533,-1.884424251096283e-05,0.0006198455953060339,0.09352988004684448,18.328699111938477,-0.9418671131134033,-18.222078323364258,-0.5642600655555725,-2.2689852714538574,0.22098104655742645,0
74,0.364978551864624,-0.09352988004684448,-18.328699111938477,0.9418671131134033,18.222078323364258,0.5642600655555725,2.2689852714538574,-0.22098104655742645,0.0,0.0,0.0,0.0,0.0,0.0,0.0,-0.06316789424542953,0.3523882742746027,0.10020004840694176,0.5948246342937786,0.1345660510269992,0.09303516733203757,-0.23127218681468864,-0.6089646749569786,-0.0575035912907434,-0.6665296498432494,-2.59478674748199,-0.05577341526133666,2.5079025342683567,0.8763207146013529,-0.6090851748156966,-0.05753196718556838,-0.666603097082616,-2.5945565370258534,-0.05562143941554,2.507976027223799,0.8763108487046415,0.0008312794427589907,-7.997599447928532e-06,-0.0003367208308763225,0.00023422570224847613,-0.00023519886560142533,1.884424251096283e-05,-0.0006198455953060339,0.0,0.0,0.0,0.0,0.0,0.0,0.0,-0.00012049985871798174,-2.8375894824982095e-05,-7.344723936664188e-05,0.00023021045613669244,0.00015197584579666051,7.349295544223367e-05,-9.865896711369615e-06,-0.0008312794427589907,7.997599447928532e-06,0.0003367208308763225,-0.00023422570224847613,0.00023519886560142533,-1.884424251096283e-05,0.0006198455953060339,0.09352988004684448,18.328699111938477,-0.9418671131134033,-18.222078323364258,-0.5642600655555725,-2.2689852714538574,0.22098104655742645,0
75,0.3699514865875244,-0.06972616910934448,-18.304895401000977,0.8704559803009033,18.198274612426758,0.5523582100868225,2.2753939628601074,-0.22830526530742645,0.0,0.0,0.0,0.0,0.0,0.0,0.0,-0.06843196369270538,0.34882281118465586,0.09569244456197573,0.5961191874749561,0.1352606597210472,0.09213746853099537,-0.23270718057369866,-0.608966452283238,-0.05750527046968678,-0.6665246385356837,-2.5947850770448384,-0.05576991544690239,2.5079018091096557,0.8763215298569782,-0.6090851748156966,-0.05753196718556838,-0.666603097082616,-2.5945565370258534,-0.05562143941554,2.507976027223799,0.8763108487046415,0.00040748862576106765,-0.00046505953062056033,0.0010200267183870756,0.0006338161253606187,0.0002570530445278636,-0.00026483275777075945,-0.000300839329033634,0.0,0.0,0.0,0.0,0.0,0.0,0.0,-0.00011872253245859277,-2.669671588160366e-05,-7.845854693233623e-05,0.00022854001898497955,0.0001484760313623934,7.421811414332069e-05,-1.0681152336711186e-05,-0.00040748862576106765,0.00046505953062056033,-0.0010200267183870756,-0.0006338161253606187,-0.0002570530445278636,0.00026483275777075945,0.000300839329033634,0.06972616910934448,18.304895401000977,-0.8704559803009033,-18.198274612426758,-0.5523582100868225,-2.2753939628601074,0.22830526530742645,0
76,0.37495851516723633,-0.06972616910934448,-18.304895401000977,0.8704559803009033,18.198274612426758,0.5523582100868225,2.2753939628601074,-0.22830526530742645,0.0,0.0,0.0,0.0,0.0,0.0,0.0,-0.06843196369270538,0.34882281118465586,0.09569244456197573,0.5961191874749561,0.1352606597210472,0.09213746853099537,-0.23270718057369866,-0.608966452283238,-0.05750527046968678,-0.6665246385356837,-2.5947850770448384,-0.05576991544690239,2.5079018091096557,0.8763215298569782,-0.6090851748156966,-0.05753196718556838,-0.666603097082616,-2.5945565370258534,-0.05562143941554,2.507976027223799,0.8763108487046415,0.00040748862576106765,-0.00046505953062056033,0.0010200267183870756,0.0006338161253606187,0.0002570530445278636,-0.00026483275777075945,-0.000300839329033634,0.0,0.0,0.0,0.0,0.0,0.0,0.0,-0.00011872253245859277,-2.669671588160366e-05,-7.845854693233623e-05,0.00022854001898497955,0.0001484760313623934,7.421811414332069e-05,-1.0681152336711186e-05,-0.00040748862576106765,0.00046505953062056033,-0.0010200267183870756,-0.0006338161253606187,-0.0002570530445278636,0.00026483275777075945,0.000300839329033634,0.06972616910934448,18.304895401000977,-0.8704559803009033,-18.198274612426758,-0.5523582100868225,-2.2753939628601074,0.22830526530742645,0
77,0.37996506690979004,-0.018151462078094482,-18.328699111938477,0.9418671131134033,18.198274612426758,0.5578513741493225,2.2625765800476074,-0.23471395671367645,0.0,0.0,0.0,0.0,0.0,0.0,0.0,-0.06028700993709553,0.34773540420120747,0.10249361677169803,0.5963918131663102,0.13495374348079905,0.09103634986855838,-0.2331458127667905,-0.6089699644570817,-0.057503670267611814,-0.6665296498432494,-2.5947850770448384,-0.05576949671650864,2.5079032332632276,0.8763222419338093,-0.6090851748156966,-0.05753196718556838,-0.666603097082616,-2.5945565370258534,-0.05562143941554,2.507976027223799,0.8763108487046415,-0.00042755088442710275,0.0003889576447504697,-0.00030197936383130874,0.00034760624621226925,-3.6887495361753814e-05,0.00035546572692718984,-0.0001429185239448991,0.0,0.0,0.0,0.0,0.0,0.0,0.0,-0.00011521035861483675,-2.8296917956568968e-05,-7.344723936664188e-05,0.00022854001898497955,0.00014805730096863895,7.279396057136012e-05,-1.1393229167766528e-05,0.00042755088442710275,-0.0003889576447504697,0.00030197936383130874,-0.00034760624621226925,3.6887495361753814e-05,-0.00035546572692718984,0.0001429185239448991,0.018151462078094482,18.328699111938477,-0.9418671131134033,-18.198274612426758,-0.5578513741493225,-2.2625765800476074,0.23471395671367645,0
78,0.3849515914916992,-0.018151462078094482,-18.328699111938477,0.9418671131134033,18.198274612426758,0.5578513741493225,2.2625765800476074,-0.23471395671367645,0.0,0.0,0.0,0.0,0.0,0.0,0.0,-0.06028700993709553,0.34773540420120747,0.10249361677169803,0.5963918131663102,0.13495374348079905,0.09103634986855838,-0.2331458127667905,-0.6089699644570817,-0.057503670267611814,-0.6665296498432494,-2.5947850770448384,-0.05576949671650864,2.5079032332632276,0.8763222419338093,-0.6090851748156966,-0.05753196718556838,-0.666603097082616,-2.5945565370258534,-0.05562143941554,2.507976027223799,0.8763108487046415,-0.00042755088442710275,0.0003889576447504697,-0.00030197936383130874,0.00034760624621226925,-3.6887495361753814e-05,0.00035546572692718984,-0.0001429185239448991,0.0,0.0,0.0,0.0,0.0,0.0,0.0,-0.00011521035861483675,-2.8296917956568968e-05,-7.344723936664188e-05,0.00022854001898497955,0.00014805730096863895,7.279396057136012e-05,-1.1393229167766528e-05,0.00042755088442710275,-0.0003889576447504697,0.00030197936383130874,-0.00034760624621226925,3.6887495361753814e-05,-0.00035546572692718984,0.0001429185239448991,0.018151462078094482,18.328699111938477,-0.9418671131134033,-18.198274612426758,-0.5578513741493225,-2.2625765800476074,0.23471395671367645,0
79,0.3899567127227783,-0.09352988004684448,-18.277124404907227,0.9418671131134033,18.269685745239258,0.5578513741493225,2.2689852714538574,-0.23471395671367645,0.0,0.0,0.0,0.0,0.0,0.0,0.0,-0.06198455062766083,0.3461873417612486,0.0986945146101926,0.5964389110208488,0.1354641165742611,0.09014417472399626,-0.23322001088396088,-0.6089646746359378,-0.057507213784308994,-0.6665296498432494,-2.594790088352404,-0.055769575570342636,2.5079025211864048,0.8763222419338093,-0.6090851748156966,-0.05753196718556838,-0.666603097082616,-2.5945565370258534,-0.05562143941554,2.507976027223799,0.8763108487046415,0.000751230884283116,-0.001070479697796877,-0.00011773151181583468,-0.0011580359509066325,0.0002604867452323563,0.0002184396574972399,-0.00010432855985309269,0.0,0.0,0.0,0.0,0.0,0.0,0.0,-0.00012050017975873129,-2.4753401259389185e-05,-7.344723936664188e-05,0.00023355132655078492,0.0001481361548026361,7.350603739419981e-05,-1.1393229167766528e-05,-0.000751230884283116,0.001070479697796877,0.00011773151181583468,0.0011580359509066325,-0.0002604867452323563,-0.0002184396574972399,0.00010432855985309269,0.09352988004684448,18.277124404907227,-0.9418671131134033,-18.269685745239258,-0.5578513741493225,-2.2689852714538574,0.23471395671367645,0
