rezayati/contactInterpretation/dataset/franka_main/labeled_data/link6/b13_3.csv
index,time,tau_J0,tau_J1,tau_J2,tau_J3,tau_J4,tau_J5,tau_J6,tau_J_d0,tau_J_d1,tau_J_d2,tau_J_d3,tau_J_d4,tau_J_d5,tau_J_d6,tau_ext0,tau_ext1,tau_ext2,tau_ext3,tau_ext4,tau_ext5,tau_ext6,q0,q1,q2,q3,q4,q5,q6,q_d0,q_d1,q_d2,q_d3,q_d4,q_d5,q_d6,dq0,dq1,dq2,dq3,dq4,dq5,dq6,dq_d0,dq_d1,dq_d2,dq_d3,dq_d4,dq_d5,dq_d6,e0,e1,e2,e3,e4,e5,e6,de0,de1,de2,de3,de4,de5,de6,etau_J0,etau_J1,etau_J2,etau_J3,etau_J4,etau_J5,etau_J6,label
1,0.0,-0.6568843722343445,-34.16213607788086,-4.072781085968018,19.388460159301758,0.2786155343055725,1.796573281288147,-0.16604940593242645,0.0,0.0,0.0,0.0,0.0,0.0,0.0,-0.6668751232367349,-0.09179841521539134,-0.4969885222717912,0.3280920732941041,0.21913573057500543,-0.11425700180693373,-0.16213554273059547,1.054622851718936,0.32367058001788285,-0.39235895511430313,-2.1530236851430007,0.864626087129116,2.4659284931583714,0.5444968290223948,1.0544104758940245,0.3238615046091247,-0.39250456234122666,-2.153291787532338,0.8647539153680389,2.46587817577521,0.5445020185570556,-0.0003750780088594528,-9.583076727365121e-05,0.00027711252554341986,-8.174023438274463e-05,-0.00018547392348778187,-6.331246237733482e-05,0.00043249695906097873,0.0,0.0,0.0,0.0,0.0,0.0,0.0,-0.00021237582491151485,0.00019092459124187,-0.00014560722692352757,-0.0002681023893371659,0.00012782823892287798,-5.031738316141343e-05,5.189534660776651e-06,0.0003750780088594528,9.583076727365121e-05,-0.00027711252554341986,8.174023438274463e-05,0.00018547392348778187,6.331246237733482e-05,-0.00043249695906097873,0.6568843722343445,34.16213607788086,4.072781085968018,-19.388460159301758,-0.2786155343055725,-1.796573281288147,0.16604940593242645,0
2,0.004995584487915039,-0.6568843722343445,-34.16213607788086,-4.072781085968018,19.388460159301758,0.2786155343055725,1.796573281288147,-0.16604940593242645,0.0,0.0,0.0,0.0,0.0,0.0,0.0,-0.6668751232367349,-0.09179841521539134,-0.4969885222717912,0.3280920732941041,0.21913573057500543,-0.11425700180693373,-0.16213554273059547,1.054622851718936,0.32367058001788285,-0.39235895511430313,-2.1530236851430007,0.864626087129116,2.4659284931583714,0.5444968290223948,1.0544104758940245,0.3238615046091247,-0.39250456234122666,-2.153291787532338,0.8647539153680389,2.46587817577521,0.5445020185570556,-0.0003750780088594528,-9.583076727365121e-05,0.00027711252554341986,-8.174023438274463e-05,-0.00018547392348778187,-6.331246237733482e-05,0.00043249695906097873,0.0,0.0,0.0,0.0,0.0,0.0,0.0,-0.00021237582491151485,0.00019092459124187,-0.00014560722692352757,-0.0002681023893371659,0.00012782823892287798,-5.031738316141343e-05,5.189534660776651e-06,0.0003750780088594528,9.583076727365121e-05,-0.00027711252554341986,8.174023438274463e-05,0.00018547392348778187,6.331246237733482e-05,-0.00043249695906097873,0.6568843722343445,34.16213607788086,4.072781085968018,-19.388460159301758,-0.2786155343055725,-1.796573281288147,0.16604940593242645,0
3,0.009946823120117188,-0.6291133761405945,-34.16213607788086,-4.072781085968018,19.313081741333008,0.2786155343055725,1.802981972694397,-0.15964071452617645,0.0,0.0,0.0,0.0,0.0,0.0,0.0,-0.6704438237739146,-0.08221159972340841,-0.49747213746219615,0.31895118646619597,0.21950843600706016,-0.11484198137237216,-0.16120450622253377,1.054620902877105,0.32367364430687445,-0.39235919221243015,-2.1530190841903623,0.8646260871291159,2.4659277795553294,0.5444961947805311,1.0544104758940245,0.3238615046091247,-0.39250456234122666,-2.153291787532338,0.8647539153680389,2.46587817577521,0.5445020185570556,-0.0012649261428035277,-0.0007645504057038298,8.790090322888116e-05,0.0008924114915395713,-0.00014822054037243114,-0.00041037902389758947,-0.0002446918319938701,0.0,0.0,0.0,0.0,0.0,0.0,0.0,-0.00021042698308049168,0.0001878603022502645,-0.00014537012879650701,-0.00027270334197559976,0.000127828238922989,-4.960378011942268e-05,5.8237765244717465e-06,0.0012649261428035277,0.0007645504057038298,-8.790090322888116e-05,-0.0008924114915395713,0.00014822054037243114,0.00041037902389758947,0.0002446918319938701,0.6291133761405945,34.16213607788086,4.072781085968018,-19.313081741333008,-0.2786155343055725,-1.802981972694397,0.15964071452617645,0
4,0.014941692352294922,-0.6291133761405945,-34.16213607788086,-4.072781085968018,19.313081741333008,0.2786155343055725,1.802981972694397,-0.15964071452617645,0.0,0.0,0.0,0.0,0.0,0.0,0.0,-0.6704438237739146,-0.08221159972340841,-0.49747213746219615,0.31895118646619597,0.21950843600706016,-0.11484198137237216,-0.16120450622253377,1.054620902877105,0.32367364430687445,-0.39235919221243015,-2.1530190841903623,0.8646260871291159,2.4659277795553294,0.5444961947805311,1.0544104758940245,0.3238615046091247,-0.39250456234122666,-2.153291787532338,0.8647539153680389,2.46587817577521,0.5445020185570556,-0.0012649261428035277,-0.0007645504057038298,8.790090322888116e-05,0.0008924114915395713,-0.00014822054037243114,-0.00041037902389758947,-0.0002446918319938701,0.0,0.0,0.0,0.0,0.0,0.0,0.0,-0.00021042698308049168,0.0001878603022502645,-0.00014537012879650701,-0.00027270334197559976,0.000127828238922989,-4.960378011942268e-05,5.8237765244717465e-06,0.0012649261428035277,0.0007645504057038298,-8.790090322888116e-05,-0.0008924114915395713,0.00014822054037243114,0.00041037902389758947,0.0002446918319938701,0.6291133761405945,34.16213607788086,4.072781085968018,-19.313081741333008,-0.2786155343055725,-1.802981972694397,0.15964071452617645,0
5,0.019995689392089844,-0.6291133761405945,-34.09072494506836,-4.072781085968018,19.336885452270508,0.2786155343055725,1.783755898475647,-0.17337362468242645,0.0,0.0,0.0,0.0,0.0,0.0,0.0,-0.6557350867387115,-0.07277011687922466,-0.4865146545072453,0.3135916638657839,0.2191817653587705,-0.11572982520558381,-0.1624191124507709,1.054620902877105,0.32366628022750094,-0.3923589539042057,-2.1530200658653214,0.8646260876196892,2.465931028405825,0.5444998463963588,1.0544104758940245,0.3238615046091247,-0.39250456234122666,-2.153291787532338,0.8647539153680389,2.46587817577521,0.5445020185570556,-0.000301783679287906,-0.0013556866493588575,0.00023075101351752538,0.0004433129974234638,-0.00014426860087870426,0.00035124376519715634,0.00028715646855644305,0.0,0.0,0.0,0.0,0.0,0.0,0.0,-0.00021042698308049168,0.00019522438162378197,-0.00014560843702093873,-0.00027172166701650013,0.0001278277483497403,-5.285263061516332e-05,2.172160696756187e-06,0.000301783679287906,0.0013556866493588575,-0.00023075101351752538,-0.0004433129974234638,0.00014426860087870426,-0.00035124376519715634,-0.00028715646855644305,0.6291133761405945,34.09072494506836,4.072781085968018,-19.336885452270508,-0.2786155343055725,-1.783755898475647,0.17337362468242645,0
6,0.025004863739013672,-0.6291133761405945,-34.09072494506836,-4.072781085968018,19.336885452270508,0.2786155343055725,1.783755898475647,-0.17337362468242645,0.0,0.0,0.0,0.0,0.0,0.0,0.0,-0.6557350867387115,-0.07277011687922466,-0.4865146545072453,0.3135916638657839,0.2191817653587705,-0.11572982520558381,-0.1624191124507709,1.054620902877105,0.32366628022750094,-0.3923589539042057,-2.1530200658653214,0.8646260876196892,2.465931028405825,0.5444998463963588,1.0544104758940245,0.3238615046091247,-0.39250456234122666,-2.153291787532338,0.8647539153680389,2.46587817577521,0.5445020185570556,-0.000301783679287906,-0.0013556866493588575,0.00023075101351752538,0.0004433129974234638,-0.00014426860087870426,0.00035124376519715634,0.00028715646855644305,0.0,0.0,0.0,0.0,0.0,0.0,0.0,-0.00021042698308049168,0.00019522438162378197,-0.00014560843702093873,-0.00027172166701650013,0.0001278277483497403,-5.285263061516332e-05,2.172160696756187e-06,0.000301783679287906,0.0013556866493588575,-0.00023075101351752538,-0.0004433129974234638,0.00014426860087870426,-0.00035124376519715634,-0.00028715646855644305,0.6291133761405945,34.09072494506836,4.072781085968018,-19.336885452270508,-0.2786155343055725,-1.783755898475647,0.17337362468242645,0
7,0.029958724975585938,-0.5815059542655945,-34.16213607788086,-3.9735991954803467,19.412263870239258,0.2786155343055725,1.796573281288147,-0.19351522624492645,0.0,0.0,0.0,0.0,0.0,0.0,0.0,-0.6418323919510203,-0.08733069875639037,-0.47968084991368365,0.3218784558660593,0.21901462546841546,-0.11500802514765435,-0.16383877129415897,1.0546175620053944,0.3236735903478381,-0.39236594074451203,-2.153026015995529,0.8646260915987857,2.4659284916949513,0.5444988357331232,1.0544104758940245,0.3238615046091247,-0.39250456234122666,-2.153291787532338,0.8647539153680389,2.46587817577521,0.5445020185570556,-0.0005939396168170574,5.5907613210015624e-06,-0.0007979311406410876,-0.0010507326602584464,-0.00012942813967158163,-0.0001472606635594966,0.0011036152946567062,0.0,0.0,0.0,0.0,0.0,0.0,0.0,-0.00020708611136988075,0.0001879142612866147,-0.0001386215967146276,-0.00026577153680884535,0.00012782376925324357,-5.0315919741361625e-05,3.1828239324127594e-06,0.0005939396168170574,-5.5907613210015624e-06,0.0007979311406410876,0.0010507326602584464,0.00012942813967158163,0.0001472606635594966,-0.0011036152946567062,0.5815059542655945,34.16213607788086,3.9735991954803467,-19.412263870239258,-0.2786155343055725,-1.796573281288147,0.19351522624492645,0
8,0.03500103950500488,-0.5815059542655945,-34.16213607788086,-3.9735991954803467,19.412263870239258,0.2786155343055725,1.796573281288147,-0.19351522624492645,0.0,0.0,0.0,0.0,0.0,0.0,0.0,-0.6418323919510203,-0.08733069875639037,-0.47968084991368365,0.3218784558660593,0.21901462546841546,-0.11500802514765435,-0.16383877129415897,1.0546175620053944,0.3236735903478381,-0.39236594074451203,-2.153026015995529,0.8646260915987857,2.4659284916949513,0.5444988357331232,1.0544104758940245,0.3238615046091247,-0.39250456234122666,-2.153291787532338,0.8647539153680389,2.46587817577521,0.5445020185570556,-0.0005939396168170574,5.5907613210015624e-06,-0.0007979311406410876,-0.0010507326602584464,-0.00012942813967158163,-0.0001472606635594966,0.0011036152946567062,0.0,0.0,0.0,0.0,0.0,0.0,0.0,-0.00020708611136988075,0.0001879142612866147,-0.0001386215967146276,-0.00026577153680884535,0.00012782376925324357,-5.0315919741361625e-05,3.1828239324127594e-06,0.0005939396168170574,-5.5907613210015624e-06,0.0007979311406410876,0.0010507326602584464,0.00012942813967158163,0.0001472606635594966,-0.0011036152946567062,0.5815059542655945,34.16213607788086,3.9735991954803467,-19.412263870239258,-0.2786155343055725,-1.796573281288147,0.19351522624492645,0
9,0.03995013236999512,-0.6291133761405945,-34.16213607788086,-3.9497954845428467,19.360689163208008,0.2603049874305725,1.770938515663147,-0.17337362468242645,0.0,0.0,0.0,0.0,0.0,0.0,0.0,-0.6492473980310879,-0.08539071749404994,-0.48280158102211634,0.3154202793584137,0.22027732123169125,-0.11521353143056218,-0.16452069389982177,1.054620902877105,0.32367125620171483,-0.3923685655572828,-2.153022348221551,0.8646281216343327,2.465931339939435,0.5444973035548634,1.0544104758940245,0.3238615046091247,-0.39250456234122666,-2.153291787532338,0.8647539153680389,2.46587817577521,0.5445020185570556,0.0007265320756732592,-0.0004814258840459691,-0.0006930015652138915,-0.0003945320852064137,0.00047607912942820987,0.0002055228652433468,0.0005283841382871391,0.0,0.0,0.0,0.0,0.0,0.0,0.0,-0.00021042698308049168,0.00019024840740988758,-0.00013599678394388137,-0.00026943931078671213,0.00012579373370624758,-5.316416422518344e-05,4.715002192234863e-06,-0.0007265320756732592,0.0004814258840459691,0.0006930015652138915,0.0003945320852064137,-0.00047607912942820987,-0.0002055228652433468,-0.0005283841382871391,0.6291133761405945,34.16213607788086,3.9497954845428467,-19.360689163208008,-0.2603049874305725,-1.770938515663147,0.17337362468242645,0
10,0.044946908950805664,-0.6291133761405945,-34.16213607788086,-3.9497954845428467,19.360689163208008,0.2603049874305725,1.770938515663147,-0.17337362468242645,0.0,0.0,0.0,0.0,0.0,0.0,0.0,-0.6492473980310879,-0.08539071749404994,-0.48280158102211634,0.3154202793584137,0.22027732123169125,-0.11521353143056218,-0.16452069389982177,1.054620902877105,0.32367125620171483,-0.3923685655572828,-2.153022348221551,0.8646281216343327,2.465931339939435,0.5444973035548634,1.0544104758940245,0.3238615046091247,-0.39250456234122666,-2.153291787532338,0.8647539153680389,2.46587817577521,0.5445020185570556,0.0007265320756732592,-0.0004814258840459691,-0.0006930015652138915,-0.0003945320852064137,0.00047607912942820987,0.0002055228652433468,0.0005283841382871391,0.0,0.0,0.0,0.0,0.0,0.0,0.0,-0.00021042698308049168,0.00019024840740988758,-0.00013599678394388137,-0.00026943931078671213,0.00012579373370624758,-5.316416422518344e-05,4.715002192234863e-06,-0.0007265320756732592,0.0004814258840459691,0.0006930015652138915,0.0003945320852064137,-0.00047607912942820987,-0.0002055228652433468,-0.0005283841382871391,0.6291133761405945,34.16213607788086,3.9497954845428467,-19.360689163208008,-0.2603049874305725,-1.770938515663147,0.17337362468242645,0
11,0.049989938735961914,-0.6053096652030945,-34.13833236694336,-4.048977375030518,19.360689163208008,0.2667136788368225,1.790164589881897,-0.12485067546367645,0.0,0.0,0.0,0.0,0.0,0.0,0.0,-0.6519424092484958,-0.07957868461395816,-0.48161105545543853,0.31255678145333265,0.220834002810428,-0.11664568587279026,-0.16414058455536065,1.0546192412715671,0.32366889765377316,-0.3923613702699015,-2.1530203587711747,0.8646274095575014,2.4659292037089666,0.5444951942200903,1.0544104758940245,0.3238615046091247,-0.39250456234122666,-2.153291787532338,0.8647539153680389,2.46587817577521,0.5445020185570556,-0.0002915862993587699,0.00014387546627199106,0.0008922583067414039,-0.00035305311189838534,0.00030116282769269205,-9.272991810298768e-05,-0.0015180951825637537,0.0,0.0,0.0,0.0,0.0,0.0,0.0,-0.00020876537754266344,0.0001926069553515597,-0.0001431920713251822,-0.0002714287611631505,0.00012650581053752497,-5.102793375666437e-05,6.824336965305378e-06,0.0002915862993587699,-0.00014387546627199106,-0.0008922583067414039,0.00035305311189838534,-0.00030116282769269205,9.272991810298768e-05,0.0015180951825637537,0.6053096652030945,34.13833236694336,4.048977375030518,-19.360689163208008,-0.2667136788368225,-1.790164589881897,0.12485067546367645,0
12,0.05499553680419922,-0.6053096652030945,-34.13833236694336,-4.048977375030518,19.360689163208008,0.2667136788368225,1.790164589881897,-0.12485067546367645,0.0,0.0,0.0,0.0,0.0,0.0,0.0,-0.6519424092484958,-0.07957868461395816,-0.48161105545543853,0.31255678145333265,0.220834002810428,-0.11664568587279026,-0.16414058455536065,1.0546192412715671,0.32366889765377316,-0.3923613702699015,-2.1530203587711747,0.8646274095575014,2.4659292037089666,0.5444951942200903,1.0544104758940245,0.3238615046091247,-0.39250456234122666,-2.153291787532338,0.8647539153680389,2.46587817577521,0.5445020185570556,-0.0002915862993587699,0.00014387546627199106,0.0008922583067414039,-0.00035305311189838534,0.00030116282769269205,-9.272991810298768e-05,-0.0015180951825637537,0.0,0.0,0.0,0.0,0.0,0.0,0.0,-0.00020876537754266344,0.0001926069553515597,-0.0001431920713251822,-0.0002714287611631505,0.00012650581053752497,-5.102793375666437e-05,6.824336965305378e-06,0.0002915862993587699,-0.00014387546627199106,-0.0008922583067414039,0.00035305311189838534,-0.00030116282769269205,9.272991810298768e-05,0.0015180951825637537,0.6053096652030945,34.13833236694336,4.048977375030518,-19.360689163208008,-0.2667136788368225,-1.790164589881897,0.12485067546367645,0
13,0.05998992919921875,-0.6053096652030945,-34.13833236694336,-4.048977375030518,19.360689163208008,0.2667136788368225,1.790164589881897,-0.12485067546367645,0.0,0.0,0.0,0.0,0.0,0.0,0.0,-0.6519424092484958,-0.07957868461395816,-0.48161105545543853,0.31255678145333265,0.220834002810428,-0.11664568587279026,-0.16414058455536065,1.0546192412715671,0.32366889765377316,-0.3923613702699015,-2.1530203587711747,0.8646274095575014,2.4659292037089666,0.5444951942200903,1.0544104758940245,0.3238615046091247,-0.39250456234122666,-2.153291787532338,0.8647539153680389,2.46587817577521,0.5445020185570556,-0.0002915862993587699,0.00014387546627199106,0.0008922583067414039,-0.00035305311189838534,0.00030116282769269205,-9.272991810298768e-05,-0.0015180951825637537,0.0,0.0,0.0,0.0,0.0,0.0,0.0,-0.00020876537754266344,0.0001926069553515597,-0.0001431920713251822,-0.0002714287611631505,0.00012650581053752497,-5.102793375666437e-05,6.824336965305378e-06,0.0002915862993587699,-0.00014387546627199106,-0.0008922583067414039,0.00035305311189838534,-0.00030116282769269205,9.272991810298768e-05,0.0015180951825637537,0.6053096652030945,34.13833236694336,4.048977375030518,-19.360689163208008,-0.2667136788368225,-1.790164589881897,0.12485067546367645,0
14,0.06499767303466797,-0.6053096652030945,-34.13833236694336,-4.048977375030518,19.360689163208008,0.2667136788368225,1.790164589881897,-0.12485067546367645,0.0,0.0,0.0,0.0,0.0,0.0,0.0,-0.6519424092484958,-0.07957868461395816,-0.48161105545543853,0.31255678145333265,0.220834002810428,-0.11664568587279026,-0.16414058455536065,1.0546192412715671,0.32366889765377316,-0.3923613702699015,-2.1530203587711747,0.8646274095575014,2.4659292037089666,0.5444951942200903,1.0544104758940245,0.3238615046091247,-0.39250456234122666,-2.153291787532338,0.8647539153680389,2.46587817577521,0.5445020185570556,-0.0002915862993587699,0.00014387546627199106,0.0008922583067414039,-0.00035305311189838534,0.00030116282769269205,-9.272991810298768e-05,-0.0015180951825637537,0.0,0.0,0.0,0.0,0.0,0.0,0.0,-0.00020876537754266344,0.0001926069553515597,-0.0001431920713251822,-0.0002714287611631505,0.00012650581053752497,-5.102793375666437e-05,6.824336965305378e-06,0.0002915862993587699,-0.00014387546627199106,-0.0008922583067414039,0.00035305311189838534,-0.00030116282769269205,9.272991810298768e-05,0.0015180951825637537,0.6053096652030945,34.13833236694336,4.048977375030518,-19.360689163208008,-0.2667136788368225,-1.790164589881897,0.12485067546367645,0
15,0.07000184059143066,-0.6568843722343445,-34.13833236694336,-4.124355792999268,19.360689163208008,0.2786155343055725,1.790164589881897,-0.17337362468242645,0.0,0.0,0.0,0.0,0.0,0.0,0.0,-0.6510049370005787,-0.0835499199710092,-0.48459304934693237,0.32035223354984904,0.2218215182280502,-0.11537455989052493,-0.16300662325825596,1.0546228517189857,0.3236709721204611,-0.392356288194685,-2.153022424074496,0.8646293072516534,2.4659292037089666,0.5444997412723973,1.0544104758940245,0.3238615046091247,-0.39250456234122666,-2.153291787532338,0.8647539153680389,2.46587817577521,0.5445020185570556,0.0003023950973015426,0.000661923376193352,0.001677156878647866,0.00033763976915055676,-9.324473371826525e-05,0.00017953684148302727,0.0006091942965033105,0.0,0.0,0.0,0.0,0.0,0.0,0.0,-0.00021237582496125285,0.0001905324886636306,-0.00014827414654167148,-0.00026936345784189797,0.00012460811638548286,-5.102793375666437e-05,2.2772846582919115e-06,-0.0003023950973015426,-0.000661923376193352,-0.001677156878647866,-0.00033763976915055676,9.324473371826525e-05,-0.00017953684148302727,-0.0006091942965033105,0.6568843722343445,34.13833236694336,4.124355792999268,-19.360689163208008,-0.2786155343055725,-1.790164589881897,0.17337362468242645,0
16,0.0749964714050293,-0.6568843722343445,-34.13833236694336,-4.124355792999268,19.360689163208008,0.2786155343055725,1.790164589881897,-0.17337362468242645,0.0,0.0,0.0,0.0,0.0,0.0,0.0,-0.6510049370005787,-0.0835499199710092,-0.48459304934693237,0.32035223354984904,0.2218215182280502,-0.11537455989052493,-0.16300662325825596,1.0546228517189857,0.3236709721204611,-0.392356288194685,-2.153022424074496,0.8646293072516534,2.4659292037089666,0.5444997412723973,1.0544104758940245,0.3238615046091247,-0.39250456234122666,-2.153291787532338,0.8647539153680389,2.46587817577521,0.5445020185570556,0.0003023950973015426,0.000661923376193352,0.001677156878647866,0.00033763976915055676,-9.324473371826525e-05,0.00017953684148302727,0.0006091942965033105,0.0,0.0,0.0,0.0,0.0,0.0,0.0,-0.00021237582496125285,0.0001905324886636306,-0.00014827414654167148,-0.00026936345784189797,0.00012460811638548286,-5.102793375666437e-05,2.2772846582919115e-06,-0.0003023950973015426,-0.000661923376193352,-0.001677156878647866,-0.00033763976915055676,9.324473371826525e-05,-0.00017953684148302727,-0.0006091942965033105,0.6568843722343445,34.13833236694336,4.124355792999268,-19.360689163208008,-0.2786155343055725,-1.790164589881897,0.17337362468242645,0
17,0.0800008773803711,-0.7084590792655945,-34.16213607788086,-4.124355792999268,19.336885452270508,0.2786155343055725,1.796573281288147,-0.13217489421367645,0.0,0.0,0.0,0.0,0.0,0.0,0.0,-0.6468943412814078,-0.08562452223999442,-0.48449910133246693,0.3240967920136537,0.22187009126886523,-0.1149155017161752,-0.1629533407039664,1.0546264709966224,0.32367332526423853,-0.3923574802887526,-2.153020729120293,0.8646261048079291,2.465928496210827,0.5444916521765288,1.0544104758940245,0.3238615046091247,-0.39250456234122666,-2.153291787532338,0.8647539153680389,2.46587817577521,0.5445020185570556,0.0003375511059618632,0.00036112328805446015,0.0007876648488042872,0.0006824664578563836,-0.00023270830628316935,-0.00031650525918532735,-0.001323664900206354,0.0,0.0,0.0,0.0,0.0,0.0,0.0,-0.00021599510259795451,0.0001881793448861857,-0.0001470820524740457,-0.00027105841204466685,0.00012781056010979785,-5.032043561703503e-05,1.0366380526760643e-05,-0.0003375511059618632,-0.00036112328805446015,-0.0007876648488042872,-0.0006824664578563836,0.00023270830628316935,0.00031650525918532735,0.001323664900206354,0.7084590792655945,34.16213607788086,4.124355792999268,-19.336885452270508,-0.2786155343055725,-1.796573281288147,0.13217489421367645,0
18,0.0850062370300293,-0.7084590792655945,-34.16213607788086,-4.124355792999268,19.336885452270508,0.2786155343055725,1.796573281288147,-0.13217489421367645,0.0,0.0,0.0,0.0,0.0,0.0,0.0,-0.6468943412814078,-0.08562452223999442,-0.48449910133246693,0.3240967920136537,0.22187009126886523,-0.1149155017161752,-0.1629533407039664,1.0546264709966224,0.32367332526423853,-0.3923574802887526,-2.153020729120293,0.8646261048079291,2.465928496210827,0.5444916521765288,1.0544104758940245,0.3238615046091247,-0.39250456234122666,-2.153291787532338,0.8647539153680389,2.46587817577521,0.5445020185570556,0.0003375511059618632,0.00036112328805446015,0.0007876648488042872,0.0006824664578563836,-0.00023270830628316935,-0.00031650525918532735,-0.001323664900206354,0.0,0.0,0.0,0.0,0.0,0.0,0.0,-0.00021599510259795451,0.0001881793448861857,-0.0001470820524740457,-0.00027105841204466685,0.00012781056010979785,-5.032043561703503e-05,1.0366380526760643e-05,-0.0003375511059618632,-0.00036112328805446015,-0.0007876648488042872,-0.0006824664578563836,0.00023270830628316935,0.00031650525918532735,0.001323664900206354,0.7084590792655945,34.16213607788086,4.124355792999268,-19.336885452270508,-0.2786155343055725,-1.796573281288147,0.13217489421367645,0
19,0.08999300003051758,-0.6806880831718445,-34.11452865600586,-4.096584796905518,19.360689163208008,0.2722068428993225,1.790164589881897,-0.17337362468242645,0.0,0.0,0.0,0.0,0.0,0.0,0.0,-0.64133741405507,-0.07097020292264147,-0.4762123688354096,0.317986061937571,0.22103041202879692,-0.11667502006409179,-0.16362928147996786,1.054624601627651,0.32367007003605147,-0.3923572931734901,-2.1530217363011284,0.8646267992241415,2.465929203708975,0.5445009577794895,1.0544104758940245,0.3238615046091247,-0.39250456234122666,-2.153291787532338,0.8647539153680389,2.46587817577521,0.5445020185570556,-0.0005823562897635613,-0.00043128906078428365,0.0005354571175800929,-0.00013092313399559277,4.077487369179525e-06,4.1120673736873385e-05,0.000959334397773684,0.0,0.0,0.0,0.0,0.0,0.0,0.0,-0.00021412573362655785,0.00019143457307324585,-0.0001472691677365523,-0.0002700512312094894,0.0001271161438973767,-5.102793376510206e-05,1.060777566119775e-06,0.0005823562897635613,0.00043128906078428365,-0.0005354571175800929,0.00013092313399559277,-4.077487369179525e-06,-4.1120673736873385e-05,-0.000959334397773684,0.6806880831718445,34.11452865600586,4.096584796905518,-19.360689163208008,-0.2722068428993225,-1.790164589881897,0.17337362468242645,0
20,0.09501147270202637,-0.6806880831718445,-34.11452865600586,-4.096584796905518,19.360689163208008,0.2722068428993225,1.790164589881897,-0.17337362468242645,0.0,0.0,0.0,0.0,0.0,0.0,0.0,-0.64133741405507,-0.07097020292264147,-0.4762123688354096,0.317986061937571,0.22103041202879692,-0.11667502006409179,-0.16362928147996786,1.054624601627651,0.32367007003605147,-0.3923572931734901,-2.1530217363011284,0.8646267992241415,2.465929203708975,0.5445009577794895,1.0544104758940245,0.3238615046091247,-0.39250456234122666,-2.153291787532338,0.8647539153680389,2.46587817577521,0.5445020185570556,-0.0005823562897635613,-0.00043128906078428365,0.0005354571175800929,-0.00013092313399559277,4.077487369179525e-06,4.1120673736873385e-05,0.000959334397773684,0.0,0.0,0.0,0.0,0.0,0.0,0.0,-0.00021412573362655785,0.00019143457307324585,-0.0001472691677365523,-0.0002700512312094894,0.0001271161438973767,-5.102793376510206e-05,1.060777566119775e-06,0.0005823562897635613,0.00043128906078428365,-0.0005354571175800929,0.00013092313399559277,-4.077487369179525e-06,-4.1120673736873385e-05,-0.000959334397773684,0.6806880831718445,34.11452865600586,4.096584796905518,-19.360689163208008,-0.2722068428993225,-1.790164589881897,0.17337362468242645,0
21,0.09999489784240723,-0.6806880831718445,-34.18990707397461,-4.048977375030518,19.336885452270508,0.2786155343055725,1.796573281288147,-0.13217489421367645,0.0,0.0,0.0,0.0,0.0,0.0,0.0,-0.6550634047662978,-0.07465297500108861,-0.48698229117338987,0.3198475943449275,0.22104498066763953,-0.11573391337659232,-0.16305901548403112,1.05462452215524,0.32367550944019186,-0.392360651084095,-2.1530186854974422,0.864626087129116,2.4659296103570907,0.544492141760653,1.0544104758940245,0.3238615046091247,-0.39250456234122666,-2.153291787532338,0.8647539153680389,2.46587817577521,0.5445020185570556,-1.6699782556006836e-05,0.00138087674077324,-0.00037608795743402024,0.00020867350073889372,-1.1474453029788363e-05,-9.842516673287468e-05,-0.0012896277055183167,0.0,0.0,0.0,0.0,0.0,0.0,0.0,-0.00021404626121546144,0.00018599516893286205,-0.00014391125713164588,-0.00027310203489561147,0.00012782823892287798,-5.143458188072714e-05,9.876796402630283e-06,1.6699782556006836e-05,-0.00138087674077324,0.00037608795743402024,-0.00020867350073889372,1.1474453029788363e-05,9.842516673287468e-05,0.0012896277055183167,0.6806880831718445,34.18990707397461,4.048977375030518,-19.336885452270508,-0.2786155343055725,-1.796573281288147,0.13217489421367645,0
22,0.10500121116638184,-0.6806880831718445,-34.18990707397461,-4.048977375030518,19.336885452270508,0.2786155343055725,1.796573281288147,-0.13217489421367645,0.0,0.0,0.0,0.0,0.0,0.0,0.0,-0.6550634047662978,-0.07465297500108861,-0.48698229117338987,0.3198475943449275,0.22104498066763953,-0.11573391337659232,-0.16305901548403112,1.05462452215524,0.32367550944019186,-0.392360651084095,-2.1530186854974422,0.864626087129116,2.4659296103570907,0.544492141760653,1.0544104758940245,0.3238615046091247,-0.39250456234122666,-2.153291787532338,0.8647539153680389,2.46587817577521,0.5445020185570556,-1.6699782556006836e-05,0.00138087674077324,-0.00037608795743402024,0.00020867350073889372,-1.1474453029788363e-05,-9.842516673287468e-05,-0.0012896277055183167,0.0,0.0,0.0,0.0,0.0,0.0,0.0,-0.00021404626121546144,0.00018599516893286205,-0.00014391125713164588,-0.00027310203489561147,0.00012782823892287798,-5.143458188072714e-05,9.876796402630283e-06,1.6699782556006836e-05,-0.00138087674077324,0.00037608795743402024,-0.00020867350073889372,1.1474453029788363e-05,9.842516673287468e-05,0.0012896277055183167,0.6806880831718445,34.18990707397461,4.048977375030518,-19.336885452270508,-0.2786155343055725,-1.796573281288147,0.13217489421367645,0
23,0.11002731323242188,-0.7084590792655945,-34.18990707397461,-4.048977375030518,19.336885452270508,0.2667136788368225,1.783755898475647,-0.19351522624492645,0.0,0.0,0.0,0.0,0.0,0.0,0.0,-0.6684388726225172,-0.08260376219137364,-0.5000819157399902,0.32320298030607875,0.22164690989006455,-0.11409295440195522,-0.16294293248228967,1.0546264709966224,0.3236753867977349,-0.3923606256470619,-2.1530207546184252,0.8646274507656508,2.465929915792105,0.5445019665011955,1.0544104758940245,0.3238615046091247,-0.39250456234122666,-2.153291787532338,0.8647539153680389,2.46587817577521,0.5445020185570556,0.0010024013136118457,0.00028279855585156347,-0.0008466051286724027,0.0005740415682315683,0.0002896270221914168,7.846009532155165e-05,0.0014958273054166324,0.0,0.0,0.0,0.0,0.0,0.0,0.0,-0.00021599510259795451,0.00018611781138982986,-0.00014393669416473687,-0.00027103291391261664,0.00012646460238807666,-5.174001689489671e-05,5.2055860066957393e-08,-0.0010024013136118457,-0.00028279855585156347,0.0008466051286724027,-0.0005740415682315683,-0.0002896270221914168,-7.846009532155165e-05,-0.0014958273054166324,0.7084590792655945,34.18990707397461,4.048977375030518,-19.336885452270508,-0.2667136788368225,-1.783755898475647,0.19351522624492645,0
24,0.11499857902526855,-0.7084590792655945,-34.18990707397461,-4.048977375030518,19.336885452270508,0.2667136788368225,1.783755898475647,-0.19351522624492645,0.0,0.0,0.0,0.0,0.0,0.0,0.0,-0.6684388726225172,-0.08260376219137364,-0.5000819157399902,0.32320298030607875,0.22164690989006455,-0.11409295440195522,-0.16294293248228967,1.0546264709966224,0.3236753867977349,-0.3923606256470619,-2.1530207546184252,0.8646274507656508,2.465929915792105,0.5445019665011955,1.0544104758940245,0.3238615046091247,-0.39250456234122666,-2.153291787532338,0.8647539153680389,2.46587817577521,0.5445020185570556,0.0010024013136118457,0.00028279855585156347,-0.0008466051286724027,0.0005740415682315683,0.0002896270221914168,7.846009532155165e-05,0.0014958273054166324,0.0,0.0,0.0,0.0,0.0,0.0,0.0,-0.00021599510259795451,0.00018611781138982986,-0.00014393669416473687,-0.00027103291391261664,0.00012646460238807666,-5.174001689489671e-05,5.2055860066957393e-08,-0.0010024013136118457,-0.00028279855585156347,0.0008466051286724027,-0.0005740415682315683,-0.0002896270221914168,-7.846009532155165e-05,-0.0014958273054166324,0.7084590792655945,34.18990707397461,4.048977375030518,-19.336885452270508,-0.2667136788368225,-1.783755898475647,0.19351522624492645,0
25,0.11999368667602539,-0.6053096652030945,-34.13833236694336,-4.025173664093018,19.336885452270508,0.2722068428993225,1.790164589881897,-0.20083944499492645,0.0,0.0,0.0,0.0,0.0,0.0,0.0,-0.6517936969572269,-0.07687885192553824,-0.4859200126291604,0.3181524960428924,0.2208808158676556,-0.11686572054927441,-0.1627924795161078,1.0546192324412496,0.3236697542441593,-0.39236229478668594,-2.1530207546301057,0.864626800677736,2.4659292038785474,0.5445024352951338,1.0544104758940245,0.3238615046091247,-0.39250456234122666,-2.153291787532338,0.8647539153680389,2.46587817577521,0.5445020185570556,-0.0006757431855493444,-0.001064404421615751,5.04374538863869e-06,0.0003787210424715383,3.2061704081846122e-06,0.00021007903932503718,0.0018330404094515492,0.0,0.0,0.0,0.0,0.0,0.0,0.0,-0.0002087565472250752,0.0001917503649654373,-0.00014226755454072038,-0.00027103290223218224,0.00012711469030290967,-5.102810333745822e-05,-4.167380781572305e-07,0.0006757431855493444,0.001064404421615751,-5.04374538863869e-06,-0.0003787210424715383,-3.2061704081846122e-06,-0.00021007903932503718,-0.0018330404094515492,0.6053096652030945,34.13833236694336,4.025173664093018,-19.336885452270508,-0.2722068428993225,-1.790164589881897,0.20083944499492645,0
26,0.12494182586669922,-0.6053096652030945,-34.13833236694336,-4.025173664093018,19.336885452270508,0.2722068428993225,1.790164589881897,-0.20083944499492645,0.0,0.0,0.0,0.0,0.0,0.0,0.0,-0.6517936969572269,-0.07687885192553824,-0.4859200126291604,0.3181524960428924,0.2208808158676556,-0.11686572054927441,-0.1627924795161078,1.0546192324412496,0.3236697542441593,-0.39236229478668594,-2.1530207546301057,0.864626800677736,2.4659292038785474,0.5445024352951338,1.0544104758940245,0.3238615046091247,-0.39250456234122666,-2.153291787532338,0.8647539153680389,2.46587817577521,0.5445020185570556,-0.0006757431855493444,-0.001064404421615751,5.04374538863869e-06,0.0003787210424715383,3.2061704081846122e-06,0.00021007903932503718,0.0018330404094515492,0.0,0.0,0.0,0.0,0.0,0.0,0.0,-0.0002087565472250752,0.0001917503649654373,-0.00014226755454072038,-0.00027103290223218224,0.00012711469030290967,-5.102810333745822e-05,-4.167380781572305e-07,0.0006757431855493444,0.001064404421615751,-5.04374538863869e-06,-0.0003787210424715383,-3.2061704081846122e-06,-0.00021007903932503718,-0.0018330404094515492,0.6053096652030945,34.13833236694336,4.025173664093018,-19.336885452270508,-0.2722068428993225,-1.790164589881897,0.20083944499492645,0
27,0.129990816116333,-0.5815059542655945,-34.13833236694336,-4.072781085968018,19.360689163208008,0.2722068428993225,1.796573281288147,-0.15231649577617645,0.0,0.0,0.0,0.0,0.0,0.0,0.0,-0.6599443166721268,-0.07588824484977721,-0.4930330451471102,0.31482640019221314,0.22110004534610536,-0.1154062151762362,-0.1629156106754904,1.0546175620053944,0.323671741453103,-0.3923590640456304,-2.153022399556154,0.8646267992059472,2.4659284916321447,0.5444952652426065,1.0544104758940245,0.3238615046091247,-0.39250456234122666,-2.153291787532338,0.8647539153680389,2.46587817577521,0.5445020185570556,-0.0013730792151398434,-0.00021360368095267457,0.0011333079463511683,-0.00010236534170263811,-2.151998080151345e-05,-0.0001657030342009616,-0.0008002792694799111,0.0,0.0,0.0,0.0,0.0,0.0,0.0,-0.00020708611136988075,0.00018976315602170502,-0.00014549829559623584,-0.0002693879761839213,0.00012711616209171162,-5.0315856934712855e-05,6.7533144491038755e-06,0.0013730792151398434,0.00021360368095267457,-0.0011333079463511683,0.00010236534170263811,2.151998080151345e-05,0.0001657030342009616,0.0008002792694799111,0.5815059542655945,34.13833236694336,4.072781085968018,-19.360689163208008,-0.2722068428993225,-1.796573281288147,0.15231649577617645,0
28,0.1349942684173584,-0.5815059542655945,-34.13833236694336,-4.072781085968018,19.360689163208008,0.2722068428993225,1.796573281288147,-0.15231649577617645,0.0,0.0,0.0,0.0,0.0,0.0,0.0,-0.6599443166721268,-0.07588824484977721,-0.4930330451471102,0.31482640019221314,0.22110004534610536,-0.1154062151762362,-0.1629156106754904,1.0546175620053944,0.323671741453103,-0.3923590640456304,-2.153022399556154,0.8646267992059472,2.4659284916321447,0.5444952652426065,1.0544104758940245,0.3238615046091247,-0.39250456234122666,-2.153291787532338,0.8647539153680389,2.46587817577521,0.5445020185570556,-0.0013730792151398434,-0.00021360368095267457,0.0011333079463511683,-0.00010236534170263811,-2.151998080151345e-05,-0.0001657030342009616,-0.0008002792694799111,0.0,0.0,0.0,0.0,0.0,0.0,0.0,-0.00020708611136988075,0.00018976315602170502,-0.00014549829559623584,-0.0002693879761839213,0.00012711616209171162,-5.0315856934712855e-05,6.7533144491038755e-06,0.0013730792151398434,0.00021360368095267457,-0.0011333079463511683,0.00010236534170263811,2.151998080151345e-05,0.0001657030342009616,0.0008002792694799111,0.5815059542655945,34.13833236694336,4.072781085968018,-19.360689163208008,-0.2722068428993225,-1.796573281288147,0.15231649577617645,0
29,0.14001893997192383,-0.6568843722343445,-34.16213607788086,-3.9974029064178467,19.360689163208008,0.2786155343055725,1.777347207069397,-0.13217489421367645,0.0,0.0,0.0,0.0,0.0,0.0,0.0,-0.6484532581813468,-0.08426434646995275,-0.4827976826960645,0.3189687225681987,0.22026085276917742,-0.11437205034311126,-0.1644907992445843,1.054622851718936,0.32367272600615377,-0.3923666395961795,-2.1530196585640096,0.8646262593203119,2.465930628032193,0.5444953031596759,1.0544104758940245,0.3238615046091247,-0.39250456234122666,-2.153291787532338,0.8647539153680389,2.46587817577521,0.5445020185570556,0.0005571630559918256,0.0001963360305165883,-0.00046288597414626063,-0.00020497724445660599,-0.00010676150950231443,0.00041153802187277245,-0.0011474072974315885,0.0,0.0,0.0,0.0,0.0,0.0,0.0,-0.00021237582491151485,0.0001887786029709515,-0.00013792274504714763,-0.00027212896832828903,0.00012765604772702055,-5.24522569831376e-05,6.715397379730703e-06,-0.0005571630559918256,-0.0001963360305165883,0.00046288597414626063,0.00020497724445660599,0.00010676150950231443,-0.00041153802187277245,0.0011474072974315885,0.6568843722343445,34.16213607788086,3.9974029064178467,-19.360689163208008,-0.2786155343055725,-1.777347207069397,0.13217489421367645,0
30,0.14503264427185059,-0.6568843722343445,-34.16213607788086,-3.9974029064178467,19.360689163208008,0.2786155343055725,1.777347207069397,-0.13217489421367645,0.0,0.0,0.0,0.0,0.0,0.0,0.0,-0.6484532581813468,-0.08426434646995275,-0.4827976826960645,0.3189687225681987,0.22026085276917742,-0.11437205034311126,-0.1644907992445843,1.054622851718936,0.32367272600615377,-0.3923666395961795,-2.1530196585640096,0.8646262593203119,2.465930628032193,0.5444953031596759,1.0544104758940245,0.3238615046091247,-0.39250456234122666,-2.153291787532338,0.8647539153680389,2.46587817577521,0.5445020185570556,0.0005571630559918256,0.0001963360305165883,-0.00046288597414626063,-0.00020497724445660599,-0.00010676150950231443,0.00041153802187277245,-0.0011474072974315885,0.0,0.0,0.0,0.0,0.0,0.0,0.0,-0.00021237582491151485,0.0001887786029709515,-0.00013792274504714763,-0.00027212896832828903,0.00012765604772702055,-5.24522569831376e-05,6.715397379730703e-06,-0.0005571630559918256,-0.0001963360305165883,0.00046288597414626063,0.00020497724445660599,0.00010676150950231443,-0.00041153802187277245,0.0011474072974315885,0.6568843722343445,34.16213607788086,3.9974029064178467,-19.360689163208008,-0.2786155343055725,-1.777347207069397,0.13217489421367645,0
31,0.15003299713134766,-0.6291133761405945,-34.18990707397461,-3.9974029064178467,19.360689163208008,0.2722068428993225,1.783755898475647,-0.18710653483867645,0.0,0.0,0.0,0.0,0.0,0.0,0.0,-0.6440703298417086,-0.08406217015275674,-0.4742352690025625,0.31985532932716676,0.22043869353536738,-0.11496144761438916,-0.16445712867105414,1.054620902877105,0.3236753892277202,-0.3923649708607233,-2.1530223995405366,0.8646300180212532,2.4659299203644736,0.544501265586104,1.0544104758940245,0.3238615046091247,-0.39250456234122666,-2.153291787532338,0.8647539153680389,2.46587817577521,0.5445020185570556,-0.000107564779293108,0.0010819988379347262,0.00023422899078513943,-0.00010106056020046257,6.652456988785966e-05,-2.362526363878105e-05,0.0010030657469909392,0.0,0.0,0.0,0.0,0.0,0.0,0.0,-0.00021042698308049168,0.00018611538140450579,-0.0001395914805033538,-0.00026938799180120654,0.0001238973467857507,-5.174458926360259e-05,7.529709515896599e-07,0.000107564779293108,-0.0010819988379347262,-0.00023422899078513943,0.00010106056020046257,-6.652456988785966e-05,2.362526363878105e-05,-0.0010030657469909392,0.6291133761405945,34.18990707397461,3.9974029064178467,-19.360689163208008,-0.2722068428993225,-1.783755898475647,0.18710653483867645,0
32,0.15498995780944824,-0.6291133761405945,-34.18990707397461,-3.9974029064178467,19.360689163208008,0.2722068428993225,1.783755898475647,-0.18710653483867645,0.0,0.0,0.0,0.0,0.0,0.0,0.0,-0.6440703298417086,-0.08406217015275674,-0.4742352690025625,0.31985532932716676,0.22043869353536738,-0.11496144761438916,-0.16445712867105414,1.054620902877105,0.3236753892277202,-0.3923649708607233,-2.1530223995405366,0.8646300180212532,2.4659299203644736,0.544501265586104,1.0544104758940245,0.3238615046091247,-0.39250456234122666,-2.153291787532338,0.8647539153680389,2.46587817577521,0.5445020185570556,-0.000107564779293108,0.0010819988379347262,0.00023422899078513943,-0.00010106056020046257,6.652456988785966e-05,-2.362526363878105e-05,0.0010030657469909392,0.0,0.0,0.0,0.0,0.0,0.0,0.0,-0.00021042698308049168,0.00018611538140450579,-0.0001395914805033538,-0.00026938799180120654,0.0001238973467857507,-5.174458926360259e-05,7.529709515896599e-07,0.000107564779293108,-0.0010819988379347262,-0.00023422899078513943,0.00010106056020046257,-6.652456988785966e-05,2.362526363878105e-05,-0.0010030657469909392,0.6291133761405945,34.18990707397461,3.9974029064178467,-19.360689163208008,-0.2722068428993225,-1.783755898475647,0.18710653483867645,0
33,0.15999221801757812,-0.6291133761405945,-34.18990707397461,-3.9974029064178467,19.360689163208008,0.2722068428993225,1.783755898475647,-0.18710653483867645,0.0,0.0,0.0,0.0,0.0,0.0,0.0,-0.6440703298417086,-0.08406217015275674,-0.4742352690025625,0.31985532932716676,0.22043869353536738,-0.11496144761438916,-0.16445712867105414,1.054620902877105,0.3236753892277202,-0.3923649708607233,-2.1530223995405366,0.8646300180212532,2.4659299203644736,0.544501265586104,1.0544104758940245,0.3238615046091247,-0.39250456234122666,-2.153291787532338,0.8647539153680389,2.46587817577521,0.5445020185570556,-0.000107564779293108,0.0010819988379347262,0.00023422899078513943,-0.00010106056020046257,6.652456988785966e-05,-2.362526363878105e-05,0.0010030657469909392,0.0,0.0,0.0,0.0,0.0,0.0,0.0,-0.00021042698308049168,0.00018611538140450579,-0.0001395914805033538,-0.00026938799180120654,0.0001238973467857507,-5.174458926360259e-05,7.529709515896599e-07,0.000107564779293108,-0.0010819988379347262,-0.00023422899078513943,0.00010106056020046257,-6.652456988785966e-05,2.362526363878105e-05,-0.0010030657469909392,0.6291133761405945,34.18990707397461,3.9974029064178467,-19.360689163208008,-0.2722068428993225,-1.783755898475647,0.18710653483867645,0
34,0.16499781608581543,-0.6291133761405945,-34.18990707397461,-3.9974029064178467,19.360689163208008,0.2722068428993225,1.783755898475647,-0.18710653483867645,0.0,0.0,0.0,0.0,0.0,0.0,0.0,-0.6440703298417086,-0.08406217015275674,-0.4742352690025625,0.31985532932716676,0.22043869353536738,-0.11496144761438916,-0.16445712867105414,1.054620902877105,0.3236753892277202,-0.3923649708607233,-2.1530223995405366,0.8646300180212532,2.4659299203644736,0.544501265586104,1.0544104758940245,0.3238615046091247,-0.39250456234122666,-2.153291787532338,0.8647539153680389,2.46587817577521,0.5445020185570556,-0.000107564779293108,0.0010819988379347262,0.00023422899078513943,-0.00010106056020046257,6.652456988785966e-05,-2.362526363878105e-05,0.0010030657469909392,0.0,0.0,0.0,0.0,0.0,0.0,0.0,-0.00021042698308049168,0.00018611538140450579,-0.0001395914805033538,-0.00026938799180120654,0.0001238973467857507,-5.174458926360259e-05,7.529709515896599e-07,0.000107564779293108,-0.0010819988379347262,-0.00023422899078513943,0.00010106056020046257,-6.652456988785966e-05,2.362526363878105e-05,-0.0010030657469909392,0.6291133761405945,34.18990707397461,3.9974029064178467,-19.360689163208008,-0.2722068428993225,-1.783755898475647,0.18710653483867645,0
35,0.1700119972229004,-0.6291133761405945,-34.11452865600586,-4.072781085968018,19.313081741333008,0.2603049874305725,1.783755898475647,-0.11844198405742645,0.0,0.0,0.0,0.0,0.0,0.0,0.0,-0.651912366727972,-0.07747378607192136,-0.4770483103969948,0.3162653630378607,0.22083181562360737,-0.11519437384149694,-0.16473310743712122,1.054620902877105,0.32366720873382077,-0.39236141749293907,-2.1530190841941064,0.8646281218160189,2.465929915785815,0.5444906156595298,1.0544104758940245,0.3238615046091247,-0.39250456234122666,-2.153291787532338,0.8647539153680389,2.46587817577521,0.5445020185570556,-0.0001562954463585857,-0.000495689904720433,0.0008998979874824971,0.0010935207844909,0.0005850138870372906,0.00042436739562614354,-0.0019604093865408867,0.0,0.0,0.0,0.0,0.0,0.0,0.0,-0.00021042698308049168,0.00019429587530395143,-0.00014314484828759078,-0.00027270333823148363,0.00012579355202002596,-5.174001060526123e-05,1.1402897525769617e-05,0.0001562954463585857,0.000495689904720433,-0.0008998979874824971,-0.0010935207844909,-0.0005850138870372906,-0.00042436739562614354,0.0019604093865408867,0.6291133761405945,34.11452865600586,4.072781085968018,-19.313081741333008,-0.2603049874305725,-1.783755898475647,0.11844198405742645,0
36,0.17499899864196777,-0.6291133761405945,-34.11452865600586,-4.072781085968018,19.313081741333008,0.2603049874305725,1.783755898475647,-0.11844198405742645,0.0,0.0,0.0,0.0,0.0,0.0,0.0,-0.651912366727972,-0.07747378607192136,-0.4770483103969948,0.3162653630378607,0.22083181562360737,-0.11519437384149694,-0.16473310743712122,1.054620902877105,0.32366720873382077,-0.39236141749293907,-2.1530190841941064,0.8646281218160189,2.465929915785815,0.5444906156595298,1.0544104758940245,0.3238615046091247,-0.39250456234122666,-2.153291787532338,0.8647539153680389,2.46587817577521,0.5445020185570556,-0.0001562954463585857,-0.000495689904720433,0.0008998979874824971,0.0010935207844909,0.0005850138870372906,0.00042436739562614354,-0.0019604093865408867,0.0,0.0,0.0,0.0,0.0,0.0,0.0,-0.00021042698308049168,0.00019429587530395143,-0.00014314484828759078,-0.00027270333823148363,0.00012579355202002596,-5.174001060526123e-05,1.1402897525769617e-05,0.0001562954463585857,0.000495689904720433,-0.0008998979874824971,-0.0010935207844909,-0.0005850138870372906,-0.00042436739562614354,0.0019604093865408867,0.6291133761405945,34.11452865600586,4.072781085968018,-19.313081741333008,-0.2603049874305725,-1.783755898475647,0.11844198405742645,0
37,0.17999911308288574,-0.6806880831718445,-34.13833236694336,-4.048977375030518,19.360689163208008,0.2786155343055725,1.790164589881897,-0.18710653483867645,0.0,0.0,0.0,0.0,0.0,0.0,0.0,-0.6474798263917634,-0.07964355393115612,-0.47770533649859276,0.31835257273404366,0.22041749262862798,-0.11418426518217278,-0.1646271823147494,1.0546245221547914,0.3236691443535999,-0.3923606252247529,-2.1530224247510246,0.8646260876196902,2.4659292038785474,0.5444992660753052,1.0544104758940245,0.3238615046091247,-0.39250456234122666,-2.153291787532338,0.8647539153680389,2.46587817577521,0.5445020185570556,0.0006337709610792448,-7.035213602819056e-05,-0.00022842124240255742,-1.4802807781706952e-05,-9.202006106377355e-05,0.00014746860532667696,0.0006671898969371112,0.0,0.0,0.0,0.0,0.0,0.0,0.0,-0.00021404626076693134,0.00019236025552482605,-0.00014393711647375795,-0.00026936278131328706,0.0001278277483487411,-5.102810333745822e-05,2.7524817504120946e-06,-0.0006337709610792448,7.035213602819056e-05,0.00022842124240255742,1.4802807781706952e-05,9.202006106377355e-05,-0.00014746860532667696,-0.0006671898969371112,0.6806880831718445,34.13833236694336,4.048977375030518,-19.360689163208008,-0.2786155343055725,-1.790164589881897,0.18710653483867645,0
38,0.1849966049194336,-0.6806880831718445,-34.13833236694336,-4.048977375030518,19.360689163208008,0.2786155343055725,1.790164589881897,-0.18710653483867645,0.0,0.0,0.0,0.0,0.0,0.0,0.0,-0.6474798263917634,-0.07964355393115612,-0.47770533649859276,0.31835257273404366,0.22041749262862798,-0.11418426518217278,-0.1646271823147494,1.0546245221547914,0.3236691443535999,-0.3923606252247529,-2.1530224247510246,0.8646260876196902,2.4659292038785474,0.5444992660753052,1.0544104758940245,0.3238615046091247,-0.39250456234122666,-2.153291787532338,0.8647539153680389,2.46587817577521,0.5445020185570556,0.0006337709610792448,-7.035213602819056e-05,-0.00022842124240255742,-1.4802807781706952e-05,-9.202006106377355e-05,0.00014746860532667696,0.0006671898969371112,0.0,0.0,0.0,0.0,0.0,0.0,0.0,-0.00021404626076693134,0.00019236025552482605,-0.00014393711647375795,-0.00026936278131328706,0.0001278277483487411,-5.102810333745822e-05,2.7524817504120946e-06,-0.0006337709610792448,7.035213602819056e-05,0.00022842124240255742,1.4802807781706952e-05,9.202006106377355e-05,-0.00014746860532667696,-0.0006671898969371112,0.6806880831718445,34.13833236694336,4.048977375030518,-19.360689163208008,-0.2786155343055725,-1.790164589881897,0.18710653483867645,0
39,0.18999242782592773,-0.6806880831718445,-34.13833236694336,-4.072781085968018,19.360689163208008,0.2667136788368225,1.790164589881897,-0.20083944499492645,0.0,0.0,0.0,0.0,0.0,0.0,0.0,-0.6475898401116409,-0.0729496082909054,-0.4797192225243366,0.31481876808825066,0.22009378109979438,-0.11455121675811925,-0.1645573983266123,1.0546245221547914,0.3236695190803503,-0.3923618149258147,-2.153022425065959,0.8646274095575042,2.4659292037089675,0.5445029357850824,1.0544104758940245,0.3238615046091247,-0.39250456234122666,-2.153291787532338,0.8647539153680389,2.46587817577521,0.5445020185570556,0.0001761839477297818,0.00014810926680996757,7.609687258043843e-05,-0.00014570849712650238,0.00031805108755660164,8.35740055211366e-05,0.001213990985601648,0.0,0.0,0.0,0.0,0.0,0.0,0.0,-0.00021404626076693134,0.00019198552877441877,-0.00014274741541198122,-0.0002693624663789862,0.0001265058105347494,-5.1027933757552546e-05,-9.172280267533139e-07,-0.0001761839477297818,-0.00014810926680996757,-7.609687258043843e-05,0.00014570849712650238,-0.00031805108755660164,-8.35740055211366e-05,-0.001213990985601648,0.6806880831718445,34.13833236694336,4.072781085968018,-19.360689163208008,-0.2667136788368225,-1.790164589881897,0.20083944499492645,0
40,0.19498991966247559,-0.6806880831718445,-34.13833236694336,-4.072781085968018,19.360689163208008,0.2667136788368225,1.790164589881897,-0.20083944499492645,0.0,0.0,0.0,0.0,0.0,0.0,0.0,-0.6475898401116409,-0.0729496082909054,-0.4797192225243366,0.31481876808825066,0.22009378109979438,-0.11455121675811925,-0.1645573983266123,1.0546245221547914,0.3236695190803503,-0.3923618149258147,-2.153022425065959,0.8646274095575042,2.4659292037089675,0.5445029357850824,1.0544104758940245,0.3238615046091247,-0.39250456234122666,-2.153291787532338,0.8647539153680389,2.46587817577521,0.5445020185570556,0.0001761839477297818,0.00014810926680996757,7.609687258043843e-05,-0.00014570849712650238,0.00031805108755660164,8.35740055211366e-05,0.001213990985601648,0.0,0.0,0.0,0.0,0.0,0.0,0.0,-0.00021404626076693134,0.00019198552877441877,-0.00014274741541198122,-0.0002693624663789862,0.0001265058105347494,-5.1027933757552546e-05,-9.172280267533139e-07,-0.0001761839477297818,-0.00014810926680996757,-7.609687258043843e-05,0.00014570849712650238,-0.00031805108755660164,-8.35740055211366e-05,-0.001213990985601648,0.6806880831718445,34.13833236694336,4.072781085968018,-19.360689163208008,-0.2667136788368225,-1.790164589881897,0.20083944499492645,0
41,0.19999480247497559,-0.6806880831718445,-34.16213607788086,-4.048977375030518,19.360689163208008,0.2722068428993225,1.802981972694397,-0.17978231608867645,0.0,0.0,0.0,0.0,0.0,0.0,0.0,-0.6497216012892773,-0.09105708359308069,-0.4826316431094454,0.32641923242481186,0.2201877642665562,-0.11418477156293888,-0.16476862014150248,1.0546245221547914,0.3236714276907521,-0.39236279664533374,-2.153022424960982,0.8646271568338075,2.4659278207634703,0.5445002009537385,1.0544104758940245,0.3238615046091247,-0.39250456234122666,-2.153291787532338,0.8647539153680389,2.46587817577521,0.5445020185570556,-0.0001054800792937675,-0.0005909201703039851,-0.00022646321375563642,0.0003942119621175738,-4.102223358969455e-05,-0.0003356141424188404,0.0009868696284853797,0.0,0.0,0.0,0.0,0.0,0.0,0.0,-0.00021404626076693134,0.00019007691837263918,-0.00014176569589291477,-0.00026936257135590225,0.00012675853423138594,-4.9644988260322265e-05,1.8176033170780315e-06,0.0001054800792937675,0.0005909201703039851,0.00022646321375563642,-0.0003942119621175738,4.102223358969455e-05,0.0003356141424188404,-0.0009868696284853797,0.6806880831718445,34.16213607788086,4.048977375030518,-19.360689163208008,-0.2722068428993225,-1.802981972694397,0.17978231608867645,0
42,0.20499563217163086,-0.6806880831718445,-34.16213607788086,-4.048977375030518,19.360689163208008,0.2722068428993225,1.802981972694397,-0.17978231608867645,0.0,0.0,0.0,0.0,0.0,0.0,0.0,-0.6497216012892773,-0.09105708359308069,-0.4826316431094454,0.32641923242481186,0.2201877642665562,-0.11418477156293888,-0.16476862014150248,1.0546245221547914,0.3236714276907521,-0.39236279664533374,-2.153022424960982,0.8646271568338075,2.4659278207634703,0.5445002009537385,1.0544104758940245,0.3238615046091247,-0.39250456234122666,-2.153291787532338,0.8647539153680389,2.46587817577521,0.5445020185570556,-0.0001054800792937675,-0.0005909201703039851,-0.00022646321375563642,0.0003942119621175738,-4.102223358969455e-05,-0.0003356141424188404,0.0009868696284853797,0.0,0.0,0.0,0.0,0.0,0.0,0.0,-0.00021404626076693134,0.00019007691837263918,-0.00014176569589291477,-0.00026936257135590225,0.00012675853423138594,-4.9644988260322265e-05,1.8176033170780315e-06,0.0001054800792937675,0.0005909201703039851,0.00022646321375563642,-0.0003942119621175738,4.102223358969455e-05,0.0003356141424188404,-0.0009868696284853797,0.6806880831718445,34.16213607788086,4.048977375030518,-19.360689163208008,-0.2722068428993225,-1.802981972694397,0.17978231608867645,0
43,0.20999622344970703,-0.6806880831718445,-34.11452865600586,-4.072781085968018,19.360689163208008,0.2667136788368225,1.777347207069397,-0.19351522624492645,0.0,0.0,0.0,0.0,0.0,0.0,0.0,-0.6650329087005569,-0.07812531262813126,-0.49113018446164497,0.31810143440260114,0.220131356119156,-0.11440592173053014,-0.16366661887933867,1.0546245221547914,0.32366744800953084,-0.3923590332707911,-2.1530224165160345,0.8646274096308518,2.46593062786269,0.5444999776887769,1.0544104758940245,0.3238615046091247,-0.39250456234122666,-2.153291787532338,0.8647539153680389,2.46587817577521,0.5445020185570556,1.978769080783658e-05,-0.0009375877816989673,-0.00015138783707111707,-6.381901399007746e-06,0.0001764299863341641,0.00038028920730822404,0.0013015856223796579,0.0,0.0,0.0,0.0,0.0,0.0,0.0,-0.00021404626076693134,0.00019405659959387256,-0.0001455290704355794,-0.0002693710163033103,0.00012650573718708813,-5.245208748005936e-05,2.0408682787076415e-06,-1.978769080783658e-05,0.0009375877816989673,0.00015138783707111707,6.381901399007746e-06,-0.0001764299863341641,-0.00038028920730822404,-0.0013015856223796579,0.6806880831718445,34.11452865600586,4.072781085968018,-19.360689163208008,-0.2667136788368225,-1.777347207069397,0.19351522624492645,0
44,0.21499323844909668,-0.6806880831718445,-34.11452865600586,-4.072781085968018,19.360689163208008,0.2667136788368225,1.777347207069397,-0.19351522624492645,0.0,0.0,0.0,0.0,0.0,0.0,0.0,-0.6650329087005569,-0.07812531262813126,-0.49113018446164497,0.31810143440260114,0.220131356119156,-0.11440592173053014,-0.16366661887933867,1.0546245221547914,0.32366744800953084,-0.3923590332707911,-2.1530224165160345,0.8646274096308518,2.46593062786269,0.5444999776887769,1.0544104758940245,0.3238615046091247,-0.39250456234122666,-2.153291787532338,0.8647539153680389,2.46587817577521,0.5445020185570556,1.978769080783658e-05,-0.0009375877816989673,-0.00015138783707111707,-6.381901399007746e-06,0.0001764299863341641,0.00038028920730822404,0.0013015856223796579,0.0,0.0,0.0,0.0,0.0,0.0,0.0,-0.00021404626076693134,0.00019405659959387256,-0.0001455290704355794,-0.0002693710163033103,0.00012650573718708813,-5.245208748005936e-05,2.0408682787076415e-06,-1.978769080783658e-05,0.0009375877816989673,0.00015138783707111707,6.381901399007746e-06,-0.0001764299863341641,-0.00038028920730822404,-0.0013015856223796579,0.6806880831718445,34.11452865600586,4.072781085968018,-19.360689163208008,-0.2667136788368225,-1.777347207069397,0.19351522624492645,0
45,0.21999645233154297,-0.6568843722343445,-34.16213607788086,-4.096584796905518,19.360689163208008,0.2722068428993225,1.796573281288147,-0.13858358561992645,0.0,0.0,0.0,0.0,0.0,0.0,0.0,-0.6612264218304531,-0.08664810361752749,-0.48710071422801043,0.32495379223184323,0.21923794725763368,-0.11506266039929534,-0.16395656817819376,1.054622851718936,0.32367356498054883,-0.3923573923020279,-2.153022348536492,0.8646269185787533,2.465928491632144,0.54449279982261,1.0544104758940245,0.3238615046091247,-0.39250456234122666,-2.153291787532338,0.8647539153680389,2.46587817577521,0.5445020185570556,-0.00016852284525867859,9.378259884291147e-05,0.0011333356102622438,9.236516878682428e-05,0.00017127861147087515,-0.00013985824567982056,-0.0013214456391593319,0.0,0.0,0.0,0.0,0.0,0.0,0.0,-0.00021237582491151485,0.00018793962857588387,-0.00014717003919878513,-0.00026943899584574993,0.0001269967892856272,-5.0315856933824676e-05,9.218734445592958e-06,0.00016852284525867859,-9.378259884291147e-05,-0.0011333356102622438,-9.236516878682428e-05,-0.00017127861147087515,0.00013985824567982056,0.0013214456391593319,0.6568843722343445,34.16213607788086,4.096584796905518,-19.360689163208008,-0.2722068428993225,-1.796573281288147,0.13858358561992645,0
46,0.22503185272216797,-0.6568843722343445,-34.16213607788086,-4.096584796905518,19.360689163208008,0.2722068428993225,1.796573281288147,-0.13858358561992645,0.0,0.0,0.0,0.0,0.0,0.0,0.0,-0.6612264218304531,-0.08664810361752749,-0.48710071422801043,0.32495379223184323,0.21923794725763368,-0.11506266039929534,-0.16395656817819376,1.054622851718936,0.32367356498054883,-0.3923573923020279,-2.153022348536492,0.8646269185787533,2.465928491632144,0.54449279982261,1.0544104758940245,0.3238615046091247,-0.39250456234122666,-2.153291787532338,0.8647539153680389,2.46587817577521,0.5445020185570556,-0.00016852284525867859,9.378259884291147e-05,0.0011333356102622438,9.236516878682428e-05,0.00017127861147087515,-0.00013985824567982056,-0.0013214456391593319,0.0,0.0,0.0,0.0,0.0,0.0,0.0,-0.00021237582491151485,0.00018793962857588387,-0.00014717003919878513,-0.00026943899584574993,0.0001269967892856272,-5.0315856933824676e-05,9.218734445592958e-06,0.00016852284525867859,-9.378259884291147e-05,-0.0011333356102622438,-9.236516878682428e-05,-0.00017127861147087515,0.00013985824567982056,0.0013214456391593319,0.6568843722343445,34.16213607788086,4.096584796905518,-19.360689163208008,-0.2722068428993225,-1.796573281288147,0.13858358561992645,0
47,0.22999310493469238,-0.6053096652030945,-34.21371078491211,-4.072781085968018,19.388460159301758,0.2722068428993225,1.783755898475647,-0.13217489421367645,0.0,0.0,0.0,0.0,0.0,0.0,0.0,-0.6613903198964446,-0.07960627520957414,-0.4851607827008583,0.3194032755183504,0.21960874447566087,-0.11570995190935292,-0.16497957089430054,1.0546192324412496,0.323677263601411,-0.39235919232205396,-2.15302437390736,0.8646301370667202,2.465931522903619,0.5444959883148899,1.0544104758940245,0.3238615046091247,-0.39250456234122666,-2.153291787532338,0.8647539153680389,2.46587817577521,0.5445020185570556,-0.0010345007036886493,0.0012745612819957189,0.0007202794472649863,-0.0011192809866380547,-8.805985304024428e-05,0.00029663236940391676,-0.0019073974231205136,0.0,0.0,0.0,0.0,0.0,0.0,0.0,-0.0002087565472250752,0.00018424100771369245,-0.00014537001917269698,-0.0002674136249778414,0.00012377830131871104,-5.334712840898703e-05,6.030242165722122e-06,0.0010345007036886493,-0.0012745612819957189,-0.0007202794472649863,0.0011192809866380547,8.805985304024428e-05,-0.00029663236940391676,0.0019073974231205136,0.6053096652030945,34.21371078491211,4.072781085968018,-19.388460159301758,-0.2722068428993225,-1.783755898475647,0.13217489421367645,0
48,0.23639416694641113,-0.6053096652030945,-34.21371078491211,-4.072781085968018,19.388460159301758,0.2722068428993225,1.783755898475647,-0.13217489421367645,0.0,0.0,0.0,0.0,0.0,0.0,0.0,-0.6613903198964446,-0.07960627520957414,-0.4851607827008583,0.3194032755183504,0.21960874447566087,-0.11570995190935292,-0.16497957089430054,1.0546192324412496,0.323677263601411,-0.39235919232205396,-2.15302437390736,0.8646301370667202,2.465931522903619,0.5444959883148899,1.0544104758940245,0.3238615046091247,-0.39250456234122666,-2.153291787532338,0.8647539153680389,2.46587817577521,0.5445020185570556,-0.0010345007036886493,0.0012745612819957189,0.0007202794472649863,-0.0011192809866380547,-8.805985304024428e-05,0.00029663236940391676,-0.0019073974231205136,0.0,0.0,0.0,0.0,0.0,0.0,0.0,-0.0002087565472250752,0.00018424100771369245,-0.00014537001917269698,-0.0002674136249778414,0.00012377830131871104,-5.334712840898703e-05,6.030242165722122e-06,0.0010345007036886493,-0.0012745612819957189,-0.0007202794472649863,0.0011192809866380547,8.805985304024428e-05,-0.00029663236940391676,0.0019073974231205136,0.6053096652030945,34.21371078491211,4.072781085968018,-19.388460159301758,-0.2722068428993225,-1.783755898475647,0.13217489421367645,0
49,0.23999547958374023,-0.5815059542655945,-34.18990707397461,-4.025173664093018,19.360689163208008,0.2667136788368225,1.790164589881897,-0.13858358561992645,0.0,0.0,0.0,0.0,0.0,0.0,0.0,-0.6578081496519149,-0.07732972464662345,-0.483115622314227,0.31770473258242343,0.21966011684471565,-0.11601704165059659,-0.16616354886412651,1.0546175620053944,0.32367554028113404,-0.392363248388771,-2.153022424121153,0.864627413978941,2.465929203711991,0.5444970491954876,1.0544104758940245,0.3238615046091247,-0.39250456234122666,-2.153291787532338,0.8647539153680389,2.46587817577521,0.5445020185570556,-0.0010435248187511612,0.0010502957593826897,0.00021065419115604627,-0.0004177188344664281,0.00012849589791260395,-2.4988718638970684e-05,-0.0010391375370073764,0.0,0.0,0.0,0.0,0.0,0.0,0.0,-0.00020708611136988075,0.00018596432799067308,-0.00014131395245564615,-0.0002693634111849974,0.00012650138909786612,-5.102793678091189e-05,4.969361568019082e-06,0.0010435248187511612,-0.0010502957593826897,-0.00021065419115604627,0.0004177188344664281,-0.00012849589791260395,2.4988718638970684e-05,0.0010391375370073764,0.5815059542655945,34.18990707397461,4.025173664093018,-19.360689163208008,-0.2667136788368225,-1.790164589881897,0.13858358561992645,0
50,0.2449951171875,-0.5815059542655945,-34.18990707397461,-4.025173664093018,19.360689163208008,0.2667136788368225,1.790164589881897,-0.13858358561992645,0.0,0.0,0.0,0.0,0.0,0.0,0.0,-0.6578081496519149,-0.07732972464662345,-0.483115622314227,0.31770473258242343,0.21966011684471565,-0.11601704165059659,-0.16616354886412651,1.0546175620053944,0.32367554028113404,-0.392363248388771,-2.153022424121153,0.864627413978941,2.465929203711991,0.5444970491954876,1.0544104758940245,0.3238615046091247,-0.39250456234122666,-2.153291787532338,0.8647539153680389,2.46587817577521,0.5445020185570556,-0.0010435248187511612,0.0010502957593826897,0.00021065419115604627,-0.0004177188344664281,0.00012849589791260395,-2.4988718638970684e-05,-0.0010391375370073764,0.0,0.0,0.0,0.0,0.0,0.0,0.0,-0.00020708611136988075,0.00018596432799067308,-0.00014131395245564615,-0.0002693634111849974,0.00012650138909786612,-5.102793678091189e-05,4.969361568019082e-06,0.0010435248187511612,-0.0010502957593826897,-0.00021065419115604627,0.0004177188344664281,-0.00012849589791260395,2.4988718638970684e-05,0.0010391375370073764,0.5815059542655945,34.18990707397461,4.025173664093018,-19.360689163208008,-0.2667136788368225,-1.790164589881897,0.13858358561992645,0
51,0.24999594688415527,-0.6291133761405945,-34.13833236694336,-4.025173664093018,19.360689163208008,0.2667136788368225,1.790164589881897,-0.15231649577617645,0.0,0.0,0.0,0.0,0.0,0.0,0.0,-0.6615708885823998,-0.0805472402767223,-0.48962637081220634,0.3205111397765699,0.21974165676762544,-0.11507798306350951,-0.1656736066135686,1.054620902877105,0.3236690649224698,-0.3923623309697661,-2.153022422231536,0.8646274139726686,2.4659292174450163,0.5444974365145259,1.0544104758940245,0.3238615046091247,-0.39250456234122666,-2.153291787532338,0.8647539153680389,2.46587817577521,0.5445020185570556,0.0001614678912257092,5.4082394126224734e-05,-0.00018032483446099945,0.00011702489213872005,0.00010629946761677219,-4.244896527717685e-05,7.52235669347999e-05,0.0,0.0,0.0,0.0,0.0,0.0,0.0,-0.00021042698308049168,0.00019243968665494382,-0.00014223137146057718,-0.0002693653008019048,0.00012650139537029315,-5.104166980629543e-05,4.5820425297327105e-06,-0.0001614678912257092,-5.4082394126224734e-05,0.00018032483446099945,-0.00011702489213872005,-0.00010629946761677219,4.244896527717685e-05,-7.52235669347999e-05,0.6291133761405945,34.13833236694336,4.025173664093018,-19.360689163208008,-0.2667136788368225,-1.790164589881897,0.15231649577617645,0
52,0.25499439239501953,-0.6291133761405945,-34.13833236694336,-4.025173664093018,19.360689163208008,0.2667136788368225,1.790164589881897,-0.15231649577617645,0.0,0.0,0.0,0.0,0.0,0.0,0.0,-0.6615708885823998,-0.0805472402767223,-0.48962637081220634,0.3205111397765699,0.21974165676762544,-0.11507798306350951,-0.1656736066135686,1.054620902877105,0.3236690649224698,-0.3923623309697661,-2.153022422231536,0.8646274139726686,2.4659292174450163,0.5444974365145259,1.0544104758940245,0.3238615046091247,-0.39250456234122666,-2.153291787532338,0.8647539153680389,2.46587817577521,0.5445020185570556,0.0001614678912257092,5.4082394126224734e-05,-0.00018032483446099945,0.00011702489213872005,0.00010629946761677219,-4.244896527717685e-05,7.52235669347999e-05,0.0,0.0,0.0,0.0,0.0,0.0,0.0,-0.00021042698308049168,0.00019243968665494382,-0.00014223137146057718,-0.0002693653008019048,0.00012650139537029315,-5.104166980629543e-05,4.5820425297327105e-06,-0.0001614678912257092,-5.4082394126224734e-05,0.00018032483446099945,-0.00011702489213872005,-0.00010629946761677219,4.244896527717685e-05,-7.52235669347999e-05,0.6291133761405945,34.13833236694336,4.025173664093018,-19.360689163208008,-0.2667136788368225,-1.790164589881897,0.15231649577617645,0
53,0.2600088119506836,-0.6291133761405945,-34.13833236694336,-4.025173664093018,19.360689163208008,0.2667136788368225,1.790164589881897,-0.15231649577617645,0.0,0.0,0.0,0.0,0.0,0.0,0.0,-0.6615708885823998,-0.0805472402767223,-0.48962637081220634,0.3205111397765699,0.21974165676762544,-0.11507798306350951,-0.1656736066135686,1.054620902877105,0.3236690649224698,-0.3923623309697661,-2.153022422231536,0.8646274139726686,2.4659292174450163,0.5444974365145259,1.0544104758940245,0.3238615046091247,-0.39250456234122666,-2.153291787532338,0.8647539153680389,2.46587817577521,0.5445020185570556,0.0001614678912257092,5.4082394126224734e-05,-0.00018032483446099945,0.00011702489213872005,0.00010629946761677219,-4.244896527717685e-05,7.52235669347999e-05,0.0,0.0,0.0,0.0,0.0,0.0,0.0,-0.00021042698308049168,0.00019243968665494382,-0.00014223137146057718,-0.0002693653008019048,0.00012650139537029315,-5.104166980629543e-05,4.5820425297327105e-06,-0.0001614678912257092,-5.4082394126224734e-05,0.00018032483446099945,-0.00011702489213872005,-0.00010629946761677219,4.244896527717685e-05,-7.52235669347999e-05,0.6291133761405945,34.13833236694336,4.025173664093018,-19.360689163208008,-0.2667136788368225,-1.790164589881897,0.15231649577617645,0
54,0.2650418281555176,-0.6291133761405945,-34.13833236694336,-4.025173664093018,19.360689163208008,0.2667136788368225,1.790164589881897,-0.15231649577617645,0.0,0.0,0.0,0.0,0.0,0.0,0.0,-0.6615708885823998,-0.0805472402767223,-0.48962637081220634,0.3205111397765699,0.21974165676762544,-0.11507798306350951,-0.1656736066135686,1.054620902877105,0.3236690649224698,-0.3923623309697661,-2.153022422231536,0.8646274139726686,2.4659292174450163,0.5444974365145259,1.0544104758940245,0.3238615046091247,-0.39250456234122666,-2.153291787532338,0.8647539153680389,2.46587817577521,0.5445020185570556,0.0001614678912257092,5.4082394126224734e-05,-0.00018032483446099945,0.00011702489213872005,0.00010629946761677219,-4.244896527717685e-05,7.52235669347999e-05,0.0,0.0,0.0,0.0,0.0,0.0,0.0,-0.00021042698308049168,0.00019243968665494382,-0.00014223137146057718,-0.0002693653008019048,0.00012650139537029315,-5.104166980629543e-05,4.5820425297327105e-06,-0.0001614678912257092,-5.4082394126224734e-05,0.00018032483446099945,-0.00011702489213872005,-0.00010629946761677219,4.244896527717685e-05,-7.52235669347999e-05,0.6291133761405945,34.13833236694336,4.025173664093018,-19.360689163208008,-0.2667136788368225,-1.790164589881897,0.15231649577617645,0
55,0.2699911594390869,-0.6568843722343445,-34.16213607788086,-4.048977375030518,19.360689163208008,0.2841086983680725,1.777347207069397,-0.15964071452617645,0.0,0.0,0.0,0.0,0.0,0.0,0.0,-0.6520947554672981,-0.08752931513454218,-0.48548448987350307,0.3280900078587254,0.2194864190774822,-0.11437920271848623,-0.1643896003933501,1.054622851718936,0.3236726344900567,-0.39236062433892005,-2.1530224250659447,0.8646286954283962,2.46593062786269,0.5444992605453837,1.0544104758940245,0.3238615046091247,-0.39250456234122666,-2.153291787532338,0.8647539153680389,2.46587817577521,0.5445020185570556,0.000494844606662605,-3.620228674242164e-05,0.0007326093349928542,0.0004321421972083627,-0.0003266564022259057,0.00037998137118788733,0.00010245710347685096,0.0,0.0,0.0,0.0,0.0,0.0,0.0,-0.00021237582491151485,0.00018887011906804085,-0.00014393800230660947,-0.00026936246639319705,0.00012521993964276223,-5.245208748005936e-05,2.758011671932792e-06,-0.000494844606662605,3.620228674242164e-05,-0.0007326093349928542,-0.0004321421972083627,0.0003266564022259057,-0.00037998137118788733,-0.00010245710347685096,0.6568843722343445,34.16213607788086,4.048977375030518,-19.360689163208008,-0.2841086983680725,-1.777347207069397,0.15964071452617645,0
56,0.2749903202056885,-0.6568843722343445,-34.16213607788086,-4.048977375030518,19.360689163208008,0.2841086983680725,1.777347207069397,-0.15964071452617645,0.0,0.0,0.0,0.0,0.0,0.0,0.0,-0.6520947554672981,-0.08752931513454218,-0.48548448987350307,0.3280900078587254,0.2194864190774822,-0.11437920271848623,-0.1643896003933501,1.054622851718936,0.3236726344900567,-0.39236062433892005,-2.1530224250659447,0.8646286954283962,2.46593062786269,0.5444992605453837,1.0544104758940245,0.3238615046091247,-0.39250456234122666,-2.153291787532338,0.8647539153680389,2.46587817577521,0.5445020185570556,0.000494844606662605,-3.620228674242164e-05,0.0007326093349928542,0.0004321421972083627,-0.0003266564022259057,0.00037998137118788733,0.00010245710347685096,0.0,0.0,0.0,0.0,0.0,0.0,0.0,-0.00021237582491151485,0.00018887011906804085,-0.00014393800230660947,-0.00026936246639319705,0.00012521993964276223,-5.245208748005936e-05,2.758011671932792e-06,-0.000494844606662605,3.620228674242164e-05,-0.0007326093349928542,-0.0004321421972083627,0.0003266564022259057,-0.00037998137118788733,-0.00010245710347685096,0.6568843722343445,34.16213607788086,4.048977375030518,-19.360689163208008,-0.2841086983680725,-1.777347207069397,0.15964071452617645,0
57,0.27998924255371094,-0.6806880831718445,-34.18990707397461,-4.048977375030518,19.360689163208008,0.2667136788368225,1.790164589881897,-0.15964071452617645,0.0,0.0,0.0,0.0,0.0,0.0,0.0,-0.6631941726943045,-0.09184713319770517,-0.4933407684079278,0.3272085681072009,0.22012336510947925,-0.11409231943411294,-0.16363676483719602,1.0546245221547914,0.32367252776818933,-0.3923606343682124,-2.153022416527699,0.8646275288394685,2.4659292037089666,0.544495152764256,1.0544104758940245,0.3238615046091247,-0.39250456234122666,-2.153291787532338,0.8647539153680389,2.46587817577521,0.5445020185570556,4.3433259110197324e-05,-1.3148575408297987e-05,0.00016769814237336077,-0.00011196948934388669,0.00022704011985932878,-6.755553977878611e-05,-0.00041267060454791923,0.0,0.0,0.0,0.0,0.0,0.0,0.0,-0.00021404626076693134,0.00018897684093538425,-0.0001439279730142684,-0.0002693710046388631,0.00012638652857044352,-5.102793375666437e-05,6.865792799626291e-06,-4.3433259110197324e-05,1.3148575408297987e-05,-0.00016769814237336077,0.00011196948934388669,-0.00022704011985932878,6.755553977878611e-05,0.00041267060454791923,0.6806880831718445,34.18990707397461,4.048977375030518,-19.360689163208008,-0.2667136788368225,-1.790164589881897,0.15964071452617645,0
58,0.28502631187438965,-0.6806880831718445,-34.18990707397461,-4.048977375030518,19.360689163208008,0.2667136788368225,1.790164589881897,-0.15964071452617645,0.0,0.0,0.0,0.0,0.0,0.0,0.0,-0.6631941726943045,-0.09184713319770517,-0.4933407684079278,0.3272085681072009,0.22012336510947925,-0.11409231943411294,-0.16363676483719602,1.0546245221547914,0.32367252776818933,-0.3923606343682124,-2.153022416527699,0.8646275288394685,2.4659292037089666,0.544495152764256,1.0544104758940245,0.3238615046091247,-0.39250456234122666,-2.153291787532338,0.8647539153680389,2.46587817577521,0.5445020185570556,4.3433259110197324e-05,-1.3148575408297987e-05,0.00016769814237336077,-0.00011196948934388669,0.00022704011985932878,-6.755553977878611e-05,-0.00041267060454791923,0.0,0.0,0.0,0.0,0.0,0.0,0.0,-0.00021404626076693134,0.00018897684093538425,-0.0001439279730142684,-0.0002693710046388631,0.00012638652857044352,-5.102793375666437e-05,6.865792799626291e-06,-4.3433259110197324e-05,1.3148575408297987e-05,-0.00016769814237336077,0.00011196948934388669,-0.00022704011985932878,6.755553977878611e-05,0.00041267060454791923,0.6806880831718445,34.18990707397461,4.048977375030518,-19.360689163208008,-0.2667136788368225,-1.790164589881897,0.15964071452617645,0
59,0.2900431156158447,-0.6806880831718445,-34.13833236694336,-4.072781085968018,19.388460159301758,0.2786155343055725,1.783755898475647,-0.18710653483867645,0.0,0.0,0.0,0.0,0.0,0.0,0.0,-0.6626483538659952,-0.08308008561092159,-0.4896657745937471,0.31966640656427786,0.21990775001680465,-0.11527475105307965,-0.1632654383689841,1.0546245221547914,0.3236696163331999,-0.39236112737233597,-2.153024373907776,0.8646293190256349,2.4659299157857895,0.5445010126125561,1.0544104758940245,0.3238615046091247,-0.39250456234122666,-2.153291787532338,0.8647539153680389,2.46587817577521,0.5445020185570556,-0.00025376994094893833,-0.0006003819262562747,-0.0002360363006626953,-0.000645146030657864,-0.00024729489024503655,0.00028438321364490106,0.0011687938786471219,0.0,0.0,0.0,0.0,0.0,0.0,0.0,-0.00021404626076693134,0.00019188827592481195,-0.00014343496889068774,-0.0002674136245617298,0.0001245963424040264,-5.174001057950406e-05,1.0059444994769962e-06,0.00025376994094893833,0.0006003819262562747,0.0002360363006626953,0.000645146030657864,0.00024729489024503655,-0.00028438321364490106,-0.0011687938786471219,0.6806880831718445,34.13833236694336,4.072781085968018,-19.388460159301758,-0.2786155343055725,-1.783755898475647,0.18710653483867645,0
60,0.2950103282928467,-0.6806880831718445,-34.13833236694336,-4.072781085968018,19.388460159301758,0.2786155343055725,1.783755898475647,-0.18710653483867645,0.0,0.0,0.0,0.0,0.0,0.0,0.0,-0.6626483538659952,-0.08308008561092159,-0.4896657745937471,0.31966640656427786,0.21990775001680465,-0.11527475105307965,-0.1632654383689841,1.0546245221547914,0.3236696163331999,-0.39236112737233597,-2.153024373907776,0.8646293190256349,2.4659299157857895,0.5445010126125561,1.0544104758940245,0.3238615046091247,-0.39250456234122666,-2.153291787532338,0.8647539153680389,2.46587817577521,0.5445020185570556,-0.00025376994094893833,-0.0006003819262562747,-0.0002360363006626953,-0.000645146030657864,-0.00024729489024503655,0.00028438321364490106,0.0011687938786471219,0.0,0.0,0.0,0.0,0.0,0.0,0.0,-0.00021404626076693134,0.00019188827592481195,-0.00014343496889068774,-0.0002674136245617298,0.0001245963424040264,-5.174001057950406e-05,1.0059444994769962e-06,0.00025376994094893833,0.0006003819262562747,0.0002360363006626953,0.000645146030657864,0.00024729489024503655,-0.00028438321364490106,-0.0011687938786471219,0.6806880831718445,34.13833236694336,4.072781085968018,-19.388460159301758,-0.2786155343055725,-1.783755898475647,0.18710653483867645,0
61,0.29999542236328125,-0.6806880831718445,-34.18990707397461,-4.072781085968018,19.388460159301758,0.2786155343055725,1.783755898475647,-0.19351522624492645,0.0,0.0,0.0,0.0,0.0,0.0,0.0,-0.6574997817719085,-0.09307056113574969,-0.48938027246610705,0.3223345891494252,0.2197656634522757,-0.11543734675107477,-0.16403118170683514,1.0546245221547914,0.3236753505188204,-0.3923589538061135,-2.153022299110171,0.8646262065201741,2.4659299157857895,0.544499531497144,1.0544104758940245,0.3238615046091247,-0.39250456234122666,-2.153291787532338,0.8647539153680389,2.46587817577521,0.5445020185570556,0.00015717234583396687,-7.287634843900615e-05,-0.00015980808492794618,-0.0008728545267248809,-0.0003066473935609913,0.00034905786184362994,0.0013459102513786252,0.0,0.0,0.0,0.0,0.0,0.0,0.0,-0.00021404626076693134,0.0001861540903043135,-0.00014560853511313976,-0.00026948842216700797,0.00012770884786483805,-5.174001057950406e-05,2.4870599115711656e-06,-0.00015717234583396687,7.287634843900615e-05,0.00015980808492794618,0.0008728545267248809,0.0003066473935609913,-0.00034905786184362994,-0.0013459102513786252,0.6806880831718445,34.18990707397461,4.072781085968018,-19.388460159301758,-0.2786155343055725,-1.783755898475647,0.19351522624492645,0
62,0.30493974685668945,-0.6806880831718445,-34.18990707397461,-4.072781085968018,19.388460159301758,0.2786155343055725,1.783755898475647,-0.19351522624492645,0.0,0.0,0.0,0.0,0.0,0.0,0.0,-0.6574997817719085,-0.09307056113574969,-0.48938027246610705,0.3223345891494252,0.2197656634522757,-0.11543734675107477,-0.16403118170683514,1.0546245221547914,0.3236753505188204,-0.3923589538061135,-2.153022299110171,0.8646262065201741,2.4659299157857895,0.544499531497144,1.0544104758940245,0.3238615046091247,-0.39250456234122666,-2.153291787532338,0.8647539153680389,2.46587817577521,0.5445020185570556,0.00015717234583396687,-7.287634843900615e-05,-0.00015980808492794618,-0.0008728545267248809,-0.0003066473935609913,0.00034905786184362994,0.0013459102513786252,0.0,0.0,0.0,0.0,0.0,0.0,0.0,-0.00021404626076693134,0.0001861540903043135,-0.00014560853511313976,-0.00026948842216700797,0.00012770884786483805,-5.174001057950406e-05,2.4870599115711656e-06,-0.00015717234583396687,7.287634843900615e-05,0.00015980808492794618,0.0008728545267248809,0.0003066473935609913,-0.00034905786184362994,-0.0013459102513786252,0.6806880831718445,34.18990707397461,4.072781085968018,-19.388460159301758,-0.2786155343055725,-1.783755898475647,0.19351522624492645,0
63,0.31002020835876465,-0.6568843722343445,-34.18990707397461,-4.072781085968018,19.360689163208008,0.2722068428993225,1.790164589881897,-0.13858358561992645,0.0,0.0,0.0,0.0,0.0,0.0,0.0,-0.6569639466427234,-0.09019758280770171,-0.49213838397952125,0.3198547959261199,0.2193598065233605,-0.11509641684868695,-0.16544333220133708,1.054622851718936,0.32367272923458423,-0.39236117907025403,-2.1530217359745283,0.8646272760437711,2.4659292037089666,0.5444958740788616,1.0544104758940245,0.3238615046091247,-0.39250456234122666,-2.153291787532338,0.8647539153680389,2.46587817577521,0.5445020185570556,-0.0007435833502148031,0.0004209791391884219,0.00013970107123136623,-1.4494739482692047e-05,0.00014971258736986803,9.398818859074622e-05,-0.0014699760084299078,0.0,0.0,0.0,0.0,0.0,0.0,0.0,-0.00021237582491151485,0.0001887753745404841,-0.00014338327097263015,-0.0002700515578095697,0.00012663932426781876,-5.102793375666437e-05,6.144478194025638e-06,0.0007435833502148031,-0.0004209791391884219,-0.00013970107123136623,1.4494739482692047e-05,-0.00014971258736986803,-9.398818859074622e-05,0.0014699760084299078,0.6568843722343445,34.18990707397461,4.072781085968018,-19.360689163208008,-0.2722068428993225,-1.790164589881897,0.13858358561992645,0
64,0.31499314308166504,-0.6568843722343445,-34.18990707397461,-4.072781085968018,19.360689163208008,0.2722068428993225,1.790164589881897,-0.13858358561992645,0.0,0.0,0.0,0.0,0.0,0.0,0.0,-0.6569639466427234,-0.09019758280770171,-0.49213838397952125,0.3198547959261199,0.2193598065233605,-0.11509641684868695,-0.16544333220133708,1.054622851718936,0.32367272923458423,-0.39236117907025403,-2.1530217359745283,0.8646272760437711,2.4659292037089666,0.5444958740788616,1.0544104758940245,0.3238615046091247,-0.39250456234122666,-2.153291787532338,0.8647539153680389,2.46587817577521,0.5445020185570556,-0.0007435833502148031,0.0004209791391884219,0.00013970107123136623,-1.4494739482692047e-05,0.00014971258736986803,9.398818859074622e-05,-0.0014699760084299078,0.0,0.0,0.0,0.0,0.0,0.0,0.0,-0.00021237582491151485,0.0001887753745404841,-0.00014338327097263015,-0.0002700515578095697,0.00012663932426781876,-5.102793375666437e-05,6.144478194025638e-06,0.0007435833502148031,-0.0004209791391884219,-0.00013970107123136623,1.4494739482692047e-05,-0.00014971258736986803,-9.398818859074622e-05,0.0014699760084299078,0.6568843722343445,34.18990707397461,4.072781085968018,-19.360689163208008,-0.2722068428993225,-1.790164589881897,0.13858358561992645,0
65,0.32001328468322754,-0.6291133761405945,-34.13833236694336,-3.9974029064178467,19.388460159301758,0.2722068428993225,1.783755898475647,-0.19351522624492645,0.0,0.0,0.0,0.0,0.0,0.0,0.0,-0.6455365524663121,-0.08694025913360597,-0.48111945445586113,0.3169561567596845,0.21905232169145367,-0.11620237525429025,-0.16682698956584102,1.054620902877105,0.3236719990912471,-0.39236427133870305,-2.153023454606049,0.8646268389450605,2.465931028405825,0.5444985458299992,1.0544104758940245,0.3238615046091247,-0.39250456234122666,-2.153291787532338,0.8647539153680389,2.46587817577521,0.5445020185570556,-0.00033193959919283755,-0.00011736658200684548,-0.0006945577636309204,-0.0008683421608424449,0.00015896347783682802,0.0001992937157921487,0.0013629431585426236,0.0,0.0,0.0,0.0,0.0,0.0,0.0,-0.00021042698308049168,0.0001895055178776084,-0.00014029100252360704,-0.0002683329262889167,0.0001270764229783783,-5.285263061516332e-05,3.4727270563639223e-06,0.00033193959919283755,0.00011736658200684548,0.0006945577636309204,0.0008683421608424449,-0.00015896347783682802,-0.0001992937157921487,-0.0013629431585426236,0.6291133761405945,34.13833236694336,3.9974029064178467,-19.388460159301758,-0.2722068428993225,-1.783755898475647,0.19351522624492645,0
66,0.3250265121459961,-0.6291133761405945,-34.13833236694336,-3.9974029064178467,19.388460159301758,0.2722068428993225,1.783755898475647,-0.19351522624492645,0.0,0.0,0.0,0.0,0.0,0.0,0.0,-0.6455365524663121,-0.08694025913360597,-0.48111945445586113,0.3169561567596845,0.21905232169145367,-0.11620237525429025,-0.16682698956584102,1.054620902877105,0.3236719990912471,-0.39236427133870305,-2.153023454606049,0.8646268389450605,2.465931028405825,0.5444985458299992,1.0544104758940245,0.3238615046091247,-0.39250456234122666,-2.153291787532338,0.8647539153680389,2.46587817577521,0.5445020185570556,-0.00033193959919283755,-0.00011736658200684548,-0.0006945577636309204,-0.0008683421608424449,0.00015896347783682802,0.0001992937157921487,0.0013629431585426236,0.0,0.0,0.0,0.0,0.0,0.0,0.0,-0.00021042698308049168,0.0001895055178776084,-0.00014029100252360704,-0.0002683329262889167,0.0001270764229783783,-5.285263061516332e-05,3.4727270563639223e-06,0.00033193959919283755,0.00011736658200684548,0.0006945577636309204,0.0008683421608424449,-0.00015896347783682802,-0.0001992937157921487,-0.0013629431585426236,0.6291133761405945,34.13833236694336,3.9974029064178467,-19.388460159301758,-0.2722068428993225,-1.783755898475647,0.19351522624492645,0
67,0.33002614974975586,-0.6568843722343445,-34.09072494506836,-4.048977375030518,19.360689163208008,0.2841086983680725,1.790164589881897,-0.13858358561992645,0.0,0.0,0.0,0.0,0.0,0.0,0.0,-0.6697955282476983,-0.08867167662356785,-0.49991514829392797,0.3176852858704027,0.2205400411448066,-0.1143167005321635,-0.16620899111556844,1.054622851718936,0.3236656896138396,-0.3923615779041724,-2.153022425060771,0.8646254767777778,2.4659292037152474,0.5444928143500296,1.0544104758940245,0.3238615046091247,-0.39250456234122666,-2.153291787532338,0.8647539153680389,2.46587817577521,0.5445020185570556,-0.00015370627873345896,-0.0007200100716425668,9.937078328678463e-05,0.0001418744618246994,-0.00041719527399469426,-7.359985276179161e-05,-0.0013122926280260446,0.0,0.0,0.0,0.0,0.0,0.0,0.0,-0.00021237582491151485,0.00019581499528509294,-0.0001429844370542388,-0.00026936247156683635,0.00012843859026112625,-5.102794003741806e-05,9.20420702599234e-06,0.00015370627873345896,0.0007200100716425668,-9.937078328678463e-05,-0.0001418744618246994,0.00041719527399469426,7.359985276179161e-05,0.0013122926280260446,0.6568843722343445,34.09072494506836,4.048977375030518,-19.360689163208008,-0.2841086983680725,-1.790164589881897,0.13858358561992645,0
68,0.33500242233276367,-0.6568843722343445,-34.09072494506836,-4.048977375030518,19.360689163208008,0.2841086983680725,1.790164589881897,-0.13858358561992645,0.0,0.0,0.0,0.0,0.0,0.0,0.0,-0.6697955282476983,-0.08867167662356785,-0.49991514829392797,0.3176852858704027,0.2205400411448066,-0.1143167005321635,-0.16620899111556844,1.054622851718936,0.3236656896138396,-0.3923615779041724,-2.153022425060771,0.8646254767777778,2.4659292037152474,0.5444928143500296,1.0544104758940245,0.3238615046091247,-0.39250456234122666,-2.153291787532338,0.8647539153680389,2.46587817577521,0.5445020185570556,-0.00015370627873345896,-0.0007200100716425668,9.937078328678463e-05,0.0001418744618246994,-0.00041719527399469426,-7.359985276179161e-05,-0.0013122926280260446,0.0,0.0,0.0,0.0,0.0,0.0,0.0,-0.00021237582491151485,0.00019581499528509294,-0.0001429844370542388,-0.00026936247156683635,0.00012843859026112625,-5.102794003741806e-05,9.20420702599234e-06,0.00015370627873345896,0.0007200100716425668,-9.937078328678463e-05,-0.0001418744618246994,0.00041719527399469426,7.359985276179161e-05,0.0013122926280260446,0.6568843722343445,34.09072494506836,4.048977375030518,-19.360689163208008,-0.2841086983680725,-1.790164589881897,0.13858358561992645,0
69,0.33995509147644043,-0.6291133761405945,-34.13833236694336,-4.025173664093018,19.360689163208008,0.2722068428993225,1.790164589881897,-0.20083944499492645,0.0,0.0,0.0,0.0,0.0,0.0,0.0,-0.6624418736608391,-0.08554371140307772,-0.4911335386394308,0.3185985099548411,0.22083229580835426,-0.11522925671391011,-0.16507277489183458,1.054620902877105,0.32367200919567984,-0.39236229500875347,-2.1530221951627633,0.8646267993694633,2.4659292174450167,0.5444992868889932,1.0544104758940245,0.3238615046091247,-0.39250456234122666,-2.153291787532338,0.8647539153680389,2.46587817577521,0.5445020185570556,-0.0007154770223444339,0.0001727501510085043,-0.0002789412104032369,-0.00037690430290305014,6.606030532467838e-05,-0.00015581348938856134,0.0018897083984927643,0.0,0.0,0.0,0.0,0.0,0.0,0.0,-0.00021042698308049168,0.00018949541344487342,-0.00014226733247318935,-0.00026959236957457833,0.00012711599857562206,-5.104166980673952e-05,2.731668062416759e-06,0.0007154770223444339,-0.0001727501510085043,0.0002789412104032369,0.00037690430290305014,-6.606030532467838e-05,0.00015581348938856134,-0.0018897083984927643,0.6291133761405945,34.13833236694336,4.025173664093018,-19.360689163208008,-0.2722068428993225,-1.790164589881897,0.20083944499492645,0
70,0.3449978828430176,-0.6291133761405945,-34.13833236694336,-4.025173664093018,19.360689163208008,0.2722068428993225,1.790164589881897,-0.20083944499492645,0.0,0.0,0.0,0.0,0.0,0.0,0.0,-0.6624418736608391,-0.08554371140307772,-0.4911335386394308,0.3185985099548411,0.22083229580835426,-0.11522925671391011,-0.16507277489183458,1.054620902877105,0.32367200919567984,-0.39236229500875347,-2.1530221951627633,0.8646267993694633,2.4659292174450167,0.5444992868889932,1.0544104758940245,0.3238615046091247,-0.39250456234122666,-2.153291787532338,0.8647539153680389,2.46587817577521,0.5445020185570556,-0.0007154770223444339,0.0001727501510085043,-0.0002789412104032369,-0.00037690430290305014,6.606030532467838e-05,-0.00015581348938856134,0.0018897083984927643,0.0,0.0,0.0,0.0,0.0,0.0,0.0,-0.00021042698308049168,0.00018949541344487342,-0.00014226733247318935,-0.00026959236957457833,0.00012711599857562206,-5.104166980673952e-05,2.731668062416759e-06,0.0007154770223444339,-0.0001727501510085043,0.0002789412104032369,0.00037690430290305014,-6.606030532467838e-05,0.00015581348938856134,-0.0018897083984927643,0.6291133761405945,34.13833236694336,4.025173664093018,-19.360689163208008,-0.2722068428993225,-1.790164589881897,0.20083944499492645,0
71,0.3500063419342041,-0.6291133761405945,-34.13833236694336,-4.048977375030518,19.360689163208008,0.2786155343055725,1.790164589881897,-0.14590780436992645,0.0,0.0,0.0,0.0,0.0,0.0,0.0,-0.6495098958378511,-0.0869056953188411,-0.47653537549147185,0.32208411584827223,0.2206283934842481,-0.11620431661881077,-0.1638109495427919,1.0546216181328423,0.32366975631592254,-0.39236134341002377,-2.153021710790072,0.8646261268655467,2.4659292037090443,0.5444974293471011,1.0544104758940245,0.3238615046091247,-0.39250456234122666,-2.153291787532338,0.8647539153680389,2.46587817577521,0.5445020185570556,0.00021903657963872114,-0.0005576201074537506,0.0007333773402129615,-0.00036742757002682975,-0.0002008222323165769,-9.805696753447857e-05,-0.0006587154614949105,0.0,0.0,0.0,0.0,0.0,0.0,0.0,-0.00021114223881779637,0.00019174829320217635,-0.00014321893120289308,-0.00027007674226586786,0.00012778850249217655,-5.102793383437998e-05,4.5892099544975196e-06,-0.00021903657963872114,0.0005576201074537506,-0.0007333773402129615,0.00036742757002682975,0.0002008222323165769,9.805696753447857e-05,0.0006587154614949105,0.6291133761405945,34.13833236694336,4.048977375030518,-19.360689163208008,-0.2786155343055725,-1.790164589881897,0.14590780436992645,0
72,0.35500144958496094,-0.6291133761405945,-34.13833236694336,-4.048977375030518,19.360689163208008,0.2786155343055725,1.790164589881897,-0.14590780436992645,0.0,0.0,0.0,0.0,0.0,0.0,0.0,-0.6495098958378511,-0.0869056953188411,-0.47653537549147185,0.32208411584827223,0.2206283934842481,-0.11620431661881077,-0.1638109495427919,1.0546216181328423,0.32366975631592254,-0.39236134341002377,-2.153021710790072,0.8646261268655467,2.4659292037090443,0.5444974293471011,1.0544104758940245,0.3238615046091247,-0.39250456234122666,-2.153291787532338,0.8647539153680389,2.46587817577521,0.5445020185570556,0.00021903657963872114,-0.0005576201074537506,0.0007333773402129615,-0.00036742757002682975,-0.0002008222323165769,-9.805696753447857e-05,-0.0006587154614949105,0.0,0.0,0.0,0.0,0.0,0.0,0.0,-0.00021114223881779637,0.00019174829320217635,-0.00014321893120289308,-0.00027007674226586786,0.00012778850249217655,-5.102793383437998e-05,4.5892099544975196e-06,-0.00021903657963872114,0.0005576201074537506,-0.0007333773402129615,0.00036742757002682975,0.0002008222323165769,9.805696753447857e-05,0.0006587154614949105,0.6291133761405945,34.13833236694336,4.048977375030518,-19.360689163208008,-0.2786155343055725,-1.790164589881897,0.14590780436992645,0
73,0.36001110076904297,-0.6806880831718445,-34.18990707397461,-4.072781085968018,19.313081741333008,0.2667136788368225,1.796573281288147,-0.13858358561992645,0.0,0.0,0.0,0.0,0.0,0.0,0.0,-0.6607769162389954,-0.08296581920676308,-0.4889788418575903,0.3187340539447594,0.22121834078546293,-0.11534779467939077,-0.16383460157205615,1.0546245221561372,0.3236747975854631,-0.39235966908727293,-2.153019084146249,0.864630628208394,2.465928491632144,0.5444960180001261,1.0544104758940245,0.3238615046091247,-0.39250456234122666,-2.153291787532338,0.8647539153680389,2.46587817577521,0.5445020185570556,0.0011060689327628622,0.0010501691644613314,0.00048202512813491665,0.001050021000924124,0.0002467605908412498,-0.00029080619551264937,-0.0010869231720833112,0.0,0.0,0.0,0.0,0.0,0.0,0.0,-0.0002140462621127437,0.00018670702366163638,-0.0001448932539537262,-0.0002727033860887573,0.00012328715964493586,-5.0315856933824676e-05,6.000556929453005e-06,-0.0011060689327628622,-0.0010501691644613314,-0.00048202512813491665,-0.001050021000924124,-0.0002467605908412498,0.00029080619551264937,0.0010869231720833112,0.6806880831718445,34.18990707397461,4.072781085968018,-19.313081741333008,-0.2667136788368225,-1.796573281288147,0.13858358561992645,0
74,0.36499762535095215,-0.6806880831718445,-34.18990707397461,-4.072781085968018,19.313081741333008,0.2667136788368225,1.796573281288147,-0.13858358561992645,0.0,0.0,0.0,0.0,0.0,0.0,0.0,-0.6607769162389954,-0.08296581920676308,-0.4889788418575903,0.3187340539447594,0.22121834078546293,-0.11534779467939077,-0.16383460157205615,1.0546245221561372,0.3236747975854631,-0.39235966908727293,-2.153019084146249,0.864630628208394,2.465928491632144,0.5444960180001261,1.0544104758940245,0.3238615046091247,-0.39250456234122666,-2.153291787532338,0.8647539153680389,2.46587817577521,0.5445020185570556,0.0011060689327628622,0.0010501691644613314,0.00048202512813491665,0.001050021000924124,0.0002467605908412498,-0.00029080619551264937,-0.0010869231720833112,0.0,0.0,0.0,0.0,0.0,0.0,0.0,-0.0002140462621127437,0.00018670702366163638,-0.0001448932539537262,-0.0002727033860887573,0.00012328715964493586,-5.0315856933824676e-05,6.000556929453005e-06,-0.0011060689327628622,-0.0010501691644613314,-0.00048202512813491665,-0.001050021000924124,-0.0002467605908412498,0.00029080619551264937,0.0010869231720833112,0.6806880831718445,34.18990707397461,4.072781085968018,-19.313081741333008,-0.2667136788368225,-1.796573281288147,0.13858358561992645,0
75,0.37000465393066406,-0.6806880831718445,-34.18990707397461,-4.072781085968018,19.313081741333008,0.2667136788368225,1.796573281288147,-0.13858358561992645,0.0,0.0,0.0,0.0,0.0,0.0,0.0,-0.6607769162389954,-0.08296581920676308,-0.4889788418575903,0.3187340539447594,0.22121834078546293,-0.11534779467939077,-0.16383460157205615,1.0546245221561372,0.3236747975854631,-0.39235966908727293,-2.153019084146249,0.864630628208394,2.465928491632144,0.5444960180001261,1.0544104758940245,0.3238615046091247,-0.39250456234122666,-2.153291787532338,0.8647539153680389,2.46587817577521,0.5445020185570556,0.0011060689327628622,0.0010501691644613314,0.00048202512813491665,0.001050021000924124,0.0002467605908412498,-0.00029080619551264937,-0.0010869231720833112,0.0,0.0,0.0,0.0,0.0,0.0,0.0,-0.0002140462621127437,0.00018670702366163638,-0.0001448932539537262,-0.0002727033860887573,0.00012328715964493586,-5.0315856933824676e-05,6.000556929453005e-06,-0.0011060689327628622,-0.0010501691644613314,-0.00048202512813491665,-0.001050021000924124,-0.0002467605908412498,0.00029080619551264937,0.0010869231720833112,0.6806880831718445,34.18990707397461,4.072781085968018,-19.313081741333008,-0.2667136788368225,-1.796573281288147,0.13858358561992645,0
76,0.3749678134918213,-0.6806880831718445,-34.18990707397461,-4.072781085968018,19.313081741333008,0.2667136788368225,1.796573281288147,-0.13858358561992645,0.0,0.0,0.0,0.0,0.0,0.0,0.0,-0.6607769162389954,-0.08296581920676308,-0.4889788418575903,0.3187340539447594,0.22121834078546293,-0.11534779467939077,-0.16383460157205615,1.0546245221561372,0.3236747975854631,-0.39235966908727293,-2.153019084146249,0.864630628208394,2.465928491632144,0.5444960180001261,1.0544104758940245,0.3238615046091247,-0.39250456234122666,-2.153291787532338,0.8647539153680389,2.46587817577521,0.5445020185570556,0.0011060689327628622,0.0010501691644613314,0.00048202512813491665,0.001050021000924124,0.0002467605908412498,-0.00029080619551264937,-0.0010869231720833112,0.0,0.0,0.0,0.0,0.0,0.0,0.0,-0.0002140462621127437,0.00018670702366163638,-0.0001448932539537262,-0.0002727033860887573,0.00012328715964493586,-5.0315856933824676e-05,6.000556929453005e-06,-0.0011060689327628622,-0.0010501691644613314,-0.00048202512813491665,-0.001050021000924124,-0.0002467605908412498,0.00029080619551264937,0.0010869231720833112,0.6806880831718445,34.18990707397461,4.072781085968018,-19.313081741333008,-0.2667136788368225,-1.796573281288147,0.13858358561992645,0
77,0.37995481491088867,-0.6568843722343445,-34.16213607788086,-4.025173664093018,19.360689163208008,0.2667136788368225,1.796573281288147,-0.17337362468242645,0.0,0.0,0.0,0.0,0.0,0.0,0.0,-0.6506114105513143,-0.08521572764674853,-0.48370871867948995,0.3186928401091809,0.22063196724716175,-0.11549890560755341,-0.1641111433396726,1.054622851718936,0.3236727171363183,-0.39236476719489916,-2.1530224165626914,0.8646274095756707,2.465928491632144,0.5444972504216643,1.0544104758940245,0.3238615046091247,-0.39250456234122666,-2.153291787532338,0.8647539153680389,2.46587817577521,0.5445020185570556,6.752017076325005e-05,-0.0004582213802860937,-0.00038531503720249256,-0.00021339927730241892,0.000398065148393067,-0.00027012100282606345,0.0007005249939467672,0.0,0.0,0.0,0.0,0.0,0.0,0.0,-0.00021237582491151485,0.0001887874728064287,-0.00013979514632750378,-0.0002693709696464097,0.00012650579236817006,-5.0315856933824676e-05,4.768135391297612e-06,-6.752017076325005e-05,0.0004582213802860937,0.00038531503720249256,0.00021339927730241892,-0.000398065148393067,0.00027012100282606345,-0.0007005249939467672,0.6568843722343445,34.16213607788086,4.025173664093018,-19.360689163208008,-0.2667136788368225,-1.796573281288147,0.17337362468242645,0
78,0.38500165939331055,-0.6568843722343445,-34.16213607788086,-4.025173664093018,19.360689163208008,0.2667136788368225,1.796573281288147,-0.17337362468242645,0.0,0.0,0.0,0.0,0.0,0.0,0.0,-0.6506114105513143,-0.08521572764674853,-0.48370871867948995,0.3186928401091809,0.22063196724716175,-0.11549890560755341,-0.1641111433396726,1.054622851718936,0.3236727171363183,-0.39236476719489916,-2.1530224165626914,0.8646274095756707,2.465928491632144,0.5444972504216643,1.0544104758940245,0.3238615046091247,-0.39250456234122666,-2.153291787532338,0.8647539153680389,2.46587817577521,0.5445020185570556,6.752017076325005e-05,-0.0004582213802860937,-0.00038531503720249256,-0.00021339927730241892,0.000398065148393067,-0.00027012100282606345,0.0007005249939467672,0.0,0.0,0.0,0.0,0.0,0.0,0.0,-0.00021237582491151485,0.0001887874728064287,-0.00013979514632750378,-0.0002693709696464097,0.00012650579236817006,-5.0315856933824676e-05,4.768135391297612e-06,-6.752017076325005e-05,0.0004582213802860937,0.00038531503720249256,0.00021339927730241892,-0.000398065148393067,0.00027012100282606345,-0.0007005249939467672,0.6568843722343445,34.16213607788086,4.025173664093018,-19.360689163208008,-0.2667136788368225,-1.796573281288147,0.17337362468242645,0
79,0.39000773429870605,-0.6568843722343445,-34.16213607788086,-4.025173664093018,19.360689163208008,0.2667136788368225,1.796573281288147,-0.17337362468242645,0.0,0.0,0.0,0.0,0.0,0.0,0.0,-0.6506114105513143,-0.08521572764674853,-0.48370871867948995,0.3186928401091809,0.22063196724716175,-0.11549890560755341,-0.1641111433396726,1.054622851718936,0.3236727171363183,-0.39236476719489916,-2.1530224165626914,0.8646274095756707,2.465928491632144,0.5444972504216643,1.0544104758940245,0.3238615046091247,-0.39250456234122666,-2.153291787532338,0.8647539153680389,2.46587817577521,0.5445020185570556,6.752017076325005e-05,-0.0004582213802860937,-0.00038531503720249256,-0.00021339927730241892,0.000398065148393067,-0.00027012100282606345,0.0007005249939467672,0.0,0.0,0.0,0.0,0.0,0.0,0.0,-0.00021237582491151485,0.0001887874728064287,-0.00013979514632750378,-0.0002693709696464097,0.00012650579236817006,-5.0315856933824676e-05,4.768135391297612e-06,-6.752017076325005e-05,0.0004582213802860937,0.00038531503720249256,0.00021339927730241892,-0.000398065148393067,0.00027012100282606345,-0.0007005249939467672,0.6568843722343445,34.16213607788086,4.025173664093018,-19.360689163208008,-0.2667136788368225,-1.796573281288147,0.17337362468242645,0
80,0.39499497413635254,-0.6568843722343445,-34.18990707397461,-4.048977375030518,19.313081741333008,0.2786155343055725,1.790164589881897,-0.17337362468242645,0.0,0.0,0.0,0.0,0.0,0.0,0.0,-0.6536974607492362,-0.09058551547666999,-0.4871573117605981,0.3188245090489422,0.22092433048540805,-0.11493016173014521,-0.16400337125231887,1.054622851718936,0.3236753103725693,-0.39236094507853436,-2.1530190498661907,0.864626087129116,2.4659292037089666,0.5444973718589985,1.0544104758940245,0.3238615046091247,-0.39250456234122666,-2.153291787532338,0.8647539153680389,2.46587817577521,0.5445020185570556,4.457193981024359e-05,-0.0002403883424183967,-0.0003808583449379903,0.0010460669953091118,-6.141168105059733e-05,2.746700090099216e-05,0.000623298671744305,0.0,0.0,0.0,0.0,0.0,0.0,0.0,-0.00021237582491151485,0.00018619423655541478,-0.00014361726269229713,-0.0002727376661471048,0.00012782823892287798,-5.102793375666437e-05,4.646698057109155e-06,-4.457193981024359e-05,0.0002403883424183967,0.0003808583449379903,-0.0010460669953091118,6.141168105059733e-05,-2.746700090099216e-05,-0.000623298671744305,0.6568843722343445,34.18990707397461,4.048977375030518,-19.313081741333008,-0.2786155343055725,-1.790164589881897,0.17337362468242645,0
