rezayati/contactInterpretation/dataset/franka_main/labeled_data/link6/b13_7.csv
index,time,tau_J0,tau_J1,tau_J2,tau_J3,tau_J4,tau_J5,tau_J6,tau_J_d0,tau_J_d1,tau_J_d2,tau_J_d3,tau_J_d4,tau_J_d5,tau_J_d6,tau_ext0,tau_ext1,tau_ext2,tau_ext3,tau_ext4,tau_ext5,tau_ext6,q0,q1,q2,q3,q4,q5,q6,q_d0,q_d1,q_d2,q_d3,q_d4,q_d5,q_d6,dq0,dq1,dq2,dq3,dq4,dq5,dq6,dq_d0,dq_d1,dq_d2,dq_d3,dq_d4,dq_d5,dq_d6,e0,e1,e2,e3,e4,e5,e6,de0,de1,de2,de3,de4,de5,de6,etau_J0,etau_J1,etau_J2,etau_J3,etau_J4,etau_J5,etau_J6,label
1,0.0,-0.2998287081718445,-11.873926162719727,0.9696381092071533,21.669649124145508,0.3793235421180725,2.5271639823913574,-0.27591270208358765,0.0,0.0,0.0,0.0,0.0,0.0,0.0,-0.2812386106914454,0.4088954580255222,-0.19687189499124333,0.40649795942313394,-0.15841147270893705,0.14217609349788418,-0.321707168153999,0.17287512140734154,-0.48772369330807736,-0.11138073217659666,-1.9462569164823413,0.1334525430003802,2.5953922888172976,0.9452557771592739,0.1728802376190821,-0.48752024683155326,-0.11147110072896137,-1.9463801863486305,0.1336059019074957,2.595550359778934,0.9452445589611904,8.02804753259394e-05,0.0008190202714183228,0.0005371250535197799,-0.0004746756569255704,-0.0001513810645859308,0.0004948463231348556,-0.0013835158701133634,0.0,0.0,0.0,0.0,0.0,0.0,0.0,5.116211740568977e-06,0.00020344647652409398,-9.036855236470298e-05,-0.00012326986628918846,0.00015335890711548616,0.0001580709616364473,-1.1218198083473574e-05,-8.02804753259394e-05,-0.0008190202714183228,-0.0005371250535197799,0.0004746756569255704,0.0001513810645859308,-0.0004948463231348556,0.0013835158701133634,0.2998287081718445,11.873926162719727,-0.9696381092071533,-21.669649124145508,-0.3793235421180725,-2.5271639823913574,0.27591270208358765,0
2,0.0049974918365478516,-0.2998287081718445,-11.873926162719727,0.9696381092071533,21.669649124145508,0.3793235421180725,2.5271639823913574,-0.27591270208358765,0.0,0.0,0.0,0.0,0.0,0.0,0.0,-0.2812386106914454,0.4088954580255222,-0.19687189499124333,0.40649795942313394,-0.15841147270893705,0.14217609349788418,-0.321707168153999,0.17287512140734154,-0.48772369330807736,-0.11138073217659666,-1.9462569164823413,0.1334525430003802,2.5953922888172976,0.9452557771592739,0.1728802376190821,-0.48752024683155326,-0.11147110072896137,-1.9463801863486305,0.1336059019074957,2.595550359778934,0.9452445589611904,8.02804753259394e-05,0.0008190202714183228,0.0005371250535197799,-0.0004746756569255704,-0.0001513810645859308,0.0004948463231348556,-0.0013835158701133634,0.0,0.0,0.0,0.0,0.0,0.0,0.0,5.116211740568977e-06,0.00020344647652409398,-9.036855236470298e-05,-0.00012326986628918846,0.00015335890711548616,0.0001580709616364473,-1.1218198083473574e-05,-8.02804753259394e-05,-0.0008190202714183228,-0.0005371250535197799,0.0004746756569255704,0.0001513810645859308,-0.0004948463231348556,0.0013835158701133634,0.2998287081718445,11.873926162719727,-0.9696381092071533,-21.669649124145508,-0.3793235421180725,-2.5271639823913574,0.27591270208358765,0
3,0.009997844696044922,-0.2998287081718445,-11.873926162719727,0.9696381092071533,21.669649124145508,0.3793235421180725,2.5271639823913574,-0.27591270208358765,0.0,0.0,0.0,0.0,0.0,0.0,0.0,-0.2812386106914454,0.4088954580255222,-0.19687189499124333,0.40649795942313394,-0.15841147270893705,0.14217609349788418,-0.321707168153999,0.17287512140734154,-0.48772369330807736,-0.11138073217659666,-1.9462569164823413,0.1334525430003802,2.5953922888172976,0.9452557771592739,0.1728802376190821,-0.48752024683155326,-0.11147110072896137,-1.9463801863486305,0.1336059019074957,2.595550359778934,0.9452445589611904,8.02804753259394e-05,0.0008190202714183228,0.0005371250535197799,-0.0004746756569255704,-0.0001513810645859308,0.0004948463231348556,-0.0013835158701133634,0.0,0.0,0.0,0.0,0.0,0.0,0.0,5.116211740568977e-06,0.00020344647652409398,-9.036855236470298e-05,-0.00012326986628918846,0.00015335890711548616,0.0001580709616364473,-1.1218198083473574e-05,-8.02804753259394e-05,-0.0008190202714183228,-0.0005371250535197799,0.0004746756569255704,0.0001513810645859308,-0.0004948463231348556,0.0013835158701133634,0.2998287081718445,11.873926162719727,-0.9696381092071533,-21.669649124145508,-0.3793235421180725,-2.5271639823913574,0.27591270208358765,0
4,0.015002012252807617,-0.2998287081718445,-11.873926162719727,0.9696381092071533,21.669649124145508,0.3793235421180725,2.5271639823913574,-0.27591270208358765,0.0,0.0,0.0,0.0,0.0,0.0,0.0,-0.2812386106914454,0.4088954580255222,-0.19687189499124333,0.40649795942313394,-0.15841147270893705,0.14217609349788418,-0.321707168153999,0.17287512140734154,-0.48772369330807736,-0.11138073217659666,-1.9462569164823413,0.1334525430003802,2.5953922888172976,0.9452557771592739,0.1728802376190821,-0.48752024683155326,-0.11147110072896137,-1.9463801863486305,0.1336059019074957,2.595550359778934,0.9452445589611904,8.02804753259394e-05,0.0008190202714183228,0.0005371250535197799,-0.0004746756569255704,-0.0001513810645859308,0.0004948463231348556,-0.0013835158701133634,0.0,0.0,0.0,0.0,0.0,0.0,0.0,5.116211740568977e-06,0.00020344647652409398,-9.036855236470298e-05,-0.00012326986628918846,0.00015335890711548616,0.0001580709616364473,-1.1218198083473574e-05,-8.02804753259394e-05,-0.0008190202714183228,-0.0005371250535197799,0.0004746756569255704,0.0001513810645859308,-0.0004948463231348556,0.0013835158701133634,0.2998287081718445,11.873926162719727,-0.9696381092071533,-21.669649124145508,-0.3793235421180725,-2.5271639823913574,0.27591270208358765,0
5,0.019997596740722656,-0.2998287081718445,-11.873926162719727,0.9696381092071533,21.669649124145508,0.3793235421180725,2.5271639823913574,-0.27591270208358765,0.0,0.0,0.0,0.0,0.0,0.0,0.0,-0.2812386106914454,0.4088954580255222,-0.19687189499124333,0.40649795942313394,-0.15841147270893705,0.14217609349788418,-0.321707168153999,0.17287512140734154,-0.48772369330807736,-0.11138073217659666,-1.9462569164823413,0.1334525430003802,2.5953922888172976,0.9452557771592739,0.1728802376190821,-0.48752024683155326,-0.11147110072896137,-1.9463801863486305,0.1336059019074957,2.595550359778934,0.9452445589611904,8.02804753259394e-05,0.0008190202714183228,0.0005371250535197799,-0.0004746756569255704,-0.0001513810645859308,0.0004948463231348556,-0.0013835158701133634,0.0,0.0,0.0,0.0,0.0,0.0,0.0,5.116211740568977e-06,0.00020344647652409398,-9.036855236470298e-05,-0.00012326986628918846,0.00015335890711548616,0.0001580709616364473,-1.1218198083473574e-05,-8.02804753259394e-05,-0.0008190202714183228,-0.0005371250535197799,0.0004746756569255704,0.0001513810645859308,-0.0004948463231348556,0.0013835158701133634,0.2998287081718445,11.873926162719727,-0.9696381092071533,-21.669649124145508,-0.3793235421180725,-2.5271639823913574,0.27591270208358765,0
6,0.02499842643737793,-0.24825400114059448,-11.850122451782227,1.0172455310821533,21.594270706176758,0.3738303780555725,2.5399813652038574,-0.28964561223983765,0.0,0.0,0.0,0.0,0.0,0.0,0.0,-0.2766909783840466,0.5048547586908518,-0.19267510659761602,0.3523386305870995,-0.15891254402071742,0.13370457477924516,-0.3220164872324791,0.17287150214171196,-0.4877253637439326,-0.11138407304830718,-1.9462516207727554,0.1334531533519427,2.595392041650539,0.9452578580902878,0.1728802376190821,-0.48752024683155326,-0.11147110072896137,-1.9463801863486305,0.1336059019074957,2.595550359778934,0.9452445589611904,-0.0007484683038571652,-0.00014597499432856731,0.00027967093202564507,0.0010387114933652713,3.891716314873001e-05,-0.00023196362046800658,-0.0009203711340421122,0.0,0.0,0.0,0.0,0.0,0.0,0.0,8.735477370153122e-06,0.00020511691237934393,-8.70276806541892e-05,-0.00012856557587515027,0.0001527485555530006,0.00015831812839506298,-1.3299129097421591e-05,0.0007484683038571652,0.00014597499432856731,-0.00027967093202564507,-0.0010387114933652713,-3.891716314873001e-05,0.00023196362046800658,0.0009203711340421122,0.24825400114059448,11.850122451782227,-1.0172455310821533,-21.594270706176758,-0.3738303780555725,-2.5399813652038574,0.28964561223983765,0
7,0.02999567985534668,-0.24825400114059448,-11.850122451782227,1.0172455310821533,21.594270706176758,0.3738303780555725,2.5399813652038574,-0.28964561223983765,0.0,0.0,0.0,0.0,0.0,0.0,0.0,-0.2766909783840466,0.5048547586908518,-0.19267510659761602,0.3523386305870995,-0.15891254402071742,0.13370457477924516,-0.3220164872324791,0.17287150214171196,-0.4877253637439326,-0.11138407304830718,-1.9462516207727554,0.1334531533519427,2.595392041650539,0.9452578580902878,0.1728802376190821,-0.48752024683155326,-0.11147110072896137,-1.9463801863486305,0.1336059019074957,2.595550359778934,0.9452445589611904,-0.0007484683038571652,-0.00014597499432856731,0.00027967093202564507,0.0010387114933652713,3.891716314873001e-05,-0.00023196362046800658,-0.0009203711340421122,0.0,0.0,0.0,0.0,0.0,0.0,0.0,8.735477370153122e-06,0.00020511691237934393,-8.70276806541892e-05,-0.00012856557587515027,0.0001527485555530006,0.00015831812839506298,-1.3299129097421591e-05,0.0007484683038571652,0.00014597499432856731,-0.00027967093202564507,-0.0010387114933652713,-3.891716314873001e-05,0.00023196362046800658,0.0009203711340421122,0.24825400114059448,11.850122451782227,-1.0172455310821533,-21.594270706176758,-0.3738303780555725,-2.5399813652038574,0.28964561223983765,0
8,0.03501629829406738,-0.24825400114059448,-11.802515029907227,1.0688202381134033,21.641878128051758,0.3793235421180725,2.5271639823913574,-0.27591270208358765,0.0,0.0,0.0,0.0,0.0,0.0,0.0,-0.27429582676446607,0.5118921731155366,-0.1855670293886611,0.3458373674863227,-0.15865837655277323,0.13279075403639634,-0.3226585447355038,0.17287150212965519,-0.48772870461564316,-0.11138769232599359,-1.9462549702568999,0.1334525430003802,2.595395951375762,0.9452564871591141,0.1728802376190821,-0.48752024683155326,-0.11147110072896137,-1.9463801863486305,0.1336059019074957,2.595550359778934,0.9452445589611904,-0.00013970017544098025,-0.00018258144943506465,-0.0008002538428785261,-0.00022733504795383156,-0.00016547119629262865,0.00014922653908971237,-0.0018648502796257459,0.0,0.0,0.0,0.0,0.0,0.0,0.0,8.735489426925369e-06,0.00020845778408989935,-8.34084029677773e-05,-0.00012521609173066217,0.00015335890711548616,0.00015440840317193505,-1.1928197923727346e-05,0.00013970017544098025,0.00018258144943506465,0.0008002538428785261,0.00022733504795383156,0.00016547119629262865,-0.00014922653908971237,0.0018648502796257459,0.24825400114059448,11.802515029907227,-1.0688202381134033,-21.641878128051758,-0.3793235421180725,-2.5271639823913574,0.27591270208358765,0
9,0.0400240421295166,-0.24825400114059448,-11.802515029907227,1.0688202381134033,21.641878128051758,0.3793235421180725,2.5271639823913574,-0.27591270208358765,0.0,0.0,0.0,0.0,0.0,0.0,0.0,-0.27429582676446607,0.5118921731155366,-0.1855670293886611,0.3458373674863227,-0.15865837655277323,0.13279075403639634,-0.3226585447355038,0.17287150212965519,-0.48772870461564316,-0.11138769232599359,-1.9462549702568999,0.1334525430003802,2.595395951375762,0.9452564871591141,0.1728802376190821,-0.48752024683155326,-0.11147110072896137,-1.9463801863486305,0.1336059019074957,2.595550359778934,0.9452445589611904,-0.00013970017544098025,-0.00018258144943506465,-0.0008002538428785261,-0.00022733504795383156,-0.00016547119629262865,0.00014922653908971237,-0.0018648502796257459,0.0,0.0,0.0,0.0,0.0,0.0,0.0,8.735489426925369e-06,0.00020845778408989935,-8.34084029677773e-05,-0.00012521609173066217,0.00015335890711548616,0.00015440840317193505,-1.1928197923727346e-05,0.00013970017544098025,0.00018258144943506465,0.0008002538428785261,0.00022733504795383156,0.00016547119629262865,-0.00014922653908971237,0.0018648502796257459,0.24825400114059448,11.802515029907227,-1.0688202381134033,-21.641878128051758,-0.3793235421180725,-2.5271639823913574,0.27591270208358765,0
10,0.04512143135070801,-0.24825400114059448,-11.802515029907227,1.0410492420196533,21.669649124145508,0.3674216866493225,2.5271639823913574,-0.28964561223983765,0.0,0.0,0.0,0.0,0.0,0.0,0.0,-0.27615453399697737,0.5002796037110592,-0.18504385195028336,0.3547145293746345,-0.15824116931583254,0.13446323051223075,-0.3227988485093248,0.17287150212965513,-0.48772870461564316,-0.11138576979115071,-1.9462568399529687,0.1334538654287656,2.595396546430196,0.9452611157051515,0.1728802376190821,-0.48752024683155326,-0.11147110072896137,-1.9463801863486305,0.1336059019074957,2.595550359778934,0.9452445589611904,-0.0003839971906161517,0.00015820695045344233,0.00028848188357601085,-0.00035494858529022113,0.00019876910030560362,0.00026308574787096257,-0.0006111534313384893,0.0,0.0,0.0,0.0,0.0,0.0,0.0,8.73548942698088e-06,0.00020845778408989935,-8.533093781065704e-05,-0.00012334639566180527,0.00015203647873007764,0.00015381334873820762,-1.6556743961060327e-05,0.0003839971906161517,-0.00015820695045344233,-0.00028848188357601085,0.00035494858529022113,-0.00019876910030560362,-0.00026308574787096257,0.0006111534313384893,0.24825400114059448,11.802515029907227,-1.0410492420196533,-21.669649124145508,-0.3674216866493225,-2.5271639823913574,0.28964561223983765,0
11,0.04999852180480957,-0.24825400114059448,-11.802515029907227,1.0410492420196533,21.669649124145508,0.3674216866493225,2.5271639823913574,-0.28964561223983765,0.0,0.0,0.0,0.0,0.0,0.0,0.0,-0.27615453399697737,0.5002796037110592,-0.18504385195028336,0.3547145293746345,-0.15824116931583254,0.13446323051223075,-0.3227988485093248,0.17287150212965513,-0.48772870461564316,-0.11138576979115071,-1.9462568399529687,0.1334538654287656,2.595396546430196,0.9452611157051515,0.1728802376190821,-0.48752024683155326,-0.11147110072896137,-1.9463801863486305,0.1336059019074957,2.595550359778934,0.9452445589611904,-0.0003839971906161517,0.00015820695045344233,0.00028848188357601085,-0.00035494858529022113,0.00019876910030560362,0.00026308574787096257,-0.0006111534313384893,0.0,0.0,0.0,0.0,0.0,0.0,0.0,8.73548942698088e-06,0.00020845778408989935,-8.533093781065704e-05,-0.00012334639566180527,0.00015203647873007764,0.00015381334873820762,-1.6556743961060327e-05,0.0003839971906161517,-0.00015820695045344233,-0.00028848188357601085,0.00035494858529022113,-0.00019876910030560362,-0.00026308574787096257,0.0006111534313384893,0.24825400114059448,11.802515029907227,-1.0410492420196533,-21.669649124145508,-0.3674216866493225,-2.5271639823913574,0.28964561223983765,0
12,0.054999589920043945,-0.2720577120780945,-11.826318740844727,1.0172455310821533,21.618074417114258,0.3738303780555725,2.5335726737976074,-0.30337852239608765,0.0,0.0,0.0,0.0,0.0,0.0,0.0,-0.2772956752170572,0.48584942874043663,-0.18321616705103708,0.3674305414115863,-0.1584805565207782,0.13592751242854012,-0.32149773380617686,0.1728731725655104,-0.4877270341797879,-0.11138408181745177,-1.9462533001476954,0.1334531533519427,2.5953926416605344,0.9452588209743602,0.1728802376190821,-0.48752024683155326,-0.11147110072896137,-1.9463801863486305,0.1336059019074957,2.595550359778934,0.9452445589611904,-0.00026561738752297915,-5.3425584421681904e-05,4.9738498203828815e-05,0.0010276708931481189,4.29744114268156e-05,-5.484608102413922e-05,-0.0005333130513284634,0.0,0.0,0.0,0.0,0.0,0.0,0.0,7.065053571703173e-06,0.0002067873482346494,-8.701891150959817e-05,-0.00012688620093515013,0.0001527485555530006,0.00015771811839959682,-1.4262013169785703e-05,0.00026561738752297915,5.3425584421681904e-05,-4.9738498203828815e-05,-0.0010276708931481189,-4.29744114268156e-05,5.484608102413922e-05,0.0005333130513284634,0.2720577120780945,11.826318740844727,-1.0172455310821533,-21.618074417114258,-0.3738303780555725,-2.5335726737976074,0.30337852239608765,0
13,0.059998273849487305,-0.2720577120780945,-11.826318740844727,1.0172455310821533,21.618074417114258,0.3738303780555725,2.5335726737976074,-0.30337852239608765,0.0,0.0,0.0,0.0,0.0,0.0,0.0,-0.2772956752170572,0.48584942874043663,-0.18321616705103708,0.3674305414115863,-0.1584805565207782,0.13592751242854012,-0.32149773380617686,0.1728731725655104,-0.4877270341797879,-0.11138408181745177,-1.9462533001476954,0.1334531533519427,2.5953926416605344,0.9452588209743602,0.1728802376190821,-0.48752024683155326,-0.11147110072896137,-1.9463801863486305,0.1336059019074957,2.595550359778934,0.9452445589611904,-0.00026561738752297915,-5.3425584421681904e-05,4.9738498203828815e-05,0.0010276708931481189,4.29744114268156e-05,-5.484608102413922e-05,-0.0005333130513284634,0.0,0.0,0.0,0.0,0.0,0.0,0.0,7.065053571703173e-06,0.0002067873482346494,-8.701891150959817e-05,-0.00012688620093515013,0.0001527485555530006,0.00015771811839959682,-1.4262013169785703e-05,0.00026561738752297915,5.3425584421681904e-05,-4.9738498203828815e-05,-0.0010276708931481189,-4.29744114268156e-05,5.484608102413922e-05,0.0005333130513284634,0.2720577120780945,11.826318740844727,-1.0172455310821533,-21.618074417114258,-0.3738303780555725,-2.5335726737976074,0.30337852239608765,0
14,0.06499814987182617,-0.2998287081718445,-11.802515029907227,0.9696381092071533,21.618074417114258,0.3738303780555725,2.5463900566101074,-0.26858848333358765,0.0,0.0,0.0,0.0,0.0,0.0,0.0,-0.2760817660806655,0.503151798568263,-0.1816706090877547,0.36129999089956977,-0.15823406159267728,0.13433808811166786,-0.32032624742813337,0.17287512140734154,-0.48772870461564316,-0.11138073217664617,-1.946253299821095,0.1334531533519427,2.59539345321065,0.9452576867457053,0.1728802376190821,-0.48752024683155326,-0.11147110072896137,-1.9463801863486305,0.1336059019074957,2.595550359778934,0.9452445589611904,0.0003609234705604164,-0.0002451098586880276,0.0006293824282471046,0.000993280572945406,0.0003009132910098089,-0.00032228199173614725,-0.0016604772340391848,0.0,0.0,0.0,0.0,0.0,0.0,0.0,5.116211740568977e-06,0.00020845778408989935,-9.036855231520091e-05,-0.0001268865275354525,0.0001527485555530006,0.00015690656828404315,-1.3127784514899155e-05,-0.0003609234705604164,0.0002451098586880276,-0.0006293824282471046,-0.000993280572945406,-0.0003009132910098089,0.00032228199173614725,0.0016604772340391848,0.2998287081718445,11.802515029907227,-0.9696381092071533,-21.618074417114258,-0.3738303780555725,-2.5463900566101074,0.26858848333358765,0
15,0.07000017166137695,-0.2998287081718445,-11.802515029907227,0.9696381092071533,21.618074417114258,0.3738303780555725,2.5463900566101074,-0.26858848333358765,0.0,0.0,0.0,0.0,0.0,0.0,0.0,-0.2760817660806655,0.503151798568263,-0.1816706090877547,0.36129999089956977,-0.15823406159267728,0.13433808811166786,-0.32032624742813337,0.17287512140734154,-0.48772870461564316,-0.11138073217664617,-1.946253299821095,0.1334531533519427,2.59539345321065,0.9452576867457053,0.1728802376190821,-0.48752024683155326,-0.11147110072896137,-1.9463801863486305,0.1336059019074957,2.595550359778934,0.9452445589611904,0.0003609234705604164,-0.0002451098586880276,0.0006293824282471046,0.000993280572945406,0.0003009132910098089,-0.00032228199173614725,-0.0016604772340391848,0.0,0.0,0.0,0.0,0.0,0.0,0.0,5.116211740568977e-06,0.00020845778408989935,-9.036855231520091e-05,-0.0001268865275354525,0.0001527485555530006,0.00015690656828404315,-1.3127784514899155e-05,-0.0003609234705604164,0.0002451098586880276,-0.0006293824282471046,-0.000993280572945406,-0.0003009132910098089,0.00032228199173614725,0.0016604772340391848,0.2998287081718445,11.802515029907227,-0.9696381092071533,-21.618074417114258,-0.3738303780555725,-2.5463900566101074,0.26858848333358765,0
16,0.0749974250793457,-0.2998287081718445,-11.802515029907227,0.9696381092071533,21.618074417114258,0.3738303780555725,2.5463900566101074,-0.26858848333358765,0.0,0.0,0.0,0.0,0.0,0.0,0.0,-0.2760817660806655,0.503151798568263,-0.1816706090877547,0.36129999089956977,-0.15823406159267728,0.13433808811166786,-0.32032624742813337,0.17287512140734154,-0.48772870461564316,-0.11138073217664617,-1.946253299821095,0.1334531533519427,2.59539345321065,0.9452576867457053,0.1728802376190821,-0.48752024683155326,-0.11147110072896137,-1.9463801863486305,0.1336059019074957,2.595550359778934,0.9452445589611904,0.0003609234705604164,-0.0002451098586880276,0.0006293824282471046,0.000993280572945406,0.0003009132910098089,-0.00032228199173614725,-0.0016604772340391848,0.0,0.0,0.0,0.0,0.0,0.0,0.0,5.116211740568977e-06,0.00020845778408989935,-9.036855231520091e-05,-0.0001268865275354525,0.0001527485555530006,0.00015690656828404315,-1.3127784514899155e-05,-0.0003609234705604164,0.0002451098586880276,-0.0006293824282471046,-0.000993280572945406,-0.0003009132910098089,0.00032228199173614725,0.0016604772340391848,0.2998287081718445,11.802515029907227,-0.9696381092071533,-21.618074417114258,-0.3738303780555725,-2.5463900566101074,0.26858848333358765,0
17,0.07999897003173828,-0.2998287081718445,-11.802515029907227,0.9696381092071533,21.618074417114258,0.3738303780555725,2.5463900566101074,-0.26858848333358765,0.0,0.0,0.0,0.0,0.0,0.0,0.0,-0.2760817660806655,0.503151798568263,-0.1816706090877547,0.36129999089956977,-0.15823406159267728,0.13433808811166786,-0.32032624742813337,0.17287512140734154,-0.48772870461564316,-0.11138073217664617,-1.946253299821095,0.1334531533519427,2.59539345321065,0.9452576867457053,0.1728802376190821,-0.48752024683155326,-0.11147110072896137,-1.9463801863486305,0.1336059019074957,2.595550359778934,0.9452445589611904,0.0003609234705604164,-0.0002451098586880276,0.0006293824282471046,0.000993280572945406,0.0003009132910098089,-0.00032228199173614725,-0.0016604772340391848,0.0,0.0,0.0,0.0,0.0,0.0,0.0,5.116211740568977e-06,0.00020845778408989935,-9.036855231520091e-05,-0.0001268865275354525,0.0001527485555530006,0.00015690656828404315,-1.3127784514899155e-05,-0.0003609234705604164,0.0002451098586880276,-0.0006293824282471046,-0.000993280572945406,-0.0003009132910098089,0.00032228199173614725,0.0016604772340391848,0.2998287081718445,11.802515029907227,-0.9696381092071533,-21.618074417114258,-0.3738303780555725,-2.5463900566101074,0.26858848333358765,0
18,0.08499646186828613,-0.3236324191093445,-11.802515029907227,1.0172455310821533,21.669649124145508,0.3793235421180725,2.5335726737976074,-0.28232139348983765,0.0,0.0,0.0,0.0,0.0,0.0,0.0,-0.2775052581820062,0.5030748532263579,-0.18570510791167105,0.3628793924656495,-0.15752602179089858,0.13537415635422861,-0.3185784430567566,0.1728767918431968,-0.48772870461564316,-0.11138407304830718,-1.9462562041700913,0.1334525430003802,2.59539487285476,0.9452606607569591,0.1728802376190821,-0.48752024683155326,-0.11147110072896137,-1.9463801863486305,0.1336059019074957,2.595550359778934,0.9452445589611904,0.00023248198270003673,-2.041628508755768e-06,-0.0009166605743102885,4.161109796360081e-05,0.00010623546373884556,-9.466747707125887e-05,-0.001202659762775582,0.0,0.0,0.0,0.0,0.0,0.0,0.0,3.4457758853190246e-06,0.00020845778408989935,-8.70276806541892e-05,-0.0001239821785392614,0.00015335890711548616,0.0001554869241742196,-1.6101795768719285e-05,-0.00023248198270003673,2.041628508755768e-06,0.0009166605743102885,-4.161109796360081e-05,-0.00010623546373884556,9.466747707125887e-05,0.001202659762775582,0.3236324191093445,11.802515029907227,-1.0172455310821533,-21.669649124145508,-0.3793235421180725,-2.5335726737976074,0.28232139348983765,0
19,0.08999800682067871,-0.3236324191093445,-11.802515029907227,1.0172455310821533,21.669649124145508,0.3793235421180725,2.5335726737976074,-0.28232139348983765,0.0,0.0,0.0,0.0,0.0,0.0,0.0,-0.2775052581820062,0.5030748532263579,-0.18570510791167105,0.3628793924656495,-0.15752602179089858,0.13537415635422861,-0.3185784430567566,0.1728767918431968,-0.48772870461564316,-0.11138407304830718,-1.9462562041700913,0.1334525430003802,2.59539487285476,0.9452606607569591,0.1728802376190821,-0.48752024683155326,-0.11147110072896137,-1.9463801863486305,0.1336059019074957,2.595550359778934,0.9452445589611904,0.00023248198270003673,-2.041628508755768e-06,-0.0009166605743102885,4.161109796360081e-05,0.00010623546373884556,-9.466747707125887e-05,-0.001202659762775582,0.0,0.0,0.0,0.0,0.0,0.0,0.0,3.4457758853190246e-06,0.00020845778408989935,-8.70276806541892e-05,-0.0001239821785392614,0.00015335890711548616,0.0001554869241742196,-1.6101795768719285e-05,-0.00023248198270003673,2.041628508755768e-06,0.0009166605743102885,-4.161109796360081e-05,-0.00010623546373884556,9.466747707125887e-05,0.001202659762775582,0.3236324191093445,11.802515029907227,-1.0172455310821533,-21.669649124145508,-0.3793235421180725,-2.5335726737976074,0.28232139348983765,0
20,0.09501385688781738,-0.2720577120780945,-11.826318740844727,0.9696381092071533,21.641878128051758,0.3738303780555725,2.5271639823913574,-0.30337852239608765,0.0,0.0,0.0,0.0,0.0,0.0,0.0,-0.2798221582974267,0.5004915129528376,-0.18484216145250382,0.36679016670460973,-0.15750067788355357,0.1353153305226759,-0.31852293102257584,0.1728731725655104,-0.4877270341797879,-0.11138073217659666,-1.9462542552878854,0.1334531533519427,2.5953926429458596,0.9452584578297369,0.1728802376190821,-0.48752024683155326,-0.11147110072896137,-1.9463801863486305,0.1336059019074957,2.595550359778934,0.9452445589611904,-0.0006777706304312389,0.0002454335713832466,0.000417103525495682,0.0004328639492508406,-8.18478573728969e-06,0.00010121481201393793,-7.003556184769222e-05,0.0,0.0,0.0,0.0,0.0,0.0,0.0,7.065053571703173e-06,0.0002067873482346494,-9.036855236470298e-05,-0.0001259310607450992,0.0001527485555530006,0.0001577168330744172,-1.3898868546524668e-05,0.0006777706304312389,-0.0002454335713832466,-0.000417103525495682,-0.0004328639492508406,8.18478573728969e-06,-0.00010121481201393793,7.003556184769222e-05,0.2720577120780945,11.826318740844727,-0.9696381092071533,-21.641878128051758,-0.3738303780555725,-2.5271639823913574,0.30337852239608765,0
21,0.10001182556152344,-0.2720577120780945,-11.826318740844727,0.9696381092071533,21.641878128051758,0.3738303780555725,2.5271639823913574,-0.30337852239608765,0.0,0.0,0.0,0.0,0.0,0.0,0.0,-0.2798221582974267,0.5004915129528376,-0.18484216145250382,0.36679016670460973,-0.15750067788355357,0.1353153305226759,-0.31852293102257584,0.1728731725655104,-0.4877270341797879,-0.11138073217659666,-1.9462542552878854,0.1334531533519427,2.5953926429458596,0.9452584578297369,0.1728802376190821,-0.48752024683155326,-0.11147110072896137,-1.9463801863486305,0.1336059019074957,2.595550359778934,0.9452445589611904,-0.0006777706304312389,0.0002454335713832466,0.000417103525495682,0.0004328639492508406,-8.18478573728969e-06,0.00010121481201393793,-7.003556184769222e-05,0.0,0.0,0.0,0.0,0.0,0.0,0.0,7.065053571703173e-06,0.0002067873482346494,-9.036855236470298e-05,-0.0001259310607450992,0.0001527485555530006,0.0001577168330744172,-1.3898868546524668e-05,0.0006777706304312389,-0.0002454335713832466,-0.000417103525495682,-0.0004328639492508406,8.18478573728969e-06,-0.00010121481201393793,7.003556184769222e-05,0.2720577120780945,11.826318740844727,-0.9696381092071533,-21.641878128051758,-0.3738303780555725,-2.5271639823913574,0.30337852239608765,0
22,0.10500502586364746,-0.2998287081718445,-11.826318740844727,0.9696381092071533,21.618074417114258,0.3619285225868225,2.5399813652038574,-0.33084434270858765,0.0,0.0,0.0,0.0,0.0,0.0,0.0,-0.2834453998611696,0.497668579294983,-0.18918815434388475,0.37175919967589593,-0.1576576401008828,0.1351438039646333,-0.3190926712192553,0.17287512140734154,-0.4877270341797879,-0.11138074127037038,-1.946253300144106,0.13345447740547803,2.595394396236444,0.9452658108714554,0.1728802376190821,-0.48752024683155326,-0.11147110072896137,-1.9463801863486305,0.1336059019074957,2.595550359778934,0.9452445589611904,-0.0002137731923553153,0.000217629385072017,0.00041159564165696005,0.001370329433010697,0.0006081190347929497,-0.00019013917423421435,0.0006894109128680472,0.0,0.0,0.0,0.0,0.0,0.0,0.0,5.116211740568977e-06,0.0002067873482346494,-9.035945859098282e-05,-0.00012688620452450117,0.00015142450201766078,0.0001559635424901451,-2.1251910265029927e-05,0.0002137731923553153,-0.000217629385072017,-0.00041159564165696005,-0.001370329433010697,-0.0006081190347929497,0.00019013917423421435,-0.0006894109128680472,0.2998287081718445,11.826318740844727,-0.9696381092071533,-21.618074417114258,-0.3619285225868225,-2.5399813652038574,0.33084434270858765,0
23,0.11000275611877441,-0.2998287081718445,-11.826318740844727,0.9696381092071533,21.618074417114258,0.3619285225868225,2.5399813652038574,-0.33084434270858765,0.0,0.0,0.0,0.0,0.0,0.0,0.0,-0.2834453998611696,0.497668579294983,-0.18918815434388475,0.37175919967589593,-0.1576576401008828,0.1351438039646333,-0.3190926712192553,0.17287512140734154,-0.4877270341797879,-0.11138074127037038,-1.946253300144106,0.13345447740547803,2.595394396236444,0.9452658108714554,0.1728802376190821,-0.48752024683155326,-0.11147110072896137,-1.9463801863486305,0.1336059019074957,2.595550359778934,0.9452445589611904,-0.0002137731923553153,0.000217629385072017,0.00041159564165696005,0.001370329433010697,0.0006081190347929497,-0.00019013917423421435,0.0006894109128680472,0.0,0.0,0.0,0.0,0.0,0.0,0.0,5.116211740568977e-06,0.0002067873482346494,-9.035945859098282e-05,-0.00012688620452450117,0.00015142450201766078,0.0001559635424901451,-2.1251910265029927e-05,0.0002137731923553153,-0.000217629385072017,-0.00041159564165696005,-0.001370329433010697,-0.0006081190347929497,0.00019013917423421435,-0.0006894109128680472,0.2998287081718445,11.826318740844727,-0.9696381092071533,-21.618074417114258,-0.3619285225868225,-2.5399813652038574,0.33084434270858765,0
24,0.1150047779083252,-0.3236324191093445,-11.873926162719727,1.0172455310821533,21.693452835083008,0.3738303780555725,2.5335726737976074,-0.34457725286483765,0.0,0.0,0.0,0.0,0.0,0.0,0.0,-0.28698598294407524,0.4965230578485863,-0.19587045672816505,0.3724750223701782,-0.15762842540285787,0.1354350484304096,-0.32108106565275185,0.1728767918431968,-0.48772369330807736,-0.11138407304835851,-1.9462585898616855,0.13345315335195185,2.5953915764194466,0.9452630086470913,0.1728802376190821,-0.48752024683155326,-0.11147110072896137,-1.9463801863486305,0.1336059019074957,2.595550359778934,0.9452445589611904,0.000832292296235212,0.000771193554472361,-0.000823872845191488,-0.0004537451973640202,5.536787698402631e-05,0.0003358098689595929,0.0018207382420145277,0.0,0.0,0.0,0.0,0.0,0.0,0.0,3.4457758853190246e-06,0.00020344647652409398,-8.702768060285526e-05,-0.00012159648694498593,0.00015274855554384126,0.00015878335948737998,-1.8449685900923107e-05,-0.000832292296235212,-0.000771193554472361,0.000823872845191488,0.0004537451973640202,-5.536787698402631e-05,-0.0003358098689595929,-0.0018207382420145277,0.3236324191093445,11.873926162719727,-1.0172455310821533,-21.693452835083008,-0.3738303780555725,-2.5335726737976074,0.34457725286483765,0
25,0.12000417709350586,-0.3236324191093445,-11.873926162719727,1.0172455310821533,21.693452835083008,0.3738303780555725,2.5335726737976074,-0.34457725286483765,0.0,0.0,0.0,0.0,0.0,0.0,0.0,-0.28698598294407524,0.4965230578485863,-0.19587045672816505,0.3724750223701782,-0.15762842540285787,0.1354350484304096,-0.32108106565275185,0.1728767918431968,-0.48772369330807736,-0.11138407304835851,-1.9462585898616855,0.13345315335195185,2.5953915764194466,0.9452630086470913,0.1728802376190821,-0.48752024683155326,-0.11147110072896137,-1.9463801863486305,0.1336059019074957,2.595550359778934,0.9452445589611904,0.000832292296235212,0.000771193554472361,-0.000823872845191488,-0.0004537451973640202,5.536787698402631e-05,0.0003358098689595929,0.0018207382420145277,0.0,0.0,0.0,0.0,0.0,0.0,0.0,3.4457758853190246e-06,0.00020344647652409398,-8.702768060285526e-05,-0.00012159648694498593,0.00015274855554384126,0.00015878335948737998,-1.8449685900923107e-05,-0.000832292296235212,-0.000771193554472361,0.000823872845191488,0.0004537451973640202,-5.536787698402631e-05,-0.0003358098689595929,-0.0018207382420145277,0.3236324191093445,11.873926162719727,-1.0172455310821533,-21.693452835083008,-0.3738303780555725,-2.5335726737976074,0.34457725286483765,0
26,0.1250460147857666,-0.2720577120780945,-11.850122451782227,1.0172455310821533,21.669649124145508,0.3738303780555725,2.5463900566101074,-0.34457725286483765,0.0,0.0,0.0,0.0,0.0,0.0,0.0,-0.2839801079399561,0.49932286134897563,-0.19247441647790023,0.367398480925466,-0.15839689599713597,0.13533985879961188,-0.3204961483738271,0.1728731725655104,-0.4877253637439326,-0.1113840733730848,-1.9462569194258303,0.13345635213454562,2.5953934546581867,0.9452673528079029,0.1728802376190821,-0.48752024683155326,-0.11147110072896137,-1.9463801863486305,0.1336059019074957,2.595550359778934,0.9452445589611904,-0.0002876965813687701,-7.120803097208322e-05,-0.00014207124467522942,-0.0003250903709285088,8.84922553172692e-05,-0.00033251788934964043,0.0012460578089460422,0.0,0.0,0.0,0.0,0.0,0.0,0.0,7.065053571703173e-06,0.00020511691237934393,-8.702735587656774e-05,-0.00012326692280018037,0.00014954977295006389,0.00015690512074728602,-2.2793846712443333e-05,0.0002876965813687701,7.120803097208322e-05,0.00014207124467522942,0.0003250903709285088,-8.84922553172692e-05,0.00033251788934964043,-0.0012460578089460422,0.2720577120780945,11.850122451782227,-1.0172455310821533,-21.669649124145508,-0.3738303780555725,-2.5463900566101074,0.34457725286483765,0
27,0.12999796867370605,-0.2720577120780945,-11.850122451782227,1.0172455310821533,21.669649124145508,0.3738303780555725,2.5463900566101074,-0.34457725286483765,0.0,0.0,0.0,0.0,0.0,0.0,0.0,-0.2839801079399561,0.49932286134897563,-0.19247441647790023,0.367398480925466,-0.15839689599713597,0.13533985879961188,-0.3204961483738271,0.1728731725655104,-0.4877253637439326,-0.1113840733730848,-1.9462569194258303,0.13345635213454562,2.5953934546581867,0.9452673528079029,0.1728802376190821,-0.48752024683155326,-0.11147110072896137,-1.9463801863486305,0.1336059019074957,2.595550359778934,0.9452445589611904,-0.0002876965813687701,-7.120803097208322e-05,-0.00014207124467522942,-0.0003250903709285088,8.84922553172692e-05,-0.00033251788934964043,0.0012460578089460422,0.0,0.0,0.0,0.0,0.0,0.0,0.0,7.065053571703173e-06,0.00020511691237934393,-8.702735587656774e-05,-0.00012326692280018037,0.00014954977295006389,0.00015690512074728602,-2.2793846712443333e-05,0.0002876965813687701,7.120803097208322e-05,0.00014207124467522942,0.0003250903709285088,-8.84922553172692e-05,0.00033251788934964043,-0.0012460578089460422,0.2720577120780945,11.850122451782227,-1.0172455310821533,-21.669649124145508,-0.3738303780555725,-2.5463900566101074,0.34457725286483765,0
28,0.13499975204467773,-0.2720577120780945,-11.850122451782227,1.0172455310821533,21.669649124145508,0.3738303780555725,2.5271639823913574,-0.33084434270858765,0.0,0.0,0.0,0.0,0.0,0.0,0.0,-0.2867620285796259,0.4964861516868939,-0.19843431496908678,0.3660182576966617,-0.15818238395614342,0.13577904968531368,-0.32107475652987205,0.17287388450987856,-0.4877253637439326,-0.11138407304830901,-1.9462569194258303,0.13345315336999988,2.5953924124774264,0.9452624893814305,0.1728802376190821,-0.48752024683155326,-0.11147110072896137,-1.9463801863486305,0.1336059019074957,2.595550359778934,0.9452445589611904,-0.00044580811353813106,0.0002735704183806207,-0.0002793459547528034,-0.0005342851527293702,0.0002030976975562326,0.00025772129534579956,0.0007144234385746879,0.0,0.0,0.0,0.0,0.0,0.0,0.0,6.3531092035495895e-06,0.00020511691237934393,-8.702768065235733e-05,-0.00012326692280018037,0.00015274853749580597,0.0001579473015076438,-1.7930420240119815e-05,0.00044580811353813106,-0.0002735704183806207,0.0002793459547528034,0.0005342851527293702,-0.0002030976975562326,-0.00025772129534579956,-0.0007144234385746879,0.2720577120780945,11.850122451782227,-1.0172455310821533,-21.669649124145508,-0.3738303780555725,-2.5271639823913574,0.33084434270858765,0
29,0.1399977207183838,-0.2720577120780945,-11.850122451782227,1.0172455310821533,21.669649124145508,0.3738303780555725,2.5271639823913574,-0.33084434270858765,0.0,0.0,0.0,0.0,0.0,0.0,0.0,-0.2867620285796259,0.4964861516868939,-0.19843431496908678,0.3660182576966617,-0.15818238395614342,0.13577904968531368,-0.32107475652987205,0.17287388450987856,-0.4877253637439326,-0.11138407304830901,-1.9462569194258303,0.13345315336999988,2.5953924124774264,0.9452624893814305,0.1728802376190821,-0.48752024683155326,-0.11147110072896137,-1.9463801863486305,0.1336059019074957,2.595550359778934,0.9452445589611904,-0.00044580811353813106,0.0002735704183806207,-0.0002793459547528034,-0.0005342851527293702,0.0002030976975562326,0.00025772129534579956,0.0007144234385746879,0.0,0.0,0.0,0.0,0.0,0.0,0.0,6.3531092035495895e-06,0.00020511691237934393,-8.702768065235733e-05,-0.00012326692280018037,0.00015274853749580597,0.0001579473015076438,-1.7930420240119815e-05,0.00044580811353813106,-0.0002735704183806207,0.0002793459547528034,0.0005342851527293702,-0.0002030976975562326,-0.00025772129534579956,-0.0007144234385746879,0.2720577120780945,11.850122451782227,-1.0172455310821533,-21.669649124145508,-0.3738303780555725,-2.5271639823913574,0.33084434270858765,0
30,0.14499878883361816,-0.2720577120780945,-11.826318740844727,1.0172455310821533,21.641878128051758,0.3674216866493225,2.5335726737976074,-0.33725303411483765,0.0,0.0,0.0,0.0,0.0,0.0,0.0,-0.286095573561999,0.496532810544271,-0.19657865969874022,0.36612414148856515,-0.15763573340027384,0.13579115547827467,-0.3213729175387095,0.17287317256952933,-0.4877270341797879,-0.1113862039143579,-1.946254970583999,0.1334538654287657,2.595392989035707,0.9452621026186832,0.1728802376190821,-0.48752024683155326,-0.11147110072896137,-1.9463801863486305,0.1336059019074957,2.595550359778934,0.9452445589611904,0.00018341718688476117,0.0004937360630943886,-0.00021243594528951753,0.00026121682412321893,0.00046308884643186737,0.0003361507518038425,0.0012930864781312914,0.0,0.0,0.0,0.0,0.0,0.0,0.0,7.06504955277909e-06,0.0002067873482346494,-8.489681460346898e-05,-0.00012521576463142559,0.00015203647872999437,0.00015737074322696998,-1.7543657492735676e-05,-0.00018341718688476117,-0.0004937360630943886,0.00021243594528951753,-0.00026121682412321893,-0.00046308884643186737,-0.0003361507518038425,-0.0012930864781312914,0.2720577120780945,11.826318740844727,-1.0172455310821533,-21.641878128051758,-0.3674216866493225,-2.5335726737976074,0.33725303411483765,0
31,0.15067625045776367,-0.2720577120780945,-11.826318740844727,1.0172455310821533,21.641878128051758,0.3674216866493225,2.5335726737976074,-0.33725303411483765,0.0,0.0,0.0,0.0,0.0,0.0,0.0,-0.286095573561999,0.496532810544271,-0.19657865969874022,0.36612414148856515,-0.15763573340027384,0.13579115547827467,-0.3213729175387095,0.17287317256952933,-0.4877270341797879,-0.1113862039143579,-1.946254970583999,0.1334538654287657,2.595392989035707,0.9452621026186832,0.1728802376190821,-0.48752024683155326,-0.11147110072896137,-1.9463801863486305,0.1336059019074957,2.595550359778934,0.9452445589611904,0.00018341718688476117,0.0004937360630943886,-0.00021243594528951753,0.00026121682412321893,0.00046308884643186737,0.0003361507518038425,0.0012930864781312914,0.0,0.0,0.0,0.0,0.0,0.0,0.0,7.06504955277909e-06,0.0002067873482346494,-8.489681460346898e-05,-0.00012521576463142559,0.00015203647872999437,0.00015737074322696998,-1.7543657492735676e-05,-0.00018341718688476117,-0.0004937360630943886,0.00021243594528951753,-0.00026121682412321893,-0.00046308884643186737,-0.0003361507518038425,-0.0012930864781312914,0.2720577120780945,11.826318740844727,-1.0172455310821533,-21.641878128051758,-0.3674216866493225,-2.5335726737976074,0.33725303411483765,0
32,0.1549975872039795,-0.19667929410934448,-11.774744033813477,1.0172455310821533,21.618074417114258,0.3674216866493225,2.5271639823913574,-0.34457725286483765,0.0,0.0,0.0,0.0,0.0,0.0,0.0,-0.28183531528048633,0.4906360213406148,-0.18919841370753468,0.372251431827168,-0.15725124250044373,0.13673574738444244,-0.3221321906199193,0.17286789164140537,-0.4877306534574743,-0.11138407306033597,-1.946253300148144,0.1334538654287656,2.5953959398025237,0.945267339232838,0.1728802376190821,-0.48752024683155326,-0.11147110072896137,-1.9463801863486305,0.1336059019074957,2.595550359778934,0.9452445589611904,-0.0015799736023953536,-0.0008518392683714492,4.120334633900369e-05,0.001509557308347317,0.0003270091596359166,0.00039010653321350876,0.0016099969109292845,0.0,0.0,0.0,0.0,0.0,0.0,0.0,1.234597767674206e-05,0.00021040662592103354,-8.702766862539457e-05,-0.00012688620048662003,0.00015203647873007764,0.0001544199764103027,-2.278027164759333e-05,0.0015799736023953536,0.0008518392683714492,-4.120334633900369e-05,-0.001509557308347317,-0.0003270091596359166,-0.00039010653321350876,-0.0016099969109292845,0.19667929410934448,11.774744033813477,-1.0172455310821533,-21.618074417114258,-0.3674216866493225,-2.5271639823913574,0.34457725286483765,0
33,0.15999722480773926,-0.19667929410934448,-11.774744033813477,1.0172455310821533,21.618074417114258,0.3674216866493225,2.5271639823913574,-0.34457725286483765,0.0,0.0,0.0,0.0,0.0,0.0,0.0,-0.28183531528048633,0.4906360213406148,-0.18919841370753468,0.372251431827168,-0.15725124250044373,0.13673574738444244,-0.3221321906199193,0.17286789164140537,-0.4877306534574743,-0.11138407306033597,-1.946253300148144,0.1334538654287656,2.5953959398025237,0.945267339232838,0.1728802376190821,-0.48752024683155326,-0.11147110072896137,-1.9463801863486305,0.1336059019074957,2.595550359778934,0.9452445589611904,-0.0015799736023953536,-0.0008518392683714492,4.120334633900369e-05,0.001509557308347317,0.0003270091596359166,0.00039010653321350876,0.0016099969109292845,0.0,0.0,0.0,0.0,0.0,0.0,0.0,1.234597767674206e-05,0.00021040662592103354,-8.702766862539457e-05,-0.00012688620048662003,0.00015203647873007764,0.0001544199764103027,-2.278027164759333e-05,0.0015799736023953536,0.0008518392683714492,-4.120334633900369e-05,-0.001509557308347317,-0.0003270091596359166,-0.00039010653321350876,-0.0016099969109292845,0.19667929410934448,11.774744033813477,-1.0172455310821533,-21.618074417114258,-0.3674216866493225,-2.5271639823913574,0.34457725286483765,0
34,0.16501355171203613,-0.24825400114059448,-11.826318740844727,1.0172455310821533,21.669649124145508,0.3857322335243225,2.5335726737976074,-0.30978721380233765,0.0,0.0,0.0,0.0,0.0,0.0,0.0,-0.28241404309797635,0.48671192158685606,-0.18874039459164185,0.37536449977632386,-0.1570871109973368,0.13672953304382657,-0.32219563374531085,0.17287150212970473,-0.4877270341797879,-0.1113848096439791,-1.9462569194258303,0.13345183092355728,2.595394912802452,0.9452590220199328,0.1728802376190821,-0.48752024683155326,-0.11147110072896137,-1.9463801863486305,0.1336059019074957,2.595550359778934,0.9452445589611904,-0.0009451151765561981,-0.00019207943988064726,0.0003873218388771461,-0.0005626904783136934,-0.0003150977861675439,0.00010566564169147196,-0.0003028612875968367,0.0,0.0,0.0,0.0,0.0,0.0,0.0,8.735489377381667e-06,0.0002067873482346494,-8.629108498227345e-05,-0.00012326692280018037,0.00015407098393840912,0.00015544697648195438,-1.4463058742419932e-05,0.0009451151765561981,0.00019207943988064726,-0.0003873218388771461,0.0005626904783136934,0.0003150977861675439,-0.00010566564169147196,0.0003028612875968367,0.24825400114059448,11.826318740844727,-1.0172455310821533,-21.669649124145508,-0.3857322335243225,-2.5335726737976074,0.30978721380233765,0
35,0.17000508308410645,-0.24825400114059448,-11.826318740844727,1.0172455310821533,21.669649124145508,0.3857322335243225,2.5335726737976074,-0.30978721380233765,0.0,0.0,0.0,0.0,0.0,0.0,0.0,-0.28241404309797635,0.48671192158685606,-0.18874039459164185,0.37536449977632386,-0.1570871109973368,0.13672953304382657,-0.32219563374531085,0.17287150212970473,-0.4877270341797879,-0.1113848096439791,-1.9462569194258303,0.13345183092355728,2.595394912802452,0.9452590220199328,0.1728802376190821,-0.48752024683155326,-0.11147110072896137,-1.9463801863486305,0.1336059019074957,2.595550359778934,0.9452445589611904,-0.0009451151765561981,-0.00019207943988064726,0.0003873218388771461,-0.0005626904783136934,-0.0003150977861675439,0.00010566564169147196,-0.0003028612875968367,0.0,0.0,0.0,0.0,0.0,0.0,0.0,8.735489377381667e-06,0.0002067873482346494,-8.629108498227345e-05,-0.00012326692280018037,0.00015407098393840912,0.00015544697648195438,-1.4463058742419932e-05,0.0009451151765561981,0.00019207943988064726,-0.0003873218388771461,0.0005626904783136934,0.0003150977861675439,-0.00010566564169147196,0.0003028612875968367,0.24825400114059448,11.826318740844727,-1.0172455310821533,-21.669649124145508,-0.3857322335243225,-2.5335726737976074,0.30978721380233765,0
36,0.17500042915344238,-0.24825400114059448,-11.850122451782227,0.9934418201446533,21.641878128051758,0.3738303780555725,2.5335726737976074,-0.28964561223983765,0.0,0.0,0.0,0.0,0.0,0.0,0.0,-0.27687665655915306,0.49679998856627433,-0.18126078738436832,0.37049859011684283,-0.15775002368987914,0.13531342320111006,-0.32319381197829494,0.17287150212965513,-0.4877253637439326,-0.11138453348266074,-1.9462549676405598,0.1334531533519427,2.595395946059558,0.9452600429229513,0.1728802376190821,-0.48752024683155326,-0.11147110072896137,-1.9463801863486305,0.1336059019074957,2.595550359778934,0.9452445589611904,-0.00047317782374210315,0.0008279099922062539,0.0002725253306447804,0.0003954669554466013,-0.00010487770947691212,-8.397526365422219e-06,-0.0006970571787385523,0.0,0.0,0.0,0.0,0.0,0.0,0.0,8.73548942698088e-06,0.00020511691237934393,-8.65672463006284e-05,-0.00012521870807069568,0.0001527485555530006,0.00015441371937585657,-1.5483961760875964e-05,0.00047317782374210315,-0.0008279099922062539,-0.0002725253306447804,-0.0003954669554466013,0.00010487770947691212,8.397526365422219e-06,0.0006970571787385523,0.24825400114059448,11.850122451782227,-0.9934418201446533,-21.641878128051758,-0.3738303780555725,-2.5335726737976074,0.28964561223983765,0
37,0.1800062656402588,-0.24825400114059448,-11.850122451782227,0.9934418201446533,21.641878128051758,0.3738303780555725,2.5335726737976074,-0.28964561223983765,0.0,0.0,0.0,0.0,0.0,0.0,0.0,-0.27687665655915306,0.49679998856627433,-0.18126078738436832,0.37049859011684283,-0.15775002368987914,0.13531342320111006,-0.32319381197829494,0.17287150212965513,-0.4877253637439326,-0.11138453348266074,-1.9462549676405598,0.1334531533519427,2.595395946059558,0.9452600429229513,0.1728802376190821,-0.48752024683155326,-0.11147110072896137,-1.9463801863486305,0.1336059019074957,2.595550359778934,0.9452445589611904,-0.00047317782374210315,0.0008279099922062539,0.0002725253306447804,0.0003954669554466013,-0.00010487770947691212,-8.397526365422219e-06,-0.0006970571787385523,0.0,0.0,0.0,0.0,0.0,0.0,0.0,8.73548942698088e-06,0.00020511691237934393,-8.65672463006284e-05,-0.00012521870807069568,0.0001527485555530006,0.00015441371937585657,-1.5483961760875964e-05,0.00047317782374210315,-0.0008279099922062539,-0.0002725253306447804,-0.0003954669554466013,0.00010487770947691212,8.397526365422219e-06,0.0006970571787385523,0.24825400114059448,11.850122451782227,-0.9934418201446533,-21.641878128051758,-0.3738303780555725,-2.5335726737976074,0.28964561223983765,0
38,0.18500161170959473,-0.2720577120780945,-11.774744033813477,0.9934418201446533,21.693452835083008,0.3738303780555725,2.5399813652038574,-0.34457725286483765,0.0,0.0,0.0,0.0,0.0,0.0,0.0,-0.28164079690790517,0.49321384077044594,-0.19328974322687537,0.37284628250851454,-0.15819488494224235,0.1358729953908375,-0.32323129439920223,0.1728731725655104,-0.4877306534574743,-0.11138240266056715,-1.9462585898616689,0.1334531533519427,2.595391968830199,0.9452665435951634,0.1728802376190821,-0.48752024683155326,-0.11147110072896137,-1.9463801863486305,0.1336059019074957,2.595550359778934,0.9452445589611904,-0.0008533193745155161,-0.0009912689795703849,-0.00016765817770030727,-0.0005146533284424834,4.829865819977918e-05,-0.00017316215977900492,0.0011217706250818864,0.0,0.0,0.0,0.0,0.0,0.0,0.0,7.065053571703173e-06,0.00021040662592103354,-8.869806839421901e-05,-0.00012159648696163927,0.0001527485555530006,0.00015839094873504322,-2.1984633972960133e-05,0.0008533193745155161,0.0009912689795703849,0.00016765817770030727,0.0005146533284424834,-4.829865819977918e-05,0.00017316215977900492,-0.0011217706250818864,0.2720577120780945,11.774744033813477,-0.9934418201446533,-21.693452835083008,-0.3738303780555725,-2.5399813652038574,0.34457725286483765,0
39,0.18999958038330078,-0.2720577120780945,-11.774744033813477,0.9934418201446533,21.693452835083008,0.3738303780555725,2.5399813652038574,-0.34457725286483765,0.0,0.0,0.0,0.0,0.0,0.0,0.0,-0.28164079690790517,0.49321384077044594,-0.19328974322687537,0.37284628250851454,-0.15819488494224235,0.1358729953908375,-0.32323129439920223,0.1728731725655104,-0.4877306534574743,-0.11138240266056715,-1.9462585898616689,0.1334531533519427,2.595391968830199,0.9452665435951634,0.1728802376190821,-0.48752024683155326,-0.11147110072896137,-1.9463801863486305,0.1336059019074957,2.595550359778934,0.9452445589611904,-0.0008533193745155161,-0.0009912689795703849,-0.00016765817770030727,-0.0005146533284424834,4.829865819977918e-05,-0.00017316215977900492,0.0011217706250818864,0.0,0.0,0.0,0.0,0.0,0.0,0.0,7.065053571703173e-06,0.00021040662592103354,-8.869806839421901e-05,-0.00012159648696163927,0.0001527485555530006,0.00015839094873504322,-2.1984633972960133e-05,0.0008533193745155161,0.0009912689795703849,0.00016765817770030727,0.0005146533284424834,-4.829865819977918e-05,0.00017316215977900492,-0.0011217706250818864,0.2720577120780945,11.774744033813477,-0.9934418201446533,-21.693452835083008,-0.3738303780555725,-2.5399813652038574,0.34457725286483765,0
40,0.19499826431274414,-0.2720577120780945,-11.774744033813477,0.9934418201446533,21.693452835083008,0.3738303780555725,2.5399813652038574,-0.34457725286483765,0.0,0.0,0.0,0.0,0.0,0.0,0.0,-0.28164079690790517,0.49321384077044594,-0.19328974322687537,0.37284628250851454,-0.15819488494224235,0.1358729953908375,-0.32323129439920223,0.1728731725655104,-0.4877306534574743,-0.11138240266056715,-1.9462585898616689,0.1334531533519427,2.595391968830199,0.9452665435951634,0.1728802376190821,-0.48752024683155326,-0.11147110072896137,-1.9463801863486305,0.1336059019074957,2.595550359778934,0.9452445589611904,-0.0008533193745155161,-0.0009912689795703849,-0.00016765817770030727,-0.0005146533284424834,4.829865819977918e-05,-0.00017316215977900492,0.0011217706250818864,0.0,0.0,0.0,0.0,0.0,0.0,0.0,7.065053571703173e-06,0.00021040662592103354,-8.869806839421901e-05,-0.00012159648696163927,0.0001527485555530006,0.00015839094873504322,-2.1984633972960133e-05,0.0008533193745155161,0.0009912689795703849,0.00016765817770030727,0.0005146533284424834,-4.829865819977918e-05,0.00017316215977900492,-0.0011217706250818864,0.2720577120780945,11.774744033813477,-0.9934418201446533,-21.693452835083008,-0.3738303780555725,-2.5399813652038574,0.34457725286483765,0
41,0.1999959945678711,-0.2720577120780945,-11.774744033813477,0.9934418201446533,21.693452835083008,0.3738303780555725,2.5399813652038574,-0.34457725286483765,0.0,0.0,0.0,0.0,0.0,0.0,0.0,-0.28164079690790517,0.49321384077044594,-0.19328974322687537,0.37284628250851454,-0.15819488494224235,0.1358729953908375,-0.32323129439920223,0.1728731725655104,-0.4877306534574743,-0.11138240266056715,-1.9462585898616689,0.1334531533519427,2.595391968830199,0.9452665435951634,0.1728802376190821,-0.48752024683155326,-0.11147110072896137,-1.9463801863486305,0.1336059019074957,2.595550359778934,0.9452445589611904,-0.0008533193745155161,-0.0009912689795703849,-0.00016765817770030727,-0.0005146533284424834,4.829865819977918e-05,-0.00017316215977900492,0.0011217706250818864,0.0,0.0,0.0,0.0,0.0,0.0,0.0,7.065053571703173e-06,0.00021040662592103354,-8.869806839421901e-05,-0.00012159648696163927,0.0001527485555530006,0.00015839094873504322,-2.1984633972960133e-05,0.0008533193745155161,0.0009912689795703849,0.00016765817770030727,0.0005146533284424834,-4.829865819977918e-05,0.00017316215977900492,-0.0011217706250818864,0.2720577120780945,11.774744033813477,-0.9934418201446533,-21.693452835083008,-0.3738303780555725,-2.5399813652038574,0.34457725286483765,0
42,0.20499920845031738,-0.3236324191093445,-11.826318740844727,0.9696381092071533,21.669649124145508,0.3738303780555725,2.5271639823913574,-0.33725303411483765,0.0,0.0,0.0,0.0,0.0,0.0,0.0,-0.2765596360245072,0.4964822427439501,-0.18623004073982,0.37297051765273387,-0.15875161776859634,0.13581412625682926,-0.32461116958530617,0.1728767918431968,-0.4877270341797879,-0.11138073217659693,-1.9462569194258303,0.13345316651565708,2.5953922898822817,0.945263157253645,0.1728802376190821,-0.48752024683155326,-0.11147110072896137,-1.9463801863486305,0.1336059019074957,2.595550359778934,0.9452445589611904,0.0007684745520622536,0.000380266826021225,0.0006740173974199618,-1.920173192459758e-05,0.00014987510240973024,0.00017676594264845306,0.00121445492661292,0.0,0.0,0.0,0.0,0.0,0.0,0.0,3.4457758853190246e-06,0.0002067873482346494,-9.03685523644393e-05,-0.00012326692280018037,0.0001527353918386043,0.0001580698966523464,-1.8598292454541365e-05,-0.0007684745520622536,-0.000380266826021225,-0.0006740173974199618,1.920173192459758e-05,-0.00014987510240973024,-0.00017676594264845306,-0.00121445492661292,0.3236324191093445,11.826318740844727,-0.9696381092071533,-21.669649124145508,-0.3738303780555725,-2.5271639823913574,0.33725303411483765,0
43,0.20999765396118164,-0.3236324191093445,-11.826318740844727,0.9696381092071533,21.669649124145508,0.3738303780555725,2.5271639823913574,-0.33725303411483765,0.0,0.0,0.0,0.0,0.0,0.0,0.0,-0.2765596360245072,0.4964822427439501,-0.18623004073982,0.37297051765273387,-0.15875161776859634,0.13581412625682926,-0.32461116958530617,0.1728767918431968,-0.4877270341797879,-0.11138073217659693,-1.9462569194258303,0.13345316651565708,2.5953922898822817,0.945263157253645,0.1728802376190821,-0.48752024683155326,-0.11147110072896137,-1.9463801863486305,0.1336059019074957,2.595550359778934,0.9452445589611904,0.0007684745520622536,0.000380266826021225,0.0006740173974199618,-1.920173192459758e-05,0.00014987510240973024,0.00017676594264845306,0.00121445492661292,0.0,0.0,0.0,0.0,0.0,0.0,0.0,3.4457758853190246e-06,0.0002067873482346494,-9.03685523644393e-05,-0.00012326692280018037,0.0001527353918386043,0.0001580698966523464,-1.8598292454541365e-05,-0.0007684745520622536,-0.000380266826021225,-0.0006740173974199618,1.920173192459758e-05,-0.00014987510240973024,-0.00017676594264845306,-0.00121445492661292,0.3236324191093445,11.826318740844727,-0.9696381092071533,-21.669649124145508,-0.3738303780555725,-2.5271639823913574,0.33725303411483765,0
44,0.21602153778076172,-0.2720577120780945,-11.850122451782227,0.9696381092071533,21.669649124145508,0.3857322335243225,2.5399813652038574,-0.30978721380233765,0.0,0.0,0.0,0.0,0.0,0.0,0.0,-0.28066330036517406,0.4921384689127728,-0.1906539600169311,0.37813843923536417,-0.1584806144574156,0.13566196890953347,-0.32388005617782784,0.1728731725655104,-0.4877253637439326,-0.11138073217659666,-1.9462569194258303,0.13345183092363158,2.5953908660992555,0.945263509601775,0.1728802376190821,-0.48752024683155326,-0.11147110072896137,-1.9463801863486305,0.1336059019074957,2.595550359778934,0.9452445589611904,-0.00024900740245653954,0.0006242737854839521,0.00019178384075265633,1.971859458499582e-05,-0.000330755173654062,-0.00015967273514209322,-0.0003071395701829723,0.0,0.0,0.0,0.0,0.0,0.0,0.0,7.065053571703173e-06,0.00020511691237934393,-9.036855236470298e-05,-0.00012326692280018037,0.00015407098386410745,0.0001594936796784907,-1.895064058454743e-05,0.00024900740245653954,-0.0006242737854839521,-0.00019178384075265633,-1.971859458499582e-05,0.000330755173654062,0.00015967273514209322,0.0003071395701829723,0.2720577120780945,11.850122451782227,-0.9696381092071533,-21.669649124145508,-0.3857322335243225,-2.5399813652038574,0.30978721380233765,0
45,0.220017671585083,-0.2720577120780945,-11.850122451782227,0.9696381092071533,21.669649124145508,0.3857322335243225,2.5399813652038574,-0.30978721380233765,0.0,0.0,0.0,0.0,0.0,0.0,0.0,-0.28066330036517406,0.4921384689127728,-0.1906539600169311,0.37813843923536417,-0.1584806144574156,0.13566196890953347,-0.32388005617782784,0.1728731725655104,-0.4877253637439326,-0.11138073217659666,-1.9462569194258303,0.13345183092363158,2.5953908660992555,0.945263509601775,0.1728802376190821,-0.48752024683155326,-0.11147110072896137,-1.9463801863486305,0.1336059019074957,2.595550359778934,0.9452445589611904,-0.00024900740245653954,0.0006242737854839521,0.00019178384075265633,1.971859458499582e-05,-0.000330755173654062,-0.00015967273514209322,-0.0003071395701829723,0.0,0.0,0.0,0.0,0.0,0.0,0.0,7.065053571703173e-06,0.00020511691237934393,-9.036855236470298e-05,-0.00012326692280018037,0.00015407098386410745,0.0001594936796784907,-1.895064058454743e-05,0.00024900740245653954,-0.0006242737854839521,-0.00019178384075265633,-1.971859458499582e-05,0.000330755173654062,0.00015967273514209322,0.0003071395701829723,0.2720577120780945,11.850122451782227,-0.9696381092071533,-21.669649124145508,-0.3857322335243225,-2.5399813652038574,0.30978721380233765,0
46,0.22547340393066406,-0.2720577120780945,-11.850122451782227,0.9418671131134033,21.618074417114258,0.3793235421180725,2.5399813652038574,-0.28964561223983765,0.0,0.0,0.0,0.0,0.0,0.0,0.0,-0.2826731366833302,0.5018950848274173,-0.19357545230585496,0.3731331993411156,-0.15829215960254542,0.1344345880736709,-0.32351706235161154,0.17287340988029978,-0.4877253637439326,-0.11137878333476552,-1.946253300148144,0.1334525430003802,2.595394396234453,0.9452583946344179,0.1728802376190821,-0.48752024683155326,-0.11147110072896137,-1.9463801863486305,0.1336059019074957,2.595550359778934,0.9452445589611904,-0.0004867240276698949,0.0005862831893767684,0.0013756706673812061,0.001206710440488873,-0.00011671871012796913,-0.0003266855322139956,-4.064688457976362e-05,0.0,0.0,0.0,0.0,0.0,0.0,0.0,6.827738782327897e-06,0.00020511691237934393,-9.231739419585105e-05,-0.00012688620048662003,0.00015335890711548616,0.00015596354448099703,-1.383567322743584e-05,0.0004867240276698949,-0.0005862831893767684,-0.0013756706673812061,-0.001206710440488873,0.00011671871012796913,0.0003266855322139956,4.064688457976362e-05,0.2720577120780945,11.850122451782227,-0.9418671131134033,-21.618074417114258,-0.3793235421180725,-2.5399813652038574,0.28964561223983765,0
47,0.23000574111938477,-0.2720577120780945,-11.850122451782227,0.9418671131134033,21.618074417114258,0.3793235421180725,2.5399813652038574,-0.28964561223983765,0.0,0.0,0.0,0.0,0.0,0.0,0.0,-0.2826731366833302,0.5018950848274173,-0.19357545230585496,0.3731331993411156,-0.15829215960254542,0.1344345880736709,-0.32351706235161154,0.17287340988029978,-0.4877253637439326,-0.11137878333476552,-1.946253300148144,0.1334525430003802,2.595394396234453,0.9452583946344179,0.1728802376190821,-0.48752024683155326,-0.11147110072896137,-1.9463801863486305,0.1336059019074957,2.595550359778934,0.9452445589611904,-0.0004867240276698949,0.0005862831893767684,0.0013756706673812061,0.001206710440488873,-0.00011671871012796913,-0.0003266855322139956,-4.064688457976362e-05,0.0,0.0,0.0,0.0,0.0,0.0,0.0,6.827738782327897e-06,0.00020511691237934393,-9.231739419585105e-05,-0.00012688620048662003,0.00015335890711548616,0.00015596354448099703,-1.383567322743584e-05,0.0004867240276698949,-0.0005862831893767684,-0.0013756706673812061,-0.001206710440488873,0.00011671871012796913,0.0003266855322139956,4.064688457976362e-05,0.2720577120780945,11.850122451782227,-0.9418671131134033,-21.618074417114258,-0.3793235421180725,-2.5399813652038574,0.28964561223983765,0
48,0.23500585556030273,-0.2998287081718445,-11.850122451782227,1.0172455310821533,21.669649124145508,0.3674216866493225,2.5335726737976074,-0.33725303411483765,0.0,0.0,0.0,0.0,0.0,0.0,0.0,-0.28107157046440906,0.49223055613897676,-0.18989955811335507,0.3768165034995753,-0.15867721565978168,0.13496881514457676,-0.32128150542819756,0.17287512140868116,-0.4877253637439326,-0.1113840733730848,-1.9462569194258303,0.13345386559128058,2.5953959375008657,0.9452654755093857,0.1728802376190821,-0.48752024683155326,-0.11147110072896137,-1.9463801863486305,0.1336059019074957,2.595550359778934,0.9452445589611904,0.00023174578726070167,0.00011018367548227971,-0.00016898946022936615,-0.00011104561693562663,0.0003439762511392469,0.00029212495382586394,0.0013593364567143003,0.0,0.0,0.0,0.0,0.0,0.0,0.0,5.1162104009461196e-06,0.00020511691237934393,-8.702735587656774e-05,-0.00012326692280018037,0.00015203631621510394,0.00015442227806827802,-2.0916548195248907e-05,-0.00023174578726070167,-0.00011018367548227971,0.00016898946022936615,0.00011104561693562663,-0.0003439762511392469,-0.00029212495382586394,-0.0013593364567143003,0.2998287081718445,11.850122451782227,-1.0172455310821533,-21.669649124145508,-0.3674216866493225,-2.5335726737976074,0.33725303411483765,0
49,0.2400064468383789,-0.2998287081718445,-11.850122451782227,1.0172455310821533,21.669649124145508,0.3674216866493225,2.5335726737976074,-0.33725303411483765,0.0,0.0,0.0,0.0,0.0,0.0,0.0,-0.28107157046440906,0.49223055613897676,-0.18989955811335507,0.3768165034995753,-0.15867721565978168,0.13496881514457676,-0.32128150542819756,0.17287512140868116,-0.4877253637439326,-0.1113840733730848,-1.9462569194258303,0.13345386559128058,2.5953959375008657,0.9452654755093857,0.1728802376190821,-0.48752024683155326,-0.11147110072896137,-1.9463801863486305,0.1336059019074957,2.595550359778934,0.9452445589611904,0.00023174578726070167,0.00011018367548227971,-0.00016898946022936615,-0.00011104561693562663,0.0003439762511392469,0.00029212495382586394,0.0013593364567143003,0.0,0.0,0.0,0.0,0.0,0.0,0.0,5.1162104009461196e-06,0.00020511691237934393,-8.702735587656774e-05,-0.00012326692280018037,0.00015203631621510394,0.00015442227806827802,-2.0916548195248907e-05,-0.00023174578726070167,-0.00011018367548227971,0.00016898946022936615,0.00011104561693562663,-0.0003439762511392469,-0.00029212495382586394,-0.0013593364567143003,0.2998287081718445,11.850122451782227,-1.0172455310821533,-21.669649124145508,-0.3674216866493225,-2.5335726737976074,0.33725303411483765,0
50,0.24501562118530273,-0.24825400114059448,-11.873926162719727,1.0410492420196533,21.641878128051758,0.3738303780555725,2.5399813652038574,-0.25485557317733765,0.0,0.0,0.0,0.0,0.0,0.0,0.0,-0.28137763110343916,0.49712161305688557,-0.18978860405205417,0.37163490420029993,-0.15859797780471843,0.1349270510979742,-0.32076769952945366,0.17287150212965513,-0.48772369330807736,-0.11138574348416427,-1.9462549702569503,0.1334531533519436,2.5953909053158872,0.9452541132238175,0.1728802376190821,-0.48752024683155326,-0.11147110072896137,-1.9463801863486305,0.1336059019074957,2.595550359778934,0.9452445589611904,-0.00038030325140844324,0.0008495188376183907,-0.0005113596017749344,0.0003694055359829172,0.0002620175597549272,-7.399538557267196e-06,-0.001466289199056393,0.0,0.0,0.0,0.0,0.0,0.0,0.0,8.73548942698088e-06,0.00020344647652409398,-8.53572447970935e-05,-0.00012521609168025805,0.00015274855555208466,0.0001594544630467709,-9.554262627053944e-06,0.00038030325140844324,-0.0008495188376183907,0.0005113596017749344,-0.0003694055359829172,-0.0002620175597549272,7.399538557267196e-06,0.001466289199056393,0.24825400114059448,11.873926162719727,-1.0410492420196533,-21.641878128051758,-0.3738303780555725,-2.5399813652038574,0.25485557317733765,0
51,0.2500011920928955,-0.24825400114059448,-11.873926162719727,1.0410492420196533,21.641878128051758,0.3738303780555725,2.5399813652038574,-0.25485557317733765,0.0,0.0,0.0,0.0,0.0,0.0,0.0,-0.28137763110343916,0.49712161305688557,-0.18978860405205417,0.37163490420029993,-0.15859797780471843,0.1349270510979742,-0.32076769952945366,0.17287150212965513,-0.48772369330807736,-0.11138574348416427,-1.9462549702569503,0.1334531533519436,2.5953909053158872,0.9452541132238175,0.1728802376190821,-0.48752024683155326,-0.11147110072896137,-1.9463801863486305,0.1336059019074957,2.595550359778934,0.9452445589611904,-0.00038030325140844324,0.0008495188376183907,-0.0005113596017749344,0.0003694055359829172,0.0002620175597549272,-7.399538557267196e-06,-0.001466289199056393,0.0,0.0,0.0,0.0,0.0,0.0,0.0,8.73548942698088e-06,0.00020344647652409398,-8.53572447970935e-05,-0.00012521609168025805,0.00015274855555208466,0.0001594544630467709,-9.554262627053944e-06,0.00038030325140844324,-0.0008495188376183907,0.0005113596017749344,-0.0003694055359829172,-0.0002620175597549272,7.399538557267196e-06,0.001466289199056393,0.24825400114059448,11.873926162719727,-1.0410492420196533,-21.641878128051758,-0.3738303780555725,-2.5399813652038574,0.25485557317733765,0
52,0.25500035285949707,-0.24825400114059448,-11.802515029907227,1.0172455310821533,21.669649124145508,0.3793235421180725,2.5399813652038574,-0.31711143255233765,0.0,0.0,0.0,0.0,0.0,0.0,0.0,-0.28339191584518036,0.5022146822113613,-0.19231150844123876,0.3660511776723688,-0.1584552418575202,0.13463189475188436,-0.3181950841776731,0.17287150212965513,-0.48772798935990586,-0.11138407304830718,-1.9462569194258286,0.1334525430003802,2.595391222219289,0.9452634784718787,0.1728802376190821,-0.48752024683155326,-0.11147110072896137,-1.9463801863486305,0.1336059019074957,2.595550359778934,0.9452445589611904,-0.0006655949736325303,-0.00034429697774818896,-0.00010232067519430527,-0.0006225989007232344,-0.00014368621383663142,-0.00016594618098050086,0.0002116367431251729,0.0,0.0,0.0,0.0,0.0,0.0,0.0,8.73548942698088e-06,0.00020774252835259466,-8.70276806541892e-05,-0.00012326692280195672,0.00015335890711548616,0.0001591375596450284,-1.8919510688331087e-05,0.0006655949736325303,0.00034429697774818896,0.00010232067519430527,0.0006225989007232344,0.00014368621383663142,0.00016594618098050086,-0.0002116367431251729,0.24825400114059448,11.802515029907227,-1.0172455310821533,-21.669649124145508,-0.3793235421180725,-2.5399813652038574,0.31711143255233765,0
53,0.2599968910217285,-0.24825400114059448,-11.802515029907227,1.0172455310821533,21.669649124145508,0.3793235421180725,2.5399813652038574,-0.31711143255233765,0.0,0.0,0.0,0.0,0.0,0.0,0.0,-0.28339191584518036,0.5022146822113613,-0.19231150844123876,0.3660511776723688,-0.1584552418575202,0.13463189475188436,-0.3181950841776731,0.17287150212965513,-0.48772798935990586,-0.11138407304830718,-1.9462569194258286,0.1334525430003802,2.595391222219289,0.9452634784718787,0.1728802376190821,-0.48752024683155326,-0.11147110072896137,-1.9463801863486305,0.1336059019074957,2.595550359778934,0.9452445589611904,-0.0006655949736325303,-0.00034429697774818896,-0.00010232067519430527,-0.0006225989007232344,-0.00014368621383663142,-0.00016594618098050086,0.0002116367431251729,0.0,0.0,0.0,0.0,0.0,0.0,0.0,8.73548942698088e-06,0.00020774252835259466,-8.70276806541892e-05,-0.00012326692280195672,0.00015335890711548616,0.0001591375596450284,-1.8919510688331087e-05,0.0006655949736325303,0.00034429697774818896,0.00010232067519430527,0.0006225989007232344,0.00014368621383663142,0.00016594618098050086,-0.0002116367431251729,0.24825400114059448,11.802515029907227,-1.0172455310821533,-21.669649124145508,-0.3793235421180725,-2.5399813652038574,0.31711143255233765,0
54,0.2649986743927002,-0.2720577120780945,-11.850122451782227,0.9934418201446533,21.669649124145508,0.3857322335243225,2.5399813652038574,-0.33725303411483765,0.0,0.0,0.0,0.0,0.0,0.0,0.0,-0.277480056844679,0.48274907465131933,-0.1826636375068894,0.3773975835706184,-0.15831601431300246,0.13667709992104837,-0.31772612708243286,0.1728731725655104,-0.48772536373989495,-0.11138240261245193,-1.9462569194258303,0.13345183092355728,2.595391925201045,0.9452664559230013,0.1728802376190821,-0.48752024683155326,-0.11147110072896137,-1.9463801863486305,0.1336059019074957,2.595550359778934,0.9452445589611904,0.00021760789278849318,0.0007675542993514047,0.0009496237599122151,0.00024204373297703524,-0.000599628617148352,-0.00032871967056610085,0.0013737477163308907,0.0,0.0,0.0,0.0,0.0,0.0,0.0,7.065053571703173e-06,0.00020511690834168483,-8.869811650943915e-05,-0.00012326692280018037,0.00015407098393840912,0.00015843457788911053,-2.1896961810874416e-05,-0.00021760789278849318,-0.0007675542993514047,-0.0009496237599122151,-0.00024204373297703524,0.000599628617148352,0.00032871967056610085,-0.0013737477163308907,0.2720577120780945,11.850122451782227,-0.9934418201446533,-21.669649124145508,-0.3857322335243225,-2.5399813652038574,0.33725303411483765,0
55,0.26999759674072266,-0.2720577120780945,-11.850122451782227,0.9934418201446533,21.669649124145508,0.3857322335243225,2.5399813652038574,-0.33725303411483765,0.0,0.0,0.0,0.0,0.0,0.0,0.0,-0.277480056844679,0.48274907465131933,-0.1826636375068894,0.3773975835706184,-0.15831601431300246,0.13667709992104837,-0.31772612708243286,0.1728731725655104,-0.48772536373989495,-0.11138240261245193,-1.9462569194258303,0.13345183092355728,2.595391925201045,0.9452664559230013,0.1728802376190821,-0.48752024683155326,-0.11147110072896137,-1.9463801863486305,0.1336059019074957,2.595550359778934,0.9452445589611904,0.00021760789278849318,0.0007675542993514047,0.0009496237599122151,0.00024204373297703524,-0.000599628617148352,-0.00032871967056610085,0.0013737477163308907,0.0,0.0,0.0,0.0,0.0,0.0,0.0,7.065053571703173e-06,0.00020511690834168483,-8.869811650943915e-05,-0.00012326692280018037,0.00015407098393840912,0.00015843457788911053,-2.1896961810874416e-05,-0.00021760789278849318,-0.0007675542993514047,-0.0009496237599122151,-0.00024204373297703524,0.000599628617148352,0.00032871967056610085,-0.0013737477163308907,0.2720577120780945,11.850122451782227,-0.9934418201446533,-21.669649124145508,-0.3857322335243225,-2.5399813652038574,0.33725303411483765,0
56,0.2749979496002197,-0.2998287081718445,-11.826318740844727,0.9934418201446533,21.669649124145508,0.3674216866493225,2.5271639823913574,-0.33084434270858765,0.0,0.0,0.0,0.0,0.0,0.0,0.0,-0.28143742061797256,0.48090352455038415,-0.1911532598615005,0.37787968665037874,-0.15818108488632504,0.13600318956603358,-0.31894127886296636,0.17287512140734154,-0.4877270341797879,-0.11138240293722955,-1.9462569194258303,0.13345387859248,2.595392288428485,0.9452613617557112,0.1728802376190821,-0.48752024683155326,-0.11147110072896137,-1.9463801863486305,0.1336059019074957,2.595550359778934,0.9452445589611904,0.00041539811628227307,-0.00027029135288768146,-5.608151473678276e-06,7.541293544099988e-05,0.00025097070695610476,0.0001253363710799588,0.00039843854799159186,0.0,0.0,0.0,0.0,0.0,0.0,0.0,5.116211740568977e-06,0.0002067873482346494,-8.869779173181769e-05,-0.00012326692280018037,0.00015202331501568134,0.00015807135044898502,-1.680279452076494e-05,-0.00041539811628227307,0.00027029135288768146,5.608151473678276e-06,-7.541293544099988e-05,-0.00025097070695610476,-0.0001253363710799588,-0.00039843854799159186,0.2998287081718445,11.826318740844727,-0.9934418201446533,-21.669649124145508,-0.3674216866493225,-2.5271639823913574,0.33084434270858765,0
57,0.2799992561340332,-0.2998287081718445,-11.826318740844727,0.9934418201446533,21.669649124145508,0.3674216866493225,2.5271639823913574,-0.33084434270858765,0.0,0.0,0.0,0.0,0.0,0.0,0.0,-0.28143742061797256,0.48090352455038415,-0.1911532598615005,0.37787968665037874,-0.15818108488632504,0.13600318956603358,-0.31894127886296636,0.17287512140734154,-0.4877270341797879,-0.11138240293722955,-1.9462569194258303,0.13345387859248,2.595392288428485,0.9452613617557112,0.1728802376190821,-0.48752024683155326,-0.11147110072896137,-1.9463801863486305,0.1336059019074957,2.595550359778934,0.9452445589611904,0.00041539811628227307,-0.00027029135288768146,-5.608151473678276e-06,7.541293544099988e-05,0.00025097070695610476,0.0001253363710799588,0.00039843854799159186,0.0,0.0,0.0,0.0,0.0,0.0,0.0,5.116211740568977e-06,0.0002067873482346494,-8.869779173181769e-05,-0.00012326692280018037,0.00015202331501568134,0.00015807135044898502,-1.680279452076494e-05,-0.00041539811628227307,0.00027029135288768146,5.608151473678276e-06,-7.541293544099988e-05,-0.00025097070695610476,-0.0001253363710799588,-0.00039843854799159186,0.2998287081718445,11.826318740844727,-0.9934418201446533,-21.669649124145508,-0.3674216866493225,-2.5271639823913574,0.33084434270858765,0
58,0.2858421802520752,-0.2998287081718445,-11.826318740844727,0.9934418201446533,21.669649124145508,0.3738303780555725,2.5271639823913574,-0.28964561223983765,0.0,0.0,0.0,0.0,0.0,0.0,0.0,-0.27701528666521513,0.5028161680896612,-0.18485360123037708,0.3658844161183969,-0.1593565849678432,0.13286421831832393,-0.3198155995562316,0.1728751223839456,-0.4877270341797879,-0.11138240261245376,-1.9462569194258303,0.133453153352017,2.5953926562245435,0.9452611149808603,0.1728802376190821,-0.48752024683155326,-0.11147110072896137,-1.9463801863486305,0.1336059019074957,2.595550359778934,0.9452445589611904,0.0006340703080799929,0.000352552475254772,4.310414430488035e-05,-0.0007202849183395991,1.0651448358873922e-05,0.000276777991575634,-0.0010479810856138941,0.0,0.0,0.0,0.0,0.0,0.0,0.0,5.1152351365213455e-06,0.0002067873482346494,-8.869811650760728e-05,-0.00012326692280018037,0.00015274855547869892,0.000157703554390487,-1.6556019669877742e-05,-0.0006340703080799929,-0.000352552475254772,-4.310414430488035e-05,0.0007202849183395991,-1.0651448358873922e-05,-0.000276777991575634,0.0010479810856138941,0.2998287081718445,11.826318740844727,-0.9934418201446533,-21.669649124145508,-0.3738303780555725,-2.5271639823913574,0.28964561223983765,0
59,0.28999972343444824,-0.2998287081718445,-11.826318740844727,0.9934418201446533,21.669649124145508,0.3738303780555725,2.5271639823913574,-0.28964561223983765,0.0,0.0,0.0,0.0,0.0,0.0,0.0,-0.27701528666521513,0.5028161680896612,-0.18485360123037708,0.3658844161183969,-0.1593565849678432,0.13286421831832393,-0.3198155995562316,0.1728751223839456,-0.4877270341797879,-0.11138240261245376,-1.9462569194258303,0.133453153352017,2.5953926562245435,0.9452611149808603,0.1728802376190821,-0.48752024683155326,-0.11147110072896137,-1.9463801863486305,0.1336059019074957,2.595550359778934,0.9452445589611904,0.0006340703080799929,0.000352552475254772,4.310414430488035e-05,-0.0007202849183395991,1.0651448358873922e-05,0.000276777991575634,-0.0010479810856138941,0.0,0.0,0.0,0.0,0.0,0.0,0.0,5.1152351365213455e-06,0.0002067873482346494,-8.869811650760728e-05,-0.00012326692280018037,0.00015274855547869892,0.000157703554390487,-1.6556019669877742e-05,-0.0006340703080799929,-0.000352552475254772,-4.310414430488035e-05,0.0007202849183395991,-1.0651448358873922e-05,-0.000276777991575634,0.0010479810856138941,0.2998287081718445,11.826318740844727,-0.9934418201446533,-21.669649124145508,-0.3738303780555725,-2.5271639823913574,0.28964561223983765,0
60,0.294999361038208,-0.2720577120780945,-11.802515029907227,0.9696381092071533,21.693452835083008,0.3674216866493225,2.5399813652038574,-0.30978721380233765,0.0,0.0,0.0,0.0,0.0,0.0,0.0,-0.2809504721125276,0.48344290195158257,-0.19198685763125833,0.37556751664073057,-0.15911456230442508,0.13417197543216902,-0.31946170265310186,0.17287317256552692,-0.48772870461564316,-0.11138073217659666,-1.9462585898616855,0.1334538654287656,2.5953908641135754,0.9452594261593577,0.1728802376190821,-0.48752024683155326,-0.11147110072896137,-1.9463801863486305,0.1336059019074957,2.595550359778934,0.9452445589611904,-0.00039370165360878156,-0.0008906467997287206,0.0002582431981968402,-0.0009624960126979794,0.0003455585872193134,-0.00031149794788917345,-0.0004674330292497524,0.0,0.0,0.0,0.0,0.0,0.0,0.0,7.065053555188605e-06,0.00020845778408989935,-9.036855236470298e-05,-0.00012159648694498593,0.00015203647873007764,0.00015949566535855553,-1.4867198167234363e-05,0.00039370165360878156,0.0008906467997287206,-0.0002582431981968402,0.0009624960126979794,-0.0003455585872193134,0.00031149794788917345,0.0004674330292497524,0.2720577120780945,11.802515029907227,-0.9696381092071533,-21.693452835083008,-0.3674216866493225,-2.5399813652038574,0.30978721380233765,0
61,0.29999804496765137,-0.2720577120780945,-11.802515029907227,0.9696381092071533,21.693452835083008,0.3674216866493225,2.5399813652038574,-0.30978721380233765,0.0,0.0,0.0,0.0,0.0,0.0,0.0,-0.2809504721125276,0.48344290195158257,-0.19198685763125833,0.37556751664073057,-0.15911456230442508,0.13417197543216902,-0.31946170265310186,0.17287317256552692,-0.48772870461564316,-0.11138073217659666,-1.9462585898616855,0.1334538654287656,2.5953908641135754,0.9452594261593577,0.1728802376190821,-0.48752024683155326,-0.11147110072896137,-1.9463801863486305,0.1336059019074957,2.595550359778934,0.9452445589611904,-0.00039370165360878156,-0.0008906467997287206,0.0002582431981968402,-0.0009624960126979794,0.0003455585872193134,-0.00031149794788917345,-0.0004674330292497524,0.0,0.0,0.0,0.0,0.0,0.0,0.0,7.065053555188605e-06,0.00020845778408989935,-9.036855236470298e-05,-0.00012159648694498593,0.00015203647873007764,0.00015949566535855553,-1.4867198167234363e-05,0.00039370165360878156,0.0008906467997287206,-0.0002582431981968402,0.0009624960126979794,-0.0003455585872193134,0.00031149794788917345,0.0004674330292497524,0.2720577120780945,11.802515029907227,-0.9696381092071533,-21.693452835083008,-0.3674216866493225,-2.5399813652038574,0.30978721380233765,0
62,0.3050103187561035,-0.2720577120780945,-11.774744033813477,0.9696381092071533,21.641878128051758,0.3738303780555725,2.5335726737976074,-0.27591270208358765,0.0,0.0,0.0,0.0,0.0,0.0,0.0,-0.2778132775579093,0.49165000841997647,-0.1902944011695621,0.37045634985746284,-0.1592405421377571,0.13361749951772914,-0.32204426694202104,0.17287318139111757,-0.4877306534574743,-0.11138073217659666,-1.946254970583999,0.1334531533519427,2.5953948733206413,0.9452589871890783,0.1728802376190821,-0.48752024683155326,-0.11147110072896137,-1.9463801863486305,0.1336059019074957,2.595550359778934,0.9452445589611904,-0.00033787433267503617,-0.0010795745728653947,0.0003958314474649516,0.00032810927239532297,4.345692494063398e-05,0.0003206629279938534,-0.0018577590512687283,0.0,0.0,0.0,0.0,0.0,0.0,0.0,7.056227964541417e-06,0.00021040662592103354,-9.036855236470298e-05,-0.00012521576463142559,0.0001527485555530006,0.00015548645829266405,-1.4428227887886003e-05,0.00033787433267503617,0.0010795745728653947,-0.0003958314474649516,-0.00032810927239532297,-4.345692494063398e-05,-0.0003206629279938534,0.0018577590512687283,0.2720577120780945,11.774744033813477,-0.9696381092071533,-21.641878128051758,-0.3738303780555725,-2.5335726737976074,0.27591270208358765,0
63,0.3100147247314453,-0.2720577120780945,-11.774744033813477,0.9696381092071533,21.641878128051758,0.3738303780555725,2.5335726737976074,-0.27591270208358765,0.0,0.0,0.0,0.0,0.0,0.0,0.0,-0.2778132775579093,0.49165000841997647,-0.1902944011695621,0.37045634985746284,-0.1592405421377571,0.13361749951772914,-0.32204426694202104,0.17287318139111757,-0.4877306534574743,-0.11138073217659666,-1.946254970583999,0.1334531533519427,2.5953948733206413,0.9452589871890783,0.1728802376190821,-0.48752024683155326,-0.11147110072896137,-1.9463801863486305,0.1336059019074957,2.595550359778934,0.9452445589611904,-0.00033787433267503617,-0.0010795745728653947,0.0003958314474649516,0.00032810927239532297,4.345692494063398e-05,0.0003206629279938534,-0.0018577590512687283,0.0,0.0,0.0,0.0,0.0,0.0,0.0,7.056227964541417e-06,0.00021040662592103354,-9.036855236470298e-05,-0.00012521576463142559,0.0001527485555530006,0.00015548645829266405,-1.4428227887886003e-05,0.00033787433267503617,0.0010795745728653947,-0.0003958314474649516,-0.00032810927239532297,-4.345692494063398e-05,-0.0003206629279938534,0.0018577590512687283,0.2720577120780945,11.774744033813477,-0.9696381092071533,-21.641878128051758,-0.3738303780555725,-2.5335726737976074,0.27591270208358765,0
64,0.3100147247314453,-0.2720577120780945,-11.774744033813477,0.9696381092071533,21.641878128051758,0.3738303780555725,2.5335726737976074,-0.27591270208358765,0.0,0.0,0.0,0.0,0.0,0.0,0.0,-0.2778132775579093,0.49165000841997647,-0.1902944011695621,0.37045634985746284,-0.1592405421377571,0.13361749951772914,-0.32204426694202104,0.17287318139111757,-0.4877306534574743,-0.11138073217659666,-1.946254970583999,0.1334531533519427,2.5953948733206413,0.9452589871890783,0.1728802376190821,-0.48752024683155326,-0.11147110072896137,-1.9463801863486305,0.1336059019074957,2.595550359778934,0.9452445589611904,-0.00033787433267503617,-0.0010795745728653947,0.0003958314474649516,0.00032810927239532297,4.345692494063398e-05,0.0003206629279938534,-0.0018577590512687283,0.0,0.0,0.0,0.0,0.0,0.0,0.0,7.056227964541417e-06,0.00021040662592103354,-9.036855236470298e-05,-0.00012521576463142559,0.0001527485555530006,0.00015548645829266405,-1.4428227887886003e-05,0.00033787433267503617,0.0010795745728653947,-0.0003958314474649516,-0.00032810927239532297,-4.345692494063398e-05,-0.0003206629279938534,0.0018577590512687283,0.2720577120780945,11.774744033813477,-0.9696381092071533,-21.641878128051758,-0.3738303780555725,-2.5335726737976074,0.27591270208358765,0
65,0.3199598789215088,-0.3236324191093445,-11.826318740844727,0.9418671131134033,21.641878128051758,0.3793235421180725,2.5335726737976074,-0.29605430364608765,0.0,0.0,0.0,0.0,0.0,0.0,0.0,-0.28090084517903285,0.4942630046901582,-0.19571544865328908,0.36923466569335817,-0.15954486158997053,0.13455482721454456,-0.32286361566496563,0.17287679184324659,-0.4877270341797879,-0.11137878333476552,-1.946254970583999,0.1334525430003802,2.595392640686076,0.9452578555864642,0.1728802376190821,-0.48752024683155326,-0.11147110072896137,-1.9463801863486305,0.1336059019074957,2.595550359778934,0.9452445589611904,0.0011636506679521953,0.00030807714137123934,0.0014214343875702193,0.00017802509264939844,-0.00018030230408639386,-0.00021843720675560557,-0.0004706198779622199,0.0,0.0,0.0,0.0,0.0,0.0,0.0,3.445775835525522e-06,0.0002067873482346494,-9.231739419585105e-05,-0.00012521576463142559,0.00015335890711548616,0.00015771909285788865,-1.3296625273828688e-05,-0.0011636506679521953,-0.00030807714137123934,-0.0014214343875702193,-0.00017802509264939844,0.00018030230408639386,0.00021843720675560557,0.0004706198779622199,0.3236324191093445,11.826318740844727,-0.9418671131134033,-21.641878128051758,-0.3793235421180725,-2.5335726737976074,0.29605430364608765,0
66,0.3249931335449219,-0.3236324191093445,-11.826318740844727,0.9418671131134033,21.641878128051758,0.3793235421180725,2.5335726737976074,-0.29605430364608765,0.0,0.0,0.0,0.0,0.0,0.0,0.0,-0.28090084517903285,0.4942630046901582,-0.19571544865328908,0.36923466569335817,-0.15954486158997053,0.13455482721454456,-0.32286361566496563,0.17287679184324659,-0.4877270341797879,-0.11137878333476552,-1.946254970583999,0.1334525430003802,2.595392640686076,0.9452578555864642,0.1728802376190821,-0.48752024683155326,-0.11147110072896137,-1.9463801863486305,0.1336059019074957,2.595550359778934,0.9452445589611904,0.0011636506679521953,0.00030807714137123934,0.0014214343875702193,0.00017802509264939844,-0.00018030230408639386,-0.00021843720675560557,-0.0004706198779622199,0.0,0.0,0.0,0.0,0.0,0.0,0.0,3.445775835525522e-06,0.0002067873482346494,-9.231739419585105e-05,-0.00012521576463142559,0.00015335890711548616,0.00015771909285788865,-1.3296625273828688e-05,-0.0011636506679521953,-0.00030807714137123934,-0.0014214343875702193,-0.00017802509264939844,0.00018030230408639386,0.00021843720675560557,0.0004706198779622199,0.3236324191093445,11.826318740844727,-0.9418671131134033,-21.641878128051758,-0.3793235421180725,-2.5335726737976074,0.29605430364608765,0
67,0.32999706268310547,-0.2720577120780945,-11.826318740844727,1.0172455310821533,21.669649124145508,0.3793235421180725,2.5271639823913574,-0.34457725286483765,0.0,0.0,0.0,0.0,0.0,0.0,0.0,-0.28021669634034857,0.49401828356287697,-0.19430685964974878,0.3714074270352269,-0.15950069183670462,0.1346541786091165,-0.32319350432269095,0.1728731725655104,-0.4877270341797879,-0.11138407304830718,-1.9462566810072512,0.1334525430003802,2.595392327674361,0.9452643595670622,0.1728802376190821,-0.48752024683155326,-0.11147110072896137,-1.9463801863486305,0.1336059019074957,2.595550359778934,0.9452445589611904,-9.781691924798712e-06,0.000484238568576198,-0.0003713017860583031,-0.00035757176618433396,-4.3802016616250536e-05,0.0003441089792542936,0.0019435218179665998,0.0,0.0,0.0,0.0,0.0,0.0,0.0,7.065053571703173e-06,0.0002067873482346494,-8.70276806541892e-05,-0.00012350534137928193,0.00015335890711548616,0.00015803210457310257,-1.9800605871811428e-05,9.781691924798712e-06,-0.000484238568576198,0.0003713017860583031,0.00035757176618433396,4.3802016616250536e-05,-0.0003441089792542936,-0.0019435218179665998,0.2720577120780945,11.826318740844727,-1.0172455310821533,-21.669649124145508,-0.3793235421180725,-2.5271639823913574,0.34457725286483765,0
68,0.3350088596343994,-0.2720577120780945,-11.826318740844727,1.0172455310821533,21.669649124145508,0.3793235421180725,2.5271639823913574,-0.34457725286483765,0.0,0.0,0.0,0.0,0.0,0.0,0.0,-0.28021669634034857,0.49401828356287697,-0.19430685964974878,0.3714074270352269,-0.15950069183670462,0.1346541786091165,-0.32319350432269095,0.1728731725655104,-0.4877270341797879,-0.11138407304830718,-1.9462566810072512,0.1334525430003802,2.595392327674361,0.9452643595670622,0.1728802376190821,-0.48752024683155326,-0.11147110072896137,-1.9463801863486305,0.1336059019074957,2.595550359778934,0.9452445589611904,-9.781691924798712e-06,0.000484238568576198,-0.0003713017860583031,-0.00035757176618433396,-4.3802016616250536e-05,0.0003441089792542936,0.0019435218179665998,0.0,0.0,0.0,0.0,0.0,0.0,0.0,7.065053571703173e-06,0.0002067873482346494,-8.70276806541892e-05,-0.00012350534137928193,0.00015335890711548616,0.00015803210457310257,-1.9800605871811428e-05,9.781691924798712e-06,-0.000484238568576198,0.0003713017860583031,0.00035757176618433396,4.3802016616250536e-05,-0.0003441089792542936,-0.0019435218179665998,0.2720577120780945,11.826318740844727,-1.0172455310821533,-21.669649124145508,-0.3793235421180725,-2.5271639823913574,0.34457725286483765,0
69,0.34001708030700684,-0.24825400114059448,-11.826318740844727,0.9934418201446533,21.641878128051758,0.3738303780555725,2.5335726737976074,-0.31711143255233765,0.0,0.0,0.0,0.0,0.0,0.0,0.0,-0.28453449657893465,0.4960620578272538,-0.19744473856641567,0.3709613386969839,-0.1587753825363323,0.1343337022214183,-0.3216702840269469,0.17287152849796505,-0.4877270341797879,-0.11138240261245193,-1.9462549705826533,0.1334531533519427,2.595395932958993,0.9452631225555156,0.1728802376190821,-0.48752024683155326,-0.11147110072896137,-1.9463801863486305,0.1336059019074957,2.595550359778934,0.9452445589611904,-0.0007699724737783223,2.4467039999693067e-05,0.00037243169117044607,0.0003404682898130872,-4.107832113582977e-05,5.501631193351121e-05,8.910931277012507e-05,0.0,0.0,0.0,0.0,0.0,0.0,0.0,8.709121117056462e-06,0.0002067873482346494,-8.869811650943915e-05,-0.00012521576597723794,0.0001527485555530006,0.00015442681994093377,-1.856359432517163e-05,0.0007699724737783223,-2.4467039999693067e-05,-0.00037243169117044607,-0.0003404682898130872,4.107832113582977e-05,-5.501631193351121e-05,-8.910931277012507e-05,0.24825400114059448,11.826318740844727,-0.9934418201446533,-21.641878128051758,-0.3738303780555725,-2.5335726737976074,0.31711143255233765,0
70,0.34502649307250977,-0.24825400114059448,-11.826318740844727,0.9934418201446533,21.641878128051758,0.3738303780555725,2.5335726737976074,-0.31711143255233765,0.0,0.0,0.0,0.0,0.0,0.0,0.0,-0.28453449657893465,0.4960620578272538,-0.19744473856641567,0.3709613386969839,-0.1587753825363323,0.1343337022214183,-0.3216702840269469,0.17287152849796505,-0.4877270341797879,-0.11138240261245193,-1.9462549705826533,0.1334531533519427,2.595395932958993,0.9452631225555156,0.1728802376190821,-0.48752024683155326,-0.11147110072896137,-1.9463801863486305,0.1336059019074957,2.595550359778934,0.9452445589611904,-0.0007699724737783223,2.4467039999693067e-05,0.00037243169117044607,0.0003404682898130872,-4.107832113582977e-05,5.501631193351121e-05,8.910931277012507e-05,0.0,0.0,0.0,0.0,0.0,0.0,0.0,8.709121117056462e-06,0.0002067873482346494,-8.869811650943915e-05,-0.00012521576597723794,0.0001527485555530006,0.00015442681994093377,-1.856359432517163e-05,0.0007699724737783223,-2.4467039999693067e-05,-0.00037243169117044607,-0.0003404682898130872,4.107832113582977e-05,-5.501631193351121e-05,-8.910931277012507e-05,0.24825400114059448,11.826318740844727,-0.9934418201446533,-21.641878128051758,-0.3738303780555725,-2.5335726737976074,0.31711143255233765,0
71,0.35004472732543945,-0.24825400114059448,-11.850122451782227,1.0172455310821533,21.669649124145508,0.3674216866493225,2.5207552909851074,-0.27591270208358765,0.0,0.0,0.0,0.0,0.0,0.0,0.0,-0.2839415429548976,0.48990884302018656,-0.1941010904643605,0.3721248985221541,-0.15887938912600585,0.13506800340234562,-0.32069172599449597,0.17287150212980396,-0.4877253637439326,-0.11138407304830718,-1.9462561776791398,0.1334538654287656,2.5953930136058645,0.9452596264229136,0.1728802376190821,-0.48752024683155326,-0.11147110072896137,-1.9463801863486305,0.1336059019074957,2.595550359778934,0.9452445589611904,-0.0008591693309931824,7.920911224278139e-05,-3.599667362065218e-05,-0.0005653999502202258,0.0001615130389408306,0.000610596548328132,-0.0014158380421174395,0.0,0.0,0.0,0.0,0.0,0.0,0.0,8.735489278155484e-06,0.00020511691237934393,-8.70276806541892e-05,-0.0001240086694906939,0.00015203647873007764,0.00015734617306950582,-1.5067461723194953e-05,0.0008591693309931824,-7.920911224278139e-05,3.599667362065218e-05,0.0005653999502202258,-0.0001615130389408306,-0.000610596548328132,0.0014158380421174395,0.24825400114059448,11.850122451782227,-1.0172455310821533,-21.669649124145508,-0.3674216866493225,-2.5207552909851074,0.27591270208358765,0
72,0.35501766204833984,-0.24825400114059448,-11.850122451782227,1.0172455310821533,21.669649124145508,0.3674216866493225,2.5207552909851074,-0.27591270208358765,0.0,0.0,0.0,0.0,0.0,0.0,0.0,-0.2839415429548976,0.48990884302018656,-0.1941010904643605,0.3721248985221541,-0.15887938912600585,0.13506800340234562,-0.32069172599449597,0.17287150212980396,-0.4877253637439326,-0.11138407304830718,-1.9462561776791398,0.1334538654287656,2.5953930136058645,0.9452596264229136,0.1728802376190821,-0.48752024683155326,-0.11147110072896137,-1.9463801863486305,0.1336059019074957,2.595550359778934,0.9452445589611904,-0.0008591693309931824,7.920911224278139e-05,-3.599667362065218e-05,-0.0005653999502202258,0.0001615130389408306,0.000610596548328132,-0.0014158380421174395,0.0,0.0,0.0,0.0,0.0,0.0,0.0,8.735489278155484e-06,0.00020511691237934393,-8.70276806541892e-05,-0.0001240086694906939,0.00015203647873007764,0.00015734617306950582,-1.5067461723194953e-05,0.0008591693309931824,-7.920911224278139e-05,3.599667362065218e-05,0.0005653999502202258,-0.0001615130389408306,-0.000610596548328132,0.0014158380421174395,0.24825400114059448,11.850122451782227,-1.0172455310821533,-21.669649124145508,-0.3674216866493225,-2.5207552909851074,0.27591270208358765,0
73,0.3600163459777832,-0.2720577120780945,-11.873926162719727,1.0172455310821533,21.669649124145508,0.3738303780555725,2.5335726737976074,-0.26858848333358765,0.0,0.0,0.0,0.0,0.0,0.0,0.0,-0.27668268738531265,0.48758723136724347,-0.18620453069285622,0.37052691987513786,-0.15942189160222334,0.13473451463737898,-0.3194865188783447,0.17287530839861487,-0.48772369330807736,-0.11138407308439358,-1.946256204129567,0.1334531533519427,2.5953952435453473,0.9452592721197398,0.1728802376190821,-0.48752024683155326,-0.11147110072896137,-1.9463801863486305,0.1336059019074957,2.595550359778934,0.9452445589611904,0.00010837163175361437,0.00036624588500162,0.00027378890439929706,-8.788045233231067e-07,4.523286829523874e-05,2.238621402991448e-05,-0.0011550503646591663,0.0,0.0,0.0,0.0,0.0,0.0,0.0,4.929220467242423e-06,0.00020344647652409398,-8.702764456779144e-05,-0.00012398221906351203,0.0001527485555530006,0.0001551162335866607,-1.4713158549395366e-05,-0.00010837163175361437,-0.00036624588500162,-0.00027378890439929706,8.788045233231067e-07,-4.523286829523874e-05,-2.238621402991448e-05,0.0011550503646591663,0.2720577120780945,11.873926162719727,-1.0172455310821533,-21.669649124145508,-0.3738303780555725,-2.5335726737976074,0.26858848333358765,0
74,0.3650181293487549,-0.2720577120780945,-11.873926162719727,1.0172455310821533,21.669649124145508,0.3738303780555725,2.5335726737976074,-0.26858848333358765,0.0,0.0,0.0,0.0,0.0,0.0,0.0,-0.27668268738531265,0.48758723136724347,-0.18620453069285622,0.37052691987513786,-0.15942189160222334,0.13473451463737898,-0.3194865188783447,0.17287530839861487,-0.48772369330807736,-0.11138407308439358,-1.946256204129567,0.1334531533519427,2.5953952435453473,0.9452592721197398,0.1728802376190821,-0.48752024683155326,-0.11147110072896137,-1.9463801863486305,0.1336059019074957,2.595550359778934,0.9452445589611904,0.00010837163175361437,0.00036624588500162,0.00027378890439929706,-8.788045233231067e-07,4.523286829523874e-05,2.238621402991448e-05,-0.0011550503646591663,0.0,0.0,0.0,0.0,0.0,0.0,0.0,4.929220467242423e-06,0.00020344647652409398,-8.702764456779144e-05,-0.00012398221906351203,0.0001527485555530006,0.0001551162335866607,-1.4713158549395366e-05,-0.00010837163175361437,-0.00036624588500162,-0.00027378890439929706,8.788045233231067e-07,-4.523286829523874e-05,-2.238621402991448e-05,0.0011550503646591663,0.2720577120780945,11.873926162719727,-1.0172455310821533,-21.669649124145508,-0.3738303780555725,-2.5335726737976074,0.26858848333358765,0
75,0.369997501373291,-0.2720577120780945,-11.873926162719727,1.0172455310821533,21.669649124145508,0.3738303780555725,2.5335726737976074,-0.26858848333358765,0.0,0.0,0.0,0.0,0.0,0.0,0.0,-0.27668268738531265,0.48758723136724347,-0.18620453069285622,0.37052691987513786,-0.15942189160222334,0.13473451463737898,-0.3194865188783447,0.17287530839861487,-0.48772369330807736,-0.11138407308439358,-1.946256204129567,0.1334531533519427,2.5953952435453473,0.9452592721197398,0.1728802376190821,-0.48752024683155326,-0.11147110072896137,-1.9463801863486305,0.1336059019074957,2.595550359778934,0.9452445589611904,0.00010837163175361437,0.00036624588500162,0.00027378890439929706,-8.788045233231067e-07,4.523286829523874e-05,2.238621402991448e-05,-0.0011550503646591663,0.0,0.0,0.0,0.0,0.0,0.0,0.0,4.929220467242423e-06,0.00020344647652409398,-8.702764456779144e-05,-0.00012398221906351203,0.0001527485555530006,0.0001551162335866607,-1.4713158549395366e-05,-0.00010837163175361437,-0.00036624588500162,-0.00027378890439929706,8.788045233231067e-07,-4.523286829523874e-05,-2.238621402991448e-05,0.0011550503646591663,0.2720577120780945,11.873926162719727,-1.0172455310821533,-21.669649124145508,-0.3738303780555725,-2.5335726737976074,0.26858848333358765,0
76,0.3749966621398926,-0.2720577120780945,-11.873926162719727,1.0172455310821533,21.669649124145508,0.3738303780555725,2.5335726737976074,-0.26858848333358765,0.0,0.0,0.0,0.0,0.0,0.0,0.0,-0.27668268738531265,0.48758723136724347,-0.18620453069285622,0.37052691987513786,-0.15942189160222334,0.13473451463737898,-0.3194865188783447,0.17287530839861487,-0.48772369330807736,-0.11138407308439358,-1.946256204129567,0.1334531533519427,2.5953952435453473,0.9452592721197398,0.1728802376190821,-0.48752024683155326,-0.11147110072896137,-1.9463801863486305,0.1336059019074957,2.595550359778934,0.9452445589611904,0.00010837163175361437,0.00036624588500162,0.00027378890439929706,-8.788045233231067e-07,4.523286829523874e-05,2.238621402991448e-05,-0.0011550503646591663,0.0,0.0,0.0,0.0,0.0,0.0,0.0,4.929220467242423e-06,0.00020344647652409398,-8.702764456779144e-05,-0.00012398221906351203,0.0001527485555530006,0.0001551162335866607,-1.4713158549395366e-05,-0.00010837163175361437,-0.00036624588500162,-0.00027378890439929706,8.788045233231067e-07,-4.523286829523874e-05,-2.238621402991448e-05,0.0011550503646591663,0.2720577120780945,11.873926162719727,-1.0172455310821533,-21.669649124145508,-0.3738303780555725,-2.5335726737976074,0.26858848333358765,0
77,0.3800985813140869,-0.2720577120780945,-11.802515029907227,0.9696381092071533,21.641878128051758,0.3674216866493225,2.5335726737976074,-0.32352012395858765,0.0,0.0,0.0,0.0,0.0,0.0,0.0,-0.27850308600562484,0.49699697067623866,-0.18880017369497165,0.3631576728950574,-0.15903037155822383,0.1332574206719399,-0.31855823537635447,0.17287317257756724,-0.48772870461564316,-0.11138073217659686,-1.9462549617496434,0.1334538654287656,2.595394890783947,0.9452607047255749,0.1728802376190821,-0.48752024683155326,-0.11147110072896137,-1.9463801863486305,0.1336059019074957,2.595550359778934,0.9452445589611904,-0.00034517865144063475,-0.0006199055431451271,0.0010770337389020908,0.00051323205110178,0.0004552968186170238,-5.91804152152477e-05,0.0005432897153993865,0.0,0.0,0.0,0.0,0.0,0.0,0.0,7.065041514875414e-06,0.00020845778408989935,-9.036855236450869e-05,-0.00012522459898711702,0.00015203647873007764,0.00015546899498719569,-1.6145764384467576e-05,0.00034517865144063475,0.0006199055431451271,-0.0010770337389020908,-0.00051323205110178,-0.0004552968186170238,5.91804152152477e-05,-0.0005432897153993865,0.2720577120780945,11.802515029907227,-0.9696381092071533,-21.641878128051758,-0.3674216866493225,-2.5335726737976074,0.32352012395858765,0
78,0.3849978446960449,-0.2720577120780945,-11.802515029907227,0.9696381092071533,21.641878128051758,0.3674216866493225,2.5335726737976074,-0.32352012395858765,0.0,0.0,0.0,0.0,0.0,0.0,0.0,-0.27850308600562484,0.49699697067623866,-0.18880017369497165,0.3631576728950574,-0.15903037155822383,0.1332574206719399,-0.31855823537635447,0.17287317257756724,-0.48772870461564316,-0.11138073217659686,-1.9462549617496434,0.1334538654287656,2.595394890783947,0.9452607047255749,0.1728802376190821,-0.48752024683155326,-0.11147110072896137,-1.9463801863486305,0.1336059019074957,2.595550359778934,0.9452445589611904,-0.00034517865144063475,-0.0006199055431451271,0.0010770337389020908,0.00051323205110178,0.0004552968186170238,-5.91804152152477e-05,0.0005432897153993865,0.0,0.0,0.0,0.0,0.0,0.0,0.0,7.065041514875414e-06,0.00020845778408989935,-9.036855236450869e-05,-0.00012522459898711702,0.00015203647873007764,0.00015546899498719569,-1.6145764384467576e-05,0.00034517865144063475,0.0006199055431451271,-0.0010770337389020908,-0.00051323205110178,-0.0004552968186170238,5.91804152152477e-05,-0.0005432897153993865,0.2720577120780945,11.802515029907227,-0.9696381092071533,-21.641878128051758,-0.3674216866493225,-2.5335726737976074,0.32352012395858765,0
79,0.3900308609008789,-0.2720577120780945,-11.802515029907227,0.9696381092071533,21.618074417114258,0.3793235421180725,2.5399813652038574,-0.33084434270858765,0.0,0.0,0.0,0.0,0.0,0.0,0.0,-0.27439686321294665,0.49316157089156665,-0.18285105818409988,0.36629695834917964,-0.15919621345212334,0.13372337579042748,-0.31951316961690945,0.17287317256551046,-0.48772870461564316,-0.11138073217659666,-1.946253300148094,0.1334525430003802,2.595391923979525,0.9452618325367838,0.1728802376190821,-0.48752024683155326,-0.11147110072896137,-1.9463801863486305,0.1336059019074957,2.595550359778934,0.9452445589611904,0.0002181250074377396,-0.00028117378016335613,0.0011416768833492682,0.001086316268860022,-0.00018155447784510322,-0.00016636795416992664,0.0014085606000428107,0.0,0.0,0.0,0.0,0.0,0.0,0.0,7.0650535716476615e-06,0.00020845778408989935,-9.036855236470298e-05,-0.00012688620053658006,0.00015335890711548616,0.00015843579940888475,-1.727357559333509e-05,-0.0002181250074377396,0.00028117378016335613,-0.0011416768833492682,-0.001086316268860022,0.00018155447784510322,0.00016636795416992664,-0.0014085606000428107,0.2720577120780945,11.802515029907227,-0.9696381092071533,-21.618074417114258,-0.3793235421180725,-2.5399813652038574,0.33084434270858765,0
