rezayati/contactInterpretation/dataset/franka_main/labeled_data/link6/b13_4.csv
index,time,tau_J0,tau_J1,tau_J2,tau_J3,tau_J4,tau_J5,tau_J6,tau_J_d0,tau_J_d1,tau_J_d2,tau_J_d3,tau_J_d4,tau_J_d5,tau_J_d6,tau_ext0,tau_ext1,tau_ext2,tau_ext3,tau_ext4,tau_ext5,tau_ext6,q0,q1,q2,q3,q4,q5,q6,q_d0,q_d1,q_d2,q_d3,q_d4,q_d5,q_d6,dq0,dq1,dq2,dq3,dq4,dq5,dq6,dq_d0,dq_d1,dq_d2,dq_d3,dq_d4,dq_d5,dq_d6,e0,e1,e2,e3,e4,e5,e6,de0,de1,de2,de3,de4,de5,de6,etau_J0,etau_J1,etau_J2,etau_J3,etau_J4,etau_J5,etau_J6,label
1,0.0,-0.3752071261405945,-19.844202041625977,-0.4228789508342743,20.229524612426758,0.7070823311805725,2.4694857597351074,-0.28964561223983765,0.0,0.0,0.0,0.0,0.0,0.0,0.0,-0.40618676040297813,-0.11991433173942577,-0.21736151753429117,0.4270582586515837,0.12100308862459475,0.0975921741716991,-0.2727696695392495,1.213504327075374,-0.22006636256089998,-0.007496417964526704,-2.6040986564473365,-0.10899599474668503,2.468131097846561,0.8264803048574425,1.2134413937687574,-0.2202432315892585,-0.0075118285948192216,-2.6038483821997875,-0.10888392708698907,2.4681821257803174,0.826474908251239,-0.0009951875733257931,0.00018014795262865526,4.334914699907011e-05,-0.0005638017452890303,-0.00023797754669184558,-0.00013150193302312232,0.0005563987841319437,0.0,0.0,0.0,0.0,0.0,0.0,0.0,-6.293330661666374e-05,-0.00017686902835850615,-1.5410630292517387e-05,0.0002502742475489761,0.000112067659695958,5.102793375622028e-05,-5.396606203467158e-06,0.0009951875733257931,-0.00018014795262865526,-4.334914699907011e-05,0.0005638017452890303,0.00023797754669184558,0.00013150193302312232,-0.0005563987841319437,0.3752071261405945,19.844202041625977,0.4228789508342743,-20.229524612426758,-0.7070823311805725,-2.4694857597351074,0.28964561223983765,0
2,0.004999637603759766,-0.4505855441093445,-19.844202041625977,-0.4228789508342743,20.205720901489258,0.7134910225868225,2.4694857597351074,-0.28232139348983765,0.0,0.0,0.0,0.0,0.0,0.0,0.0,-0.4147310146979827,-0.12352184448189038,-0.22659203559451008,0.4307621705609494,0.12131118475600289,0.09766257016415522,-0.27279635648206924,1.2135103047907416,-0.22006634538660777,-0.007496426680128346,-2.6040955064506224,-0.10899991057316462,2.468131093267878,0.8264826313546227,1.2134413937687574,-0.2202432315892585,-0.0075118285948192216,-2.6038483821997875,-0.10888392708698907,2.4681821257803174,0.826474908251239,0.0005072736092117558,0.00021912987691297757,-0.000482985760717674,-3.3226672367744e-07,-0.0003325620293236332,-3.236743212074637e-05,0.00035753694902312196,0.0,0.0,0.0,0.0,0.0,0.0,0.0,-6.891102198425259e-05,-0.00017688620265071675,-1.540191469087595e-05,0.00024712425083484035,0.00011598348617554433,5.103251243943063e-05,-7.72310338370552e-06,-0.0005072736092117558,-0.00021912987691297757,0.000482985760717674,3.3226672367744e-07,0.0003325620293236332,3.236743212074637e-05,-0.00035753694902312196,0.4505855441093445,19.844202041625977,0.4228789508342743,-20.205720901489258,-0.7134910225868225,-2.4694857597351074,0.28232139348983765,0
3,0.010056257247924805,-0.4505855441093445,-19.844202041625977,-0.4228789508342743,20.205720901489258,0.7134910225868225,2.4694857597351074,-0.28232139348983765,0.0,0.0,0.0,0.0,0.0,0.0,0.0,-0.4147310146979827,-0.12352184448189038,-0.22659203559451008,0.4307621705609494,0.12131118475600289,0.09766257016415522,-0.27279635648206924,1.2135103047907416,-0.22006634538660777,-0.007496426680128346,-2.6040955064506224,-0.10899991057316462,2.468131093267878,0.8264826313546227,1.2134413937687574,-0.2202432315892585,-0.0075118285948192216,-2.6038483821997875,-0.10888392708698907,2.4681821257803174,0.826474908251239,0.0005072736092117558,0.00021912987691297757,-0.000482985760717674,-3.3226672367744e-07,-0.0003325620293236332,-3.236743212074637e-05,0.00035753694902312196,0.0,0.0,0.0,0.0,0.0,0.0,0.0,-6.891102198425259e-05,-0.00017688620265071675,-1.540191469087595e-05,0.00024712425083484035,0.00011598348617554433,5.103251243943063e-05,-7.72310338370552e-06,-0.0005072736092117558,-0.00021912987691297757,0.000482985760717674,3.3226672367744e-07,0.0003325620293236332,3.236743212074637e-05,-0.00035753694902312196,0.4505855441093445,19.844202041625977,0.4228789508342743,-20.205720901489258,-0.7134910225868225,-2.4694857597351074,0.28232139348983765,0
4,0.015429019927978516,-0.4783565402030945,-19.891809463500977,-0.4228789508342743,20.154146194458008,0.7134910225868225,2.4758944511413574,-0.26217979192733765,0.0,0.0,0.0,0.0,0.0,0.0,0.0,-0.4106676115143022,-0.12067373192469724,-0.22242175354875132,0.4310032433019913,0.12117628934043884,0.09814997298822392,-0.2732337177484513,1.2135124947768514,-0.22006311242560722,-0.007496417912414992,-2.604093825920782,-0.10899706279770148,2.4681303857697356,0.826479332325138,1.2134413937687574,-0.2202432315892585,-0.0075118285948192216,-2.6038483821997875,-0.10888392708698907,2.4681821257803174,0.826474908251239,0.0015925439622332426,0.0011362466726754067,0.00011756101360468772,0.0009985064871730032,-0.0002496679749689736,-0.00024861156976975615,-0.0003991826639172315,0.0,0.0,0.0,0.0,0.0,0.0,0.0,-7.11010080940433e-05,-0.00018011916365126557,-1.54106824042299e-05,0.0002454437209946647,0.00011313571071240591,5.1740010581724505e-05,-4.424073899000902e-06,-0.0015925439622332426,-0.0011362466726754067,-0.00011756101360468772,-0.0009985064871730032,0.0002496679749689736,0.00024861156976975615,0.0003991826639172315,0.4783565402030945,19.891809463500977,0.4228789508342743,-20.154146194458008,-0.7134910225868225,-2.4758944511413574,0.26217979192733765,0
5,0.01994776725769043,-0.4783565402030945,-19.891809463500977,-0.4228789508342743,20.154146194458008,0.7134910225868225,2.4758944511413574,-0.26217979192733765,0.0,0.0,0.0,0.0,0.0,0.0,0.0,-0.4106676115143022,-0.12067373192469724,-0.22242175354875132,0.4310032433019913,0.12117628934043884,0.09814997298822392,-0.2732337177484513,1.2135124947768514,-0.22006311242560722,-0.007496417912414992,-2.604093825920782,-0.10899706279770148,2.4681303857697356,0.826479332325138,1.2134413937687574,-0.2202432315892585,-0.0075118285948192216,-2.6038483821997875,-0.10888392708698907,2.4681821257803174,0.826474908251239,0.0015925439622332426,0.0011362466726754067,0.00011756101360468772,0.0009985064871730032,-0.0002496679749689736,-0.00024861156976975615,-0.0003991826639172315,0.0,0.0,0.0,0.0,0.0,0.0,0.0,-7.11010080940433e-05,-0.00018011916365126557,-1.54106824042299e-05,0.0002454437209946647,0.00011313571071240591,5.1740010581724505e-05,-4.424073899000902e-06,-0.0015925439622332426,-0.0011362466726754067,-0.00011756101360468772,-0.0009985064871730032,0.0002496679749689736,0.00024861156976975615,0.0003991826639172315,0.4783565402030945,19.891809463500977,0.4228789508342743,-20.154146194458008,-0.7134910225868225,-2.4758944511413574,0.26217979192733765,0
6,0.024942874908447266,-0.3752071261405945,-19.868005752563477,-0.4228789508342743,20.205720901489258,0.7070823311805725,2.4630770683288574,-0.27591270208358765,0.0,0.0,0.0,0.0,0.0,0.0,0.0,-0.412717320891057,-0.12448236193594585,-0.22320643264911533,0.4363838681063319,0.12180804445792297,0.09926821415996663,-0.2731480024913905,1.2135045379182379,-0.22006490208968824,-0.007496417912409493,-2.6040975982573737,-0.10899599474869451,2.468131809923384,0.8264815659153216,1.2134413937687574,-0.2202432315892585,-0.0075118285948192216,-2.6038483821997875,-0.10888392708698907,2.4681821257803174,0.826474908251239,-0.000572942932855681,-0.0001208372856101879,-0.0002164471451901868,0.00031491789549474943,-1.877454609981987e-05,0.0002374432328133384,6.272890004617275e-05,0.0,0.0,0.0,0.0,0.0,0.0,0.0,-6.314414948049851e-05,-0.00017832949957025113,-1.5410682409728975e-05,0.0002492160575862101,0.00011206766170543392,5.031585693338059e-05,-6.657664082587722e-06,0.000572942932855681,0.0001208372856101879,0.0002164471451901868,-0.00031491789549474943,1.877454609981987e-05,-0.0002374432328133384,-6.272890004617275e-05,0.3752071261405945,19.868005752563477,0.4228789508342743,-20.205720901489258,-0.7070823311805725,-2.4630770683288574,0.27591270208358765,0
7,0.030017852783203125,-0.3752071261405945,-19.868005752563477,-0.4228789508342743,20.205720901489258,0.7070823311805725,2.4630770683288574,-0.27591270208358765,0.0,0.0,0.0,0.0,0.0,0.0,0.0,-0.412717320891057,-0.12448236193594585,-0.22320643264911533,0.4363838681063319,0.12180804445792297,0.09926821415996663,-0.2731480024913905,1.2135045379182379,-0.22006490208968824,-0.007496417912409493,-2.6040975982573737,-0.10899599474869451,2.468131809923384,0.8264815659153216,1.2134413937687574,-0.2202432315892585,-0.0075118285948192216,-2.6038483821997875,-0.10888392708698907,2.4681821257803174,0.826474908251239,-0.000572942932855681,-0.0001208372856101879,-0.0002164471451901868,0.00031491789549474943,-1.877454609981987e-05,0.0002374432328133384,6.272890004617275e-05,0.0,0.0,0.0,0.0,0.0,0.0,0.0,-6.314414948049851e-05,-0.00017832949957025113,-1.5410682409728975e-05,0.0002492160575862101,0.00011206766170543392,5.031585693338059e-05,-6.657664082587722e-06,0.000572942932855681,0.0001208372856101879,0.0002164471451901868,-0.00031491789549474943,1.877454609981987e-05,-0.0002374432328133384,-6.272890004617275e-05,0.3752071261405945,19.868005752563477,0.4228789508342743,-20.205720901489258,-0.7070823311805725,-2.4630770683288574,0.27591270208358765,0
8,0.03500223159790039,-0.3752071261405945,-19.868005752563477,-0.4228789508342743,20.205720901489258,0.7070823311805725,2.4630770683288574,-0.27591270208358765,0.0,0.0,0.0,0.0,0.0,0.0,0.0,-0.412717320891057,-0.12448236193594585,-0.22320643264911533,0.4363838681063319,0.12180804445792297,0.09926821415996663,-0.2731480024913905,1.2135045379182379,-0.22006490208968824,-0.007496417912409493,-2.6040975982573737,-0.10899599474869451,2.468131809923384,0.8264815659153216,1.2134413937687574,-0.2202432315892585,-0.0075118285948192216,-2.6038483821997875,-0.10888392708698907,2.4681821257803174,0.826474908251239,-0.000572942932855681,-0.0001208372856101879,-0.0002164471451901868,0.00031491789549474943,-1.877454609981987e-05,0.0002374432328133384,6.272890004617275e-05,0.0,0.0,0.0,0.0,0.0,0.0,0.0,-6.314414948049851e-05,-0.00017832949957025113,-1.5410682409728975e-05,0.0002492160575862101,0.00011206766170543392,5.031585693338059e-05,-6.657664082587722e-06,0.000572942932855681,0.0001208372856101879,0.0002164471451901868,-0.00031491789549474943,1.877454609981987e-05,-0.0002374432328133384,-6.272890004617275e-05,0.3752071261405945,19.868005752563477,0.4228789508342743,-20.205720901489258,-0.7070823311805725,-2.4630770683288574,0.27591270208358765,0
9,0.03994107246398926,-0.4267818331718445,-19.891809463500977,-0.4228789508342743,20.154146194458008,0.6951804757118225,2.4758944511413574,-0.23471395671367645,0.0,0.0,0.0,0.0,0.0,0.0,0.0,-0.40902606626847227,-0.1139924887871303,-0.22307775282994047,0.4286869412287345,0.12157730966789454,0.09760843321527726,-0.27343663596778117,1.2135107915699967,-0.22006299835969156,-0.007496417912409493,-2.6040933667451878,-0.10899471187076451,2.4681303857697383,0.8264773809010143,1.2134413937687574,-0.2202432315892585,-0.0075118285948192216,-2.6038483821997875,-0.10888392708698907,2.4681821257803174,0.826474908251239,0.0009063762392689511,0.0008658236174025466,0.000290543172171494,0.0010824079399925563,0.00036576866685726915,-0.00023151065086235084,-0.0015321908936816704,0.0,0.0,0.0,0.0,0.0,0.0,0.0,-6.939780123937922e-05,-0.0001802332295669229,-1.5410682409728975e-05,0.0002449845454002286,0.0001107847837754361,5.174001057905997e-05,-2.4726497752647347e-06,-0.0009063762392689511,-0.0008658236174025466,-0.000290543172171494,-0.0010824079399925563,-0.00036576866685726915,0.00023151065086235084,0.0015321908936816704,0.4267818331718445,19.891809463500977,0.4228789508342743,-20.154146194458008,-0.6951804757118225,-2.4758944511413574,0.23471395671367645,0
10,0.04500770568847656,-0.4267818331718445,-19.891809463500977,-0.4228789508342743,20.154146194458008,0.6951804757118225,2.4758944511413574,-0.23471395671367645,0.0,0.0,0.0,0.0,0.0,0.0,0.0,-0.40902606626847227,-0.1139924887871303,-0.22307775282994047,0.4286869412287345,0.12157730966789454,0.09760843321527726,-0.27343663596778117,1.2135107915699967,-0.22006299835969156,-0.007496417912409493,-2.6040933667451878,-0.10899471187076451,2.4681303857697383,0.8264773809010143,1.2134413937687574,-0.2202432315892585,-0.0075118285948192216,-2.6038483821997875,-0.10888392708698907,2.4681821257803174,0.826474908251239,0.0009063762392689511,0.0008658236174025466,0.000290543172171494,0.0010824079399925563,0.00036576866685726915,-0.00023151065086235084,-0.0015321908936816704,0.0,0.0,0.0,0.0,0.0,0.0,0.0,-6.939780123937922e-05,-0.0001802332295669229,-1.5410682409728975e-05,0.0002449845454002286,0.0001107847837754361,5.174001057905997e-05,-2.4726497752647347e-06,-0.0009063762392689511,-0.0008658236174025466,-0.000290543172171494,-0.0010824079399925563,-0.00036576866685726915,0.00023151065086235084,0.0015321908936816704,0.4267818331718445,19.891809463500977,0.4228789508342743,-20.154146194458008,-0.6951804757118225,-2.4758944511413574,0.23471395671367645,0
11,0.05000185966491699,-0.4267818331718445,-19.891809463500977,-0.4228789508342743,20.229524612426758,0.7015891671180725,2.4630770683288574,-0.28964561223983765,0.0,0.0,0.0,0.0,0.0,0.0,0.0,-0.40324906996548576,-0.11559283336483626,-0.21736981524178595,0.42877426539148455,0.12113140834758225,0.09806140209176112,-0.2729642067524593,1.213510092027473,-0.2200629954421894,-0.007496417912409493,-2.6040991155268176,-0.1089953843953458,2.468131809923384,0.8264830134702317,1.2134413937687574,-0.2202432315892585,-0.0075118285948192216,-2.6038483821997875,-0.10888392708698907,2.4681821257803174,0.826474908251239,0.0013071447970970781,0.0007912004988052942,0.0010739883473578624,-0.0009648578733431249,0.00010753825314707288,0.00020309166258608991,0.000888334420169345,0.0,0.0,0.0,0.0,0.0,0.0,0.0,-6.869825871569368e-05,-0.00018023614706907942,-1.5410682409728975e-05,0.00025073332703007267,0.0001114573083567244,5.031585693338059e-05,-8.10521899263783e-06,-0.0013071447970970781,-0.0007912004988052942,-0.0010739883473578624,0.0009648578733431249,-0.00010753825314707288,-0.00020309166258608991,-0.000888334420169345,0.4267818331718445,19.891809463500977,0.4228789508342743,-20.229524612426758,-0.7015891671180725,-2.4630770683288574,0.28964561223983765,0
12,0.05495142936706543,-0.4267818331718445,-19.891809463500977,-0.4228789508342743,20.229524612426758,0.7015891671180725,2.4630770683288574,-0.28964561223983765,0.0,0.0,0.0,0.0,0.0,0.0,0.0,-0.40324906996548576,-0.11559283336483626,-0.21736981524178595,0.42877426539148455,0.12113140834758225,0.09806140209176112,-0.2729642067524593,1.213510092027473,-0.2200629954421894,-0.007496417912409493,-2.6040991155268176,-0.1089953843953458,2.468131809923384,0.8264830134702317,1.2134413937687574,-0.2202432315892585,-0.0075118285948192216,-2.6038483821997875,-0.10888392708698907,2.4681821257803174,0.826474908251239,0.0013071447970970781,0.0007912004988052942,0.0010739883473578624,-0.0009648578733431249,0.00010753825314707288,0.00020309166258608991,0.000888334420169345,0.0,0.0,0.0,0.0,0.0,0.0,0.0,-6.869825871569368e-05,-0.00018023614706907942,-1.5410682409728975e-05,0.00025073332703007267,0.0001114573083567244,5.031585693338059e-05,-8.10521899263783e-06,-0.0013071447970970781,-0.0007912004988052942,-0.0010739883473578624,0.0009648578733431249,-0.00010753825314707288,-0.00020309166258608991,-0.000888334420169345,0.4267818331718445,19.891809463500977,0.4228789508342743,-20.229524612426758,-0.7015891671180725,-2.4630770683288574,0.28964561223983765,0
13,0.060141801834106445,-0.4267818331718445,-19.891809463500977,-0.4228789508342743,20.205720901489258,0.7015891671180725,2.4694857597351074,-0.28964561223983765,0.0,0.0,0.0,0.0,0.0,0.0,0.0,-0.40634805911802535,-0.11784235261355702,-0.21814506437289885,0.4281743319077637,0.120886479728158,0.09795619120177386,-0.2739852435407887,1.2135100645514245,-0.2200629955501798,-0.007496417912409493,-2.604097674366879,-0.10899538439512253,2.468131097846561,0.8264834451719961,1.2134413937687574,-0.2202432315892585,-0.0075118285948192216,-2.6038483821997875,-0.10888392708698907,2.4681821257803174,0.826474908251239,0.0010066594613348597,0.0007116567022792287,0.00031292078314007683,-0.00016708358723115986,0.00010614694217730305,-2.970109071801585e-06,0.0009894799012450084,0.0,0.0,0.0,0.0,0.0,0.0,0.0,-6.867078266714621e-05,-0.00018023603907868502,-1.5410682409728975e-05,0.00024929216709157487,0.00011145730813345855,5.102793375622028e-05,-8.53692075708512e-06,-0.0010066594613348597,-0.0007116567022792287,-0.00031292078314007683,0.00016708358723115986,-0.00010614694217730305,2.970109071801585e-06,-0.0009894799012450084,0.4267818331718445,19.891809463500977,0.4228789508342743,-20.205720901489258,-0.7015891671180725,-2.4694857597351074,0.28964561223983765,0
14,0.06501555442810059,-0.4267818331718445,-19.891809463500977,-0.4228789508342743,20.205720901489258,0.7015891671180725,2.4694857597351074,-0.28964561223983765,0.0,0.0,0.0,0.0,0.0,0.0,0.0,-0.40634805911802535,-0.11784235261355702,-0.21814506437289885,0.4281743319077637,0.120886479728158,0.09795619120177386,-0.2739852435407887,1.2135100645514245,-0.2200629955501798,-0.007496417912409493,-2.604097674366879,-0.10899538439512253,2.468131097846561,0.8264834451719961,1.2134413937687574,-0.2202432315892585,-0.0075118285948192216,-2.6038483821997875,-0.10888392708698907,2.4681821257803174,0.826474908251239,0.0010066594613348597,0.0007116567022792287,0.00031292078314007683,-0.00016708358723115986,0.00010614694217730305,-2.970109071801585e-06,0.0009894799012450084,0.0,0.0,0.0,0.0,0.0,0.0,0.0,-6.867078266714621e-05,-0.00018023603907868502,-1.5410682409728975e-05,0.00024929216709157487,0.00011145730813345855,5.102793375622028e-05,-8.53692075708512e-06,-0.0010066594613348597,-0.0007116567022792287,-0.00031292078314007683,0.00016708358723115986,-0.00010614694217730305,2.970109071801585e-06,-0.0009894799012450084,0.4267818331718445,19.891809463500977,0.4228789508342743,-20.205720901489258,-0.7015891671180725,-2.4694857597351074,0.28964561223983765,0
15,0.06999921798706055,-0.4267818331718445,-19.868005752563477,-0.3713042438030243,20.130342483520508,0.7189841866493225,2.4630770683288574,-0.30978721380233765,0.0,0.0,0.0,0.0,0.0,0.0,0.0,-0.4088534556189551,-0.11807121320512612,-0.21848992855353755,0.4275774214781374,0.12101100271659848,0.09779981534974358,-0.2739442937805983,1.2135079220545455,-0.2200646658780288,-0.007500037190095897,-2.6040916962747693,-0.10899731717507044,2.468131809923384,0.826485369109474,1.2134413937687574,-0.2202432315892585,-0.0075118285948192216,-2.6038483821997875,-0.10888392708698907,2.4681821257803174,0.826474908251239,0.0003019017825507873,0.00021155922072237934,-0.0014834788777711508,0.0016102241893015362,-0.0006215498455492004,0.00023996152307891491,0.0014507261033357079,0.0,0.0,0.0,0.0,0.0,0.0,0.0,-6.652828578812553e-05,-0.0001785657112296779,-1.1791404723324878e-05,0.00024331407498179303,0.00011339008808136652,5.031585693338059e-05,-1.0460858234973003e-05,-0.0003019017825507873,-0.00021155922072237934,0.0014834788777711508,-0.0016102241893015362,0.0006215498455492004,-0.00023996152307891491,-0.0014507261033357079,0.4267818331718445,19.868005752563477,0.3713042438030243,-20.130342483520508,-0.7189841866493225,-2.4630770683288574,0.30978721380233765,0
16,0.07502341270446777,-0.4267818331718445,-19.868005752563477,-0.3713042438030243,20.130342483520508,0.7189841866493225,2.4630770683288574,-0.30978721380233765,0.0,0.0,0.0,0.0,0.0,0.0,0.0,-0.4088534556189551,-0.11807121320512612,-0.21848992855353755,0.4275774214781374,0.12101100271659848,0.09779981534974358,-0.2739442937805983,1.2135079220545455,-0.2200646658780288,-0.007500037190095897,-2.6040916962747693,-0.10899731717507044,2.468131809923384,0.826485369109474,1.2134413937687574,-0.2202432315892585,-0.0075118285948192216,-2.6038483821997875,-0.10888392708698907,2.4681821257803174,0.826474908251239,0.0003019017825507873,0.00021155922072237934,-0.0014834788777711508,0.0016102241893015362,-0.0006215498455492004,0.00023996152307891491,0.0014507261033357079,0.0,0.0,0.0,0.0,0.0,0.0,0.0,-6.652828578812553e-05,-0.0001785657112296779,-1.1791404723324878e-05,0.00024331407498179303,0.00011339008808136652,5.031585693338059e-05,-1.0460858234973003e-05,-0.0003019017825507873,-0.00021155922072237934,0.0014834788777711508,-0.0016102241893015362,0.0006215498455492004,-0.00023996152307891491,-0.0014507261033357079,0.4267818331718445,19.868005752563477,0.3713042438030243,-20.130342483520508,-0.7189841866493225,-2.4630770683288574,0.30978721380233765,0
17,0.08000493049621582,-0.4267818331718445,-19.868005752563477,-0.3713042438030243,20.130342483520508,0.7189841866493225,2.4630770683288574,-0.30978721380233765,0.0,0.0,0.0,0.0,0.0,0.0,0.0,-0.4088534556189551,-0.11807121320512612,-0.21848992855353755,0.4275774214781374,0.12101100271659848,0.09779981534974358,-0.2739442937805983,1.2135079220545455,-0.2200646658780288,-0.007500037190095897,-2.6040916962747693,-0.10899731717507044,2.468131809923384,0.826485369109474,1.2134413937687574,-0.2202432315892585,-0.0075118285948192216,-2.6038483821997875,-0.10888392708698907,2.4681821257803174,0.826474908251239,0.0003019017825507873,0.00021155922072237934,-0.0014834788777711508,0.0016102241893015362,-0.0006215498455492004,0.00023996152307891491,0.0014507261033357079,0.0,0.0,0.0,0.0,0.0,0.0,0.0,-6.652828578812553e-05,-0.0001785657112296779,-1.1791404723324878e-05,0.00024331407498179303,0.00011339008808136652,5.031585693338059e-05,-1.0460858234973003e-05,-0.0003019017825507873,-0.00021155922072237934,0.0014834788777711508,-0.0016102241893015362,0.0006215498455492004,-0.00023996152307891491,-0.0014507261033357079,0.4267818331718445,19.868005752563477,0.3713042438030243,-20.130342483520508,-0.7189841866493225,-2.4630770683288574,0.30978721380233765,0
18,0.08499455451965332,-0.4267818331718445,-19.868005752563477,-0.3713042438030243,20.130342483520508,0.7189841866493225,2.4630770683288574,-0.30978721380233765,0.0,0.0,0.0,0.0,0.0,0.0,0.0,-0.4088534556189551,-0.11807121320512612,-0.21848992855353755,0.4275774214781374,0.12101100271659848,0.09779981534974358,-0.2739442937805983,1.2135079220545455,-0.2200646658780288,-0.007500037190095897,-2.6040916962747693,-0.10899731717507044,2.468131809923384,0.826485369109474,1.2134413937687574,-0.2202432315892585,-0.0075118285948192216,-2.6038483821997875,-0.10888392708698907,2.4681821257803174,0.826474908251239,0.0003019017825507873,0.00021155922072237934,-0.0014834788777711508,0.0016102241893015362,-0.0006215498455492004,0.00023996152307891491,0.0014507261033357079,0.0,0.0,0.0,0.0,0.0,0.0,0.0,-6.652828578812553e-05,-0.0001785657112296779,-1.1791404723324878e-05,0.00024331407498179303,0.00011339008808136652,5.031585693338059e-05,-1.0460858234973003e-05,-0.0003019017825507873,-0.00021155922072237934,0.0014834788777711508,-0.0016102241893015362,0.0006215498455492004,-0.00023996152307891491,-0.0014507261033357079,0.4267818331718445,19.868005752563477,0.3713042438030243,-20.130342483520508,-0.7189841866493225,-2.4630770683288574,0.30978721380233765,0
19,0.08994317054748535,-0.4783565402030945,-19.844202041625977,-0.4228789508342743,20.181917190551758,0.7015891671180725,2.4630770683288574,-0.28232139348983765,0.0,0.0,0.0,0.0,0.0,0.0,0.0,-0.40341628962642145,-0.12330133457443855,-0.21130598440041132,0.4304568149262861,0.12098904791623648,0.09874875757388062,-0.27414927462178623,1.2135115380496493,-0.22006636255955012,-0.007496417912409493,-2.6040952900737557,-0.10899538439512253,2.468131809923384,0.8264826706164339,1.2134413937687574,-0.2202432315892585,-0.0075118285948192216,-2.6038483821997875,-0.10888392708698907,2.4681821257803174,0.826474908251239,0.0017351010624734617,-0.0005262468673643925,0.0002567920749182914,0.0005131951775888876,2.2105728717570844e-06,0.00011993221606911086,0.00047649764141681554,0.0,0.0,0.0,0.0,0.0,0.0,0.0,-7.014428089191505e-05,-0.00017686902970837082,-1.5410682409728975e-05,0.000246907873968194,0.00011145730813345855,5.031585693338059e-05,-7.762365194841081e-06,-0.0017351010624734617,0.0005262468673643925,-0.0002567920749182914,-0.0005131951775888876,-2.2105728717570844e-06,-0.00011993221606911086,-0.00047649764141681554,0.4783565402030945,19.844202041625977,0.4228789508342743,-20.181917190551758,-0.7015891671180725,-2.4630770683288574,0.28232139348983765,0
20,0.09499096870422363,-0.4783565402030945,-19.844202041625977,-0.4228789508342743,20.181917190551758,0.7015891671180725,2.4630770683288574,-0.28232139348983765,0.0,0.0,0.0,0.0,0.0,0.0,0.0,-0.40341628962642145,-0.12330133457443855,-0.21130598440041132,0.4304568149262861,0.12098904791623648,0.09874875757388062,-0.27414927462178623,1.2135115380496493,-0.22006636255955012,-0.007496417912409493,-2.6040952900737557,-0.10899538439512253,2.468131809923384,0.8264826706164339,1.2134413937687574,-0.2202432315892585,-0.0075118285948192216,-2.6038483821997875,-0.10888392708698907,2.4681821257803174,0.826474908251239,0.0017351010624734617,-0.0005262468673643925,0.0002567920749182914,0.0005131951775888876,2.2105728717570844e-06,0.00011993221606911086,0.00047649764141681554,0.0,0.0,0.0,0.0,0.0,0.0,0.0,-7.014428089191505e-05,-0.00017686902970837082,-1.5410682409728975e-05,0.000246907873968194,0.00011145730813345855,5.031585693338059e-05,-7.762365194841081e-06,-0.0017351010624734617,0.0005262468673643925,-0.0002567920749182914,-0.0005131951775888876,-2.2105728717570844e-06,-0.00011993221606911086,-0.00047649764141681554,0.4783565402030945,19.844202041625977,0.4228789508342743,-20.181917190551758,-0.7015891671180725,-2.4630770683288574,0.28232139348983765,0
21,0.09999918937683105,-0.4029781222343445,-19.844202041625977,-0.4466826617717743,20.205720901489258,0.7015891671180725,2.4758944511413574,-0.28232139348983765,0.0,0.0,0.0,0.0,0.0,0.0,0.0,-0.40759782093060626,-0.12057136695382731,-0.21601239093706134,0.43221224990043783,0.12034418483325249,0.09867647253198972,-0.2732701645166028,1.2135064867546683,-0.22006633631432795,-0.007494748450745181,-2.6040969595565953,-0.10899538439512253,2.4681303857697383,0.8264816109802987,1.2134413937687574,-0.2202432315892585,-0.0075118285948192216,-2.6038483821997875,-0.10888392708698907,2.4681821257803174,0.826474908251239,1.234268818728638e-05,6.987104495658238e-05,0.00024106217849815216,0.000419995016182073,0.00012296174123848863,-0.00044236116055919355,0.000645243283311095,0.0,0.0,0.0,0.0,0.0,0.0,0.0,-6.50929859109528e-05,-0.00017689527493053303,-1.708014407404094e-05,0.0002485773568077221,0.00011145730813345855,5.174001057905997e-05,-6.702729059671064e-06,-1.234268818728638e-05,-6.987104495658238e-05,-0.00024106217849815216,-0.000419995016182073,-0.00012296174123848863,0.00044236116055919355,-0.000645243283311095,0.4029781222343445,19.844202041625977,0.4466826617717743,-20.205720901489258,-0.7015891671180725,-2.4758944511413574,0.28232139348983765,0
22,0.10500574111938477,-0.4029781222343445,-19.844202041625977,-0.4466826617717743,20.205720901489258,0.7015891671180725,2.4758944511413574,-0.28232139348983765,0.0,0.0,0.0,0.0,0.0,0.0,0.0,-0.40759782093060626,-0.12057136695382731,-0.21601239093706134,0.43221224990043783,0.12034418483325249,0.09867647253198972,-0.2732701645166028,1.2135064867546683,-0.22006633631432795,-0.007494748450745181,-2.6040969595565953,-0.10899538439512253,2.4681303857697383,0.8264816109802987,1.2134413937687574,-0.2202432315892585,-0.0075118285948192216,-2.6038483821997875,-0.10888392708698907,2.4681821257803174,0.826474908251239,1.234268818728638e-05,6.987104495658238e-05,0.00024106217849815216,0.000419995016182073,0.00012296174123848863,-0.00044236116055919355,0.000645243283311095,0.0,0.0,0.0,0.0,0.0,0.0,0.0,-6.50929859109528e-05,-0.00017689527493053303,-1.708014407404094e-05,0.0002485773568077221,0.00011145730813345855,5.174001057905997e-05,-6.702729059671064e-06,-1.234268818728638e-05,-6.987104495658238e-05,-0.00024106217849815216,-0.000419995016182073,-0.00012296174123848863,0.00044236116055919355,-0.000645243283311095,0.4029781222343445,19.844202041625977,0.4466826617717743,-20.205720901489258,-0.7015891671180725,-2.4758944511413574,0.28232139348983765,0
23,0.11005020141601562,-0.4029781222343445,-19.868005752563477,-0.3990752398967743,20.181917190551758,0.7015891671180725,2.4694857597351074,-0.28232139348983765,0.0,0.0,0.0,0.0,0.0,0.0,0.0,-0.403313313585261,-0.11685919466019695,-0.2182815489370801,0.4272729497137228,0.12015464517795141,0.09722992962781836,-0.2725226716984115,1.213506248337435,-0.22006490208902788,-0.0074980883482702555,-2.604095774654957,-0.10899538439512253,2.468131097846561,0.8264826313665897,1.2134413937687574,-0.2202432315892585,-0.0075118285948192216,-2.6038483821997875,-0.10888392708698907,2.4681821257803174,0.826474908251239,-0.00020825906281117792,-5.4063649316519625e-06,-0.00047945528139030824,0.0002357879269111846,6.189097610296911e-05,-0.00010197270505187911,0.0010892528669127425,0.0,0.0,0.0,0.0,0.0,0.0,0.0,-6.48545686776636e-05,-0.00017832950023061178,-1.3740246548966072e-05,0.00024739245516958164,0.00011145730813345855,5.102793375622028e-05,-7.723115350688481e-06,0.00020825906281117792,5.4063649316519625e-06,0.00047945528139030824,-0.0002357879269111846,-6.189097610296911e-05,0.00010197270505187911,-0.0010892528669127425,0.4029781222343445,19.868005752563477,0.3990752398967743,-20.181917190551758,-0.7015891671180725,-2.4694857597351074,0.28232139348983765,0
24,0.11496233940124512,-0.4029781222343445,-19.868005752563477,-0.3990752398967743,20.181917190551758,0.7015891671180725,2.4694857597351074,-0.28232139348983765,0.0,0.0,0.0,0.0,0.0,0.0,0.0,-0.403313313585261,-0.11685919466019695,-0.2182815489370801,0.4272729497137228,0.12015464517795141,0.09722992962781836,-0.2725226716984115,1.213506248337435,-0.22006490208902788,-0.0074980883482702555,-2.604095774654957,-0.10899538439512253,2.468131097846561,0.8264826313665897,1.2134413937687574,-0.2202432315892585,-0.0075118285948192216,-2.6038483821997875,-0.10888392708698907,2.4681821257803174,0.826474908251239,-0.00020825906281117792,-5.4063649316519625e-06,-0.00047945528139030824,0.0002357879269111846,6.189097610296911e-05,-0.00010197270505187911,0.0010892528669127425,0.0,0.0,0.0,0.0,0.0,0.0,0.0,-6.48545686776636e-05,-0.00017832950023061178,-1.3740246548966072e-05,0.00024739245516958164,0.00011145730813345855,5.102793375622028e-05,-7.723115350688481e-06,0.00020825906281117792,5.4063649316519625e-06,0.00047945528139030824,-0.0002357879269111846,-6.189097610296911e-05,0.00010197270505187911,-0.0010892528669127425,0.4029781222343445,19.868005752563477,0.3990752398967743,-20.181917190551758,-0.7015891671180725,-2.4694857597351074,0.28232139348983765,0
25,0.12000393867492676,-0.4505855441093445,-19.891809463500977,-0.3990752398967743,20.205720901489258,0.7070823311805725,2.4694857597351074,-0.24112264811992645,0.0,0.0,0.0,0.0,0.0,0.0,0.0,-0.40635416337985525,-0.11748218915239449,-0.22348839364172732,0.42885083008878433,0.12101427878834631,0.09754327097946448,-0.2704815192065737,1.21351030447565,-0.22006514758728102,-0.007498088348264756,-2.6040956084933056,-0.10899599523498706,2.468131097846561,0.826478092495463,1.2134413937687574,-0.2202432315892585,-0.0075118285948192216,-2.6038483821997875,-0.10888392708698907,2.4681821257803174,0.826474908251239,0.0009908728025308134,0.0006207788103253634,-0.0004200650774702444,-0.00024506689717770463,1.2148676743579118e-05,-0.00012997624065864635,-0.0011764623946458426,0.0,0.0,0.0,0.0,0.0,0.0,0.0,-6.89107068925221e-05,-0.00017808400197746876,-1.3740246554465145e-05,0.0002472262935180325,0.00011206814799798182,5.102793375622028e-05,-3.1842442239637947e-06,-0.0009908728025308134,-0.0006207788103253634,0.0004200650774702444,0.00024506689717770463,-1.2148676743579118e-05,0.00012997624065864635,0.0011764623946458426,0.4505855441093445,19.891809463500977,0.3990752398967743,-20.205720901489258,-0.7070823311805725,-2.4694857597351074,0.24112264811992645,0
26,0.12495875358581543,-0.4505855441093445,-19.891809463500977,-0.3990752398967743,20.205720901489258,0.7070823311805725,2.4694857597351074,-0.24112264811992645,0.0,0.0,0.0,0.0,0.0,0.0,0.0,-0.40635416337985525,-0.11748218915239449,-0.22348839364172732,0.42885083008878433,0.12101427878834631,0.09754327097946448,-0.2704815192065737,1.21351030447565,-0.22006514758728102,-0.007498088348264756,-2.6040956084933056,-0.10899599523498706,2.468131097846561,0.826478092495463,1.2134413937687574,-0.2202432315892585,-0.0075118285948192216,-2.6038483821997875,-0.10888392708698907,2.4681821257803174,0.826474908251239,0.0009908728025308134,0.0006207788103253634,-0.0004200650774702444,-0.00024506689717770463,1.2148676743579118e-05,-0.00012997624065864635,-0.0011764623946458426,0.0,0.0,0.0,0.0,0.0,0.0,0.0,-6.89107068925221e-05,-0.00017808400197746876,-1.3740246554465145e-05,0.0002472262935180325,0.00011206814799798182,5.102793375622028e-05,-3.1842442239637947e-06,-0.0009908728025308134,-0.0006207788103253634,0.0004200650774702444,0.00024506689717770463,-1.2148676743579118e-05,0.00012997624065864635,0.0011764623946458426,0.4505855441093445,19.891809463500977,0.3990752398967743,-20.205720901489258,-0.7070823311805725,-2.4694857597351074,0.24112264811992645,0
27,0.12999725341796875,-0.4029781222343445,-19.891809463500977,-0.4228789508342743,20.181917190551758,0.7015891671180725,2.4630770683288574,-0.24844686686992645,0.0,0.0,0.0,0.0,0.0,0.0,0.0,-0.4093393070654998,-0.11825923435823346,-0.2274663421716685,0.4287532641526913,0.1216658572532882,0.09804657484440125,-0.269980497385699,1.2135062483482022,-0.22006535758861637,-0.007496417912409493,-2.604095749219174,-0.10899538439513079,2.468131809923384,0.826475374655031,1.2134413937687574,-0.2202432315892585,-0.0075118285948192216,-2.6038483821997875,-0.10888392708698907,2.4681821257803174,0.826474908251239,-0.00022061389777219853,0.0009342447929501147,-0.00031600218679090876,0.0006048495776204989,0.00016607820231372123,0.0002447281027574014,-0.0009906431647858879,0.0,0.0,0.0,0.0,0.0,0.0,0.0,-6.485457944482853e-05,-0.00017787400064211978,-1.5410682409728975e-05,0.0002473670193863242,0.00011145730814171584,5.031585693338059e-05,-4.664037919210884e-07,0.00022061389777219853,-0.0009342447929501147,0.00031600218679090876,-0.0006048495776204989,-0.00016607820231372123,-0.0002447281027574014,0.0009906431647858879,0.4029781222343445,19.891809463500977,0.4228789508342743,-20.181917190551758,-0.7015891671180725,-2.4630770683288574,0.24844686686992645,0
28,0.13501858711242676,-0.4029781222343445,-19.891809463500977,-0.4228789508342743,20.181917190551758,0.7015891671180725,2.4630770683288574,-0.24844686686992645,0.0,0.0,0.0,0.0,0.0,0.0,0.0,-0.4093393070654998,-0.11825923435823346,-0.2274663421716685,0.4287532641526913,0.1216658572532882,0.09804657484440125,-0.269980497385699,1.2135062483482022,-0.22006535758861637,-0.007496417912409493,-2.604095749219174,-0.10899538439513079,2.468131809923384,0.826475374655031,1.2134413937687574,-0.2202432315892585,-0.0075118285948192216,-2.6038483821997875,-0.10888392708698907,2.4681821257803174,0.826474908251239,-0.00022061389777219853,0.0009342447929501147,-0.00031600218679090876,0.0006048495776204989,0.00016607820231372123,0.0002447281027574014,-0.0009906431647858879,0.0,0.0,0.0,0.0,0.0,0.0,0.0,-6.485457944482853e-05,-0.00017787400064211978,-1.5410682409728975e-05,0.0002473670193863242,0.00011145730814171584,5.031585693338059e-05,-4.664037919210884e-07,0.00022061389777219853,-0.0009342447929501147,0.00031600218679090876,-0.0006048495776204989,-0.00016607820231372123,-0.0002447281027574014,0.0009906431647858879,0.4029781222343445,19.891809463500977,0.4228789508342743,-20.181917190551758,-0.7015891671180725,-2.4630770683288574,0.24844686686992645,0
29,0.14000916481018066,-0.3752071261405945,-19.868005752563477,-0.4228789508342743,20.154146194458008,0.7070823311805725,2.4694857597351074,-0.28232139348983765,0.0,0.0,0.0,0.0,0.0,0.0,0.0,-0.40447899248835084,-0.1231582562004017,-0.2207125363648641,0.42709901352180385,0.12088285207860057,0.09798705364634347,-0.2703037387212991,1.2135043789671178,-0.22006466631450042,-0.007496417912409493,-2.6040940550550165,-0.10899599474668503,2.468131097846561,0.8264826705938366,1.2134413937687574,-0.2202432315892585,-0.0075118285948192216,-2.6038483821997875,-0.10888392708698907,2.4681821257803174,0.826474908251239,-0.00040692581152701593,-0.00047407668911986467,0.0001959833525118433,0.0007804571433228475,-6.575609278966044e-06,2.5329062685499076e-05,0.0008480184930735781,0.0,0.0,0.0,0.0,0.0,0.0,0.0,-6.298519836045458e-05,-0.00017856527475806905,-1.5410682409728975e-05,0.0002456728552289178,0.000112067659695958,5.102793375622028e-05,-7.762342597583682e-06,0.00040692581152701593,0.00047407668911986467,-0.0001959833525118433,-0.0007804571433228475,6.575609278966044e-06,-2.5329062685499076e-05,-0.0008480184930735781,0.3752071261405945,19.868005752563477,0.4228789508342743,-20.154146194458008,-0.7070823311805725,-2.4694857597351074,0.28232139348983765,0
30,0.1450057029724121,-0.3752071261405945,-19.868005752563477,-0.4228789508342743,20.154146194458008,0.7070823311805725,2.4694857597351074,-0.28232139348983765,0.0,0.0,0.0,0.0,0.0,0.0,0.0,-0.40447899248835084,-0.1231582562004017,-0.2207125363648641,0.42709901352180385,0.12088285207860057,0.09798705364634347,-0.2703037387212991,1.2135043789671178,-0.22006466631450042,-0.007496417912409493,-2.6040940550550165,-0.10899599474668503,2.468131097846561,0.8264826705938366,1.2134413937687574,-0.2202432315892585,-0.0075118285948192216,-2.6038483821997875,-0.10888392708698907,2.4681821257803174,0.826474908251239,-0.00040692581152701593,-0.00047407668911986467,0.0001959833525118433,0.0007804571433228475,-6.575609278966044e-06,2.5329062685499076e-05,0.0008480184930735781,0.0,0.0,0.0,0.0,0.0,0.0,0.0,-6.298519836045458e-05,-0.00017856527475806905,-1.5410682409728975e-05,0.0002456728552289178,0.000112067659695958,5.102793375622028e-05,-7.762342597583682e-06,0.00040692581152701593,0.00047407668911986467,-0.0001959833525118433,-0.0007804571433228475,6.575609278966044e-06,-2.5329062685499076e-05,-0.0008480184930735781,0.3752071261405945,19.868005752563477,0.4228789508342743,-20.154146194458008,-0.7070823311805725,-2.4694857597351074,0.28232139348983765,0
31,0.15000104904174805,-0.4029781222343445,-19.891809463500977,-0.4228789508342743,20.181917190551758,0.7070823311805725,2.4566683769226074,-0.25485557317733765,0.0,0.0,0.0,0.0,0.0,0.0,0.0,-0.4068733386803034,-0.12231933368922357,-0.223916589745507,0.42432999839937763,0.12123881005902998,0.09792546391809191,-0.2705875282000996,1.2135062761365834,-0.22006299933042725,-0.007496417912409493,-2.6040960030924833,-0.10899599474668503,2.468132522000207,0.8264764394617103,1.2134413937687574,-0.2202432315892585,-0.0075118285948192216,-2.6038483821997875,-0.10888392708698907,2.4681821257803174,0.826474908251239,0.00014823091314819148,6.898129477070148e-07,-1.7478614510187877e-05,0.00018192917660235435,-0.00010534848484672327,0.0005827844470805382,-0.0006086055603570346,0.0,0.0,0.0,0.0,0.0,0.0,0.0,-6.488236782598023e-05,-0.00018023225883123661,-1.5410682409728975e-05,0.0002476208926958101,0.000112067659695958,4.9603780110540896e-05,-1.5312104713061103e-06,-0.00014823091314819148,-6.898129477070148e-07,1.7478614510187877e-05,-0.00018192917660235435,0.00010534848484672327,-0.0005827844470805382,0.0006086055603570346,0.4029781222343445,19.891809463500977,0.4228789508342743,-20.181917190551758,-0.7070823311805725,-2.4566683769226074,0.25485557317733765,0
32,0.15498971939086914,-0.4029781222343445,-19.891809463500977,-0.4228789508342743,20.181917190551758,0.7070823311805725,2.4566683769226074,-0.25485557317733765,0.0,0.0,0.0,0.0,0.0,0.0,0.0,-0.4068733386803034,-0.12231933368922357,-0.223916589745507,0.42432999839937763,0.12123881005902998,0.09792546391809191,-0.2705875282000996,1.2135062761365834,-0.22006299933042725,-0.007496417912409493,-2.6040960030924833,-0.10899599474668503,2.468132522000207,0.8264764394617103,1.2134413937687574,-0.2202432315892585,-0.0075118285948192216,-2.6038483821997875,-0.10888392708698907,2.4681821257803174,0.826474908251239,0.00014823091314819148,6.898129477070148e-07,-1.7478614510187877e-05,0.00018192917660235435,-0.00010534848484672327,0.0005827844470805382,-0.0006086055603570346,0.0,0.0,0.0,0.0,0.0,0.0,0.0,-6.488236782598023e-05,-0.00018023225883123661,-1.5410682409728975e-05,0.0002476208926958101,0.000112067659695958,4.9603780110540896e-05,-1.5312104713061103e-06,-0.00014823091314819148,-6.898129477070148e-07,1.7478614510187877e-05,-0.00018192917660235435,0.00010534848484672327,-0.0005827844470805382,0.0006086055603570346,0.4029781222343445,19.891809463500977,0.4228789508342743,-20.181917190551758,-0.7070823311805725,-2.4566683769226074,0.25485557317733765,0
33,0.16000771522521973,-0.3514034152030945,-19.891809463500977,-0.4228789508342743,20.205720901489258,0.7134910225868225,2.4758944511413574,-0.28232139348983765,0.0,0.0,0.0,0.0,0.0,0.0,0.0,-0.40658467146847277,-0.12603640574575498,-0.22489901078020066,0.42571761170719696,0.12104500883600494,0.09825162303141187,-0.2704445966823498,1.213502629070568,-0.22006299544218028,-0.007496420834982346,-2.604096985918325,-0.10899670682350794,2.4681303857697383,0.8264815673139736,1.2134413937687574,-0.2202432315892585,-0.0075118285948192216,-2.6038483821997875,-0.10888392708698907,2.4681821257803174,0.826474908251239,-0.0013197249168719455,0.00042815899695075246,-9.808058484552192e-05,0.00010254786005196517,-0.0003656457474513181,-0.000146924810760327,0.0008467043683968697,0.0,0.0,0.0,0.0,0.0,0.0,0.0,-6.123530181056935e-05,-0.000180236147078211,-1.5407759836875978e-05,0.00024860371853741015,0.00011277973651886708,5.174001057905997e-05,-6.65906273455974e-06,0.0013197249168719455,-0.00042815899695075246,9.808058484552192e-05,-0.00010254786005196517,0.0003656457474513181,0.000146924810760327,-0.0008467043683968697,0.3514034152030945,19.891809463500977,0.4228789508342743,-20.205720901489258,-0.7134910225868225,-2.4758944511413574,0.28232139348983765,0
34,0.1649928092956543,-0.3514034152030945,-19.891809463500977,-0.4228789508342743,20.205720901489258,0.7134910225868225,2.4758944511413574,-0.28232139348983765,0.0,0.0,0.0,0.0,0.0,0.0,0.0,-0.40658467146847277,-0.12603640574575498,-0.22489901078020066,0.42571761170719696,0.12104500883600494,0.09825162303141187,-0.2704445966823498,1.213502629070568,-0.22006299544218028,-0.007496420834982346,-2.604096985918325,-0.10899670682350794,2.4681303857697383,0.8264815673139736,1.2134413937687574,-0.2202432315892585,-0.0075118285948192216,-2.6038483821997875,-0.10888392708698907,2.4681821257803174,0.826474908251239,-0.0013197249168719455,0.00042815899695075246,-9.808058484552192e-05,0.00010254786005196517,-0.0003656457474513181,-0.000146924810760327,0.0008467043683968697,0.0,0.0,0.0,0.0,0.0,0.0,0.0,-6.123530181056935e-05,-0.000180236147078211,-1.5407759836875978e-05,0.00024860371853741015,0.00011277973651886708,5.174001057905997e-05,-6.65906273455974e-06,0.0013197249168719455,-0.00042815899695075246,9.808058484552192e-05,-0.00010254786005196517,0.0003656457474513181,0.000146924810760327,-0.0008467043683968697,0.3514034152030945,19.891809463500977,0.4228789508342743,-20.205720901489258,-0.7134910225868225,-2.4758944511413574,0.28232139348983765,0
35,0.1699988842010498,-0.4267818331718445,-19.891809463500977,-0.4466826617717743,20.229524612426758,0.6951804757118225,2.4630770683288574,-0.30978721380233765,0.0,0.0,0.0,0.0,0.0,0.0,0.0,-0.4033118750707113,-0.12558735028103737,-0.22320933241013305,0.42640574238274037,0.12073115358055896,0.0982660284484091,-0.2699294288872697,1.2135079285834087,-0.22006299544217295,-0.007494747476570728,-2.6040972760912817,-0.10899467378320571,2.468131809923384,0.8264857223161771,1.2134413937687574,-0.2202432315892585,-0.0075118285948192216,-2.6038483821997875,-0.10888392708698907,2.4681821257803174,0.826474908251239,0.0005934805761918798,0.0007528570953053056,0.0007371989815999501,-0.00047401269269445795,0.00040558923089005245,6.0417738556645624e-05,0.001971450008683376,0.0,0.0,0.0,0.0,0.0,0.0,0.0,-6.653481465135336e-05,-0.00018023614708553848,-1.708111824849385e-05,0.00024889389149418406,0.0001107466962166348,5.031585693338059e-05,-1.081406493808057e-05,-0.0005934805761918798,-0.0007528570953053056,-0.0007371989815999501,0.00047401269269445795,-0.00040558923089005245,-6.0417738556645624e-05,-0.001971450008683376,0.4267818331718445,19.891809463500977,0.4466826617717743,-20.229524612426758,-0.6951804757118225,-2.4630770683288574,0.30978721380233765,0
36,0.17499518394470215,-0.4267818331718445,-19.891809463500977,-0.4466826617717743,20.229524612426758,0.6951804757118225,2.4630770683288574,-0.30978721380233765,0.0,0.0,0.0,0.0,0.0,0.0,0.0,-0.4033118750707113,-0.12558735028103737,-0.22320933241013305,0.42640574238274037,0.12073115358055896,0.0982660284484091,-0.2699294288872697,1.2135079285834087,-0.22006299544217295,-0.007494747476570728,-2.6040972760912817,-0.10899467378320571,2.468131809923384,0.8264857223161771,1.2134413937687574,-0.2202432315892585,-0.0075118285948192216,-2.6038483821997875,-0.10888392708698907,2.4681821257803174,0.826474908251239,0.0005934805761918798,0.0007528570953053056,0.0007371989815999501,-0.00047401269269445795,0.00040558923089005245,6.0417738556645624e-05,0.001971450008683376,0.0,0.0,0.0,0.0,0.0,0.0,0.0,-6.653481465135336e-05,-0.00018023614708553848,-1.708111824849385e-05,0.00024889389149418406,0.0001107466962166348,5.031585693338059e-05,-1.081406493808057e-05,-0.0005934805761918798,-0.0007528570953053056,-0.0007371989815999501,0.00047401269269445795,-0.00040558923089005245,-6.0417738556645624e-05,-0.001971450008683376,0.4267818331718445,19.891809463500977,0.4466826617717743,-20.229524612426758,-0.6951804757118225,-2.4630770683288574,0.30978721380233765,0
37,0.1799945831298828,-0.4783565402030945,-19.868005752563477,-0.4228789508342743,20.181917190551758,0.6951804757118225,2.4630770683288574,-0.26217979192733765,0.0,0.0,0.0,0.0,0.0,0.0,0.0,-0.4044524481195795,-0.11976102368216893,-0.22573438023544104,0.42825622592037454,0.12086917559666671,0.09729546943607437,-0.26963275476100346,1.2135122546136186,-0.2200646658780282,-0.007496418886600444,-2.6040960014711385,-0.10899467231830787,2.468131809923384,0.8264804195269111,1.2134413937687574,-0.2202432315892585,-0.0075118285948192216,-2.6038483821997875,-0.10888392708698907,2.4681821257803174,0.826474908251239,0.0018299774245278608,0.0006101023200181511,-0.0004989154835529793,0.0004059736835165957,0.0006711543745276306,0.00015955279792154406,-0.0005357662411623595,0.0,0.0,0.0,0.0,0.0,0.0,0.0,-7.086084486118693e-05,-0.00017856571123028853,-1.5409708218777976e-05,0.00024761927135097395,0.00011074523131879288,5.031585693338059e-05,-5.511275672054339e-06,-0.0018299774245278608,-0.0006101023200181511,0.0004989154835529793,-0.0004059736835165957,-0.0006711543745276306,-0.00015955279792154406,0.0005357662411623595,0.4783565402030945,19.868005752563477,0.4228789508342743,-20.181917190551758,-0.6951804757118225,-2.4630770683288574,0.26217979192733765,0
38,0.1849966049194336,-0.4783565402030945,-19.868005752563477,-0.4228789508342743,20.181917190551758,0.6951804757118225,2.4630770683288574,-0.26217979192733765,0.0,0.0,0.0,0.0,0.0,0.0,0.0,-0.4044524481195795,-0.11976102368216893,-0.22573438023544104,0.42825622592037454,0.12086917559666671,0.09729546943607437,-0.26963275476100346,1.2135122546136186,-0.2200646658780282,-0.007496418886600444,-2.6040960014711385,-0.10899467231830787,2.468131809923384,0.8264804195269111,1.2134413937687574,-0.2202432315892585,-0.0075118285948192216,-2.6038483821997875,-0.10888392708698907,2.4681821257803174,0.826474908251239,0.0018299774245278608,0.0006101023200181511,-0.0004989154835529793,0.0004059736835165957,0.0006711543745276306,0.00015955279792154406,-0.0005357662411623595,0.0,0.0,0.0,0.0,0.0,0.0,0.0,-7.086084486118693e-05,-0.00017856571123028853,-1.5409708218777976e-05,0.00024761927135097395,0.00011074523131879288,5.031585693338059e-05,-5.511275672054339e-06,-0.0018299774245278608,-0.0006101023200181511,0.0004989154835529793,-0.0004059736835165957,-0.0006711543745276306,-0.00015955279792154406,0.0005357662411623595,0.4783565402030945,19.868005752563477,0.4228789508342743,-20.181917190551758,-0.6951804757118225,-2.4630770683288574,0.26217979192733765,0
39,0.1899583339691162,-0.4267818331718445,-19.891809463500977,-0.3990752398967743,20.181917190551758,0.7015891671180725,2.4758944511413574,-0.23471395671367645,0.0,0.0,0.0,0.0,0.0,0.0,0.0,-0.4095046624976037,-0.12665750812661208,-0.23203581166028606,0.4413845255243666,0.1215891694770179,0.09944515155335572,-0.2693229177202263,1.2135080335701203,-0.22006512134116993,-0.0074980883482702555,-2.604093912548059,-0.10899538439512253,2.4681303857697383,0.8264773809031565,1.2134413937687574,-0.2202432315892585,-0.0075118285948192216,-2.6038483821997875,-0.10888392708698907,2.4681821257803174,0.826474908251239,-0.0003754204890597416,0.0010455559278187698,-0.0010459159701320057,0.0007427246139518228,0.00017245300398569224,-0.004298832758945447,-0.0014925401975259892,0.0,0.0,0.0,0.0,0.0,0.0,0.0,-6.663980136289993e-05,-0.0001781102480885588,-1.3740246548966072e-05,0.00024553034827157205,0.00011145730813345855,5.174001057905997e-05,-2.4726519174400607e-06,0.0003754204890597416,-0.0010455559278187698,0.0010459159701320057,-0.0007427246139518228,-0.00017245300398569224,0.004298832758945447,0.0014925401975259892,0.4267818331718445,19.891809463500977,0.3990752398967743,-20.181917190551758,-0.7015891671180725,-2.4758944511413574,0.23471395671367645,0
40,0.19499516487121582,-0.4267818331718445,-19.891809463500977,-0.3990752398967743,20.181917190551758,0.7015891671180725,2.4758944511413574,-0.23471395671367645,0.0,0.0,0.0,0.0,0.0,0.0,0.0,-0.4095046624976037,-0.12665750812661208,-0.23203581166028606,0.4413845255243666,0.1215891694770179,0.09944515155335572,-0.2693229177202263,1.2135080335701203,-0.22006512134116993,-0.0074980883482702555,-2.604093912548059,-0.10899538439512253,2.4681303857697383,0.8264773809031565,1.2134413937687574,-0.2202432315892585,-0.0075118285948192216,-2.6038483821997875,-0.10888392708698907,2.4681821257803174,0.826474908251239,-0.0003754204890597416,0.0010455559278187698,-0.0010459159701320057,0.0007427246139518228,0.00017245300398569224,-0.004298832758945447,-0.0014925401975259892,0.0,0.0,0.0,0.0,0.0,0.0,0.0,-6.663980136289993e-05,-0.0001781102480885588,-1.3740246548966072e-05,0.00024553034827157205,0.00011145730813345855,5.174001057905997e-05,-2.4726519174400607e-06,0.0003754204890597416,-0.0010455559278187698,0.0010459159701320057,-0.0007427246139518228,-0.00017245300398569224,0.004298832758945447,0.0014925401975259892,0.4267818331718445,19.891809463500977,0.3990752398967743,-20.181917190551758,-0.7015891671180725,-2.4758944511413574,0.23471395671367645,0
41,0.20001983642578125,-0.4505855441093445,-19.868005752563477,-0.4704863727092743,20.205720901489258,0.7134910225868225,2.4758944511413574,-0.24844686686992645,0.0,0.0,0.0,0.0,0.0,0.0,0.0,-0.4121701975860144,-0.12340385953714983,-0.2315766624665961,0.43745925419922904,0.12181770729986265,0.0977720154861106,-0.2705071234017689,1.213509828063092,-0.22006466880621414,-0.007493077040698967,-2.604097674776282,-0.10899670682350794,2.4681303857697383,0.8264757277062433,1.2134413937687574,-0.2202432315892585,-0.0075118285948192216,-2.6038483821997875,-0.10888392708698907,2.4681821257803174,0.826474908251239,0.000648343054052851,-8.380251244445693e-05,0.00061780938556537,0.00010891822898142971,-0.00032631022234343637,-0.0003272158707927907,-0.0010730854053310128,0.0,0.0,0.0,0.0,0.0,0.0,0.0,-6.843429433467385e-05,-0.0001785627830443448,-1.87515541202549e-05,0.0002492925764943088,0.00011277973651886708,5.174001057905997e-05,-8.194550042972537e-07,-0.000648343054052851,8.380251244445693e-05,-0.00061780938556537,-0.00010891822898142971,0.00032631022234343637,0.0003272158707927907,0.0010730854053310128,0.4505855441093445,19.868005752563477,0.4704863727092743,-20.205720901489258,-0.7134910225868225,-2.4758944511413574,0.24844686686992645,0
42,0.20499062538146973,-0.4505855441093445,-19.868005752563477,-0.4704863727092743,20.205720901489258,0.7134910225868225,2.4758944511413574,-0.24844686686992645,0.0,0.0,0.0,0.0,0.0,0.0,0.0,-0.4121701975860144,-0.12340385953714983,-0.2315766624665961,0.43745925419922904,0.12181770729986265,0.0977720154861106,-0.2705071234017689,1.213509828063092,-0.22006466880621414,-0.007493077040698967,-2.604097674776282,-0.10899670682350794,2.4681303857697383,0.8264757277062433,1.2134413937687574,-0.2202432315892585,-0.0075118285948192216,-2.6038483821997875,-0.10888392708698907,2.4681821257803174,0.826474908251239,0.000648343054052851,-8.380251244445693e-05,0.00061780938556537,0.00010891822898142971,-0.00032631022234343637,-0.0003272158707927907,-0.0010730854053310128,0.0,0.0,0.0,0.0,0.0,0.0,0.0,-6.843429433467385e-05,-0.0001785627830443448,-1.87515541202549e-05,0.0002492925764943088,0.00011277973651886708,5.174001057905997e-05,-8.194550042972537e-07,-0.000648343054052851,8.380251244445693e-05,-0.00061780938556537,-0.00010891822898142971,0.00032631022234343637,0.0003272158707927907,0.0010730854053310128,0.4505855441093445,19.868005752563477,0.4704863727092743,-20.205720901489258,-0.7134910225868225,-2.4758944511413574,0.24844686686992645,0
43,0.20999813079833984,-0.4505855441093445,-19.868005752563477,-0.4704863727092743,20.205720901489258,0.7134910225868225,2.4758944511413574,-0.24844686686992645,0.0,0.0,0.0,0.0,0.0,0.0,0.0,-0.4121701975860144,-0.12340385953714983,-0.2315766624665961,0.43745925419922904,0.12181770729986265,0.0977720154861106,-0.2705071234017689,1.213509828063092,-0.22006466880621414,-0.007493077040698967,-2.604097674776282,-0.10899670682350794,2.4681303857697383,0.8264757277062433,1.2134413937687574,-0.2202432315892585,-0.0075118285948192216,-2.6038483821997875,-0.10888392708698907,2.4681821257803174,0.826474908251239,0.000648343054052851,-8.380251244445693e-05,0.00061780938556537,0.00010891822898142971,-0.00032631022234343637,-0.0003272158707927907,-0.0010730854053310128,0.0,0.0,0.0,0.0,0.0,0.0,0.0,-6.843429433467385e-05,-0.0001785627830443448,-1.87515541202549e-05,0.0002492925764943088,0.00011277973651886708,5.174001057905997e-05,-8.194550042972537e-07,-0.000648343054052851,8.380251244445693e-05,-0.00061780938556537,-0.00010891822898142971,0.00032631022234343637,0.0003272158707927907,0.0010730854053310128,0.4505855441093445,19.868005752563477,0.4704863727092743,-20.205720901489258,-0.7134910225868225,-2.4758944511413574,0.24844686686992645,0
44,0.2150425910949707,-0.4505855441093445,-19.868005752563477,-0.4704863727092743,20.205720901489258,0.7134910225868225,2.4758944511413574,-0.24844686686992645,0.0,0.0,0.0,0.0,0.0,0.0,0.0,-0.4121701975860144,-0.12340385953714983,-0.2315766624665961,0.43745925419922904,0.12181770729986265,0.0977720154861106,-0.2705071234017689,1.213509828063092,-0.22006466880621414,-0.007493077040698967,-2.604097674776282,-0.10899670682350794,2.4681303857697383,0.8264757277062433,1.2134413937687574,-0.2202432315892585,-0.0075118285948192216,-2.6038483821997875,-0.10888392708698907,2.4681821257803174,0.826474908251239,0.000648343054052851,-8.380251244445693e-05,0.00061780938556537,0.00010891822898142971,-0.00032631022234343637,-0.0003272158707927907,-0.0010730854053310128,0.0,0.0,0.0,0.0,0.0,0.0,0.0,-6.843429433467385e-05,-0.0001785627830443448,-1.87515541202549e-05,0.0002492925764943088,0.00011277973651886708,5.174001057905997e-05,-8.194550042972537e-07,-0.000648343054052851,8.380251244445693e-05,-0.00061780938556537,-0.00010891822898142971,0.00032631022234343637,0.0003272158707927907,0.0010730854053310128,0.4505855441093445,19.868005752563477,0.4704863727092743,-20.205720901489258,-0.7134910225868225,-2.4758944511413574,0.24844686686992645,0
45,0.22002625465393066,-0.4029781222343445,-19.891809463500977,-0.3990752398967743,20.205720901489258,0.7070823311805725,2.4630770683288574,-0.27591270208358765,0.0,0.0,0.0,0.0,0.0,0.0,0.0,-0.41329135931525346,-0.11613747972145534,-0.23211948133583965,0.4297680477834532,0.12161274401367045,0.0955554734237219,-0.27137084432236813,1.2135064959160797,-0.2200629957662431,-0.007498088348264756,-2.6040956084937377,-0.10899599474668503,2.468131809923384,0.8264819580032504,1.2134413937687574,-0.2202432315892585,-0.0075118285948192216,-2.6038483821997875,-0.10888392708698907,2.4681821257803174,0.826474908251239,-5.759796722099906e-05,0.0008617707519633608,-0.001086144209338875,8.186174921346557e-05,7.067548910211545e-07,3.420887258066872e-05,0.00018008693344549005,0.0,0.0,0.0,0.0,0.0,0.0,0.0,-6.510214732236008e-05,-0.00018023582301537888,-1.3740246554465145e-05,0.0002472262939501313,0.000112067659695958,5.031585693338059e-05,-7.049752011378807e-06,5.759796722099906e-05,-0.0008617707519633608,0.001086144209338875,-8.186174921346557e-05,-7.067548910211545e-07,-3.420887258066872e-05,-0.00018008693344549005,0.4029781222343445,19.891809463500977,0.3990752398967743,-20.205720901489258,-0.7070823311805725,-2.4630770683288574,0.27591270208358765,0
46,0.22504281997680664,-0.4029781222343445,-19.891809463500977,-0.3990752398967743,20.205720901489258,0.7070823311805725,2.4630770683288574,-0.27591270208358765,0.0,0.0,0.0,0.0,0.0,0.0,0.0,-0.41329135931525346,-0.11613747972145534,-0.23211948133583965,0.4297680477834532,0.12161274401367045,0.0955554734237219,-0.27137084432236813,1.2135064959160797,-0.2200629957662431,-0.007498088348264756,-2.6040956084937377,-0.10899599474668503,2.468131809923384,0.8264819580032504,1.2134413937687574,-0.2202432315892585,-0.0075118285948192216,-2.6038483821997875,-0.10888392708698907,2.4681821257803174,0.826474908251239,-5.759796722099906e-05,0.0008617707519633608,-0.001086144209338875,8.186174921346557e-05,7.067548910211545e-07,3.420887258066872e-05,0.00018008693344549005,0.0,0.0,0.0,0.0,0.0,0.0,0.0,-6.510214732236008e-05,-0.00018023582301537888,-1.3740246554465145e-05,0.0002472262939501313,0.000112067659695958,5.031585693338059e-05,-7.049752011378807e-06,5.759796722099906e-05,-0.0008617707519633608,0.001086144209338875,-8.186174921346557e-05,-7.067548910211545e-07,-3.420887258066872e-05,-0.00018008693344549005,0.4029781222343445,19.891809463500977,0.3990752398967743,-20.205720901489258,-0.7070823311805725,-2.4630770683288574,0.27591270208358765,0
47,0.23000240325927734,-0.3752071261405945,-19.915613174438477,-0.4228789508342743,20.181917190551758,0.7015891671180725,2.4694857597351074,-0.25485557317733765,0.0,0.0,0.0,0.0,0.0,0.0,0.0,-0.41451381690090094,-0.12049160237182206,-0.2325164955763545,0.4326623162131186,0.12147167367550034,0.09569959742326446,-0.27181542591266517,1.2135045388944494,-0.22006132500631828,-0.007496417912409493,-2.6040960043366823,-0.10899538439512253,2.468131097846561,0.8264782058482698,1.2134413937687574,-0.2202432315892585,-0.0075118285948192216,-2.6038483821997875,-0.10888392708698907,2.4681821257803174,0.826474908251239,-0.0006247800978598387,0.0008197331979944544,-0.00010851427163153807,0.0006287436857861369,0.00011096968832600161,-0.00011133498338823835,-0.0007052248857735275,0.0,0.0,0.0,0.0,0.0,0.0,0.0,-6.314512569205455e-05,-0.00018190658294020556,-1.5410682409728975e-05,0.0002476221368947762,0.00011145730813345855,5.102793375622028e-05,-3.297597030771371e-06,0.0006247800978598387,-0.0008197331979944544,0.00010851427163153807,-0.0006287436857861369,-0.00011096968832600161,0.00011133498338823835,0.0007052248857735275,0.3752071261405945,19.915613174438477,0.4228789508342743,-20.181917190551758,-0.7015891671180725,-2.4694857597351074,0.25485557317733765,0
48,0.235001802444458,-0.3752071261405945,-19.915613174438477,-0.4228789508342743,20.181917190551758,0.7015891671180725,2.4694857597351074,-0.25485557317733765,0.0,0.0,0.0,0.0,0.0,0.0,0.0,-0.41451381690090094,-0.12049160237182206,-0.2325164955763545,0.4326623162131186,0.12147167367550034,0.09569959742326446,-0.27181542591266517,1.2135045388944494,-0.22006132500631828,-0.007496417912409493,-2.6040960043366823,-0.10899538439512253,2.468131097846561,0.8264782058482698,1.2134413937687574,-0.2202432315892585,-0.0075118285948192216,-2.6038483821997875,-0.10888392708698907,2.4681821257803174,0.826474908251239,-0.0006247800978598387,0.0008197331979944544,-0.00010851427163153807,0.0006287436857861369,0.00011096968832600161,-0.00011133498338823835,-0.0007052248857735275,0.0,0.0,0.0,0.0,0.0,0.0,0.0,-6.314512569205455e-05,-0.00018190658294020556,-1.5410682409728975e-05,0.0002476221368947762,0.00011145730813345855,5.102793375622028e-05,-3.297597030771371e-06,0.0006247800978598387,-0.0008197331979944544,0.00010851427163153807,-0.0006287436857861369,-0.00011096968832600161,0.00011133498338823835,0.0007052248857735275,0.3752071261405945,19.915613174438477,0.4228789508342743,-20.181917190551758,-0.7015891671180725,-2.4694857597351074,0.25485557317733765,0
49,0.23999476432800293,-0.4029781222343445,-19.844202041625977,-0.4228789508342743,20.181917190551758,0.6951804757118225,2.4630770683288574,-0.29605430364608765,0.0,0.0,0.0,0.0,0.0,0.0,0.0,-0.4136250331118262,-0.1202468176708121,-0.23159530431823394,0.4328935857873015,0.12137428895722423,0.09618128234280013,-0.27226817065101205,1.213506252298365,-0.22006633631388348,-0.00749641823713981,-2.6040932491881197,-0.10899467231829961,2.468131809923384,0.8264810161214196,1.2134413937687574,-0.2202432315892585,-0.0075118285948192216,-2.6038483821997875,-0.10888392708698907,2.4681821257803174,0.826474908251239,0.0001726586571635926,-0.0005486551522051089,0.00021783731163855204,0.0007470445493606737,0.00045455458604279445,0.00043109396161915286,0.0009303642446261596,0.0,0.0,0.0,0.0,0.0,0.0,0.0,-6.4858529607692e-05,-0.00017689527537501082,-1.5410357679411686e-05,0.0002448669883321486,0.0001107452313105356,5.031585693338059e-05,-6.107870180516173e-06,-0.0001726586571635926,0.0005486551522051089,-0.00021783731163855204,-0.0007470445493606737,-0.00045455458604279445,-0.00043109396161915286,-0.0009303642446261596,0.4029781222343445,19.844202041625977,0.4228789508342743,-20.181917190551758,-0.6951804757118225,-2.4630770683288574,0.29605430364608765,0
50,0.2449953556060791,-0.4029781222343445,-19.844202041625977,-0.4228789508342743,20.181917190551758,0.6951804757118225,2.4630770683288574,-0.29605430364608765,0.0,0.0,0.0,0.0,0.0,0.0,0.0,-0.4136250331118262,-0.1202468176708121,-0.23159530431823394,0.4328935857873015,0.12137428895722423,0.09618128234280013,-0.27226817065101205,1.213506252298365,-0.22006633631388348,-0.00749641823713981,-2.6040932491881197,-0.10899467231829961,2.468131809923384,0.8264810161214196,1.2134413937687574,-0.2202432315892585,-0.0075118285948192216,-2.6038483821997875,-0.10888392708698907,2.4681821257803174,0.826474908251239,0.0001726586571635926,-0.0005486551522051089,0.00021783731163855204,0.0007470445493606737,0.00045455458604279445,0.00043109396161915286,0.0009303642446261596,0.0,0.0,0.0,0.0,0.0,0.0,0.0,-6.4858529607692e-05,-0.00017689527537501082,-1.5410357679411686e-05,0.0002448669883321486,0.0001107452313105356,5.031585693338059e-05,-6.107870180516173e-06,-0.0001726586571635926,0.0005486551522051089,-0.00021783731163855204,-0.0007470445493606737,-0.00045455458604279445,-0.00043109396161915286,-0.0009303642446261596,0.4029781222343445,19.844202041625977,0.4228789508342743,-20.181917190551758,-0.6951804757118225,-2.4630770683288574,0.29605430364608765,0
51,0.24999260902404785,-0.4029781222343445,-19.816431045532227,-0.3990752398967743,20.181917190551758,0.7015891671180725,2.4758944511413574,-0.27591270208358765,0.0,0.0,0.0,0.0,0.0,0.0,0.0,-0.4109722579456524,-0.12122928611944958,-0.22998743498999014,0.43070881972571395,0.12106718644794975,0.0968571285818874,-0.27256290628376767,1.2135070440458549,-0.2200682851557146,-0.007498088348266589,-2.6040959249728384,-0.10899538439512253,2.4681303857697383,0.8264818407860819,1.2134413937687574,-0.2202432315892585,-0.0075118285948192216,-2.6038483821997875,-0.10888392708698907,2.4681821257803174,0.826474908251239,-4.81288154174565e-05,-0.0011429517111991082,-0.0005960103429743809,0.00029967360143797383,0.00021303771766307912,-9.346686862777606e-05,0.000510517296884787,0.0,0.0,0.0,0.0,0.0,0.0,0.0,-6.565027709748428e-05,-0.00017494643354387662,-1.374024655263241e-05,0.00024754277305083505,0.00011145730813345855,5.174001057905997e-05,-6.932534842851723e-06,4.81288154174565e-05,0.0011429517111991082,0.0005960103429743809,-0.00029967360143797383,-0.00021303771766307912,9.346686862777606e-05,-0.000510517296884787,0.4029781222343445,19.816431045532227,0.3990752398967743,-20.181917190551758,-0.7015891671180725,-2.4758944511413574,0.27591270208358765,0
52,0.2549929618835449,-0.4029781222343445,-19.816431045532227,-0.3990752398967743,20.181917190551758,0.7015891671180725,2.4758944511413574,-0.27591270208358765,0.0,0.0,0.0,0.0,0.0,0.0,0.0,-0.4109722579456524,-0.12122928611944958,-0.22998743498999014,0.43070881972571395,0.12106718644794975,0.0968571285818874,-0.27256290628376767,1.2135070440458549,-0.2200682851557146,-0.007498088348266589,-2.6040959249728384,-0.10899538439512253,2.4681303857697383,0.8264818407860819,1.2134413937687574,-0.2202432315892585,-0.0075118285948192216,-2.6038483821997875,-0.10888392708698907,2.4681821257803174,0.826474908251239,-4.81288154174565e-05,-0.0011429517111991082,-0.0005960103429743809,0.00029967360143797383,0.00021303771766307912,-9.346686862777606e-05,0.000510517296884787,0.0,0.0,0.0,0.0,0.0,0.0,0.0,-6.565027709748428e-05,-0.00017494643354387662,-1.374024655263241e-05,0.00024754277305083505,0.00011145730813345855,5.174001057905997e-05,-6.932534842851723e-06,4.81288154174565e-05,0.0011429517111991082,0.0005960103429743809,-0.00029967360143797383,-0.00021303771766307912,9.346686862777606e-05,-0.000510517296884787,0.4029781222343445,19.816431045532227,0.3990752398967743,-20.181917190551758,-0.7015891671180725,-2.4758944511413574,0.27591270208358765,0
53,0.2600066661834717,-0.4029781222343445,-19.868005752563477,-0.4228789508342743,20.205720901489258,0.7070823311805725,2.4758944511413574,-0.23471395671367645,0.0,0.0,0.0,0.0,0.0,0.0,0.0,-0.406531566620428,-0.1251439734934872,-0.22422374500282818,0.4321895464033752,0.12120037505721822,0.09809865601184684,-0.271471960156668,1.2135062601113433,-0.22006537742721238,-0.00749641892268159,-2.604097674752948,-0.10899599621159113,2.4681303857697383,0.8264772617118888,1.2134413937687574,-0.2202432315892585,-0.0075118285948192216,-2.6038483821997875,-0.10888392708698907,2.4681821257803174,0.826474908251239,-8.580784964240535e-05,-2.276082981673028e-05,0.00035500325571550417,-6.285554385120048e-05,-0.00016775869019545044,-0.0002869347026612214,-0.0015666935495174466,0.0,0.0,0.0,0.0,0.0,0.0,0.0,-6.486634258595636e-05,-0.00017785416204610383,-1.5409672137631225e-05,0.00024929255316052945,0.0001120691246020572,5.174001057905997e-05,-2.3534606498065713e-06,8.580784964240535e-05,2.276082981673028e-05,-0.00035500325571550417,6.285554385120048e-05,0.00016775869019545044,0.0002869347026612214,0.0015666935495174466,0.4029781222343445,19.868005752563477,0.4228789508342743,-20.205720901489258,-0.7070823311805725,-2.4758944511413574,0.23471395671367645,0
54,0.26498985290527344,-0.4029781222343445,-19.868005752563477,-0.4228789508342743,20.205720901489258,0.7070823311805725,2.4758944511413574,-0.23471395671367645,0.0,0.0,0.0,0.0,0.0,0.0,0.0,-0.406531566620428,-0.1251439734934872,-0.22422374500282818,0.4321895464033752,0.12120037505721822,0.09809865601184684,-0.271471960156668,1.2135062601113433,-0.22006537742721238,-0.00749641892268159,-2.604097674752948,-0.10899599621159113,2.4681303857697383,0.8264772617118888,1.2134413937687574,-0.2202432315892585,-0.0075118285948192216,-2.6038483821997875,-0.10888392708698907,2.4681821257803174,0.826474908251239,-8.580784964240535e-05,-2.276082981673028e-05,0.00035500325571550417,-6.285554385120048e-05,-0.00016775869019545044,-0.0002869347026612214,-0.0015666935495174466,0.0,0.0,0.0,0.0,0.0,0.0,0.0,-6.486634258595636e-05,-0.00017785416204610383,-1.5409672137631225e-05,0.00024929255316052945,0.0001120691246020572,5.174001057905997e-05,-2.3534606498065713e-06,8.580784964240535e-05,2.276082981673028e-05,-0.00035500325571550417,6.285554385120048e-05,0.00016775869019545044,0.0002869347026612214,0.0015666935495174466,0.4029781222343445,19.868005752563477,0.4228789508342743,-20.205720901489258,-0.7070823311805725,-2.4758944511413574,0.23471395671367645,0
55,0.2699897289276123,-0.4267818331718445,-19.844202041625977,-0.4228789508342743,20.205720901489258,0.7070823311805725,2.4694857597351074,-0.26858848333358765,0.0,0.0,0.0,0.0,0.0,0.0,0.0,-0.4064517069234875,-0.11640327667685933,-0.22380704732589554,0.4272429563859566,0.12118840529054016,0.09738540510432006,-0.26988080236469375,1.2135080074022373,-0.22006633631790018,-0.007496418020658635,-2.6040956056593147,-0.10899599474669329,2.468131097846561,0.8264811442543322,1.2134413937687574,-0.2202432315892585,-0.0075118285948192216,-2.6038483821997875,-0.10888392708698907,2.4681821257803174,0.826474908251239,0.0006199793273415699,6.594249950796781e-05,0.00010552018544519874,-4.0500977105495746e-05,-6.04949256956527e-05,0.00016792574736247635,-5.240456169948357e-05,0.0,0.0,0.0,0.0,0.0,0.0,0.0,-6.661363347992832e-05,-0.00017689527135830718,-1.5410574160586686e-05,0.0002472234595272127,0.00011206765970421528,5.102793375622028e-05,-6.236003093129661e-06,-0.0006199793273415699,-6.594249950796781e-05,-0.00010552018544519874,4.0500977105495746e-05,6.04949256956527e-05,-0.00016792574736247635,5.240456169948357e-05,0.4267818331718445,19.844202041625977,0.4228789508342743,-20.205720901489258,-0.7070823311805725,-2.4694857597351074,0.26858848333358765,0
56,0.27495360374450684,-0.4267818331718445,-19.844202041625977,-0.4228789508342743,20.205720901489258,0.7070823311805725,2.4694857597351074,-0.26858848333358765,0.0,0.0,0.0,0.0,0.0,0.0,0.0,-0.4064517069234875,-0.11640327667685933,-0.22380704732589554,0.4272429563859566,0.12118840529054016,0.09738540510432006,-0.26988080236469375,1.2135080074022373,-0.22006633631790018,-0.007496418020658635,-2.6040956056593147,-0.10899599474669329,2.468131097846561,0.8264811442543322,1.2134413937687574,-0.2202432315892585,-0.0075118285948192216,-2.6038483821997875,-0.10888392708698907,2.4681821257803174,0.826474908251239,0.0006199793273415699,6.594249950796781e-05,0.00010552018544519874,-4.0500977105495746e-05,-6.04949256956527e-05,0.00016792574736247635,-5.240456169948357e-05,0.0,0.0,0.0,0.0,0.0,0.0,0.0,-6.661363347992832e-05,-0.00017689527135830718,-1.5410574160586686e-05,0.0002472234595272127,0.00011206765970421528,5.102793375622028e-05,-6.236003093129661e-06,-0.0006199793273415699,-6.594249950796781e-05,-0.00010552018544519874,4.0500977105495746e-05,6.04949256956527e-05,-0.00016792574736247635,5.240456169948357e-05,0.4267818331718445,19.844202041625977,0.4228789508342743,-20.205720901489258,-0.7070823311805725,-2.4694857597351074,0.26858848333358765,0
57,0.2802915573120117,-0.4267818331718445,-19.868005752563477,-0.4466826617717743,20.181917190551758,0.7070823311805725,2.4758944511413574,-0.26217979192733765,0.0,0.0,0.0,0.0,0.0,0.0,0.0,-0.4110997113086501,-0.12338368145077579,-0.22908236717118158,0.43427635460553776,0.1216129758231722,0.09883992366994963,-0.2705546604388892,1.2135079187734454,-0.22006466620204884,-0.007494747476556063,-2.604095315237474,-0.10899636390302407,2.4681303857697383,0.8264800794499809,1.2134413937687574,-0.2202432315892585,-0.0075118285948192216,-2.6038483821997875,-0.10888392708698907,2.4681821257803174,0.826474908251239,-4.5694550492031835e-05,0.0005756408215914959,0.0003294728233425422,0.001037474850577429,-0.00010159426752139209,-0.0002404643343068704,-0.0006085830878221148,0.0,0.0,0.0,0.0,0.0,0.0,0.0,-6.652500468806721e-05,-0.00017856538720964488,-1.7081118263158335e-05,0.0002469330376864143,0.000112436816034997,5.174001057905997e-05,-5.171198741882321e-06,4.5694550492031835e-05,-0.0005756408215914959,-0.0003294728233425422,-0.001037474850577429,0.00010159426752139209,0.0002404643343068704,0.0006085830878221148,0.4267818331718445,19.868005752563477,0.4466826617717743,-20.181917190551758,-0.7070823311805725,-2.4758944511413574,0.26217979192733765,0
58,0.2850024700164795,-0.4267818331718445,-19.868005752563477,-0.4466826617717743,20.181917190551758,0.7070823311805725,2.4758944511413574,-0.26217979192733765,0.0,0.0,0.0,0.0,0.0,0.0,0.0,-0.4110997113086501,-0.12338368145077579,-0.22908236717118158,0.43427635460553776,0.1216129758231722,0.09883992366994963,-0.2705546604388892,1.2135079187734454,-0.22006466620204884,-0.007494747476556063,-2.604095315237474,-0.10899636390302407,2.4681303857697383,0.8264800794499809,1.2134413937687574,-0.2202432315892585,-0.0075118285948192216,-2.6038483821997875,-0.10888392708698907,2.4681821257803174,0.826474908251239,-4.5694550492031835e-05,0.0005756408215914959,0.0003294728233425422,0.001037474850577429,-0.00010159426752139209,-0.0002404643343068704,-0.0006085830878221148,0.0,0.0,0.0,0.0,0.0,0.0,0.0,-6.652500468806721e-05,-0.00017856538720964488,-1.7081118263158335e-05,0.0002469330376864143,0.000112436816034997,5.174001057905997e-05,-5.171198741882321e-06,4.5694550492031835e-05,-0.0005756408215914959,-0.0003294728233425422,-0.001037474850577429,0.00010159426752139209,0.0002404643343068704,0.0006085830878221148,0.4267818331718445,19.868005752563477,0.4466826617717743,-20.181917190551758,-0.7070823311805725,-2.4758944511413574,0.26217979192733765,0
59,0.2899959087371826,-0.4267818331718445,-19.868005752563477,-0.4466826617717743,20.205720901489258,0.7015891671180725,2.4566683769226074,-0.26858848333358765,0.0,0.0,0.0,0.0,0.0,0.0,0.0,-0.40860462503930933,-0.1205504290093863,-0.22746450995598208,0.433290004724826,0.12098968645403103,0.09852444986711661,-0.2716778728991647,1.2135080247357575,-0.2200653745110278,-0.00749474747655423,-2.604097598257373,-0.10899538879053548,2.468132522000207,0.8264811445773516,1.2134413937687574,-0.2202432315892585,-0.0075118285948192216,-2.6038483821997875,-0.10888392708698907,2.4681821257803174,0.826474908251239,-3.6024584855509745e-05,-0.00010349207373336324,0.00015705375847448235,2.181377238056903e-05,-2.36499158042452e-05,0.0004321544138933868,-0.0006177699645689358,0.0,0.0,0.0,0.0,0.0,0.0,0.0,-6.663096700010307e-05,-0.00017785707823067542,-1.7081118264991937e-05,0.00024921605758532195,0.00011146170354640883,4.9603780110540896e-05,-6.236326112518675e-06,3.6024584855509745e-05,0.00010349207373336324,-0.00015705375847448235,-2.181377238056903e-05,2.36499158042452e-05,-0.0004321544138933868,0.0006177699645689358,0.4267818331718445,19.868005752563477,0.4466826617717743,-20.205720901489258,-0.7015891671180725,-2.4566683769226074,0.26858848333358765,0
60,0.29499244689941406,-0.4267818331718445,-19.868005752563477,-0.4466826617717743,20.205720901489258,0.7015891671180725,2.4566683769226074,-0.26858848333358765,0.0,0.0,0.0,0.0,0.0,0.0,0.0,-0.40860462503930933,-0.1205504290093863,-0.22746450995598208,0.433290004724826,0.12098968645403103,0.09852444986711661,-0.2716778728991647,1.2135080247357575,-0.2200653745110278,-0.00749474747655423,-2.604097598257373,-0.10899538879053548,2.468132522000207,0.8264811445773516,1.2134413937687574,-0.2202432315892585,-0.0075118285948192216,-2.6038483821997875,-0.10888392708698907,2.4681821257803174,0.826474908251239,-3.6024584855509745e-05,-0.00010349207373336324,0.00015705375847448235,2.181377238056903e-05,-2.36499158042452e-05,0.0004321544138933868,-0.0006177699645689358,0.0,0.0,0.0,0.0,0.0,0.0,0.0,-6.663096700010307e-05,-0.00017785707823067542,-1.7081118264991937e-05,0.00024921605758532195,0.00011146170354640883,4.9603780110540896e-05,-6.236326112518675e-06,3.6024584855509745e-05,0.00010349207373336324,-0.00015705375847448235,-2.181377238056903e-05,2.36499158042452e-05,-0.0004321544138933868,0.0006177699645689358,0.4267818331718445,19.868005752563477,0.4466826617717743,-20.205720901489258,-0.7015891671180725,-2.4566683769226074,0.26858848333358765,0
61,0.2999908924102783,-0.4267818331718445,-19.891809463500977,-0.4466826617717743,20.205720901489258,0.7015891671180725,2.4758944511413574,-0.27591270208358765,0.0,0.0,0.0,0.0,0.0,0.0,0.0,-0.41153810999929646,-0.11725561739697188,-0.2301386027682331,0.4322153020845608,0.12054829664018953,0.09806524403191466,-0.272588279167574,1.2135079217159819,-0.2200637040791722,-0.007494774104440224,-2.6040975982582375,-0.10899542394761223,2.4681303857697383,0.8264816033908274,1.2134413937687574,-0.2202432315892585,-0.0075118285948192216,-2.6038483821997875,-0.10888392708698907,2.4681821257803174,0.826474908251239,-0.00015342213267672658,0.0008405137741282329,0.0004842936491600223,0.0002738726132421461,0.00020433477570320357,-0.0004436700960436418,5.748454609297956e-05,0.0,0.0,0.0,0.0,0.0,0.0,0.0,-6.652794722450395e-05,-0.00017952751008629142,-1.705449037899768e-05,0.00024921605844996364,0.00011149686062315867,5.174001057905997e-05,-6.695139588397403e-06,0.00015342213267672658,-0.0008405137741282329,-0.0004842936491600223,-0.0002738726132421461,-0.00020433477570320357,0.0004436700960436418,-5.748454609297956e-05,0.4267818331718445,19.891809463500977,0.4466826617717743,-20.205720901489258,-0.7015891671180725,-2.4758944511413574,0.27591270208358765,0
62,0.30500006675720215,-0.4267818331718445,-19.891809463500977,-0.4466826617717743,20.205720901489258,0.7015891671180725,2.4758944511413574,-0.27591270208358765,0.0,0.0,0.0,0.0,0.0,0.0,0.0,-0.41153810999929646,-0.11725561739697188,-0.2301386027682331,0.4322153020845608,0.12054829664018953,0.09806524403191466,-0.272588279167574,1.2135079217159819,-0.2200637040791722,-0.007494774104440224,-2.6040975982582375,-0.10899542394761223,2.4681303857697383,0.8264816033908274,1.2134413937687574,-0.2202432315892585,-0.0075118285948192216,-2.6038483821997875,-0.10888392708698907,2.4681821257803174,0.826474908251239,-0.00015342213267672658,0.0008405137741282329,0.0004842936491600223,0.0002738726132421461,0.00020433477570320357,-0.0004436700960436418,5.748454609297956e-05,0.0,0.0,0.0,0.0,0.0,0.0,0.0,-6.652794722450395e-05,-0.00017952751008629142,-1.705449037899768e-05,0.00024921605844996364,0.00011149686062315867,5.174001057905997e-05,-6.695139588397403e-06,0.00015342213267672658,-0.0008405137741282329,-0.0004842936491600223,-0.0002738726132421461,-0.00020433477570320357,0.0004436700960436418,-5.748454609297956e-05,0.4267818331718445,19.891809463500977,0.4466826617717743,-20.205720901489258,-0.7015891671180725,-2.4758944511413574,0.27591270208358765,0
63,0.3100254535675049,-0.4783565402030945,-19.868005752563477,-0.4228789508342743,20.205720901489258,0.7015891671180725,2.4694857597351074,-0.28232139348983765,0.0,0.0,0.0,0.0,0.0,0.0,0.0,-0.41255123708537883,-0.12196008328552377,-0.22922885168241444,0.4348324483451789,0.1206127060386241,0.0982737712210409,-0.27278281741389704,1.2135122798003597,-0.2200646668500954,-0.007496417948936085,-2.604097674683111,-0.10899574042156242,2.468131097846561,0.8264826701312528,1.2134413937687574,-0.2202432315892585,-0.0075118285948192216,-2.6038483821997875,-0.10888392708698907,2.4681821257803174,0.826474908251239,0.0011402543712396287,-0.00024929845548408557,-0.0001614183780139639,0.00014319686107157963,5.1428653148155044e-05,0.00010659061792563326,0.00021379978089123983,0.0,0.0,0.0,0.0,0.0,0.0,0.0,-7.08860316023241e-05,-0.00017856473916308402,-1.541064588313646e-05,0.0002492924833235044,0.00011181333457334353,5.102793375622028e-05,-7.761880013723577e-06,-0.0011402543712396287,0.00024929845548408557,0.0001614183780139639,-0.00014319686107157963,-5.1428653148155044e-05,-0.00010659061792563326,-0.00021379978089123983,0.4783565402030945,19.868005752563477,0.4228789508342743,-20.205720901489258,-0.7015891671180725,-2.4694857597351074,0.28232139348983765,0
64,0.31502699851989746,-0.4783565402030945,-19.868005752563477,-0.4228789508342743,20.205720901489258,0.7015891671180725,2.4694857597351074,-0.28232139348983765,0.0,0.0,0.0,0.0,0.0,0.0,0.0,-0.41255123708537883,-0.12196008328552377,-0.22922885168241444,0.4348324483451789,0.1206127060386241,0.0982737712210409,-0.27278281741389704,1.2135122798003597,-0.2200646668500954,-0.007496417948936085,-2.604097674683111,-0.10899574042156242,2.468131097846561,0.8264826701312528,1.2134413937687574,-0.2202432315892585,-0.0075118285948192216,-2.6038483821997875,-0.10888392708698907,2.4681821257803174,0.826474908251239,0.0011402543712396287,-0.00024929845548408557,-0.0001614183780139639,0.00014319686107157963,5.1428653148155044e-05,0.00010659061792563326,0.00021379978089123983,0.0,0.0,0.0,0.0,0.0,0.0,0.0,-7.08860316023241e-05,-0.00017856473916308402,-1.541064588313646e-05,0.0002492924833235044,0.00011181333457334353,5.102793375622028e-05,-7.761880013723577e-06,-0.0011402543712396287,0.00024929845548408557,0.0001614183780139639,-0.00014319686107157963,-5.1428653148155044e-05,-0.00010659061792563326,-0.00021379978089123983,0.4783565402030945,19.868005752563477,0.4228789508342743,-20.205720901489258,-0.7015891671180725,-2.4694857597351074,0.28232139348983765,0
65,0.3200087547302246,-0.3514034152030945,-19.868005752563477,-0.4466826617717743,20.205720901489258,0.7070823311805725,2.4694857597351074,-0.27591270208358765,0.0,0.0,0.0,0.0,0.0,0.0,0.0,-0.4132832270258475,-0.11685819615463926,-0.22545865597931733,0.4301777168707674,0.12038185117174639,0.09797989766844567,-0.27236983386692254,1.2135026290584543,-0.22006466587802825,-0.007494747476554232,-2.604097666283093,-0.10899599480096561,2.468131097846561,0.8264819570853963,1.2134413937687574,-0.2202432315892585,-0.0075118285948192216,-2.6038483821997875,-0.10888392708698907,2.4681821257803174,0.826474908251239,-0.0013606316679061969,0.00035293965052313187,0.001340097549633548,-2.370220391737294e-05,0.00013111833239726135,1.2184489776959295e-05,1.3072657120990886e-05,0.0,0.0,0.0,0.0,0.0,0.0,0.0,-6.123528969692593e-05,-0.00017856571123023302,-1.7081118264989335e-05,0.0002492840833054899,0.00011206771397653803,5.102793375622028e-05,-7.04883415725277e-06,0.0013606316679061969,-0.00035293965052313187,-0.001340097549633548,2.370220391737294e-05,-0.00013111833239726135,-1.2184489776959295e-05,-1.3072657120990886e-05,0.3514034152030945,19.868005752563477,0.4466826617717743,-20.205720901489258,-0.7070823311805725,-2.4694857597351074,0.27591270208358765,0
66,0.3250126838684082,-0.3514034152030945,-19.868005752563477,-0.4466826617717743,20.205720901489258,0.7070823311805725,2.4694857597351074,-0.27591270208358765,0.0,0.0,0.0,0.0,0.0,0.0,0.0,-0.4132832270258475,-0.11685819615463926,-0.22545865597931733,0.4301777168707674,0.12038185117174639,0.09797989766844567,-0.27236983386692254,1.2135026290584543,-0.22006466587802825,-0.007494747476554232,-2.604097666283093,-0.10899599480096561,2.468131097846561,0.8264819570853963,1.2134413937687574,-0.2202432315892585,-0.0075118285948192216,-2.6038483821997875,-0.10888392708698907,2.4681821257803174,0.826474908251239,-0.0013606316679061969,0.00035293965052313187,0.001340097549633548,-2.370220391737294e-05,0.00013111833239726135,1.2184489776959295e-05,1.3072657120990886e-05,0.0,0.0,0.0,0.0,0.0,0.0,0.0,-6.123528969692593e-05,-0.00017856571123023302,-1.7081118264989335e-05,0.0002492840833054899,0.00011206771397653803,5.102793375622028e-05,-7.04883415725277e-06,0.0013606316679061969,-0.00035293965052313187,-0.001340097549633548,2.370220391737294e-05,-0.00013111833239726135,-1.2184489776959295e-05,-1.3072657120990886e-05,0.3514034152030945,19.868005752563477,0.4466826617717743,-20.205720901489258,-0.7070823311805725,-2.4694857597351074,0.27591270208358765,0
67,0.3299987316131592,-0.3514034152030945,-19.868005752563477,-0.4466826617717743,20.205720901489258,0.7070823311805725,2.4694857597351074,-0.27591270208358765,0.0,0.0,0.0,0.0,0.0,0.0,0.0,-0.4132832270258475,-0.11685819615463926,-0.22545865597931733,0.4301777168707674,0.12038185117174639,0.09797989766844567,-0.27236983386692254,1.2135026290584543,-0.22006466587802825,-0.007494747476554232,-2.604097666283093,-0.10899599480096561,2.468131097846561,0.8264819570853963,1.2134413937687574,-0.2202432315892585,-0.0075118285948192216,-2.6038483821997875,-0.10888392708698907,2.4681821257803174,0.826474908251239,-0.0013606316679061969,0.00035293965052313187,0.001340097549633548,-2.370220391737294e-05,0.00013111833239726135,1.2184489776959295e-05,1.3072657120990886e-05,0.0,0.0,0.0,0.0,0.0,0.0,0.0,-6.123528969692593e-05,-0.00017856571123023302,-1.7081118264989335e-05,0.0002492840833054899,0.00011206771397653803,5.102793375622028e-05,-7.04883415725277e-06,0.0013606316679061969,-0.00035293965052313187,-0.001340097549633548,2.370220391737294e-05,-0.00013111833239726135,-1.2184489776959295e-05,-1.3072657120990886e-05,0.3514034152030945,19.868005752563477,0.4466826617717743,-20.205720901489258,-0.7070823311805725,-2.4694857597351074,0.27591270208358765,0
68,0.3350059986114502,-0.3514034152030945,-19.868005752563477,-0.4466826617717743,20.205720901489258,0.7070823311805725,2.4694857597351074,-0.27591270208358765,0.0,0.0,0.0,0.0,0.0,0.0,0.0,-0.4132832270258475,-0.11685819615463926,-0.22545865597931733,0.4301777168707674,0.12038185117174639,0.09797989766844567,-0.27236983386692254,1.2135026290584543,-0.22006466587802825,-0.007494747476554232,-2.604097666283093,-0.10899599480096561,2.468131097846561,0.8264819570853963,1.2134413937687574,-0.2202432315892585,-0.0075118285948192216,-2.6038483821997875,-0.10888392708698907,2.4681821257803174,0.826474908251239,-0.0013606316679061969,0.00035293965052313187,0.001340097549633548,-2.370220391737294e-05,0.00013111833239726135,1.2184489776959295e-05,1.3072657120990886e-05,0.0,0.0,0.0,0.0,0.0,0.0,0.0,-6.123528969692593e-05,-0.00017856571123023302,-1.7081118264989335e-05,0.0002492840833054899,0.00011206771397653803,5.102793375622028e-05,-7.04883415725277e-06,0.0013606316679061969,-0.00035293965052313187,-0.001340097549633548,2.370220391737294e-05,-0.00013111833239726135,-1.2184489776959295e-05,-1.3072657120990886e-05,0.3514034152030945,19.868005752563477,0.4466826617717743,-20.205720901489258,-0.7070823311805725,-2.4694857597351074,0.27591270208358765,0
69,0.3400075435638428,-0.4029781222343445,-19.868005752563477,-0.4228789508342743,20.181917190551758,0.7070823311805725,2.4694857597351074,-0.24844686686992645,0.0,0.0,0.0,0.0,0.0,0.0,0.0,-0.41074343572045213,-0.11817462636621698,-0.22139259243857012,0.4297487016949687,0.12071480827575717,0.09854046117205345,-0.27227390796812256,1.2135069989130973,-0.22006750073404474,-0.007496417912409493,-2.604096004352187,-0.10899599474668534,2.468131097846561,0.8264789067821287,1.2134413937687574,-0.2202432315892585,-0.0075118285948192216,-2.6038483821997875,-0.10888392708698907,2.4681821257803174,0.826474908251239,0.0003907414605336248,0.0002534759713925235,0.0004319443676353063,0.0003846823894372492,-0.00017177087159334477,-6.187096203758577e-05,-0.0010137857434392955,0.0,0.0,0.0,0.0,0.0,0.0,0.0,-6.560514433995301e-05,-0.00017573085521374598,-1.5410682409728975e-05,0.0002476221523992628,0.00011206765969626331,5.102793375622028e-05,-3.998530889615104e-06,-0.0003907414605336248,-0.0002534759713925235,-0.0004319443676353063,-0.0003846823894372492,0.00017177087159334477,6.187096203758577e-05,0.0010137857434392955,0.4029781222343445,19.868005752563477,0.4228789508342743,-20.181917190551758,-0.7070823311805725,-2.4694857597351074,0.24844686686992645,0
70,0.3450045585632324,-0.4029781222343445,-19.868005752563477,-0.4228789508342743,20.181917190551758,0.7070823311805725,2.4694857597351074,-0.24844686686992645,0.0,0.0,0.0,0.0,0.0,0.0,0.0,-0.41074343572045213,-0.11817462636621698,-0.22139259243857012,0.4297487016949687,0.12071480827575717,0.09854046117205345,-0.27227390796812256,1.2135069989130973,-0.22006750073404474,-0.007496417912409493,-2.604096004352187,-0.10899599474668534,2.468131097846561,0.8264789067821287,1.2134413937687574,-0.2202432315892585,-0.0075118285948192216,-2.6038483821997875,-0.10888392708698907,2.4681821257803174,0.826474908251239,0.0003907414605336248,0.0002534759713925235,0.0004319443676353063,0.0003846823894372492,-0.00017177087159334477,-6.187096203758577e-05,-0.0010137857434392955,0.0,0.0,0.0,0.0,0.0,0.0,0.0,-6.560514433995301e-05,-0.00017573085521374598,-1.5410682409728975e-05,0.0002476221523992628,0.00011206765969626331,5.102793375622028e-05,-3.998530889615104e-06,-0.0003907414605336248,-0.0002534759713925235,-0.0004319443676353063,-0.0003846823894372492,0.00017177087159334477,6.187096203758577e-05,0.0010137857434392955,0.4029781222343445,19.868005752563477,0.4228789508342743,-20.181917190551758,-0.7070823311805725,-2.4694857597351074,0.24844686686992645,0
71,0.350020170211792,-0.3752071261405945,-19.816431045532227,-0.3990752398967743,20.205720901489258,0.7070823311805725,2.4758944511413574,-0.24844686686992645,0.0,0.0,0.0,0.0,0.0,0.0,0.0,-0.40822781483993387,-0.1221338476485062,-0.22203135219317732,0.4316091112137211,0.12035469826961953,0.09899814981346275,-0.2720672843938916,1.2135043790076936,-0.22006828517171745,-0.007498088348264756,-2.6040976662848214,-0.1089963507188691,2.4681303857697383,0.8264783965860005,1.2134413937687574,-0.2202432315892585,-0.0075118285948192216,-2.6038483821997875,-0.10888392708698907,2.4681821257803174,0.826474908251239,-0.00024013199739017857,-0.0010131734979215046,-0.0003123237475121984,-0.0003212814002765373,-0.00019727753593956247,-0.00036393488712201154,-0.0008769221691152399,0.0,0.0,0.0,0.0,0.0,0.0,0.0,-6.298523893621955e-05,-0.00017494641754103868,-1.3740246554465145e-05,0.0002492840850338851,0.00011242363188002091,5.174001057905997e-05,-3.48833476149224e-06,0.00024013199739017857,0.0010131734979215046,0.0003123237475121984,0.0003212814002765373,0.00019727753593956247,0.00036393488712201154,0.0008769221691152399,0.3752071261405945,19.816431045532227,0.3990752398967743,-20.205720901489258,-0.7070823311805725,-2.4758944511413574,0.24844686686992645,0
72,0.35500597953796387,-0.3752071261405945,-19.816431045532227,-0.3990752398967743,20.205720901489258,0.7070823311805725,2.4758944511413574,-0.24844686686992645,0.0,0.0,0.0,0.0,0.0,0.0,0.0,-0.40822781483993387,-0.1221338476485062,-0.22203135219317732,0.4316091112137211,0.12035469826961953,0.09899814981346275,-0.2720672843938916,1.2135043790076936,-0.22006828517171745,-0.007498088348264756,-2.6040976662848214,-0.1089963507188691,2.4681303857697383,0.8264783965860005,1.2134413937687574,-0.2202432315892585,-0.0075118285948192216,-2.6038483821997875,-0.10888392708698907,2.4681821257803174,0.826474908251239,-0.00024013199739017857,-0.0010131734979215046,-0.0003123237475121984,-0.0003212814002765373,-0.00019727753593956247,-0.00036393488712201154,-0.0008769221691152399,0.0,0.0,0.0,0.0,0.0,0.0,0.0,-6.298523893621955e-05,-0.00017494641754103868,-1.3740246554465145e-05,0.0002492840850338851,0.00011242363188002091,5.174001057905997e-05,-3.48833476149224e-06,0.00024013199739017857,0.0010131734979215046,0.0003123237475121984,0.0003212814002765373,0.00019727753593956247,0.00036393488712201154,0.0008769221691152399,0.3752071261405945,19.816431045532227,0.3990752398967743,-20.205720901489258,-0.7070823311805725,-2.4758944511413574,0.24844686686992645,0
73,0.36004185676574707,-0.4783565402030945,-19.844202041625977,-0.4228789508342743,20.205720901489258,0.7070823311805725,2.4630770683288574,-0.25485557317733765,0.0,0.0,0.0,0.0,0.0,0.0,0.0,-0.40698136821572445,-0.11829012550769591,-0.22159067521730383,0.4278292912681903,0.12036537440317067,0.09822092434359511,-0.27139516333573777,1.2135117764686587,-0.22006846253690113,-0.007496417912409493,-2.6040976738082415,-0.1089959947486945,2.468131809923384,0.8264784414820362,1.2134413937687574,-0.2202432315892585,-0.0075118285948192216,-2.6038483821997875,-0.10888392708698907,2.4681821257803174,0.826474908251239,0.0017075424284435131,-0.0001947618652650717,0.00044321676787465494,-0.0004231738751287766,-0.00010307054960804714,0.00028621948937168683,-0.00028357525714180556,0.0,0.0,0.0,0.0,0.0,0.0,0.0,-7.038269990133905e-05,-0.00017476905235735973,-1.5410682409728975e-05,0.00024929160845399423,0.00011206766170542004,5.031585693338059e-05,-3.5332307971591703e-06,-0.0017075424284435131,0.0001947618652650717,-0.00044321676787465494,0.0004231738751287766,0.00010307054960804714,-0.00028621948937168683,0.00028357525714180556,0.4783565402030945,19.844202041625977,0.4228789508342743,-20.205720901489258,-0.7070823311805725,-2.4630770683288574,0.25485557317733765,0
74,0.3650026321411133,-0.4783565402030945,-19.844202041625977,-0.4228789508342743,20.205720901489258,0.7070823311805725,2.4630770683288574,-0.25485557317733765,0.0,0.0,0.0,0.0,0.0,0.0,0.0,-0.40698136821572445,-0.11829012550769591,-0.22159067521730383,0.4278292912681903,0.12036537440317067,0.09822092434359511,-0.27139516333573777,1.2135117764686587,-0.22006846253690113,-0.007496417912409493,-2.6040976738082415,-0.1089959947486945,2.468131809923384,0.8264784414820362,1.2134413937687574,-0.2202432315892585,-0.0075118285948192216,-2.6038483821997875,-0.10888392708698907,2.4681821257803174,0.826474908251239,0.0017075424284435131,-0.0001947618652650717,0.00044321676787465494,-0.0004231738751287766,-0.00010307054960804714,0.00028621948937168683,-0.00028357525714180556,0.0,0.0,0.0,0.0,0.0,0.0,0.0,-7.038269990133905e-05,-0.00017476905235735973,-1.5410682409728975e-05,0.00024929160845399423,0.00011206766170542004,5.031585693338059e-05,-3.5332307971591703e-06,-0.0017075424284435131,0.0001947618652650717,-0.00044321676787465494,0.0004231738751287766,0.00010307054960804714,-0.00028621948937168683,0.00028357525714180556,0.4783565402030945,19.844202041625977,0.4228789508342743,-20.205720901489258,-0.7070823311805725,-2.4630770683288574,0.25485557317733765,0
75,0.36999058723449707,-0.4267818331718445,-19.868005752563477,-0.3990752398967743,20.253328323364258,0.7070823311805725,2.4694857597351074,-0.28964561223983765,0.0,0.0,0.0,0.0,0.0,0.0,0.0,-0.4087964060382858,-0.11992427046166795,-0.2198503090984821,0.42970212540262537,0.12086621894727634,0.09873086312464142,-0.2712981458672411,1.2135079455912925,-0.22006490307309218,-0.007498088348264756,-2.6041003182867635,-0.10899599474668503,2.468131097846561,0.8264834800532143,1.2134413937687574,-0.2202432315892585,-0.0075118285948192216,-2.6038483821997875,-0.10888392708698907,2.4681821257803174,0.826474908251239,0.00034051279555335915,0.0001686420696081297,-0.0005353463143019969,-0.0013355775524475986,6.60670763036643e-05,8.808836608222908e-05,0.000964493731001313,0.0,0.0,0.0,0.0,0.0,0.0,0.0,-6.655182253512137e-05,-0.00017832851616630951,-1.3740246554465145e-05,0.0002519360869759346,0.000112067659695958,5.102793375622028e-05,-8.571801975221227e-06,-0.00034051279555335915,-0.0001686420696081297,0.0005353463143019969,0.0013355775524475986,-6.60670763036643e-05,-8.808836608222908e-05,-0.000964493731001313,0.4267818331718445,19.868005752563477,0.3990752398967743,-20.253328323364258,-0.7070823311805725,-2.4694857597351074,0.28964561223983765,0
76,0.3749995231628418,-0.4267818331718445,-19.868005752563477,-0.3990752398967743,20.253328323364258,0.7070823311805725,2.4694857597351074,-0.28964561223983765,0.0,0.0,0.0,0.0,0.0,0.0,0.0,-0.4087964060382858,-0.11992427046166795,-0.2198503090984821,0.42970212540262537,0.12086621894727634,0.09873086312464142,-0.2712981458672411,1.2135079455912925,-0.22006490307309218,-0.007498088348264756,-2.6041003182867635,-0.10899599474668503,2.468131097846561,0.8264834800532143,1.2134413937687574,-0.2202432315892585,-0.0075118285948192216,-2.6038483821997875,-0.10888392708698907,2.4681821257803174,0.826474908251239,0.00034051279555335915,0.0001686420696081297,-0.0005353463143019969,-0.0013355775524475986,6.60670763036643e-05,8.808836608222908e-05,0.000964493731001313,0.0,0.0,0.0,0.0,0.0,0.0,0.0,-6.655182253512137e-05,-0.00017832851616630951,-1.3740246554465145e-05,0.0002519360869759346,0.000112067659695958,5.102793375622028e-05,-8.571801975221227e-06,-0.00034051279555335915,-0.0001686420696081297,0.0005353463143019969,0.0013355775524475986,-6.60670763036643e-05,-8.808836608222908e-05,-0.000964493731001313,0.4267818331718445,19.868005752563477,0.3990752398967743,-20.253328323364258,-0.7070823311805725,-2.4694857597351074,0.28964561223983765,0
77,0.37999963760375977,-0.4505855441093445,-19.891809463500977,-0.4466826617717743,20.154146194458008,0.7070823311805725,2.4823031425476074,-0.24844686686992645,0.0,0.0,0.0,0.0,0.0,0.0,0.0,-0.41253191640324105,-0.12369286318060303,-0.22159215420352607,0.43091252488459697,0.12150389778234624,0.09893526605134448,-0.27099566685659093,1.2135117447866273,-0.22006299846770397,-0.00749474747655423,-2.604093824973398,-0.1089963507188691,2.468129673692915,0.8264789067821122,1.2134413937687574,-0.2202432315892585,-0.0075118285948192216,-2.6038483821997875,-0.10888392708698907,2.4681821257803174,0.826474908251239,0.0001863628639560045,0.00013064566439843192,0.000673217802841821,0.0010727278995194547,0.00020091185746118286,-0.0005256178648459627,-0.0005961808616428716,0.0,0.0,0.0,0.0,0.0,0.0,0.0,-7.035101786989628e-05,-0.00018023312155451832,-1.7081118264991937e-05,0.00024544277361027156,0.00011242363188002091,5.245208740234375e-05,-3.998530873183803e-06,-0.0001863628639560045,-0.00013064566439843192,-0.000673217802841821,-0.0010727278995194547,-0.00020091185746118286,0.0005256178648459627,0.0005961808616428716,0.4505855441093445,19.891809463500977,0.4466826617717743,-20.154146194458008,-0.7070823311805725,-2.4823031425476074,0.24844686686992645,0
78,0.3849916458129883,-0.4505855441093445,-19.891809463500977,-0.4466826617717743,20.154146194458008,0.7070823311805725,2.4823031425476074,-0.24844686686992645,0.0,0.0,0.0,0.0,0.0,0.0,0.0,-0.41253191640324105,-0.12369286318060303,-0.22159215420352607,0.43091252488459697,0.12150389778234624,0.09893526605134448,-0.27099566685659093,1.2135117447866273,-0.22006299846770397,-0.00749474747655423,-2.604093824973398,-0.1089963507188691,2.468129673692915,0.8264789067821122,1.2134413937687574,-0.2202432315892585,-0.0075118285948192216,-2.6038483821997875,-0.10888392708698907,2.4681821257803174,0.826474908251239,0.0001863628639560045,0.00013064566439843192,0.000673217802841821,0.0010727278995194547,0.00020091185746118286,-0.0005256178648459627,-0.0005961808616428716,0.0,0.0,0.0,0.0,0.0,0.0,0.0,-7.035101786989628e-05,-0.00018023312155451832,-1.7081118264991937e-05,0.00024544277361027156,0.00011242363188002091,5.245208740234375e-05,-3.998530873183803e-06,-0.0001863628639560045,-0.00013064566439843192,-0.000673217802841821,-0.0010727278995194547,-0.00020091185746118286,0.0005256178648459627,0.0005961808616428716,0.4505855441093445,19.891809463500977,0.4466826617717743,-20.154146194458008,-0.7070823311805725,-2.4823031425476074,0.24844686686992645,0
79,0.38999199867248535,-0.4267818331718445,-19.891809463500977,-0.3990752398967743,20.205720901489258,0.7015891671180725,2.4694857597351074,-0.29605430364608765,0.0,0.0,0.0,0.0,0.0,0.0,0.0,-0.41392872742032505,-0.1254064685560224,-0.21929226741823946,0.43274932282902717,0.12185667539531486,0.0996575107951616,-0.2706788074076684,1.213507918784113,-0.22006512137718928,-0.007498088348264756,-2.6040976719523656,-0.1089955030545267,2.468131097846561,0.8264808866019187,1.2134413937687574,-0.2202432315892585,-0.0075118285948192216,-2.6038483821997875,-0.10888392708698907,2.4681821257803174,0.826474908251239,0.0003003628051852508,0.0003169702192115117,-0.0006132637064317589,0.0003457151389871374,0.00022994196717166911,-6.664945515157346e-05,0.0013673907535092756,0.0,0.0,0.0,0.0,0.0,0.0,0.0,-6.652501535553412e-05,-0.00017811021206920463,-1.3740246554465145e-05,0.0002492897525780968,0.00011157596753762211,5.102793375622028e-05,-5.978350679614053e-06,-0.0003003628051852508,-0.0003169702192115117,0.0006132637064317589,-0.0003457151389871374,-0.00022994196717166911,6.664945515157346e-05,-0.0013673907535092756,0.4267818331718445,19.891809463500977,0.3990752398967743,-20.205720901489258,-0.7015891671180725,-2.4694857597351074,0.29605430364608765,0
