rezayati/contactInterpretation/dataset/franka_main/labeled_data/link6/b13_8.csv
index,time,tau_J0,tau_J1,tau_J2,tau_J3,tau_J4,tau_J5,tau_J6,tau_J_d0,tau_J_d1,tau_J_d2,tau_J_d3,tau_J_d4,tau_J_d5,tau_J_d6,tau_ext0,tau_ext1,tau_ext2,tau_ext3,tau_ext4,tau_ext5,tau_ext6,q0,q1,q2,q3,q4,q5,q6,q_d0,q_d1,q_d2,q_d3,q_d4,q_d5,q_d6,dq0,dq1,dq2,dq3,dq4,dq5,dq6,dq_d0,dq_d1,dq_d2,dq_d3,dq_d4,dq_d5,dq_d6,e0,e1,e2,e3,e4,e5,e6,de0,de1,de2,de3,de4,de5,de6,etau_J0,etau_J1,etau_J2,etau_J3,etau_J4,etau_J5,etau_J6,label
1,0.0,-0.4505855441093445,-22.696680068969727,-0.1491362750530243,14.032625198364258,0.1714988350868225,2.1325716972351074,-0.38577598333358765,0.0,0.0,0.0,0.0,0.0,0.0,0.0,-0.4381912332639693,0.08953910695582167,-0.2088212888832993,0.1705024535803822,-0.07199117420268678,-0.047668387803572916,-0.4070312546034224,1.6756341753494908,0.052096203749768276,0.02999979393890029,-2.7523520761791023,0.03430851865733622,2.7663405298127315,0.7691947362970798,1.6754973547542302,0.052104326824870026,0.029969505109285054,-2.752394845125968,0.0342448039870148,2.7663679543071322,0.7691630533470046,0.0006364131305928841,0.0008654494512436408,0.0003369509159088081,0.00034465682165753806,-0.00030460083019672124,0.0001737958368356403,-0.0009826624574825224,0.0,0.0,0.0,0.0,0.0,0.0,0.0,-0.00013682059526054502,8.123075101749977e-06,-3.028882961523746e-05,-4.276894686583432e-05,-6.37146703214228e-05,2.7424494400740684e-05,-3.168295007516253e-05,-0.0006364131305928841,-0.0008654494512436408,-0.0003369509159088081,-0.00034465682165753806,0.00030460083019672124,-0.0001737958368356403,0.0009826624574825224,0.4505855441093445,22.696680068969727,0.1491362750530243,-14.032625198364258,-0.1714988350868225,-2.1325716972351074,0.38577598333358765,0
2,0.0051648616790771484,-0.4505855441093445,-22.696680068969727,-0.1491362750530243,14.032625198364258,0.1714988350868225,2.1325716972351074,-0.38577598333358765,0.0,0.0,0.0,0.0,0.0,0.0,0.0,-0.4381912332639693,0.08953910695582167,-0.2088212888832993,0.1705024535803822,-0.07199117420268678,-0.047668387803572916,-0.4070312546034224,1.6756341753494908,0.052096203749768276,0.02999979393890029,-2.7523520761791023,0.03430851865733622,2.7663405298127315,0.7691947362970798,1.6754973547542302,0.052104326824870026,0.029969505109285054,-2.752394845125968,0.0342448039870148,2.7663679543071322,0.7691630533470046,0.0006364131305928841,0.0008654494512436408,0.0003369509159088081,0.00034465682165753806,-0.00030460083019672124,0.0001737958368356403,-0.0009826624574825224,0.0,0.0,0.0,0.0,0.0,0.0,0.0,-0.00013682059526054502,8.123075101749977e-06,-3.028882961523746e-05,-4.276894686583432e-05,-6.37146703214228e-05,2.7424494400740684e-05,-3.168295007516253e-05,-0.0006364131305928841,-0.0008654494512436408,-0.0003369509159088081,-0.00034465682165753806,0.00030460083019672124,-0.0001737958368356403,0.0009826624574825224,0.4505855441093445,22.696680068969727,0.1491362750530243,-14.032625198364258,-0.1714988350868225,-2.1325716972351074,0.38577598333358765,0
3,0.010010480880737305,-0.4267818331718445,-22.720483779907227,-0.1253325641155243,14.032625198364258,0.1650901436805725,2.1453890800476074,-0.35831016302108765,0.0,0.0,0.0,0.0,0.0,0.0,0.0,-0.43592625001069546,0.09060301615931486,-0.2106774034203812,0.17035080534751845,-0.07154323811318483,-0.0477365822689519,-0.4059201869977568,1.6756325078207306,0.052097547193122776,0.029998123503045027,-2.7523520761791023,0.03430820563738567,2.766339105659061,0.7691910551733036,1.6754973547542302,0.052104326824870026,0.029969505109285054,-2.752394845125968,0.0342448039870148,2.7663679543071322,0.7691630533470046,-0.00010586433426866115,0.0005556244245365928,-0.00014497058955111113,-0.0001242210633959551,-0.00020240105020908467,-0.0004221207694320086,-0.0024090813646038393,0.0,0.0,0.0,0.0,0.0,0.0,0.0,-0.00013515306650035974,6.779631747250159e-06,-2.861839375997363e-05,-4.276894686583432e-05,-6.340165037087286e-05,2.8848648071289062e-05,-2.8001826298917898e-05,0.00010586433426866115,-0.0005556244245365928,0.00014497058955111113,0.0001242210633959551,0.00020240105020908467,0.0004221207694320086,0.0024090813646038393,0.4267818331718445,22.720483779907227,0.1253325641155243,-14.032625198364258,-0.1650901436805725,-2.1453890800476074,0.35831016302108765,0
4,0.014996051788330078,-0.4267818331718445,-22.720483779907227,-0.1253325641155243,14.032625198364258,0.1650901436805725,2.1453890800476074,-0.35831016302108765,0.0,0.0,0.0,0.0,0.0,0.0,0.0,-0.43592625001069546,0.09060301615931486,-0.2106774034203812,0.17035080534751845,-0.07154323811318483,-0.0477365822689519,-0.4059201869977568,1.6756325078207306,0.052097547193122776,0.029998123503045027,-2.7523520761791023,0.03430820563738567,2.766339105659061,0.7691910551733036,1.6754973547542302,0.052104326824870026,0.029969505109285054,-2.752394845125968,0.0342448039870148,2.7663679543071322,0.7691630533470046,-0.00010586433426866115,0.0005556244245365928,-0.00014497058955111113,-0.0001242210633959551,-0.00020240105020908467,-0.0004221207694320086,-0.0024090813646038393,0.0,0.0,0.0,0.0,0.0,0.0,0.0,-0.00013515306650035974,6.779631747250159e-06,-2.861839375997363e-05,-4.276894686583432e-05,-6.340165037087286e-05,2.8848648071289062e-05,-2.8001826298917898e-05,0.00010586433426866115,-0.0005556244245365928,0.00014497058955111113,0.0001242210633959551,0.00020240105020908467,0.0004221207694320086,0.0024090813646038393,0.4267818331718445,22.720483779907227,0.1253325641155243,-14.032625198364258,-0.1650901436805725,-2.1453890800476074,0.35831016302108765,0
5,0.019995927810668945,-0.4267818331718445,-22.772058486938477,-0.07375786453485489,14.080232620239258,0.1714988350868225,2.1453890800476074,-0.41324180364608765,0.0,0.0,0.0,0.0,0.0,0.0,0.0,-0.43170923626274027,0.08630223278464334,-0.20933091374365748,0.17613490041947089,-0.0716401276967717,-0.046897629601154275,-0.4056140081475483,1.6756325048773077,0.052103298744276404,0.02999450422588147,-2.752355417050813,0.03430745363816654,2.766339105659061,0.769198259022912,1.6754973547542302,0.052104326824870026,0.029969505109285054,-2.752394845125968,0.0342448039870148,2.7663679543071322,0.7691630533470046,-0.00011424465277884854,0.000809005461862388,-0.000478568424365359,-0.00044390402532556615,-0.00037149951827198996,-0.00015334354357342286,-0.0002558019965590625,0.0,0.0,0.0,0.0,0.0,0.0,0.0,-0.00013515012307752095,1.0280805936221937e-06,-2.4999116596417792e-05,-3.942807515500135e-05,-6.264965115174159e-05,2.8848648071289062e-05,-3.520567590731272e-05,0.00011424465277884854,-0.000809005461862388,0.000478568424365359,0.00044390402532556615,0.00037149951827198996,0.00015334354357342286,0.0002558019965590625,0.4267818331718445,22.772058486938477,0.07375786453485489,-14.080232620239258,-0.1714988350868225,-2.1453890800476074,0.41324180364608765,0
6,0.024993419647216797,-0.4267818331718445,-22.772058486938477,-0.07375786453485489,14.080232620239258,0.1714988350868225,2.1453890800476074,-0.41324180364608765,0.0,0.0,0.0,0.0,0.0,0.0,0.0,-0.43170923626274027,0.08630223278464334,-0.20933091374365748,0.17613490041947089,-0.0716401276967717,-0.046897629601154275,-0.4056140081475483,1.6756325048773077,0.052103298744276404,0.02999450422588147,-2.752355417050813,0.03430745363816654,2.766339105659061,0.769198259022912,1.6754973547542302,0.052104326824870026,0.029969505109285054,-2.752394845125968,0.0342448039870148,2.7663679543071322,0.7691630533470046,-0.00011424465277884854,0.000809005461862388,-0.000478568424365359,-0.00044390402532556615,-0.00037149951827198996,-0.00015334354357342286,-0.0002558019965590625,0.0,0.0,0.0,0.0,0.0,0.0,0.0,-0.00013515012307752095,1.0280805936221937e-06,-2.4999116596417792e-05,-3.942807515500135e-05,-6.264965115174159e-05,2.8848648071289062e-05,-3.520567590731272e-05,0.00011424465277884854,-0.000809005461862388,0.000478568424365359,0.00044390402532556615,0.00037149951827198996,0.00015334354357342286,0.0002558019965590625,0.4267818331718445,22.772058486938477,0.07375786453485489,-14.080232620239258,-0.1714988350868225,-2.1453890800476074,0.41324180364608765,0
7,0.02999591827392578,-0.4267818331718445,-22.748254776000977,-0.09756157547235489,14.056428909301758,0.1476951241493225,2.1389803886413574,-0.45352500677108765,0.0,0.0,0.0,0.0,0.0,0.0,0.0,-0.431703554602284,0.08890368957827452,-0.20793587570349503,0.1686756432008874,-0.07140046911438354,-0.047818879523869026,-0.4064539398586984,1.6756325048772913,0.0520994973427412,0.02999546005952925,-2.7523530048682674,0.034308004333076174,2.7663398177358838,0.7692023817278719,1.6754973547542302,0.052104326824870026,0.029969505109285054,-2.752394845125968,0.0342448039870148,2.7663679543071322,0.7691630533470046,0.000554095577469357,-1.0336200330207683e-05,-0.00035140312299473063,-0.00032925766226256885,0.0004046016195287072,1.9804912350636963e-05,0.0015142258265622686,0.0,0.0,0.0,0.0,0.0,0.0,0.0,-0.00013515012306108964,4.829482128827778e-06,-2.5954950244197472e-05,-4.1840257700709316e-05,-6.320034606137337e-05,2.813657124844937e-05,-3.9328380867287294e-05,-0.000554095577469357,1.0336200330207683e-05,0.00035140312299473063,0.00032925766226256885,-0.0004046016195287072,-1.9804912350636963e-05,-0.0015142258265622686,0.4267818331718445,22.748254776000977,0.09756157547235489,-14.056428909301758,-0.1476951241493225,-2.1389803886413574,0.45352500677108765,0
8,0.034998178482055664,-0.4267818331718445,-22.748254776000977,-0.09756157547235489,14.056428909301758,0.1476951241493225,2.1389803886413574,-0.45352500677108765,0.0,0.0,0.0,0.0,0.0,0.0,0.0,-0.431703554602284,0.08890368957827452,-0.20793587570349503,0.1686756432008874,-0.07140046911438354,-0.047818879523869026,-0.4064539398586984,1.6756325048772913,0.0520994973427412,0.02999546005952925,-2.7523530048682674,0.034308004333076174,2.7663398177358838,0.7692023817278719,1.6754973547542302,0.052104326824870026,0.029969505109285054,-2.752394845125968,0.0342448039870148,2.7663679543071322,0.7691630533470046,0.000554095577469357,-1.0336200330207683e-05,-0.00035140312299473063,-0.00032925766226256885,0.0004046016195287072,1.9804912350636963e-05,0.0015142258265622686,0.0,0.0,0.0,0.0,0.0,0.0,0.0,-0.00013515012306108964,4.829482128827778e-06,-2.5954950244197472e-05,-4.1840257700709316e-05,-6.320034606137337e-05,2.813657124844937e-05,-3.9328380867287294e-05,-0.000554095577469357,1.0336200330207683e-05,0.00035140312299473063,0.00032925766226256885,-0.0004046016195287072,-1.9804912350636963e-05,-0.0015142258265622686,0.4267818331718445,22.748254776000977,0.09756157547235489,-14.056428909301758,-0.1476951241493225,-2.1389803886413574,0.45352500677108765,0
9,0.039995670318603516,-0.4267818331718445,-22.748254776000977,-0.09756157547235489,14.056428909301758,0.1476951241493225,2.1389803886413574,-0.45352500677108765,0.0,0.0,0.0,0.0,0.0,0.0,0.0,-0.431703554602284,0.08890368957827452,-0.20793587570349503,0.1686756432008874,-0.07140046911438354,-0.047818879523869026,-0.4064539398586984,1.6756325048772913,0.0520994973427412,0.02999546005952925,-2.7523530048682674,0.034308004333076174,2.7663398177358838,0.7692023817278719,1.6754973547542302,0.052104326824870026,0.029969505109285054,-2.752394845125968,0.0342448039870148,2.7663679543071322,0.7691630533470046,0.000554095577469357,-1.0336200330207683e-05,-0.00035140312299473063,-0.00032925766226256885,0.0004046016195287072,1.9804912350636963e-05,0.0015142258265622686,0.0,0.0,0.0,0.0,0.0,0.0,0.0,-0.00013515012306108964,4.829482128827778e-06,-2.5954950244197472e-05,-4.1840257700709316e-05,-6.320034606137337e-05,2.813657124844937e-05,-3.9328380867287294e-05,-0.000554095577469357,1.0336200330207683e-05,0.00035140312299473063,0.00032925766226256885,-0.0004046016195287072,-1.9804912350636963e-05,-0.0015142258265622686,0.4267818331718445,22.748254776000977,0.09756157547235489,-14.056428909301758,-0.1476951241493225,-2.1389803886413574,0.45352500677108765,0
10,0.04643440246582031,-0.4267818331718445,-22.748254776000977,-0.09756157547235489,14.056428909301758,0.1476951241493225,2.1389803886413574,-0.45352500677108765,0.0,0.0,0.0,0.0,0.0,0.0,0.0,-0.431703554602284,0.08890368957827452,-0.20793587570349503,0.1686756432008874,-0.07140046911438354,-0.047818879523869026,-0.4064539398586984,1.6756325048772913,0.0520994973427412,0.02999546005952925,-2.7523530048682674,0.034308004333076174,2.7663398177358838,0.7692023817278719,1.6754973547542302,0.052104326824870026,0.029969505109285054,-2.752394845125968,0.0342448039870148,2.7663679543071322,0.7691630533470046,0.000554095577469357,-1.0336200330207683e-05,-0.00035140312299473063,-0.00032925766226256885,0.0004046016195287072,1.9804912350636963e-05,0.0015142258265622686,0.0,0.0,0.0,0.0,0.0,0.0,0.0,-0.00013515012306108964,4.829482128827778e-06,-2.5954950244197472e-05,-4.1840257700709316e-05,-6.320034606137337e-05,2.813657124844937e-05,-3.9328380867287294e-05,-0.000554095577469357,1.0336200330207683e-05,0.00035140312299473063,0.00032925766226256885,-0.0004046016195287072,-1.9804912350636963e-05,-0.0015142258265622686,0.4267818331718445,22.748254776000977,0.09756157547235489,-14.056428909301758,-0.1476951241493225,-2.1389803886413574,0.45352500677108765,0
11,0.05000734329223633,-0.4267818331718445,-22.748254776000977,-0.1253325641155243,14.032625198364258,0.1714988350868225,2.1325716972351074,-0.44711631536483765,0.0,0.0,0.0,0.0,0.0,0.0,0.0,-0.4308832200379538,0.08362594400434152,-0.20789942169045317,0.1650973880167018,-0.07172977613825461,-0.04767036543075368,-0.4079833631230803,1.6756325048772913,0.05210020553000105,0.029998044532055,-2.7523520761749154,0.03430737671362807,2.766340529812707,0.7691977826941918,1.6754973547542302,0.052104326824870026,0.029969505109285054,-2.752394845125968,0.0342448039870148,2.7663679543071322,0.7691630533470046,-0.00022946758760179618,0.00028481651792133404,-7.971049363145565e-05,-0.00037964448495056327,-0.0004518385235797989,0.00015378531486693925,0.0015086627800748199,0.0,0.0,0.0,0.0,0.0,0.0,0.0,-0.00013515012306108964,4.1212948689792195e-06,-2.853942276994509e-05,-4.2768951052707394e-05,-6.25727266132664e-05,2.742449442516559e-05,-3.4729347187179016e-05,0.00022946758760179618,-0.00028481651792133404,7.971049363145565e-05,0.00037964448495056327,0.0004518385235797989,-0.00015378531486693925,-0.0015086627800748199,0.4267818331718445,22.748254776000977,0.1253325641155243,-14.032625198364258,-0.1714988350868225,-2.1325716972351074,0.44711631536483765,0
12,0.05500936508178711,-0.4267818331718445,-22.748254776000977,-0.1253325641155243,14.032625198364258,0.1714988350868225,2.1325716972351074,-0.44711631536483765,0.0,0.0,0.0,0.0,0.0,0.0,0.0,-0.4308832200379538,0.08362594400434152,-0.20789942169045317,0.1650973880167018,-0.07172977613825461,-0.04767036543075368,-0.4079833631230803,1.6756325048772913,0.05210020553000105,0.029998044532055,-2.7523520761749154,0.03430737671362807,2.766340529812707,0.7691977826941918,1.6754973547542302,0.052104326824870026,0.029969505109285054,-2.752394845125968,0.0342448039870148,2.7663679543071322,0.7691630533470046,-0.00022946758760179618,0.00028481651792133404,-7.971049363145565e-05,-0.00037964448495056327,-0.0004518385235797989,0.00015378531486693925,0.0015086627800748199,0.0,0.0,0.0,0.0,0.0,0.0,0.0,-0.00013515012306108964,4.1212948689792195e-06,-2.853942276994509e-05,-4.2768951052707394e-05,-6.25727266132664e-05,2.742449442516559e-05,-3.4729347187179016e-05,0.00022946758760179618,-0.00028481651792133404,7.971049363145565e-05,0.00037964448495056327,0.0004518385235797989,-0.00015378531486693925,-0.0015086627800748199,0.4267818331718445,22.748254776000977,0.1253325641155243,-14.032625198364258,-0.1714988350868225,-2.1325716972351074,0.44711631536483765,0
13,0.06000185012817383,-0.4783565402030945,-22.649072647094727,-0.1491362750530243,14.032625198364258,0.1650901436805725,2.1389803886413574,-0.43338340520858765,0.0,0.0,0.0,0.0,0.0,0.0,0.0,-0.4282702578047685,0.08459284573896247,-0.20129173943622072,0.1643727163359666,-0.07200523099906733,-0.04820056612763855,-0.4101468361988542,1.6756361241549775,0.05209254756608398,0.0299997939384545,-2.7523520761791023,0.03430570835481745,2.7663398177358838,0.7692004950228497,1.6754973547542302,0.052104326824870026,0.029969505109285054,-2.752394845125968,0.0342448039870148,2.7663679543071322,0.7691630533470046,0.0008281299651860737,-0.000439396730683607,0.0006008604152233835,5.0604695550678135e-05,-0.00022964612974552781,-0.00015057654613027602,0.0007529826087300231,0.0,0.0,0.0,0.0,0.0,0.0,0.0,-0.00013876940074730726,1.1779258786044633e-05,-3.0288829169444753e-05,-4.276894686583432e-05,-6.090436780264996e-05,2.813657124844937e-05,-3.744167584507352e-05,-0.0008281299651860737,0.000439396730683607,-0.0006008604152233835,-5.0604695550678135e-05,0.00022964612974552781,0.00015057654613027602,-0.0007529826087300231,0.4783565402030945,22.649072647094727,0.1491362750530243,-14.032625198364258,-0.1650901436805725,-2.1389803886413574,0.43338340520858765,0
14,0.06499958038330078,-0.4783565402030945,-22.649072647094727,-0.1491362750530243,14.032625198364258,0.1650901436805725,2.1389803886413574,-0.43338340520858765,0.0,0.0,0.0,0.0,0.0,0.0,0.0,-0.4282702578047685,0.08459284573896247,-0.20129173943622072,0.1643727163359666,-0.07200523099906733,-0.04820056612763855,-0.4101468361988542,1.6756361241549775,0.05209254756608398,0.0299997939384545,-2.7523520761791023,0.03430570835481745,2.7663398177358838,0.7692004950228497,1.6754973547542302,0.052104326824870026,0.029969505109285054,-2.752394845125968,0.0342448039870148,2.7663679543071322,0.7691630533470046,0.0008281299651860737,-0.000439396730683607,0.0006008604152233835,5.0604695550678135e-05,-0.00022964612974552781,-0.00015057654613027602,0.0007529826087300231,0.0,0.0,0.0,0.0,0.0,0.0,0.0,-0.00013876940074730726,1.1779258786044633e-05,-3.0288829169444753e-05,-4.276894686583432e-05,-6.090436780264996e-05,2.813657124844937e-05,-3.744167584507352e-05,-0.0008281299651860737,0.000439396730683607,-0.0006008604152233835,-5.0604695550678135e-05,0.00022964612974552781,0.00015057654613027602,-0.0007529826087300231,0.4783565402030945,22.649072647094727,0.1491362750530243,-14.032625198364258,-0.1650901436805725,-2.1389803886413574,0.43338340520858765,0
15,0.06999588012695312,-0.4267818331718445,-22.720483779907227,-0.1491362750530243,14.032625198364258,0.1595969796180725,2.1517977714538574,-0.37845176458358765,0.0,0.0,0.0,0.0,0.0,0.0,0.0,-0.42873367554108743,0.08044216889929548,-0.19595068731130744,0.16864373536091984,-0.07259823671702972,-0.047763353472367785,-0.4113489150895842,1.6756325048772913,0.05209967557386669,0.02999979393890029,-2.7523520761791023,0.03430845812585481,2.766338393582238,0.769191209709661,1.6754973547542302,0.052104326824870026,0.029969505109285054,-2.752394845125968,0.0342448039870148,2.7663679543071322,0.7691630533470046,-0.0003230477749544251,0.0008791581371137915,0.0007684480531316202,0.00022502036279251818,6.371710373734993e-05,-0.0005596945145637393,-0.0015362316051951094,0.0,0.0,0.0,0.0,0.0,0.0,0.0,-0.00013515012306108964,4.65125100333752e-06,-3.028882961523746e-05,-4.276894686583432e-05,-6.36541388400122e-05,2.9560724894128754e-05,-2.815636265640631e-05,0.0003230477749544251,-0.0008791581371137915,-0.0007684480531316202,-0.00022502036279251818,-6.371710373734993e-05,0.0005596945145637393,0.0015362316051951094,0.4267818331718445,22.720483779907227,0.1491362750530243,-14.032625198364258,-0.1595969796180725,-2.1517977714538574,0.37845176458358765,0
16,0.07499456405639648,-0.4267818331718445,-22.720483779907227,-0.1491362750530243,14.032625198364258,0.1595969796180725,2.1517977714538574,-0.37845176458358765,0.0,0.0,0.0,0.0,0.0,0.0,0.0,-0.42873367554108743,0.08044216889929548,-0.19595068731130744,0.16864373536091984,-0.07259823671702972,-0.047763353472367785,-0.4113489150895842,1.6756325048772913,0.05209967557386669,0.02999979393890029,-2.7523520761791023,0.03430845812585481,2.766338393582238,0.769191209709661,1.6754973547542302,0.052104326824870026,0.029969505109285054,-2.752394845125968,0.0342448039870148,2.7663679543071322,0.7691630533470046,-0.0003230477749544251,0.0008791581371137915,0.0007684480531316202,0.00022502036279251818,6.371710373734993e-05,-0.0005596945145637393,-0.0015362316051951094,0.0,0.0,0.0,0.0,0.0,0.0,0.0,-0.00013515012306108964,4.65125100333752e-06,-3.028882961523746e-05,-4.276894686583432e-05,-6.36541388400122e-05,2.9560724894128754e-05,-2.815636265640631e-05,0.0003230477749544251,-0.0008791581371137915,-0.0007684480531316202,-0.00022502036279251818,-6.371710373734993e-05,0.0005596945145637393,0.0015362316051951094,0.4267818331718445,22.720483779907227,0.1491362750530243,-14.032625198364258,-0.1595969796180725,-2.1517977714538574,0.37845176458358765,0
17,0.0799703598022461,-0.4505855441093445,-22.696680068969727,-0.1253325641155243,14.032625198364258,0.1531882882118225,2.1389803886413574,-0.36471885442733765,0.0,0.0,0.0,0.0,0.0,0.0,0.0,-0.43370723001713507,0.08447773553341616,-0.2004673690523513,0.17040780557157273,-0.07238151101378851,-0.04778966518184093,-0.4109656756887049,1.6756342547860061,0.05209619208336586,0.029998123503045027,-2.7523520761791023,0.034310592663147316,2.7663398177358838,0.7691928544903968,1.6754973547542302,0.052104326824870026,0.029969505109285054,-2.752394845125968,0.0342448039870148,2.7663679543071322,0.7691630533470046,0.00022339272685786032,-0.0002844091619827417,-0.00011890358361886611,0.0005458252776112442,0.00031996756492351654,-0.0001821232500332438,-0.001807819375928443,0.0,0.0,0.0,0.0,0.0,0.0,0.0,-0.0001369000317759106,8.134741504163545e-06,-2.861839375997363e-05,-4.276894686583432e-05,-6.578867613251521e-05,2.813657124844937e-05,-2.980114339212747e-05,-0.00022339272685786032,0.0002844091619827417,0.00011890358361886611,-0.0005458252776112442,-0.00031996756492351654,0.0001821232500332438,0.001807819375928443,0.4505855441093445,22.696680068969727,0.1253325641155243,-14.032625198364258,-0.1531882882118225,-2.1389803886413574,0.36471885442733765,0
18,0.0850210189819336,-0.4505855441093445,-22.696680068969727,-0.1253325641155243,14.032625198364258,0.1531882882118225,2.1389803886413574,-0.36471885442733765,0.0,0.0,0.0,0.0,0.0,0.0,0.0,-0.43370723001713507,0.08447773553341616,-0.2004673690523513,0.17040780557157273,-0.07238151101378851,-0.04778966518184093,-0.4109656756887049,1.6756342547860061,0.05209619208336586,0.029998123503045027,-2.7523520761791023,0.034310592663147316,2.7663398177358838,0.7691928544903968,1.6754973547542302,0.052104326824870026,0.029969505109285054,-2.752394845125968,0.0342448039870148,2.7663679543071322,0.7691630533470046,0.00022339272685786032,-0.0002844091619827417,-0.00011890358361886611,0.0005458252776112442,0.00031996756492351654,-0.0001821232500332438,-0.001807819375928443,0.0,0.0,0.0,0.0,0.0,0.0,0.0,-0.0001369000317759106,8.134741504163545e-06,-2.861839375997363e-05,-4.276894686583432e-05,-6.578867613251521e-05,2.813657124844937e-05,-2.980114339212747e-05,-0.00022339272685786032,0.0002844091619827417,0.00011890358361886611,-0.0005458252776112442,-0.00031996756492351654,0.0001821232500332438,0.001807819375928443,0.4505855441093445,22.696680068969727,0.1253325641155243,-14.032625198364258,-0.1531882882118225,-2.1389803886413574,0.36471885442733765,0
19,0.0899953842163086,-0.4267818331718445,-22.720483779907227,-0.09756157547235489,14.032625198364258,0.1531882882118225,2.1453890800476074,-0.38577598333358765,0.0,0.0,0.0,0.0,0.0,0.0,0.0,-0.4400654550825348,0.08939274574782285,-0.20733945511107268,0.16944820583119127,-0.07159309059126662,-0.048497129330909404,-0.40900937177437086,1.6756325078211791,0.052099991251953685,0.029996174661736735,-2.752352067021736,0.034307264502161754,2.766339105659061,0.7691951679715451,1.6754973547542302,0.052104326824870026,0.029969505109285054,-2.752394845125968,0.0342448039870148,2.7663679543071322,0.7691630533470046,-0.00046650832677532167,0.00034575077883805614,-0.001140585764077068,0.0005026969919076005,0.0005427482242416422,-0.00015113570439072353,-0.0009097345111120956,0.0,0.0,0.0,0.0,0.0,0.0,0.0,-0.00013515306694888984,4.335572916340513e-06,-2.6669552451681622e-05,-4.277810423225503e-05,-6.246051514695317e-05,2.8848648071289062e-05,-3.211462454044689e-05,0.00046650832677532167,-0.00034575077883805614,0.001140585764077068,-0.0005026969919076005,-0.0005427482242416422,0.00015113570439072353,0.0009097345111120956,0.4267818331718445,22.720483779907227,0.09756157547235489,-14.032625198364258,-0.1531882882118225,-2.1453890800476074,0.38577598333358765,0
20,0.09499526023864746,-0.4267818331718445,-22.720483779907227,-0.09756157547235489,14.032625198364258,0.1531882882118225,2.1453890800476074,-0.38577598333358765,0.0,0.0,0.0,0.0,0.0,0.0,0.0,-0.4400654550825348,0.08939274574782285,-0.20733945511107268,0.16944820583119127,-0.07159309059126662,-0.048497129330909404,-0.40900937177437086,1.6756325078211791,0.052099991251953685,0.029996174661736735,-2.752352067021736,0.034307264502161754,2.766339105659061,0.7691951679715451,1.6754973547542302,0.052104326824870026,0.029969505109285054,-2.752394845125968,0.0342448039870148,2.7663679543071322,0.7691630533470046,-0.00046650832677532167,0.00034575077883805614,-0.001140585764077068,0.0005026969919076005,0.0005427482242416422,-0.00015113570439072353,-0.0009097345111120956,0.0,0.0,0.0,0.0,0.0,0.0,0.0,-0.00013515306694888984,4.335572916340513e-06,-2.6669552451681622e-05,-4.277810423225503e-05,-6.246051514695317e-05,2.8848648071289062e-05,-3.211462454044689e-05,0.00046650832677532167,-0.00034575077883805614,0.001140585764077068,-0.0005026969919076005,-0.0005427482242416422,0.00015113570439072353,0.0009097345111120956,0.4267818331718445,22.720483779907227,0.09756157547235489,-14.032625198364258,-0.1531882882118225,-2.1453890800476074,0.38577598333358765,0
21,0.09999275207519531,-0.4267818331718445,-22.720483779907227,-0.09756157547235489,14.032625198364258,0.1531882882118225,2.1453890800476074,-0.38577598333358765,0.0,0.0,0.0,0.0,0.0,0.0,0.0,-0.4400654550825348,0.08939274574782285,-0.20733945511107268,0.16944820583119127,-0.07159309059126662,-0.048497129330909404,-0.40900937177437086,1.6756325078211791,0.052099991251953685,0.029996174661736735,-2.752352067021736,0.034307264502161754,2.766339105659061,0.7691951679715451,1.6754973547542302,0.052104326824870026,0.029969505109285054,-2.752394845125968,0.0342448039870148,2.7663679543071322,0.7691630533470046,-0.00046650832677532167,0.00034575077883805614,-0.001140585764077068,0.0005026969919076005,0.0005427482242416422,-0.00015113570439072353,-0.0009097345111120956,0.0,0.0,0.0,0.0,0.0,0.0,0.0,-0.00013515306694888984,4.335572916340513e-06,-2.6669552451681622e-05,-4.277810423225503e-05,-6.246051514695317e-05,2.8848648071289062e-05,-3.211462454044689e-05,0.00046650832677532167,-0.00034575077883805614,0.001140585764077068,-0.0005026969919076005,-0.0005427482242416422,0.00015113570439072353,0.0009097345111120956,0.4267818331718445,22.720483779907227,0.09756157547235489,-14.032625198364258,-0.1531882882118225,-2.1453890800476074,0.38577598333358765,0
22,0.10537505149841309,-0.4029781222343445,-22.748254776000977,-0.1253325641155243,14.032625198364258,0.1595969796180725,2.1389803886413574,-0.41965049505233765,0.0,0.0,0.0,0.0,0.0,0.0,0.0,-0.4357763040537472,0.09003763799609842,-0.20707673982113084,0.1697380780723851,-0.07132598124584029,-0.048324382826187215,-0.4070209247181777,1.675630838366038,0.052099496046904815,0.029998123503045027,-2.7523498383899954,0.03430951353747429,2.7663398177358838,0.769198617408498,1.6754973547542302,0.052104326824870026,0.029969505109285054,-2.752394845125968,0.0342448039870148,2.7663679543071322,0.7691630533470046,-0.000495339549758105,0.0008254195677316671,0.00018907193796156255,0.0005322695684305625,3.670955288732079e-05,-0.00013035740865953674,0.0007310576051121663,0.0,0.0,0.0,0.0,0.0,0.0,0.0,-0.00013348361180787194,4.83077796521042e-06,-2.861839375997363e-05,-4.5006735972741296e-05,-6.470955045948662e-05,2.813657124844937e-05,-3.5564061493409405e-05,0.000495339549758105,-0.0008254195677316671,-0.00018907193796156255,-0.0005322695684305625,-3.670955288732079e-05,0.00013035740865953674,-0.0007310576051121663,0.4029781222343445,22.748254776000977,0.1253325641155243,-14.032625198364258,-0.1595969796180725,-2.1389803886413574,0.41965049505233765,0
23,0.11004137992858887,-0.4029781222343445,-22.748254776000977,-0.1253325641155243,14.032625198364258,0.1595969796180725,2.1389803886413574,-0.41965049505233765,0.0,0.0,0.0,0.0,0.0,0.0,0.0,-0.4357763040537472,0.09003763799609842,-0.20707673982113084,0.1697380780723851,-0.07132598124584029,-0.048324382826187215,-0.4070209247181777,1.675630838366038,0.052099496046904815,0.029998123503045027,-2.7523498383899954,0.03430951353747429,2.7663398177358838,0.769198617408498,1.6754973547542302,0.052104326824870026,0.029969505109285054,-2.752394845125968,0.0342448039870148,2.7663679543071322,0.7691630533470046,-0.000495339549758105,0.0008254195677316671,0.00018907193796156255,0.0005322695684305625,3.670955288732079e-05,-0.00013035740865953674,0.0007310576051121663,0.0,0.0,0.0,0.0,0.0,0.0,0.0,-0.00013348361180787194,4.83077796521042e-06,-2.861839375997363e-05,-4.5006735972741296e-05,-6.470955045948662e-05,2.813657124844937e-05,-3.5564061493409405e-05,0.000495339549758105,-0.0008254195677316671,-0.00018907193796156255,-0.0005322695684305625,-3.670955288732079e-05,0.00013035740865953674,-0.0007310576051121663,0.4029781222343445,22.748254776000977,0.1253325641155243,-14.032625198364258,-0.1595969796180725,-2.1389803886413574,0.41965049505233765,0
24,0.11500120162963867,-0.4029781222343445,-22.748254776000977,-0.07375786453485489,14.032625198364258,0.1650901436805725,2.1261630058288574,-0.43338340520858765,0.0,0.0,0.0,0.0,0.0,0.0,0.0,-0.4308010802972446,0.08828094912084515,-0.20095093480438764,0.16854748643196968,-0.0720437605492227,-0.04905651475741105,-0.4052381690555763,1.675631072860037,0.0520994960331081,0.02999450422588147,-2.7523498509263984,0.03430879692059794,2.76634124188953,0.7692004950447889,1.6754973547542302,0.052104326824870026,0.029969505109285054,-2.752394845125968,0.0342448039870148,2.7663679543071322,0.7691630533470046,-0.0003338410552684575,0.0006747470058337019,-0.00037546405970761076,-7.97317577694855e-05,-0.00020560504210785687,0.0001319146354909497,0.0011300958420787709,0.0,0.0,0.0,0.0,0.0,0.0,0.0,-0.00013371810580675714,4.830791761924191e-06,-2.4999116596417792e-05,-4.499419956971451e-05,-6.399293358314018e-05,2.67124176023259e-05,-3.744169778430173e-05,0.0003338410552684575,-0.0006747470058337019,0.00037546405970761076,7.97317577694855e-05,0.00020560504210785687,-0.0001319146354909497,-0.0011300958420787709,0.4029781222343445,22.748254776000977,0.07375786453485489,-14.032625198364258,-0.1650901436805725,-2.1261630058288574,0.43338340520858765,0
25,0.11999917030334473,-0.4029781222343445,-22.748254776000977,-0.07375786453485489,14.032625198364258,0.1650901436805725,2.1261630058288574,-0.43338340520858765,0.0,0.0,0.0,0.0,0.0,0.0,0.0,-0.4308010802972446,0.08828094912084515,-0.20095093480438764,0.16854748643196968,-0.0720437605492227,-0.04905651475741105,-0.4052381690555763,1.675631072860037,0.0520994960331081,0.02999450422588147,-2.7523498509263984,0.03430879692059794,2.76634124188953,0.7692004950447889,1.6754973547542302,0.052104326824870026,0.029969505109285054,-2.752394845125968,0.0342448039870148,2.7663679543071322,0.7691630533470046,-0.0003338410552684575,0.0006747470058337019,-0.00037546405970761076,-7.97317577694855e-05,-0.00020560504210785687,0.0001319146354909497,0.0011300958420787709,0.0,0.0,0.0,0.0,0.0,0.0,0.0,-0.00013371810580675714,4.830791761924191e-06,-2.4999116596417792e-05,-4.499419956971451e-05,-6.399293358314018e-05,2.67124176023259e-05,-3.744169778430173e-05,0.0003338410552684575,-0.0006747470058337019,0.00037546405970761076,7.97317577694855e-05,0.00020560504210785687,-0.0001319146354909497,-0.0011300958420787709,0.4029781222343445,22.748254776000977,0.07375786453485489,-14.032625198364258,-0.1650901436805725,-2.1261630058288574,0.43338340520858765,0
26,0.12499690055847168,-0.4029781222343445,-22.672876358032227,-0.1253325641155243,14.056428909301758,0.1531882882118225,2.1389803886413574,-0.43338340520858765,0.0,0.0,0.0,0.0,0.0,0.0,0.0,-0.43131255153172104,0.08736413371050857,-0.1976221723602177,0.16817750392688674,-0.07151732612333048,-0.04944686757424585,-0.4046571831709298,1.6756308344427817,0.05209420631956636,0.029998123503045027,-2.752353746602396,0.03431053571431853,2.7663398177358838,0.7691973175321017,1.6754973547542302,0.052104326824870026,0.029969505109285054,-2.752394845125968,0.0342448039870148,2.7663679543071322,0.7691630533470046,-0.00032308179923686833,-0.0007654281554397182,0.001108580474392904,-0.00056039289611752,0.00041717746174177017,-1.638669099353193e-05,0.001145488803279634,0.0,0.0,0.0,0.0,0.0,0.0,0.0,-0.0001334796885514855,1.0120505303669314e-05,-2.861839375997363e-05,-4.109852357192523e-05,-6.573172730373056e-05,2.813657124844937e-05,-3.426418509711038e-05,0.00032308179923686833,0.0007654281554397182,-0.001108580474392904,0.00056039289611752,-0.00041717746174177017,1.638669099353193e-05,-0.001145488803279634,0.4029781222343445,22.672876358032227,0.1253325641155243,-14.056428909301758,-0.1531882882118225,-2.1389803886413574,0.43338340520858765,0
27,0.13018345832824707,-0.4029781222343445,-22.672876358032227,-0.1253325641155243,14.056428909301758,0.1531882882118225,2.1389803886413574,-0.43338340520858765,0.0,0.0,0.0,0.0,0.0,0.0,0.0,-0.43131255153172104,0.08736413371050857,-0.1976221723602177,0.16817750392688674,-0.07151732612333048,-0.04944686757424585,-0.4046571831709298,1.6756308344427817,0.05209420631956636,0.029998123503045027,-2.752353746602396,0.03431053571431853,2.7663398177358838,0.7691973175321017,1.6754973547542302,0.052104326824870026,0.029969505109285054,-2.752394845125968,0.0342448039870148,2.7663679543071322,0.7691630533470046,-0.00032308179923686833,-0.0007654281554397182,0.001108580474392904,-0.00056039289611752,0.00041717746174177017,-1.638669099353193e-05,0.001145488803279634,0.0,0.0,0.0,0.0,0.0,0.0,0.0,-0.0001334796885514855,1.0120505303669314e-05,-2.861839375997363e-05,-4.109852357192523e-05,-6.573172730373056e-05,2.813657124844937e-05,-3.426418509711038e-05,0.00032308179923686833,0.0007654281554397182,-0.001108580474392904,0.00056039289611752,-0.00041717746174177017,1.638669099353193e-05,-0.001145488803279634,0.4029781222343445,22.672876358032227,0.1253325641155243,-14.056428909301758,-0.1531882882118225,-2.1389803886413574,0.43338340520858765,0
28,0.13499784469604492,-0.4505855441093445,-22.696680068969727,-0.1253325641155243,14.008821487426758,0.1714988350868225,2.1389803886413574,-0.39950889348983765,0.0,0.0,0.0,0.0,0.0,0.0,0.0,-0.4308031092163862,0.08258233085083701,-0.1968233523673954,0.170148351410533,-0.07112500275270045,-0.048513507018196636,-0.40588592013294816,1.6756341753131465,0.052096117135157965,0.029997412800440312,-2.7523504057432473,0.034308151968171094,2.7663398177358838,0.7691967331322691,1.6754973547542302,0.052104326824870026,0.029969505109285054,-2.752394845125968,0.0342448039870148,2.7663679543071322,0.7691630533470046,0.0005593569497208666,-0.0005630349218111735,0.0004072572764901691,0.0008737611224906805,-0.00045631520845869263,9.619478803897939e-05,-0.00011157538646192595,0.0,0.0,0.0,0.0,0.0,0.0,0.0,-0.00013682055891628409,8.209689712060375e-06,-2.790769115525865e-05,-4.443938272080672e-05,-6.334798115629342e-05,2.813657124844937e-05,-3.367978526447324e-05,-0.0005593569497208666,0.0005630349218111735,-0.0004072572764901691,-0.0008737611224906805,0.00045631520845869263,-9.619478803897939e-05,0.00011157538646192595,0.4505855441093445,22.696680068969727,0.1253325641155243,-14.008821487426758,-0.1714988350868225,-2.1389803886413574,0.39950889348983765,0
29,0.13999700546264648,-0.4505855441093445,-22.696680068969727,-0.1253325641155243,14.008821487426758,0.1714988350868225,2.1389803886413574,-0.39950889348983765,0.0,0.0,0.0,0.0,0.0,0.0,0.0,-0.4308031092163862,0.08258233085083701,-0.1968233523673954,0.170148351410533,-0.07112500275270045,-0.048513507018196636,-0.40588592013294816,1.6756341753131465,0.052096117135157965,0.029997412800440312,-2.7523504057432473,0.034308151968171094,2.7663398177358838,0.7691967331322691,1.6754973547542302,0.052104326824870026,0.029969505109285054,-2.752394845125968,0.0342448039870148,2.7663679543071322,0.7691630533470046,0.0005593569497208666,-0.0005630349218111735,0.0004072572764901691,0.0008737611224906805,-0.00045631520845869263,9.619478803897939e-05,-0.00011157538646192595,0.0,0.0,0.0,0.0,0.0,0.0,0.0,-0.00013682055891628409,8.209689712060375e-06,-2.790769115525865e-05,-4.443938272080672e-05,-6.334798115629342e-05,2.813657124844937e-05,-3.367978526447324e-05,-0.0005593569497208666,0.0005630349218111735,-0.0004072572764901691,-0.0008737611224906805,0.00045631520845869263,-9.619478803897939e-05,0.00011157538646192595,0.4505855441093445,22.696680068969727,0.1253325641155243,-14.008821487426758,-0.1714988350868225,-2.1389803886413574,0.39950889348983765,0
30,0.14495849609375,-0.4267818331718445,-22.696680068969727,-0.1253325641155243,14.056428909301758,0.1650901436805725,2.1453890800476074,-0.43338340520858765,0.0,0.0,0.0,0.0,0.0,0.0,0.0,-0.4274153700515206,0.08291277130331333,-0.19506255554794658,0.17193101825126858,-0.07154497793017318,-0.047326238560977923,-0.40734416220315695,1.6756325048772913,0.05209611616241297,0.029998123501707715,-2.752353716090403,0.03430820643013388,2.766339105659061,0.7691972783400912,1.6754973547542302,0.052104326824870026,0.029969505109285054,-2.752394845125968,0.0342448039870148,2.7663679543071322,0.7691630533470046,-0.00023943820071454578,-0.0002456591550437692,-6.495273251402158e-05,6.00622463794035e-05,-0.000170844994160713,-2.3102081344861267e-05,0.0003969516051363766,0.0,0.0,0.0,0.0,0.0,0.0,0.0,-0.00013515012306108964,8.21066245705604e-06,-2.8618392422661426e-05,-4.1129035565301564e-05,-6.340244311908022e-05,2.8848648071289062e-05,-3.4224993086584554e-05,0.00023943820071454578,0.0002456591550437692,6.495273251402158e-05,-6.00622463794035e-05,0.000170844994160713,2.3102081344861267e-05,-0.0003969516051363766,0.4267818331718445,22.696680068969727,0.1253325641155243,-14.056428909301758,-0.1650901436805725,-2.1453890800476074,0.43338340520858765,0
31,0.15000271797180176,-0.4267818331718445,-22.696680068969727,-0.1253325641155243,14.056428909301758,0.1650901436805725,2.1453890800476074,-0.43338340520858765,0.0,0.0,0.0,0.0,0.0,0.0,0.0,-0.4274153700515206,0.08291277130331333,-0.19506255554794658,0.17193101825126858,-0.07154497793017318,-0.047326238560977923,-0.40734416220315695,1.6756325048772913,0.05209611616241297,0.029998123501707715,-2.752353716090403,0.03430820643013388,2.766339105659061,0.7691972783400912,1.6754973547542302,0.052104326824870026,0.029969505109285054,-2.752394845125968,0.0342448039870148,2.7663679543071322,0.7691630533470046,-0.00023943820071454578,-0.0002456591550437692,-6.495273251402158e-05,6.00622463794035e-05,-0.000170844994160713,-2.3102081344861267e-05,0.0003969516051363766,0.0,0.0,0.0,0.0,0.0,0.0,0.0,-0.00013515012306108964,8.21066245705604e-06,-2.8618392422661426e-05,-4.1129035565301564e-05,-6.340244311908022e-05,2.8848648071289062e-05,-3.4224993086584554e-05,0.00023943820071454578,0.0002456591550437692,6.495273251402158e-05,-6.00622463794035e-05,0.000170844994160713,2.3102081344861267e-05,-0.0003969516051363766,0.4267818331718445,22.696680068969727,0.1253325641155243,-14.056428909301758,-0.1650901436805725,-2.1453890800476074,0.43338340520858765,0
32,0.1549975872039795,-0.4267818331718445,-22.672876358032227,-0.1253325641155243,14.080232620239258,0.1531882882118225,2.1389803886413574,-0.40591758489608765,0.0,0.0,0.0,0.0,0.0,0.0,0.0,-0.42840418863704166,0.09006733289469819,-0.19694944299141354,0.1682818664999983,-0.07176553686650797,-0.04730746191623657,-0.4103296556982323,1.6756325048772913,0.052096337625736525,0.029998123503045006,-2.752355417050296,0.03430726399734163,2.7663398177358838,0.7691973269504453,1.6754973547542302,0.052104326824870026,0.029969505109285054,-2.752394845125968,0.0342448039870148,2.7663679543071322,0.7691630533470046,-0.00046653556828749006,-0.00027730532015385215,0.00030166456901856045,-0.0008993400169524171,0.00010102104091059003,0.00019013289421982078,-0.00016042742210718245,0.0,0.0,0.0,0.0,0.0,0.0,0.0,-0.00013515012306108964,7.989199133501268e-06,-2.8618393759952815e-05,-3.942807567192119e-05,-6.246001032682996e-05,2.813657124844937e-05,-3.427360344065988e-05,0.00046653556828749006,0.00027730532015385215,-0.00030166456901856045,0.0008993400169524171,-0.00010102104091059003,-0.00019013289421982078,0.00016042742210718245,0.4267818331718445,22.672876358032227,0.1253325641155243,-14.080232620239258,-0.1531882882118225,-2.1389803886413574,0.40591758489608765,0
33,0.16001534461975098,-0.4267818331718445,-22.672876358032227,-0.1253325641155243,14.080232620239258,0.1531882882118225,2.1389803886413574,-0.40591758489608765,0.0,0.0,0.0,0.0,0.0,0.0,0.0,-0.42840418863704166,0.09006733289469819,-0.19694944299141354,0.1682818664999983,-0.07176553686650797,-0.04730746191623657,-0.4103296556982323,1.6756325048772913,0.052096337625736525,0.029998123503045006,-2.752355417050296,0.03430726399734163,2.7663398177358838,0.7691973269504453,1.6754973547542302,0.052104326824870026,0.029969505109285054,-2.752394845125968,0.0342448039870148,2.7663679543071322,0.7691630533470046,-0.00046653556828749006,-0.00027730532015385215,0.00030166456901856045,-0.0008993400169524171,0.00010102104091059003,0.00019013289421982078,-0.00016042742210718245,0.0,0.0,0.0,0.0,0.0,0.0,0.0,-0.00013515012306108964,7.989199133501268e-06,-2.8618393759952815e-05,-3.942807567192119e-05,-6.246001032682996e-05,2.813657124844937e-05,-3.427360344065988e-05,0.00046653556828749006,0.00027730532015385215,-0.00030166456901856045,0.0008993400169524171,-0.00010102104091059003,-0.00019013289421982078,0.00016042742210718245,0.4267818331718445,22.672876358032227,0.1253325641155243,-14.080232620239258,-0.1531882882118225,-2.1389803886413574,0.40591758489608765,0
34,0.1650393009185791,-0.4029781222343445,-22.621301651000977,-0.09756157547235489,13.981050491333008,0.1650901436805725,2.1389803886413574,-0.43979209661483765,0.0,0.0,0.0,0.0,0.0,0.0,0.0,-0.4319757305654354,0.09187830322599679,-0.2007361314979751,0.1701644229594874,-0.07191693939839774,-0.0465609135951585,-0.41101618495343123,1.675630834441436,0.05209295192338219,0.029996174661736735,-2.752348456901416,0.034308759096684335,2.7663398177358838,0.7692000316853085,1.6754973547542302,0.052104326824870026,0.029969505109285054,-2.752394845125968,0.0342448039870148,2.7663679543071322,0.7691630533470046,-0.0006734944177722613,-0.001669091976989806,-0.0008269493693873791,0.0014717046971065872,-0.00021219058728348084,1.7841016477940793e-06,0.0008158700263040342,0.0,0.0,0.0,0.0,0.0,0.0,0.0,-0.00013347968720567316,1.1374901487837263e-05,-2.6669552451681622e-05,-4.638822455227398e-05,-6.395510966953483e-05,2.813657124844937e-05,-3.697833830385022e-05,0.0006734944177722613,0.001669091976989806,0.0008269493693873791,-0.0014717046971065872,0.00021219058728348084,-1.7841016477940793e-06,-0.0008158700263040342,0.4029781222343445,22.621301651000977,0.09756157547235489,-13.981050491333008,-0.1650901436805725,-2.1389803886413574,0.43979209661483765,0
35,0.1700422763824463,-0.4029781222343445,-22.621301651000977,-0.09756157547235489,13.981050491333008,0.1650901436805725,2.1389803886413574,-0.43979209661483765,0.0,0.0,0.0,0.0,0.0,0.0,0.0,-0.4319757305654354,0.09187830322599679,-0.2007361314979751,0.1701644229594874,-0.07191693939839774,-0.0465609135951585,-0.41101618495343123,1.675630834441436,0.05209295192338219,0.029996174661736735,-2.752348456901416,0.034308759096684335,2.7663398177358838,0.7692000316853085,1.6754973547542302,0.052104326824870026,0.029969505109285054,-2.752394845125968,0.0342448039870148,2.7663679543071322,0.7691630533470046,-0.0006734944177722613,-0.001669091976989806,-0.0008269493693873791,0.0014717046971065872,-0.00021219058728348084,1.7841016477940793e-06,0.0008158700263040342,0.0,0.0,0.0,0.0,0.0,0.0,0.0,-0.00013347968720567316,1.1374901487837263e-05,-2.6669552451681622e-05,-4.638822455227398e-05,-6.395510966953483e-05,2.813657124844937e-05,-3.697833830385022e-05,0.0006734944177722613,0.001669091976989806,0.0008269493693873791,-0.0014717046971065872,0.00021219058728348084,-1.7841016477940793e-06,-0.0008158700263040342,0.4029781222343445,22.621301651000977,0.09756157547235489,-13.981050491333008,-0.1650901436805725,-2.1389803886413574,0.43979209661483765,0
36,0.1750657558441162,-0.4267818331718445,-22.720483779907227,-0.1491362750530243,14.008821487426758,0.1714988350868225,2.1325716972351074,-0.43979209661483765,0.0,0.0,0.0,0.0,0.0,0.0,0.0,-0.43398823888586596,0.09261882856326029,-0.20621652108320948,0.17184652736891923,-0.07147042418363518,-0.046258788506185616,-0.4113200352967742,1.6756325048772913,0.0520977836915738,0.02999979393890029,-2.7523504057432473,0.03430839541365519,2.766340529812707,0.7692001087174929,1.6754973547542302,0.052104326824870026,0.029969505109285054,-2.752394845125968,0.0342448039870148,2.7663679543071322,0.7691630533470046,-0.0002916756051536307,0.0007178640665908567,0.000506163401808664,0.0007369814674638769,-0.0004771503488413243,0.00033332565520600884,0.000920639610284325,0.0,0.0,0.0,0.0,0.0,0.0,0.0,-0.00013515012306108964,6.543133296225967e-06,-3.028882961523746e-05,-4.443938272080672e-05,-6.359142664039141e-05,2.742449442516559e-05,-3.705537048825924e-05,0.0002916756051536307,-0.0007178640665908567,-0.000506163401808664,-0.0007369814674638769,0.0004771503488413243,-0.00033332565520600884,-0.000920639610284325,0.4267818331718445,22.720483779907227,0.1491362750530243,-14.008821487426758,-0.1714988350868225,-2.1325716972351074,0.43979209661483765,0
37,0.18003106117248535,-0.4267818331718445,-22.720483779907227,-0.1491362750530243,14.008821487426758,0.1714988350868225,2.1325716972351074,-0.43979209661483765,0.0,0.0,0.0,0.0,0.0,0.0,0.0,-0.43398823888586596,0.09261882856326029,-0.20621652108320948,0.17184652736891923,-0.07147042418363518,-0.046258788506185616,-0.4113200352967742,1.6756325048772913,0.0520977836915738,0.02999979393890029,-2.7523504057432473,0.03430839541365519,2.766340529812707,0.7692001087174929,1.6754973547542302,0.052104326824870026,0.029969505109285054,-2.752394845125968,0.0342448039870148,2.7663679543071322,0.7691630533470046,-0.0002916756051536307,0.0007178640665908567,0.000506163401808664,0.0007369814674638769,-0.0004771503488413243,0.00033332565520600884,0.000920639610284325,0.0,0.0,0.0,0.0,0.0,0.0,0.0,-0.00013515012306108964,6.543133296225967e-06,-3.028882961523746e-05,-4.443938272080672e-05,-6.359142664039141e-05,2.742449442516559e-05,-3.705537048825924e-05,0.0002916756051536307,-0.0007178640665908567,-0.000506163401808664,-0.0007369814674638769,0.0004771503488413243,-0.00033332565520600884,-0.000920639610284325,0.4267818331718445,22.720483779907227,0.1491362750530243,-14.008821487426758,-0.1714988350868225,-2.1325716972351074,0.43979209661483765,0
38,0.18499207496643066,-0.4505855441093445,-22.720483779907227,-0.1253325641155243,14.080232620239258,0.1650901436805725,2.1389803886413574,-0.41324180364608765,0.0,0.0,0.0,0.0,0.0,0.0,0.0,-0.4353482990537186,0.09060957831994593,-0.20961865088545736,0.1730388170345066,-0.07129420361425762,-0.04561719697619456,-0.41202290129717273,1.6756341753131465,0.05209755595138775,0.029998123503045027,-2.752355417050813,0.03430925855896293,2.7663398182204,0.769198097517329,1.6754973547542302,0.052104326824870026,0.029969505109285054,-2.752394845125968,0.0342448039870148,2.7663679543071322,0.7691630533470046,0.00010356026892540987,-0.000191406798604056,-7.211270026925035e-05,-0.0010085156458988402,-0.00026561354901608286,0.0001645931285127808,0.0006268087221375927,0.0,0.0,0.0,0.0,0.0,0.0,0.0,-0.00013682055891628409,6.7708734822757854e-06,-2.861839375997363e-05,-3.942807515500135e-05,-6.445457194812626e-05,2.8136086732022392e-05,-3.504417032440532e-05,-0.00010356026892540987,0.000191406798604056,7.211270026925035e-05,0.0010085156458988402,0.00026561354901608286,-0.0001645931285127808,-0.0006268087221375927,0.4505855441093445,22.720483779907227,0.1253325641155243,-14.080232620239258,-0.1650901436805725,-2.1389803886413574,0.41324180364608765,0
39,0.19002747535705566,-0.4505855441093445,-22.720483779907227,-0.1253325641155243,14.080232620239258,0.1650901436805725,2.1389803886413574,-0.41324180364608765,0.0,0.0,0.0,0.0,0.0,0.0,0.0,-0.4353482990537186,0.09060957831994593,-0.20961865088545736,0.1730388170345066,-0.07129420361425762,-0.04561719697619456,-0.41202290129717273,1.6756341753131465,0.05209755595138775,0.029998123503045027,-2.752355417050813,0.03430925855896293,2.7663398182204,0.769198097517329,1.6754973547542302,0.052104326824870026,0.029969505109285054,-2.752394845125968,0.0342448039870148,2.7663679543071322,0.7691630533470046,0.00010356026892540987,-0.000191406798604056,-7.211270026925035e-05,-0.0010085156458988402,-0.00026561354901608286,0.0001645931285127808,0.0006268087221375927,0.0,0.0,0.0,0.0,0.0,0.0,0.0,-0.00013682055891628409,6.7708734822757854e-06,-2.861839375997363e-05,-3.942807515500135e-05,-6.445457194812626e-05,2.8136086732022392e-05,-3.504417032440532e-05,-0.00010356026892540987,0.000191406798604056,7.211270026925035e-05,0.0010085156458988402,0.00026561354901608286,-0.0001645931285127808,-0.0006268087221375927,0.4505855441093445,22.720483779907227,0.1253325641155243,-14.080232620239258,-0.1650901436805725,-2.1389803886413574,0.41324180364608765,0
40,0.19511008262634277,-0.4505855441093445,-22.720483779907227,-0.1253325641155243,14.080232620239258,0.1650901436805725,2.1389803886413574,-0.41324180364608765,0.0,0.0,0.0,0.0,0.0,0.0,0.0,-0.4353482990537186,0.09060957831994593,-0.20961865088545736,0.1730388170345066,-0.07129420361425762,-0.04561719697619456,-0.41202290129717273,1.6756341753131465,0.05209755595138775,0.029998123503045027,-2.752355417050813,0.03430925855896293,2.7663398182204,0.769198097517329,1.6754973547542302,0.052104326824870026,0.029969505109285054,-2.752394845125968,0.0342448039870148,2.7663679543071322,0.7691630533470046,0.00010356026892540987,-0.000191406798604056,-7.211270026925035e-05,-0.0010085156458988402,-0.00026561354901608286,0.0001645931285127808,0.0006268087221375927,0.0,0.0,0.0,0.0,0.0,0.0,0.0,-0.00013682055891628409,6.7708734822757854e-06,-2.861839375997363e-05,-3.942807515500135e-05,-6.445457194812626e-05,2.8136086732022392e-05,-3.504417032440532e-05,-0.00010356026892540987,0.000191406798604056,7.211270026925035e-05,0.0010085156458988402,0.00026561354901608286,-0.0001645931285127808,-0.0006268087221375927,0.4505855441093445,22.720483779907227,0.1253325641155243,-14.080232620239258,-0.1650901436805725,-2.1389803886413574,0.41324180364608765,0
41,0.19999289512634277,-0.4505855441093445,-22.720483779907227,-0.1253325641155243,14.080232620239258,0.1650901436805725,2.1389803886413574,-0.41324180364608765,0.0,0.0,0.0,0.0,0.0,0.0,0.0,-0.4353482990537186,0.09060957831994593,-0.20961865088545736,0.1730388170345066,-0.07129420361425762,-0.04561719697619456,-0.41202290129717273,1.6756341753131465,0.05209755595138775,0.029998123503045027,-2.752355417050813,0.03430925855896293,2.7663398182204,0.769198097517329,1.6754973547542302,0.052104326824870026,0.029969505109285054,-2.752394845125968,0.0342448039870148,2.7663679543071322,0.7691630533470046,0.00010356026892540987,-0.000191406798604056,-7.211270026925035e-05,-0.0010085156458988402,-0.00026561354901608286,0.0001645931285127808,0.0006268087221375927,0.0,0.0,0.0,0.0,0.0,0.0,0.0,-0.00013682055891628409,6.7708734822757854e-06,-2.861839375997363e-05,-3.942807515500135e-05,-6.445457194812626e-05,2.8136086732022392e-05,-3.504417032440532e-05,-0.00010356026892540987,0.000191406798604056,7.211270026925035e-05,0.0010085156458988402,0.00026561354901608286,-0.0001645931285127808,-0.0006268087221375927,0.4505855441093445,22.720483779907227,0.1253325641155243,-14.080232620239258,-0.1650901436805725,-2.1389803886413574,0.41324180364608765,0
42,0.20499372482299805,-0.4029781222343445,-22.748254776000977,-0.09756157547235489,14.008821487426758,0.1595969796180725,2.1453890800476074,-0.38577598333358765,0.0,0.0,0.0,0.0,0.0,0.0,0.0,-0.42518174957214433,0.0917516527917386,-0.20095595490843152,0.17135298170643273,-0.07289109829762512,-0.04607594203930292,-0.41057386286161224,1.675630834441436,0.05209974131492473,0.029996174661736735,-2.752350396585881,0.03430970967764053,2.7663391056590636,0.7691951680245425,1.6754973547542302,0.052104326824870026,0.029969505109285054,-2.752394845125968,0.0342448039870148,2.7663679543071322,0.7691630533470046,9.624508481577516e-05,0.00037287698643028117,-0.00011050686168038412,0.0013502316471709244,0.00013477891717578048,-0.00027021437493704377,-0.0007727981407218752,0.0,0.0,0.0,0.0,0.0,0.0,0.0,-0.00013347968720567316,4.585509945295718e-06,-2.6669552451681622e-05,-4.444854008722743e-05,-6.490569062572726e-05,2.8848648068624527e-05,-3.211467753783115e-05,-9.624508481577516e-05,-0.00037287698643028117,0.00011050686168038412,-0.0013502316471709244,-0.00013477891717578048,0.00027021437493704377,0.0007727981407218752,0.4029781222343445,22.748254776000977,0.09756157547235489,-14.008821487426758,-0.1595969796180725,-2.1453890800476074,0.38577598333358765,0
43,0.21001458168029785,-0.4029781222343445,-22.748254776000977,-0.09756157547235489,14.008821487426758,0.1595969796180725,2.1453890800476074,-0.38577598333358765,0.0,0.0,0.0,0.0,0.0,0.0,0.0,-0.42518174957214433,0.0917516527917386,-0.20095595490843152,0.17135298170643273,-0.07289109829762512,-0.04607594203930292,-0.41057386286161224,1.675630834441436,0.05209974131492473,0.029996174661736735,-2.752350396585881,0.03430970967764053,2.7663391056590636,0.7691951680245425,1.6754973547542302,0.052104326824870026,0.029969505109285054,-2.752394845125968,0.0342448039870148,2.7663679543071322,0.7691630533470046,9.624508481577516e-05,0.00037287698643028117,-0.00011050686168038412,0.0013502316471709244,0.00013477891717578048,-0.00027021437493704377,-0.0007727981407218752,0.0,0.0,0.0,0.0,0.0,0.0,0.0,-0.00013347968720567316,4.585509945295718e-06,-2.6669552451681622e-05,-4.444854008722743e-05,-6.490569062572726e-05,2.8848648068624527e-05,-3.211467753783115e-05,-9.624508481577516e-05,-0.00037287698643028117,0.00011050686168038412,-0.0013502316471709244,-0.00013477891717578048,0.00027021437493704377,0.0007727981407218752,0.4029781222343445,22.748254776000977,0.09756157547235489,-14.008821487426758,-0.1595969796180725,-2.1453890800476074,0.38577598333358765,0
44,0.215043306350708,-0.3752071261405945,-22.748254776000977,-0.09756157547235489,14.056428909301758,0.1595969796180725,2.1453890800476074,-0.41965049505233765,0.0,0.0,0.0,0.0,0.0,0.0,0.0,-0.4283036657851464,0.0852865991556778,-0.20643869922171681,0.17298666118737918,-0.07196250872012443,-0.04606236126677749,-0.4106679856663411,1.6756288855996049,0.05209949635889175,0.029996174625629302,-2.752353746501852,0.03430829155535289,2.766339105659061,0.7691989665835685,1.6754973547542302,0.052104326824870026,0.029969505109285054,-2.752394845125968,0.0342448039870148,2.7663679543071322,0.7691630533470046,-0.0008939552838366095,0.00032310404491760187,-0.0005567676578344222,-0.00010655118117455078,0.00014705906383676034,-0.00020512566186219533,1.4540681206201288e-05,0.0,0.0,0.0,0.0,0.0,0.0,0.0,-0.00013153084537464999,4.830465978274134e-06,-2.6669516344248606e-05,-4.1098624115942783e-05,-6.348756833809283e-05,2.8848648071289062e-05,-3.5913236563822615e-05,0.0008939552838366095,-0.00032310404491760187,0.0005567676578344222,0.00010655118117455078,-0.00014705906383676034,0.00020512566186219533,-1.4540681206201288e-05,0.3752071261405945,22.748254776000977,0.09756157547235489,-14.056428909301758,-0.1595969796180725,-2.1453890800476074,0.41965049505233765,0
45,0.22000575065612793,-0.3752071261405945,-22.748254776000977,-0.09756157547235489,14.056428909301758,0.1595969796180725,2.1453890800476074,-0.41965049505233765,0.0,0.0,0.0,0.0,0.0,0.0,0.0,-0.4283036657851464,0.0852865991556778,-0.20643869922171681,0.17298666118737918,-0.07196250872012443,-0.04606236126677749,-0.4106679856663411,1.6756288855996049,0.05209949635889175,0.029996174625629302,-2.752353746501852,0.03430829155535289,2.766339105659061,0.7691989665835685,1.6754973547542302,0.052104326824870026,0.029969505109285054,-2.752394845125968,0.0342448039870148,2.7663679543071322,0.7691630533470046,-0.0008939552838366095,0.00032310404491760187,-0.0005567676578344222,-0.00010655118117455078,0.00014705906383676034,-0.00020512566186219533,1.4540681206201288e-05,0.0,0.0,0.0,0.0,0.0,0.0,0.0,-0.00013153084537464999,4.830465978274134e-06,-2.6669516344248606e-05,-4.1098624115942783e-05,-6.348756833809283e-05,2.8848648071289062e-05,-3.5913236563822615e-05,0.0008939552838366095,-0.00032310404491760187,0.0005567676578344222,0.00010655118117455078,-0.00014705906383676034,0.00020512566186219533,-1.4540681206201288e-05,0.3752071261405945,22.748254776000977,0.09756157547235489,-14.056428909301758,-0.1595969796180725,-2.1453890800476074,0.41965049505233765,0
46,0.22504568099975586,-0.4029781222343445,-22.649072647094727,-0.1491362750530243,14.032625198364258,0.1531882882118225,2.1453890800476074,-0.42605918645858765,0.0,0.0,0.0,0.0,0.0,0.0,0.0,-0.4256378825714061,0.09164024243784413,-0.20564766072533439,0.16810305232920308,-0.07150828567224156,-0.04746352606319158,-0.4107805216770379,1.6756315496971732,0.05209253912770397,0.029999793613933193,-2.752352076179102,0.034309476403416785,2.766339105659061,0.7691986235446143,1.6754973547542302,0.052104326824870026,0.029969505109285054,-2.752394845125968,0.0342448039870148,2.7663679543071322,0.7691630533470046,-0.000526366853385438,-0.0009558330040671937,0.0008040486234239468,0.00021684789020206708,0.00023321043823378427,-0.0003514336935083929,0.0006724378933145089,0.0,0.0,0.0,0.0,0.0,0.0,0.0,-0.00013419494294297785,1.1787697166053268e-05,-3.0288504648139092e-05,-4.276894686627841e-05,-6.467241640198407e-05,2.8848648071289062e-05,-3.5570197609691157e-05,0.000526366853385438,0.0009558330040671937,-0.0008040486234239468,-0.00021684789020206708,-0.00023321043823378427,0.0003514336935083929,-0.0006724378933145089,0.4029781222343445,22.649072647094727,0.1491362750530243,-14.032625198364258,-0.1531882882118225,-2.1453890800476074,0.42605918645858765,0
47,0.2300279140472412,-0.4029781222343445,-22.649072647094727,-0.1491362750530243,14.032625198364258,0.1531882882118225,2.1453890800476074,-0.42605918645858765,0.0,0.0,0.0,0.0,0.0,0.0,0.0,-0.4256378825714061,0.09164024243784413,-0.20564766072533439,0.16810305232920308,-0.07150828567224156,-0.04746352606319158,-0.4107805216770379,1.6756315496971732,0.05209253912770397,0.029999793613933193,-2.752352076179102,0.034309476403416785,2.766339105659061,0.7691986235446143,1.6754973547542302,0.052104326824870026,0.029969505109285054,-2.752394845125968,0.0342448039870148,2.7663679543071322,0.7691630533470046,-0.000526366853385438,-0.0009558330040671937,0.0008040486234239468,0.00021684789020206708,0.00023321043823378427,-0.0003514336935083929,0.0006724378933145089,0.0,0.0,0.0,0.0,0.0,0.0,0.0,-0.00013419494294297785,1.1787697166053268e-05,-3.0288504648139092e-05,-4.276894686627841e-05,-6.467241640198407e-05,2.8848648071289062e-05,-3.5570197609691157e-05,0.000526366853385438,0.0009558330040671937,-0.0008040486234239468,-0.00021684789020206708,-0.00023321043823378427,0.0003514336935083929,-0.0006724378933145089,0.4029781222343445,22.649072647094727,0.1491362750530243,-14.032625198364258,-0.1531882882118225,-2.1453890800476074,0.42605918645858765,0
48,0.23499250411987305,-0.4505855441093445,-22.696680068969727,-0.1491362750530243,14.008821487426758,0.1595969796180725,2.1517977714538574,-0.41965049505233765,0.0,0.0,0.0,0.0,0.0,0.0,0.0,-0.42166303748027,0.09181193147491967,-0.20432838664409647,0.1718239217887663,-0.07186088001072993,-0.04745508474874788,-0.40989369412873955,1.675634175317184,0.05209587675543993,0.029999792963997764,-2.7523504057432473,0.03430656994340268,2.766338393582238,0.7691957876634204,1.6754973547542302,0.052104326824870026,0.029969505109285054,-2.752394845125968,0.0342448039870148,2.7663679543071322,0.7691630533470046,0.0008088006728902814,0.000761785612137537,0.0009626984897779813,0.0007823492362007385,-5.8263090920472134e-05,-0.00046060375532122204,0.0007480358402146111,0.0,0.0,0.0,0.0,0.0,0.0,0.0,-0.00013682056295372114,8.450069430093743e-06,-3.02878547127107e-05,-4.443938272080672e-05,-6.176595638787696e-05,2.9560724894128754e-05,-3.27343164158167e-05,-0.0008088006728902814,-0.000761785612137537,-0.0009626984897779813,-0.0007823492362007385,5.8263090920472134e-05,0.00046060375532122204,-0.0007480358402146111,0.4505855441093445,22.696680068969727,0.1491362750530243,-14.008821487426758,-0.1595969796180725,-2.1517977714538574,0.41965049505233765,0
49,0.24004650115966797,-0.4505855441093445,-22.696680068969727,-0.1491362750530243,14.008821487426758,0.1595969796180725,2.1517977714538574,-0.41965049505233765,0.0,0.0,0.0,0.0,0.0,0.0,0.0,-0.42166303748027,0.09181193147491967,-0.20432838664409647,0.1718239217887663,-0.07186088001072993,-0.04745508474874788,-0.40989369412873955,1.675634175317184,0.05209587675543993,0.029999792963997764,-2.7523504057432473,0.03430656994340268,2.766338393582238,0.7691957876634204,1.6754973547542302,0.052104326824870026,0.029969505109285054,-2.752394845125968,0.0342448039870148,2.7663679543071322,0.7691630533470046,0.0008088006728902814,0.000761785612137537,0.0009626984897779813,0.0007823492362007385,-5.8263090920472134e-05,-0.00046060375532122204,0.0007480358402146111,0.0,0.0,0.0,0.0,0.0,0.0,0.0,-0.00013682056295372114,8.450069430093743e-06,-3.02878547127107e-05,-4.443938272080672e-05,-6.176595638787696e-05,2.9560724894128754e-05,-3.27343164158167e-05,-0.0008088006728902814,-0.000761785612137537,-0.0009626984897779813,-0.0007823492362007385,5.8263090920472134e-05,0.00046060375532122204,-0.0007480358402146111,0.4505855441093445,22.696680068969727,0.1491362750530243,-14.008821487426758,-0.1595969796180725,-2.1517977714538574,0.41965049505233765,0
50,0.24500656127929688,-0.4029781222343445,-22.696680068969727,-0.1253325641155243,14.008821487426758,0.1595969796180725,2.1389803886413574,-0.37204307317733765,0.0,0.0,0.0,0.0,0.0,0.0,0.0,-0.42159560543495744,0.08907001634889451,-0.20417214253881918,0.1748508966550707,-0.07209086751882994,-0.046469296392868335,-0.409113582781363,1.675630834441436,0.05209587707982072,0.029995991395225373,-2.7523504057432473,0.03430832896621137,2.7663398177358838,0.7691936668389315,1.6754973547542302,0.052104326824870026,0.029969505109285054,-2.752394845125968,0.0342448039870148,2.7663679543071322,0.7691630533470046,-0.00038548813332147676,-0.00012038874335609895,0.0001823424407943792,0.0005067798913893525,-4.712517048457003e-05,-8.730269898705801e-05,-0.0012725296488713639,0.0,0.0,0.0,0.0,0.0,0.0,0.0,-0.00013347968720567316,8.449745049307622e-06,-2.648628594031921e-05,-4.443938272080672e-05,-6.352497919656641e-05,2.813657124844937e-05,-3.061349192690077e-05,0.00038548813332147676,0.00012038874335609895,-0.0001823424407943792,-0.0005067798913893525,4.712517048457003e-05,8.730269898705801e-05,0.0012725296488713639,0.4029781222343445,22.696680068969727,0.1253325641155243,-14.008821487426758,-0.1595969796180725,-2.1389803886413574,0.37204307317733765,0
51,0.24999666213989258,-0.4029781222343445,-22.696680068969727,-0.1253325641155243,14.008821487426758,0.1595969796180725,2.1389803886413574,-0.37204307317733765,0.0,0.0,0.0,0.0,0.0,0.0,0.0,-0.42159560543495744,0.08907001634889451,-0.20417214253881918,0.1748508966550707,-0.07209086751882994,-0.046469296392868335,-0.409113582781363,1.675630834441436,0.05209587707982072,0.029995991395225373,-2.7523504057432473,0.03430832896621137,2.7663398177358838,0.7691936668389315,1.6754973547542302,0.052104326824870026,0.029969505109285054,-2.752394845125968,0.0342448039870148,2.7663679543071322,0.7691630533470046,-0.00038548813332147676,-0.00012038874335609895,0.0001823424407943792,0.0005067798913893525,-4.712517048457003e-05,-8.730269898705801e-05,-0.0012725296488713639,0.0,0.0,0.0,0.0,0.0,0.0,0.0,-0.00013347968720567316,8.449745049307622e-06,-2.648628594031921e-05,-4.443938272080672e-05,-6.352497919656641e-05,2.813657124844937e-05,-3.061349192690077e-05,0.00038548813332147676,0.00012038874335609895,-0.0001823424407943792,-0.0005067798913893525,4.712517048457003e-05,8.730269898705801e-05,0.0012725296488713639,0.4029781222343445,22.696680068969727,0.1253325641155243,-14.008821487426758,-0.1595969796180725,-2.1389803886413574,0.37204307317733765,0
52,0.2549901008605957,-0.4267818331718445,-22.720483779907227,-0.09756157547235489,14.080232620239258,0.1595969796180725,2.1389803886413574,-0.40591758489608765,0.0,0.0,0.0,0.0,0.0,0.0,0.0,-0.4281024456146717,0.08808461338957405,-0.2106815101146808,0.17828064831252521,-0.07173772300360988,-0.046085897917892645,-0.40781347901023246,1.6756325048772913,0.05209786250720817,0.029996174649700925,-2.7523554170131286,0.03430869769094744,2.766340877374013,0.769197392899149,1.6754973547542302,0.052104326824870026,0.029969505109285054,-2.752394845125968,0.0342448039870148,2.7663679543071322,0.7691630533470046,-0.0005734517075619491,-0.0001379662870728674,-0.0010075112374291356,-0.0003794275567332891,0.00012492994901517585,-5.9310957380643356e-05,-0.0001216677721048351,0.0,0.0,0.0,0.0,0.0,0.0,0.0,-0.00013515012306108964,6.4643176618528475e-06,-2.6669540415871773e-05,-3.942811283952352e-05,-6.389370393263677e-05,2.707693311920778e-05,-3.4339552144380114e-05,0.0005734517075619491,0.0001379662870728674,0.0010075112374291356,0.0003794275567332891,-0.00012492994901517585,5.9310957380643356e-05,0.0001216677721048351,0.4267818331718445,22.720483779907227,0.09756157547235489,-14.080232620239258,-0.1595969796180725,-2.1389803886413574,0.40591758489608765,0
53,0.260042667388916,-0.4267818331718445,-22.720483779907227,-0.09756157547235489,14.080232620239258,0.1595969796180725,2.1389803886413574,-0.40591758489608765,0.0,0.0,0.0,0.0,0.0,0.0,0.0,-0.4281024456146717,0.08808461338957405,-0.2106815101146808,0.17828064831252521,-0.07173772300360988,-0.046085897917892645,-0.40781347901023246,1.6756325048772913,0.05209786250720817,0.029996174649700925,-2.7523554170131286,0.03430869769094744,2.766340877374013,0.769197392899149,1.6754973547542302,0.052104326824870026,0.029969505109285054,-2.752394845125968,0.0342448039870148,2.7663679543071322,0.7691630533470046,-0.0005734517075619491,-0.0001379662870728674,-0.0010075112374291356,-0.0003794275567332891,0.00012492994901517585,-5.9310957380643356e-05,-0.0001216677721048351,0.0,0.0,0.0,0.0,0.0,0.0,0.0,-0.00013515012306108964,6.4643176618528475e-06,-2.6669540415871773e-05,-3.942811283952352e-05,-6.389370393263677e-05,2.707693311920778e-05,-3.4339552144380114e-05,0.0005734517075619491,0.0001379662870728674,0.0010075112374291356,0.0003794275567332891,-0.00012492994901517585,5.9310957380643356e-05,0.0001216677721048351,0.4267818331718445,22.720483779907227,0.09756157547235489,-14.080232620239258,-0.1595969796180725,-2.1389803886413574,0.40591758489608765,0
54,0.26503944396972656,-0.4783565402030945,-22.720483779907227,-0.1491362750530243,14.032625198364258,0.1650901436805725,2.1389803886413574,-0.42605918645858765,0.0,0.0,0.0,0.0,0.0,0.0,0.0,-0.4228354371342647,0.09031048641117538,-0.2043615180488213,0.1729645274853064,-0.07264170260499538,-0.047439586692619114,-0.4060570649281338,1.6756361241549775,0.05209781384912065,0.029999793938900225,-2.752351993762803,0.03430816766147334,2.766339817741865,0.7691954402693059,1.6754973547542302,0.052104326824870026,0.029969505109285054,-2.752394845125968,0.0342448039870148,2.7663679543071322,0.7691630533470046,0.0010439899482962778,-0.0002905983723121602,0.000683739170808077,0.000655425550691143,-0.00015972533364528145,-8.486211784232009e-05,0.0008399883856190653,0.0,0.0,0.0,0.0,0.0,0.0,0.0,-0.00013876940074730726,6.512975749377314e-06,-3.0288829615171542e-05,-4.285136316495297e-05,-6.336367445854141e-05,2.8136565267011804e-05,-3.238692230123075e-05,-0.0010439899482962778,0.0002905983723121602,-0.000683739170808077,-0.000655425550691143,0.00015972533364528145,8.486211784232009e-05,-0.0008399883856190653,0.4783565402030945,22.720483779907227,0.1491362750530243,-14.032625198364258,-0.1650901436805725,-2.1389803886413574,0.42605918645858765,0
55,0.27001428604125977,-0.4783565402030945,-22.720483779907227,-0.1491362750530243,14.032625198364258,0.1650901436805725,2.1389803886413574,-0.42605918645858765,0.0,0.0,0.0,0.0,0.0,0.0,0.0,-0.4228354371342647,0.09031048641117538,-0.2043615180488213,0.1729645274853064,-0.07264170260499538,-0.047439586692619114,-0.4060570649281338,1.6756361241549775,0.05209781384912065,0.029999793938900225,-2.752351993762803,0.03430816766147334,2.766339817741865,0.7691954402693059,1.6754973547542302,0.052104326824870026,0.029969505109285054,-2.752394845125968,0.0342448039870148,2.7663679543071322,0.7691630533470046,0.0010439899482962778,-0.0002905983723121602,0.000683739170808077,0.000655425550691143,-0.00015972533364528145,-8.486211784232009e-05,0.0008399883856190653,0.0,0.0,0.0,0.0,0.0,0.0,0.0,-0.00013876940074730726,6.512975749377314e-06,-3.0288829615171542e-05,-4.285136316495297e-05,-6.336367445854141e-05,2.8136565267011804e-05,-3.238692230123075e-05,-0.0010439899482962778,0.0002905983723121602,-0.000683739170808077,-0.000655425550691143,0.00015972533364528145,8.486211784232009e-05,-0.0008399883856190653,0.4783565402030945,22.720483779907227,0.1491362750530243,-14.032625198364258,-0.1650901436805725,-2.1389803886413574,0.42605918645858765,0
56,0.275007963180542,-0.4505855441093445,-22.696680068969727,-0.09756157547235489,14.032625198364258,0.1650901436805725,2.1389803886413574,-0.41324180364608765,0.0,0.0,0.0,0.0,0.0,0.0,0.0,-0.4228266012967743,0.08987210776887554,-0.20286223677752507,0.17158413748858123,-0.07283844820728634,-0.04846650241198058,-0.40491383226929084,1.6756342018040997,0.05209801389822658,0.029996174661736735,-2.7523520761786373,0.034309217609384664,2.7663398177358838,0.7691971979134925,1.6754973547542302,0.052104326824870026,0.029969505109285054,-2.752394845125968,0.0342448039870148,2.7663679543071322,0.7691630533470046,0.0006543268264663596,-0.0004883364208173706,-0.0003537838671745113,0.0002752005483357841,-0.00026738416147955104,-4.6685019186910135e-05,-0.00039674143612926973,0.0,0.0,0.0,0.0,0.0,0.0,0.0,-0.00013684704986949292,6.312926643443906e-06,-2.6669552451681622e-05,-4.2768947330795726e-05,-6.441362236986325e-05,2.813657124844937e-05,-3.414456648787034e-05,-0.0006543268264663596,0.0004883364208173706,0.0003537838671745113,-0.0002752005483357841,0.00026738416147955104,4.6685019186910135e-05,0.00039674143612926973,0.4505855441093445,22.696680068969727,0.09756157547235489,-14.032625198364258,-0.1650901436805725,-2.1389803886413574,0.41324180364608765,0
57,0.27999353408813477,-0.4505855441093445,-22.696680068969727,-0.09756157547235489,14.032625198364258,0.1650901436805725,2.1389803886413574,-0.41324180364608765,0.0,0.0,0.0,0.0,0.0,0.0,0.0,-0.4228266012967743,0.08987210776887554,-0.20286223677752507,0.17158413748858123,-0.07283844820728634,-0.04846650241198058,-0.40491383226929084,1.6756342018040997,0.05209801389822658,0.029996174661736735,-2.7523520761786373,0.034309217609384664,2.7663398177358838,0.7691971979134925,1.6754973547542302,0.052104326824870026,0.029969505109285054,-2.752394845125968,0.0342448039870148,2.7663679543071322,0.7691630533470046,0.0006543268264663596,-0.0004883364208173706,-0.0003537838671745113,0.0002752005483357841,-0.00026738416147955104,-4.6685019186910135e-05,-0.00039674143612926973,0.0,0.0,0.0,0.0,0.0,0.0,0.0,-0.00013684704986949292,6.312926643443906e-06,-2.6669552451681622e-05,-4.2768947330795726e-05,-6.441362236986325e-05,2.813657124844937e-05,-3.414456648787034e-05,-0.0006543268264663596,0.0004883364208173706,0.0003537838671745113,-0.0002752005483357841,0.00026738416147955104,4.6685019186910135e-05,0.00039674143612926973,0.4505855441093445,22.696680068969727,0.09756157547235489,-14.032625198364258,-0.1650901436805725,-2.1389803886413574,0.41324180364608765,0
58,0.28499293327331543,-0.4029781222343445,-22.696680068969727,-0.1491362750530243,14.032625198364258,0.1650901436805725,2.1517977714538574,-0.45352500677108765,0.0,0.0,0.0,0.0,0.0,0.0,0.0,-0.4259041696275147,0.08720669457912522,-0.20264261629674082,0.1698770550594617,-0.07265756558172112,-0.04878088539020502,-0.4058997609801698,1.6756308344415853,0.05209659509523599,0.02999979393890029,-2.752352073126647,0.034309227188807426,2.766338393582238,0.7692027348807565,1.6754973547542302,0.052104326824870026,0.029969505109285054,-2.752394845125968,0.0342448039870148,2.7663679543071322,0.7691630533470046,-0.00037655248592153196,-0.00024702608575285096,0.0010444517422267775,-0.0003825527589534719,-2.2470977769740257e-06,-0.0003245753400749272,0.0018531047446191994,0.0,0.0,0.0,0.0,0.0,0.0,0.0,-0.00013347968735510918,7.73172963403762e-06,-3.028882961523746e-05,-4.277199932101183e-05,-6.442320179262523e-05,2.9560724894128754e-05,-3.968153375188965e-05,0.00037655248592153196,0.00024702608575285096,-0.0010444517422267775,0.0003825527589534719,2.2470977769740257e-06,0.0003245753400749272,-0.0018531047446191994,0.4029781222343445,22.696680068969727,0.1491362750530243,-14.032625198364258,-0.1650901436805725,-2.1517977714538574,0.45352500677108765,0
59,0.289989709854126,-0.4029781222343445,-22.696680068969727,-0.1491362750530243,14.032625198364258,0.1650901436805725,2.1517977714538574,-0.45352500677108765,0.0,0.0,0.0,0.0,0.0,0.0,0.0,-0.4259041696275147,0.08720669457912522,-0.20264261629674082,0.1698770550594617,-0.07265756558172112,-0.04878088539020502,-0.4058997609801698,1.6756308344415853,0.05209659509523599,0.02999979393890029,-2.752352073126647,0.034309227188807426,2.766338393582238,0.7692027348807565,1.6754973547542302,0.052104326824870026,0.029969505109285054,-2.752394845125968,0.0342448039870148,2.7663679543071322,0.7691630533470046,-0.00037655248592153196,-0.00024702608575285096,0.0010444517422267775,-0.0003825527589534719,-2.2470977769740257e-06,-0.0003245753400749272,0.0018531047446191994,0.0,0.0,0.0,0.0,0.0,0.0,0.0,-0.00013347968735510918,7.73172963403762e-06,-3.028882961523746e-05,-4.277199932101183e-05,-6.442320179262523e-05,2.9560724894128754e-05,-3.968153375188965e-05,0.00037655248592153196,0.00024702608575285096,-0.0010444517422267775,0.0003825527589534719,2.2470977769740257e-06,0.0003245753400749272,-0.0018531047446191994,0.4029781222343445,22.696680068969727,0.1491362750530243,-14.032625198364258,-0.1650901436805725,-2.1517977714538574,0.45352500677108765,0
60,0.2951812744140625,-0.4267818331718445,-22.672876358032227,-0.09756157547235489,13.957246780395508,0.1714988350868225,2.1261630058288574,-0.42605918645858765,0.0,0.0,0.0,0.0,0.0,0.0,0.0,-0.4244519246378983,0.09034006237110186,-0.2011552471230047,0.17143644749197015,-0.07178405036130578,-0.04770480040921321,-0.4064740305550717,1.6756325048772913,0.05209432051210614,0.029996174661736735,-2.752346786465544,0.03430820475769522,2.76634124188953,0.7691996831827689,1.6754973547542302,0.052104326824870026,0.029969505109285054,-2.752394845125968,0.0342448039870148,2.7663679543071322,0.7691630533470046,0.00035343623185875403,-8.183631006144749e-06,-0.0002614856897292823,0.0022094868538678632,-0.00038879877242221716,0.00036292411099248016,0.0012384741520875021,0.0,0.0,0.0,0.0,0.0,0.0,0.0,-0.00013515012306108964,1.000631276388414e-05,-2.6669552451681622e-05,-4.805866042412177e-05,-6.340077068042044e-05,2.67124176023259e-05,-3.662983576424583e-05,-0.00035343623185875403,8.183631006144749e-06,0.0002614856897292823,-0.0022094868538678632,0.00038879877242221716,-0.00036292411099248016,-0.0012384741520875021,0.4267818331718445,22.672876358032227,0.09756157547235489,-13.957246780395508,-0.1714988350868225,-2.1261630058288574,0.42605918645858765,0
61,0.30007052421569824,-0.4267818331718445,-22.672876358032227,-0.09756157547235489,13.957246780395508,0.1714988350868225,2.1261630058288574,-0.42605918645858765,0.0,0.0,0.0,0.0,0.0,0.0,0.0,-0.4244519246378983,0.09034006237110186,-0.2011552471230047,0.17143644749197015,-0.07178405036130578,-0.04770480040921321,-0.4064740305550717,1.6756325048772913,0.05209432051210614,0.029996174661736735,-2.752346786465544,0.03430820475769522,2.76634124188953,0.7691996831827689,1.6754973547542302,0.052104326824870026,0.029969505109285054,-2.752394845125968,0.0342448039870148,2.7663679543071322,0.7691630533470046,0.00035343623185875403,-8.183631006144749e-06,-0.0002614856897292823,0.0022094868538678632,-0.00038879877242221716,0.00036292411099248016,0.0012384741520875021,0.0,0.0,0.0,0.0,0.0,0.0,0.0,-0.00013515012306108964,1.000631276388414e-05,-2.6669552451681622e-05,-4.805866042412177e-05,-6.340077068042044e-05,2.67124176023259e-05,-3.662983576424583e-05,-0.00035343623185875403,8.183631006144749e-06,0.0002614856897292823,-0.0022094868538678632,0.00038879877242221716,-0.00036292411099248016,-0.0012384741520875021,0.4267818331718445,22.672876358032227,0.09756157547235489,-13.957246780395508,-0.1714988350868225,-2.1261630058288574,0.42605918645858765,0
62,0.30501532554626465,-0.4267818331718445,-22.672876358032227,-0.09756157547235489,14.032625198364258,0.1714988350868225,2.1389803886413574,-0.43338340520858765,0.0,0.0,0.0,0.0,0.0,0.0,0.0,-0.4225471910123141,0.08945417056444348,-0.20066812674496864,0.17387606300697464,-0.07135569334417699,-0.047396654931691255,-0.4060411119446103,1.67563250491363,0.052094215187119826,0.029996174661736735,-2.7523520761791023,0.03430842218788128,2.7663398308178357,0.7691969648577549,1.6754973547542302,0.052104326824870026,0.029969505109285054,-2.752394845125968,0.0342448039870148,2.7663679543071322,0.7691630533470046,0.00021208550807093237,-0.0007059234687263033,-0.00039551207978874196,0.0005809257083445236,-0.0006131570526848458,0.00939271827997301,0.0016903152932144997,0.0,0.0,0.0,0.0,0.0,0.0,0.0,-0.00013515015939979946,1.011163775020002e-05,-2.6669552451681622e-05,-4.276894686583432e-05,-6.361820086647763e-05,2.812348929648323e-05,-3.391151075027299e-05,-0.00021208550807093237,0.0007059234687263033,0.00039551207978874196,-0.0005809257083445236,0.0006131570526848458,-0.00939271827997301,-0.0016903152932144997,0.4267818331718445,22.672876358032227,0.09756157547235489,-14.032625198364258,-0.1714988350868225,-2.1389803886413574,0.43338340520858765,0
63,0.3100435733795166,-0.4267818331718445,-22.672876358032227,-0.09756157547235489,14.032625198364258,0.1714988350868225,2.1389803886413574,-0.43338340520858765,0.0,0.0,0.0,0.0,0.0,0.0,0.0,-0.4225471910123141,0.08945417056444348,-0.20066812674496864,0.17387606300697464,-0.07135569334417699,-0.047396654931691255,-0.4060411119446103,1.67563250491363,0.052094215187119826,0.029996174661736735,-2.7523520761791023,0.03430842218788128,2.7663398308178357,0.7691969648577549,1.6754973547542302,0.052104326824870026,0.029969505109285054,-2.752394845125968,0.0342448039870148,2.7663679543071322,0.7691630533470046,0.00021208550807093237,-0.0007059234687263033,-0.00039551207978874196,0.0005809257083445236,-0.0006131570526848458,0.00939271827997301,0.0016903152932144997,0.0,0.0,0.0,0.0,0.0,0.0,0.0,-0.00013515015939979946,1.011163775020002e-05,-2.6669552451681622e-05,-4.276894686583432e-05,-6.361820086647763e-05,2.812348929648323e-05,-3.391151075027299e-05,-0.00021208550807093237,0.0007059234687263033,0.00039551207978874196,-0.0005809257083445236,0.0006131570526848458,-0.00939271827997301,-0.0016903152932144997,0.4267818331718445,22.672876358032227,0.09756157547235489,-14.032625198364258,-0.1714988350868225,-2.1389803886413574,0.43338340520858765,0
64,0.3150444030761719,-0.4029781222343445,-22.748254776000977,-0.1253325641155243,14.056428909301758,0.1650901436805725,2.1453890800476074,-0.41965049505233765,0.0,0.0,0.0,0.0,0.0,0.0,0.0,-0.4245925676439105,0.09562840919157073,-0.2002072196628229,0.1649714817152828,-0.07165832406816124,-0.04942370515089287,-0.40442331214134514,1.6756308373848752,0.0521017032446643,0.029998123503045027,-2.752353746501904,0.03430607334348479,2.7663391056591347,0.7691979109633613,1.6754973547542302,0.052104326824870026,0.029969505109285054,-2.752394845125968,0.0342448039870148,2.7663679543071322,0.7691630533470046,-0.0004463715687109082,0.0006317260548490866,4.431080779585696e-05,-0.0002961079849234334,-0.0001598233303893484,0.00020408152293195167,0.0007760838781326571,0.0,0.0,0.0,0.0,0.0,0.0,0.0,-0.00013348263064494326,2.623580205723952e-06,-2.861839375997363e-05,-4.1098624063984346e-05,-6.126935646998816e-05,2.8848647997570254e-05,-3.485761635668716e-05,0.0004463715687109082,-0.0006317260548490866,-4.431080779585696e-05,0.0002961079849234334,0.0001598233303893484,-0.00020408152293195167,-0.0007760838781326571,0.4029781222343445,22.748254776000977,0.1253325641155243,-14.056428909301758,-0.1650901436805725,-2.1453890800476074,0.41965049505233765,0
65,0.319993257522583,-0.4029781222343445,-22.748254776000977,-0.1253325641155243,14.056428909301758,0.1650901436805725,2.1453890800476074,-0.41965049505233765,0.0,0.0,0.0,0.0,0.0,0.0,0.0,-0.4245925676439105,0.09562840919157073,-0.2002072196628229,0.1649714817152828,-0.07165832406816124,-0.04942370515089287,-0.40442331214134514,1.6756308373848752,0.0521017032446643,0.029998123503045027,-2.752353746501904,0.03430607334348479,2.7663391056591347,0.7691979109633613,1.6754973547542302,0.052104326824870026,0.029969505109285054,-2.752394845125968,0.0342448039870148,2.7663679543071322,0.7691630533470046,-0.0004463715687109082,0.0006317260548490866,4.431080779585696e-05,-0.0002961079849234334,-0.0001598233303893484,0.00020408152293195167,0.0007760838781326571,0.0,0.0,0.0,0.0,0.0,0.0,0.0,-0.00013348263064494326,2.623580205723952e-06,-2.861839375997363e-05,-4.1098624063984346e-05,-6.126935646998816e-05,2.8848647997570254e-05,-3.485761635668716e-05,0.0004463715687109082,-0.0006317260548490866,-4.431080779585696e-05,0.0002961079849234334,0.0001598233303893484,-0.00020408152293195167,-0.0007760838781326571,0.4029781222343445,22.748254776000977,0.1253325641155243,-14.056428909301758,-0.1650901436805725,-2.1453890800476074,0.41965049505233765,0
66,0.3249979019165039,-0.4267818331718445,-22.720483779907227,-0.1491362750530243,14.008821487426758,0.1714988350868225,2.1325716972351074,-0.42605918645858765,0.0,0.0,0.0,0.0,0.0,0.0,0.0,-0.4218680071457461,0.0852560397702067,-0.1964276329418408,0.1738986403157615,-0.07202298249529716,-0.0465569238871471,-0.40425870877024206,1.675632504877341,0.0520975472286562,0.029999083236295576,-2.7523481774507186,0.03430535942838417,2.766340529812707,0.7691965042504276,1.6754973547542302,0.052104326824870026,0.029969505109285054,-2.752394845125968,0.0342448039870148,2.7663679543071322,0.7691630533470046,4.637604878589726e-05,-0.00043954216174574415,0.0012358980449396315,0.0010793512908060564,-0.0003561285691660024,0.00022494622947244315,0.0006164953487703631,0.0,0.0,0.0,0.0,0.0,0.0,0.0,-0.00013515012311082764,6.779596213826733e-06,-2.957812701052248e-05,-4.66676752495232e-05,-6.055544136936847e-05,2.742449442516559e-05,-3.3450903422993505e-05,-4.637604878589726e-05,0.00043954216174574415,-0.0012358980449396315,-0.0010793512908060564,0.0003561285691660024,-0.00022494622947244315,-0.0006164953487703631,0.4267818331718445,22.720483779907227,0.1491362750530243,-14.008821487426758,-0.1714988350868225,-2.1325716972351074,0.42605918645858765,0
67,0.3300051689147949,-0.4267818331718445,-22.720483779907227,-0.1491362750530243,14.008821487426758,0.1714988350868225,2.1325716972351074,-0.42605918645858765,0.0,0.0,0.0,0.0,0.0,0.0,0.0,-0.4218680071457461,0.0852560397702067,-0.1964276329418408,0.1738986403157615,-0.07202298249529716,-0.0465569238871471,-0.40425870877024206,1.675632504877341,0.0520975472286562,0.029999083236295576,-2.7523481774507186,0.03430535942838417,2.766340529812707,0.7691965042504276,1.6754973547542302,0.052104326824870026,0.029969505109285054,-2.752394845125968,0.0342448039870148,2.7663679543071322,0.7691630533470046,4.637604878589726e-05,-0.00043954216174574415,0.0012358980449396315,0.0010793512908060564,-0.0003561285691660024,0.00022494622947244315,0.0006164953487703631,0.0,0.0,0.0,0.0,0.0,0.0,0.0,-0.00013515012311082764,6.779596213826733e-06,-2.957812701052248e-05,-4.66676752495232e-05,-6.055544136936847e-05,2.742449442516559e-05,-3.3450903422993505e-05,-4.637604878589726e-05,0.00043954216174574415,-0.0012358980449396315,-0.0010793512908060564,0.0003561285691660024,-0.00022494622947244315,-0.0006164953487703631,0.4267818331718445,22.720483779907227,0.1491362750530243,-14.008821487426758,-0.1714988350868225,-2.1325716972351074,0.42605918645858765,0
68,0.3350224494934082,-0.4783565402030945,-22.748254776000977,-0.07375786453485489,14.056428909301758,0.1595969796180725,2.1389803886413574,-0.42605918645858765,0.0,0.0,0.0,0.0,0.0,0.0,0.0,-0.43286779133726483,0.08585981306902815,-0.2073123362202626,0.1709972810182113,-0.07074721387455638,-0.04692960458644915,-0.405438590516176,1.6756361241549775,0.05210189013454292,0.029994267321001297,-2.7523537466023793,0.03430844893302186,2.7663366388214956,0.7691996439189674,1.6754973547542302,0.052104326824870026,0.029969505109285054,-2.752394845125968,0.0342448039870148,2.7663679543071322,0.7691630533470046,0.0003360340025082073,0.0007607780845934943,-0.0017570589430879913,-0.0002916658291254556,-6.727177838188938e-05,-4.412844036527152e-06,0.0008440012963445757,0.0,0.0,0.0,0.0,0.0,0.0,0.0,-0.00013876940074730726,2.436690327102531e-06,-2.476221171624285e-05,-4.109852358880062e-05,-6.3644946007059e-05,3.1315485636618234e-05,-3.6590571962813456e-05,-0.0003360340025082073,-0.0007607780845934943,0.0017570589430879913,0.0002916658291254556,6.727177838188938e-05,4.412844036527152e-06,-0.0008440012963445757,0.4783565402030945,22.748254776000977,0.07375786453485489,-14.056428909301758,-0.1595969796180725,-2.1389803886413574,0.42605918645858765,0
69,0.3400275707244873,-0.4783565402030945,-22.748254776000977,-0.07375786453485489,14.056428909301758,0.1595969796180725,2.1389803886413574,-0.42605918645858765,0.0,0.0,0.0,0.0,0.0,0.0,0.0,-0.43286779133726483,0.08585981306902815,-0.2073123362202626,0.1709972810182113,-0.07074721387455638,-0.04692960458644915,-0.405438590516176,1.6756361241549775,0.05210189013454292,0.029994267321001297,-2.7523537466023793,0.03430844893302186,2.7663366388214956,0.7691996439189674,1.6754973547542302,0.052104326824870026,0.029969505109285054,-2.752394845125968,0.0342448039870148,2.7663679543071322,0.7691630533470046,0.0003360340025082073,0.0007607780845934943,-0.0017570589430879913,-0.0002916658291254556,-6.727177838188938e-05,-4.412844036527152e-06,0.0008440012963445757,0.0,0.0,0.0,0.0,0.0,0.0,0.0,-0.00013876940074730726,2.436690327102531e-06,-2.476221171624285e-05,-4.109852358880062e-05,-6.3644946007059e-05,3.1315485636618234e-05,-3.6590571962813456e-05,-0.0003360340025082073,-0.0007607780845934943,0.0017570589430879913,0.0002916658291254556,6.727177838188938e-05,4.412844036527152e-06,-0.0008440012963445757,0.4783565402030945,22.748254776000977,0.07375786453485489,-14.056428909301758,-0.1595969796180725,-2.1389803886413574,0.42605918645858765,0
70,0.3450312614440918,-0.4783565402030945,-22.748254776000977,-0.07375786453485489,14.056428909301758,0.1595969796180725,2.1389803886413574,-0.42605918645858765,0.0,0.0,0.0,0.0,0.0,0.0,0.0,-0.43286779133726483,0.08585981306902815,-0.2073123362202626,0.1709972810182113,-0.07074721387455638,-0.04692960458644915,-0.405438590516176,1.6756361241549775,0.05210189013454292,0.029994267321001297,-2.7523537466023793,0.03430844893302186,2.7663366388214956,0.7691996439189674,1.6754973547542302,0.052104326824870026,0.029969505109285054,-2.752394845125968,0.0342448039870148,2.7663679543071322,0.7691630533470046,0.0003360340025082073,0.0007607780845934943,-0.0017570589430879913,-0.0002916658291254556,-6.727177838188938e-05,-4.412844036527152e-06,0.0008440012963445757,0.0,0.0,0.0,0.0,0.0,0.0,0.0,-0.00013876940074730726,2.436690327102531e-06,-2.476221171624285e-05,-4.109852358880062e-05,-6.3644946007059e-05,3.1315485636618234e-05,-3.6590571962813456e-05,-0.0003360340025082073,-0.0007607780845934943,0.0017570589430879913,0.0002916658291254556,6.727177838188938e-05,4.412844036527152e-06,-0.0008440012963445757,0.4783565402030945,22.748254776000977,0.07375786453485489,-14.056428909301758,-0.1595969796180725,-2.1389803886413574,0.42605918645858765,0
71,0.35002613067626953,-0.4783565402030945,-22.748254776000977,-0.07375786453485489,14.056428909301758,0.1595969796180725,2.1389803886413574,-0.42605918645858765,0.0,0.0,0.0,0.0,0.0,0.0,0.0,-0.43286779133726483,0.08585981306902815,-0.2073123362202626,0.1709972810182113,-0.07074721387455638,-0.04692960458644915,-0.405438590516176,1.6756361241549775,0.05210189013454292,0.029994267321001297,-2.7523537466023793,0.03430844893302186,2.7663366388214956,0.7691996439189674,1.6754973547542302,0.052104326824870026,0.029969505109285054,-2.752394845125968,0.0342448039870148,2.7663679543071322,0.7691630533470046,0.0003360340025082073,0.0007607780845934943,-0.0017570589430879913,-0.0002916658291254556,-6.727177838188938e-05,-4.412844036527152e-06,0.0008440012963445757,0.0,0.0,0.0,0.0,0.0,0.0,0.0,-0.00013876940074730726,2.436690327102531e-06,-2.476221171624285e-05,-4.109852358880062e-05,-6.3644946007059e-05,3.1315485636618234e-05,-3.6590571962813456e-05,-0.0003360340025082073,-0.0007607780845934943,0.0017570589430879913,0.0002916658291254556,6.727177838188938e-05,4.412844036527152e-06,-0.0008440012963445757,0.4783565402030945,22.748254776000977,0.07375786453485489,-14.056428909301758,-0.1595969796180725,-2.1389803886413574,0.42605918645858765,0
72,0.3550422191619873,-0.4783565402030945,-22.720483779907227,-0.1491362750530243,14.056428909301758,0.1595969796180725,2.1261630058288574,-0.42605918645858765,0.0,0.0,0.0,0.0,0.0,0.0,0.0,-0.4336221789235081,0.08299449582161815,-0.20618243548805787,0.16925496425346168,-0.07173403465723231,-0.0474357940646534,-0.40643072472901376,1.6756361241549775,0.052097555954557624,0.029999793938454516,-2.7523537466149577,0.034308698436214466,2.766341241883548,0.7691965042683074,1.6754973547542302,0.052104326824870026,0.029969505109285054,-2.752394845125968,0.0342448039870148,2.7663679543071322,0.7691630533470046,0.0005790129542762771,0.00031862547218722016,-0.00023519164478337385,-0.0002090246819018192,0.0001307532508585107,0.0002949296361269438,0.0007029760394869294,0.0,0.0,0.0,0.0,0.0,0.0,0.0,-0.00013876940074730726,6.7708703124017e-06,-3.02888291694621e-05,-4.109851101041784e-05,-6.389444919966542e-05,2.6712423584207556e-05,-3.345092130280225e-05,-0.0005790129542762771,-0.00031862547218722016,0.00023519164478337385,0.0002090246819018192,-0.0001307532508585107,-0.0002949296361269438,-0.0007029760394869294,0.4783565402030945,22.720483779907227,0.1491362750530243,-14.056428909301758,-0.1595969796180725,-2.1261630058288574,0.42605918645858765,0
73,0.3600199222564697,-0.4783565402030945,-22.720483779907227,-0.1491362750530243,14.056428909301758,0.1595969796180725,2.1261630058288574,-0.42605918645858765,0.0,0.0,0.0,0.0,0.0,0.0,0.0,-0.4336221789235081,0.08299449582161815,-0.20618243548805787,0.16925496425346168,-0.07173403465723231,-0.0474357940646534,-0.40643072472901376,1.6756361241549775,0.052097555954557624,0.029999793938454516,-2.7523537466149577,0.034308698436214466,2.766341241883548,0.7691965042683074,1.6754973547542302,0.052104326824870026,0.029969505109285054,-2.752394845125968,0.0342448039870148,2.7663679543071322,0.7691630533470046,0.0005790129542762771,0.00031862547218722016,-0.00023519164478337385,-0.0002090246819018192,0.0001307532508585107,0.0002949296361269438,0.0007029760394869294,0.0,0.0,0.0,0.0,0.0,0.0,0.0,-0.00013876940074730726,6.7708703124017e-06,-3.02888291694621e-05,-4.109851101041784e-05,-6.389444919966542e-05,2.6712423584207556e-05,-3.345092130280225e-05,-0.0005790129542762771,-0.00031862547218722016,0.00023519164478337385,0.0002090246819018192,-0.0001307532508585107,-0.0002949296361269438,-0.0007029760394869294,0.4783565402030945,22.720483779907227,0.1491362750530243,-14.056428909301758,-0.1595969796180725,-2.1261630058288574,0.42605918645858765,0
74,0.3649923801422119,-0.4783565402030945,-22.720483779907227,-0.1491362750530243,14.056428909301758,0.1595969796180725,2.1261630058288574,-0.42605918645858765,0.0,0.0,0.0,0.0,0.0,0.0,0.0,-0.4336221789235081,0.08299449582161815,-0.20618243548805787,0.16925496425346168,-0.07173403465723231,-0.0474357940646534,-0.40643072472901376,1.6756361241549775,0.052097555954557624,0.029999793938454516,-2.7523537466149577,0.034308698436214466,2.766341241883548,0.7691965042683074,1.6754973547542302,0.052104326824870026,0.029969505109285054,-2.752394845125968,0.0342448039870148,2.7663679543071322,0.7691630533470046,0.0005790129542762771,0.00031862547218722016,-0.00023519164478337385,-0.0002090246819018192,0.0001307532508585107,0.0002949296361269438,0.0007029760394869294,0.0,0.0,0.0,0.0,0.0,0.0,0.0,-0.00013876940074730726,6.7708703124017e-06,-3.02888291694621e-05,-4.109851101041784e-05,-6.389444919966542e-05,2.6712423584207556e-05,-3.345092130280225e-05,-0.0005790129542762771,-0.00031862547218722016,0.00023519164478337385,0.0002090246819018192,-0.0001307532508585107,-0.0002949296361269438,-0.0007029760394869294,0.4783565402030945,22.720483779907227,0.1491362750530243,-14.056428909301758,-0.1595969796180725,-2.1261630058288574,0.42605918645858765,0
75,0.3699963092803955,-0.4267818331718445,-22.696680068969727,-0.1491362750530243,14.032625198364258,0.1595969796180725,2.1389803886413574,-0.46084922552108765,0.0,0.0,0.0,0.0,0.0,0.0,0.0,-0.43935633107488503,0.0809816385975986,-0.21007589383948722,0.17197508886390564,-0.07143313568830173,-0.04801560923988927,-0.40640286137226544,1.6756325048772913,0.052096116198054467,0.02999979393890029,-2.7523520761791023,0.03430561778585738,2.7663398177358833,0.76920354872472,1.6754973547542302,0.052104326824870026,0.029969505109285054,-2.752394845125968,0.0342448039870148,2.7663679543071322,0.7691630533470046,-0.0007224261357533579,-9.302695029856286e-05,0.0001629317695523579,0.0003010487569394007,4.774387019765541e-05,-5.1389892370340855e-05,0.002058851221441529,0.0,0.0,0.0,0.0,0.0,0.0,0.0,-0.00013515012306108964,8.210626815559341e-06,-3.028882961523746e-05,-4.276894686583432e-05,-6.08137988425822e-05,2.813657124889346e-05,-4.0495377715332737e-05,0.0007224261357533579,9.302695029856286e-05,-0.0001629317695523579,-0.0003010487569394007,-4.774387019765541e-05,5.1389892370340855e-05,-0.002058851221441529,0.4267818331718445,22.696680068969727,0.1491362750530243,-14.032625198364258,-0.1595969796180725,-2.1389803886413574,0.46084922552108765,0
76,0.37499403953552246,-0.4267818331718445,-22.696680068969727,-0.1491362750530243,14.032625198364258,0.1595969796180725,2.1389803886413574,-0.46084922552108765,0.0,0.0,0.0,0.0,0.0,0.0,0.0,-0.43935633107488503,0.0809816385975986,-0.21007589383948722,0.17197508886390564,-0.07143313568830173,-0.04801560923988927,-0.40640286137226544,1.6756325048772913,0.052096116198054467,0.02999979393890029,-2.7523520761791023,0.03430561778585738,2.7663398177358833,0.76920354872472,1.6754973547542302,0.052104326824870026,0.029969505109285054,-2.752394845125968,0.0342448039870148,2.7663679543071322,0.7691630533470046,-0.0007224261357533579,-9.302695029856286e-05,0.0001629317695523579,0.0003010487569394007,4.774387019765541e-05,-5.1389892370340855e-05,0.002058851221441529,0.0,0.0,0.0,0.0,0.0,0.0,0.0,-0.00013515012306108964,8.210626815559341e-06,-3.028882961523746e-05,-4.276894686583432e-05,-6.08137988425822e-05,2.813657124889346e-05,-4.0495377715332737e-05,0.0007224261357533579,9.302695029856286e-05,-0.0001629317695523579,-0.0003010487569394007,-4.774387019765541e-05,5.1389892370340855e-05,-0.002058851221441529,0.4267818331718445,22.696680068969727,0.1491362750530243,-14.032625198364258,-0.1595969796180725,-2.1389803886413574,0.46084922552108765,0
77,0.380185604095459,-0.4029781222343445,-22.748254776000977,-0.1253325641155243,13.981050491333008,0.1531882882118225,2.1325716972351074,-0.43338340520858765,0.0,0.0,0.0,0.0,0.0,0.0,0.0,-0.43567154175257594,0.08358276235931704,-0.20930607453776465,0.1702488262762291,-0.07146243230760434,-0.047997811995573444,-0.40665654158098447,1.675630834441436,0.05209949646699182,0.029998123503045027,-2.752348456901416,0.03431023918499537,2.7663405298127066,0.7691990434346065,1.6754973547542302,0.052104326824870026,0.029969505109285054,-2.752394845125968,0.0342448039870148,2.7663679543071322,0.7691630533470046,-0.00034626382382641613,0.0007467625033398464,0.000417434514197943,0.001284758961640511,0.00035794358073772657,0.00025119958304191446,0.0013615194263874176,0.0,0.0,0.0,0.0,0.0,0.0,0.0,-0.00013347968720567316,4.830357878203573e-06,-2.861839375997363e-05,-4.638822455227398e-05,-6.543519798057201e-05,2.742449442560968e-05,-3.599008760191147e-05,0.00034626382382641613,-0.0007467625033398464,-0.000417434514197943,-0.001284758961640511,-0.00035794358073772657,-0.00025119958304191446,-0.0013615194263874176,0.4029781222343445,22.748254776000977,0.1253325641155243,-13.981050491333008,-0.1531882882118225,-2.1325716972351074,0.43338340520858765,0
78,0.3849930763244629,-0.4029781222343445,-22.748254776000977,-0.1253325641155243,13.981050491333008,0.1531882882118225,2.1325716972351074,-0.43338340520858765,0.0,0.0,0.0,0.0,0.0,0.0,0.0,-0.43567154175257594,0.08358276235931704,-0.20930607453776465,0.1702488262762291,-0.07146243230760434,-0.047997811995573444,-0.40665654158098447,1.675630834441436,0.05209949646699182,0.029998123503045027,-2.752348456901416,0.03431023918499537,2.7663405298127066,0.7691990434346065,1.6754973547542302,0.052104326824870026,0.029969505109285054,-2.752394845125968,0.0342448039870148,2.7663679543071322,0.7691630533470046,-0.00034626382382641613,0.0007467625033398464,0.000417434514197943,0.001284758961640511,0.00035794358073772657,0.00025119958304191446,0.0013615194263874176,0.0,0.0,0.0,0.0,0.0,0.0,0.0,-0.00013347968720567316,4.830357878203573e-06,-2.861839375997363e-05,-4.638822455227398e-05,-6.543519798057201e-05,2.742449442560968e-05,-3.599008760191147e-05,0.00034626382382641613,-0.0007467625033398464,-0.000417434514197943,-0.001284758961640511,-0.00035794358073772657,-0.00025119958304191446,-0.0013615194263874176,0.4029781222343445,22.748254776000977,0.1253325641155243,-13.981050491333008,-0.1531882882118225,-2.1325716972351074,0.43338340520858765,0
79,0.39000535011291504,-0.4267818331718445,-22.696680068969727,-0.04995415359735489,14.032625198364258,0.1476951241493225,2.1389803886413574,-0.37845176458358765,0.0,0.0,0.0,0.0,0.0,0.0,0.0,-0.4332898922696494,0.09090146538034888,-0.2098526996826644,0.16453327273133592,-0.0714818975426819,-0.04859728026344107,-0.40597856880761496,1.6756325048772913,0.05209590303175642,0.02999283379002621,-2.752352067021736,0.03431120447710065,2.7663398177358833,0.7691933294458315,1.6754973547542302,0.052104326824870026,0.029969505109285054,-2.752394845125968,0.0342448039870148,2.7663679543071322,0.7691630533470046,0.0004100129643499762,9.166880009256081e-05,-0.0008323213000015266,-0.0003165892653135804,0.00045598526380736084,5.7440272824679426e-05,-0.0004787206306209341,0.0,0.0,0.0,0.0,0.0,0.0,0.0,-0.00013515012306108964,8.423793113603029e-06,-2.332868074115743e-05,-4.277810423225503e-05,-6.640049008584809e-05,2.813657124889346e-05,-3.0276098826886866e-05,-0.0004100129643499762,-9.166880009256081e-05,0.0008323213000015266,0.0003165892653135804,-0.00045598526380736084,-5.7440272824679426e-05,0.0004787206306209341,0.4267818331718445,22.696680068969727,0.04995415359735489,-14.032625198364258,-0.1476951241493225,-2.1389803886413574,0.37845176458358765,0
