rezayati/contactInterpretation/dataset/franka_main/labeled_data/link6/b13_5.csv
index,time,tau_J0,tau_J1,tau_J2,tau_J3,tau_J4,tau_J5,tau_J6,tau_J_d0,tau_J_d1,tau_J_d2,tau_J_d3,tau_J_d4,tau_J_d5,tau_J_d6,tau_ext0,tau_ext1,tau_ext2,tau_ext3,tau_ext4,tau_ext5,tau_ext6,q0,q1,q2,q3,q4,q5,q6,q_d0,q_d1,q_d2,q_d3,q_d4,q_d5,q_d6,dq0,dq1,dq2,dq3,dq4,dq5,dq6,dq_d0,dq_d1,dq_d2,dq_d3,dq_d4,dq_d5,dq_d6,e0,e1,e2,e3,e4,e5,e6,de0,de1,de2,de3,de4,de5,de6,etau_J0,etau_J1,etau_J2,etau_J3,etau_J4,etau_J5,etau_J6,label
1,0.0,-0.8354122042655945,-46.59957504272461,-5.762844562530518,19.658235549926758,0.7968040108680725,2.3852572441101074,-0.43338340520858765,0.0,0.0,0.0,0.0,0.0,0.0,0.0,-0.8105632736479675,-0.28108333798112045,-0.5986039735922107,0.4385103555946094,0.21050209826617103,0.11843624903693548,-0.41709505744402514,0.878099713889912,0.7559051477532638,-0.2824904396324827,-1.6692226287105627,0.14132532025675948,2.4034157728089225,1.027369492365254,0.878092876070424,0.7554597494309409,-0.2825552651693207,-1.6690993614607135,0.1414185955172306,2.4034451173676383,1.0273381002308042,0.00019208139871831298,-0.00023853268861640106,-0.0003438933089883646,-0.00043697007247980516,-6.626046839890825e-05,-0.00021015958287818308,0.0007420408966825536,0.0,0.0,0.0,0.0,0.0,0.0,0.0,-6.837819488070274e-06,-0.00044539832232293186,-6.482553683800907e-05,0.00012326724984923487,9.327526047112067e-05,2.9344558715838076e-05,-3.139213444991462e-05,-0.00019208139871831298,0.00023853268861640106,0.0003438933089883646,0.00043697007247980516,6.626046839890825e-05,0.00021015958287818308,-0.0007420408966825536,0.8354122042655945,46.59957504272461,5.762844562530518,-19.658235549926758,-0.7968040108680725,-2.3852572441101074,0.43338340520858765,0
2,0.004942417144775391,-0.8592159152030945,-46.57577133178711,-5.786648273468018,19.610628128051758,0.7849021553993225,2.3852572441101074,-0.44711631536483765,0.0,0.0,0.0,0.0,0.0,0.0,0.0,-0.8173089475315417,-0.2693619489875732,-0.6004220811357558,0.4334616979366044,0.21103037583337225,0.11747737205934818,-0.4167087127213975,0.8781013844347829,0.7559034773174085,-0.2824887691966274,-1.669219287838852,0.14133138015903898,2.4034157728089225,1.0273710138835095,0.878092876070424,0.7554597494309409,-0.2825552651693207,-1.6690993614607135,0.1414185955172306,2.4034451173676383,1.0273381002308042,0.00022411939942887954,-0.000599475951064338,0.00011898699981271708,0.0005035745730303129,0.0005944169195583345,-0.00010332801096132459,0.0012418928047598394,0.0,0.0,0.0,0.0,0.0,0.0,0.0,-8.508364358950082e-06,-0.0004437278864676264,-6.649597269331453e-05,0.00011992637813862395,8.721535819161685e-05,2.9344558715838076e-05,-3.2913652705302e-05,-0.00022411939942887954,0.000599475951064338,-0.00011898699981271708,-0.0005035745730303129,-0.0005944169195583345,0.00010332801096132459,-0.0012418928047598394,0.8592159152030945,46.57577133178711,5.786648273468018,-19.610628128051758,-0.7849021553993225,-2.3852572441101074,0.44711631536483765,0
3,0.009997129440307617,-0.8592159152030945,-46.57577133178711,-5.786648273468018,19.610628128051758,0.7849021553993225,2.3852572441101074,-0.44711631536483765,0.0,0.0,0.0,0.0,0.0,0.0,0.0,-0.8173089475315417,-0.2693619489875732,-0.6004220811357558,0.4334616979366044,0.21103037583337225,0.11747737205934818,-0.4167087127213975,0.8781013844347829,0.7559034773174085,-0.2824887691966274,-1.669219287838852,0.14133138015903898,2.4034157728089225,1.0273710138835095,0.878092876070424,0.7554597494309409,-0.2825552651693207,-1.6690993614607135,0.1414185955172306,2.4034451173676383,1.0273381002308042,0.00022411939942887954,-0.000599475951064338,0.00011898699981271708,0.0005035745730303129,0.0005944169195583345,-0.00010332801096132459,0.0012418928047598394,0.0,0.0,0.0,0.0,0.0,0.0,0.0,-8.508364358950082e-06,-0.0004437278864676264,-6.649597269331453e-05,0.00011992637813862395,8.721535819161685e-05,2.9344558715838076e-05,-3.2913652705302e-05,-0.00022411939942887954,0.000599475951064338,-0.00011898699981271708,-0.0005035745730303129,-0.0005944169195583345,0.00010332801096132459,-0.0012418928047598394,0.8592159152030945,46.57577133178711,5.786648273468018,-19.610628128051758,-0.7849021553993225,-2.3852572441101074,0.44711631536483765,0
4,0.014995574951171875,-0.8354122042655945,-46.59957504272461,-5.762844562530518,19.634431838989258,0.7903953194618225,2.3788485527038574,-0.42605918645858765,0.0,0.0,0.0,0.0,0.0,0.0,0.0,-0.8211692194190832,-0.2594667457434954,-0.5995054365966347,0.4287104093633003,0.2108343280173305,0.11681210196091228,-0.41625389093458287,0.8780997139989283,0.7559051477532638,-0.2824904396324827,-1.6692209582747075,0.1413292355301728,2.403416499421248,1.0273686785631464,0.878092876070424,0.7554597494309409,-0.2825552651693207,-1.6690993614607135,0.1414185955172306,2.4034451173676383,1.0273381002308042,-0.00031309194183654196,0.00031847755921069257,-0.0007654820014891847,-0.00034118019674204394,-5.831244875545188e-05,0.00014048759510968268,-1.4852170541260421e-06,0.0,0.0,0.0,0.0,0.0,0.0,0.0,-6.837928504310753e-06,-0.00044539832232293186,-6.482553683800907e-05,0.00012159681399404043,8.935998705780768e-05,2.8617946390419036e-05,-3.057833234221263e-05,0.00031309194183654196,-0.00031847755921069257,0.0007654820014891847,0.00034118019674204394,5.831244875545188e-05,-0.00014048759510968268,1.4852170541260421e-06,0.8354122042655945,46.59957504272461,5.762844562530518,-19.634431838989258,-0.7903953194618225,-2.3788485527038574,0.42605918645858765,0
5,0.01999497413635254,-0.8354122042655945,-46.59957504272461,-5.762844562530518,19.634431838989258,0.7903953194618225,2.3788485527038574,-0.42605918645858765,0.0,0.0,0.0,0.0,0.0,0.0,0.0,-0.8211692194190832,-0.2594667457434954,-0.5995054365966347,0.4287104093633003,0.2108343280173305,0.11681210196091228,-0.41625389093458287,0.8780997139989283,0.7559051477532638,-0.2824904396324827,-1.6692209582747075,0.1413292355301728,2.403416499421248,1.0273686785631464,0.878092876070424,0.7554597494309409,-0.2825552651693207,-1.6690993614607135,0.1414185955172306,2.4034451173676383,1.0273381002308042,-0.00031309194183654196,0.00031847755921069257,-0.0007654820014891847,-0.00034118019674204394,-5.831244875545188e-05,0.00014048759510968268,-1.4852170541260421e-06,0.0,0.0,0.0,0.0,0.0,0.0,0.0,-6.837928504310753e-06,-0.00044539832232293186,-6.482553683800907e-05,0.00012159681399404043,8.935998705780768e-05,2.8617946390419036e-05,-3.057833234221263e-05,0.00031309194183654196,-0.00031847755921069257,0.0007654820014891847,0.00034118019674204394,5.831244875545188e-05,-0.00014048759510968268,1.4852170541260421e-06,0.8354122042655945,46.59957504272461,5.762844562530518,-19.634431838989258,-0.7903953194618225,-2.3788485527038574,0.42605918645858765,0
6,0.024997711181640625,-0.8076412081718445,-46.59957504272461,-5.786648273468018,19.610628128051758,0.7968040108680725,2.3788485527038574,-0.39218467473983765,0.0,0.0,0.0,0.0,0.0,0.0,0.0,-0.813461570415155,-0.2615559805466885,-0.5938680387135258,0.4302418727952654,0.209926785936519,0.11727512813193834,-0.4173452512273539,0.8780977651570971,0.7559051477532638,-0.28248876952064794,-1.669219287838852,0.14132532319945093,2.4034164848858275,1.0273649147285353,0.878092876070424,0.7554597494309409,-0.2825552651693207,-1.6690993614607135,0.1414185955172306,2.4034451173676383,1.0273381002308042,-0.0006898961212391458,0.00044544731893037724,0.0002777175933117553,0.0004608152266503387,-7.691052892777089e-05,0.00041233646619076277,-0.0009430093642173813,0.0,0.0,0.0,0.0,0.0,0.0,0.0,-4.889086673176557e-06,-0.00044539832232293186,-6.64956486727819e-05,0.00011992637813862395,9.327231777966905e-05,2.863248181084188e-05,-2.6814497731120213e-05,0.0006898961212391458,-0.00044544731893037724,-0.0002777175933117553,-0.0004608152266503387,7.691052892777089e-05,-0.00041233646619076277,0.0009430093642173813,0.8076412081718445,46.59957504272461,5.786648273468018,-19.610628128051758,-0.7968040108680725,-2.3788485527038574,0.39218467473983765,0
7,0.029997587203979492,-0.8076412081718445,-46.59957504272461,-5.786648273468018,19.610628128051758,0.7968040108680725,2.3788485527038574,-0.39218467473983765,0.0,0.0,0.0,0.0,0.0,0.0,0.0,-0.813461570415155,-0.2615559805466885,-0.5938680387135258,0.4302418727952654,0.209926785936519,0.11727512813193834,-0.4173452512273539,0.8780977651570971,0.7559051477532638,-0.28248876952064794,-1.669219287838852,0.14132532319945093,2.4034164848858275,1.0273649147285353,0.878092876070424,0.7554597494309409,-0.2825552651693207,-1.6690993614607135,0.1414185955172306,2.4034451173676383,1.0273381002308042,-0.0006898961212391458,0.00044544731893037724,0.0002777175933117553,0.0004608152266503387,-7.691052892777089e-05,0.00041233646619076277,-0.0009430093642173813,0.0,0.0,0.0,0.0,0.0,0.0,0.0,-4.889086673176557e-06,-0.00044539832232293186,-6.64956486727819e-05,0.00011992637813862395,9.327231777966905e-05,2.863248181084188e-05,-2.6814497731120213e-05,0.0006898961212391458,-0.00044544731893037724,-0.0002777175933117553,-0.0004608152266503387,7.691052892777089e-05,-0.00041233646619076277,0.0009430093642173813,0.8076412081718445,46.59957504272461,5.786648273468018,-19.610628128051758,-0.7968040108680725,-2.3788485527038574,0.39218467473983765,0
8,0.03495144844055176,-0.8076412081718445,-46.64718246459961,-5.762844562530518,19.658235549926758,0.7849021553993225,2.3916659355163574,-0.44711631536483765,0.0,0.0,0.0,0.0,0.0,0.0,0.0,-0.7724920289803234,-0.2683612740012804,-0.5616738217178197,0.43437734961062385,0.20925483279955387,0.11772453198601422,-0.4174469343573989,0.8780977651570971,0.7559084886249743,-0.28249043963248327,-1.6692226287105627,0.14132664129407835,2.4034150607320997,1.0273710182441602,0.878092876070424,0.7554597494309409,-0.2825552651693207,-1.6690993614607135,0.1414185955172306,2.4034451173676383,1.0273381002308042,-0.00034879522774184995,0.0009261568111782708,-0.003401539538960425,-0.0010862026299276438,0.0005203269002654681,-0.00045656248013675586,0.0010003397256863672,0.0,0.0,0.0,0.0,0.0,0.0,0.0,-4.889086673176557e-06,-0.00044873919403343177,-6.482553683745396e-05,0.00012326724984923487,9.195422315225188e-05,3.0056635538677767e-05,-3.2918013356031395e-05,0.00034879522774184995,-0.0009261568111782708,0.003401539538960425,0.0010862026299276438,-0.0005203269002654681,0.00045656248013675586,-0.0010003397256863672,0.8076412081718445,46.64718246459961,5.762844562530518,-19.658235549926758,-0.7849021553993225,-2.3916659355163574,0.44711631536483765,0
9,0.040009498596191406,-0.8076412081718445,-46.64718246459961,-5.762844562530518,19.658235549926758,0.7849021553993225,2.3916659355163574,-0.44711631536483765,0.0,0.0,0.0,0.0,0.0,0.0,0.0,-0.7724920289803234,-0.2683612740012804,-0.5616738217178197,0.43437734961062385,0.20925483279955387,0.11772453198601422,-0.4174469343573989,0.8780977651570971,0.7559084886249743,-0.28249043963248327,-1.6692226287105627,0.14132664129407835,2.4034150607320997,1.0273710182441602,0.878092876070424,0.7554597494309409,-0.2825552651693207,-1.6690993614607135,0.1414185955172306,2.4034451173676383,1.0273381002308042,-0.00034879522774184995,0.0009261568111782708,-0.003401539538960425,-0.0010862026299276438,0.0005203269002654681,-0.00045656248013675586,0.0010003397256863672,0.0,0.0,0.0,0.0,0.0,0.0,0.0,-4.889086673176557e-06,-0.00044873919403343177,-6.482553683745396e-05,0.00012326724984923487,9.195422315225188e-05,3.0056635538677767e-05,-3.2918013356031395e-05,0.00034879522774184995,-0.0009261568111782708,0.003401539538960425,0.0010862026299276438,-0.0005203269002654681,0.00045656248013675586,-0.0010003397256863672,0.8076412081718445,46.64718246459961,5.762844562530518,-19.658235549926758,-0.7849021553993225,-2.3916659355163574,0.44711631536483765,0
10,0.04499673843383789,-0.7838374972343445,-46.62337875366211,-5.762844562530518,19.658235549926758,0.7968040108680725,2.3852572441101074,-0.43338340520858765,0.0,0.0,0.0,0.0,0.0,0.0,0.0,-0.7829250201949888,-0.2585835743450938,-0.568084562253288,0.42689848345078796,0.2096960214654931,0.1167534714613778,-0.4182359139552606,0.8780960947212418,0.7559068181891191,-0.2824904396324827,-1.6692226287105627,0.1413263852168388,2.4034157728089225,1.027369492365254,0.878092876070424,0.7554597494309409,-0.2825552651693207,-1.6690993614607135,0.1414185955172306,2.4034451173676383,1.0273381002308042,-0.00035018893489148733,0.0008021197627384003,-0.0005198198783011912,-0.0008491286940082157,-6.92555669495536e-05,-0.0001760711278668356,0.0012725201448330898,0.0,0.0,0.0,0.0,0.0,0.0,0.0,-3.2186508178710938e-06,-0.0004470687581782373,-6.482553683800907e-05,0.00012326724984923487,9.2210300391804e-05,2.9344558715838076e-05,-3.139213444991462e-05,0.00035018893489148733,-0.0008021197627384003,0.0005198198783011912,0.0008491286940082157,6.92555669495536e-05,0.0001760711278668356,-0.0012725201448330898,0.7838374972343445,46.62337875366211,5.762844562530518,-19.658235549926758,-0.7968040108680725,-2.3852572441101074,0.43338340520858765,0
11,0.049955129623413086,-0.7838374972343445,-46.62337875366211,-5.762844562530518,19.658235549926758,0.7968040108680725,2.3852572441101074,-0.43338340520858765,0.0,0.0,0.0,0.0,0.0,0.0,0.0,-0.7829250201949888,-0.2585835743450938,-0.568084562253288,0.42689848345078796,0.2096960214654931,0.1167534714613778,-0.4182359139552606,0.8780960947212418,0.7559068181891191,-0.2824904396324827,-1.6692226287105627,0.1413263852168388,2.4034157728089225,1.027369492365254,0.878092876070424,0.7554597494309409,-0.2825552651693207,-1.6690993614607135,0.1414185955172306,2.4034451173676383,1.0273381002308042,-0.00035018893489148733,0.0008021197627384003,-0.0005198198783011912,-0.0008491286940082157,-6.92555669495536e-05,-0.0001760711278668356,0.0012725201448330898,0.0,0.0,0.0,0.0,0.0,0.0,0.0,-3.2186508178710938e-06,-0.0004470687581782373,-6.482553683800907e-05,0.00012326724984923487,9.2210300391804e-05,2.9344558715838076e-05,-3.139213444991462e-05,0.00035018893489148733,-0.0008021197627384003,0.0005198198783011912,0.0008491286940082157,6.92555669495536e-05,0.0001760711278668356,-0.0012725201448330898,0.7838374972343445,46.62337875366211,5.762844562530518,-19.658235549926758,-0.7968040108680725,-2.3852572441101074,0.43338340520858765,0
12,0.0549473762512207,-0.8076412081718445,-46.62337875366211,-5.786648273468018,19.634431838989258,0.7968040108680725,2.3852572441101074,-0.42605918645858765,0.0,0.0,0.0,0.0,0.0,0.0,0.0,-0.8445614482882167,-0.27412852796753484,-0.6192811543179856,0.4303524122396797,0.21107173501826507,0.11798630971725592,-0.41609834343855934,0.8780977651570971,0.7559068181891191,-0.2824887691966274,-1.6692209582747075,0.1413285570852619,2.4034157728089225,1.027368325350461,0.878092876070424,0.7554597494309409,-0.2825552651693207,-1.6690993614607135,0.1414185955172306,2.4034451173676383,1.0273381002308042,-0.00043367485714506846,0.0005744277917192217,0.000793433277471004,-0.00022898590916742992,-7.019790522285322e-05,-7.927880967657184e-05,-1.7601770450058504e-05,0.0,0.0,0.0,0.0,0.0,0.0,0.0,-4.889086673176557e-06,-0.0004470687581782373,-6.649597269331453e-05,0.00012159681399404043,9.003843196869754e-05,2.9344558715838076e-05,-3.0225119656890342e-05,0.00043367485714506846,-0.0005744277917192217,-0.000793433277471004,0.00022898590916742992,7.019790522285322e-05,7.927880967657184e-05,1.7601770450058504e-05,0.8076412081718445,46.62337875366211,5.786648273468018,-19.634431838989258,-0.7968040108680725,-2.3852572441101074,0.42605918645858765,0
13,0.059996843338012695,-0.8076412081718445,-46.62337875366211,-5.786648273468018,19.634431838989258,0.7968040108680725,2.3852572441101074,-0.42605918645858765,0.0,0.0,0.0,0.0,0.0,0.0,0.0,-0.8445614482882167,-0.27412852796753484,-0.6192811543179856,0.4303524122396797,0.21107173501826507,0.11798630971725592,-0.41609834343855934,0.8780977651570971,0.7559068181891191,-0.2824887691966274,-1.6692209582747075,0.1413285570852619,2.4034157728089225,1.027368325350461,0.878092876070424,0.7554597494309409,-0.2825552651693207,-1.6690993614607135,0.1414185955172306,2.4034451173676383,1.0273381002308042,-0.00043367485714506846,0.0005744277917192217,0.000793433277471004,-0.00022898590916742992,-7.019790522285322e-05,-7.927880967657184e-05,-1.7601770450058504e-05,0.0,0.0,0.0,0.0,0.0,0.0,0.0,-4.889086673176557e-06,-0.0004470687581782373,-6.649597269331453e-05,0.00012159681399404043,9.003843196869754e-05,2.9344558715838076e-05,-3.0225119656890342e-05,0.00043367485714506846,-0.0005744277917192217,-0.000793433277471004,0.00022898590916742992,7.019790522285322e-05,7.927880967657184e-05,1.7601770450058504e-05,0.8076412081718445,46.62337875366211,5.786648273468018,-19.634431838989258,-0.7968040108680725,-2.3852572441101074,0.42605918645858765,0
14,0.06494569778442383,-0.8076412081718445,-46.57577133178711,-5.735073566436768,19.610628128051758,0.7968040108680725,2.3916659355163574,-0.40591758489608765,0.0,0.0,0.0,0.0,0.0,0.0,0.0,-0.8901133644500371,-0.28470538735365297,-0.6590408853155839,0.4327258155067891,0.21224601028981277,0.11898509196905892,-0.41737706515009976,0.8780977650117421,0.7559034773174085,-0.28249238847431385,-1.669219287838852,0.14132533635116837,2.4034150607500444,1.027366440606777,0.878092876070424,0.7554597494309409,-0.2825552651693207,-1.6690993614607135,0.1414185955172306,2.4034451173676383,1.0273381002308042,0.000624652919589624,-0.0008086796340886821,0.0023993840275026174,0.0002755739789917219,-0.00010279862240607201,-0.000540602050521616,-9.261084064500434e-05,0.0,0.0,0.0,0.0,0.0,0.0,0.0,-4.888941318115236e-06,-0.0004437278864676264,-6.287669500687487e-05,0.00011992637813862395,9.325916606223172e-05,3.0056617593920976e-05,-2.8340375972879528e-05,-0.000624652919589624,0.0008086796340886821,-0.0023993840275026174,-0.0002755739789917219,0.00010279862240607201,0.000540602050521616,9.261084064500434e-05,0.8076412081718445,46.57577133178711,5.735073566436768,-19.610628128051758,-0.7968040108680725,-2.3916659355163574,0.40591758489608765,0
15,0.0699925422668457,-0.8076412081718445,-46.57577133178711,-5.735073566436768,19.610628128051758,0.7968040108680725,2.3916659355163574,-0.40591758489608765,0.0,0.0,0.0,0.0,0.0,0.0,0.0,-0.8901133644500371,-0.28470538735365297,-0.6590408853155839,0.4327258155067891,0.21224601028981277,0.11898509196905892,-0.41737706515009976,0.8780977650117421,0.7559034773174085,-0.28249238847431385,-1.669219287838852,0.14132533635116837,2.4034150607500444,1.027366440606777,0.878092876070424,0.7554597494309409,-0.2825552651693207,-1.6690993614607135,0.1414185955172306,2.4034451173676383,1.0273381002308042,0.000624652919589624,-0.0008086796340886821,0.0023993840275026174,0.0002755739789917219,-0.00010279862240607201,-0.000540602050521616,-9.261084064500434e-05,0.0,0.0,0.0,0.0,0.0,0.0,0.0,-4.888941318115236e-06,-0.0004437278864676264,-6.287669500687487e-05,0.00011992637813862395,9.325916606223172e-05,3.0056617593920976e-05,-2.8340375972879528e-05,-0.000624652919589624,0.0008086796340886821,-0.0023993840275026174,-0.0002755739789917219,0.00010279862240607201,0.000540602050521616,9.261084064500434e-05,0.8076412081718445,46.57577133178711,5.735073566436768,-19.610628128051758,-0.7968040108680725,-2.3916659355163574,0.40591758489608765,0
16,0.07500052452087402,-0.8354122042655945,-46.59957504272461,-5.735073566436768,19.634431838989258,0.8022971749305725,2.3916659355163574,-0.43979209661483765,0.0,0.0,0.0,0.0,0.0,0.0,0.0,-0.8586071574153145,-0.27590727283743915,-0.6331447507746737,0.43155775510471645,0.21171627184526423,0.11793024952781431,-0.41652652757571007,0.8780997136718787,0.7559051477532638,-0.28249238847431385,-1.6692209582747075,0.14132581565663818,2.4034150607320997,1.027370204442077,0.878092876070424,0.7554597494309409,-0.2825552651693207,-1.6690993614607135,0.1414185955172306,2.4034451173676383,1.0273381002308042,0.0008340754446976377,0.00016516868642818335,-0.0006161758953937336,-0.0002735085764478755,-0.000341668066548898,-0.00046864340967229634,0.0008944540938629868,0.0,0.0,0.0,0.0,0.0,0.0,0.0,-6.8376014547011366e-06,-0.00044539832232293186,-6.287669500687487e-05,0.00012159681399404043,9.277986059241794e-05,3.0056635538677767e-05,-3.210421127275431e-05,-0.0008340754446976377,-0.00016516868642818335,0.0006161758953937336,0.0002735085764478755,0.000341668066548898,0.00046864340967229634,-0.0008944540938629868,0.8354122042655945,46.59957504272461,5.735073566436768,-19.634431838989258,-0.8022971749305725,-2.3916659355163574,0.43979209661483765,0
17,0.07999539375305176,-0.8354122042655945,-46.59957504272461,-5.735073566436768,19.634431838989258,0.8022971749305725,2.3916659355163574,-0.43979209661483765,0.0,0.0,0.0,0.0,0.0,0.0,0.0,-0.8586071574153145,-0.27590727283743915,-0.6331447507746737,0.43155775510471645,0.21171627184526423,0.11793024952781431,-0.41652652757571007,0.8780997136718787,0.7559051477532638,-0.28249238847431385,-1.6692209582747075,0.14132581565663818,2.4034150607320997,1.027370204442077,0.878092876070424,0.7554597494309409,-0.2825552651693207,-1.6690993614607135,0.1414185955172306,2.4034451173676383,1.0273381002308042,0.0008340754446976377,0.00016516868642818335,-0.0006161758953937336,-0.0002735085764478755,-0.000341668066548898,-0.00046864340967229634,0.0008944540938629868,0.0,0.0,0.0,0.0,0.0,0.0,0.0,-6.8376014547011366e-06,-0.00044539832232293186,-6.287669500687487e-05,0.00012159681399404043,9.277986059241794e-05,3.0056635538677767e-05,-3.210421127275431e-05,-0.0008340754446976377,-0.00016516868642818335,0.0006161758953937336,0.0002735085764478755,0.000341668066548898,0.00046864340967229634,-0.0008944540938629868,0.8354122042655945,46.59957504272461,5.735073566436768,-19.634431838989258,-0.8022971749305725,-2.3916659355163574,0.43979209661483765,0
18,0.08500528335571289,-0.8354122042655945,-46.59957504272461,-5.735073566436768,19.634431838989258,0.8022971749305725,2.3916659355163574,-0.43979209661483765,0.0,0.0,0.0,0.0,0.0,0.0,0.0,-0.8586071574153145,-0.27590727283743915,-0.6331447507746737,0.43155775510471645,0.21171627184526423,0.11793024952781431,-0.41652652757571007,0.8780997136718787,0.7559051477532638,-0.28249238847431385,-1.6692209582747075,0.14132581565663818,2.4034150607320997,1.027370204442077,0.878092876070424,0.7554597494309409,-0.2825552651693207,-1.6690993614607135,0.1414185955172306,2.4034451173676383,1.0273381002308042,0.0008340754446976377,0.00016516868642818335,-0.0006161758953937336,-0.0002735085764478755,-0.000341668066548898,-0.00046864340967229634,0.0008944540938629868,0.0,0.0,0.0,0.0,0.0,0.0,0.0,-6.8376014547011366e-06,-0.00044539832232293186,-6.287669500687487e-05,0.00012159681399404043,9.277986059241794e-05,3.0056635538677767e-05,-3.210421127275431e-05,-0.0008340754446976377,-0.00016516868642818335,0.0006161758953937336,0.0002735085764478755,0.000341668066548898,0.00046864340967229634,-0.0008944540938629868,0.8354122042655945,46.59957504272461,5.735073566436768,-19.634431838989258,-0.8022971749305725,-2.3916659355163574,0.43979209661483765,0
19,0.0899958610534668,-0.8354122042655945,-46.59957504272461,-5.735073566436768,19.634431838989258,0.8022971749305725,2.3916659355163574,-0.43979209661483765,0.0,0.0,0.0,0.0,0.0,0.0,0.0,-0.8586071574153145,-0.27590727283743915,-0.6331447507746737,0.43155775510471645,0.21171627184526423,0.11793024952781431,-0.41652652757571007,0.8780997136718787,0.7559051477532638,-0.28249238847431385,-1.6692209582747075,0.14132581565663818,2.4034150607320997,1.027370204442077,0.878092876070424,0.7554597494309409,-0.2825552651693207,-1.6690993614607135,0.1414185955172306,2.4034451173676383,1.0273381002308042,0.0008340754446976377,0.00016516868642818335,-0.0006161758953937336,-0.0002735085764478755,-0.000341668066548898,-0.00046864340967229634,0.0008944540938629868,0.0,0.0,0.0,0.0,0.0,0.0,0.0,-6.8376014547011366e-06,-0.00044539832232293186,-6.287669500687487e-05,0.00012159681399404043,9.277986059241794e-05,3.0056635538677767e-05,-3.210421127275431e-05,-0.0008340754446976377,-0.00016516868642818335,0.0006161758953937336,0.0002735085764478755,0.000341668066548898,0.00046864340967229634,-0.0008944540938629868,0.8354122042655945,46.59957504272461,5.735073566436768,-19.634431838989258,-0.8022971749305725,-2.3916659355163574,0.43979209661483765,0
20,0.09499144554138184,-0.8592159152030945,-46.62337875366211,-5.810451984405518,19.610628128051758,0.8022971749305725,2.3788485527038574,-0.43338340520858765,0.0,0.0,0.0,0.0,0.0,0.0,0.0,-0.8151458298429145,-0.25753619841998027,-0.5958199659999043,0.4276896194600451,0.21081664753563847,0.11646833454424574,-0.4172871039152128,0.878101384398443,0.7559068181891191,-0.28248709876077216,-1.669219287838852,0.14132791167282294,2.4034164848857458,1.027369492365254,0.878092876070424,0.7554597494309409,-0.2825552651693207,-1.6690993614607135,0.1414185955172306,2.4034451173676383,1.0273381002308042,0.0009091065308742222,0.0013538350568790675,0.0007618280043132857,0.0005247480079057922,-0.0002409437543456756,3.6584743920979217e-06,0.00070518978811772,0.0,0.0,0.0,0.0,0.0,0.0,0.0,-8.508328019019018e-06,-0.0004470687581782373,-6.816640854856448e-05,0.00011992637813862395,9.068384440766297e-05,2.8632481892554296e-05,-3.139213444991462e-05,-0.0009091065308742222,-0.0013538350568790675,-0.0007618280043132857,-0.0005247480079057922,0.0002409437543456756,-3.6584743920979217e-06,-0.00070518978811772,0.8592159152030945,46.62337875366211,5.810451984405518,-19.610628128051758,-0.8022971749305725,-2.3788485527038574,0.43338340520858765,0
21,0.09999370574951172,-0.8592159152030945,-46.62337875366211,-5.810451984405518,19.610628128051758,0.8022971749305725,2.3788485527038574,-0.43338340520858765,0.0,0.0,0.0,0.0,0.0,0.0,0.0,-0.8151458298429145,-0.25753619841998027,-0.5958199659999043,0.4276896194600451,0.21081664753563847,0.11646833454424574,-0.4172871039152128,0.878101384398443,0.7559068181891191,-0.28248709876077216,-1.669219287838852,0.14132791167282294,2.4034164848857458,1.027369492365254,0.878092876070424,0.7554597494309409,-0.2825552651693207,-1.6690993614607135,0.1414185955172306,2.4034451173676383,1.0273381002308042,0.0009091065308742222,0.0013538350568790675,0.0007618280043132857,0.0005247480079057922,-0.0002409437543456756,3.6584743920979217e-06,0.00070518978811772,0.0,0.0,0.0,0.0,0.0,0.0,0.0,-8.508328019019018e-06,-0.0004470687581782373,-6.816640854856448e-05,0.00011992637813862395,9.068384440766297e-05,2.8632481892554296e-05,-3.139213444991462e-05,-0.0009091065308742222,-0.0013538350568790675,-0.0007618280043132857,-0.0005247480079057922,0.0002409437543456756,-3.6584743920979217e-06,-0.00070518978811772,0.8592159152030945,46.62337875366211,5.810451984405518,-19.610628128051758,-0.8022971749305725,-2.3788485527038574,0.43338340520858765,0
22,0.10499024391174316,-0.8076412081718445,-46.54800033569336,-5.810451984405518,19.634431838989258,0.7903953194618225,2.3788485527038574,-0.40591758489608765,0.0,0.0,0.0,0.0,0.0,0.0,0.0,-0.8130758426835158,-0.2615816637335779,-0.5933944293923699,0.4317290389055616,0.21133244443619342,0.11623634570636869,-0.4164866927995906,0.878097765157097,0.7559015284755773,-0.28248709876077216,-1.6692209582747075,0.1413263911720451,2.4034164848857458,1.027366440122925,0.878092876070424,0.7554597494309409,-0.2825552651693207,-1.6690993614607135,0.1414185955172306,2.4034451173676383,1.0273381002308042,-0.0006321617014071994,-0.0007849918609512123,0.0004897959561351295,0.0001850215792136267,0.000139467382461106,0.00029172402855645005,-0.0006024831652883682,0.0,0.0,0.0,0.0,0.0,0.0,0.0,-4.889086673065535e-06,-0.0004417790446364922,-6.816640854856448e-05,0.00012159681399404043,9.220434518550369e-05,2.8632481892554296e-05,-2.8339892120810006e-05,0.0006321617014071994,0.0007849918609512123,-0.0004897959561351295,-0.0001850215792136267,-0.000139467382461106,-0.00029172402855645005,0.0006024831652883682,0.8076412081718445,46.54800033569336,5.810451984405518,-19.634431838989258,-0.7903953194618225,-2.3788485527038574,0.40591758489608765,0
23,0.10999464988708496,-0.8076412081718445,-46.54800033569336,-5.810451984405518,19.634431838989258,0.7903953194618225,2.3788485527038574,-0.40591758489608765,0.0,0.0,0.0,0.0,0.0,0.0,0.0,-0.8130758426835158,-0.2615816637335779,-0.5933944293923699,0.4317290389055616,0.21133244443619342,0.11623634570636869,-0.4164866927995906,0.878097765157097,0.7559015284755773,-0.28248709876077216,-1.6692209582747075,0.1413263911720451,2.4034164848857458,1.027366440122925,0.878092876070424,0.7554597494309409,-0.2825552651693207,-1.6690993614607135,0.1414185955172306,2.4034451173676383,1.0273381002308042,-0.0006321617014071994,-0.0007849918609512123,0.0004897959561351295,0.0001850215792136267,0.000139467382461106,0.00029172402855645005,-0.0006024831652883682,0.0,0.0,0.0,0.0,0.0,0.0,0.0,-4.889086673065535e-06,-0.0004417790446364922,-6.816640854856448e-05,0.00012159681399404043,9.220434518550369e-05,2.8632481892554296e-05,-2.8339892120810006e-05,0.0006321617014071994,0.0007849918609512123,-0.0004897959561351295,-0.0001850215792136267,-0.000139467382461106,-0.00029172402855645005,0.0006024831652883682,0.8076412081718445,46.54800033569336,5.810451984405518,-19.634431838989258,-0.7903953194618225,-2.3788485527038574,0.40591758489608765,0
24,0.11500692367553711,-0.8592159152030945,-46.59957504272461,-5.711269855499268,19.634431838989258,0.7903953194618225,2.3788485527038574,-0.39950889348983765,0.0,0.0,0.0,0.0,0.0,0.0,0.0,-0.8029134431029066,-0.2677040229394661,-0.5865976021555184,0.43488421605812183,0.21089649031923643,0.11681846198774835,-0.4168336798728159,0.8781013844347836,0.7559051477532638,-0.2824940589101691,-1.6692209582747075,0.1413271366283913,2.4034164848857458,1.0273657285306106,0.878092876070424,0.7554597494309409,-0.2825552651693207,-1.6690993614607135,0.1414185955172306,2.4034451173676383,1.0273381002308042,0.0010197132544571632,-2.825722072666097e-05,-0.0021648152080766462,-0.0005796009651817444,0.0002440429888719638,0.00019359065275823423,-0.0011021223565969415,0.0,0.0,0.0,0.0,0.0,0.0,0.0,-8.508364359616216e-06,-0.00044539832232293186,-6.120625915162492e-05,0.00012159681399404043,9.145888883929643e-05,2.8632481892554296e-05,-2.762829980640369e-05,-0.0010197132544571632,2.825722072666097e-05,0.0021648152080766462,0.0005796009651817444,-0.0002440429888719638,-0.00019359065275823423,0.0011021223565969415,0.8592159152030945,46.59957504272461,5.711269855499268,-19.634431838989258,-0.7903953194618225,-2.3788485527038574,0.39950889348983765,0
25,0.1200098991394043,-0.8592159152030945,-46.59957504272461,-5.711269855499268,19.634431838989258,0.7903953194618225,2.3788485527038574,-0.39950889348983765,0.0,0.0,0.0,0.0,0.0,0.0,0.0,-0.8029134431029066,-0.2677040229394661,-0.5865976021555184,0.43488421605812183,0.21089649031923643,0.11681846198774835,-0.4168336798728159,0.8781013844347836,0.7559051477532638,-0.2824940589101691,-1.6692209582747075,0.1413271366283913,2.4034164848857458,1.0273657285306106,0.878092876070424,0.7554597494309409,-0.2825552651693207,-1.6690993614607135,0.1414185955172306,2.4034451173676383,1.0273381002308042,0.0010197132544571632,-2.825722072666097e-05,-0.0021648152080766462,-0.0005796009651817444,0.0002440429888719638,0.00019359065275823423,-0.0011021223565969415,0.0,0.0,0.0,0.0,0.0,0.0,0.0,-8.508364359616216e-06,-0.00044539832232293186,-6.120625915162492e-05,0.00012159681399404043,9.145888883929643e-05,2.8632481892554296e-05,-2.762829980640369e-05,-0.0010197132544571632,2.825722072666097e-05,0.0021648152080766462,0.0005796009651817444,-0.0002440429888719638,-0.00019359065275823423,0.0011021223565969415,0.8592159152030945,46.59957504272461,5.711269855499268,-19.634431838989258,-0.7903953194618225,-2.3788485527038574,0.39950889348983765,0
26,0.12500619888305664,-0.8354122042655945,-46.59957504272461,-5.810451984405518,19.610628128051758,0.7968040108680725,2.3852572441101074,-0.41965049505233765,0.0,0.0,0.0,0.0,0.0,0.0,0.0,-0.8159549058389156,-0.2670064397034042,-0.5939877489702553,0.4339713970958885,0.21066127139193255,0.11721923012071249,-0.4169267208752227,0.8780997139989283,0.7559051477532638,-0.28248709876077216,-1.669219287838852,0.14132531895805142,2.4034157728089225,1.0273679664863478,0.878092876070424,0.7554597494309409,-0.2825552651693207,-1.6690993614607135,0.1414185955172306,2.4034451173676383,1.0273381002308042,-0.00018992572473383517,5.7567163969399215e-05,0.000716142241371662,0.0007724424438310373,-0.0001336235521815671,8.890836671917296e-05,-0.0002604569301480476,0.0,0.0,0.0,0.0,0.0,0.0,0.0,-6.837928504310753e-06,-0.00044539832232293186,-6.816640854856448e-05,0.00011992637813862395,9.327655917917843e-05,2.9344558715838076e-05,-2.9866255543575804e-05,0.00018992572473383517,-5.7567163969399215e-05,-0.000716142241371662,-0.0007724424438310373,0.0001336235521815671,-8.890836671917296e-05,0.0002604569301480476,0.8354122042655945,46.59957504272461,5.810451984405518,-19.610628128051758,-0.7968040108680725,-2.3852572441101074,0.41965049505233765,0
27,0.12994122505187988,-0.8354122042655945,-46.59957504272461,-5.810451984405518,19.610628128051758,0.7968040108680725,2.3852572441101074,-0.41965049505233765,0.0,0.0,0.0,0.0,0.0,0.0,0.0,-0.8159549058389156,-0.2670064397034042,-0.5939877489702553,0.4339713970958885,0.21066127139193255,0.11721923012071249,-0.4169267208752227,0.8780997139989283,0.7559051477532638,-0.28248709876077216,-1.669219287838852,0.14132531895805142,2.4034157728089225,1.0273679664863478,0.878092876070424,0.7554597494309409,-0.2825552651693207,-1.6690993614607135,0.1414185955172306,2.4034451173676383,1.0273381002308042,-0.00018992572473383517,5.7567163969399215e-05,0.000716142241371662,0.0007724424438310373,-0.0001336235521815671,8.890836671917296e-05,-0.0002604569301480476,0.0,0.0,0.0,0.0,0.0,0.0,0.0,-6.837928504310753e-06,-0.00044539832232293186,-6.816640854856448e-05,0.00011992637813862395,9.327655917917843e-05,2.9344558715838076e-05,-2.9866255543575804e-05,0.00018992572473383517,-5.7567163969399215e-05,-0.000716142241371662,-0.0007724424438310373,0.0001336235521815671,-8.890836671917296e-05,0.0002604569301480476,0.8354122042655945,46.59957504272461,5.810451984405518,-19.610628128051758,-0.7968040108680725,-2.3852572441101074,0.41965049505233765,0
28,0.1349492073059082,-0.8869869112968445,-46.57577133178711,-5.810451984405518,19.658235549926758,0.8022971749305725,2.3788485527038574,-0.43979209661483765,0.0,0.0,0.0,0.0,0.0,0.0,0.0,-0.8156011433338373,-0.26776243324979493,-0.5912375856532504,0.43352940546162255,0.20987710756577158,0.11733191267586877,-0.4177226779849942,0.8781033332766147,0.7559034773174085,-0.28248709876077216,-1.6692226287105627,0.14132932955571395,2.4034164850472512,1.0273702039575603,0.878092876070424,0.7554597494309409,-0.2825552651693207,-1.6690993614607135,0.1414185955172306,2.4034451173676383,1.0273381002308042,0.0012774891834449655,-0.0006233987467208686,0.0005627527391995318,-0.0006753895822527994,-0.00010221635076537853,6.142378137571498e-05,0.0009250254852933143,0.0,0.0,0.0,0.0,0.0,0.0,0.0,-1.0457206190750412e-05,-0.0004437278864676264,-6.816640854856448e-05,0.00012326724984923487,8.926596151664912e-05,2.8632320387078636e-05,-3.210372675610529e-05,-0.0012774891834449655,0.0006233987467208686,-0.0005627527391995318,0.0006753895822527994,0.00010221635076537853,-6.142378137571498e-05,-0.0009250254852933143,0.8869869112968445,46.57577133178711,5.810451984405518,-19.658235549926758,-0.8022971749305725,-2.3788485527038574,0.43979209661483765,0
29,0.14000368118286133,-0.8869869112968445,-46.57577133178711,-5.810451984405518,19.658235549926758,0.8022971749305725,2.3788485527038574,-0.43979209661483765,0.0,0.0,0.0,0.0,0.0,0.0,0.0,-0.8156011433338373,-0.26776243324979493,-0.5912375856532504,0.43352940546162255,0.20987710756577158,0.11733191267586877,-0.4177226779849942,0.8781033332766147,0.7559034773174085,-0.28248709876077216,-1.6692226287105627,0.14132932955571395,2.4034164850472512,1.0273702039575603,0.878092876070424,0.7554597494309409,-0.2825552651693207,-1.6690993614607135,0.1414185955172306,2.4034451173676383,1.0273381002308042,0.0012774891834449655,-0.0006233987467208686,0.0005627527391995318,-0.0006753895822527994,-0.00010221635076537853,6.142378137571498e-05,0.0009250254852933143,0.0,0.0,0.0,0.0,0.0,0.0,0.0,-1.0457206190750412e-05,-0.0004437278864676264,-6.816640854856448e-05,0.00012326724984923487,8.926596151664912e-05,2.8632320387078636e-05,-3.210372675610529e-05,-0.0012774891834449655,0.0006233987467208686,-0.0005627527391995318,0.0006753895822527994,0.00010221635076537853,-6.142378137571498e-05,-0.0009250254852933143,0.8869869112968445,46.57577133178711,5.810451984405518,-19.658235549926758,-0.8022971749305725,-2.3788485527038574,0.43979209661483765,0
30,0.14501285552978516,-0.8354122042655945,-46.62337875366211,-5.786648273468018,19.586824417114258,0.7968040108680725,2.3788485527038574,-0.39950889348983765,0.0,0.0,0.0,0.0,0.0,0.0,0.0,-0.8282000327751035,-0.2685225537688733,-0.6000051958690296,0.4339640984455634,0.2102536932169857,0.11718761998478942,-0.417391849965404,0.8780997139989283,0.7559068181891191,-0.2824887691966274,-1.6692178469912582,0.14132531930708703,2.4034164848857467,1.027365728530616,0.878092876070424,0.7554597494309409,-0.2825552651693207,-1.6690993614607135,0.1414185955172306,2.4034451173676383,1.0273381002308042,-0.00021662218831058715,0.0005357715162236944,0.00010899696287378057,0.0008371175694462282,3.2830632684220866e-05,0.0003345015337681956,-0.0006863472046483907,0.0,0.0,0.0,0.0,0.0,0.0,0.0,-6.837928504310753e-06,-0.0004470687581782373,-6.649597269331453e-05,0.00011848553054472077,9.327621014357246e-05,2.8632481891666117e-05,-2.762829981173276e-05,0.00021662218831058715,-0.0005357715162236944,-0.00010899696287378057,-0.0008371175694462282,-3.2830632684220866e-05,-0.0003345015337681956,0.0006863472046483907,0.8354122042655945,46.62337875366211,5.786648273468018,-19.586824417114258,-0.7968040108680725,-2.3788485527038574,0.39950889348983765,0
31,0.15001535415649414,-0.8354122042655945,-46.62337875366211,-5.786648273468018,19.586824417114258,0.7968040108680725,2.3788485527038574,-0.39950889348983765,0.0,0.0,0.0,0.0,0.0,0.0,0.0,-0.8282000327751035,-0.2685225537688733,-0.6000051958690296,0.4339640984455634,0.2102536932169857,0.11718761998478942,-0.417391849965404,0.8780997139989283,0.7559068181891191,-0.2824887691966274,-1.6692178469912582,0.14132531930708703,2.4034164848857467,1.027365728530616,0.878092876070424,0.7554597494309409,-0.2825552651693207,-1.6690993614607135,0.1414185955172306,2.4034451173676383,1.0273381002308042,-0.00021662218831058715,0.0005357715162236944,0.00010899696287378057,0.0008371175694462282,3.2830632684220866e-05,0.0003345015337681956,-0.0006863472046483907,0.0,0.0,0.0,0.0,0.0,0.0,0.0,-6.837928504310753e-06,-0.0004470687581782373,-6.649597269331453e-05,0.00011848553054472077,9.327621014357246e-05,2.8632481891666117e-05,-2.762829981173276e-05,0.00021662218831058715,-0.0005357715162236944,-0.00010899696287378057,-0.0008371175694462282,-3.2830632684220866e-05,-0.0003345015337681956,0.0006863472046483907,0.8354122042655945,46.62337875366211,5.786648273468018,-19.586824417114258,-0.7968040108680725,-2.3788485527038574,0.39950889348983765,0
32,0.15502190589904785,-0.8592159152030945,-46.52419662475586,-5.735073566436768,19.610628128051758,0.7968040108680725,2.3852572441101074,-0.38577598333358765,0.0,0.0,0.0,0.0,0.0,0.0,0.0,-0.8254913929411152,-0.24733112550442918,-0.5960587587389785,0.4240682877853118,0.2104854963187516,0.1160068529607411,-0.4164185505967831,0.8781013843984449,0.7558998580397222,-0.28249238847431385,-1.669219287840148,0.14132864937572073,2.4034157728089225,1.0273642026517125,0.878092876070424,0.7554597494309409,-0.2825552651693207,-1.6690993614607135,0.1414185955172306,2.4034451173676383,1.0273381002308042,0.0006834656216888437,-0.0009698699685180293,-0.0010164311485872587,0.00041724666699639325,-1.1372308414423044e-05,-0.00016402340159078703,-0.00133840953905787,0.0,0.0,0.0,0.0,0.0,0.0,0.0,-8.508328020906397e-06,-0.00044010860878129776,-6.287669500687487e-05,0.00011992637943447626,8.99461415098668e-05,2.9344558715838076e-05,-2.610242090828052e-05,-0.0006834656216888437,0.0009698699685180293,0.0010164311485872587,-0.00041724666699639325,1.1372308414423044e-05,0.00016402340159078703,0.00133840953905787,0.8592159152030945,46.52419662475586,5.735073566436768,-19.610628128051758,-0.7968040108680725,-2.3852572441101074,0.38577598333358765,0
33,0.16001415252685547,-0.8592159152030945,-46.52419662475586,-5.735073566436768,19.610628128051758,0.7968040108680725,2.3852572441101074,-0.38577598333358765,0.0,0.0,0.0,0.0,0.0,0.0,0.0,-0.8254913929411152,-0.24733112550442918,-0.5960587587389785,0.4240682877853118,0.2104854963187516,0.1160068529607411,-0.4164185505967831,0.8781013843984449,0.7558998580397222,-0.28249238847431385,-1.669219287840148,0.14132864937572073,2.4034157728089225,1.0273642026517125,0.878092876070424,0.7554597494309409,-0.2825552651693207,-1.6690993614607135,0.1414185955172306,2.4034451173676383,1.0273381002308042,0.0006834656216888437,-0.0009698699685180293,-0.0010164311485872587,0.00041724666699639325,-1.1372308414423044e-05,-0.00016402340159078703,-0.00133840953905787,0.0,0.0,0.0,0.0,0.0,0.0,0.0,-8.508328020906397e-06,-0.00044010860878129776,-6.287669500687487e-05,0.00011992637943447626,8.99461415098668e-05,2.9344558715838076e-05,-2.610242090828052e-05,-0.0006834656216888437,0.0009698699685180293,0.0010164311485872587,-0.00041724666699639325,1.1372308414423044e-05,0.00016402340159078703,0.00133840953905787,0.8592159152030945,46.52419662475586,5.735073566436768,-19.610628128051758,-0.7968040108680725,-2.3852572441101074,0.38577598333358765,0
34,0.16494965553283691,-0.8076412081718445,-46.59957504272461,-5.786648273468018,19.610628128051758,0.7968040108680725,2.3724398612976074,-0.41324180364608765,0.0,0.0,0.0,0.0,0.0,0.0,0.0,-0.8297393751458545,-0.2665596125302872,-0.6028162974322341,0.43165421633864337,0.21103233073558095,0.11705173088408549,-0.41689973257289303,0.8780977651570969,0.7559051477532638,-0.2824887691966274,-1.669219287838852,0.14132531897477196,2.4034171969625686,1.027367254409525,0.878092876070424,0.7554597494309409,-0.2825552651693207,-1.6690993614607135,0.1414185955172306,2.4034451173676383,1.0273381002308042,-0.00042987194473148983,0.0003503503119375784,0.0003342012162427019,2.771900980873261e-05,7.990293912784164e-05,0.00021751070748475833,0.0003356360252549149,0.0,0.0,0.0,0.0,0.0,0.0,0.0,-4.889086672954512e-06,-0.00044539832232293186,-6.649597269331453e-05,0.00011992637813862395,9.327654245863681e-05,2.7920405069714604e-05,-2.9154178720736112e-05,0.00042987194473148983,-0.0003503503119375784,-0.0003342012162427019,-2.771900980873261e-05,-7.990293912784164e-05,-0.00021751070748475833,-0.0003356360252549149,0.8076412081718445,46.59957504272461,5.786648273468018,-19.610628128051758,-0.7968040108680725,-2.3724398612976074,0.41324180364608765,0
35,0.17081427574157715,-0.8076412081718445,-46.59957504272461,-5.786648273468018,19.610628128051758,0.7968040108680725,2.3724398612976074,-0.41324180364608765,0.0,0.0,0.0,0.0,0.0,0.0,0.0,-0.8297393751458545,-0.2665596125302872,-0.6028162974322341,0.43165421633864337,0.21103233073558095,0.11705173088408549,-0.41689973257289303,0.8780977651570969,0.7559051477532638,-0.2824887691966274,-1.669219287838852,0.14132531897477196,2.4034171969625686,1.027367254409525,0.878092876070424,0.7554597494309409,-0.2825552651693207,-1.6690993614607135,0.1414185955172306,2.4034451173676383,1.0273381002308042,-0.00042987194473148983,0.0003503503119375784,0.0003342012162427019,2.771900980873261e-05,7.990293912784164e-05,0.00021751070748475833,0.0003356360252549149,0.0,0.0,0.0,0.0,0.0,0.0,0.0,-4.889086672954512e-06,-0.00044539832232293186,-6.649597269331453e-05,0.00011992637813862395,9.327654245863681e-05,2.7920405069714604e-05,-2.9154178720736112e-05,0.00042987194473148983,-0.0003503503119375784,-0.0003342012162427019,-2.771900980873261e-05,-7.990293912784164e-05,-0.00021751070748475833,-0.0003356360252549149,0.8076412081718445,46.59957504272461,5.786648273468018,-19.610628128051758,-0.7968040108680725,-2.3724398612976074,0.41324180364608765,0
36,0.17499685287475586,-0.8354122042655945,-46.62337875366211,-5.786648273468018,19.658235549926758,0.7968040108680725,2.3852572441101074,-0.44711631536483765,0.0,0.0,0.0,0.0,0.0,0.0,0.0,-0.8160234551717321,-0.27411847220839825,-0.596598561174888,0.4355526558543534,0.21111185764351606,0.1176894595551294,-0.41508003457637027,0.8780997139989283,0.7559068181891191,-0.2824887691966274,-1.6692226287105627,0.14132531884762842,2.4034157728089225,1.0273710182441602,0.878092876070424,0.7554597494309409,-0.2825552651693207,-1.6690993614607135,0.1414185955172306,2.4034451173676383,1.0273381002308042,0.0009464215720287857,0.0004028778468571493,0.0004737813482703851,-0.0006236306659148594,2.702191318368635e-05,-5.702828949733551e-09,0.0012364535776624498,0.0,0.0,0.0,0.0,0.0,0.0,0.0,-6.837928504310753e-06,-0.0004470687581782373,-6.649597269331453e-05,0.00012326724984923487,9.32766696021825e-05,2.9344558715838076e-05,-3.2918013356031395e-05,-0.0009464215720287857,-0.0004028778468571493,-0.0004737813482703851,0.0006236306659148594,-2.702191318368635e-05,5.702828949733551e-09,-0.0012364535776624498,0.8354122042655945,46.62337875366211,5.786648273468018,-19.658235549926758,-0.7968040108680725,-2.3852572441101074,0.44711631536483765,0
37,0.17999649047851562,-0.8354122042655945,-46.62337875366211,-5.786648273468018,19.658235549926758,0.7968040108680725,2.3852572441101074,-0.44711631536483765,0.0,0.0,0.0,0.0,0.0,0.0,0.0,-0.8160234551717321,-0.27411847220839825,-0.596598561174888,0.4355526558543534,0.21111185764351606,0.1176894595551294,-0.41508003457637027,0.8780997139989283,0.7559068181891191,-0.2824887691966274,-1.6692226287105627,0.14132531884762842,2.4034157728089225,1.0273710182441602,0.878092876070424,0.7554597494309409,-0.2825552651693207,-1.6690993614607135,0.1414185955172306,2.4034451173676383,1.0273381002308042,0.0009464215720287857,0.0004028778468571493,0.0004737813482703851,-0.0006236306659148594,2.702191318368635e-05,-5.702828949733551e-09,0.0012364535776624498,0.0,0.0,0.0,0.0,0.0,0.0,0.0,-6.837928504310753e-06,-0.0004470687581782373,-6.649597269331453e-05,0.00012326724984923487,9.32766696021825e-05,2.9344558715838076e-05,-3.2918013356031395e-05,-0.0009464215720287857,-0.0004028778468571493,-0.0004737813482703851,0.0006236306659148594,-2.702191318368635e-05,5.702828949733551e-09,-0.0012364535776624498,0.8354122042655945,46.62337875366211,5.786648273468018,-19.658235549926758,-0.7968040108680725,-2.3852572441101074,0.44711631536483765,0
38,0.18499112129211426,-0.8076412081718445,-46.64718246459961,-5.786648273468018,19.634431838989258,0.8022971749305725,2.3852572441101074,-0.43979209661483765,0.0,0.0,0.0,0.0,0.0,0.0,0.0,-0.8331698127631552,-0.26513494155053624,-0.609361153668351,0.42788393433022187,0.21161351961687144,0.11689218699323947,-0.4155539520596225,0.8780977650480809,0.7559084886249743,-0.2824887691966274,-1.6692209582747075,0.14132506386218277,2.4034157728089225,1.0273702029885268,0.878092876070424,0.7554597494309409,-0.2825552651693207,-1.6690993614607135,0.1414185955172306,2.4034451173676383,1.0273381002308042,-0.00011661025940421233,0.000900692194081946,0.0002770170079164061,-0.00025889684282896455,-0.000242044168851927,-0.00023612496068894492,0.001589165033136149,0.0,0.0,0.0,0.0,0.0,0.0,0.0,-4.888977656936078e-06,-0.00044873919403343177,-6.649597269331453e-05,0.00012159681399404043,9.353165504782934e-05,2.9344558715838076e-05,-3.2102757722585196e-05,0.00011661025940421233,-0.000900692194081946,-0.0002770170079164061,0.00025889684282896455,0.000242044168851927,0.00023612496068894492,-0.001589165033136149,0.8076412081718445,46.64718246459961,5.786648273468018,-19.634431838989258,-0.8022971749305725,-2.3852572441101074,0.43979209661483765,0
39,0.1900019645690918,-0.8076412081718445,-46.64718246459961,-5.786648273468018,19.634431838989258,0.8022971749305725,2.3852572441101074,-0.43979209661483765,0.0,0.0,0.0,0.0,0.0,0.0,0.0,-0.8331698127631552,-0.26513494155053624,-0.609361153668351,0.42788393433022187,0.21161351961687144,0.11689218699323947,-0.4155539520596225,0.8780977650480809,0.7559084886249743,-0.2824887691966274,-1.6692209582747075,0.14132506386218277,2.4034157728089225,1.0273702029885268,0.878092876070424,0.7554597494309409,-0.2825552651693207,-1.6690993614607135,0.1414185955172306,2.4034451173676383,1.0273381002308042,-0.00011661025940421233,0.000900692194081946,0.0002770170079164061,-0.00025889684282896455,-0.000242044168851927,-0.00023612496068894492,0.001589165033136149,0.0,0.0,0.0,0.0,0.0,0.0,0.0,-4.888977656936078e-06,-0.00044873919403343177,-6.649597269331453e-05,0.00012159681399404043,9.353165504782934e-05,2.9344558715838076e-05,-3.2102757722585196e-05,0.00011661025940421233,-0.000900692194081946,-0.0002770170079164061,0.00025889684282896455,0.000242044168851927,0.00023612496068894492,-0.001589165033136149,0.8076412081718445,46.64718246459961,5.786648273468018,-19.634431838989258,-0.8022971749305725,-2.3852572441101074,0.43979209661483765,0
40,0.19501304626464844,-0.8076412081718445,-46.64718246459961,-5.786648273468018,19.634431838989258,0.8022971749305725,2.3852572441101074,-0.43979209661483765,0.0,0.0,0.0,0.0,0.0,0.0,0.0,-0.8331698127631552,-0.26513494155053624,-0.609361153668351,0.42788393433022187,0.21161351961687144,0.11689218699323947,-0.4155539520596225,0.8780977650480809,0.7559084886249743,-0.2824887691966274,-1.6692209582747075,0.14132506386218277,2.4034157728089225,1.0273702029885268,0.878092876070424,0.7554597494309409,-0.2825552651693207,-1.6690993614607135,0.1414185955172306,2.4034451173676383,1.0273381002308042,-0.00011661025940421233,0.000900692194081946,0.0002770170079164061,-0.00025889684282896455,-0.000242044168851927,-0.00023612496068894492,0.001589165033136149,0.0,0.0,0.0,0.0,0.0,0.0,0.0,-4.888977656936078e-06,-0.00044873919403343177,-6.649597269331453e-05,0.00012159681399404043,9.353165504782934e-05,2.9344558715838076e-05,-3.2102757722585196e-05,0.00011661025940421233,-0.000900692194081946,-0.0002770170079164061,0.00025889684282896455,0.000242044168851927,0.00023612496068894492,-0.001589165033136149,0.8076412081718445,46.64718246459961,5.786648273468018,-19.634431838989258,-0.8022971749305725,-2.3852572441101074,0.43979209661483765,0
41,0.19999456405639648,-0.8076412081718445,-46.64718246459961,-5.786648273468018,19.634431838989258,0.8022971749305725,2.3852572441101074,-0.43979209661483765,0.0,0.0,0.0,0.0,0.0,0.0,0.0,-0.8331698127631552,-0.26513494155053624,-0.609361153668351,0.42788393433022187,0.21161351961687144,0.11689218699323947,-0.4155539520596225,0.8780977650480809,0.7559084886249743,-0.2824887691966274,-1.6692209582747075,0.14132506386218277,2.4034157728089225,1.0273702029885268,0.878092876070424,0.7554597494309409,-0.2825552651693207,-1.6690993614607135,0.1414185955172306,2.4034451173676383,1.0273381002308042,-0.00011661025940421233,0.000900692194081946,0.0002770170079164061,-0.00025889684282896455,-0.000242044168851927,-0.00023612496068894492,0.001589165033136149,0.0,0.0,0.0,0.0,0.0,0.0,0.0,-4.888977656936078e-06,-0.00044873919403343177,-6.649597269331453e-05,0.00012159681399404043,9.353165504782934e-05,2.9344558715838076e-05,-3.2102757722585196e-05,0.00011661025940421233,-0.000900692194081946,-0.0002770170079164061,0.00025889684282896455,0.000242044168851927,0.00023612496068894492,-0.001589165033136149,0.8076412081718445,46.64718246459961,5.786648273468018,-19.634431838989258,-0.8022971749305725,-2.3852572441101074,0.43979209661483765,0
42,0.20500540733337402,-0.7838374972343445,-46.59957504272461,-5.735073566436768,19.634431838989258,0.7903953194618225,2.3852572441101074,-0.43979209661483765,0.0,0.0,0.0,0.0,0.0,0.0,0.0,-0.8210950666731427,-0.2737157325707436,-0.6028289188246649,0.4319661943171399,0.21123868345486815,0.11678551857125256,-0.41399979913076385,0.8780960947212412,0.7559051477532638,-0.28249238847431385,-1.6692209582747075,0.1413264433353367,2.4034157728089225,1.027370204442069,0.878092876070424,0.7554597494309409,-0.2825552651693207,-1.6690993614607135,0.1414185955172306,2.4034451173676383,1.0273381002308042,-0.0009115884305231519,-0.0005982338684840045,-0.0009532964631203546,-0.00021592424812055008,0.00021551764790067008,-0.00017849500741387169,0.0010250675323060223,0.0,0.0,0.0,0.0,0.0,0.0,0.0,-3.21865081720496e-06,-0.00044539832232293186,-6.287669500687487e-05,0.00012159681399404043,9.215218189390084e-05,2.9344558715838076e-05,-3.210421126476071e-05,0.0009115884305231519,0.0005982338684840045,0.0009532964631203546,0.00021592424812055008,-0.00021551764790067008,0.00017849500741387169,-0.0010250675323060223,0.7838374972343445,46.59957504272461,5.735073566436768,-19.634431838989258,-0.7903953194618225,-2.3852572441101074,0.43979209661483765,0
43,0.20999670028686523,-0.7838374972343445,-46.59957504272461,-5.735073566436768,19.634431838989258,0.7903953194618225,2.3852572441101074,-0.43979209661483765,0.0,0.0,0.0,0.0,0.0,0.0,0.0,-0.8210950666731427,-0.2737157325707436,-0.6028289188246649,0.4319661943171399,0.21123868345486815,0.11678551857125256,-0.41399979913076385,0.8780960947212412,0.7559051477532638,-0.28249238847431385,-1.6692209582747075,0.1413264433353367,2.4034157728089225,1.027370204442069,0.878092876070424,0.7554597494309409,-0.2825552651693207,-1.6690993614607135,0.1414185955172306,2.4034451173676383,1.0273381002308042,-0.0009115884305231519,-0.0005982338684840045,-0.0009532964631203546,-0.00021592424812055008,0.00021551764790067008,-0.00017849500741387169,0.0010250675323060223,0.0,0.0,0.0,0.0,0.0,0.0,0.0,-3.21865081720496e-06,-0.00044539832232293186,-6.287669500687487e-05,0.00012159681399404043,9.215218189390084e-05,2.9344558715838076e-05,-3.210421126476071e-05,0.0009115884305231519,0.0005982338684840045,0.0009532964631203546,0.00021592424812055008,-0.00021551764790067008,0.00017849500741387169,-0.0010250675323060223,0.7838374972343445,46.59957504272461,5.735073566436768,-19.634431838989258,-0.7903953194618225,-2.3852572441101074,0.43979209661483765,0
44,0.21494102478027344,-0.8354122042655945,-46.57577133178711,-5.762844562530518,19.634431838989258,0.8087058663368225,2.3852572441101074,-0.42605918645858765,0.0,0.0,0.0,0.0,0.0,0.0,0.0,-0.8280808291326949,-0.2558242467371365,-0.604282656891426,0.42198602820173176,0.21100353580081854,0.11518660381221993,-0.4142398306600822,0.8780997139989283,0.7559034773174085,-0.2824904396324827,-1.6692209582747075,0.14132400953576987,2.403415773293439,1.0273686785631708,0.878092876070424,0.7554597494309409,-0.2825552651693207,-1.6690993614607135,0.1414185955172306,2.4034451173676383,1.0273381002308042,-0.0001061350444327757,2.2511646266927565e-05,-0.00016803795503857755,-0.0002996471655087822,-0.00043679641987229756,1.569267561706993e-05,7.131167921200524e-05,0.0,0.0,0.0,0.0,0.0,0.0,0.0,-6.837928504310753e-06,-0.0004437278864676264,-6.482553683800907e-05,0.00012159681399404043,9.458598146072639e-05,2.9344074199411097e-05,-3.057833236663754e-05,0.0001061350444327757,-2.2511646266927565e-05,0.00016803795503857755,0.0002996471655087822,0.00043679641987229756,-1.569267561706993e-05,-7.131167921200524e-05,0.8354122042655945,46.57577133178711,5.762844562530518,-19.634431838989258,-0.8087058663368225,-2.3852572441101074,0.42605918645858765,0
45,0.21999239921569824,-0.8354122042655945,-46.57577133178711,-5.762844562530518,19.634431838989258,0.8087058663368225,2.3852572441101074,-0.42605918645858765,0.0,0.0,0.0,0.0,0.0,0.0,0.0,-0.8280808291326949,-0.2558242467371365,-0.604282656891426,0.42198602820173176,0.21100353580081854,0.11518660381221993,-0.4142398306600822,0.8780997139989283,0.7559034773174085,-0.2824904396324827,-1.6692209582747075,0.14132400953576987,2.403415773293439,1.0273686785631708,0.878092876070424,0.7554597494309409,-0.2825552651693207,-1.6690993614607135,0.1414185955172306,2.4034451173676383,1.0273381002308042,-0.0001061350444327757,2.2511646266927565e-05,-0.00016803795503857755,-0.0002996471655087822,-0.00043679641987229756,1.569267561706993e-05,7.131167921200524e-05,0.0,0.0,0.0,0.0,0.0,0.0,0.0,-6.837928504310753e-06,-0.0004437278864676264,-6.482553683800907e-05,0.00012159681399404043,9.458598146072639e-05,2.9344074199411097e-05,-3.057833236663754e-05,0.0001061350444327757,-2.2511646266927565e-05,0.00016803795503857755,0.0002996471655087822,0.00043679641987229756,-1.569267561706993e-05,-7.131167921200524e-05,0.8354122042655945,46.57577133178711,5.762844562530518,-19.634431838989258,-0.8087058663368225,-2.3852572441101074,0.42605918645858765,0
46,0.22501349449157715,-0.8076412081718445,-46.59957504272461,-5.810451984405518,19.610628128051758,0.7968040108680725,2.3788485527038574,-0.39218467473983765,0.0,0.0,0.0,0.0,0.0,0.0,0.0,-0.8427409614557376,-0.2627693656526794,-0.6108492564381153,0.4257239544376883,0.21125563114529533,0.11649153581351239,-0.416309815021762,0.8780977651570971,0.7559051477532638,-0.28248709876077216,-1.669219287838852,0.1413253187934805,2.4034164848857467,1.0273649147285353,0.878092876070424,0.7554597494309409,-0.2825552651693207,-1.6690993614607135,0.1414185955172306,2.4034451173676383,1.0273381002308042,-0.0014594312471201292,0.0008879397807279692,6.956876284116176e-05,0.0005661009481170998,0.00014834151464854705,0.0001332331325057415,-0.0006757524922117604,0.0,0.0,0.0,0.0,0.0,0.0,0.0,-4.889086673176557e-06,-0.00044539832232293186,-6.816640854856448e-05,0.00011992637813862395,9.327672375009088e-05,2.8632481891666117e-05,-2.6814497731120213e-05,0.0014594312471201292,-0.0008879397807279692,-6.956876284116176e-05,-0.0005661009481170998,-0.00014834151464854705,-0.0001332331325057415,0.0006757524922117604,0.8076412081718445,46.59957504272461,5.810451984405518,-19.610628128051758,-0.7968040108680725,-2.3788485527038574,0.39218467473983765,0
47,0.2300426959991455,-0.8076412081718445,-46.59957504272461,-5.810451984405518,19.610628128051758,0.7968040108680725,2.3788485527038574,-0.39218467473983765,0.0,0.0,0.0,0.0,0.0,0.0,0.0,-0.8427409614557376,-0.2627693656526794,-0.6108492564381153,0.4257239544376883,0.21125563114529533,0.11649153581351239,-0.416309815021762,0.8780977651570971,0.7559051477532638,-0.28248709876077216,-1.669219287838852,0.1413253187934805,2.4034164848857467,1.0273649147285353,0.878092876070424,0.7554597494309409,-0.2825552651693207,-1.6690993614607135,0.1414185955172306,2.4034451173676383,1.0273381002308042,-0.0014594312471201292,0.0008879397807279692,6.956876284116176e-05,0.0005661009481170998,0.00014834151464854705,0.0001332331325057415,-0.0006757524922117604,0.0,0.0,0.0,0.0,0.0,0.0,0.0,-4.889086673176557e-06,-0.00044539832232293186,-6.816640854856448e-05,0.00011992637813862395,9.327672375009088e-05,2.8632481891666117e-05,-2.6814497731120213e-05,0.0014594312471201292,-0.0008879397807279692,-6.956876284116176e-05,-0.0005661009481170998,-0.00014834151464854705,-0.0001332331325057415,0.0006757524922117604,0.8076412081718445,46.59957504272461,5.810451984405518,-19.610628128051758,-0.7968040108680725,-2.3788485527038574,0.39218467473983765,0
48,0.23504209518432617,-0.8869869112968445,-46.57577133178711,-5.786648273468018,19.610628128051758,0.7849021553993225,2.3852572441101074,-0.43338340520858765,0.0,0.0,0.0,0.0,0.0,0.0,0.0,-0.8273169088791241,-0.2731149178246589,-0.6011726595513832,0.4345303475446658,0.21156527384305235,0.11721578846561934,-0.41655911111097943,0.8781033332766147,0.7559034773174085,-0.2824887691966274,-1.669219287838852,0.14132984152125072,2.4034157728089225,1.027369492365254,0.878092876070424,0.7554597494309409,-0.2825552651693207,-1.6690993614607135,0.1414185955172306,2.4034451173676383,1.0273381002308042,0.0008354665319381948,-0.0002968176518914651,-3.767815373125288e-05,0.0006746454951141924,0.00045472076839268264,-0.0002013778875300428,0.0007068301484569919,0.0,0.0,0.0,0.0,0.0,0.0,0.0,-1.0457206190750412e-05,-0.0004437278864676264,-6.649597269331453e-05,0.00011992637813862395,8.875399597987887e-05,2.9344558715838076e-05,-3.139213444991462e-05,-0.0008354665319381948,0.0002968176518914651,3.767815373125288e-05,-0.0006746454951141924,-0.00045472076839268264,0.0002013778875300428,-0.0007068301484569919,0.8869869112968445,46.57577133178711,5.786648273468018,-19.610628128051758,-0.7849021553993225,-2.3852572441101074,0.43338340520858765,0
49,0.23999500274658203,-0.8869869112968445,-46.57577133178711,-5.786648273468018,19.610628128051758,0.7849021553993225,2.3852572441101074,-0.43338340520858765,0.0,0.0,0.0,0.0,0.0,0.0,0.0,-0.8273169088791241,-0.2731149178246589,-0.6011726595513832,0.4345303475446658,0.21156527384305235,0.11721578846561934,-0.41655911111097943,0.8781033332766147,0.7559034773174085,-0.2824887691966274,-1.669219287838852,0.14132984152125072,2.4034157728089225,1.027369492365254,0.878092876070424,0.7554597494309409,-0.2825552651693207,-1.6690993614607135,0.1414185955172306,2.4034451173676383,1.0273381002308042,0.0008354665319381948,-0.0002968176518914651,-3.767815373125288e-05,0.0006746454951141924,0.00045472076839268264,-0.0002013778875300428,0.0007068301484569919,0.0,0.0,0.0,0.0,0.0,0.0,0.0,-1.0457206190750412e-05,-0.0004437278864676264,-6.649597269331453e-05,0.00011992637813862395,8.875399597987887e-05,2.9344558715838076e-05,-3.139213444991462e-05,-0.0008354665319381948,0.0002968176518914651,3.767815373125288e-05,-0.0006746454951141924,-0.00045472076839268264,0.0002013778875300428,-0.0007068301484569919,0.8869869112968445,46.57577133178711,5.786648273468018,-19.610628128051758,-0.7849021553993225,-2.3852572441101074,0.43338340520858765,0
50,0.24495482444763184,-0.8076412081718445,-46.59957504272461,-5.762844562530518,19.686006546020508,0.7968040108680725,2.3660311698913574,-0.44711631536483765,0.0,0.0,0.0,0.0,0.0,0.0,0.0,-0.8280662702499132,-0.27367109309102167,-0.6006043672797846,0.43588682869269935,0.21146598389570193,0.11699554912395904,-0.4169978844090656,0.8780977650480809,0.7559051477532638,-0.2824904396324827,-1.6692245778673298,0.1413253192990665,2.4034179090393915,1.027369958606031,0.878092876070424,0.7554597494309409,-0.2825552651693207,-1.6690993614607135,0.1414185955172306,2.4034451173676383,1.0273381002308042,-0.0007358987385896912,-0.00014158545313516032,-0.0005233384948136265,-0.0010884218772544065,2.5481841665640485e-05,0.00043558944495446656,0.0014407293560075832,0.0,0.0,0.0,0.0,0.0,0.0,0.0,-4.888977656936078e-06,-0.00044539832232293186,-6.482553683800907e-05,0.00012521640661633526,9.327621816410114e-05,2.7208328246874913e-05,-3.1858375226789803e-05,0.0007358987385896912,0.00014158545313516032,0.0005233384948136265,0.0010884218772544065,-2.5481841665640485e-05,-0.00043558944495446656,-0.0014407293560075832,0.8076412081718445,46.59957504272461,5.762844562530518,-19.686006546020508,-0.7968040108680725,-2.3660311698913574,0.44711631536483765,0
51,0.24998855590820312,-0.8076412081718445,-46.59957504272461,-5.762844562530518,19.686006546020508,0.7968040108680725,2.3660311698913574,-0.44711631536483765,0.0,0.0,0.0,0.0,0.0,0.0,0.0,-0.8280662702499132,-0.27367109309102167,-0.6006043672797846,0.43588682869269935,0.21146598389570193,0.11699554912395904,-0.4169978844090656,0.8780977650480809,0.7559051477532638,-0.2824904396324827,-1.6692245778673298,0.1413253192990665,2.4034179090393915,1.027369958606031,0.878092876070424,0.7554597494309409,-0.2825552651693207,-1.6690993614607135,0.1414185955172306,2.4034451173676383,1.0273381002308042,-0.0007358987385896912,-0.00014158545313516032,-0.0005233384948136265,-0.0010884218772544065,2.5481841665640485e-05,0.00043558944495446656,0.0014407293560075832,0.0,0.0,0.0,0.0,0.0,0.0,0.0,-4.888977656936078e-06,-0.00044539832232293186,-6.482553683800907e-05,0.00012521640661633526,9.327621816410114e-05,2.7208328246874913e-05,-3.1858375226789803e-05,0.0007358987385896912,0.00014158545313516032,0.0005233384948136265,0.0010884218772544065,-2.5481841665640485e-05,-0.00043558944495446656,-0.0014407293560075832,0.8076412081718445,46.59957504272461,5.762844562530518,-19.686006546020508,-0.7968040108680725,-2.3660311698913574,0.44711631536483765,0
52,0.2549929618835449,-0.7838374972343445,-46.59957504272461,-5.762844562530518,19.586824417114258,0.7968040108680725,2.3788485527038574,-0.43338340520858765,0.0,0.0,0.0,0.0,0.0,0.0,0.0,-0.8294215608774959,-0.26929254650869355,-0.6011745572149755,0.4341685461150068,0.21148261203786856,0.11582458662389386,-0.41583502903183545,0.8780960946122249,0.7559051477532638,-0.2824904396324827,-1.6692176174029987,0.14132531879345858,2.4034164848857458,1.0273694923592724,0.878092876070424,0.7554597494309409,-0.2825552651693207,-1.6690993614607135,0.1414185955172306,2.4034451173676383,1.0273381002308042,-0.0012463564034545381,-9.495278063814242e-05,-0.00035003486822538936,0.0012049334793792109,0.0001536654657705535,7.31536013842322e-05,0.0005584967643751222,0.0,0.0,0.0,0.0,0.0,0.0,0.0,-3.2185418009644806e-06,-0.00044539832232293186,-6.482553683800907e-05,0.00011825594228520586,9.327672377201779e-05,2.8632481892554296e-05,-3.139212846825501e-05,0.0012463564034545381,9.495278063814242e-05,0.00035003486822538936,-0.0012049334793792109,-0.0001536654657705535,-7.31536013842322e-05,-0.0005584967643751222,0.7838374972343445,46.59957504272461,5.762844562530518,-19.586824417114258,-0.7968040108680725,-2.3788485527038574,0.43338340520858765,0
53,0.2600276470184326,-0.7838374972343445,-46.59957504272461,-5.762844562530518,19.586824417114258,0.7968040108680725,2.3788485527038574,-0.43338340520858765,0.0,0.0,0.0,0.0,0.0,0.0,0.0,-0.8294215608774959,-0.26929254650869355,-0.6011745572149755,0.4341685461150068,0.21148261203786856,0.11582458662389386,-0.41583502903183545,0.8780960946122249,0.7559051477532638,-0.2824904396324827,-1.6692176174029987,0.14132531879345858,2.4034164848857458,1.0273694923592724,0.878092876070424,0.7554597494309409,-0.2825552651693207,-1.6690993614607135,0.1414185955172306,2.4034451173676383,1.0273381002308042,-0.0012463564034545381,-9.495278063814242e-05,-0.00035003486822538936,0.0012049334793792109,0.0001536654657705535,7.31536013842322e-05,0.0005584967643751222,0.0,0.0,0.0,0.0,0.0,0.0,0.0,-3.2185418009644806e-06,-0.00044539832232293186,-6.482553683800907e-05,0.00011825594228520586,9.327672377201779e-05,2.8632481892554296e-05,-3.139212846825501e-05,0.0012463564034545381,9.495278063814242e-05,0.00035003486822538936,-0.0012049334793792109,-0.0001536654657705535,-7.31536013842322e-05,-0.0005584967643751222,0.7838374972343445,46.59957504272461,5.762844562530518,-19.586824417114258,-0.7968040108680725,-2.3788485527038574,0.43338340520858765,0
54,0.26499271392822266,-0.8076412081718445,-46.59957504272461,-5.735073566436768,19.610628128051758,0.7968040108680725,2.3788485527038574,-0.37204307317733765,0.0,0.0,0.0,0.0,0.0,0.0,0.0,-0.8173429155743168,-0.2675607424510875,-0.59472476454943,0.43517511117346636,0.21138763318501985,0.11616650915220046,-0.4166451196810427,0.8780977650480807,0.7559072537840458,-0.28249238847431385,-1.669219287838852,0.14132531895597072,2.4034164848857458,1.0273626767728061,0.878092876070424,0.7554597494309409,-0.2825552651693207,-1.6690993614607135,0.1414185955172306,2.4034451173676383,1.0273381002308042,0.00013163762254616313,4.801007490591048e-05,-0.0005903400628835608,0.000830107249487635,3.711621079798515e-05,0.00022930185631489243,-0.002096927417589129,0.0,0.0,0.0,0.0,0.0,0.0,0.0,-4.888977656714033e-06,-0.00044750435310492165,-6.287669500687487e-05,0.00011992637813862395,9.327656125987516e-05,2.8632481892554296e-05,-2.4576542001941704e-05,-0.00013163762254616313,-4.801007490591048e-05,0.0005903400628835608,-0.000830107249487635,-3.711621079798515e-05,-0.00022930185631489243,0.002096927417589129,0.8076412081718445,46.59957504272461,5.735073566436768,-19.610628128051758,-0.7968040108680725,-2.3788485527038574,0.37204307317733765,0
55,0.2700033187866211,-0.8076412081718445,-46.59957504272461,-5.735073566436768,19.610628128051758,0.7968040108680725,2.3788485527038574,-0.37204307317733765,0.0,0.0,0.0,0.0,0.0,0.0,0.0,-0.8173429155743168,-0.2675607424510875,-0.59472476454943,0.43517511117346636,0.21138763318501985,0.11616650915220046,-0.4166451196810427,0.8780977650480807,0.7559072537840458,-0.28249238847431385,-1.669219287838852,0.14132531895597072,2.4034164848857458,1.0273626767728061,0.878092876070424,0.7554597494309409,-0.2825552651693207,-1.6690993614607135,0.1414185955172306,2.4034451173676383,1.0273381002308042,0.00013163762254616313,4.801007490591048e-05,-0.0005903400628835608,0.000830107249487635,3.711621079798515e-05,0.00022930185631489243,-0.002096927417589129,0.0,0.0,0.0,0.0,0.0,0.0,0.0,-4.888977656714033e-06,-0.00044750435310492165,-6.287669500687487e-05,0.00011992637813862395,9.327656125987516e-05,2.8632481892554296e-05,-2.4576542001941704e-05,-0.00013163762254616313,-4.801007490591048e-05,0.0005903400628835608,-0.000830107249487635,-3.711621079798515e-05,-0.00022930185631489243,0.002096927417589129,0.8076412081718445,46.59957504272461,5.735073566436768,-19.610628128051758,-0.7968040108680725,-2.3788485527038574,0.37204307317733765,0
56,0.2750265598297119,-0.7838374972343445,-46.57577133178711,-5.786648273468018,19.634431838989258,0.7968040108680725,2.3852572441101074,-0.39218467473983765,0.0,0.0,0.0,0.0,0.0,0.0,0.0,-0.8243240192192651,-0.25923499443809567,-0.6018416805336055,0.4294523334421765,0.21131696975051076,0.11556030733915094,-0.41705415962362136,0.87809609472124,0.7559034773530743,-0.2824887691966274,-1.6692209582747075,0.14133005773064805,2.4034157728089225,1.0273649147285353,0.878092876070424,0.7554597494309409,-0.2825552651693207,-1.6690993614607135,0.1414185955172306,2.4034451173676383,1.0273381002308042,-6.070261149648852e-05,-0.00014608152367744887,0.0004200473834630835,-0.00013267906633537946,-0.00013973441667861205,-0.00015179073685834028,-0.0006956236893580405,0.0,0.0,0.0,0.0,0.0,0.0,0.0,-3.2186508159837146e-06,-0.00044372792213343004,-6.649597269331453e-05,0.00012159681399404043,8.853778658254874e-05,2.9344558715838076e-05,-2.6814497731120213e-05,6.070261149648852e-05,0.00014608152367744887,-0.0004200473834630835,0.00013267906633537946,0.00013973441667861205,0.00015179073685834028,0.0006956236893580405,0.7838374972343445,46.57577133178711,5.786648273468018,-19.634431838989258,-0.7968040108680725,-2.3852572441101074,0.39218467473983765,0
57,0.28000450134277344,-0.7838374972343445,-46.57577133178711,-5.786648273468018,19.634431838989258,0.7968040108680725,2.3852572441101074,-0.39218467473983765,0.0,0.0,0.0,0.0,0.0,0.0,0.0,-0.8243240192192651,-0.25923499443809567,-0.6018416805336055,0.4294523334421765,0.21131696975051076,0.11556030733915094,-0.41705415962362136,0.87809609472124,0.7559034773530743,-0.2824887691966274,-1.6692209582747075,0.14133005773064805,2.4034157728089225,1.0273649147285353,0.878092876070424,0.7554597494309409,-0.2825552651693207,-1.6690993614607135,0.1414185955172306,2.4034451173676383,1.0273381002308042,-6.070261149648852e-05,-0.00014608152367744887,0.0004200473834630835,-0.00013267906633537946,-0.00013973441667861205,-0.00015179073685834028,-0.0006956236893580405,0.0,0.0,0.0,0.0,0.0,0.0,0.0,-3.2186508159837146e-06,-0.00044372792213343004,-6.649597269331453e-05,0.00012159681399404043,8.853778658254874e-05,2.9344558715838076e-05,-2.6814497731120213e-05,6.070261149648852e-05,0.00014608152367744887,-0.0004200473834630835,0.00013267906633537946,0.00013973441667861205,0.00015179073685834028,0.0006956236893580405,0.7838374972343445,46.57577133178711,5.786648273468018,-19.634431838989258,-0.7968040108680725,-2.3852572441101074,0.39218467473983765,0
58,0.28495121002197266,-0.7838374972343445,-46.57577133178711,-5.786648273468018,19.634431838989258,0.7968040108680725,2.3852572441101074,-0.39218467473983765,0.0,0.0,0.0,0.0,0.0,0.0,0.0,-0.8243240192192651,-0.25923499443809567,-0.6018416805336055,0.4294523334421765,0.21131696975051076,0.11556030733915094,-0.41705415962362136,0.87809609472124,0.7559034773530743,-0.2824887691966274,-1.6692209582747075,0.14133005773064805,2.4034157728089225,1.0273649147285353,0.878092876070424,0.7554597494309409,-0.2825552651693207,-1.6690993614607135,0.1414185955172306,2.4034451173676383,1.0273381002308042,-6.070261149648852e-05,-0.00014608152367744887,0.0004200473834630835,-0.00013267906633537946,-0.00013973441667861205,-0.00015179073685834028,-0.0006956236893580405,0.0,0.0,0.0,0.0,0.0,0.0,0.0,-3.2186508159837146e-06,-0.00044372792213343004,-6.649597269331453e-05,0.00012159681399404043,8.853778658254874e-05,2.9344558715838076e-05,-2.6814497731120213e-05,6.070261149648852e-05,0.00014608152367744887,-0.0004200473834630835,0.00013267906633537946,0.00013973441667861205,0.00015179073685834028,0.0006956236893580405,0.7838374972343445,46.57577133178711,5.786648273468018,-19.634431838989258,-0.7968040108680725,-2.3852572441101074,0.39218467473983765,0
59,0.2899951934814453,-0.8592159152030945,-46.57577133178711,-5.735073566436768,19.610628128051758,0.7903953194618225,2.3852572441101074,-0.43338340520858765,0.0,0.0,0.0,0.0,0.0,0.0,0.0,-0.830169208083324,-0.2659245841960916,-0.6122740151498081,0.43451019722116235,0.21113839575760304,0.11642852187996772,-0.4158885421737178,0.8781013844347836,0.7559034773174086,-0.28249238847431385,-1.669219287838852,0.1413260352671006,2.4034161260216322,1.027369492365254,0.878092876070424,0.7554597494309409,-0.2825552651693207,-1.6690993614607135,0.1414185955172306,2.4034451173676383,1.0273381002308042,0.0012156098195588861,-5.611967395189126e-05,-0.0011551768105085315,0.000627417040210164,0.0001659170156193707,-0.0003229705673149452,0.00022488860263132434,0.0,0.0,0.0,0.0,0.0,0.0,0.0,-8.508364359616216e-06,-0.0004437278864677374,-6.287669500687487e-05,0.00011992637813862395,9.256025012999158e-05,2.899134600609088e-05,-3.139213444991462e-05,-0.0012156098195588861,5.611967395189126e-05,0.0011551768105085315,-0.000627417040210164,-0.0001659170156193707,0.0003229705673149452,-0.00022488860263132434,0.8592159152030945,46.57577133178711,5.735073566436768,-19.610628128051758,-0.7903953194618225,-2.3852572441101074,0.43338340520858765,0
60,0.29498982429504395,-0.8592159152030945,-46.57577133178711,-5.735073566436768,19.610628128051758,0.7903953194618225,2.3852572441101074,-0.43338340520858765,0.0,0.0,0.0,0.0,0.0,0.0,0.0,-0.830169208083324,-0.2659245841960916,-0.6122740151498081,0.43451019722116235,0.21113839575760304,0.11642852187996772,-0.4158885421737178,0.8781013844347836,0.7559034773174086,-0.28249238847431385,-1.669219287838852,0.1413260352671006,2.4034161260216322,1.027369492365254,0.878092876070424,0.7554597494309409,-0.2825552651693207,-1.6690993614607135,0.1414185955172306,2.4034451173676383,1.0273381002308042,0.0012156098195588861,-5.611967395189126e-05,-0.0011551768105085315,0.000627417040210164,0.0001659170156193707,-0.0003229705673149452,0.00022488860263132434,0.0,0.0,0.0,0.0,0.0,0.0,0.0,-8.508364359616216e-06,-0.0004437278864677374,-6.287669500687487e-05,0.00011992637813862395,9.256025012999158e-05,2.899134600609088e-05,-3.139213444991462e-05,-0.0012156098195588861,5.611967395189126e-05,0.0011551768105085315,-0.000627417040210164,-0.0001659170156193707,0.0003229705673149452,-0.00022488860263132434,0.8592159152030945,46.57577133178711,5.735073566436768,-19.610628128051758,-0.7903953194618225,-2.3852572441101074,0.43338340520858765,0
61,0.29999279975891113,-0.7838374972343445,-46.57577133178711,-5.735073566436768,19.634431838989258,0.8022971749305725,2.3660311698913574,-0.37204307317733765,0.0,0.0,0.0,0.0,0.0,0.0,0.0,-0.8105289907241093,-0.2583185346411463,-0.5976841372319268,0.43381993031877736,0.2103191682046304,0.11602623944664242,-0.4175552719881466,0.8780960947212418,0.7559034773174085,-0.28249238847431385,-1.6692209582747075,0.14132482707784624,2.403417909040056,1.0273626767728061,0.878092876070424,0.7554597494309409,-0.2825552651693207,-1.6690993614607135,0.1414185955172306,2.4034451173676383,1.0273381002308042,-0.0006187740071217308,-0.00010615158736421921,-0.000708211596298692,-0.00012421859651154865,-0.00039221179518254405,0.000617661183111748,-0.001523473748611729,0.0,0.0,0.0,0.0,0.0,0.0,0.0,-3.2186508178710938e-06,-0.0004437278864676264,-6.287669500687487e-05,0.00012159681399404043,9.37684393843563e-05,2.7208327582517455e-05,-2.4576542001941704e-05,0.0006187740071217308,0.00010615158736421921,0.000708211596298692,0.00012421859651154865,0.00039221179518254405,-0.000617661183111748,0.001523473748611729,0.7838374972343445,46.57577133178711,5.735073566436768,-19.634431838989258,-0.8022971749305725,-2.3660311698913574,0.37204307317733765,0
62,0.3049914836883545,-0.7838374972343445,-46.57577133178711,-5.735073566436768,19.634431838989258,0.8022971749305725,2.3660311698913574,-0.37204307317733765,0.0,0.0,0.0,0.0,0.0,0.0,0.0,-0.8105289907241093,-0.2583185346411463,-0.5976841372319268,0.43381993031877736,0.2103191682046304,0.11602623944664242,-0.4175552719881466,0.8780960947212418,0.7559034773174085,-0.28249238847431385,-1.6692209582747075,0.14132482707784624,2.403417909040056,1.0273626767728061,0.878092876070424,0.7554597494309409,-0.2825552651693207,-1.6690993614607135,0.1414185955172306,2.4034451173676383,1.0273381002308042,-0.0006187740071217308,-0.00010615158736421921,-0.000708211596298692,-0.00012421859651154865,-0.00039221179518254405,0.000617661183111748,-0.001523473748611729,0.0,0.0,0.0,0.0,0.0,0.0,0.0,-3.2186508178710938e-06,-0.0004437278864676264,-6.287669500687487e-05,0.00012159681399404043,9.37684393843563e-05,2.7208327582517455e-05,-2.4576542001941704e-05,0.0006187740071217308,0.00010615158736421921,0.000708211596298692,0.00012421859651154865,0.00039221179518254405,-0.000617661183111748,0.001523473748611729,0.7838374972343445,46.57577133178711,5.735073566436768,-19.634431838989258,-0.8022971749305725,-2.3660311698913574,0.37204307317733765,0
63,0.30999207496643066,-0.7838374972343445,-46.57577133178711,-5.735073566436768,19.634431838989258,0.8022971749305725,2.3660311698913574,-0.37204307317733765,0.0,0.0,0.0,0.0,0.0,0.0,0.0,-0.8105289907241093,-0.2583185346411463,-0.5976841372319268,0.43381993031877736,0.2103191682046304,0.11602623944664242,-0.4175552719881466,0.8780960947212418,0.7559034773174085,-0.28249238847431385,-1.6692209582747075,0.14132482707784624,2.403417909040056,1.0273626767728061,0.878092876070424,0.7554597494309409,-0.2825552651693207,-1.6690993614607135,0.1414185955172306,2.4034451173676383,1.0273381002308042,-0.0006187740071217308,-0.00010615158736421921,-0.000708211596298692,-0.00012421859651154865,-0.00039221179518254405,0.000617661183111748,-0.001523473748611729,0.0,0.0,0.0,0.0,0.0,0.0,0.0,-3.2186508178710938e-06,-0.0004437278864676264,-6.287669500687487e-05,0.00012159681399404043,9.37684393843563e-05,2.7208327582517455e-05,-2.4576542001941704e-05,0.0006187740071217308,0.00010615158736421921,0.000708211596298692,0.00012421859651154865,0.00039221179518254405,-0.000617661183111748,0.001523473748611729,0.7838374972343445,46.57577133178711,5.735073566436768,-19.634431838989258,-0.8022971749305725,-2.3660311698913574,0.37204307317733765,0
64,0.31499576568603516,-0.7838374972343445,-46.57577133178711,-5.735073566436768,19.634431838989258,0.8022971749305725,2.3660311698913574,-0.37204307317733765,0.0,0.0,0.0,0.0,0.0,0.0,0.0,-0.8105289907241093,-0.2583185346411463,-0.5976841372319268,0.43381993031877736,0.2103191682046304,0.11602623944664242,-0.4175552719881466,0.8780960947212418,0.7559034773174085,-0.28249238847431385,-1.6692209582747075,0.14132482707784624,2.403417909040056,1.0273626767728061,0.878092876070424,0.7554597494309409,-0.2825552651693207,-1.6690993614607135,0.1414185955172306,2.4034451173676383,1.0273381002308042,-0.0006187740071217308,-0.00010615158736421921,-0.000708211596298692,-0.00012421859651154865,-0.00039221179518254405,0.000617661183111748,-0.001523473748611729,0.0,0.0,0.0,0.0,0.0,0.0,0.0,-3.2186508178710938e-06,-0.0004437278864676264,-6.287669500687487e-05,0.00012159681399404043,9.37684393843563e-05,2.7208327582517455e-05,-2.4576542001941704e-05,0.0006187740071217308,0.00010615158736421921,0.000708211596298692,0.00012421859651154865,0.00039221179518254405,-0.000617661183111748,0.001523473748611729,0.7838374972343445,46.57577133178711,5.735073566436768,-19.634431838989258,-0.8022971749305725,-2.3660311698913574,0.37204307317733765,0
65,0.3199894428253174,-0.7838374972343445,-46.59957504272461,-5.786648273468018,19.634431838989258,0.8022971749305725,2.3788485527038574,-0.37845176458358765,0.0,0.0,0.0,0.0,0.0,0.0,0.0,-0.8177067951562347,-0.25471005635818994,-0.6009727926796498,0.43199625977062406,0.20999358066417154,0.11541400566289113,-0.41556963236077105,0.8780960947212418,0.7559051477532638,-0.2824887691966274,-1.6692209582747075,0.14132577475760227,2.4034164848857458,1.027363388849629,0.878092876070424,0.7554597494309409,-0.2825552651693207,-1.6690993614607135,0.1414185955172306,2.4034451173676383,1.0273381002308042,-0.0006786679860649097,0.0003920272906511135,2.6397198687721432e-05,-0.0002154516410478771,-0.0002670307560821221,0.0002444153206440858,-0.0017701497565929271,0.0,0.0,0.0,0.0,0.0,0.0,0.0,-3.2186508178710938e-06,-0.00044539832232293186,-6.649597269331453e-05,0.00012159681399404043,9.282075962832592e-05,2.8632481892554296e-05,-2.5288618824781395e-05,0.0006786679860649097,-0.0003920272906511135,-2.6397198687721432e-05,0.0002154516410478771,0.0002670307560821221,-0.0002444153206440858,0.0017701497565929271,0.7838374972343445,46.59957504272461,5.786648273468018,-19.634431838989258,-0.8022971749305725,-2.3788485527038574,0.37845176458358765,0
66,0.3249695301055908,-0.7838374972343445,-46.59957504272461,-5.786648273468018,19.634431838989258,0.8022971749305725,2.3788485527038574,-0.37845176458358765,0.0,0.0,0.0,0.0,0.0,0.0,0.0,-0.8177067951562347,-0.25471005635818994,-0.6009727926796498,0.43199625977062406,0.20999358066417154,0.11541400566289113,-0.41556963236077105,0.8780960947212418,0.7559051477532638,-0.2824887691966274,-1.6692209582747075,0.14132577475760227,2.4034164848857458,1.027363388849629,0.878092876070424,0.7554597494309409,-0.2825552651693207,-1.6690993614607135,0.1414185955172306,2.4034451173676383,1.0273381002308042,-0.0006786679860649097,0.0003920272906511135,2.6397198687721432e-05,-0.0002154516410478771,-0.0002670307560821221,0.0002444153206440858,-0.0017701497565929271,0.0,0.0,0.0,0.0,0.0,0.0,0.0,-3.2186508178710938e-06,-0.00044539832232293186,-6.649597269331453e-05,0.00012159681399404043,9.282075962832592e-05,2.8632481892554296e-05,-2.5288618824781395e-05,0.0006786679860649097,-0.0003920272906511135,-2.6397198687721432e-05,0.0002154516410478771,0.0002670307560821221,-0.0002444153206440858,0.0017701497565929271,0.7838374972343445,46.59957504272461,5.786648273468018,-19.634431838989258,-0.8022971749305725,-2.3788485527038574,0.37845176458358765,0
67,0.33001112937927246,-0.8354122042655945,-46.57577133178711,-5.762844562530518,19.634431838989258,0.7903953194618225,2.3852572441101074,-0.41965049505233765,0.0,0.0,0.0,0.0,0.0,0.0,0.0,-0.8079675581122473,-0.2601488551861374,-0.593883444265968,0.4348049090965399,0.2105411064324064,0.11618515537138346,-0.4157957167740392,0.878098760312499,0.7559034773174085,-0.2824904396324827,-1.6692209582747075,0.14132603105285735,2.4034157728089225,1.0273679664863478,0.878092876070424,0.7554597494309409,-0.2825552651693207,-1.6690993614607135,0.1414185955172306,2.4034451173676383,1.0273381002308042,0.0003891375293917429,-0.00039679292070260186,-0.00034782326970722577,5.187790178207034e-05,7.741533783391376e-06,-0.00016920378392785323,6.352215204424844e-05,0.0,0.0,0.0,0.0,0.0,0.0,0.0,-5.884242075038237e-06,-0.0004437278864676264,-6.482553683800907e-05,0.00012159681399404043,9.25644643732515e-05,2.9344558715838076e-05,-2.9866255543575804e-05,-0.0003891375293917429,0.00039679292070260186,0.00034782326970722577,-5.187790178207034e-05,-7.741533783391376e-06,0.00016920378392785323,-6.352215204424844e-05,0.8354122042655945,46.57577133178711,5.762844562530518,-19.634431838989258,-0.7903953194618225,-2.3852572441101074,0.41965049505233765,0
68,0.3350198268890381,-0.8354122042655945,-46.57577133178711,-5.762844562530518,19.634431838989258,0.7903953194618225,2.3852572441101074,-0.41965049505233765,0.0,0.0,0.0,0.0,0.0,0.0,0.0,-0.8079675581122473,-0.2601488551861374,-0.593883444265968,0.4348049090965399,0.2105411064324064,0.11618515537138346,-0.4157957167740392,0.878098760312499,0.7559034773174085,-0.2824904396324827,-1.6692209582747075,0.14132603105285735,2.4034157728089225,1.0273679664863478,0.878092876070424,0.7554597494309409,-0.2825552651693207,-1.6690993614607135,0.1414185955172306,2.4034451173676383,1.0273381002308042,0.0003891375293917429,-0.00039679292070260186,-0.00034782326970722577,5.187790178207034e-05,7.741533783391376e-06,-0.00016920378392785323,6.352215204424844e-05,0.0,0.0,0.0,0.0,0.0,0.0,0.0,-5.884242075038237e-06,-0.0004437278864676264,-6.482553683800907e-05,0.00012159681399404043,9.25644643732515e-05,2.9344558715838076e-05,-2.9866255543575804e-05,-0.0003891375293917429,0.00039679292070260186,0.00034782326970722577,-5.187790178207034e-05,-7.741533783391376e-06,0.00016920378392785323,-6.352215204424844e-05,0.8354122042655945,46.57577133178711,5.762844562530518,-19.634431838989258,-0.7903953194618225,-2.3852572441101074,0.41965049505233765,0
69,0.3399977684020996,-0.8592159152030945,-46.59957504272461,-5.810451984405518,19.610628128051758,0.7968040108680725,2.3788485527038574,-0.41965049505233765,0.0,0.0,0.0,0.0,0.0,0.0,0.0,-0.8145246167650709,-0.26603841655278176,-0.60008391594403,0.43551074459356925,0.21054112065816885,0.11650138646991438,-0.4159832349185244,0.878101384432989,0.7559051477532638,-0.28248709876077216,-1.669219287838852,0.14132567421374528,2.403417544523875,1.0273679664863478,0.878092876070424,0.7554597494309409,-0.2825552651693207,-1.6690993614607135,0.1414185955172306,2.4034451173676383,1.0273381002308042,0.0008289247400910595,-5.986563139721797e-05,0.0008601026465974871,0.0006288960626920646,-1.5922638677432163e-05,-6.020871552633499e-05,0.00035187730786463185,0.0,0.0,0.0,0.0,0.0,0.0,0.0,-8.50836256505172e-06,-0.00044539832232293186,-6.816640854856448e-05,0.00011992637813862395,9.292130348531602e-05,2.7572843763312704e-05,-2.9866255543575804e-05,-0.0008289247400910595,5.986563139721797e-05,-0.0008601026465974871,-0.0006288960626920646,1.5922638677432163e-05,6.020871552633499e-05,-0.00035187730786463185,0.8592159152030945,46.59957504272461,5.810451984405518,-19.610628128051758,-0.7968040108680725,-2.3788485527038574,0.41965049505233765,0
70,0.34499549865722656,-0.8592159152030945,-46.59957504272461,-5.810451984405518,19.610628128051758,0.7968040108680725,2.3788485527038574,-0.41965049505233765,0.0,0.0,0.0,0.0,0.0,0.0,0.0,-0.8145246167650709,-0.26603841655278176,-0.60008391594403,0.43551074459356925,0.21054112065816885,0.11650138646991438,-0.4159832349185244,0.878101384432989,0.7559051477532638,-0.28248709876077216,-1.669219287838852,0.14132567421374528,2.403417544523875,1.0273679664863478,0.878092876070424,0.7554597494309409,-0.2825552651693207,-1.6690993614607135,0.1414185955172306,2.4034451173676383,1.0273381002308042,0.0008289247400910595,-5.986563139721797e-05,0.0008601026465974871,0.0006288960626920646,-1.5922638677432163e-05,-6.020871552633499e-05,0.00035187730786463185,0.0,0.0,0.0,0.0,0.0,0.0,0.0,-8.50836256505172e-06,-0.00044539832232293186,-6.816640854856448e-05,0.00011992637813862395,9.292130348531602e-05,2.7572843763312704e-05,-2.9866255543575804e-05,-0.0008289247400910595,5.986563139721797e-05,-0.0008601026465974871,-0.0006288960626920646,1.5922638677432163e-05,6.020871552633499e-05,-0.00035187730786463185,0.8592159152030945,46.59957504272461,5.810451984405518,-19.610628128051758,-0.7968040108680725,-2.3788485527038574,0.41965049505233765,0
71,0.3499929904937744,-0.8354122042655945,-46.62337875366211,-5.786648273468018,19.658235549926758,0.7903953194618225,2.3852572441101074,-0.43338340520858765,0.0,0.0,0.0,0.0,0.0,0.0,0.0,-0.8260044765144223,-0.2540800173432901,-0.605023429528121,0.4263654902644254,0.21051710102575805,0.11527319445768862,-0.4145470390273165,0.8780997139989283,0.7559068181891191,-0.2824887691966274,-1.6692226287105627,0.14132603233491994,2.403415772814904,1.027369492365254,0.878092876070424,0.7554597494309409,-0.2825552651693207,-1.6690993614607135,0.1414185955172306,2.4034451173676383,1.0273381002308042,-0.00037189365135714724,0.0011649505112552069,-8.333452590239466e-05,-0.0005994053101868643,0.00011770838978244455,-0.00026863283125162313,0.0006098940213006742,0.0,0.0,0.0,0.0,0.0,0.0,0.0,-6.837928504310753e-06,-0.0004470687581782373,-6.649597269331453e-05,0.00012326724984923487,9.256318231065652e-05,2.934455273440051e-05,-3.139213444991462e-05,0.00037189365135714724,-0.0011649505112552069,8.333452590239466e-05,0.0005994053101868643,-0.00011770838978244455,0.00026863283125162313,-0.0006098940213006742,0.8354122042655945,46.62337875366211,5.786648273468018,-19.658235549926758,-0.7903953194618225,-2.3852572441101074,0.43338340520858765,0
72,0.35500621795654297,-0.8354122042655945,-46.62337875366211,-5.786648273468018,19.658235549926758,0.7903953194618225,2.3852572441101074,-0.43338340520858765,0.0,0.0,0.0,0.0,0.0,0.0,0.0,-0.8260044765144223,-0.2540800173432901,-0.605023429528121,0.4263654902644254,0.21051710102575805,0.11527319445768862,-0.4145470390273165,0.8780997139989283,0.7559068181891191,-0.2824887691966274,-1.6692226287105627,0.14132603233491994,2.403415772814904,1.027369492365254,0.878092876070424,0.7554597494309409,-0.2825552651693207,-1.6690993614607135,0.1414185955172306,2.4034451173676383,1.0273381002308042,-0.00037189365135714724,0.0011649505112552069,-8.333452590239466e-05,-0.0005994053101868643,0.00011770838978244455,-0.00026863283125162313,0.0006098940213006742,0.0,0.0,0.0,0.0,0.0,0.0,0.0,-6.837928504310753e-06,-0.0004470687581782373,-6.649597269331453e-05,0.00012326724984923487,9.256318231065652e-05,2.934455273440051e-05,-3.139213444991462e-05,0.00037189365135714724,-0.0011649505112552069,8.333452590239466e-05,0.0005994053101868643,-0.00011770838978244455,0.00026863283125162313,-0.0006098940213006742,0.8354122042655945,46.62337875366211,5.786648273468018,-19.658235549926758,-0.7903953194618225,-2.3852572441101074,0.43338340520858765,0
73,0.3600430488586426,-0.8592159152030945,-46.57577133178711,-5.786648273468018,19.634431838989258,0.7903953194618225,2.3980746269226074,-0.39950889348983765,0.0,0.0,0.0,0.0,0.0,0.0,0.0,-0.8191611115333735,-0.26035225175615495,-0.5985863740143181,0.4288268475695812,0.21026203537782687,0.11561593791268324,-0.41494249840727876,0.8781013844347836,0.7559034773174085,-0.2824887691966274,-1.6692209582747075,0.14132603233291635,2.403414348655277,1.0273657285306186,0.878092876070424,0.7554597494309409,-0.2825552651693207,-1.6690993614607135,0.1414185955172306,2.4034451173676383,1.0273381002308042,0.0006348159682043386,-0.0002554415421355458,-0.00014782355358505193,-0.00021623395197258437,0.00024605900808528317,-0.0005344629050842316,-0.000797549773759678,0.0,0.0,0.0,0.0,0.0,0.0,0.0,-8.508364359616216e-06,-0.0004437278864676264,-6.649597269331453e-05,0.00012159681399404043,9.256318431424826e-05,3.076871236151746e-05,-2.7628299814397295e-05,-0.0006348159682043386,0.0002554415421355458,0.00014782355358505193,0.00021623395197258437,-0.00024605900808528317,0.0005344629050842316,0.000797549773759678,0.8592159152030945,46.57577133178711,5.786648273468018,-19.634431838989258,-0.7903953194618225,-2.3980746269226074,0.39950889348983765,0
74,0.3649938106536865,-0.8592159152030945,-46.57577133178711,-5.786648273468018,19.634431838989258,0.7903953194618225,2.3980746269226074,-0.39950889348983765,0.0,0.0,0.0,0.0,0.0,0.0,0.0,-0.8191611115333735,-0.26035225175615495,-0.5985863740143181,0.4288268475695812,0.21026203537782687,0.11561593791268324,-0.41494249840727876,0.8781013844347836,0.7559034773174085,-0.2824887691966274,-1.6692209582747075,0.14132603233291635,2.403414348655277,1.0273657285306186,0.878092876070424,0.7554597494309409,-0.2825552651693207,-1.6690993614607135,0.1414185955172306,2.4034451173676383,1.0273381002308042,0.0006348159682043386,-0.0002554415421355458,-0.00014782355358505193,-0.00021623395197258437,0.00024605900808528317,-0.0005344629050842316,-0.000797549773759678,0.0,0.0,0.0,0.0,0.0,0.0,0.0,-8.508364359616216e-06,-0.0004437278864676264,-6.649597269331453e-05,0.00012159681399404043,9.256318431424826e-05,3.076871236151746e-05,-2.7628299814397295e-05,-0.0006348159682043386,0.0002554415421355458,0.00014782355358505193,0.00021623395197258437,-0.00024605900808528317,0.0005344629050842316,0.000797549773759678,0.8592159152030945,46.57577133178711,5.786648273468018,-19.634431838989258,-0.7903953194618225,-2.3980746269226074,0.39950889348983765,0
75,0.3699941635131836,-0.7560665011405945,-46.54800033569336,-5.810451984405518,19.634431838989258,0.8087058663368225,2.3788485527038574,-0.38577598333358765,0.0,0.0,0.0,0.0,0.0,0.0,0.0,-0.9067911854591876,-0.28433389573594875,-0.6685779405142454,0.4360490837996693,0.21171276355553356,0.11862959034198906,-0.41559898884064317,0.8780941458794107,0.7559015284755773,-0.28248709876077216,-1.6692209582747075,0.14132399641925025,2.403416484939581,1.0273642026517125,0.878092876070424,0.7554597494309409,-0.2825552651693207,-1.6690993614607135,0.1414185955172306,2.4034451173676383,1.0273381002308042,-0.0016611573685988907,-0.001095654225904525,0.0017621955650716705,0.00011391868863395422,-0.0006368489165785436,0.00010681467630033247,-0.0012557708237658522,0.0,0.0,0.0,0.0,0.0,0.0,0.0,-1.2698089867368978e-06,-0.0004417790446364922,-6.816640854856448e-05,0.00012159681399404043,9.459909798034682e-05,2.8632428057395742e-05,-2.610242090828052e-05,0.0016611573685988907,0.001095654225904525,-0.0017621955650716705,-0.00011391868863395422,0.0006368489165785436,-0.00010681467630033247,0.0012557708237658522,0.7560665011405945,46.54800033569336,5.810451984405518,-19.634431838989258,-0.8087058663368225,-2.3788485527038574,0.38577598333358765,0
76,0.37499141693115234,-0.7560665011405945,-46.54800033569336,-5.810451984405518,19.634431838989258,0.8087058663368225,2.3788485527038574,-0.38577598333358765,0.0,0.0,0.0,0.0,0.0,0.0,0.0,-0.9067911854591876,-0.28433389573594875,-0.6685779405142454,0.4360490837996693,0.21171276355553356,0.11862959034198906,-0.41559898884064317,0.8780941458794107,0.7559015284755773,-0.28248709876077216,-1.6692209582747075,0.14132399641925025,2.403416484939581,1.0273642026517125,0.878092876070424,0.7554597494309409,-0.2825552651693207,-1.6690993614607135,0.1414185955172306,2.4034451173676383,1.0273381002308042,-0.0016611573685988907,-0.001095654225904525,0.0017621955650716705,0.00011391868863395422,-0.0006368489165785436,0.00010681467630033247,-0.0012557708237658522,0.0,0.0,0.0,0.0,0.0,0.0,0.0,-1.2698089867368978e-06,-0.0004417790446364922,-6.816640854856448e-05,0.00012159681399404043,9.459909798034682e-05,2.8632428057395742e-05,-2.610242090828052e-05,0.0016611573685988907,0.001095654225904525,-0.0017621955650716705,-0.00011391868863395422,0.0006368489165785436,-0.00010681467630033247,0.0012557708237658522,0.7560665011405945,46.54800033569336,5.810451984405518,-19.634431838989258,-0.8087058663368225,-2.3788485527038574,0.38577598333358765,0
77,0.3799915313720703,-0.8076412081718445,-46.59957504272461,-5.762844562530518,19.634431838989258,0.7849021553993225,2.3724398612976074,-0.39950889348983765,0.0,0.0,0.0,0.0,0.0,0.0,0.0,-0.8355943772633857,-0.2534612847879882,-0.6090142482614193,0.42600948861561566,0.21015911143960772,0.11586703312448515,-0.4153308956505299,0.8780977651570971,0.7559051477532638,-0.2824904396324827,-1.6692209582747075,0.1413302354034225,2.4034171969625695,1.0273657285306186,0.878092876070424,0.7554597494309409,-0.2825552651693207,-1.6690993614607135,0.1414185955172306,2.4034451173676383,1.0273381002308042,-0.0001141642861475378,0.0006635089896307214,6.0014072964473735e-05,-0.00018057324995938943,0.00050607196234442,0.0003034258906337371,-0.00030896922957336957,0.0,0.0,0.0,0.0,0.0,0.0,0.0,-4.889086673176557e-06,-0.00044539832232293186,-6.482553683800907e-05,0.00012159681399404043,8.836011380811137e-05,2.7920405068826426e-05,-2.7628299814397295e-05,0.0001141642861475378,-0.0006635089896307214,-6.0014072964473735e-05,0.00018057324995938943,-0.00050607196234442,-0.0003034258906337371,0.00030896922957336957,0.8076412081718445,46.59957504272461,5.762844562530518,-19.634431838989258,-0.7849021553993225,-2.3724398612976074,0.39950889348983765,0
78,0.38498806953430176,-0.8076412081718445,-46.59957504272461,-5.762844562530518,19.634431838989258,0.7849021553993225,2.3724398612976074,-0.39950889348983765,0.0,0.0,0.0,0.0,0.0,0.0,0.0,-0.8355943772633857,-0.2534612847879882,-0.6090142482614193,0.42600948861561566,0.21015911143960772,0.11586703312448515,-0.4153308956505299,0.8780977651570971,0.7559051477532638,-0.2824904396324827,-1.6692209582747075,0.1413302354034225,2.4034171969625695,1.0273657285306186,0.878092876070424,0.7554597494309409,-0.2825552651693207,-1.6690993614607135,0.1414185955172306,2.4034451173676383,1.0273381002308042,-0.0001141642861475378,0.0006635089896307214,6.0014072964473735e-05,-0.00018057324995938943,0.00050607196234442,0.0003034258906337371,-0.00030896922957336957,0.0,0.0,0.0,0.0,0.0,0.0,0.0,-4.889086673176557e-06,-0.00044539832232293186,-6.482553683800907e-05,0.00012159681399404043,8.836011380811137e-05,2.7920405068826426e-05,-2.7628299814397295e-05,0.0001141642861475378,-0.0006635089896307214,-6.0014072964473735e-05,0.00018057324995938943,-0.00050607196234442,-0.0003034258906337371,0.00030896922957336957,0.8076412081718445,46.59957504272461,5.762844562530518,-19.634431838989258,-0.7849021553993225,-2.3724398612976074,0.39950889348983765,0
79,0.39000916481018066,-0.7838374972343445,-46.64718246459961,-5.786648273468018,19.559053421020508,0.7903953194618225,2.3788485527038574,-0.39218467473983765,0.0,0.0,0.0,0.0,0.0,0.0,0.0,-0.8005400358188862,-0.26595547147983195,-0.5810157619712374,0.43720746392827414,0.2099056480890648,0.11665311658127403,-0.41409153282955297,0.8780960947212418,0.7559084886249743,-0.2824887691966274,-1.6692156685611659,0.1413272170920313,2.4034164848857458,1.0273649147285353,0.878092876070424,0.7554597494309409,-0.2825552651693207,-1.6690993614607135,0.1414185955172306,2.4034451173676383,1.0273381002308042,-0.0005104450714490425,0.0011590715933111474,0.0010479300876470277,0.0020642175615701395,0.00014985730232597598,0.00020591871664309939,-0.0012705601127078298,0.0,0.0,0.0,0.0,0.0,0.0,0.0,-3.2186508178710938e-06,-0.00044873919403343177,-6.649597269331453e-05,0.00011630710045240633,9.137842519929551e-05,2.8632481892554296e-05,-2.6814497731120213e-05,0.0005104450714490425,-0.0011590715933111474,-0.0010479300876470277,-0.0020642175615701395,-0.00014985730232597598,-0.00020591871664309939,0.0012705601127078298,0.7838374972343445,46.64718246459961,5.786648273468018,-19.559053421020508,-0.7903953194618225,-2.3788485527038574,0.39218467473983765,0
80,0.3949921131134033,-0.7838374972343445,-46.64718246459961,-5.786648273468018,19.559053421020508,0.7903953194618225,2.3788485527038574,-0.39218467473983765,0.0,0.0,0.0,0.0,0.0,0.0,0.0,-0.8005400358188862,-0.26595547147983195,-0.5810157619712374,0.43720746392827414,0.2099056480890648,0.11665311658127403,-0.41409153282955297,0.8780960947212418,0.7559084886249743,-0.2824887691966274,-1.6692156685611659,0.1413272170920313,2.4034164848857458,1.0273649147285353,0.878092876070424,0.7554597494309409,-0.2825552651693207,-1.6690993614607135,0.1414185955172306,2.4034451173676383,1.0273381002308042,-0.0005104450714490425,0.0011590715933111474,0.0010479300876470277,0.0020642175615701395,0.00014985730232597598,0.00020591871664309939,-0.0012705601127078298,0.0,0.0,0.0,0.0,0.0,0.0,0.0,-3.2186508178710938e-06,-0.00044873919403343177,-6.649597269331453e-05,0.00011630710045240633,9.137842519929551e-05,2.8632481892554296e-05,-2.6814497731120213e-05,0.0005104450714490425,-0.0011590715933111474,-0.0010479300876470277,-0.0020642175615701395,-0.00014985730232597598,-0.00020591871664309939,0.0012705601127078298,0.7838374972343445,46.64718246459961,5.786648273468018,-19.559053421020508,-0.7903953194618225,-2.3788485527038574,0.39218467473983765,0
