rezayati/contactInterpretation/dataset/franka_main/labeled_data/link6/b14_7.csv
index,time,tau_J0,tau_J1,tau_J2,tau_J3,tau_J4,tau_J5,tau_J6,tau_J_d0,tau_J_d1,tau_J_d2,tau_J_d3,tau_J_d4,tau_J_d5,tau_J_d6,tau_ext0,tau_ext1,tau_ext2,tau_ext3,tau_ext4,tau_ext5,tau_ext6,q0,q1,q2,q3,q4,q5,q6,q_d0,q_d1,q_d2,q_d3,q_d4,q_d5,q_d6,dq0,dq1,dq2,dq3,dq4,dq5,dq6,dq_d0,dq_d1,dq_d2,dq_d3,dq_d4,dq_d5,dq_d6,e0,e1,e2,e3,e4,e5,e6,de0,de1,de2,de3,de4,de5,de6,etau_J0,etau_J1,etau_J2,etau_J3,etau_J4,etau_J5,etau_J6,label
1,0.0,-0.2998287081718445,-11.750940322875977,0.9696381092071533,21.669649124145508,0.4031272530555725,2.5399813652038574,-0.33084434270858765,0.0,0.0,0.0,0.0,0.0,0.0,0.0,-0.2745359768289356,0.545813957951184,-0.1944556419563295,0.3832165456524733,-0.1397616369932483,0.13805858807763333,-0.32239662527456464,0.1729582251833196,-0.4875949838140765,-0.11138712477474882,-1.9463656392427082,0.13345096440447698,2.5953956324789256,0.9452627967883813,0.1728802376190821,-0.48752024683155326,-0.11147110072896137,-1.9463801863486305,0.1336059019074957,2.595550359778934,0.9452445589611904,-3.642026579997216e-05,-0.0005477173863026658,0.0004463909965410851,-0.000184054915528303,-0.00031497149212516727,-0.0001128372462502969,0.0010946208134693539,0.0,0.0,0.0,0.0,0.0,0.0,0.0,-7.798756423749165e-05,7.473698252324912e-05,-8.397595421254234e-05,-1.454710592230235e-05,0.0001549375030187039,0.00015472730000842816,-1.823782719090339e-05,3.642026579997216e-05,0.0005477173863026658,-0.0004463909965410851,0.000184054915528303,0.00031497149212516727,0.0001128372462502969,-0.0010946208134693539,0.2998287081718445,11.750940322875977,-0.9696381092071533,-21.669649124145508,-0.4031272530555725,-2.5399813652038574,0.33084434270858765,0
2,0.004273176193237305,-0.2998287081718445,-11.750940322875977,0.9696381092071533,21.669649124145508,0.4031272530555725,2.5399813652038574,-0.33084434270858765,0.0,0.0,0.0,0.0,0.0,0.0,0.0,-0.2745359768289356,0.545813957951184,-0.1944556419563295,0.3832165456524733,-0.1397616369932483,0.13805858807763333,-0.32239662527456464,0.1729582251833196,-0.4875949838140765,-0.11138712477474882,-1.9463656392427082,0.13345096440447698,2.5953956324789256,0.9452627967883813,0.1728802376190821,-0.48752024683155326,-0.11147110072896137,-1.9463801863486305,0.1336059019074957,2.595550359778934,0.9452445589611904,-3.642026579997216e-05,-0.0005477173863026658,0.0004463909965410851,-0.000184054915528303,-0.00031497149212516727,-0.0001128372462502969,0.0010946208134693539,0.0,0.0,0.0,0.0,0.0,0.0,0.0,-7.798756423749165e-05,7.473698252324912e-05,-8.397595421254234e-05,-1.454710592230235e-05,0.0001549375030187039,0.00015472730000842816,-1.823782719090339e-05,3.642026579997216e-05,0.0005477173863026658,-0.0004463909965410851,0.000184054915528303,0.00031497149212516727,0.0001128372462502969,-0.0010946208134693539,0.2998287081718445,11.750940322875977,-0.9696381092071533,-21.669649124145508,-0.4031272530555725,-2.5399813652038574,0.33084434270858765,0
3,0.010065078735351562,-0.24825400114059448,-11.727136611938477,1.0172455310821533,21.669649124145508,0.3857322335243225,2.5335726737976074,-0.33725303411483765,0.0,0.0,0.0,0.0,0.0,0.0,0.0,-0.27144323147728505,0.5505416954787118,-0.18938313792680642,0.38219769777855733,-0.14009404437563902,0.13815692144642103,-0.32236718342793863,0.1729546059056332,-0.4875993867519572,-0.11139046564645934,-1.9463656382979166,0.13345183094161447,2.5953963445557484,0.9452654407607246,0.1728802376190821,-0.48752024683155326,-0.11147110072896137,-1.9463801863486305,0.1336059019074957,2.595550359778934,0.9452445589611904,0.00027674184505539626,-0.0006442746322515864,-0.00039172755392492635,0.00023299288255670923,0.00023228942562152205,0.00045615403072635496,0.0011357775700490433,0.0,0.0,0.0,0.0,0.0,0.0,0.0,-7.436828655107974e-05,7.913992040392559e-05,-8.063508250202855e-05,-1.4548050713880656e-05,0.0001540709658812145,0.00015401522318558847,-2.0881799534189227e-05,-0.00027674184505539626,0.0006442746322515864,0.00039172755392492635,-0.00023299288255670923,-0.00023228942562152205,-0.00045615403072635496,-0.0011357775700490433,0.24825400114059448,11.727136611938477,-1.0172455310821533,-21.669649124145508,-0.3857322335243225,-2.5335726737976074,0.33725303411483765,0
4,0.014272451400756836,-0.24825400114059448,-11.727136611938477,1.0172455310821533,21.669649124145508,0.3857322335243225,2.5335726737976074,-0.33725303411483765,0.0,0.0,0.0,0.0,0.0,0.0,0.0,-0.27144323147728505,0.5505416954787118,-0.18938313792680642,0.38219769777855733,-0.14009404437563902,0.13815692144642103,-0.32236718342793863,0.1729546059056332,-0.4875993867519572,-0.11139046564645934,-1.9463656382979166,0.13345183094161447,2.5953963445557484,0.9452654407607246,0.1728802376190821,-0.48752024683155326,-0.11147110072896137,-1.9463801863486305,0.1336059019074957,2.595550359778934,0.9452445589611904,0.00027674184505539626,-0.0006442746322515864,-0.00039172755392492635,0.00023299288255670923,0.00023228942562152205,0.00045615403072635496,0.0011357775700490433,0.0,0.0,0.0,0.0,0.0,0.0,0.0,-7.436828655107974e-05,7.913992040392559e-05,-8.063508250202855e-05,-1.4548050713880656e-05,0.0001540709658812145,0.00015401522318558847,-2.0881799534189227e-05,-0.00027674184505539626,0.0006442746322515864,0.00039172755392492635,-0.00023299288255670923,-0.00023228942562152205,-0.00045615403072635496,-0.0011357775700490433,0.24825400114059448,11.727136611938477,-1.0172455310821533,-21.669649124145508,-0.3857322335243225,-2.5335726737976074,0.33725303411483765,0
5,0.01927018165588379,-0.24825400114059448,-11.750940322875977,1.0410492420196533,21.669649124145508,0.3912253975868225,2.5399813652038574,-0.30337852239608765,0.0,0.0,0.0,0.0,0.0,0.0,0.0,-0.2751129031527489,0.5558087788245449,-0.20074851438196903,0.38015988486017444,-0.13985927961146893,0.13867158926205178,-0.3223160266763105,0.1729546059056332,-0.4875973581031834,-0.11139213619057381,-1.9463656381888843,0.13345122057199488,2.5953956193969736,0.945258694714617,0.1728802376190821,-0.48752024683155326,-0.11147110072896137,-1.9463801863486305,0.1336059019074957,2.595550359778934,0.9452445589611904,-5.7904774246427035e-05,0.00033261333130961293,-0.0006745249223446976,-0.00025976050020653726,5.9369568745232334e-05,-7.87942850827369e-05,-0.00040517187087694105,0.0,0.0,0.0,0.0,0.0,0.0,0.0,-7.436828655107974e-05,7.711127163012588e-05,-7.896453838755757e-05,-1.4548159746219369e-05,0.00015468133550081142,0.0001547403819603943,-1.4135753426569586e-05,5.7904774246427035e-05,-0.00033261333130961293,0.0006745249223446976,0.00025976050020653726,-5.9369568745232334e-05,7.87942850827369e-05,0.00040517187087694105,0.24825400114059448,11.750940322875977,-1.0410492420196533,-21.669649124145508,-0.3912253975868225,-2.5399813652038574,0.30337852239608765,0
6,0.024271726608276367,-0.24825400114059448,-11.750940322875977,1.0410492420196533,21.669649124145508,0.3912253975868225,2.5399813652038574,-0.30337852239608765,0.0,0.0,0.0,0.0,0.0,0.0,0.0,-0.2751129031527489,0.5558087788245449,-0.20074851438196903,0.38015988486017444,-0.13985927961146893,0.13867158926205178,-0.3223160266763105,0.1729546059056332,-0.4875973581031834,-0.11139213619057381,-1.9463656381888843,0.13345122057199488,2.5953956193969736,0.945258694714617,0.1728802376190821,-0.48752024683155326,-0.11147110072896137,-1.9463801863486305,0.1336059019074957,2.595550359778934,0.9452445589611904,-5.7904774246427035e-05,0.00033261333130961293,-0.0006745249223446976,-0.00025976050020653726,5.9369568745232334e-05,-7.87942850827369e-05,-0.00040517187087694105,0.0,0.0,0.0,0.0,0.0,0.0,0.0,-7.436828655107974e-05,7.711127163012588e-05,-7.896453838755757e-05,-1.4548159746219369e-05,0.00015468133550081142,0.0001547403819603943,-1.4135753426569586e-05,5.7904774246427035e-05,-0.00033261333130961293,0.0006745249223446976,0.00025976050020653726,-5.9369568745232334e-05,7.87942850827369e-05,0.00040517187087694105,0.24825400114059448,11.750940322875977,-1.0410492420196533,-21.669649124145508,-0.3912253975868225,-2.5399813652038574,0.30337852239608765,0
7,0.029292821884155273,-0.24825400114059448,-11.750940322875977,1.0410492420196533,21.669649124145508,0.3912253975868225,2.5399813652038574,-0.30337852239608765,0.0,0.0,0.0,0.0,0.0,0.0,0.0,-0.2751129031527489,0.5558087788245449,-0.20074851438196903,0.38015988486017444,-0.13985927961146893,0.13867158926205178,-0.3223160266763105,0.1729546059056332,-0.4875973581031834,-0.11139213619057381,-1.9463656381888843,0.13345122057199488,2.5953956193969736,0.945258694714617,0.1728802376190821,-0.48752024683155326,-0.11147110072896137,-1.9463801863486305,0.1336059019074957,2.595550359778934,0.9452445589611904,-5.7904774246427035e-05,0.00033261333130961293,-0.0006745249223446976,-0.00025976050020653726,5.9369568745232334e-05,-7.87942850827369e-05,-0.00040517187087694105,0.0,0.0,0.0,0.0,0.0,0.0,0.0,-7.436828655107974e-05,7.711127163012588e-05,-7.896453838755757e-05,-1.4548159746219369e-05,0.00015468133550081142,0.0001547403819603943,-1.4135753426569586e-05,5.7904774246427035e-05,-0.00033261333130961293,0.0006745249223446976,0.00025976050020653726,-5.9369568745232334e-05,7.87942850827369e-05,0.00040517187087694105,0.24825400114059448,11.750940322875977,-1.0410492420196533,-21.669649124145508,-0.3912253975868225,-2.5399813652038574,0.30337852239608765,0
8,0.03429722785949707,-0.24825400114059448,-11.750940322875977,1.0410492420196533,21.669649124145508,0.3912253975868225,2.5399813652038574,-0.30337852239608765,0.0,0.0,0.0,0.0,0.0,0.0,0.0,-0.2751129031527489,0.5558087788245449,-0.20074851438196903,0.38015988486017444,-0.13985927961146893,0.13867158926205178,-0.3223160266763105,0.1729546059056332,-0.4875973581031834,-0.11139213619057381,-1.9463656381888843,0.13345122057199488,2.5953956193969736,0.945258694714617,0.1728802376190821,-0.48752024683155326,-0.11147110072896137,-1.9463801863486305,0.1336059019074957,2.595550359778934,0.9452445589611904,-5.7904774246427035e-05,0.00033261333130961293,-0.0006745249223446976,-0.00025976050020653726,5.9369568745232334e-05,-7.87942850827369e-05,-0.00040517187087694105,0.0,0.0,0.0,0.0,0.0,0.0,0.0,-7.436828655107974e-05,7.711127163012588e-05,-7.896453838755757e-05,-1.4548159746219369e-05,0.00015468133550081142,0.0001547403819603943,-1.4135753426569586e-05,5.7904774246427035e-05,-0.00033261333130961293,0.0006745249223446976,0.00025976050020653726,-5.9369568745232334e-05,7.87942850827369e-05,0.00040517187087694105,0.24825400114059448,11.750940322875977,-1.0410492420196533,-21.669649124145508,-0.3912253975868225,-2.5399813652038574,0.30337852239608765,0
9,0.03927922248840332,-0.22445029020309448,-11.727136611938477,1.0410492420196533,21.693452835083008,0.3912253975868225,2.5399813652038574,-0.30337852239608765,0.0,0.0,0.0,0.0,0.0,0.0,0.0,-0.2267439274058712,0.557112646733281,-0.12117125366240415,0.3840396586779903,-0.1433371275727469,0.13779955111307654,-0.3220504679993942,0.17295293546977794,-0.4875989159043689,-0.11139213608231521,-1.9463673087337552,0.13345118108085152,2.595395632478852,0.9452626365578145,0.1728802376190821,-0.48752024683155326,-0.11147110072896137,-1.9463801863486305,0.1336059019074957,2.595550359778934,0.9452445589611904,-0.0004096840534225694,-0.0008334282440011774,-0.00034645766111124034,-0.00028230017500416294,0.0003348401363723369,-5.195302315729467e-05,-0.0006320712279026138,0.0,0.0,0.0,0.0,0.0,0.0,0.0,-7.269785069582979e-05,7.866907281561808e-05,-7.89646466461541e-05,-1.287761487533956e-05,0.00015472082664416686,0.00015472730008214697,-1.80775966240887e-05,0.0004096840534225694,0.0008334282440011774,0.00034645766111124034,0.00028230017500416294,-0.0003348401363723369,5.195302315729467e-05,0.0006320712279026138,0.22445029020309448,11.727136611938477,-1.0410492420196533,-21.693452835083008,-0.3912253975868225,-2.5399813652038574,0.30337852239608765,0
10,0.04427766799926758,-0.22445029020309448,-11.727136611938477,1.0410492420196533,21.693452835083008,0.3912253975868225,2.5399813652038574,-0.30337852239608765,0.0,0.0,0.0,0.0,0.0,0.0,0.0,-0.2267439274058712,0.557112646733281,-0.12117125366240415,0.3840396586779903,-0.1433371275727469,0.13779955111307654,-0.3220504679993942,0.17295293546977794,-0.4875989159043689,-0.11139213608231521,-1.9463673087337552,0.13345118108085152,2.595395632478852,0.9452626365578145,0.1728802376190821,-0.48752024683155326,-0.11147110072896137,-1.9463801863486305,0.1336059019074957,2.595550359778934,0.9452445589611904,-0.0004096840534225694,-0.0008334282440011774,-0.00034645766111124034,-0.00028230017500416294,0.0003348401363723369,-5.195302315729467e-05,-0.0006320712279026138,0.0,0.0,0.0,0.0,0.0,0.0,0.0,-7.269785069582979e-05,7.866907281561808e-05,-7.89646466461541e-05,-1.287761487533956e-05,0.00015472082664416686,0.00015472730008214697,-1.80775966240887e-05,0.0004096840534225694,0.0008334282440011774,0.00034645766111124034,0.00028230017500416294,-0.0003348401363723369,5.195302315729467e-05,0.0006320712279026138,0.22445029020309448,11.727136611938477,-1.0410492420196533,-21.693452835083008,-0.3912253975868225,-2.5399813652038574,0.30337852239608765,0
11,0.04427766799926758,-0.22445029020309448,-11.727136611938477,1.0410492420196533,21.693452835083008,0.3912253975868225,2.5399813652038574,-0.30337852239608765,0.0,0.0,0.0,0.0,0.0,0.0,0.0,-0.2267439274058712,0.557112646733281,-0.12117125366240415,0.3840396586779903,-0.1433371275727469,0.13779955111307654,-0.3220504679993942,0.17295293546977794,-0.4875989159043689,-0.11139213608231521,-1.9463673087337552,0.13345118108085152,2.595395632478852,0.9452626365578145,0.1728802376190821,-0.48752024683155326,-0.11147110072896137,-1.9463801863486305,0.1336059019074957,2.595550359778934,0.9452445589611904,-0.0004096840534225694,-0.0008334282440011774,-0.00034645766111124034,-0.00028230017500416294,0.0003348401363723369,-5.195302315729467e-05,-0.0006320712279026138,0.0,0.0,0.0,0.0,0.0,0.0,0.0,-7.269785069582979e-05,7.866907281561808e-05,-7.89646466461541e-05,-1.287761487533956e-05,0.00015472082664416686,0.00015472730008214697,-1.80775966240887e-05,0.0004096840534225694,0.0008334282440011774,0.00034645766111124034,0.00028230017500416294,-0.0003348401363723369,5.195302315729467e-05,0.0006320712279026138,0.22445029020309448,11.727136611938477,-1.0410492420196533,-21.693452835083008,-0.3912253975868225,-2.5399813652038574,0.30337852239608765,0
12,0.05466747283935547,-0.2720577120780945,-11.774744033813477,1.0172455310821533,21.693452835083008,0.4031272530555725,2.5463900566101074,-0.32352012395858765,0.0,0.0,0.0,0.0,0.0,0.0,0.0,-0.2687554992131739,0.5389688011783882,-0.19245618702826175,0.3923853938710355,-0.13920029121629277,0.13990834729815776,-0.3221363244848247,0.17295627634148847,-0.4875932359251315,-0.11139046564645934,-1.9463673087337559,0.13344989814338643,2.595394802664533,0.9452619780260321,0.1728802376190821,-0.48752024683155326,-0.11147110072896137,-1.9463801863486305,0.1336059019074957,2.595550359778934,0.9452445589611904,0.00041334329546332394,-0.0006811826117860482,0.0005685473979083082,-0.00028560653658655236,-0.0003096291189206575,-0.00021128085846294024,0.0008515353722179134,0.0,0.0,0.0,0.0,0.0,0.0,0.0,-7.603872240635745e-05,7.298909357822403e-05,-8.063508250202855e-05,-1.2877614874673426e-05,0.00015600376410926375,0.00015555711440118358,-1.7419064841650567e-05,-0.00041334329546332394,0.0006811826117860482,-0.0005685473979083082,0.00028560653658655236,0.0003096291189206575,0.00021128085846294024,-0.0008515353722179134,0.2720577120780945,11.774744033813477,-1.0172455310821533,-21.693452835083008,-0.4031272530555725,-2.5463900566101074,0.32352012395858765,0
13,0.05927300453186035,-0.2720577120780945,-11.774744033813477,1.0172455310821533,21.693452835083008,0.4031272530555725,2.5463900566101074,-0.32352012395858765,0.0,0.0,0.0,0.0,0.0,0.0,0.0,-0.2687554992131739,0.5389688011783882,-0.19245618702826175,0.3923853938710355,-0.13920029121629277,0.13990834729815776,-0.3221363244848247,0.17295627634148847,-0.4875932359251315,-0.11139046564645934,-1.9463673087337559,0.13344989814338643,2.595394802664533,0.9452619780260321,0.1728802376190821,-0.48752024683155326,-0.11147110072896137,-1.9463801863486305,0.1336059019074957,2.595550359778934,0.9452445589611904,0.00041334329546332394,-0.0006811826117860482,0.0005685473979083082,-0.00028560653658655236,-0.0003096291189206575,-0.00021128085846294024,0.0008515353722179134,0.0,0.0,0.0,0.0,0.0,0.0,0.0,-7.603872240635745e-05,7.298909357822403e-05,-8.063508250202855e-05,-1.2877614874673426e-05,0.00015600376410926375,0.00015555711440118358,-1.7419064841650567e-05,-0.00041334329546332394,0.0006811826117860482,-0.0005685473979083082,0.00028560653658655236,0.0003096291189206575,0.00021128085846294024,-0.0008515353722179134,0.2720577120780945,11.774744033813477,-1.0172455310821533,-21.693452835083008,-0.4031272530555725,-2.5463900566101074,0.32352012395858765,0
14,0.06427335739135742,-0.2998287081718445,-11.802515029907227,0.9934418201446533,21.669649124145508,0.3857322335243225,2.5399813652038574,-0.28232139348983765,0.0,0.0,0.0,0.0,0.0,0.0,0.0,-0.27569538947288263,0.5565141916832049,-0.20588430464830676,0.38185383310674503,-0.13835985793968827,0.13873884144093301,-0.32172882871581027,0.1729582251833196,-0.4875920141177597,-0.11138879521060409,-1.946367704592253,0.13345183092355725,2.595395632424426,0.9452570385506595,0.1728802376190821,-0.48752024683155326,-0.11147110072896137,-1.9463801863486305,0.1336059019074957,2.595550359778934,0.9452445589611904,0.0007058785535507365,0.0005038268675331409,3.124722438803489e-05,0.00024025362386442388,0.00031351453783489184,-8.276415786692938e-05,-0.0016039880758629006,0.0,0.0,0.0,0.0,0.0,0.0,0.0,-7.798756423749165e-05,7.176728620644779e-05,-8.23055183572785e-05,-1.2481756377580311e-05,0.00015407098393843688,0.00015472735450794417,-1.2479589469038821e-05,-0.0007058785535507365,-0.0005038268675331409,-3.124722438803489e-05,-0.00024025362386442388,-0.00031351453783489184,8.276415786692938e-05,0.0016039880758629006,0.2998287081718445,11.802515029907227,-0.9934418201446533,-21.669649124145508,-0.3857322335243225,-2.5399813652038574,0.28232139348983765,0
15,0.06927371025085449,-0.2998287081718445,-11.802515029907227,0.9934418201446533,21.669649124145508,0.3857322335243225,2.5399813652038574,-0.28232139348983765,0.0,0.0,0.0,0.0,0.0,0.0,0.0,-0.27569538947288263,0.5565141916832049,-0.20588430464830676,0.38185383310674503,-0.13835985793968827,0.13873884144093301,-0.32172882871581027,0.1729582251833196,-0.4875920141177597,-0.11138879521060409,-1.946367704592253,0.13345183092355725,2.595395632424426,0.9452570385506595,0.1728802376190821,-0.48752024683155326,-0.11147110072896137,-1.9463801863486305,0.1336059019074957,2.595550359778934,0.9452445589611904,0.0007058785535507365,0.0005038268675331409,3.124722438803489e-05,0.00024025362386442388,0.00031351453783489184,-8.276415786692938e-05,-0.0016039880758629006,0.0,0.0,0.0,0.0,0.0,0.0,0.0,-7.798756423749165e-05,7.176728620644779e-05,-8.23055183572785e-05,-1.2481756377580311e-05,0.00015407098393843688,0.00015472735450794417,-1.2479589469038821e-05,-0.0007058785535507365,-0.0005038268675331409,-3.124722438803489e-05,-0.00024025362386442388,-0.00031351453783489184,8.276415786692938e-05,0.0016039880758629006,0.2998287081718445,11.802515029907227,-0.9934418201446533,-21.669649124145508,-0.3857322335243225,-2.5399813652038574,0.28232139348983765,0
16,0.07427382469177246,-0.3236324191093445,-11.774744033813477,1.0172455310821533,21.693452835083008,0.3912253975868225,2.5335726737976074,-0.33084434270858765,0.0,0.0,0.0,0.0,0.0,0.0,0.0,-0.27167344082929823,0.5488268014524931,-0.1999683339347176,0.38354838426456755,-0.13903666502798223,0.13883634219039698,-0.3215586969470193,0.17295989561917485,-0.4875932349530543,-0.11139046564645934,-1.94636730874542,0.13345122057199477,2.5953963445557484,0.9452647246923875,0.1728802376190821,-0.48752024683155326,-0.11147110072896137,-1.9463801863486305,0.1336059019074957,2.595550359778934,0.9452445589611904,0.00091819666373934,-0.0005126792084016085,-0.000730999791553037,-0.0007827177572280328,3.7210817771809306e-05,0.0002824919201152562,0.0010724053708899334,0.0,0.0,0.0,0.0,0.0,0.0,0.0,-7.96580000927416e-05,7.298812150102751e-05,-8.063508250202855e-05,-1.2877603210448285e-05,0.00015468133550092245,0.00015401522318558847,-2.0165731197119285e-05,-0.00091819666373934,0.0005126792084016085,0.000730999791553037,0.0007827177572280328,-3.7210817771809306e-05,-0.0002824919201152562,-0.0010724053708899334,0.3236324191093445,11.774744033813477,-1.0172455310821533,-21.693452835083008,-0.3912253975868225,-2.5335726737976074,0.33084434270858765,0
17,0.07927584648132324,-0.3236324191093445,-11.774744033813477,1.0172455310821533,21.693452835083008,0.3912253975868225,2.5335726737976074,-0.33084434270858765,0.0,0.0,0.0,0.0,0.0,0.0,0.0,-0.27167344082929823,0.5488268014524931,-0.1999683339347176,0.38354838426456755,-0.13903666502798223,0.13883634219039698,-0.3215586969470193,0.17295989561917485,-0.4875932349530543,-0.11139046564645934,-1.94636730874542,0.13345122057199477,2.5953963445557484,0.9452647246923875,0.1728802376190821,-0.48752024683155326,-0.11147110072896137,-1.9463801863486305,0.1336059019074957,2.595550359778934,0.9452445589611904,0.00091819666373934,-0.0005126792084016085,-0.000730999791553037,-0.0007827177572280328,3.7210817771809306e-05,0.0002824919201152562,0.0010724053708899334,0.0,0.0,0.0,0.0,0.0,0.0,0.0,-7.96580000927416e-05,7.298812150102751e-05,-8.063508250202855e-05,-1.2877603210448285e-05,0.00015468133550092245,0.00015401522318558847,-2.0165731197119285e-05,-0.00091819666373934,0.0005126792084016085,0.000730999791553037,0.0007827177572280328,-3.7210817771809306e-05,-0.0002824919201152562,-0.0010724053708899334,0.3236324191093445,11.774744033813477,-1.0172455310821533,-21.693452835083008,-0.3912253975868225,-2.5335726737976074,0.33084434270858765,0
18,0.0842752456665039,-0.24825400114059448,-11.750940322875977,0.9696381092071533,21.669649124145508,0.4095359444618225,2.5399813652038574,-0.28964561223983765,0.0,0.0,0.0,0.0,0.0,0.0,0.0,-0.2714806839161016,0.5431021522141967,-0.19636397268888525,0.3876391876972579,-0.13950774544971928,0.13939047909365343,-0.32183391265941946,0.1729546059056332,-0.48759500938632017,-0.11138713354374491,-1.9463656118069481,0.1334491860667864,2.595395279266216,0.9452578542821376,0.1728802376190821,-0.48752024683155326,-0.11147110072896137,-1.9463801863486305,0.1336059019074957,2.595550359778934,0.9452445589611904,-0.0009018865434793279,-0.0008287798948329864,0.00035151172692168755,0.0005793660461053818,-0.0005472000982153313,1.3968699979310123e-05,-0.0015737486805635036,0.0,0.0,0.0,0.0,0.0,0.0,0.0,-7.436828655107974e-05,7.476255476690508e-05,-8.396718521645752e-05,-1.4574541682410569e-05,0.00015671584070928168,0.00015508051271817536,-1.3295320947181999e-05,0.0009018865434793279,0.0008287798948329864,-0.00035151172692168755,-0.0005793660461053818,0.0005472000982153313,-1.3968699979310123e-05,0.0015737486805635036,0.24825400114059448,11.750940322875977,-0.9696381092071533,-21.669649124145508,-0.4095359444618225,-2.5399813652038574,0.28964561223983765,0
19,0.08927321434020996,-0.24825400114059448,-11.750940322875977,0.9696381092071533,21.669649124145508,0.4095359444618225,2.5399813652038574,-0.28964561223983765,0.0,0.0,0.0,0.0,0.0,0.0,0.0,-0.2714806839161016,0.5431021522141967,-0.19636397268888525,0.3876391876972579,-0.13950774544971928,0.13939047909365343,-0.32183391265941946,0.1729546059056332,-0.48759500938632017,-0.11138713354374491,-1.9463656118069481,0.1334491860667864,2.595395279266216,0.9452578542821376,0.1728802376190821,-0.48752024683155326,-0.11147110072896137,-1.9463801863486305,0.1336059019074957,2.595550359778934,0.9452445589611904,-0.0009018865434793279,-0.0008287798948329864,0.00035151172692168755,0.0005793660461053818,-0.0005472000982153313,1.3968699979310123e-05,-0.0015737486805635036,0.0,0.0,0.0,0.0,0.0,0.0,0.0,-7.436828655107974e-05,7.476255476690508e-05,-8.396718521645752e-05,-1.4574541682410569e-05,0.00015671584070928168,0.00015508051271817536,-1.3295320947181999e-05,0.0009018865434793279,0.0008287798948329864,-0.00035151172692168755,-0.0005793660461053818,0.0005472000982153313,-1.3968699979310123e-05,0.0015737486805635036,0.24825400114059448,11.750940322875977,-0.9696381092071533,-21.669649124145508,-0.4095359444618225,-2.5399813652038574,0.28964561223983765,0
20,0.09427022933959961,-0.2720577120780945,-11.750940322875977,0.9418671131134033,21.669649124145508,0.3976340889930725,2.5399813652038574,-0.31711143255233765,0.0,0.0,0.0,0.0,0.0,0.0,0.0,-0.2727955395465148,0.531341872706701,-0.1979106759560128,0.39167582850016214,-0.13937623807863664,0.14014630849234383,-0.32282528816210476,0.17295627634148847,-0.4875949833978503,-0.11138517593291951,-1.946365638297895,0.13345054798631512,2.595395279266142,0.9452634829533207,0.1728802376190821,-0.48752024683155326,-0.11147110072896137,-1.9463801863486305,0.1336059019074957,2.595550359778934,0.9452445589611904,-8.087594108421162e-05,-0.0012255837690752064,0.0012147386258309469,0.00011627697120296624,-6.236261984001887e-05,5.9938936994141044e-05,2.8877422242790738e-05,0.0,0.0,0.0,0.0,0.0,0.0,0.0,-7.603872240635745e-05,7.473656629702896e-05,-8.592479604185854e-05,-1.4548050735418983e-05,0.00015535392118057323,0.00015508051279189417,-1.892399213032636e-05,8.087594108421162e-05,0.0012255837690752064,-0.0012147386258309469,-0.00011627697120296624,6.236261984001887e-05,-5.9938936994141044e-05,-2.8877422242790738e-05,0.2720577120780945,11.750940322875977,-0.9418671131134033,-21.669649124145508,-0.3976340889930725,-2.5399813652038574,0.31711143255233765,0
21,0.09927988052368164,-0.2720577120780945,-11.750940322875977,0.9418671131134033,21.669649124145508,0.3976340889930725,2.5399813652038574,-0.31711143255233765,0.0,0.0,0.0,0.0,0.0,0.0,0.0,-0.2727955395465148,0.531341872706701,-0.1979106759560128,0.39167582850016214,-0.13937623807863664,0.14014630849234383,-0.32282528816210476,0.17295627634148847,-0.4875949833978503,-0.11138517593291951,-1.946365638297895,0.13345054798631512,2.595395279266142,0.9452634829533207,0.1728802376190821,-0.48752024683155326,-0.11147110072896137,-1.9463801863486305,0.1336059019074957,2.595550359778934,0.9452445589611904,-8.087594108421162e-05,-0.0012255837690752064,0.0012147386258309469,0.00011627697120296624,-6.236261984001887e-05,5.9938936994141044e-05,2.8877422242790738e-05,0.0,0.0,0.0,0.0,0.0,0.0,0.0,-7.603872240635745e-05,7.473656629702896e-05,-8.592479604185854e-05,-1.4548050735418983e-05,0.00015535392118057323,0.00015508051279189417,-1.892399213032636e-05,8.087594108421162e-05,0.0012255837690752064,-0.0012147386258309469,-0.00011627697120296624,6.236261984001887e-05,-5.9938936994141044e-05,-2.8877422242790738e-05,0.2720577120780945,11.750940322875977,-0.9418671131134033,-21.669649124145508,-0.3976340889930725,-2.5399813652038574,0.31711143255233765,0
22,0.10426974296569824,-0.2720577120780945,-11.774744033813477,0.9696381092071533,21.669649124145508,0.3857322335243225,2.5271639823913574,-0.35098594427108765,0.0,0.0,0.0,0.0,0.0,0.0,0.0,-0.278194855108859,0.544905376082073,-0.20868349773704312,0.38306632149739606,-0.13874416484151736,0.13946605095980322,-0.32244756999455454,0.17295627634148847,-0.4875932353773748,-0.11138712488300803,-1.9463656382979007,0.13345183092378018,2.595395983425979,0.9452679678411212,0.1728802376190821,-0.48752024683155326,-0.11147110072896137,-1.9463801863486305,0.1336059019074957,2.595550359778934,0.9452445589611904,-8.118140897463649e-05,-0.00021059823118682713,-0.00020465061445984042,4.389090312548923e-05,0.00027116312160522756,0.0004930974930233638,0.0022176151442850262,0.0,0.0,0.0,0.0,0.0,0.0,0.0,-7.603872240635745e-05,7.298854582155068e-05,-8.397584595333518e-05,-1.4548050729867867e-05,0.0001540709837155041,0.00015437635295478813,-2.3408879930797433e-05,8.118140897463649e-05,0.00021059823118682713,0.00020465061445984042,-4.389090312548923e-05,-0.00027116312160522756,-0.0004930974930233638,-0.0022176151442850262,0.2720577120780945,11.774744033813477,-0.9696381092071533,-21.669649124145508,-0.3857322335243225,-2.5271639823913574,0.35098594427108765,0
23,0.1092689037322998,-0.2720577120780945,-11.774744033813477,0.9696381092071533,21.669649124145508,0.3857322335243225,2.5271639823913574,-0.35098594427108765,0.0,0.0,0.0,0.0,0.0,0.0,0.0,-0.278194855108859,0.544905376082073,-0.20868349773704312,0.38306632149739606,-0.13874416484151736,0.13946605095980322,-0.32244756999455454,0.17295627634148847,-0.4875932353773748,-0.11138712488300803,-1.9463656382979007,0.13345183092378018,2.595395983425979,0.9452679678411212,0.1728802376190821,-0.48752024683155326,-0.11147110072896137,-1.9463801863486305,0.1336059019074957,2.595550359778934,0.9452445589611904,-8.118140897463649e-05,-0.00021059823118682713,-0.00020465061445984042,4.389090312548923e-05,0.00027116312160522756,0.0004930974930233638,0.0022176151442850262,0.0,0.0,0.0,0.0,0.0,0.0,0.0,-7.603872240635745e-05,7.298854582155068e-05,-8.397584595333518e-05,-1.4548050729867867e-05,0.0001540709837155041,0.00015437635295478813,-2.3408879930797433e-05,8.118140897463649e-05,0.00021059823118682713,0.00020465061445984042,-4.389090312548923e-05,-0.00027116312160522756,-0.0004930974930233638,-0.0022176151442850262,0.2720577120780945,11.774744033813477,-0.9696381092071533,-21.669649124145508,-0.3857322335243225,-2.5271639823913574,0.35098594427108765,0
24,0.11428093910217285,-0.2720577120780945,-11.750940322875977,0.9696381092071533,21.669649124145508,0.3857322335243225,2.5399813652038574,-0.30978721380233765,0.0,0.0,0.0,0.0,0.0,0.0,0.0,-0.27175680690725385,0.5458651240163849,-0.1979950532530149,0.3826396533583389,-0.13975672565589062,0.13903039635564032,-0.3207502535169179,0.17295627634148847,-0.4875956886061265,-0.11138712477474944,-1.9463656382979007,0.13345183092355728,2.5953956324728673,0.9452622804067093,0.1728802376190821,-0.48752024683155326,-0.11147110072896137,-1.9463801863486305,0.1336059019074957,2.595550359778934,0.9452445589611904,8.564144854552729e-05,-0.0005377219131528663,0.0007699985636784394,-2.3965685485831802e-05,0.00048249899680994366,-0.00016512826722778627,-0.00016706855874596205,0.0,0.0,0.0,0.0,0.0,0.0,0.0,-7.603872240635745e-05,7.54417745732483e-05,-8.397595421193171e-05,-1.4548050729867867e-05,0.00015407098393840912,0.00015472730606669316,-1.7721445518925627e-05,-8.564144854552729e-05,0.0005377219131528663,-0.0007699985636784394,2.3965685485831802e-05,-0.00048249899680994366,0.00016512826722778627,0.00016706855874596205,0.2720577120780945,11.750940322875977,-0.9696381092071533,-21.669649124145508,-0.3857322335243225,-2.5399813652038574,0.30978721380233765,0
25,0.11930274963378906,-0.2720577120780945,-11.750940322875977,0.9696381092071533,21.669649124145508,0.3857322335243225,2.5399813652038574,-0.30978721380233765,0.0,0.0,0.0,0.0,0.0,0.0,0.0,-0.27175680690725385,0.5458651240163849,-0.1979950532530149,0.3826396533583389,-0.13975672565589062,0.13903039635564032,-0.3207502535169179,0.17295627634148847,-0.4875956886061265,-0.11138712477474944,-1.9463656382979007,0.13345183092355728,2.5953956324728673,0.9452622804067093,0.1728802376190821,-0.48752024683155326,-0.11147110072896137,-1.9463801863486305,0.1336059019074957,2.595550359778934,0.9452445589611904,8.564144854552729e-05,-0.0005377219131528663,0.0007699985636784394,-2.3965685485831802e-05,0.00048249899680994366,-0.00016512826722778627,-0.00016706855874596205,0.0,0.0,0.0,0.0,0.0,0.0,0.0,-7.603872240635745e-05,7.54417745732483e-05,-8.397595421193171e-05,-1.4548050729867867e-05,0.00015407098393840912,0.00015472730606669316,-1.7721445518925627e-05,-8.564144854552729e-05,0.0005377219131528663,-0.0007699985636784394,2.3965685485831802e-05,-0.00048249899680994366,0.00016512826722778627,0.00016706855874596205,0.2720577120780945,11.750940322875977,-0.9696381092071533,-21.669649124145508,-0.3857322335243225,-2.5399813652038574,0.30978721380233765,0
26,0.1242971420288086,-0.22445029020309448,-11.750940322875977,0.9934418201446533,21.641878128051758,0.3976340889930725,2.5335726737976074,-0.28964561223983765,0.0,0.0,0.0,0.0,0.0,0.0,0.0,-0.27030739105603785,0.5495710031972043,-0.1964214438421703,0.38406795432004814,-0.13969860853387053,0.13873043819545033,-0.3204281161216616,0.17295293546977794,-0.48759490838514974,-0.11138879521060409,-1.9463636894560694,0.13345050849517187,2.5953963445557484,0.9452615313956392,0.1728802376190821,-0.48752024683155326,-0.11147110072896137,-1.9463801863486305,0.1336059019074957,2.595550359778934,0.9452445589611904,-0.0005301165980195295,7.018562907165683e-05,0.0005520786331607263,0.0006707516322062142,-3.4447640412175985e-05,0.0003378033710254807,-0.00041518593889643487,0.0,0.0,0.0,0.0,0.0,0.0,0.0,-7.269785069582979e-05,7.466155359647786e-05,-8.23055183572785e-05,-1.6496892561113086e-05,0.00015539341232381765,0.00015401522318558847,-1.6972434448758733e-05,0.0005301165980195295,-7.018562907165683e-05,-0.0005520786331607263,-0.0006707516322062142,3.4447640412175985e-05,-0.0003378033710254807,0.00041518593889643487,0.22445029020309448,11.750940322875977,-0.9934418201446533,-21.641878128051758,-0.3976340889930725,-2.5335726737976074,0.28964561223983765,0
27,0.12928318977355957,-0.22445029020309448,-11.750940322875977,0.9934418201446533,21.641878128051758,0.3976340889930725,2.5335726737976074,-0.28964561223983765,0.0,0.0,0.0,0.0,0.0,0.0,0.0,-0.27030739105603785,0.5495710031972043,-0.1964214438421703,0.38406795432004814,-0.13969860853387053,0.13873043819545033,-0.3204281161216616,0.17295293546977794,-0.48759490838514974,-0.11138879521060409,-1.9463636894560694,0.13345050849517187,2.5953963445557484,0.9452615313956392,0.1728802376190821,-0.48752024683155326,-0.11147110072896137,-1.9463801863486305,0.1336059019074957,2.595550359778934,0.9452445589611904,-0.0005301165980195295,7.018562907165683e-05,0.0005520786331607263,0.0006707516322062142,-3.4447640412175985e-05,0.0003378033710254807,-0.00041518593889643487,0.0,0.0,0.0,0.0,0.0,0.0,0.0,-7.269785069582979e-05,7.466155359647786e-05,-8.23055183572785e-05,-1.6496892561113086e-05,0.00015539341232381765,0.00015401522318558847,-1.6972434448758733e-05,0.0005301165980195295,-7.018562907165683e-05,-0.0005520786331607263,-0.0006707516322062142,3.4447640412175985e-05,-0.0003378033710254807,0.00041518593889643487,0.22445029020309448,11.750940322875977,-0.9934418201446533,-21.641878128051758,-0.3976340889930725,-2.5335726737976074,0.28964561223983765,0
28,0.13431072235107422,-0.2998287081718445,-11.750940322875977,1.0172455310821533,21.618074417114258,0.3912253975868225,2.5399813652038574,-0.32352012395858765,0.0,0.0,0.0,0.0,0.0,0.0,0.0,-0.26929034475119956,0.5589663181712992,-0.19987078193066612,0.3800118630693114,-0.13892233487947653,0.13832317760573123,-0.32048770035999635,0.1729582251833196,-0.48759521870901235,-0.11139046564645934,-1.9463620190202142,0.1334512205719948,2.5953956324789256,0.9452605315117292,0.1728802376190821,-0.48752024683155326,-0.11147110072896137,-1.9463801863486305,0.1336059019074957,2.595550359778934,0.9452445589611904,0.0010938269237973008,0.0003006462940842429,0.00017403250470745158,0.001253675024815509,0.00018108234352383676,-0.00013092324166037614,0.0006830088057708575,0.0,0.0,0.0,0.0,0.0,0.0,0.0,-7.798756423749165e-05,7.497187745908462e-05,-8.063508250202855e-05,-1.8167328416307527e-05,0.0001546813355008947,0.00015472730000842816,-1.5972550538756458e-05,-0.0010938269237973008,-0.0003006462940842429,-0.00017403250470745158,-0.001253675024815509,-0.00018108234352383676,0.00013092324166037614,-0.0006830088057708575,0.2998287081718445,11.750940322875977,-1.0172455310821533,-21.618074417114258,-0.3912253975868225,-2.5399813652038574,0.32352012395858765,0
29,0.1392803192138672,-0.2998287081718445,-11.750940322875977,1.0172455310821533,21.618074417114258,0.3912253975868225,2.5399813652038574,-0.32352012395858765,0.0,0.0,0.0,0.0,0.0,0.0,0.0,-0.26929034475119956,0.5589663181712992,-0.19987078193066612,0.3800118630693114,-0.13892233487947653,0.13832317760573123,-0.32048770035999635,0.1729582251833196,-0.48759521870901235,-0.11139046564645934,-1.9463620190202142,0.1334512205719948,2.5953956324789256,0.9452605315117292,0.1728802376190821,-0.48752024683155326,-0.11147110072896137,-1.9463801863486305,0.1336059019074957,2.595550359778934,0.9452445589611904,0.0010938269237973008,0.0003006462940842429,0.00017403250470745158,0.001253675024815509,0.00018108234352383676,-0.00013092324166037614,0.0006830088057708575,0.0,0.0,0.0,0.0,0.0,0.0,0.0,-7.798756423749165e-05,7.497187745908462e-05,-8.063508250202855e-05,-1.8167328416307527e-05,0.0001546813355008947,0.00015472730000842816,-1.5972550538756458e-05,-0.0010938269237973008,-0.0003006462940842429,-0.00017403250470745158,-0.001253675024815509,-0.00018108234352383676,0.00013092324166037614,-0.0006830088057708575,0.2998287081718445,11.750940322875977,-1.0172455310821533,-21.618074417114258,-0.3912253975868225,-2.5399813652038574,0.32352012395858765,0
30,0.14427495002746582,-0.22445029020309448,-11.750940322875977,0.9934418201446533,21.693452835083008,0.3976340889930725,2.5335726737976074,-0.31711143255233765,0.0,0.0,0.0,0.0,0.0,0.0,0.0,-0.263061466569118,0.5505787828871989,-0.192057625535117,0.38544203518702397,-0.13921131438213308,0.13911741893137386,-0.32047230684419,0.17295293546977794,-0.4875970115600139,-0.11138879521060409,-1.9463673087337559,0.13345050849517187,2.595396305309892,0.9452603054429161,0.1728802376190821,-0.48752024683155326,-0.11147110072896137,-1.9463801863486305,0.1336059019074957,2.595550359778934,0.9452445589611904,-0.0007564246844006349,-6.153229338289486e-05,0.000640164186097275,-0.00029619465251112543,-1.984714452100899e-05,9.4930924110028e-05,1.3614006741223187e-05,0.0,0.0,0.0,0.0,0.0,0.0,0.0,-7.269785069582979e-05,7.676472846063209e-05,-8.23055183572785e-05,-1.2877614874673426e-05,0.00015539341232381765,0.00015405446904193099,-1.5746481725642525e-05,0.0007564246844006349,6.153229338289486e-05,-0.000640164186097275,0.00029619465251112543,1.984714452100899e-05,-9.4930924110028e-05,-1.3614006741223187e-05,0.22445029020309448,11.750940322875977,-0.9934418201446533,-21.693452835083008,-0.3976340889930725,-2.5335726737976074,0.31711143255233765,0
31,0.14927101135253906,-0.22445029020309448,-11.750940322875977,0.9934418201446533,21.693452835083008,0.3976340889930725,2.5335726737976074,-0.31711143255233765,0.0,0.0,0.0,0.0,0.0,0.0,0.0,-0.263061466569118,0.5505787828871989,-0.192057625535117,0.38544203518702397,-0.13921131438213308,0.13911741893137386,-0.32047230684419,0.17295293546977794,-0.4875970115600139,-0.11138879521060409,-1.9463673087337559,0.13345050849517187,2.595396305309892,0.9452603054429161,0.1728802376190821,-0.48752024683155326,-0.11147110072896137,-1.9463801863486305,0.1336059019074957,2.595550359778934,0.9452445589611904,-0.0007564246844006349,-6.153229338289486e-05,0.000640164186097275,-0.00029619465251112543,-1.984714452100899e-05,9.4930924110028e-05,1.3614006741223187e-05,0.0,0.0,0.0,0.0,0.0,0.0,0.0,-7.269785069582979e-05,7.676472846063209e-05,-8.23055183572785e-05,-1.2877614874673426e-05,0.00015539341232381765,0.00015405446904193099,-1.5746481725642525e-05,0.0007564246844006349,6.153229338289486e-05,-0.000640164186097275,0.00029619465251112543,1.984714452100899e-05,-9.4930924110028e-05,-1.3614006741223187e-05,0.22445029020309448,11.750940322875977,-0.9934418201446533,-21.693452835083008,-0.3976340889930725,-2.5335726737976074,0.31711143255233765,0
32,0.15427494049072266,-0.24825400114059448,-11.750940322875977,0.9934418201446533,21.669649124145508,0.3976340889930725,2.5463900566101074,-0.28964561223983765,0.0,0.0,0.0,0.0,0.0,0.0,0.0,-0.2648801109393121,0.5645608620132312,-0.19483358401597417,0.38001480936599236,-0.13919814678867307,0.13775603669609449,-0.320637984849122,0.1729546059056332,-0.4875949834334952,-0.11138879521060409,-1.9463656382979007,0.13345050849517187,2.5953949203480464,0.9452605085986872,0.1728802376190821,-0.48752024683155326,-0.11147110072896137,-1.9463801863486305,0.1336059019074957,2.595550359778934,0.9452445589611904,-0.0006098103836917176,0.00019092758979641198,0.0005092191296644405,-0.0002137670073654671,-0.00014106691545016207,-0.00040670050947697956,-0.00038484033449195335,0.0,0.0,0.0,0.0,0.0,0.0,0.0,-7.436828655107974e-05,7.473660194196041e-05,-8.23055183572785e-05,-1.4548050729867867e-05,0.00015539341232381765,0.00015543943088758283,-1.5949637496737168e-05,0.0006098103836917176,-0.00019092758979641198,-0.0005092191296644405,0.0002137670073654671,0.00014106691545016207,0.00040670050947697956,0.00038484033449195335,0.24825400114059448,11.750940322875977,-0.9934418201446533,-21.669649124145508,-0.3976340889930725,-2.5463900566101074,0.28964561223983765,0
33,0.1592726707458496,-0.24825400114059448,-11.750940322875977,0.9934418201446533,21.669649124145508,0.3976340889930725,2.5463900566101074,-0.28964561223983765,0.0,0.0,0.0,0.0,0.0,0.0,0.0,-0.2648801109393121,0.5645608620132312,-0.19483358401597417,0.38001480936599236,-0.13919814678867307,0.13775603669609449,-0.320637984849122,0.1729546059056332,-0.4875949834334952,-0.11138879521060409,-1.9463656382979007,0.13345050849517187,2.5953949203480464,0.9452605085986872,0.1728802376190821,-0.48752024683155326,-0.11147110072896137,-1.9463801863486305,0.1336059019074957,2.595550359778934,0.9452445589611904,-0.0006098103836917176,0.00019092758979641198,0.0005092191296644405,-0.0002137670073654671,-0.00014106691545016207,-0.00040670050947697956,-0.00038484033449195335,0.0,0.0,0.0,0.0,0.0,0.0,0.0,-7.436828655107974e-05,7.473660194196041e-05,-8.23055183572785e-05,-1.4548050729867867e-05,0.00015539341232381765,0.00015543943088758283,-1.5949637496737168e-05,0.0006098103836917176,-0.00019092758979641198,-0.0005092191296644405,0.0002137670073654671,0.00014106691545016207,0.00040670050947697956,0.00038484033449195335,0.24825400114059448,11.750940322875977,-0.9934418201446533,-21.669649124145508,-0.3976340889930725,-2.5463900566101074,0.28964561223983765,0
34,0.16427016258239746,-0.3236324191093445,-11.774744033813477,0.9934418201446533,21.669649124145508,0.3912253975868225,2.5399813652038574,-0.30337852239608765,0.0,0.0,0.0,0.0,0.0,0.0,0.0,-0.2640173483142696,0.5534652865394726,-0.19261330818620942,0.3859835790822668,-0.13948588004779264,0.13855571666886993,-0.3194049796841491,0.17295989561917485,-0.48759326137775505,-0.11138879521060409,-1.9463656382979007,0.1334512205719948,2.5953956324789256,0.9452626414326021,0.1728802376190821,-0.48752024683155326,-0.11147110072896137,-1.9463801863486305,0.1336059019074957,2.595550359778934,0.9452445589611904,0.0009983685330822595,-5.45340855287819e-05,5.126261304498007e-05,0.00014121464049328397,1.803117113936298e-05,-9.348888498248454e-05,-0.00027354013043862086,0.0,0.0,0.0,0.0,0.0,0.0,0.0,-7.96580000927416e-05,7.301454620178838e-05,-8.23055183572785e-05,-1.4548050729867867e-05,0.0001546813355008947,0.00015472730000842816,-1.8082471411662304e-05,-0.0009983685330822595,5.45340855287819e-05,-5.126261304498007e-05,-0.00014121464049328397,-1.803117113936298e-05,9.348888498248454e-05,0.00027354013043862086,0.3236324191093445,11.774744033813477,-0.9934418201446533,-21.669649124145508,-0.3912253975868225,-2.5399813652038574,0.30337852239608765,0
35,0.16927051544189453,-0.3236324191093445,-11.774744033813477,0.9934418201446533,21.669649124145508,0.3912253975868225,2.5399813652038574,-0.30337852239608765,0.0,0.0,0.0,0.0,0.0,0.0,0.0,-0.2640173483142696,0.5534652865394726,-0.19261330818620942,0.3859835790822668,-0.13948588004779264,0.13855571666886993,-0.3194049796841491,0.17295989561917485,-0.48759326137775505,-0.11138879521060409,-1.9463656382979007,0.1334512205719948,2.5953956324789256,0.9452626414326021,0.1728802376190821,-0.48752024683155326,-0.11147110072896137,-1.9463801863486305,0.1336059019074957,2.595550359778934,0.9452445589611904,0.0009983685330822595,-5.45340855287819e-05,5.126261304498007e-05,0.00014121464049328397,1.803117113936298e-05,-9.348888498248454e-05,-0.00027354013043862086,0.0,0.0,0.0,0.0,0.0,0.0,0.0,-7.96580000927416e-05,7.301454620178838e-05,-8.23055183572785e-05,-1.4548050729867867e-05,0.0001546813355008947,0.00015472730000842816,-1.8082471411662304e-05,-0.0009983685330822595,5.45340855287819e-05,-5.126261304498007e-05,-0.00014121464049328397,-1.803117113936298e-05,9.348888498248454e-05,0.00027354013043862086,0.3236324191093445,11.774744033813477,-0.9934418201446533,-21.669649124145508,-0.3912253975868225,-2.5399813652038574,0.30337852239608765,0
36,0.1742851734161377,-0.3236324191093445,-11.774744033813477,0.9934418201446533,21.669649124145508,0.3912253975868225,2.5399813652038574,-0.30337852239608765,0.0,0.0,0.0,0.0,0.0,0.0,0.0,-0.2640173483142696,0.5534652865394726,-0.19261330818620942,0.3859835790822668,-0.13948588004779264,0.13855571666886993,-0.3194049796841491,0.17295989561917485,-0.48759326137775505,-0.11138879521060409,-1.9463656382979007,0.1334512205719948,2.5953956324789256,0.9452626414326021,0.1728802376190821,-0.48752024683155326,-0.11147110072896137,-1.9463801863486305,0.1336059019074957,2.595550359778934,0.9452445589611904,0.0009983685330822595,-5.45340855287819e-05,5.126261304498007e-05,0.00014121464049328397,1.803117113936298e-05,-9.348888498248454e-05,-0.00027354013043862086,0.0,0.0,0.0,0.0,0.0,0.0,0.0,-7.96580000927416e-05,7.301454620178838e-05,-8.23055183572785e-05,-1.4548050729867867e-05,0.0001546813355008947,0.00015472730000842816,-1.8082471411662304e-05,-0.0009983685330822595,5.45340855287819e-05,-5.126261304498007e-05,-0.00014121464049328397,-1.803117113936298e-05,9.348888498248454e-05,0.00027354013043862086,0.3236324191093445,11.774744033813477,-0.9934418201446533,-21.669649124145508,-0.3912253975868225,-2.5399813652038574,0.30337852239608765,0
37,0.18052935600280762,-0.3236324191093445,-11.774744033813477,0.9934418201446533,21.669649124145508,0.3912253975868225,2.5399813652038574,-0.30337852239608765,0.0,0.0,0.0,0.0,0.0,0.0,0.0,-0.2640173483142696,0.5534652865394726,-0.19261330818620942,0.3859835790822668,-0.13948588004779264,0.13855571666886993,-0.3194049796841491,0.17295989561917485,-0.48759326137775505,-0.11138879521060409,-1.9463656382979007,0.1334512205719948,2.5953956324789256,0.9452626414326021,0.1728802376190821,-0.48752024683155326,-0.11147110072896137,-1.9463801863486305,0.1336059019074957,2.595550359778934,0.9452445589611904,0.0009983685330822595,-5.45340855287819e-05,5.126261304498007e-05,0.00014121464049328397,1.803117113936298e-05,-9.348888498248454e-05,-0.00027354013043862086,0.0,0.0,0.0,0.0,0.0,0.0,0.0,-7.96580000927416e-05,7.301454620178838e-05,-8.23055183572785e-05,-1.4548050729867867e-05,0.0001546813355008947,0.00015472730000842816,-1.8082471411662304e-05,-0.0009983685330822595,5.45340855287819e-05,-5.126261304498007e-05,-0.00014121464049328397,-1.803117113936298e-05,9.348888498248454e-05,0.00027354013043862086,0.3236324191093445,11.774744033813477,-0.9934418201446533,-21.669649124145508,-0.3912253975868225,-2.5399813652038574,0.30337852239608765,0
38,0.18427085876464844,-0.24825400114059448,-11.802515029907227,1.0172455310821533,21.717256546020508,0.3976340889930725,2.5335726737976074,-0.29605430364608765,0.0,0.0,0.0,0.0,0.0,0.0,0.0,-0.266541906525943,0.5052820447112459,-0.19175019656538214,0.42795416282611815,-0.13871123675108196,0.14483988965061106,-0.3186440416405634,0.1729546059056332,-0.48759198811752336,-0.11139046564645934,-1.946368979169611,0.13345050849517187,2.595395284917619,0.9452587303202529,0.1728802376190821,-0.48752024683155326,-0.11147110072896137,-1.9463801863486305,0.1336059019074957,2.595550359778934,0.9452445589611904,-0.0004722150794481775,0.00041220472914689905,-0.0006498558204693348,-0.0028390604441511846,8.797397407494908e-06,0.00020458339715899578,-0.0006260048789644146,0.0,0.0,0.0,0.0,0.0,0.0,0.0,-7.436828655107974e-05,7.174128597009499e-05,-8.063508250202855e-05,-1.1207179019478986e-05,0.00015539341232381765,0.00015507486131483006,-1.4171359062453703e-05,0.0004722150794481775,-0.00041220472914689905,0.0006498558204693348,0.0028390604441511846,-8.797397407494908e-06,-0.00020458339715899578,0.0006260048789644146,0.24825400114059448,11.802515029907227,-1.0172455310821533,-21.717256546020508,-0.3976340889930725,-2.5335726737976074,0.29605430364608765,0
39,0.18927669525146484,-0.24825400114059448,-11.802515029907227,1.0172455310821533,21.717256546020508,0.3976340889930725,2.5335726737976074,-0.29605430364608765,0.0,0.0,0.0,0.0,0.0,0.0,0.0,-0.266541906525943,0.5052820447112459,-0.19175019656538214,0.42795416282611815,-0.13871123675108196,0.14483988965061106,-0.3186440416405634,0.1729546059056332,-0.48759198811752336,-0.11139046564645934,-1.946368979169611,0.13345050849517187,2.595395284917619,0.9452587303202529,0.1728802376190821,-0.48752024683155326,-0.11147110072896137,-1.9463801863486305,0.1336059019074957,2.595550359778934,0.9452445589611904,-0.0004722150794481775,0.00041220472914689905,-0.0006498558204693348,-0.0028390604441511846,8.797397407494908e-06,0.00020458339715899578,-0.0006260048789644146,0.0,0.0,0.0,0.0,0.0,0.0,0.0,-7.436828655107974e-05,7.174128597009499e-05,-8.063508250202855e-05,-1.1207179019478986e-05,0.00015539341232381765,0.00015507486131483006,-1.4171359062453703e-05,0.0004722150794481775,-0.00041220472914689905,0.0006498558204693348,0.0028390604441511846,-8.797397407494908e-06,-0.00020458339715899578,0.0006260048789644146,0.24825400114059448,11.802515029907227,-1.0172455310821533,-21.717256546020508,-0.3976340889930725,-2.5335726737976074,0.29605430364608765,0
40,0.1942751407623291,-0.24825400114059448,-11.826318740844727,0.9934418201446533,21.669649124145508,0.3976340889930725,2.5271639823913574,-0.33084434270858765,0.0,0.0,0.0,0.0,0.0,0.0,0.0,-0.26751978991579617,0.533344438974868,-0.19675299290108925,0.39976459089695293,-0.13871683506208124,0.14012605941463338,-0.3188358092272209,0.1729546059056332,-0.4875917217060032,-0.11138879521060409,-1.9463656382979007,0.13345050849517187,2.59539705662659,0.945261711641132,0.1728802376190821,-0.48752024683155326,-0.11147110072896137,-1.9463801863486305,0.1336059019074957,2.595550359778934,0.9452445589611904,-0.0008509083959187662,0.0003269298169337253,-0.00023202375427346623,0.00031099632344152954,-7.019241369164846e-05,0.0006153473581688534,0.0011362102128859063,0.0,0.0,0.0,0.0,0.0,0.0,0.0,-7.436828655107974e-05,7.147487444991718e-05,-8.23055183572785e-05,-1.4548050729867867e-05,0.00015539341232381765,0.00015330315234418634,-1.7152679941623283e-05,0.0008509083959187662,-0.0003269298169337253,0.00023202375427346623,-0.00031099632344152954,7.019241369164846e-05,-0.0006153473581688534,-0.0011362102128859063,0.24825400114059448,11.826318740844727,-0.9934418201446533,-21.669649124145508,-0.3976340889930725,-2.5271639823913574,0.33084434270858765,0
41,0.19950294494628906,-0.24825400114059448,-11.826318740844727,0.9934418201446533,21.669649124145508,0.3976340889930725,2.5271639823913574,-0.33084434270858765,0.0,0.0,0.0,0.0,0.0,0.0,0.0,-0.26751978991579617,0.533344438974868,-0.19675299290108925,0.39976459089695293,-0.13871683506208124,0.14012605941463338,-0.3188358092272209,0.1729546059056332,-0.4875917217060032,-0.11138879521060409,-1.9463656382979007,0.13345050849517187,2.59539705662659,0.945261711641132,0.1728802376190821,-0.48752024683155326,-0.11147110072896137,-1.9463801863486305,0.1336059019074957,2.595550359778934,0.9452445589611904,-0.0008509083959187662,0.0003269298169337253,-0.00023202375427346623,0.00031099632344152954,-7.019241369164846e-05,0.0006153473581688534,0.0011362102128859063,0.0,0.0,0.0,0.0,0.0,0.0,0.0,-7.436828655107974e-05,7.147487444991718e-05,-8.23055183572785e-05,-1.4548050729867867e-05,0.00015539341232381765,0.00015330315234418634,-1.7152679941623283e-05,0.0008509083959187662,-0.0003269298169337253,0.00023202375427346623,-0.00031099632344152954,7.019241369164846e-05,-0.0006153473581688534,-0.0011362102128859063,0.24825400114059448,11.826318740844727,-0.9934418201446533,-21.669649124145508,-0.3976340889930725,-2.5271639823913574,0.33084434270858765,0
42,0.20428013801574707,-0.24825400114059448,-11.802515029907227,1.0410492420196533,21.693452835083008,0.3912253975868225,2.5399813652038574,-0.30978721380233765,0.0,0.0,0.0,0.0,0.0,0.0,0.0,-0.2608000899493129,0.5670909233962962,-0.18698544121202448,0.371758004135356,-0.14032441544376287,0.13591646257226495,-0.3181378211121304,0.1729546059056332,-0.4875912861190021,-0.1113921360823146,-1.9463673087337559,0.1334512205719948,2.5953956324789256,0.9452591251302062,0.1728802376190821,-0.48752024683155326,-0.11147110072896137,-1.9463801863486305,0.1336059019074957,2.595550359778934,0.9452445589611904,-0.00024725104424435024,0.0005762306838301998,-0.0011533083178358826,-0.0003275911288777739,0.001785729298324926,-0.00010175134326588808,-0.00020710790706981875,0.0,0.0,0.0,0.0,0.0,0.0,0.0,-7.436828655107974e-05,7.103928744883747e-05,-7.896464664676472e-05,-1.2877614874673426e-05,0.0001546813355008947,0.00015472730000842816,-1.4566169015739483e-05,0.00024725104424435024,-0.0005762306838301998,0.0011533083178358826,0.0003275911288777739,-0.001785729298324926,0.00010175134326588808,0.00020710790706981875,0.24825400114059448,11.802515029907227,-1.0410492420196533,-21.693452835083008,-0.3912253975868225,-2.5399813652038574,0.30978721380233765,0
43,0.20927762985229492,-0.24825400114059448,-11.802515029907227,1.0410492420196533,21.693452835083008,0.3912253975868225,2.5399813652038574,-0.30978721380233765,0.0,0.0,0.0,0.0,0.0,0.0,0.0,-0.2608000899493129,0.5670909233962962,-0.18698544121202448,0.371758004135356,-0.14032441544376287,0.13591646257226495,-0.3181378211121304,0.1729546059056332,-0.4875912861190021,-0.1113921360823146,-1.9463673087337559,0.1334512205719948,2.5953956324789256,0.9452591251302062,0.1728802376190821,-0.48752024683155326,-0.11147110072896137,-1.9463801863486305,0.1336059019074957,2.595550359778934,0.9452445589611904,-0.00024725104424435024,0.0005762306838301998,-0.0011533083178358826,-0.0003275911288777739,0.001785729298324926,-0.00010175134326588808,-0.00020710790706981875,0.0,0.0,0.0,0.0,0.0,0.0,0.0,-7.436828655107974e-05,7.103928744883747e-05,-7.896464664676472e-05,-1.2877614874673426e-05,0.0001546813355008947,0.00015472730000842816,-1.4566169015739483e-05,0.00024725104424435024,-0.0005762306838301998,0.0011533083178358826,0.0003275911288777739,-0.001785729298324926,0.00010175134326588808,0.00020710790706981875,0.24825400114059448,11.802515029907227,-1.0410492420196533,-21.693452835083008,-0.3912253975868225,-2.5399813652038574,0.30978721380233765,0
44,0.21427392959594727,-0.2720577120780945,-11.750940322875977,0.9934418201446533,21.669649124145508,0.3857322335243225,2.5537142753601074,-0.28964561223983765,0.0,0.0,0.0,0.0,0.0,0.0,0.0,-0.26672849828571304,0.5566567525748246,-0.1971064762088928,0.3769532526997891,-0.13934162717173573,0.13687857710640905,-0.3178668807550179,0.17295627634148847,-0.48759493138517995,-0.11138879521060409,-1.9463656382979007,0.13345184408727168,2.5953941066000192,0.9452572934161515,0.1728802376190821,-0.48752024683155326,-0.11147110072896137,-1.9463801863486305,0.1336059019074957,2.595550359778934,0.9452445589611904,-0.00027171220526426047,-0.0007390277846299789,0.00016630158911996968,-0.000322375968404587,0.0003536364106875022,-0.0005430742370726372,-0.0005733770531379061,0.0,0.0,0.0,0.0,0.0,0.0,0.0,-7.603872240635745e-05,7.468455362669157e-05,-8.23055183572785e-05,-1.4548050729867867e-05,0.00015405782022401282,0.00015625317891476698,-1.2734454961083053e-05,0.00027171220526426047,0.0007390277846299789,-0.00016630158911996968,0.000322375968404587,-0.0003536364106875022,0.0005430742370726372,0.0005733770531379061,0.2720577120780945,11.750940322875977,-0.9934418201446533,-21.669649124145508,-0.3857322335243225,-2.5537142753601074,0.28964561223983765,0
45,0.21927785873413086,-0.2720577120780945,-11.750940322875977,0.9934418201446533,21.669649124145508,0.3857322335243225,2.5537142753601074,-0.28964561223983765,0.0,0.0,0.0,0.0,0.0,0.0,0.0,-0.26672849828571304,0.5566567525748246,-0.1971064762088928,0.3769532526997891,-0.13934162717173573,0.13687857710640905,-0.3178668807550179,0.17295627634148847,-0.48759493138517995,-0.11138879521060409,-1.9463656382979007,0.13345184408727168,2.5953941066000192,0.9452572934161515,0.1728802376190821,-0.48752024683155326,-0.11147110072896137,-1.9463801863486305,0.1336059019074957,2.595550359778934,0.9452445589611904,-0.00027171220526426047,-0.0007390277846299789,0.00016630158911996968,-0.000322375968404587,0.0003536364106875022,-0.0005430742370726372,-0.0005733770531379061,0.0,0.0,0.0,0.0,0.0,0.0,0.0,-7.603872240635745e-05,7.468455362669157e-05,-8.23055183572785e-05,-1.4548050729867867e-05,0.00015405782022401282,0.00015625317891476698,-1.2734454961083053e-05,0.00027171220526426047,0.0007390277846299789,-0.00016630158911996968,0.000322375968404587,-0.0003536364106875022,0.0005430742370726372,0.0005733770531379061,0.2720577120780945,11.750940322875977,-0.9934418201446533,-21.669649124145508,-0.3857322335243225,-2.5537142753601074,0.28964561223983765,0
46,0.22434067726135254,-0.3236324191093445,-11.774744033813477,0.9934418201446533,21.669649124145508,0.3857322335243225,2.5335726737976074,-0.34457725286483765,0.0,0.0,0.0,0.0,0.0,0.0,0.0,-0.2735346568116683,0.5456335165947815,-0.20382768745759122,0.38234112465201464,-0.13949850333952452,0.1386250438617829,-0.31812863211039416,0.17295989561917485,-0.4875932349847572,-0.11138879521060409,-1.9463656382979007,0.13345183092363158,2.5953963445557484,0.9452630305869185,0.1728802376190821,-0.48752024683155326,-0.11147110072896137,-1.9463801863486305,0.1336059019074957,2.595550359778934,0.9452445589611904,0.0005345001841820804,7.185336019831825e-05,-0.00038407105762346746,-0.00014152553918066595,0.0003847907119336164,0.0001505470179131846,0.0013723704453999636,0.0,0.0,0.0,0.0,0.0,0.0,0.0,-7.96580000927416e-05,7.298815320394558e-05,-8.23055183572785e-05,-1.4548050729867867e-05,0.00015407098386410745,0.00015401522318558847,-1.847162572810035e-05,-0.0005345001841820804,-7.185336019831825e-05,0.00038407105762346746,0.00014152553918066595,-0.0003847907119336164,-0.0001505470179131846,-0.0013723704453999636,0.3236324191093445,11.774744033813477,-0.9934418201446533,-21.669649124145508,-0.3857322335243225,-2.5335726737976074,0.34457725286483765,0
47,0.22927093505859375,-0.3236324191093445,-11.774744033813477,0.9934418201446533,21.669649124145508,0.3857322335243225,2.5335726737976074,-0.34457725286483765,0.0,0.0,0.0,0.0,0.0,0.0,0.0,-0.2735346568116683,0.5456335165947815,-0.20382768745759122,0.38234112465201464,-0.13949850333952452,0.1386250438617829,-0.31812863211039416,0.17295989561917485,-0.4875932349847572,-0.11138879521060409,-1.9463656382979007,0.13345183092363158,2.5953963445557484,0.9452630305869185,0.1728802376190821,-0.48752024683155326,-0.11147110072896137,-1.9463801863486305,0.1336059019074957,2.595550359778934,0.9452445589611904,0.0005345001841820804,7.185336019831825e-05,-0.00038407105762346746,-0.00014152553918066595,0.0003847907119336164,0.0001505470179131846,0.0013723704453999636,0.0,0.0,0.0,0.0,0.0,0.0,0.0,-7.96580000927416e-05,7.298815320394558e-05,-8.23055183572785e-05,-1.4548050729867867e-05,0.00015407098386410745,0.00015401522318558847,-1.847162572810035e-05,-0.0005345001841820804,-7.185336019831825e-05,0.00038407105762346746,0.00014152553918066595,-0.0003847907119336164,-0.0001505470179131846,-0.0013723704453999636,0.3236324191093445,11.774744033813477,-0.9934418201446533,-21.669649124145508,-0.3857322335243225,-2.5335726737976074,0.34457725286483765,0
48,0.23427414894104004,-0.24825400114059448,-11.750940322875977,1.0172455310821533,21.641878128051758,0.3976340889930725,2.5463900566101074,-0.33084434270858765,0.0,0.0,0.0,0.0,0.0,0.0,0.0,-0.2621392660337986,0.5552851836697709,-0.18583438128176544,0.3778351434537451,-0.14053182468635533,0.13754763712324508,-0.31871947119387545,0.1729546059056332,-0.48759517448338385,-0.11139046564645934,-1.9463636894560694,0.13345050849517187,2.5953949204021027,0.9452657345026398,0.1728802376190821,-0.48752024683155326,-0.11147110072896137,-1.9463801863486305,0.1336059019074957,2.595550359778934,0.9452445589611904,0.00046093558671120435,-0.0002766931605466214,1.0001828239996812e-05,0.0009919454951178592,7.074873704224614e-06,-0.00015905335808697406,0.0014315936408065403,0.0,0.0,0.0,0.0,0.0,0.0,0.0,-7.436828655107974e-05,7.492765183059191e-05,-8.063508250202855e-05,-1.6496892561113086e-05,0.00015539341232381765,0.00015543937683126785,-2.117554144942524e-05,-0.00046093558671120435,0.0002766931605466214,-1.0001828239996812e-05,-0.0009919454951178592,-7.074873704224614e-06,0.00015905335808697406,-0.0014315936408065403,0.24825400114059448,11.750940322875977,-1.0172455310821533,-21.641878128051758,-0.3976340889930725,-2.5463900566101074,0.33084434270858765,0
49,0.23928499221801758,-0.24825400114059448,-11.750940322875977,1.0172455310821533,21.641878128051758,0.3976340889930725,2.5463900566101074,-0.33084434270858765,0.0,0.0,0.0,0.0,0.0,0.0,0.0,-0.2621392660337986,0.5552851836697709,-0.18583438128176544,0.3778351434537451,-0.14053182468635533,0.13754763712324508,-0.31871947119387545,0.1729546059056332,-0.48759517448338385,-0.11139046564645934,-1.9463636894560694,0.13345050849517187,2.5953949204021027,0.9452657345026398,0.1728802376190821,-0.48752024683155326,-0.11147110072896137,-1.9463801863486305,0.1336059019074957,2.595550359778934,0.9452445589611904,0.00046093558671120435,-0.0002766931605466214,1.0001828239996812e-05,0.0009919454951178592,7.074873704224614e-06,-0.00015905335808697406,0.0014315936408065403,0.0,0.0,0.0,0.0,0.0,0.0,0.0,-7.436828655107974e-05,7.492765183059191e-05,-8.063508250202855e-05,-1.6496892561113086e-05,0.00015539341232381765,0.00015543937683126785,-2.117554144942524e-05,-0.00046093558671120435,0.0002766931605466214,-1.0001828239996812e-05,-0.0009919454951178592,-7.074873704224614e-06,0.00015905335808697406,-0.0014315936408065403,0.24825400114059448,11.750940322875977,-1.0172455310821533,-21.641878128051758,-0.3976340889930725,-2.5463900566101074,0.33084434270858765,0
50,0.24427270889282227,-0.2720577120780945,-11.774744033813477,1.0172455310821533,21.693452835083008,0.3976340889930725,2.5335726737976074,-0.27591270208358765,0.0,0.0,0.0,0.0,0.0,0.0,0.0,-0.2710572972150267,0.5459269897904051,-0.20478147348030445,0.3844421342606193,-0.13926937161031444,0.13946340560378406,-0.3189524579072236,0.17295627634148847,-0.48759393697160025,-0.11139046564645934,-1.9463673087337559,0.13345050849517187,2.595396340195098,0.945256326749829,0.1728802376190821,-0.48752024683155326,-0.11147110072896137,-1.9463801863486305,0.1336059019074957,2.595550359778934,0.9452445589611904,-0.00012168428637611436,0.00014271956956341043,-0.00035273047177332363,-0.00041361167289178833,-0.0002836080397997201,0.00016845212528827816,-0.0017600460999563298,0.0,0.0,0.0,0.0,0.0,0.0,0.0,-7.603872240635745e-05,7.369014004698915e-05,-8.063508250202855e-05,-1.2877614874673426e-05,0.00015539341232381765,0.00015401958383609582,-1.1767788638539223e-05,0.00012168428637611436,-0.00014271956956341043,0.00035273047177332363,0.00041361167289178833,0.0002836080397997201,-0.00016845212528827816,0.0017600460999563298,0.2720577120780945,11.774744033813477,-1.0172455310821533,-21.693452835083008,-0.3976340889930725,-2.5335726737976074,0.27591270208358765,0
51,0.24927067756652832,-0.2720577120780945,-11.774744033813477,1.0172455310821533,21.693452835083008,0.3976340889930725,2.5335726737976074,-0.27591270208358765,0.0,0.0,0.0,0.0,0.0,0.0,0.0,-0.2710572972150267,0.5459269897904051,-0.20478147348030445,0.3844421342606193,-0.13926937161031444,0.13946340560378406,-0.3189524579072236,0.17295627634148847,-0.48759393697160025,-0.11139046564645934,-1.9463673087337559,0.13345050849517187,2.595396340195098,0.945256326749829,0.1728802376190821,-0.48752024683155326,-0.11147110072896137,-1.9463801863486305,0.1336059019074957,2.595550359778934,0.9452445589611904,-0.00012168428637611436,0.00014271956956341043,-0.00035273047177332363,-0.00041361167289178833,-0.0002836080397997201,0.00016845212528827816,-0.0017600460999563298,0.0,0.0,0.0,0.0,0.0,0.0,0.0,-7.603872240635745e-05,7.369014004698915e-05,-8.063508250202855e-05,-1.2877614874673426e-05,0.00015539341232381765,0.00015401958383609582,-1.1767788638539223e-05,0.00012168428637611436,-0.00014271956956341043,0.00035273047177332363,0.00041361167289178833,0.0002836080397997201,-0.00016845212528827816,0.0017600460999563298,0.2720577120780945,11.774744033813477,-1.0172455310821533,-21.693452835083008,-0.3976340889930725,-2.5335726737976074,0.27591270208358765,0
52,0.2542893886566162,-0.24825400114059448,-11.774744033813477,0.9934418201446533,21.693452835083008,0.3912253975868225,2.5537142753601074,-0.30978721380233765,0.0,0.0,0.0,0.0,0.0,0.0,0.0,-0.26354108194910747,0.5524821889069869,-0.19374655832259957,0.3833496310856741,-0.1397990263959102,0.1384815198605587,-0.31917865065679357,0.1729546059056332,-0.48759537575786044,-0.11138879618493698,-1.9463673087337559,0.1334512205719948,2.595393988862425,0.9452604968254041,0.1728802376190821,-0.48752024683155326,-0.11147110072896137,-1.9463801863486305,0.1336059019074957,2.595550359778934,0.9452445589611904,-0.00020107040038973504,0.00021501488467490465,0.00014033730809533037,-0.000498980787169339,0.0002277527322933656,-0.0007266405268471313,0.0005383390751736663,0.0,0.0,0.0,0.0,0.0,0.0,0.0,-7.436828655107974e-05,7.512892630717749e-05,-8.230454402438636e-05,-1.2877614874673426e-05,0.0001546813355008947,0.00015637091650910762,-1.593786421372201e-05,0.00020107040038973504,-0.00021501488467490465,-0.00014033730809533037,0.000498980787169339,-0.0002277527322933656,0.0007266405268471313,-0.0005383390751736663,0.24825400114059448,11.774744033813477,-0.9934418201446533,-21.693452835083008,-0.3912253975868225,-2.5537142753601074,0.30978721380233765,0
53,0.25927019119262695,-0.24825400114059448,-11.774744033813477,0.9934418201446533,21.693452835083008,0.3912253975868225,2.5537142753601074,-0.30978721380233765,0.0,0.0,0.0,0.0,0.0,0.0,0.0,-0.26354108194910747,0.5524821889069869,-0.19374655832259957,0.3833496310856741,-0.1397990263959102,0.1384815198605587,-0.31917865065679357,0.1729546059056332,-0.48759537575786044,-0.11138879618493698,-1.9463673087337559,0.1334512205719948,2.595393988862425,0.9452604968254041,0.1728802376190821,-0.48752024683155326,-0.11147110072896137,-1.9463801863486305,0.1336059019074957,2.595550359778934,0.9452445589611904,-0.00020107040038973504,0.00021501488467490465,0.00014033730809533037,-0.000498980787169339,0.0002277527322933656,-0.0007266405268471313,0.0005383390751736663,0.0,0.0,0.0,0.0,0.0,0.0,0.0,-7.436828655107974e-05,7.512892630717749e-05,-8.230454402438636e-05,-1.2877614874673426e-05,0.0001546813355008947,0.00015637091650910762,-1.593786421372201e-05,0.00020107040038973504,-0.00021501488467490465,-0.00014033730809533037,0.000498980787169339,-0.0002277527322933656,0.0007266405268471313,-0.0005383390751736663,0.24825400114059448,11.774744033813477,-0.9934418201446533,-21.693452835083008,-0.3912253975868225,-2.5537142753601074,0.30978721380233765,0
54,0.2642951011657715,-0.24825400114059448,-11.774744033813477,0.9934418201446533,21.693452835083008,0.3912253975868225,2.5537142753601074,-0.30978721380233765,0.0,0.0,0.0,0.0,0.0,0.0,0.0,-0.26354108194910747,0.5524821889069869,-0.19374655832259957,0.3833496310856741,-0.1397990263959102,0.1384815198605587,-0.31917865065679357,0.1729546059056332,-0.48759537575786044,-0.11138879618493698,-1.9463673087337559,0.1334512205719948,2.595393988862425,0.9452604968254041,0.1728802376190821,-0.48752024683155326,-0.11147110072896137,-1.9463801863486305,0.1336059019074957,2.595550359778934,0.9452445589611904,-0.00020107040038973504,0.00021501488467490465,0.00014033730809533037,-0.000498980787169339,0.0002277527322933656,-0.0007266405268471313,0.0005383390751736663,0.0,0.0,0.0,0.0,0.0,0.0,0.0,-7.436828655107974e-05,7.512892630717749e-05,-8.230454402438636e-05,-1.2877614874673426e-05,0.0001546813355008947,0.00015637091650910762,-1.593786421372201e-05,0.00020107040038973504,-0.00021501488467490465,-0.00014033730809533037,0.000498980787169339,-0.0002277527322933656,0.0007266405268471313,-0.0005383390751736663,0.24825400114059448,11.774744033813477,-0.9934418201446533,-21.693452835083008,-0.3912253975868225,-2.5537142753601074,0.30978721380233765,0
55,0.2693045139312744,-0.24825400114059448,-11.802515029907227,0.9696381092071533,21.669649124145508,0.4031272530555725,2.5463900566101074,-0.33725303411483765,0.0,0.0,0.0,0.0,0.0,0.0,0.0,-0.2587642157005511,0.5626869665514362,-0.1865783136889336,0.3807695345634816,-0.1400211571466625,0.1371293948085178,-0.3192855685072143,0.1729546059056332,-0.4875912948929892,-0.11138712477475432,-1.9463656382979007,0.13344989814360936,2.595394920239933,0.9452621810329491,0.1728802376190821,-0.48752024683155326,-0.11147110072896137,-1.9463801863486305,0.1336059019074957,2.595550359778934,0.9452445589611904,-0.0001993950285307847,0.0015232258053131816,0.0011256944084262178,5.660020220026626e-06,-0.000456151326397497,-0.0003985470863403323,0.0010324259156511931,0.0,0.0,0.0,0.0,0.0,0.0,0.0,-7.436828655107974e-05,7.10480614359299e-05,-8.397595420704673e-05,-1.4548050729867867e-05,0.00015600376388633097,0.00015543953900110097,-1.7622071758705005e-05,0.0001993950285307847,-0.0015232258053131816,-0.0011256944084262178,-5.660020220026626e-06,0.000456151326397497,0.0003985470863403323,-0.0010324259156511931,0.24825400114059448,11.802515029907227,-0.9696381092071533,-21.669649124145508,-0.4031272530555725,-2.5463900566101074,0.33725303411483765,0
56,0.274355411529541,-0.24825400114059448,-11.802515029907227,0.9696381092071533,21.669649124145508,0.4031272530555725,2.5463900566101074,-0.33725303411483765,0.0,0.0,0.0,0.0,0.0,0.0,0.0,-0.2587642157005511,0.5626869665514362,-0.1865783136889336,0.3807695345634816,-0.1400211571466625,0.1371293948085178,-0.3192855685072143,0.1729546059056332,-0.4875912948929892,-0.11138712477475432,-1.9463656382979007,0.13344989814360936,2.595394920239933,0.9452621810329491,0.1728802376190821,-0.48752024683155326,-0.11147110072896137,-1.9463801863486305,0.1336059019074957,2.595550359778934,0.9452445589611904,-0.0001993950285307847,0.0015232258053131816,0.0011256944084262178,5.660020220026626e-06,-0.000456151326397497,-0.0003985470863403323,0.0010324259156511931,0.0,0.0,0.0,0.0,0.0,0.0,0.0,-7.436828655107974e-05,7.10480614359299e-05,-8.397595420704673e-05,-1.4548050729867867e-05,0.00015600376388633097,0.00015543953900110097,-1.7622071758705005e-05,0.0001993950285307847,-0.0015232258053131816,-0.0011256944084262178,-5.660020220026626e-06,0.000456151326397497,0.0003985470863403323,-0.0010324259156511931,0.24825400114059448,11.802515029907227,-0.9696381092071533,-21.669649124145508,-0.4031272530555725,-2.5463900566101074,0.33725303411483765,0
57,0.27928614616394043,-0.2720577120780945,-11.850122451782227,0.9696381092071533,21.669649124145508,0.3976340889930725,2.5399813652038574,-0.34457725286483765,0.0,0.0,0.0,0.0,0.0,0.0,0.0,-0.2615791026186609,0.5517371940024001,-0.1922790381225326,0.386578233539265,-0.1397943865267371,0.1382114579770149,-0.3196871807319414,0.17295627634148847,-0.48758794555644486,-0.11138712477474882,-1.9463656382979007,0.13345050849517187,2.595392453564537,0.94526339847687,0.1728802376190821,-0.48752024683155326,-0.11147110072896137,-1.9463801863486305,0.1336059019074957,2.595550359778934,0.9452445589611904,0.0002862706535260963,0.001720020302239414,0.0007384001464909402,1.1969947215305973e-06,-0.00015922270574914528,-3.041404955178468e-05,0.0010784653614932297,0.0,0.0,0.0,0.0,0.0,0.0,0.0,-7.603872240635745e-05,6.769872489159612e-05,-8.397595421254234e-05,-1.4548050729867867e-05,0.00015539341232381765,0.0001579062143970411,-1.8839515679602847e-05,-0.0002862706535260963,-0.001720020302239414,-0.0007384001464909402,-1.1969947215305973e-06,0.00015922270574914528,3.041404955178468e-05,-0.0010784653614932297,0.2720577120780945,11.850122451782227,-0.9696381092071533,-21.669649124145508,-0.3976340889930725,-2.5399813652038574,0.34457725286483765,0
58,0.28429603576660156,-0.2720577120780945,-11.850122451782227,0.9696381092071533,21.669649124145508,0.3976340889930725,2.5399813652038574,-0.34457725286483765,0.0,0.0,0.0,0.0,0.0,0.0,0.0,-0.2615791026186609,0.5517371940024001,-0.1922790381225326,0.386578233539265,-0.1397943865267371,0.1382114579770149,-0.3196871807319414,0.17295627634148847,-0.48758794555644486,-0.11138712477474882,-1.9463656382979007,0.13345050849517187,2.595392453564537,0.94526339847687,0.1728802376190821,-0.48752024683155326,-0.11147110072896137,-1.9463801863486305,0.1336059019074957,2.595550359778934,0.9452445589611904,0.0002862706535260963,0.001720020302239414,0.0007384001464909402,1.1969947215305973e-06,-0.00015922270574914528,-3.041404955178468e-05,0.0010784653614932297,0.0,0.0,0.0,0.0,0.0,0.0,0.0,-7.603872240635745e-05,6.769872489159612e-05,-8.397595421254234e-05,-1.4548050729867867e-05,0.00015539341232381765,0.0001579062143970411,-1.8839515679602847e-05,-0.0002862706535260963,-0.001720020302239414,-0.0007384001464909402,-1.1969947215305973e-06,0.00015922270574914528,3.041404955178468e-05,-0.0010784653614932297,0.2720577120780945,11.850122451782227,-0.9696381092071533,-21.669649124145508,-0.3976340889930725,-2.5399813652038574,0.34457725286483765,0
59,0.28926992416381836,-0.2720577120780945,-11.826318740844727,0.9934418201446533,21.669649124145508,0.4031272530555725,2.5463900566101074,-0.26858848333358765,0.0,0.0,0.0,0.0,0.0,0.0,0.0,-0.2633119418278933,0.5441407433200797,-0.19441332083386711,0.38806664822808906,-0.13932174404564568,0.13895403335971893,-0.32136401406093257,0.17295627634148847,-0.48758970233919346,-0.11138879521060409,-1.9463656382979007,0.13344989814360936,2.595394920384158,0.9452549543996368,0.1728802376190821,-0.48752024683155326,-0.11147110072896137,-1.9463801863486305,0.1336059019074957,2.595550359778934,0.9452445589611904,-0.00029931490343366356,0.0005079502096768472,-2.6032472158045518e-05,0.0002612342602905224,-0.004274172257273558,1.924611601674287e-05,-0.0016650497022971825,0.0,0.0,0.0,0.0,0.0,0.0,0.0,-7.603872240635745e-05,6.94555076402037e-05,-8.23055183572785e-05,-1.4548050729867867e-05,0.00015600376388633097,0.00015543939477602464,-1.0395438446386684e-05,0.00029931490343366356,-0.0005079502096768472,2.6032472158045518e-05,-0.0002612342602905224,0.004274172257273558,-1.924611601674287e-05,0.0016650497022971825,0.2720577120780945,11.826318740844727,-0.9934418201446533,-21.669649124145508,-0.4031272530555725,-2.5463900566101074,0.26858848333358765,0
60,0.2942957878112793,-0.2720577120780945,-11.826318740844727,0.9934418201446533,21.669649124145508,0.4031272530555725,2.5463900566101074,-0.26858848333358765,0.0,0.0,0.0,0.0,0.0,0.0,0.0,-0.2633119418278933,0.5441407433200797,-0.19441332083386711,0.38806664822808906,-0.13932174404564568,0.13895403335971893,-0.32136401406093257,0.17295627634148847,-0.48758970233919346,-0.11138879521060409,-1.9463656382979007,0.13344989814360936,2.595394920384158,0.9452549543996368,0.1728802376190821,-0.48752024683155326,-0.11147110072896137,-1.9463801863486305,0.1336059019074957,2.595550359778934,0.9452445589611904,-0.00029931490343366356,0.0005079502096768472,-2.6032472158045518e-05,0.0002612342602905224,-0.004274172257273558,1.924611601674287e-05,-0.0016650497022971825,0.0,0.0,0.0,0.0,0.0,0.0,0.0,-7.603872240635745e-05,6.94555076402037e-05,-8.23055183572785e-05,-1.4548050729867867e-05,0.00015600376388633097,0.00015543939477602464,-1.0395438446386684e-05,0.00029931490343366356,-0.0005079502096768472,2.6032472158045518e-05,-0.0002612342602905224,0.004274172257273558,-1.924611601674287e-05,0.0016650497022971825,0.2720577120780945,11.826318740844727,-0.9934418201446533,-21.669649124145508,-0.4031272530555725,-2.5463900566101074,0.26858848333358765,0
61,0.2993197441101074,-0.2720577120780945,-11.826318740844727,0.9934418201446533,21.669649124145508,0.4031272530555725,2.5463900566101074,-0.26858848333358765,0.0,0.0,0.0,0.0,0.0,0.0,0.0,-0.2633119418278933,0.5441407433200797,-0.19441332083386711,0.38806664822808906,-0.13932174404564568,0.13895403335971893,-0.32136401406093257,0.17295627634148847,-0.48758970233919346,-0.11138879521060409,-1.9463656382979007,0.13344989814360936,2.595394920384158,0.9452549543996368,0.1728802376190821,-0.48752024683155326,-0.11147110072896137,-1.9463801863486305,0.1336059019074957,2.595550359778934,0.9452445589611904,-0.00029931490343366356,0.0005079502096768472,-2.6032472158045518e-05,0.0002612342602905224,-0.004274172257273558,1.924611601674287e-05,-0.0016650497022971825,0.0,0.0,0.0,0.0,0.0,0.0,0.0,-7.603872240635745e-05,6.94555076402037e-05,-8.23055183572785e-05,-1.4548050729867867e-05,0.00015600376388633097,0.00015543939477602464,-1.0395438446386684e-05,0.00029931490343366356,-0.0005079502096768472,2.6032472158045518e-05,-0.0002612342602905224,0.004274172257273558,-1.924611601674287e-05,0.0016650497022971825,0.2720577120780945,11.826318740844727,-0.9934418201446533,-21.669649124145508,-0.4031272530555725,-2.5463900566101074,0.26858848333358765,0
62,0.3043386936187744,-0.2720577120780945,-11.826318740844727,0.9934418201446533,21.669649124145508,0.4031272530555725,2.5463900566101074,-0.26858848333358765,0.0,0.0,0.0,0.0,0.0,0.0,0.0,-0.2633119418278933,0.5441407433200797,-0.19441332083386711,0.38806664822808906,-0.13932174404564568,0.13895403335971893,-0.32136401406093257,0.17295627634148847,-0.48758970233919346,-0.11138879521060409,-1.9463656382979007,0.13344989814360936,2.595394920384158,0.9452549543996368,0.1728802376190821,-0.48752024683155326,-0.11147110072896137,-1.9463801863486305,0.1336059019074957,2.595550359778934,0.9452445589611904,-0.00029931490343366356,0.0005079502096768472,-2.6032472158045518e-05,0.0002612342602905224,-0.004274172257273558,1.924611601674287e-05,-0.0016650497022971825,0.0,0.0,0.0,0.0,0.0,0.0,0.0,-7.603872240635745e-05,6.94555076402037e-05,-8.23055183572785e-05,-1.4548050729867867e-05,0.00015600376388633097,0.00015543939477602464,-1.0395438446386684e-05,0.00029931490343366356,-0.0005079502096768472,2.6032472158045518e-05,-0.0002612342602905224,0.004274172257273558,-1.924611601674287e-05,0.0016650497022971825,0.2720577120780945,11.826318740844727,-0.9934418201446533,-21.669649124145508,-0.4031272530555725,-2.5463900566101074,0.26858848333358765,0
63,0.3093416690826416,-0.2998287081718445,-11.802515029907227,0.9418671131134033,21.669649124145508,0.3912253975868225,2.5399813652038574,-0.28964561223983765,0.0,0.0,0.0,0.0,0.0,0.0,0.0,-0.26590165744169797,0.5562503261155753,-0.1967492606223632,0.37674829055866454,-0.139360464648508,0.13795965152222878,-0.3217429457456057,0.1729582251833196,-0.4875912950963669,-0.11138517593291768,-1.9463656382979007,0.1334512205719948,2.5953956324789256,0.9452569002592573,0.1728802376190821,-0.48752024683155326,-0.11147110072896137,-1.9463801863486305,0.1336059019074957,2.595550359778934,0.9452445589611904,0.0002751531925103189,0.0001980053178666715,0.0011304711705921022,-7.254311851389623e-05,-0.0002997700018261203,4.672505140750163e-05,-0.0006794551743546007,0.0,0.0,0.0,0.0,0.0,0.0,0.0,-7.798756423749165e-05,7.104826481363347e-05,-8.592479604369041e-05,-1.4548050729867867e-05,0.0001546813355008947,0.00015472730000842816,-1.2341298066931294e-05,-0.0002751531925103189,-0.0001980053178666715,-0.0011304711705921022,7.254311851389623e-05,0.0002997700018261203,-4.672505140750163e-05,0.0006794551743546007,0.2998287081718445,11.802515029907227,-0.9418671131134033,-21.669649124145508,-0.3912253975868225,-2.5399813652038574,0.28964561223983765,0
64,0.31429076194763184,-0.2998287081718445,-11.802515029907227,0.9418671131134033,21.669649124145508,0.3912253975868225,2.5399813652038574,-0.28964561223983765,0.0,0.0,0.0,0.0,0.0,0.0,0.0,-0.26590165744169797,0.5562503261155753,-0.1967492606223632,0.37674829055866454,-0.139360464648508,0.13795965152222878,-0.3217429457456057,0.1729582251833196,-0.4875912950963669,-0.11138517593291768,-1.9463656382979007,0.1334512205719948,2.5953956324789256,0.9452569002592573,0.1728802376190821,-0.48752024683155326,-0.11147110072896137,-1.9463801863486305,0.1336059019074957,2.595550359778934,0.9452445589611904,0.0002751531925103189,0.0001980053178666715,0.0011304711705921022,-7.254311851389623e-05,-0.0002997700018261203,4.672505140750163e-05,-0.0006794551743546007,0.0,0.0,0.0,0.0,0.0,0.0,0.0,-7.798756423749165e-05,7.104826481363347e-05,-8.592479604369041e-05,-1.4548050729867867e-05,0.0001546813355008947,0.00015472730000842816,-1.2341298066931294e-05,-0.0002751531925103189,-0.0001980053178666715,-0.0011304711705921022,7.254311851389623e-05,0.0002997700018261203,-4.672505140750163e-05,0.0006794551743546007,0.2998287081718445,11.802515029907227,-0.9418671131134033,-21.669649124145508,-0.3912253975868225,-2.5399813652038574,0.28964561223983765,0
65,0.3192744255065918,-0.24825400114059448,-11.750940322875977,0.9696381092071533,21.669649124145508,0.3912253975868225,2.5335726737976074,-0.32352012395858765,0.0,0.0,0.0,0.0,0.0,0.0,0.0,-0.26460941112847514,0.5467306276643465,-0.1922607199946577,0.3784117943666058,-0.140111094681399,0.13868625284025318,-0.321767814872578,0.1729546059056332,-0.48759701141559886,-0.11138712477474882,-1.9463656382979007,0.13345441935459773,2.5953963314737964,0.9452648893000501,0.1728802376190821,-0.48752024683155326,-0.11147110072896137,-1.9463801863486305,0.1336059019074957,2.595550359778934,0.9452445589611904,-0.00027135827786434246,-0.0008383547985340894,0.00021365295734015005,0.00018631787296310005,3.6622864260639695e-05,0.0003817192632775058,0.0005004717815651805,0.0,0.0,0.0,0.0,0.0,0.0,0.0,-7.436828655107974e-05,7.67645840455966e-05,-8.397595421254234e-05,-1.4548050729867867e-05,0.00015148255289795798,0.0001540283051375546,-2.03303388597309e-05,0.00027135827786434246,0.0008383547985340894,-0.00021365295734015005,-0.00018631787296310005,-3.6622864260639695e-05,-0.0003817192632775058,-0.0005004717815651805,0.24825400114059448,11.750940322875977,-0.9696381092071533,-21.669649124145508,-0.3912253975868225,-2.5335726737976074,0.32352012395858765,0
66,0.32428789138793945,-0.24825400114059448,-11.750940322875977,0.9696381092071533,21.669649124145508,0.3912253975868225,2.5335726737976074,-0.32352012395858765,0.0,0.0,0.0,0.0,0.0,0.0,0.0,-0.26460941112847514,0.5467306276643465,-0.1922607199946577,0.3784117943666058,-0.140111094681399,0.13868625284025318,-0.321767814872578,0.1729546059056332,-0.48759701141559886,-0.11138712477474882,-1.9463656382979007,0.13345441935459773,2.5953963314737964,0.9452648893000501,0.1728802376190821,-0.48752024683155326,-0.11147110072896137,-1.9463801863486305,0.1336059019074957,2.595550359778934,0.9452445589611904,-0.00027135827786434246,-0.0008383547985340894,0.00021365295734015005,0.00018631787296310005,3.6622864260639695e-05,0.0003817192632775058,0.0005004717815651805,0.0,0.0,0.0,0.0,0.0,0.0,0.0,-7.436828655107974e-05,7.67645840455966e-05,-8.397595421254234e-05,-1.4548050729867867e-05,0.00015148255289795798,0.0001540283051375546,-2.03303388597309e-05,0.00027135827786434246,0.0008383547985340894,-0.00021365295734015005,-0.00018631787296310005,-3.6622864260639695e-05,-0.0003817192632775058,-0.0005004717815651805,0.24825400114059448,11.750940322875977,-0.9696381092071533,-21.669649124145508,-0.3912253975868225,-2.5335726737976074,0.32352012395858765,0
67,0.32931065559387207,-0.2720577120780945,-11.727136611938477,0.9934418201446533,21.618074417114258,0.3976340889930725,2.5399813652038574,-0.30978721380233765,0.0,0.0,0.0,0.0,0.0,0.0,0.0,-0.2664622506891651,0.5470979263506521,-0.19892836057488994,0.37803103181985354,-0.1401424483692272,0.13882828221526894,-0.3214653383450229,0.17295627634148847,-0.48759727784280443,-0.11139092607665481,-1.9463620190202142,0.13345050851322907,2.5953956193430647,0.9452591387824634,0.1728802376190821,-0.48752024683155326,-0.11147110072896137,-1.9463801863486305,0.1336059019074957,2.595550359778934,0.9452445589611904,-0.00022809584545124497,-0.0005961416074668163,-7.317468076957795e-05,0.001328694920222252,-0.00022822512586401962,1.1431450625778775e-05,-0.0004308252137654999,0.0,0.0,0.0,0.0,0.0,0.0,0.0,-7.603872240635745e-05,7.703101125117184e-05,-8.017465230655829e-05,-1.8167328416307527e-05,0.00015539339426662302,0.00015474043586927166,-1.4579821272953097e-05,0.00022809584545124497,0.0005961416074668163,7.317468076957795e-05,-0.001328694920222252,0.00022822512586401962,-1.1431450625778775e-05,0.0004308252137654999,0.2720577120780945,11.727136611938477,-0.9934418201446533,-21.618074417114258,-0.3976340889930725,-2.5399813652038574,0.30978721380233765,0
68,0.3342857360839844,-0.2720577120780945,-11.727136611938477,0.9934418201446533,21.618074417114258,0.3976340889930725,2.5399813652038574,-0.30978721380233765,0.0,0.0,0.0,0.0,0.0,0.0,0.0,-0.2664622506891651,0.5470979263506521,-0.19892836057488994,0.37803103181985354,-0.1401424483692272,0.13882828221526894,-0.3214653383450229,0.17295627634148847,-0.48759727784280443,-0.11139092607665481,-1.9463620190202142,0.13345050851322907,2.5953956193430647,0.9452591387824634,0.1728802376190821,-0.48752024683155326,-0.11147110072896137,-1.9463801863486305,0.1336059019074957,2.595550359778934,0.9452445589611904,-0.00022809584545124497,-0.0005961416074668163,-7.317468076957795e-05,0.001328694920222252,-0.00022822512586401962,1.1431450625778775e-05,-0.0004308252137654999,0.0,0.0,0.0,0.0,0.0,0.0,0.0,-7.603872240635745e-05,7.703101125117184e-05,-8.017465230655829e-05,-1.8167328416307527e-05,0.00015539339426662302,0.00015474043586927166,-1.4579821272953097e-05,0.00022809584545124497,0.0005961416074668163,7.317468076957795e-05,-0.001328694920222252,0.00022822512586401962,-1.1431450625778775e-05,0.0004308252137654999,0.2720577120780945,11.727136611938477,-0.9934418201446533,-21.618074417114258,-0.3976340889930725,-2.5399813652038574,0.30978721380233765,0
69,0.33931922912597656,-0.24825400114059448,-11.727136611938477,0.9934418201446533,21.693452835083008,0.4031272530555725,2.5335726737976074,-0.33084434270858765,0.0,0.0,0.0,0.0,0.0,0.0,0.0,-0.27288431570511384,0.5472498694077979,-0.20454577210324312,0.38137474310781244,-0.1396154695933947,0.13931469698762958,-0.3231672367308618,0.1729546059056332,-0.48759870789144594,-0.11138879522263288,-1.9463673087337559,0.13344989814360944,2.5953963445556747,0.9452613844110545,0.1728802376190821,-0.48752024683155326,-0.11147110072896137,-1.9463801863486305,0.1336059019074957,2.595550359778934,0.9452445589611904,-0.0012609763337290518,-0.00011379133761950705,0.00012831206943004052,-0.000458909932246941,-0.00024220653204168918,3.503114694261881e-05,0.0010051495008528107,0.0,0.0,0.0,0.0,0.0,0.0,0.0,-7.436828655107974e-05,7.846105989267604e-05,-8.230550632848388e-05,-1.2877614874673426e-05,0.0001560037638862477,0.00015401522325930728,-1.6825449864033004e-05,0.0012609763337290518,0.00011379133761950705,-0.00012831206943004052,0.000458909932246941,0.00024220653204168918,-3.503114694261881e-05,-0.0010051495008528107,0.24825400114059448,11.727136611938477,-0.9934418201446533,-21.693452835083008,-0.4031272530555725,-2.5335726737976074,0.33084434270858765,0
70,0.34433770179748535,-0.24825400114059448,-11.727136611938477,0.9934418201446533,21.693452835083008,0.4031272530555725,2.5335726737976074,-0.33084434270858765,0.0,0.0,0.0,0.0,0.0,0.0,0.0,-0.27288431570511384,0.5472498694077979,-0.20454577210324312,0.38137474310781244,-0.1396154695933947,0.13931469698762958,-0.3231672367308618,0.1729546059056332,-0.48759870789144594,-0.11138879522263288,-1.9463673087337559,0.13344989814360944,2.5953963445556747,0.9452613844110545,0.1728802376190821,-0.48752024683155326,-0.11147110072896137,-1.9463801863486305,0.1336059019074957,2.595550359778934,0.9452445589611904,-0.0012609763337290518,-0.00011379133761950705,0.00012831206943004052,-0.000458909932246941,-0.00024220653204168918,3.503114694261881e-05,0.0010051495008528107,0.0,0.0,0.0,0.0,0.0,0.0,0.0,-7.436828655107974e-05,7.846105989267604e-05,-8.230550632848388e-05,-1.2877614874673426e-05,0.0001560037638862477,0.00015401522325930728,-1.6825449864033004e-05,0.0012609763337290518,0.00011379133761950705,-0.00012831206943004052,0.000458909932246941,0.00024220653204168918,-3.503114694261881e-05,-0.0010051495008528107,0.24825400114059448,11.727136611938477,-0.9934418201446533,-21.693452835083008,-0.4031272530555725,-2.5335726737976074,0.33084434270858765,0
71,0.3493177890777588,-0.24825400114059448,-11.750940322875977,1.0410492420196533,21.641878128051758,0.3912253975868225,2.5463900566101074,-0.26858848333358765,0.0,0.0,0.0,0.0,0.0,0.0,0.0,-0.2662019789856636,0.5411591970350118,-0.18876798273768114,0.3873815947631965,-0.13949291184679197,0.13890763871128212,-0.3245708403159949,0.1729546059056332,-0.487595139392232,-0.11139213608231462,-1.9463636894560694,0.1334512205719948,2.5953949204021027,0.9452556515544184,0.1728802376190821,-0.48752024683155326,-0.11147110072896137,-1.9463801863486305,0.1336059019074957,2.595550359778934,0.9452445589611904,0.00018725527585361043,-0.000602418569906188,-0.000378605132574124,0.0007007815625883894,-0.005341806706252735,-0.0003313347012023052,-0.0022565480289306705,0.0,0.0,0.0,0.0,0.0,0.0,0.0,-7.436828655107974e-05,7.489256067871874e-05,-7.896464664675085e-05,-1.6496892561113086e-05,0.0001546813355008947,0.00015543937683126785,-1.1092593227957082e-05,-0.00018725527585361043,0.000602418569906188,0.000378605132574124,-0.0007007815625883894,0.005341806706252735,0.0003313347012023052,0.0022565480289306705,0.24825400114059448,11.750940322875977,-1.0410492420196533,-21.641878128051758,-0.3912253975868225,-2.5463900566101074,0.26858848333358765,0
72,0.35427188873291016,-0.24825400114059448,-11.750940322875977,1.0410492420196533,21.641878128051758,0.3912253975868225,2.5463900566101074,-0.26858848333358765,0.0,0.0,0.0,0.0,0.0,0.0,0.0,-0.2662019789856636,0.5411591970350118,-0.18876798273768114,0.3873815947631965,-0.13949291184679197,0.13890763871128212,-0.3245708403159949,0.1729546059056332,-0.487595139392232,-0.11139213608231462,-1.9463636894560694,0.1334512205719948,2.5953949204021027,0.9452556515544184,0.1728802376190821,-0.48752024683155326,-0.11147110072896137,-1.9463801863486305,0.1336059019074957,2.595550359778934,0.9452445589611904,0.00018725527585361043,-0.000602418569906188,-0.000378605132574124,0.0007007815625883894,-0.005341806706252735,-0.0003313347012023052,-0.0022565480289306705,0.0,0.0,0.0,0.0,0.0,0.0,0.0,-7.436828655107974e-05,7.489256067871874e-05,-7.896464664675085e-05,-1.6496892561113086e-05,0.0001546813355008947,0.00015543937683126785,-1.1092593227957082e-05,-0.00018725527585361043,0.000602418569906188,0.000378605132574124,-0.0007007815625883894,0.005341806706252735,0.0003313347012023052,0.0022565480289306705,0.24825400114059448,11.750940322875977,-1.0410492420196533,-21.641878128051758,-0.3912253975868225,-2.5463900566101074,0.26858848333358765,0
73,0.3592855930328369,-0.19667929410934448,-11.802515029907227,1.0410492420196533,21.669649124145508,0.3912253975868225,2.5335726737976074,-0.30978721380233765,0.0,0.0,0.0,0.0,0.0,0.0,0.0,-0.2686602918689519,0.5467857113905557,-0.19225970811580442,0.3827506091122032,-0.13981411427346668,0.1384387775050671,-0.3261791467426071,0.17295098662794678,-0.48759137291903115,-0.1113921360823146,-1.9463656382979007,0.1334512205719948,2.5953963445557484,0.9452590640495961,0.1728802376190821,-0.48752024683155326,-0.11147110072896137,-1.9463801863486305,0.1336059019074957,2.595550359778934,0.9452445589611904,-0.001052377511212546,0.0004002364042668579,-0.00025442019381402575,8.671053273048073e-05,0.003840139629388517,0.00018566185168844101,0.0002925181580747557,0.0,0.0,0.0,0.0,0.0,0.0,0.0,-7.074900886466784e-05,7.112608747789073e-05,-7.896464664676472e-05,-1.4548050729867867e-05,0.0001546813355008947,0.00015401522318558847,-1.4505088405725175e-05,0.001052377511212546,-0.0004002364042668579,0.00025442019381402575,-8.671053273048073e-05,-0.003840139629388517,-0.00018566185168844101,-0.0002925181580747557,0.19667929410934448,11.802515029907227,-1.0410492420196533,-21.669649124145508,-0.3912253975868225,-2.5335726737976074,0.30978721380233765,0
74,0.3642725944519043,-0.19667929410934448,-11.802515029907227,1.0410492420196533,21.669649124145508,0.3912253975868225,2.5335726737976074,-0.30978721380233765,0.0,0.0,0.0,0.0,0.0,0.0,0.0,-0.2686602918689519,0.5467857113905557,-0.19225970811580442,0.3827506091122032,-0.13981411427346668,0.1384387775050671,-0.3261791467426071,0.17295098662794678,-0.48759137291903115,-0.1113921360823146,-1.9463656382979007,0.1334512205719948,2.5953963445557484,0.9452590640495961,0.1728802376190821,-0.48752024683155326,-0.11147110072896137,-1.9463801863486305,0.1336059019074957,2.595550359778934,0.9452445589611904,-0.001052377511212546,0.0004002364042668579,-0.00025442019381402575,8.671053273048073e-05,0.003840139629388517,0.00018566185168844101,0.0002925181580747557,0.0,0.0,0.0,0.0,0.0,0.0,0.0,-7.074900886466784e-05,7.112608747789073e-05,-7.896464664676472e-05,-1.4548050729867867e-05,0.0001546813355008947,0.00015401522318558847,-1.4505088405725175e-05,0.001052377511212546,-0.0004002364042668579,0.00025442019381402575,-8.671053273048073e-05,-0.003840139629388517,-0.00018566185168844101,-0.0002925181580747557,0.19667929410934448,11.802515029907227,-1.0410492420196533,-21.669649124145508,-0.3912253975868225,-2.5335726737976074,0.30978721380233765,0
75,0.3692762851715088,-0.19667929410934448,-11.774744033813477,1.0410492420196533,21.641878128051758,0.3857322335243225,2.5399813652038574,-0.33084434270858765,0.0,0.0,0.0,0.0,0.0,0.0,0.0,-0.26277084494705377,0.5540248417120056,-0.18634559401269432,0.37774883809582255,-0.1400276837540551,0.13713393850984204,-0.32581850169631854,0.17295098662794678,-0.4875941722827508,-0.1113921360823146,-1.9463636894560694,0.13345183092355728,2.5953956324789256,0.9452647813023763,0.1728802376190821,-0.48752024683155326,-0.11147110072896137,-1.9463801863486305,0.1336059019074957,2.595550359778934,0.9452445589611904,-0.0009391759318317439,-7.004318769123198e-05,-0.0005542935359569622,0.0005990786030308036,0.0005375369958759597,-6.681543860014794e-05,0.0003551986791218216,0.0,0.0,0.0,0.0,0.0,0.0,0.0,-7.074900886466784e-05,7.3925451197554e-05,-7.896464664676472e-05,-1.6496892561113086e-05,0.00015407098393840912,0.00015472730000842816,-2.022234118592703e-05,0.0009391759318317439,7.004318769123198e-05,0.0005542935359569622,-0.0005990786030308036,-0.0005375369958759597,6.681543860014794e-05,-0.0003551986791218216,0.19667929410934448,11.774744033813477,-1.0410492420196533,-21.641878128051758,-0.3857322335243225,-2.5399813652038574,0.33084434270858765,0
76,0.3742990493774414,-0.19667929410934448,-11.774744033813477,1.0410492420196533,21.641878128051758,0.3857322335243225,2.5399813652038574,-0.33084434270858765,0.0,0.0,0.0,0.0,0.0,0.0,0.0,-0.26277084494705377,0.5540248417120056,-0.18634559401269432,0.37774883809582255,-0.1400276837540551,0.13713393850984204,-0.32581850169631854,0.17295098662794678,-0.4875941722827508,-0.1113921360823146,-1.9463636894560694,0.13345183092355728,2.5953956324789256,0.9452647813023763,0.1728802376190821,-0.48752024683155326,-0.11147110072896137,-1.9463801863486305,0.1336059019074957,2.595550359778934,0.9452445589611904,-0.0009391759318317439,-7.004318769123198e-05,-0.0005542935359569622,0.0005990786030308036,0.0005375369958759597,-6.681543860014794e-05,0.0003551986791218216,0.0,0.0,0.0,0.0,0.0,0.0,0.0,-7.074900886466784e-05,7.3925451197554e-05,-7.896464664676472e-05,-1.6496892561113086e-05,0.00015407098393840912,0.00015472730000842816,-2.022234118592703e-05,0.0009391759318317439,7.004318769123198e-05,0.0005542935359569622,-0.0005990786030308036,-0.0005375369958759597,6.681543860014794e-05,-0.0003551986791218216,0.19667929410934448,11.774744033813477,-1.0410492420196533,-21.641878128051758,-0.3857322335243225,-2.5399813652038574,0.33084434270858765,0
77,0.37929391860961914,-0.2720577120780945,-11.750940322875977,1.0410492420196533,21.641878128051758,0.3976340889930725,2.5335726737976074,-0.33084434270858765,0.0,0.0,0.0,0.0,0.0,0.0,0.0,-0.2611438219306907,0.5607568307739773,-0.18727357509032355,0.37381836778968736,-0.13985868301808646,0.13696907150081677,-0.3257974158471369,0.17295627634148847,-0.48759490828960483,-0.1113921360823146,-1.9463636979593384,0.13345050849517187,2.5953963445557484,0.9452647287175097,0.1728802376190821,-0.48752024683155326,-0.11147110072896137,-1.9463801863486305,0.1336059019074957,2.595550359778934,0.9452445589611904,0.0006401118360586478,-0.00016517757186914394,-0.0006807682983105276,0.0003351652649804078,-0.00012432144347689729,0.0002867622735282793,0.0011121447519710666,0.0,0.0,0.0,0.0,0.0,0.0,0.0,-7.603872240635745e-05,7.466145805157254e-05,-7.896464664676472e-05,-1.6488389292135253e-05,0.00015539341232381765,0.00015401522318558847,-2.016975631924378e-05,-0.0006401118360586478,0.00016517757186914394,0.0006807682983105276,-0.0003351652649804078,0.00012432144347689729,-0.0002867622735282793,-0.0011121447519710666,0.2720577120780945,11.750940322875977,-1.0410492420196533,-21.641878128051758,-0.3976340889930725,-2.5335726737976074,0.33084434270858765,0
78,0.3843207359313965,-0.2720577120780945,-11.750940322875977,1.0410492420196533,21.641878128051758,0.3976340889930725,2.5335726737976074,-0.33084434270858765,0.0,0.0,0.0,0.0,0.0,0.0,0.0,-0.2611438219306907,0.5607568307739773,-0.18727357509032355,0.37381836778968736,-0.13985868301808646,0.13696907150081677,-0.3257974158471369,0.17295627634148847,-0.48759490828960483,-0.1113921360823146,-1.9463636979593384,0.13345050849517187,2.5953963445557484,0.9452647287175097,0.1728802376190821,-0.48752024683155326,-0.11147110072896137,-1.9463801863486305,0.1336059019074957,2.595550359778934,0.9452445589611904,0.0006401118360586478,-0.00016517757186914394,-0.0006807682983105276,0.0003351652649804078,-0.00012432144347689729,0.0002867622735282793,0.0011121447519710666,0.0,0.0,0.0,0.0,0.0,0.0,0.0,-7.603872240635745e-05,7.466145805157254e-05,-7.896464664676472e-05,-1.6488389292135253e-05,0.00015539341232381765,0.00015401522318558847,-2.016975631924378e-05,-0.0006401118360586478,0.00016517757186914394,0.0006807682983105276,-0.0003351652649804078,0.00012432144347689729,-0.0002867622735282793,-0.0011121447519710666,0.2720577120780945,11.750940322875977,-1.0410492420196533,-21.641878128051758,-0.3976340889930725,-2.5335726737976074,0.33084434270858765,0
79,0.3893406391143799,-0.2998287081718445,-11.774744033813477,0.9934418201446533,21.641878128051758,0.3912253975868225,2.5399813652038574,-0.28964561223983765,0.0,0.0,0.0,0.0,0.0,0.0,0.0,-0.266972697968573,0.5510659335908795,-0.1938835486189116,0.37808256464826784,-0.13969235790745604,0.13858051229109614,-0.3241451402137709,0.1729582251833196,-0.48759326094933014,-0.11138879521060409,-1.9463636894560854,0.1334512205719948,2.5953956324789256,0.945261170628044,0.1728802376190821,-0.48752024683155326,-0.11147110072896137,-1.9463801863486305,0.1336059019074957,2.595550359778934,0.9452445589611904,0.00048108159059078294,0.0004064287162489334,-0.0005609838878439611,0.0007041671741873518,3.212997570662356e-05,-6.725550443966467e-05,-0.0007959726589492049,0.0,0.0,0.0,0.0,0.0,0.0,0.0,-7.798756423749165e-05,7.301411777688172e-05,-8.23055183572785e-05,-1.6496892545125874e-05,0.0001546813355008947,0.00015472730000842816,-1.6611666853627582e-05,-0.00048108159059078294,-0.0004064287162489334,0.0005609838878439611,-0.0007041671741873518,-3.212997570662356e-05,6.725550443966467e-05,0.0007959726589492049,0.2998287081718445,11.774744033813477,-0.9934418201446533,-21.641878128051758,-0.3912253975868225,-2.5399813652038574,0.28964561223983765,0
