rezayati/contactInterpretation/dataset/franka_main/labeled_data/link6/b14_6.csv
index,time,tau_J0,tau_J1,tau_J2,tau_J3,tau_J4,tau_J5,tau_J6,tau_J_d0,tau_J_d1,tau_J_d2,tau_J_d3,tau_J_d4,tau_J_d5,tau_J_d6,tau_ext0,tau_ext1,tau_ext2,tau_ext3,tau_ext4,tau_ext5,tau_ext6,q0,q1,q2,q3,q4,q5,q6,q_d0,q_d1,q_d2,q_d3,q_d4,q_d5,q_d6,dq0,dq1,dq2,dq3,dq4,dq5,dq6,dq_d0,dq_d1,dq_d2,dq_d3,dq_d4,dq_d5,dq_d6,e0,e1,e2,e3,e4,e5,e6,de0,de1,de2,de3,de4,de5,de6,etau_J0,etau_J1,etau_J2,etau_J3,etau_J4,etau_J5,etau_J6,label
1,0.0,-0.09352988004684448,-18.352502822875977,0.8704559803009033,18.047517776489258,0.5761619210243225,2.2818026542663574,-0.20083944499492645,0.0,0.0,0.0,0.0,0.0,0.0,0.0,-0.06205122357908042,0.35759479344417805,0.1006106402092221,0.44005313050719563,0.1498176471303321,0.09243408928531366,-0.23307109054835815,-0.6089774896345639,-0.05749873700374972,-0.6665214795965134,-2.594403756727252,-0.055771622731811556,2.507901097032759,0.8763184780991738,-0.6090851748156966,-0.05753196718556838,-0.666603097082616,-2.5945565370258534,-0.05562143941554,2.507976027223799,0.8763108487046415,0.0007252863257112016,0.0008504948859517169,0.0009956735426563514,0.0010237622466101755,-0.0001354259614778391,8.627724422669811e-05,-0.0016769925775468645,0.0,0.0,0.0,0.0,0.0,0.0,0.0,-0.00010768518113268843,-3.323018181866644e-05,-8.16174861025809e-05,-0.00015278029860121833,0.00015018331627155573,7.493019103987919e-05,-7.629394532360223e-06,-0.0007252863257112016,-0.0008504948859517169,-0.0009956735426563514,-0.0010237622466101755,0.0001354259614778391,-8.627724422669811e-05,0.0016769925775468645,0.09352988004684448,18.352502822875977,-0.8704559803009033,-18.047517776489258,-0.5761619210243225,-2.2818026542663574,0.20083944499492645,0
2,0.004753828048706055,-0.09352988004684448,-18.352502822875977,0.8704559803009033,18.047517776489258,0.5761619210243225,2.2818026542663574,-0.20083944499492645,0.0,0.0,0.0,0.0,0.0,0.0,0.0,-0.06205122357908042,0.35759479344417805,0.1006106402092221,0.44005313050719563,0.1498176471303321,0.09243408928531366,-0.23307109054835815,-0.6089774896345639,-0.05749873700374972,-0.6665214795965134,-2.594403756727252,-0.055771622731811556,2.507901097032759,0.8763184780991738,-0.6090851748156966,-0.05753196718556838,-0.666603097082616,-2.5945565370258534,-0.05562143941554,2.507976027223799,0.8763108487046415,0.0007252863257112016,0.0008504948859517169,0.0009956735426563514,0.0010237622466101755,-0.0001354259614778391,8.627724422669811e-05,-0.0016769925775468645,0.0,0.0,0.0,0.0,0.0,0.0,0.0,-0.00010768518113268843,-3.323018181866644e-05,-8.16174861025809e-05,-0.00015278029860121833,0.00015018331627155573,7.493019103987919e-05,-7.629394532360223e-06,-0.0007252863257112016,-0.0008504948859517169,-0.0009956735426563514,-0.0010237622466101755,0.0001354259614778391,-8.627724422669811e-05,0.0016769925775468645,0.09352988004684448,18.352502822875977,-0.8704559803009033,-18.047517776489258,-0.5761619210243225,-2.2818026542663574,0.20083944499492645,0
3,0.009753227233886719,-0.09352988004684448,-18.304895401000977,0.8942596912384033,18.122896194458008,0.5642600655555725,2.2882113456726074,-0.22098104655742645,0.0,0.0,0.0,0.0,0.0,0.0,0.0,-0.06470425972054045,0.3535347217226484,0.09618419852484969,0.43943778935445565,0.14982875582935448,0.09259414303403168,-0.23277432958429953,-0.6089774896345639,-0.057502069116689924,-0.6665231499293286,-2.5944111127351457,-0.05577336274641641,2.507900384955936,0.876320716054903,-0.6090851748156966,-0.05753196718556838,-0.666603097082616,-2.5945565370258534,-0.05562143941554,2.507976027223799,0.8763108487046415,0.0003311946580681332,-0.0006598122041937859,0.000333844401197409,-0.00125667902048142,0.0005260468325153599,-0.0005606921952115628,-0.000950779218081556,0.0,0.0,0.0,0.0,0.0,0.0,0.0,-0.00010768518113268843,-2.9898068878458917e-05,-7.994715328740742e-05,-0.00014542429070774077,0.00015192333087640786,7.564226786316297e-05,-9.867350261538732e-06,-0.0003311946580681332,0.0006598122041937859,-0.000333844401197409,0.00125667902048142,-0.0005260468325153599,0.0005606921952115628,0.000950779218081556,0.09352988004684448,18.304895401000977,-0.8942596912384033,-18.122896194458008,-0.5642600655555725,-2.2882113456726074,0.22098104655742645,0
4,0.014752388000488281,-0.09352988004684448,-18.304895401000977,0.8942596912384033,18.122896194458008,0.5642600655555725,2.2882113456726074,-0.22098104655742645,0.0,0.0,0.0,0.0,0.0,0.0,0.0,-0.06470425972054045,0.3535347217226484,0.09618419852484969,0.43943778935445565,0.14982875582935448,0.09259414303403168,-0.23277432958429953,-0.6089774896345639,-0.057502069116689924,-0.6665231499293286,-2.5944111127351457,-0.05577336274641641,2.507900384955936,0.876320716054903,-0.6090851748156966,-0.05753196718556838,-0.666603097082616,-2.5945565370258534,-0.05562143941554,2.507976027223799,0.8763108487046415,0.0003311946580681332,-0.0006598122041937859,0.000333844401197409,-0.00125667902048142,0.0005260468325153599,-0.0005606921952115628,-0.000950779218081556,0.0,0.0,0.0,0.0,0.0,0.0,0.0,-0.00010768518113268843,-2.9898068878458917e-05,-7.994715328740742e-05,-0.00014542429070774077,0.00015192333087640786,7.564226786316297e-05,-9.867350261538732e-06,-0.0003311946580681332,0.0006598122041937859,-0.000333844401197409,0.00125667902048142,-0.0005260468325153599,0.0005606921952115628,0.000950779218081556,0.09352988004684448,18.304895401000977,-0.8942596912384033,-18.122896194458008,-0.5642600655555725,-2.2882113456726074,0.22098104655742645,0
5,0.019756078720092773,-0.06972616910934448,-18.304895401000977,0.8942596912384033,18.099092483520508,0.5761619210243225,2.2818026542663574,-0.24844686686992645,0.0,0.0,0.0,0.0,0.0,0.0,0.0,-0.066397217721902,0.3579868404099523,0.0947540511546754,0.4369485855828203,0.14986356041978413,0.09167428796079523,-0.23415371553612654,-0.6089791600704192,-0.05750206911668443,-0.666523384891763,-2.5944073760166027,-0.05577149131710242,2.507901097032759,0.8763237678127155,-0.6090851748156966,-0.05753196718556838,-0.666603097082616,-2.5945565370258534,-0.05562143941554,2.507976027223799,0.8763108487046415,-0.0001485826351498748,0.00023251703123280644,0.00027591468212190815,-0.000593739027020395,-0.00016618811261667692,-0.0002623397487468714,0.0011727816278518514,0.0,0.0,0.0,0.0,0.0,0.0,0.0,-0.00010601474527738297,-2.989806888395452e-05,-7.971219085300962e-05,-0.00014916100925077558,0.0001500519015624202,7.493019103987919e-05,-1.2919108073994323e-05,0.0001485826351498748,-0.00023251703123280644,-0.00027591468212190815,0.000593739027020395,0.00016618811261667692,0.0002623397487468714,-0.0011727816278518514,0.06972616910934448,18.304895401000977,-0.8942596912384033,-18.099092483520508,-0.5761619210243225,-2.2818026542663574,0.24844686686992645,0
6,0.02476024627685547,-0.06972616910934448,-18.304895401000977,0.8942596912384033,18.099092483520508,0.5761619210243225,2.2818026542663574,-0.24844686686992645,0.0,0.0,0.0,0.0,0.0,0.0,0.0,-0.066397217721902,0.3579868404099523,0.0947540511546754,0.4369485855828203,0.14986356041978413,0.09167428796079523,-0.23415371553612654,-0.6089791600704192,-0.05750206911668443,-0.666523384891763,-2.5944073760166027,-0.05577149131710242,2.507901097032759,0.8763237678127155,-0.6090851748156966,-0.05753196718556838,-0.666603097082616,-2.5945565370258534,-0.05562143941554,2.507976027223799,0.8763108487046415,-0.0001485826351498748,0.00023251703123280644,0.00027591468212190815,-0.000593739027020395,-0.00016618811261667692,-0.0002623397487468714,0.0011727816278518514,0.0,0.0,0.0,0.0,0.0,0.0,0.0,-0.00010601474527738297,-2.989806888395452e-05,-7.971219085300962e-05,-0.00014916100925077558,0.0001500519015624202,7.493019103987919e-05,-1.2919108073994323e-05,0.0001485826351498748,-0.00023251703123280644,-0.00027591468212190815,0.000593739027020395,0.00016618811261667692,0.0002623397487468714,-0.0011727816278518514,0.06972616910934448,18.304895401000977,-0.8942596912384033,-18.099092483520508,-0.5761619210243225,-2.2818026542663574,0.24844686686992645,0
7,0.02977299690246582,-0.04592245817184448,-18.253320693969727,0.9418671131134033,18.071321487426758,0.5761619210243225,2.2689852714538574,-0.24112264811992645,0.0,0.0,0.0,0.0,0.0,0.0,0.0,-0.0619637466322547,0.3586395782049863,0.10052671705971361,0.4379851273993733,0.1489660418524649,0.09263213271584135,-0.23378224565440883,-0.6089808305062745,-0.057505688394370834,-0.6665264907984026,-2.594405427163107,-0.05577149568016429,2.5079025211864048,0.8763229540106322,-0.6090851748156966,-0.05753196718556838,-0.666603097082616,-2.5945565370258534,-0.05562143941554,2.507976027223799,0.8763108487046415,9.816589928188501e-05,-0.001139047155443891,-4.682977259145079e-05,-0.00020631409571689372,-0.0003072808427975977,0.00033194028732454396,0.0004889809217593712,0.0,0.0,0.0,0.0,0.0,0.0,0.0,-0.00010434430942207751,-2.6278791197549556e-05,-7.660628421335414e-05,-0.00015110986274624594,0.00015005626462429034,7.350603739419981e-05,-1.2105305990717241e-05,-9.816589928188501e-05,0.001139047155443891,4.682977259145079e-05,0.00020631409571689372,0.0003072808427975977,-0.00033194028732454396,-0.0004889809217593712,0.04592245817184448,18.253320693969727,-0.9418671131134033,-18.071321487426758,-0.5761619210243225,-2.2689852714538574,0.24112264811992645,0
8,0.034766435623168945,-0.04592245817184448,-18.253320693969727,0.9418671131134033,18.071321487426758,0.5761619210243225,2.2689852714538574,-0.24112264811992645,0.0,0.0,0.0,0.0,0.0,0.0,0.0,-0.0619637466322547,0.3586395782049863,0.10052671705971361,0.4379851273993733,0.1489660418524649,0.09263213271584135,-0.23378224565440883,-0.6089808305062745,-0.057505688394370834,-0.6665264907984026,-2.594405427163107,-0.05577149568016429,2.5079025211864048,0.8763229540106322,-0.6090851748156966,-0.05753196718556838,-0.666603097082616,-2.5945565370258534,-0.05562143941554,2.507976027223799,0.8763108487046415,9.816589928188501e-05,-0.001139047155443891,-4.682977259145079e-05,-0.00020631409571689372,-0.0003072808427975977,0.00033194028732454396,0.0004889809217593712,0.0,0.0,0.0,0.0,0.0,0.0,0.0,-0.00010434430942207751,-2.6278791197549556e-05,-7.660628421335414e-05,-0.00015110986274624594,0.00015005626462429034,7.350603739419981e-05,-1.2105305990717241e-05,-9.816589928188501e-05,0.001139047155443891,4.682977259145079e-05,0.00020631409571689372,0.0003072808427975977,-0.00033194028732454396,-0.0004889809217593712,0.04592245817184448,18.253320693969727,-0.9418671131134033,-18.071321487426758,-0.5761619210243225,-2.2689852714538574,0.24112264811992645,0
9,0.03975868225097656,0.005652248859405518,-18.328699111938477,0.9180634021759033,18.071321487426758,0.5697532296180725,2.2625765800476074,-0.28232139348983765,0.0,0.0,0.0,0.0,0.0,0.0,0.0,-0.05953577058451405,0.3600260446155667,0.10385292800786564,0.4369341888719799,0.148591800755899,0.09272285039920501,-0.23203544012231075,-0.6089844497839608,-0.057500398680829165,-0.6665270043931432,-2.594405427163107,-0.05577079382591234,2.5079032332632276,0.8763275316490067,-0.6090851748156966,-0.05753196718556838,-0.666603097082616,-2.5945565370258534,-0.05562143941554,2.507976027223799,0.8763108487046415,-0.0005464265580658534,0.0006608037784031233,0.0007545291385125055,-0.0004120567494788852,0.00016237189568575405,0.0002118349378453055,0.0017733641525380676,0.0,0.0,0.0,0.0,0.0,0.0,0.0,-0.00010072503173574887,-3.156850473921835e-05,-7.609268947283976e-05,-0.00015110986274624594,0.00014935441037233765,7.279396057136012e-05,-1.6682944365187247e-05,0.0005464265580658534,-0.0006608037784031233,-0.0007545291385125055,0.0004120567494788852,-0.00016237189568575405,-0.0002118349378453055,-0.0017733641525380676,-0.005652248859405518,18.328699111938477,-0.9180634021759033,-18.071321487426758,-0.5697532296180725,-2.2625765800476074,0.28232139348983765,0
10,0.044707298278808594,0.005652248859405518,-18.328699111938477,0.9180634021759033,18.071321487426758,0.5697532296180725,2.2625765800476074,-0.28232139348983765,0.0,0.0,0.0,0.0,0.0,0.0,0.0,-0.05953577058451405,0.3600260446155667,0.10385292800786564,0.4369341888719799,0.148591800755899,0.09272285039920501,-0.23203544012231075,-0.6089844497839608,-0.057500398680829165,-0.6665270043931432,-2.594405427163107,-0.05577079382591234,2.5079032332632276,0.8763275316490067,-0.6090851748156966,-0.05753196718556838,-0.666603097082616,-2.5945565370258534,-0.05562143941554,2.507976027223799,0.8763108487046415,-0.0005464265580658534,0.0006608037784031233,0.0007545291385125055,-0.0004120567494788852,0.00016237189568575405,0.0002118349378453055,0.0017733641525380676,0.0,0.0,0.0,0.0,0.0,0.0,0.0,-0.00010072503173574887,-3.156850473921835e-05,-7.609268947283976e-05,-0.00015110986274624594,0.00014935441037233765,7.279396057136012e-05,-1.6682944365187247e-05,0.0005464265580658534,-0.0006608037784031233,-0.0007545291385125055,0.0004120567494788852,-0.00016237189568575405,-0.0002118349378453055,-0.0017733641525380676,-0.005652248859405518,18.328699111938477,-0.9180634021759033,-18.071321487426758,-0.5697532296180725,-2.2625765800476074,0.28232139348983765,0
11,0.0498499870300293,0.005652248859405518,-18.328699111938477,0.9180634021759033,18.071321487426758,0.5697532296180725,2.2625765800476074,-0.28232139348983765,0.0,0.0,0.0,0.0,0.0,0.0,0.0,-0.05953577058451405,0.3600260446155667,0.10385292800786564,0.4369341888719799,0.148591800755899,0.09272285039920501,-0.23203544012231075,-0.6089844497839608,-0.057500398680829165,-0.6665270043931432,-2.594405427163107,-0.05577079382591234,2.5079032332632276,0.8763275316490067,-0.6090851748156966,-0.05753196718556838,-0.666603097082616,-2.5945565370258534,-0.05562143941554,2.507976027223799,0.8763108487046415,-0.0005464265580658534,0.0006608037784031233,0.0007545291385125055,-0.0004120567494788852,0.00016237189568575405,0.0002118349378453055,0.0017733641525380676,0.0,0.0,0.0,0.0,0.0,0.0,0.0,-0.00010072503173574887,-3.156850473921835e-05,-7.609268947283976e-05,-0.00015110986274624594,0.00014935441037233765,7.279396057136012e-05,-1.6682944365187247e-05,0.0005464265580658534,-0.0006608037784031233,-0.0007545291385125055,0.0004120567494788852,-0.00016237189568575405,-0.0002118349378453055,-0.0017733641525380676,-0.005652248859405518,18.328699111938477,-0.9180634021759033,-18.071321487426758,-0.5697532296180725,-2.2625765800476074,0.28232139348983765,0
12,0.054753780364990234,0.005652248859405518,-18.328699111938477,0.9180634021759033,18.071321487426758,0.5697532296180725,2.2625765800476074,-0.28232139348983765,0.0,0.0,0.0,0.0,0.0,0.0,0.0,-0.05953577058451405,0.3600260446155667,0.10385292800786564,0.4369341888719799,0.148591800755899,0.09272285039920501,-0.23203544012231075,-0.6089844497839608,-0.057500398680829165,-0.6665270043931432,-2.594405427163107,-0.05577079382591234,2.5079032332632276,0.8763275316490067,-0.6090851748156966,-0.05753196718556838,-0.666603097082616,-2.5945565370258534,-0.05562143941554,2.507976027223799,0.8763108487046415,-0.0005464265580658534,0.0006608037784031233,0.0007545291385125055,-0.0004120567494788852,0.00016237189568575405,0.0002118349378453055,0.0017733641525380676,0.0,0.0,0.0,0.0,0.0,0.0,0.0,-0.00010072503173574887,-3.156850473921835e-05,-7.609268947283976e-05,-0.00015110986274624594,0.00014935441037233765,7.279396057136012e-05,-1.6682944365187247e-05,0.0005464265580658534,-0.0006608037784031233,-0.0007545291385125055,0.0004120567494788852,-0.00016237189568575405,-0.0002118349378453055,-0.0017733641525380676,-0.005652248859405518,18.328699111938477,-0.9180634021759033,-18.071321487426758,-0.5697532296180725,-2.2625765800476074,0.28232139348983765,0
13,0.0597529411315918,-0.018151462078094482,-18.304895401000977,0.9418671131134033,18.122896194458008,0.5761619210243225,2.2882113456726074,-0.22830526530742645,0.0,0.0,0.0,0.0,0.0,0.0,0.0,-0.060036064427406256,0.36226000686062215,0.09848031986838625,0.4323442511454129,0.14889913440139088,0.09063706287824852,-0.23355861911995973,-0.6089827793481056,-0.05750206911668443,-0.6665264920933746,-2.5944090464407936,-0.05577149146141798,2.507900384955936,0.8763215298569863,-0.6090851748156966,-0.05753196718556838,-0.666603097082616,-2.5945565370258534,-0.05562143941554,2.507976027223799,0.8763108487046415,-0.000495636413680768,0.0002079585329102524,-0.0005000258519053909,-0.0016093774864578386,-2.5080035126959952e-05,-0.0006132033631299801,-7.700618976282443e-05,0.0,0.0,0.0,0.0,0.0,0.0,0.0,-0.00010239546759094331,-2.989806888395452e-05,-7.660498924144665e-05,-0.00014749058505980628,0.0001500520458779797,7.564226786316297e-05,-1.0681152344815814e-05,0.000495636413680768,-0.0002079585329102524,0.0005000258519053909,0.0016093774864578386,2.5080035126959952e-05,0.0006132033631299801,7.700618976282443e-05,0.018151462078094482,18.304895401000977,-0.9418671131134033,-18.122896194458008,-0.5761619210243225,-2.2882113456726074,0.22830526530742645,0
14,0.06475210189819336,-0.018151462078094482,-18.304895401000977,0.9418671131134033,18.122896194458008,0.5761619210243225,2.2882113456726074,-0.22830526530742645,0.0,0.0,0.0,0.0,0.0,0.0,0.0,-0.060036064427406256,0.36226000686062215,0.09848031986838625,0.4323442511454129,0.14889913440139088,0.09063706287824852,-0.23355861911995973,-0.6089827793481056,-0.05750206911668443,-0.6665264920933746,-2.5944090464407936,-0.05577149146141798,2.507900384955936,0.8763215298569863,-0.6090851748156966,-0.05753196718556838,-0.666603097082616,-2.5945565370258534,-0.05562143941554,2.507976027223799,0.8763108487046415,-0.000495636413680768,0.0002079585329102524,-0.0005000258519053909,-0.0016093774864578386,-2.5080035126959952e-05,-0.0006132033631299801,-7.700618976282443e-05,0.0,0.0,0.0,0.0,0.0,0.0,0.0,-0.00010239546759094331,-2.989806888395452e-05,-7.660498924144665e-05,-0.00014749058505980628,0.0001500520458779797,7.564226786316297e-05,-1.0681152344815814e-05,0.000495636413680768,-0.0002079585329102524,0.0005000258519053909,0.0016093774864578386,2.5080035126959952e-05,0.0006132033631299801,7.700618976282443e-05,0.018151462078094482,18.304895401000977,-0.9418671131134033,-18.122896194458008,-0.5761619210243225,-2.2882113456726074,0.22830526530742645,0
15,0.06975388526916504,-0.04592245817184448,-18.304895401000977,0.8942596912384033,18.071321487426758,0.5761619210243225,2.2882113456726074,-0.20083944499492645,0.0,0.0,0.0,0.0,0.0,0.0,0.0,-0.05516436076551506,0.3608722524293832,0.10206948278428551,0.4382279900791616,0.14942906270460332,0.09183334905073663,-0.23467871909728957,-0.6089808305062745,-0.05750206911668443,-0.6665253349202722,-2.594405435666376,-0.055771850548559466,2.507900384955936,0.8763184780991738,-0.6090851748156966,-0.05753196718556838,-0.666603097082616,-2.5945565370258534,-0.05562143941554,2.507976027223799,0.8763108487046415,-0.0003508210172702925,0.00014673772114689974,0.0006202825607759916,0.0004009776464151224,1.1355678443947615e-05,-0.0003362861576954367,-0.0013051435317545954,0.0,0.0,0.0,0.0,0.0,0.0,0.0,-0.00010434430942207751,-2.989806888395452e-05,-7.77621623437863e-05,-0.00015110135947749015,0.00015041113301946657,7.564226786316297e-05,-7.629394532360223e-06,0.0003508210172702925,-0.00014673772114689974,-0.0006202825607759916,-0.0004009776464151224,-1.1355678443947615e-05,0.0003362861576954367,0.0013051435317545954,0.04592245817184448,18.304895401000977,-0.8942596912384033,-18.071321487426758,-0.5761619210243225,-2.2882113456726074,0.20083944499492645,0
16,0.0747532844543457,-0.04592245817184448,-18.304895401000977,0.8942596912384033,18.071321487426758,0.5761619210243225,2.2882113456726074,-0.20083944499492645,0.0,0.0,0.0,0.0,0.0,0.0,0.0,-0.05516436076551506,0.3608722524293832,0.10206948278428551,0.4382279900791616,0.14942906270460332,0.09183334905073663,-0.23467871909728957,-0.6089808305062745,-0.05750206911668443,-0.6665253349202722,-2.594405435666376,-0.055771850548559466,2.507900384955936,0.8763184780991738,-0.6090851748156966,-0.05753196718556838,-0.666603097082616,-2.5945565370258534,-0.05562143941554,2.507976027223799,0.8763108487046415,-0.0003508210172702925,0.00014673772114689974,0.0006202825607759916,0.0004009776464151224,1.1355678443947615e-05,-0.0003362861576954367,-0.0013051435317545954,0.0,0.0,0.0,0.0,0.0,0.0,0.0,-0.00010434430942207751,-2.989806888395452e-05,-7.77621623437863e-05,-0.00015110135947749015,0.00015041113301946657,7.564226786316297e-05,-7.629394532360223e-06,0.0003508210172702925,-0.00014673772114689974,-0.0006202825607759916,-0.0004009776464151224,-1.1355678443947615e-05,0.0003362861576954367,0.0013051435317545954,0.04592245817184448,18.304895401000977,-0.8942596912384033,-18.071321487426758,-0.5761619210243225,-2.2882113456726074,0.20083944499492645,0
17,0.0747532844543457,-0.04592245817184448,-18.304895401000977,0.8942596912384033,18.071321487426758,0.5761619210243225,2.2882113456726074,-0.20083944499492645,0.0,0.0,0.0,0.0,0.0,0.0,0.0,-0.05516436076551506,0.3608722524293832,0.10206948278428551,0.4382279900791616,0.14942906270460332,0.09183334905073663,-0.23467871909728957,-0.6089808305062745,-0.05750206911668443,-0.6665253349202722,-2.594405435666376,-0.055771850548559466,2.507900384955936,0.8763184780991738,-0.6090851748156966,-0.05753196718556838,-0.666603097082616,-2.5945565370258534,-0.05562143941554,2.507976027223799,0.8763108487046415,-0.0003508210172702925,0.00014673772114689974,0.0006202825607759916,0.0004009776464151224,1.1355678443947615e-05,-0.0003362861576954367,-0.0013051435317545954,0.0,0.0,0.0,0.0,0.0,0.0,0.0,-0.00010434430942207751,-2.989806888395452e-05,-7.77621623437863e-05,-0.00015110135947749015,0.00015041113301946657,7.564226786316297e-05,-7.629394532360223e-06,0.0003508210172702925,-0.00014673772114689974,-0.0006202825607759916,-0.0004009776464151224,-1.1355678443947615e-05,0.0003362861576954367,0.0013051435317545954,0.04592245817184448,18.304895401000977,-0.8942596912384033,-18.071321487426758,-0.5761619210243225,-2.2882113456726074,0.20083944499492645,0
18,0.08476400375366211,-0.06972616910934448,-18.304895401000977,0.9180634021759033,18.071321487426758,0.5816550850868225,2.2818026542663574,-0.26217979192733765,0.0,0.0,0.0,0.0,0.0,0.0,0.0,-0.05896705991453784,0.3608415257255369,0.10012321886931119,0.4369150024821116,0.1497941850618775,0.09214993980666557,-0.23382689659642858,-0.6089791600704192,-0.05750206911668443,-0.6665248294683385,-2.5944054281079625,-0.05577210165266337,2.507901097032759,0.8763252936932775,-0.6090851748156966,-0.05753196718556838,-0.666603097082616,-2.5945565370258534,-0.05562143941554,2.507976027223799,0.8763108487046415,-0.00034251775309930083,-0.0004052499388464269,-0.0006419855061816292,-0.00018155919866673668,-0.0002234131162091895,-0.0005723283158147604,0.0011254540326383902,0.0,0.0,0.0,0.0,0.0,0.0,0.0,-0.00010601474527738297,-2.989806888395452e-05,-7.826761427753848e-05,-0.00015110891789094083,0.00015066223712337234,7.493019103987919e-05,-1.4444988636008738e-05,0.00034251775309930083,0.0004052499388464269,0.0006419855061816292,0.00018155919866673668,0.0002234131162091895,0.0005723283158147604,-0.0011254540326383902,0.06972616910934448,18.304895401000977,-0.9180634021759033,-18.071321487426758,-0.5816550850868225,-2.2818026542663574,0.26217979192733765,0
19,0.08975410461425781,-0.06972616910934448,-18.304895401000977,0.9180634021759033,18.071321487426758,0.5816550850868225,2.2818026542663574,-0.26217979192733765,0.0,0.0,0.0,0.0,0.0,0.0,0.0,-0.05896705991453784,0.3608415257255369,0.10012321886931119,0.4369150024821116,0.1497941850618775,0.09214993980666557,-0.23382689659642858,-0.6089791600704192,-0.05750206911668443,-0.6665248294683385,-2.5944054281079625,-0.05577210165266337,2.507901097032759,0.8763252936932775,-0.6090851748156966,-0.05753196718556838,-0.666603097082616,-2.5945565370258534,-0.05562143941554,2.507976027223799,0.8763108487046415,-0.00034251775309930083,-0.0004052499388464269,-0.0006419855061816292,-0.00018155919866673668,-0.0002234131162091895,-0.0005723283158147604,0.0011254540326383902,0.0,0.0,0.0,0.0,0.0,0.0,0.0,-0.00010601474527738297,-2.989806888395452e-05,-7.826761427753848e-05,-0.00015110891789094083,0.00015066223712337234,7.493019103987919e-05,-1.4444988636008738e-05,0.00034251775309930083,0.0004052499388464269,0.0006419855061816292,0.00018155919866673668,0.0002234131162091895,0.0005723283158147604,-0.0011254540326383902,0.06972616910934448,18.304895401000977,-0.9180634021759033,-18.071321487426758,-0.5816550850868225,-2.2818026542663574,0.26217979192733765,0
20,0.09476590156555176,-0.12130087614059448,-18.304895401000977,0.8704559803009033,18.071321487426758,0.5761619210243225,2.2753939628601074,-0.24112264811992645,0.0,0.0,0.0,0.0,0.0,0.0,0.0,-0.05989226415492098,0.3625454961724166,0.09947424834978036,0.4359982576279385,0.15004124211212372,0.09201725096733458,-0.23344126004151478,-0.6089755407927328,-0.05750206911668443,-0.6665235941871374,-2.5944054271631125,-0.05577256904752985,2.507901809109582,0.8763229540106322,-0.6090851748156966,-0.05753196718556838,-0.666603097082616,-2.5945565370258534,-0.05562143941554,2.507976027223799,0.8763108487046415,0.0009172377065154555,0.0001483441232557181,0.0007178948129089124,-0.00021848140137621953,-0.00016195056314615927,-3.1470470213339086e-05,0.000549240234327389,0.0,0.0,0.0,0.0,0.0,0.0,0.0,-0.00010963402296382263,-2.989806888395452e-05,-7.950289547864475e-05,-0.00015110986274091687,0.0001511296319898492,7.42181142170395e-05,-1.2105305990717241e-05,-0.0009172377065154555,-0.0001483441232557181,-0.0007178948129089124,0.00021848140137621953,0.00016195056314615927,3.1470470213339086e-05,-0.000549240234327389,0.12130087614059448,18.304895401000977,-0.8704559803009033,-18.071321487426758,-0.5761619210243225,-2.2753939628601074,0.24112264811992645,0
21,0.09976577758789062,-0.12130087614059448,-18.304895401000977,0.8704559803009033,18.071321487426758,0.5761619210243225,2.2753939628601074,-0.24112264811992645,0.0,0.0,0.0,0.0,0.0,0.0,0.0,-0.05989226415492098,0.3625454961724166,0.09947424834978036,0.4359982576279385,0.15004124211212372,0.09201725096733458,-0.23344126004151478,-0.6089755407927328,-0.05750206911668443,-0.6665235941871374,-2.5944054271631125,-0.05577256904752985,2.507901809109582,0.8763229540106322,-0.6090851748156966,-0.05753196718556838,-0.666603097082616,-2.5945565370258534,-0.05562143941554,2.507976027223799,0.8763108487046415,0.0009172377065154555,0.0001483441232557181,0.0007178948129089124,-0.00021848140137621953,-0.00016195056314615927,-3.1470470213339086e-05,0.000549240234327389,0.0,0.0,0.0,0.0,0.0,0.0,0.0,-0.00010963402296382263,-2.989806888395452e-05,-7.950289547864475e-05,-0.00015110986274091687,0.0001511296319898492,7.42181142170395e-05,-1.2105305990717241e-05,-0.0009172377065154555,-0.0001483441232557181,-0.0007178948129089124,0.00021848140137621953,0.00016195056314615927,3.1470470213339086e-05,-0.000549240234327389,0.12130087614059448,18.304895401000977,-0.8704559803009033,-18.071321487426758,-0.5761619210243225,-2.2753939628601074,0.24112264811992645,0
22,0.10476040840148926,-0.06972616910934448,-18.328699111938477,0.9180634021759033,18.047517776489258,0.5697532296180725,2.2625765800476074,-0.19351522624492645,0.0,0.0,0.0,0.0,0.0,0.0,0.0,-0.06281035709427096,0.3571915999698108,0.09800088734194094,0.43645780729916733,0.1495388704068974,0.09243905192707724,-0.2335073668493345,-0.6089791600704192,-0.057500398680829165,-0.6665250808049485,-2.594403765230521,-0.05577082309333433,2.5079032332632276,0.8763176686577414,-0.6090851748156966,-0.05753196718556838,-0.666603097082616,-2.5945565370258534,-0.05562143941554,2.507976027223799,0.8763108487046415,5.158550271761499e-05,0.0001840311854111972,-0.0005678714460388944,0.00015713712335685775,0.00011705666497615446,0.0004607715034698876,-0.0015922583316606265,0.0,0.0,0.0,0.0,0.0,0.0,0.0,-0.00010601474527738297,-3.156850473921835e-05,-7.801627766745867e-05,-0.00015277179533246255,0.00014938367779433054,7.279396057136012e-05,-6.819953099923559e-06,-5.158550271761499e-05,-0.0001840311854111972,0.0005678714460388944,-0.00015713712335685775,-0.00011705666497615446,-0.0004607715034698876,0.0015922583316606265,0.06972616910934448,18.328699111938477,-0.9180634021759033,-18.047517776489258,-0.5697532296180725,-2.2625765800476074,0.19351522624492645,0
23,0.10975837707519531,-0.06972616910934448,-18.328699111938477,0.9180634021759033,18.047517776489258,0.5697532296180725,2.2625765800476074,-0.19351522624492645,0.0,0.0,0.0,0.0,0.0,0.0,0.0,-0.06281035709427096,0.3571915999698108,0.09800088734194094,0.43645780729916733,0.1495388704068974,0.09243905192707724,-0.2335073668493345,-0.6089791600704192,-0.057500398680829165,-0.6665250808049485,-2.594403765230521,-0.05577082309333433,2.5079032332632276,0.8763176686577414,-0.6090851748156966,-0.05753196718556838,-0.666603097082616,-2.5945565370258534,-0.05562143941554,2.507976027223799,0.8763108487046415,5.158550271761499e-05,0.0001840311854111972,-0.0005678714460388944,0.00015713712335685775,0.00011705666497615446,0.0004607715034698876,-0.0015922583316606265,0.0,0.0,0.0,0.0,0.0,0.0,0.0,-0.00010601474527738297,-3.156850473921835e-05,-7.801627766745867e-05,-0.00015277179533246255,0.00014938367779433054,7.279396057136012e-05,-6.819953099923559e-06,-5.158550271761499e-05,-0.0001840311854111972,0.0005678714460388944,-0.00015713712335685775,-0.00011705666497615446,-0.0004607715034698876,0.0015922583316606265,0.06972616910934448,18.328699111938477,-0.9180634021759033,-18.047517776489258,-0.5697532296180725,-2.2625765800476074,0.19351522624492645,0
24,0.11481237411499023,-0.09352988004684448,-18.328699111938477,0.9180634021759033,18.047517776489258,0.5816550850868225,2.2753939628601074,-0.22830526530742645,0.0,0.0,0.0,0.0,0.0,0.0,0.0,-0.06333358403243947,0.3579385953514614,0.09728436173925377,0.4355684127587826,0.14878079171055753,0.0918366844466185,-0.23368200021925226,-0.6089774896345639,-0.057500398680829165,-0.6665248203626912,-2.5944037567273,-0.05577223746471299,2.507901809109582,0.8763215293724942,-0.6090851748156966,-0.05753196718556838,-0.666603097082616,-2.5945565370258534,-0.05562143941554,2.507976027223799,0.8763108487046415,0.0006083190633178415,0.0005547999195283906,0.0003646899430195155,0.0002783225649461544,-0.0004307506575481432,1.699616169640702e-05,-0.00018693500244228368,0.0,0.0,0.0,0.0,0.0,0.0,0.0,-0.00010768518113268843,-3.156850473921835e-05,-7.82767199247747e-05,-0.0001527802985532567,0.00015079804917299267,7.42181142170395e-05,-1.0680667852702719e-05,-0.0006083190633178415,-0.0005547999195283906,-0.0003646899430195155,-0.0002783225649461544,0.0004307506575481432,-1.699616169640702e-05,0.00018693500244228368,0.09352988004684448,18.328699111938477,-0.9180634021759033,-18.047517776489258,-0.5816550850868225,-2.2753939628601074,0.22830526530742645,0
25,0.11975359916687012,-0.09352988004684448,-18.328699111938477,0.9180634021759033,18.047517776489258,0.5816550850868225,2.2753939628601074,-0.22830526530742645,0.0,0.0,0.0,0.0,0.0,0.0,0.0,-0.06333358403243947,0.3579385953514614,0.09728436173925377,0.4355684127587826,0.14878079171055753,0.0918366844466185,-0.23368200021925226,-0.6089774896345639,-0.057500398680829165,-0.6665248203626912,-2.5944037567273,-0.05577223746471299,2.507901809109582,0.8763215293724942,-0.6090851748156966,-0.05753196718556838,-0.666603097082616,-2.5945565370258534,-0.05562143941554,2.507976027223799,0.8763108487046415,0.0006083190633178415,0.0005547999195283906,0.0003646899430195155,0.0002783225649461544,-0.0004307506575481432,1.699616169640702e-05,-0.00018693500244228368,0.0,0.0,0.0,0.0,0.0,0.0,0.0,-0.00010768518113268843,-3.156850473921835e-05,-7.82767199247747e-05,-0.0001527802985532567,0.00015079804917299267,7.42181142170395e-05,-1.0680667852702719e-05,-0.0006083190633178415,-0.0005547999195283906,-0.0003646899430195155,-0.0002783225649461544,0.0004307506575481432,-1.699616169640702e-05,0.00018693500244228368,0.09352988004684448,18.328699111938477,-0.9180634021759033,-18.047517776489258,-0.5816550850868225,-2.2753939628601074,0.22830526530742645,0
26,0.12475800514221191,-0.06972616910934448,-18.277124404907227,0.8942596912384033,18.099092483520508,0.5642600655555725,2.2818026542663574,-0.21457235515117645,0.0,0.0,0.0,0.0,0.0,0.0,0.0,-0.06782979811063812,0.35784823072512395,0.09472174080376836,0.43535568386893564,0.14881929091628543,0.09195169669355319,-0.2339154348618479,-0.6089791600704192,-0.05750401795851557,-0.6665231500323632,-2.594407376949746,-0.05577056760484894,2.507901097032759,0.8763200039780774,-0.6090851748156966,-0.05753196718556838,-0.666603097082616,-2.5945565370258534,-0.05562143941554,2.507976027223799,0.8763108487046415,0.0004867431313460004,-0.0005535756940025161,0.00033875221053969315,-0.000419633375855105,0.0003719474112657717,-5.656963287029937e-05,-0.0007817030060703842,0.0,0.0,0.0,0.0,0.0,0.0,0.0,-0.00010601474527738297,-2.7949227052813386e-05,-7.994705025282656e-05,-0.0001491600761074352,0.0001491281893089419,7.493019103987919e-05,-9.155273435923483e-06,-0.0004867431313460004,0.0005535756940025161,-0.00033875221053969315,0.000419633375855105,-0.0003719474112657717,5.656963287029937e-05,0.0007817030060703842,0.06972616910934448,18.277124404907227,-0.8942596912384033,-18.099092483520508,-0.5642600655555725,-2.2818026542663574,0.21457235515117645,0
27,0.12975597381591797,-0.06972616910934448,-18.277124404907227,0.8942596912384033,18.099092483520508,0.5642600655555725,2.2818026542663574,-0.21457235515117645,0.0,0.0,0.0,0.0,0.0,0.0,0.0,-0.06782979811063812,0.35784823072512395,0.09472174080376836,0.43535568386893564,0.14881929091628543,0.09195169669355319,-0.2339154348618479,-0.6089791600704192,-0.05750401795851557,-0.6665231500323632,-2.594407376949746,-0.05577056760484894,2.507901097032759,0.8763200039780774,-0.6090851748156966,-0.05753196718556838,-0.666603097082616,-2.5945565370258534,-0.05562143941554,2.507976027223799,0.8763108487046415,0.0004867431313460004,-0.0005535756940025161,0.00033875221053969315,-0.000419633375855105,0.0003719474112657717,-5.656963287029937e-05,-0.0007817030060703842,0.0,0.0,0.0,0.0,0.0,0.0,0.0,-0.00010601474527738297,-2.7949227052813386e-05,-7.994705025282656e-05,-0.0001491600761074352,0.0001491281893089419,7.493019103987919e-05,-9.155273435923483e-06,-0.0004867431313460004,0.0005535756940025161,-0.00033875221053969315,0.000419633375855105,-0.0003719474112657717,5.656963287029937e-05,0.0007817030060703842,0.06972616910934448,18.277124404907227,-0.8942596912384033,-18.099092483520508,-0.5642600655555725,-2.2818026542663574,0.21457235515117645,0
28,0.13475823402404785,-0.06972616910934448,-18.304895401000977,0.9180634021759033,18.047517776489258,0.5816550850868225,2.2689852714538574,-0.22830526530742645,0.0,0.0,0.0,0.0,0.0,0.0,0.0,-0.06584767930909742,0.35549719773413857,0.09508921679133413,0.4386774427985209,0.14885991112981964,0.09299373869256083,-0.23399566986229395,-0.6089791600704192,-0.05750206911668443,-0.6665248473245787,-2.5944037567272575,-0.05577222010461369,2.5079025211864048,0.8763215298569863,-0.6090851748156966,-0.05753196718556838,-0.666603097082616,-2.5945565370258534,-0.05562143941554,2.507976027223799,0.8763108487046415,0.00021863382088060243,-0.00014114344453546588,-0.00024295215930049153,0.000723426343341047,-0.0003253177293840508,0.00029943858777042257,-0.0003959474365557092,0.0,0.0,0.0,0.0,0.0,0.0,0.0,-0.00010601474527738297,-2.989806888395452e-05,-7.82497580372743e-05,-0.00015278029859588926,0.00015078068907369013,7.350603739419981e-05,-1.0681152344815814e-05,-0.00021863382088060243,0.00014114344453546588,0.00024295215930049153,-0.000723426343341047,0.0003253177293840508,-0.00029943858777042257,0.0003959474365557092,0.06972616910934448,18.304895401000977,-0.9180634021759033,-18.047517776489258,-0.5816550850868225,-2.2689852714538574,0.22830526530742645,0
29,0.13975286483764648,-0.06972616910934448,-18.304895401000977,0.9180634021759033,18.047517776489258,0.5816550850868225,2.2689852714538574,-0.22830526530742645,0.0,0.0,0.0,0.0,0.0,0.0,0.0,-0.06584767930909742,0.35549719773413857,0.09508921679133413,0.4386774427985209,0.14885991112981964,0.09299373869256083,-0.23399566986229395,-0.6089791600704192,-0.05750206911668443,-0.6665248473245787,-2.5944037567272575,-0.05577222010461369,2.5079025211864048,0.8763215298569863,-0.6090851748156966,-0.05753196718556838,-0.666603097082616,-2.5945565370258534,-0.05562143941554,2.507976027223799,0.8763108487046415,0.00021863382088060243,-0.00014114344453546588,-0.00024295215930049153,0.000723426343341047,-0.0003253177293840508,0.00029943858777042257,-0.0003959474365557092,0.0,0.0,0.0,0.0,0.0,0.0,0.0,-0.00010601474527738297,-2.989806888395452e-05,-7.82497580372743e-05,-0.00015278029859588926,0.00015078068907369013,7.350603739419981e-05,-1.0681152344815814e-05,-0.00021863382088060243,0.00014114344453546588,0.00024295215930049153,-0.000723426343341047,0.0003253177293840508,-0.00029943858777042257,0.0003959474365557092,0.06972616910934448,18.304895401000977,-0.9180634021759033,-18.047517776489258,-0.5816550850868225,-2.2689852714538574,0.22830526530742645,0
30,0.14475202560424805,-0.04592245817184448,-18.253320693969727,0.8942596912384033,18.047517776489258,0.5880637764930725,2.2818026542663574,-0.24844686686992645,0.0,0.0,0.0,0.0,0.0,0.0,0.0,-0.05910449390388647,0.36410695081632244,0.1010934919491364,0.43266135805436373,0.14920129053512787,0.09167587723894707,-0.2335110613591217,-0.6089808305062745,-0.057505688394370834,-0.6665231500325154,-2.594403756727252,-0.055772813728126994,2.507901097032759,0.8763237678127155,-0.6090851748156966,-0.05753196718556838,-0.666603097082616,-2.5945565370258534,-0.05562143941554,2.507976027223799,0.8763108487046415,-0.0004210212334035577,-0.0008123938684252906,0.0007216153709771513,4.7854959513875824e-05,-0.000465934568628252,-0.00027568586958680693,0.0010630716735443907,0.0,0.0,0.0,0.0,0.0,0.0,0.0,-0.00010434430942207751,-2.6278791197549556e-05,-7.994705010061498e-05,-0.00015278029860121833,0.00015137431258699374,7.493019103987919e-05,-1.2919108073994323e-05,0.0004210212334035577,0.0008123938684252906,-0.0007216153709771513,-4.7854959513875824e-05,0.000465934568628252,0.00027568586958680693,-0.0010630716735443907,0.04592245817184448,18.253320693969727,-0.8942596912384033,-18.047517776489258,-0.5880637764930725,-2.2818026542663574,0.24844686686992645,0
31,0.14975452423095703,-0.04592245817184448,-18.253320693969727,0.8942596912384033,18.047517776489258,0.5880637764930725,2.2818026542663574,-0.24844686686992645,0.0,0.0,0.0,0.0,0.0,0.0,0.0,-0.05910449390388647,0.36410695081632244,0.1010934919491364,0.43266135805436373,0.14920129053512787,0.09167587723894707,-0.2335110613591217,-0.6089808305062745,-0.057505688394370834,-0.6665231500325154,-2.594403756727252,-0.055772813728126994,2.507901097032759,0.8763237678127155,-0.6090851748156966,-0.05753196718556838,-0.666603097082616,-2.5945565370258534,-0.05562143941554,2.507976027223799,0.8763108487046415,-0.0004210212334035577,-0.0008123938684252906,0.0007216153709771513,4.7854959513875824e-05,-0.000465934568628252,-0.00027568586958680693,0.0010630716735443907,0.0,0.0,0.0,0.0,0.0,0.0,0.0,-0.00010434430942207751,-2.6278791197549556e-05,-7.994705010061498e-05,-0.00015278029860121833,0.00015137431258699374,7.493019103987919e-05,-1.2919108073994323e-05,0.0004210212334035577,0.0008123938684252906,-0.0007216153709771513,-4.7854959513875824e-05,0.000465934568628252,0.00027568586958680693,-0.0010630716735443907,0.04592245817184448,18.253320693969727,-0.8942596912384033,-18.047517776489258,-0.5880637764930725,-2.2818026542663574,0.24844686686992645,0
32,0.15476536750793457,-0.06972616910934448,-18.328699111938477,0.8704559803009033,18.071321487426758,0.5761619210243225,2.2818026542663574,-0.21457235515117645,0.0,0.0,0.0,0.0,0.0,0.0,0.0,-0.05882460922611774,0.36418379248535726,0.1009722797976842,0.4350821561285516,0.1495528224521708,0.09198863731803003,-0.23180436801841794,-0.6089791600704192,-0.05750039965402648,-0.6665214807734817,-2.594405427163107,-0.05577150444234678,2.507901097032759,0.8763200039780801,-0.6090851748156966,-0.05753196718556838,-0.666603097082616,-2.5945565370258534,-0.05562143941554,2.507976027223799,0.8763108487046415,0.000609228831760064,0.0012946118276167392,0.001167637748612866,-0.0004588943014333751,-0.00011693391976533467,-0.0005131297579171292,-0.001072090283769442,0.0,0.0,0.0,0.0,0.0,0.0,0.0,-0.00010601474527738297,-3.156753154190395e-05,-8.161630913428031e-05,-0.00015110986274624594,0.00015006502680677686,7.493019103987919e-05,-9.155273438588019e-06,-0.000609228831760064,-0.0012946118276167392,-0.001167637748612866,0.0004588943014333751,0.00011693391976533467,0.0005131297579171292,0.001072090283769442,0.06972616910934448,18.328699111938477,-0.8704559803009033,-18.071321487426758,-0.5761619210243225,-2.2818026542663574,0.21457235515117645,0
33,0.1597590446472168,-0.06972616910934448,-18.328699111938477,0.8704559803009033,18.071321487426758,0.5761619210243225,2.2818026542663574,-0.21457235515117645,0.0,0.0,0.0,0.0,0.0,0.0,0.0,-0.05882460922611774,0.36418379248535726,0.1009722797976842,0.4350821561285516,0.1495528224521708,0.09198863731803003,-0.23180436801841794,-0.6089791600704192,-0.05750039965402648,-0.6665214807734817,-2.594405427163107,-0.05577150444234678,2.507901097032759,0.8763200039780801,-0.6090851748156966,-0.05753196718556838,-0.666603097082616,-2.5945565370258534,-0.05562143941554,2.507976027223799,0.8763108487046415,0.000609228831760064,0.0012946118276167392,0.001167637748612866,-0.0004588943014333751,-0.00011693391976533467,-0.0005131297579171292,-0.001072090283769442,0.0,0.0,0.0,0.0,0.0,0.0,0.0,-0.00010601474527738297,-3.156753154190395e-05,-8.161630913428031e-05,-0.00015110986274624594,0.00015006502680677686,7.493019103987919e-05,-9.155273438588019e-06,-0.000609228831760064,-0.0012946118276167392,-0.001167637748612866,0.0004588943014333751,0.00011693391976533467,0.0005131297579171292,0.001072090283769442,0.06972616910934448,18.328699111938477,-0.8704559803009033,-18.071321487426758,-0.5761619210243225,-2.2818026542663574,0.21457235515117645,0
34,0.16487789154052734,-0.09352988004684448,-18.304895401000977,0.9180634021759033,18.071321487426758,0.5761619210243225,2.2818026542663574,-0.26217979192733765,0.0,0.0,0.0,0.0,0.0,0.0,0.0,-0.058256427729349164,0.3616133342535321,0.10069697487416365,0.43822104775461074,0.14987349368103364,0.09196542387397243,-0.23068079195507796,-0.6089774896345639,-0.05750206911668626,-0.6665257567315626,-2.5944074934574592,-0.0557715044423715,2.507901097032759,0.8763252936932775,-0.6090851748156966,-0.05753196718556838,-0.666603097082616,-2.5945565370258534,-0.05562143941554,2.507976027223799,0.8763108487046415,0.001127431635391139,-0.000390654673692885,0.0002790679743158395,-0.0001596637264069716,2.9502953346137242e-05,-0.0003678377141997368,0.0007011224191335466,0.0,0.0,0.0,0.0,0.0,0.0,0.0,-0.00010768518113268843,-2.9898068882122653e-05,-7.734035105344539e-05,-0.00014904356839418043,0.00015006502683150014,7.493019103987919e-05,-1.4444988636008738e-05,-0.001127431635391139,0.000390654673692885,-0.0002790679743158395,0.0001596637264069716,-2.9502953346137242e-05,0.0003678377141997368,-0.0007011224191335466,0.09352988004684448,18.304895401000977,-0.9180634021759033,-18.071321487426758,-0.5761619210243225,-2.2818026542663574,0.26217979192733765,0
35,0.16975784301757812,-0.09352988004684448,-18.304895401000977,0.9180634021759033,18.071321487426758,0.5761619210243225,2.2818026542663574,-0.26217979192733765,0.0,0.0,0.0,0.0,0.0,0.0,0.0,-0.058256427729349164,0.3616133342535321,0.10069697487416365,0.43822104775461074,0.14987349368103364,0.09196542387397243,-0.23068079195507796,-0.6089774896345639,-0.05750206911668626,-0.6665257567315626,-2.5944074934574592,-0.0557715044423715,2.507901097032759,0.8763252936932775,-0.6090851748156966,-0.05753196718556838,-0.666603097082616,-2.5945565370258534,-0.05562143941554,2.507976027223799,0.8763108487046415,0.001127431635391139,-0.000390654673692885,0.0002790679743158395,-0.0001596637264069716,2.9502953346137242e-05,-0.0003678377141997368,0.0007011224191335466,0.0,0.0,0.0,0.0,0.0,0.0,0.0,-0.00010768518113268843,-2.9898068882122653e-05,-7.734035105344539e-05,-0.00014904356839418043,0.00015006502683150014,7.493019103987919e-05,-1.4444988636008738e-05,-0.001127431635391139,0.000390654673692885,-0.0002790679743158395,0.0001596637264069716,-2.9502953346137242e-05,0.0003678377141997368,-0.0007011224191335466,0.09352988004684448,18.304895401000977,-0.9180634021759033,-18.071321487426758,-0.5761619210243225,-2.2818026542663574,0.26217979192733765,0
36,0.1747608184814453,-0.04592245817184448,-18.328699111938477,0.8942596912384033,18.047517776489258,0.5761619210243225,2.2818026542663574,-0.26858848333358765,0.0,0.0,0.0,0.0,0.0,0.0,0.0,-0.06191838494256199,0.36391111323819103,0.0965354522001461,0.4329948972570032,0.15010758709138608,0.09084716506761704,-0.2299669931352657,-0.6089808305062745,-0.057500398680829165,-0.666523228252784,-2.594403756738916,-0.05577468511469631,2.507901097032759,0.8763260057701003,-0.6090851748156966,-0.05753196718556838,-0.666603097082616,-2.5945565370258534,-0.05562143941554,2.507976027223799,0.8763108487046415,-0.0005612131321700889,0.00030000976565266714,0.00017629827713085085,8.849026052792072e-05,-0.00016774129311411821,-0.00021062771485853924,0.0018823439239466595,0.0,0.0,0.0,0.0,0.0,0.0,0.0,-0.00010434430942207751,-3.156850473921835e-05,-7.986882983201937e-05,-0.00015278028693721524,0.00015324569915631248,7.493019103987919e-05,-1.5157065458848429e-05,0.0005612131321700889,-0.00030000976565266714,-0.00017629827713085085,-8.849026052792072e-05,0.00016774129311411821,0.00021062771485853924,-0.0018823439239466595,0.04592245817184448,18.328699111938477,-0.8942596912384033,-18.047517776489258,-0.5761619210243225,-2.2818026542663574,0.26858848333358765,0
37,0.17975497245788574,-0.04592245817184448,-18.328699111938477,0.8942596912384033,18.047517776489258,0.5761619210243225,2.2818026542663574,-0.26858848333358765,0.0,0.0,0.0,0.0,0.0,0.0,0.0,-0.06191838494256199,0.36391111323819103,0.0965354522001461,0.4329948972570032,0.15010758709138608,0.09084716506761704,-0.2299669931352657,-0.6089808305062745,-0.057500398680829165,-0.666523228252784,-2.594403756738916,-0.05577468511469631,2.507901097032759,0.8763260057701003,-0.6090851748156966,-0.05753196718556838,-0.666603097082616,-2.5945565370258534,-0.05562143941554,2.507976027223799,0.8763108487046415,-0.0005612131321700889,0.00030000976565266714,0.00017629827713085085,8.849026052792072e-05,-0.00016774129311411821,-0.00021062771485853924,0.0018823439239466595,0.0,0.0,0.0,0.0,0.0,0.0,0.0,-0.00010434430942207751,-3.156850473921835e-05,-7.986882983201937e-05,-0.00015278028693721524,0.00015324569915631248,7.493019103987919e-05,-1.5157065458848429e-05,0.0005612131321700889,-0.00030000976565266714,-0.00017629827713085085,-8.849026052792072e-05,0.00016774129311411821,0.00021062771485853924,-0.0018823439239466595,0.04592245817184448,18.328699111938477,-0.8942596912384033,-18.047517776489258,-0.5761619210243225,-2.2818026542663574,0.26858848333358765,0
38,0.1847543716430664,-0.06972616910934448,-18.328699111938477,0.8704559803009033,18.071321487426758,0.5697532296180725,2.2818026542663574,-0.20083944499492645,0.0,0.0,0.0,0.0,0.0,0.0,0.0,-0.06097861600722602,0.3607084421041313,0.09710261391356764,0.43602571791640393,0.14978599645033175,0.0922840706172774,-0.2307468710121867,-0.6089791600704192,-0.057500398680829165,-0.6665235884096659,-2.594405427163107,-0.055773986199102246,2.507901097032759,0.8763184780991738,-0.6090851748156966,-0.05753196718556838,-0.666603097082616,-2.5945565370258534,-0.05562143941554,2.507976027223799,0.8763108487046415,-0.0003460973757500097,0.00015930296840553667,0.0011393493955576637,-0.00011062098517504024,0.000154237930264038,-4.862136110316736e-05,-0.0010192558379646089,0.0,0.0,0.0,0.0,0.0,0.0,0.0,-0.00010601474527738297,-3.156850473921835e-05,-7.950867295014596e-05,-0.00015110986274624594,0.00015254678356224627,7.493019103987919e-05,-7.629394532360223e-06,0.0003460973757500097,-0.00015930296840553667,-0.0011393493955576637,0.00011062098517504024,-0.000154237930264038,4.862136110316736e-05,0.0010192558379646089,0.06972616910934448,18.328699111938477,-0.8704559803009033,-18.071321487426758,-0.5697532296180725,-2.2818026542663574,0.20083944499492645,0
39,0.18975400924682617,-0.06972616910934448,-18.328699111938477,0.8704559803009033,18.071321487426758,0.5697532296180725,2.2818026542663574,-0.20083944499492645,0.0,0.0,0.0,0.0,0.0,0.0,0.0,-0.06097861600722602,0.3607084421041313,0.09710261391356764,0.43602571791640393,0.14978599645033175,0.0922840706172774,-0.2307468710121867,-0.6089791600704192,-0.057500398680829165,-0.6665235884096659,-2.594405427163107,-0.055773986199102246,2.507901097032759,0.8763184780991738,-0.6090851748156966,-0.05753196718556838,-0.666603097082616,-2.5945565370258534,-0.05562143941554,2.507976027223799,0.8763108487046415,-0.0003460973757500097,0.00015930296840553667,0.0011393493955576637,-0.00011062098517504024,0.000154237930264038,-4.862136110316736e-05,-0.0010192558379646089,0.0,0.0,0.0,0.0,0.0,0.0,0.0,-0.00010601474527738297,-3.156850473921835e-05,-7.950867295014596e-05,-0.00015110986274624594,0.00015254678356224627,7.493019103987919e-05,-7.629394532360223e-06,0.0003460973757500097,-0.00015930296840553667,-0.0011393493955576637,0.00011062098517504024,-0.000154237930264038,4.862136110316736e-05,0.0010192558379646089,0.06972616910934448,18.328699111938477,-0.8704559803009033,-18.071321487426758,-0.5697532296180725,-2.2818026542663574,0.20083944499492645,0
40,0.19475650787353516,-0.06972616910934448,-18.328699111938477,0.8704559803009033,18.071321487426758,0.5697532296180725,2.2818026542663574,-0.20083944499492645,0.0,0.0,0.0,0.0,0.0,0.0,0.0,-0.06097861600722602,0.3607084421041313,0.09710261391356764,0.43602571791640393,0.14978599645033175,0.0922840706172774,-0.2307468710121867,-0.6089791600704192,-0.057500398680829165,-0.6665235884096659,-2.594405427163107,-0.055773986199102246,2.507901097032759,0.8763184780991738,-0.6090851748156966,-0.05753196718556838,-0.666603097082616,-2.5945565370258534,-0.05562143941554,2.507976027223799,0.8763108487046415,-0.0003460973757500097,0.00015930296840553667,0.0011393493955576637,-0.00011062098517504024,0.000154237930264038,-4.862136110316736e-05,-0.0010192558379646089,0.0,0.0,0.0,0.0,0.0,0.0,0.0,-0.00010601474527738297,-3.156850473921835e-05,-7.950867295014596e-05,-0.00015110986274624594,0.00015254678356224627,7.493019103987919e-05,-7.629394532360223e-06,0.0003460973757500097,-0.00015930296840553667,-0.0011393493955576637,0.00011062098517504024,-0.000154237930264038,4.862136110316736e-05,0.0010192558379646089,0.06972616910934448,18.328699111938477,-0.8704559803009033,-18.071321487426758,-0.5697532296180725,-2.2818026542663574,0.20083944499492645,0
41,0.19975495338439941,-0.06972616910934448,-18.328699111938477,0.8704559803009033,18.071321487426758,0.5697532296180725,2.2818026542663574,-0.20083944499492645,0.0,0.0,0.0,0.0,0.0,0.0,0.0,-0.06097861600722602,0.3607084421041313,0.09710261391356764,0.43602571791640393,0.14978599645033175,0.0922840706172774,-0.2307468710121867,-0.6089791600704192,-0.057500398680829165,-0.6665235884096659,-2.594405427163107,-0.055773986199102246,2.507901097032759,0.8763184780991738,-0.6090851748156966,-0.05753196718556838,-0.666603097082616,-2.5945565370258534,-0.05562143941554,2.507976027223799,0.8763108487046415,-0.0003460973757500097,0.00015930296840553667,0.0011393493955576637,-0.00011062098517504024,0.000154237930264038,-4.862136110316736e-05,-0.0010192558379646089,0.0,0.0,0.0,0.0,0.0,0.0,0.0,-0.00010601474527738297,-3.156850473921835e-05,-7.950867295014596e-05,-0.00015110986274624594,0.00015254678356224627,7.493019103987919e-05,-7.629394532360223e-06,0.0003460973757500097,-0.00015930296840553667,-0.0011393493955576637,0.00011062098517504024,-0.000154237930264038,4.862136110316736e-05,0.0010192558379646089,0.06972616910934448,18.328699111938477,-0.8704559803009033,-18.071321487426758,-0.5697532296180725,-2.2818026542663574,0.20083944499492645,0
42,0.2047562599182129,-0.06972616910934448,-18.328699111938477,0.9180634021759033,18.099092483520508,0.5761619210243225,2.2818026542663574,-0.24844686686992645,0.0,0.0,0.0,0.0,0.0,0.0,0.0,-0.06977809480688103,0.358450589916795,0.09281063852090499,0.4335685226769271,0.14976388306591817,0.09309930014133219,-0.23056074631324472,-0.6089791600704192,-0.057500398680829165,-0.6665249244816435,-2.5944080647697225,-0.05577150446045025,2.507901097032759,0.8763237678127155,-0.6090851748156966,-0.05753196718556838,-0.666603097082616,-2.5945565370258534,-0.05562143941554,2.507976027223799,0.8763108487046415,-0.00028690987685448395,0.0001338757942538642,-0.0006775222133502595,-0.0009217880873774043,3.6924465656427054e-05,1.457203729525176e-05,0.00046444664898794783,0.0,0.0,0.0,0.0,0.0,0.0,0.0,-0.00010601474527738297,-3.156850473921835e-05,-7.817260097253698e-05,-0.00014847225613090487,0.00015006504491024697,7.493019103987919e-05,-1.2919108073994323e-05,0.00028690987685448395,-0.0001338757942538642,0.0006775222133502595,0.0009217880873774043,-3.6924465656427054e-05,-1.457203729525176e-05,-0.00046444664898794783,0.06972616910934448,18.328699111938477,-0.9180634021759033,-18.099092483520508,-0.5761619210243225,-2.2818026542663574,0.24844686686992645,0
43,0.20975446701049805,-0.06972616910934448,-18.328699111938477,0.9180634021759033,18.099092483520508,0.5761619210243225,2.2818026542663574,-0.24844686686992645,0.0,0.0,0.0,0.0,0.0,0.0,0.0,-0.06977809480688103,0.358450589916795,0.09281063852090499,0.4335685226769271,0.14976388306591817,0.09309930014133219,-0.23056074631324472,-0.6089791600704192,-0.057500398680829165,-0.6665249244816435,-2.5944080647697225,-0.05577150446045025,2.507901097032759,0.8763237678127155,-0.6090851748156966,-0.05753196718556838,-0.666603097082616,-2.5945565370258534,-0.05562143941554,2.507976027223799,0.8763108487046415,-0.00028690987685448395,0.0001338757942538642,-0.0006775222133502595,-0.0009217880873774043,3.6924465656427054e-05,1.457203729525176e-05,0.00046444664898794783,0.0,0.0,0.0,0.0,0.0,0.0,0.0,-0.00010601474527738297,-3.156850473921835e-05,-7.817260097253698e-05,-0.00014847225613090487,0.00015006504491024697,7.493019103987919e-05,-1.2919108073994323e-05,0.00028690987685448395,-0.0001338757942538642,0.0006775222133502595,0.0009217880873774043,-3.6924465656427054e-05,-1.457203729525176e-05,-0.00046444664898794783,0.06972616910934448,18.328699111938477,-0.9180634021759033,-18.099092483520508,-0.5761619210243225,-2.2818026542663574,0.24844686686992645,0
44,0.21476435661315918,0.005652248859405518,-18.328699111938477,0.9418671131134033,18.071321487426758,0.5697532296180725,2.2625765800476074,-0.22098104655742645,0.0,0.0,0.0,0.0,0.0,0.0,0.0,-0.06012579640159856,0.35932040021011935,0.10111877284628294,0.4324186766911816,0.14982087282080725,0.09295315952780073,-0.23208285265091136,-0.6089844497839608,-0.057500398680829165,-0.666526490797664,-2.594405427166995,-0.055773973037873494,2.5079032332632276,0.876320716054903,-0.6090851748156966,-0.05753196718556838,-0.666603097082616,-2.5945565370258534,-0.05562143941554,2.507976027223799,0.8763108487046415,-0.0013907734654359423,0.0003984421004852367,-0.0006780836009031557,-0.00025626171647915647,6.023075088202279e-05,0.00017135921729837745,-0.0004967708907239833,0.0,0.0,0.0,0.0,0.0,0.0,0.0,-0.00010072503173574887,-3.156850473921835e-05,-7.660628495198551e-05,-0.0001511098588582449,0.0001525336223334936,7.279396057136012e-05,-9.867350261538732e-06,0.0013907734654359423,-0.0003984421004852367,0.0006780836009031557,0.00025626171647915647,-6.023075088202279e-05,-0.00017135921729837745,0.0004967708907239833,-0.005652248859405518,18.328699111938477,-0.9418671131134033,-18.071321487426758,-0.5697532296180725,-2.2625765800476074,0.22098104655742645,0
45,0.2197556495666504,0.005652248859405518,-18.328699111938477,0.9418671131134033,18.071321487426758,0.5697532296180725,2.2625765800476074,-0.22098104655742645,0.0,0.0,0.0,0.0,0.0,0.0,0.0,-0.06012579640159856,0.35932040021011935,0.10111877284628294,0.4324186766911816,0.14982087282080725,0.09295315952780073,-0.23208285265091136,-0.6089844497839608,-0.057500398680829165,-0.666526490797664,-2.594405427166995,-0.055773973037873494,2.5079032332632276,0.876320716054903,-0.6090851748156966,-0.05753196718556838,-0.666603097082616,-2.5945565370258534,-0.05562143941554,2.507976027223799,0.8763108487046415,-0.0013907734654359423,0.0003984421004852367,-0.0006780836009031557,-0.00025626171647915647,6.023075088202279e-05,0.00017135921729837745,-0.0004967708907239833,0.0,0.0,0.0,0.0,0.0,0.0,0.0,-0.00010072503173574887,-3.156850473921835e-05,-7.660628495198551e-05,-0.0001511098588582449,0.0001525336223334936,7.279396057136012e-05,-9.867350261538732e-06,0.0013907734654359423,-0.0003984421004852367,0.0006780836009031557,0.00025626171647915647,-6.023075088202279e-05,-0.00017135921729837745,0.0004967708907239833,-0.005652248859405518,18.328699111938477,-0.9418671131134033,-18.071321487426758,-0.5697532296180725,-2.2625765800476074,0.22098104655742645,0
46,0.22475385665893555,-0.09352988004684448,-18.253320693969727,0.8704559803009033,18.047517776489258,0.5642600655555725,2.2753939628601074,-0.23471395671367645,0.0,0.0,0.0,0.0,0.0,0.0,0.0,-0.06515053500821791,0.35666817266724204,0.09562928283729617,0.4353172870984484,0.15030443748400005,0.09166317107336464,-0.23442012350679797,-0.6089774896345639,-0.057505688394370834,-0.6665221814997712,-2.594403756727252,-0.0557701733238955,2.507901809109582,0.8763222419338093,-0.6090851748156966,-0.05753196718556838,-0.666603097082616,-2.5945565370258534,-0.05562143941554,2.507976027223799,0.8763108487046415,0.0006560830709281209,-0.0008475110516292402,0.0014431211971210516,0.00022072773099856795,0.000432593553752581,-0.00038189571844113464,-9.658559144401015e-05,0.0,0.0,0.0,0.0,0.0,0.0,0.0,-0.00010768518113268843,-2.6278791197549556e-05,-8.091558284484268e-05,-0.00015278029860121833,0.00014873390835550004,7.42181142170395e-05,-1.1393229167766528e-05,-0.0006560830709281209,0.0008475110516292402,-0.0014431211971210516,-0.00022072773099856795,-0.000432593553752581,0.00038189571844113464,9.658559144401015e-05,0.09352988004684448,18.253320693969727,-0.8704559803009033,-18.047517776489258,-0.5642600655555725,-2.2753939628601074,0.23471395671367645,0
47,0.2297651767730713,-0.09352988004684448,-18.253320693969727,0.8704559803009033,18.047517776489258,0.5642600655555725,2.2753939628601074,-0.23471395671367645,0.0,0.0,0.0,0.0,0.0,0.0,0.0,-0.06515053500821791,0.35666817266724204,0.09562928283729617,0.4353172870984484,0.15030443748400005,0.09166317107336464,-0.23442012350679797,-0.6089774896345639,-0.057505688394370834,-0.6665221814997712,-2.594403756727252,-0.0557701733238955,2.507901809109582,0.8763222419338093,-0.6090851748156966,-0.05753196718556838,-0.666603097082616,-2.5945565370258534,-0.05562143941554,2.507976027223799,0.8763108487046415,0.0006560830709281209,-0.0008475110516292402,0.0014431211971210516,0.00022072773099856795,0.000432593553752581,-0.00038189571844113464,-9.658559144401015e-05,0.0,0.0,0.0,0.0,0.0,0.0,0.0,-0.00010768518113268843,-2.6278791197549556e-05,-8.091558284484268e-05,-0.00015278029860121833,0.00014873390835550004,7.42181142170395e-05,-1.1393229167766528e-05,-0.0006560830709281209,0.0008475110516292402,-0.0014431211971210516,-0.00022072773099856795,-0.000432593553752581,0.00038189571844113464,9.658559144401015e-05,0.09352988004684448,18.253320693969727,-0.8704559803009033,-18.047517776489258,-0.5642600655555725,-2.2753939628601074,0.23471395671367645,0
48,0.23475933074951172,-0.06972616910934448,-18.304895401000977,0.9180634021759033,18.099092483520508,0.5697532296180725,2.2753939628601074,-0.24844686686992645,0.0,0.0,0.0,0.0,0.0,0.0,0.0,-0.06398110704422402,0.35777247830054404,0.0984252449214438,0.4366658411390278,0.15016270687396138,0.09087217624845534,-0.23558603724188543,-0.6089791600704192,-0.05750206911668443,-0.6665248463655639,-2.594407452534359,-0.055770779222275114,2.507901809109582,0.8763237678127155,-0.6090851748156966,-0.05753196718556838,-0.666603097082616,-2.5945565370258534,-0.05562143941554,2.507976027223799,0.8763108487046415,0.0002108790142247919,0.0002317284862009868,-0.00011087104835216415,-0.0008391505523070419,2.5203058812983677e-05,-2.776378668512092e-05,0.00018474575517661335,0.0,0.0,0.0,0.0,0.0,0.0,0.0,-0.00010601474527738297,-2.989806888395452e-05,-7.825071705214182e-05,-0.0001490844914946443,0.00014933980673511454,7.42181142170395e-05,-1.2919108073994323e-05,-0.0002108790142247919,-0.0002317284862009868,0.00011087104835216415,0.0008391505523070419,-2.5203058812983677e-05,2.776378668512092e-05,-0.00018474575517661335,0.06972616910934448,18.304895401000977,-0.9180634021759033,-18.099092483520508,-0.5697532296180725,-2.2753939628601074,0.24844686686992645,0
49,0.23975634574890137,-0.06972616910934448,-18.304895401000977,0.9180634021759033,18.099092483520508,0.5697532296180725,2.2753939628601074,-0.24844686686992645,0.0,0.0,0.0,0.0,0.0,0.0,0.0,-0.06398110704422402,0.35777247830054404,0.0984252449214438,0.4366658411390278,0.15016270687396138,0.09087217624845534,-0.23558603724188543,-0.6089791600704192,-0.05750206911668443,-0.6665248463655639,-2.594407452534359,-0.055770779222275114,2.507901809109582,0.8763237678127155,-0.6090851748156966,-0.05753196718556838,-0.666603097082616,-2.5945565370258534,-0.05562143941554,2.507976027223799,0.8763108487046415,0.0002108790142247919,0.0002317284862009868,-0.00011087104835216415,-0.0008391505523070419,2.5203058812983677e-05,-2.776378668512092e-05,0.00018474575517661335,0.0,0.0,0.0,0.0,0.0,0.0,0.0,-0.00010601474527738297,-2.989806888395452e-05,-7.825071705214182e-05,-0.0001490844914946443,0.00014933980673511454,7.42181142170395e-05,-1.2919108073994323e-05,-0.0002108790142247919,-0.0002317284862009868,0.00011087104835216415,0.0008391505523070419,-2.5203058812983677e-05,2.776378668512092e-05,-0.00018474575517661335,0.06972616910934448,18.304895401000977,-0.9180634021759033,-18.099092483520508,-0.5697532296180725,-2.2753939628601074,0.24844686686992645,0
50,0.24475789070129395,-0.04592245817184448,-18.304895401000977,0.9418671131134033,18.047517776489258,0.5761619210243225,2.2689852714538574,-0.23471395671367645,0.0,0.0,0.0,0.0,0.0,0.0,0.0,-0.06356982013876764,0.35766773756271975,0.0973431622178209,0.4361596863705413,0.14945064262572497,0.09137849888053147,-0.2371298184897787,-0.6089808305062745,-0.05750214794566679,-0.6665285971489974,-2.594403756727684,-0.055772557418707285,2.5079025211864048,0.8763222419338093,-0.6090851748156966,-0.05753196718556838,-0.666603097082616,-2.5945565370258534,-0.05562143941554,2.507976027223799,0.8763108487046415,-0.00030182884000657057,-0.00030589715314338915,-0.000605088012865808,0.00022035081834735382,-0.00016793686176698689,0.0004144580909676716,3.695538676722559e-05,0.0,0.0,0.0,0.0,0.0,0.0,0.0,-0.00010434430942207751,-2.981923990159202e-05,-7.44999336186325e-05,-0.00015278029816956362,0.00015111800316728458,7.350603739419981e-05,-1.1393229167766528e-05,0.00030182884000657057,0.00030589715314338915,0.000605088012865808,-0.00022035081834735382,0.00016793686176698689,-0.0004144580909676716,-3.695538676722559e-05,0.04592245817184448,18.304895401000977,-0.9418671131134033,-18.047517776489258,-0.5761619210243225,-2.2689852714538574,0.23471395671367645,0
51,0.24975323677062988,-0.04592245817184448,-18.304895401000977,0.9418671131134033,18.047517776489258,0.5761619210243225,2.2689852714538574,-0.23471395671367645,0.0,0.0,0.0,0.0,0.0,0.0,0.0,-0.06356982013876764,0.35766773756271975,0.0973431622178209,0.4361596863705413,0.14945064262572497,0.09137849888053147,-0.2371298184897787,-0.6089808305062745,-0.05750214794566679,-0.6665285971489974,-2.594403756727684,-0.055772557418707285,2.5079025211864048,0.8763222419338093,-0.6090851748156966,-0.05753196718556838,-0.666603097082616,-2.5945565370258534,-0.05562143941554,2.507976027223799,0.8763108487046415,-0.00030182884000657057,-0.00030589715314338915,-0.000605088012865808,0.00022035081834735382,-0.00016793686176698689,0.0004144580909676716,3.695538676722559e-05,0.0,0.0,0.0,0.0,0.0,0.0,0.0,-0.00010434430942207751,-2.981923990159202e-05,-7.44999336186325e-05,-0.00015278029816956362,0.00015111800316728458,7.350603739419981e-05,-1.1393229167766528e-05,0.00030182884000657057,0.00030589715314338915,0.000605088012865808,-0.00022035081834735382,0.00016793686176698689,-0.0004144580909676716,-3.695538676722559e-05,0.04592245817184448,18.304895401000977,-0.9418671131134033,-18.047517776489258,-0.5761619210243225,-2.2689852714538574,0.23471395671367645,0
52,0.25478529930114746,-0.04592245817184448,-18.277124404907227,0.8704559803009033,18.071321487426758,0.5761619210243225,2.2818026542663574,-0.21457235515117645,0.0,0.0,0.0,0.0,0.0,0.0,0.0,-0.06503784791208102,0.35936980839890664,0.09478824940428755,0.4340777226722217,0.14938637936414262,0.09176639816553982,-0.2374274487104663,-0.6089808305062745,-0.05750401795896056,-0.6665214825329953,-2.5944054271980996,-0.05577149130509118,2.507901097032759,0.8763200039780801,-0.6090851748156966,-0.05753196718556838,-0.666603097082616,-2.5945565370258534,-0.05562143941554,2.507976027223799,0.8763108487046415,-0.00043913970870232833,-0.0009132110005190425,0.0007425210345376604,-0.00024999765505304925,-0.00016330067256956112,-0.00013582539500510334,-0.0008069929161291095,0.0,0.0,0.0,0.0,0.0,0.0,0.0,-0.00010434430942207751,-2.794922660782212e-05,-8.161454962074544e-05,-0.00015110982775379256,0.00015005188955118098,7.493019103987919e-05,-9.155273438588019e-06,0.00043913970870232833,0.0009132110005190425,-0.0007425210345376604,0.00024999765505304925,0.00016330067256956112,0.00013582539500510334,0.0008069929161291095,0.04592245817184448,18.277124404907227,-0.8704559803009033,-18.071321487426758,-0.5761619210243225,-2.2818026542663574,0.21457235515117645,0
53,0.25977206230163574,-0.04592245817184448,-18.277124404907227,0.8704559803009033,18.071321487426758,0.5761619210243225,2.2818026542663574,-0.21457235515117645,0.0,0.0,0.0,0.0,0.0,0.0,0.0,-0.06503784791208102,0.35936980839890664,0.09478824940428755,0.4340777226722217,0.14938637936414262,0.09176639816553982,-0.2374274487104663,-0.6089808305062745,-0.05750401795896056,-0.6665214825329953,-2.5944054271980996,-0.05577149130509118,2.507901097032759,0.8763200039780801,-0.6090851748156966,-0.05753196718556838,-0.666603097082616,-2.5945565370258534,-0.05562143941554,2.507976027223799,0.8763108487046415,-0.00043913970870232833,-0.0009132110005190425,0.0007425210345376604,-0.00024999765505304925,-0.00016330067256956112,-0.00013582539500510334,-0.0008069929161291095,0.0,0.0,0.0,0.0,0.0,0.0,0.0,-0.00010434430942207751,-2.794922660782212e-05,-8.161454962074544e-05,-0.00015110982775379256,0.00015005188955118098,7.493019103987919e-05,-9.155273438588019e-06,0.00043913970870232833,0.0009132110005190425,-0.0007425210345376604,0.00024999765505304925,0.00016330067256956112,0.00013582539500510334,0.0008069929161291095,0.04592245817184448,18.277124404907227,-0.8704559803009033,-18.071321487426758,-0.5761619210243225,-2.2818026542663574,0.21457235515117645,0
54,0.26477503776550293,-0.06972616910934448,-18.304895401000977,0.9180634021759033,18.099092483520508,0.5761619210243225,2.2689852714538574,-0.26858848333358765,0.0,0.0,0.0,0.0,0.0,0.0,0.0,-0.056432602027046024,0.3551820688767664,0.10170488833886408,0.4393615942239418,0.1489825766483756,0.09295963717685343,-0.2374947503731037,-0.6089791600704192,-0.057502069116684436,-0.6665248493575812,-2.594407376004939,-0.05577161007532571,2.5079025211864048,0.8763263589828102,-0.6090851748156966,-0.05753196718556838,-0.666603097082616,-2.5945565370258534,-0.05562143941554,2.507976027223799,0.8763108487046415,0.0005103416862305814,-0.0004815767781610591,3.748786149546164e-05,-0.0004630835517222868,-3.920207940232513e-05,0.00037581743911296455,0.0012746791436035723,0.0,0.0,0.0,0.0,0.0,0.0,0.0,-0.00010601474527738297,-2.989806888394758e-05,-7.824772503484123e-05,-0.00014916102091433459,0.00015017065978571026,7.350603739419981e-05,-1.5510278168706648e-05,-0.0005103416862305814,0.0004815767781610591,-3.748786149546164e-05,0.0004630835517222868,3.920207940232513e-05,-0.00037581743911296455,-0.0012746791436035723,0.06972616910934448,18.304895401000977,-0.9180634021759033,-18.099092483520508,-0.5761619210243225,-2.2689852714538574,0.26858848333358765,0
55,0.2697784900665283,-0.06972616910934448,-18.304895401000977,0.9180634021759033,18.099092483520508,0.5761619210243225,2.2689852714538574,-0.26858848333358765,0.0,0.0,0.0,0.0,0.0,0.0,0.0,-0.056432602027046024,0.3551820688767664,0.10170488833886408,0.4393615942239418,0.1489825766483756,0.09295963717685343,-0.2374947503731037,-0.6089791600704192,-0.057502069116684436,-0.6665248493575812,-2.594407376004939,-0.05577161007532571,2.5079025211864048,0.8763263589828102,-0.6090851748156966,-0.05753196718556838,-0.666603097082616,-2.5945565370258534,-0.05562143941554,2.507976027223799,0.8763108487046415,0.0005103416862305814,-0.0004815767781610591,3.748786149546164e-05,-0.0004630835517222868,-3.920207940232513e-05,0.00037581743911296455,0.0012746791436035723,0.0,0.0,0.0,0.0,0.0,0.0,0.0,-0.00010601474527738297,-2.989806888394758e-05,-7.824772503484123e-05,-0.00014916102091433459,0.00015017065978571026,7.350603739419981e-05,-1.5510278168706648e-05,-0.0005103416862305814,0.0004815767781610591,-3.748786149546164e-05,0.0004630835517222868,3.920207940232513e-05,-0.00037581743911296455,-0.0012746791436035723,0.06972616910934448,18.304895401000977,-0.9180634021759033,-18.099092483520508,-0.5761619210243225,-2.2689852714538574,0.26858848333358765,0
56,0.27477407455444336,-0.04592245817184448,-18.328699111938477,0.9180634021759033,18.047517776489258,0.5816550850868225,2.2689852714538574,-0.24844686686992645,0.0,0.0,0.0,0.0,0.0,0.0,0.0,-0.06232506819205951,0.361561800329116,0.09582588601306097,0.43151187836107596,0.14939406518008425,0.09141997783560153,-0.23658910802441707,-0.6089808305062745,-0.057500398680829165,-0.6665248203612756,-2.594403756727252,-0.0557721016508589,2.5079025211864048,0.8763237678133802,-0.6090851748156966,-0.05753196718556838,-0.666603097082616,-2.5945565370258534,-0.05562143941554,2.507976027223799,0.8763108487046415,-0.0005378602674408914,0.0003619893676496537,-0.00048658638003468304,-2.363755591261874e-05,-0.0003374276056941423,3.245202908789973e-05,0.0007173048511552354,0.0,0.0,0.0,0.0,0.0,0.0,0.0,-0.00010434430942207751,-3.156850473921835e-05,-7.827672134042007e-05,-0.00015278029860121833,0.0001506622353188991,7.350603739419981e-05,-1.2919108738684848e-05,0.0005378602674408914,-0.0003619893676496537,0.00048658638003468304,2.363755591261874e-05,0.0003374276056941423,-3.245202908789973e-05,-0.0007173048511552354,0.04592245817184448,18.328699111938477,-0.9180634021759033,-18.047517776489258,-0.5816550850868225,-2.2689852714538574,0.24844686686992645,0
57,0.27977728843688965,-0.04592245817184448,-18.328699111938477,0.9180634021759033,18.047517776489258,0.5816550850868225,2.2689852714538574,-0.24844686686992645,0.0,0.0,0.0,0.0,0.0,0.0,0.0,-0.06232506819205951,0.361561800329116,0.09582588601306097,0.43151187836107596,0.14939406518008425,0.09141997783560153,-0.23658910802441707,-0.6089808305062745,-0.057500398680829165,-0.6665248203612756,-2.594403756727252,-0.0557721016508589,2.5079025211864048,0.8763237678133802,-0.6090851748156966,-0.05753196718556838,-0.666603097082616,-2.5945565370258534,-0.05562143941554,2.507976027223799,0.8763108487046415,-0.0005378602674408914,0.0003619893676496537,-0.00048658638003468304,-2.363755591261874e-05,-0.0003374276056941423,3.245202908789973e-05,0.0007173048511552354,0.0,0.0,0.0,0.0,0.0,0.0,0.0,-0.00010434430942207751,-3.156850473921835e-05,-7.827672134042007e-05,-0.00015278029860121833,0.0001506622353188991,7.350603739419981e-05,-1.2919108738684848e-05,0.0005378602674408914,-0.0003619893676496537,0.00048658638003468304,2.363755591261874e-05,0.0003374276056941423,-3.245202908789973e-05,-0.0007173048511552354,0.04592245817184448,18.328699111938477,-0.9180634021759033,-18.047517776489258,-0.5816550850868225,-2.2689852714538574,0.24844686686992645,0
58,0.2847728729248047,-0.06972616910934448,-18.328699111938477,0.9180634021759033,18.071321487426758,0.5761619210243225,2.2753939628601074,-0.24844686686992645,0.0,0.0,0.0,0.0,0.0,0.0,0.0,-0.05997995601648808,0.36024204856976016,0.0982019777538261,0.43498713636068626,0.1493289460217732,0.09175626173178573,-0.23619678431030486,-0.6089791600704192,-0.057500398680829165,-0.6665248203612211,-2.594405427163107,-0.05577468511462215,2.507901809109582,0.8763237678127156,-0.6090851748156966,-0.05753196718556838,-0.666603097082616,-2.5945565370258534,-0.05562143941554,2.507976027223799,0.8763108487046415,-4.339134030300658e-05,0.0008503605920942162,-9.638448609798488e-05,-0.00011485615905256708,-0.00010667375592601998,7.647873155429852e-05,0.00010087468686614116,0.0,0.0,0.0,0.0,0.0,0.0,0.0,-0.00010601474527738297,-3.156850473921835e-05,-7.827672139493203e-05,-0.00015110986274624594,0.00015324569908214958,7.42181142170395e-05,-1.2919108074105345e-05,4.339134030300658e-05,-0.0008503605920942162,9.638448609798488e-05,0.00011485615905256708,0.00010667375592601998,-7.647873155429852e-05,-0.00010087468686614116,0.06972616910934448,18.328699111938477,-0.9180634021759033,-18.071321487426758,-0.5761619210243225,-2.2753939628601074,0.24844686686992645,0
59,0.28978538513183594,-0.06972616910934448,-18.328699111938477,0.9180634021759033,18.071321487426758,0.5761619210243225,2.2753939628601074,-0.24844686686992645,0.0,0.0,0.0,0.0,0.0,0.0,0.0,-0.05997995601648808,0.36024204856976016,0.0982019777538261,0.43498713636068626,0.1493289460217732,0.09175626173178573,-0.23619678431030486,-0.6089791600704192,-0.057500398680829165,-0.6665248203612211,-2.594405427163107,-0.05577468511462215,2.507901809109582,0.8763237678127156,-0.6090851748156966,-0.05753196718556838,-0.666603097082616,-2.5945565370258534,-0.05562143941554,2.507976027223799,0.8763108487046415,-4.339134030300658e-05,0.0008503605920942162,-9.638448609798488e-05,-0.00011485615905256708,-0.00010667375592601998,7.647873155429852e-05,0.00010087468686614116,0.0,0.0,0.0,0.0,0.0,0.0,0.0,-0.00010601474527738297,-3.156850473921835e-05,-7.827672139493203e-05,-0.00015110986274624594,0.00015324569908214958,7.42181142170395e-05,-1.2919108074105345e-05,4.339134030300658e-05,-0.0008503605920942162,9.638448609798488e-05,0.00011485615905256708,0.00010667375592601998,-7.647873155429852e-05,-0.00010087468686614116,0.06972616910934448,18.328699111938477,-0.9180634021759033,-18.071321487426758,-0.5761619210243225,-2.2753939628601074,0.24844686686992645,0
60,0.2947545051574707,-0.06972616910934448,-18.352502822875977,0.8942596912384033,18.071321487426758,0.5761619210243225,2.2818026542663574,-0.27591270208358765,0.0,0.0,0.0,0.0,0.0,0.0,0.0,-0.06586826415909969,0.35783764286927655,0.09333071648501459,0.4372118111418156,0.149872966617281,0.09184418774327084,-0.23710933254075292,-0.6089791600704192,-0.0574987282449739,-0.6665231595551361,-2.59440542999753,-0.055774685115289865,2.507901097032759,0.8763268195721838,-0.6090851748156966,-0.05753196718556838,-0.666603097082616,-2.5945565370258534,-0.05562143941554,2.507976027223799,0.8763108487046415,-0.00044657647265752316,0.0010269931075688639,0.00021501321926190655,5.794297428521168e-05,-1.9712390684380236e-05,-0.0004022444752281428,0.0009156865883587228,0.0,0.0,0.0,0.0,0.0,0.0,0.0,-0.00010601474527738297,-3.323894059448218e-05,-7.9937527479923e-05,-0.00015110702832332734,0.00015324569974986546,7.493019103987919e-05,-1.5970867542347555e-05,0.00044657647265752316,-0.0010269931075688639,-0.00021501321926190655,-5.794297428521168e-05,1.9712390684380236e-05,0.0004022444752281428,-0.0009156865883587228,0.06972616910934448,18.352502822875977,-0.8942596912384033,-18.071321487426758,-0.5761619210243225,-2.2818026542663574,0.27591270208358765,0
61,0.29976844787597656,-0.06972616910934448,-18.352502822875977,0.8942596912384033,18.071321487426758,0.5761619210243225,2.2818026542663574,-0.27591270208358765,0.0,0.0,0.0,0.0,0.0,0.0,0.0,-0.06586826415909969,0.35783764286927655,0.09333071648501459,0.4372118111418156,0.149872966617281,0.09184418774327084,-0.23710933254075292,-0.6089791600704192,-0.0574987282449739,-0.6665231595551361,-2.59440542999753,-0.055774685115289865,2.507901097032759,0.8763268195721838,-0.6090851748156966,-0.05753196718556838,-0.666603097082616,-2.5945565370258534,-0.05562143941554,2.507976027223799,0.8763108487046415,-0.00044657647265752316,0.0010269931075688639,0.00021501321926190655,5.794297428521168e-05,-1.9712390684380236e-05,-0.0004022444752281428,0.0009156865883587228,0.0,0.0,0.0,0.0,0.0,0.0,0.0,-0.00010601474527738297,-3.323894059448218e-05,-7.9937527479923e-05,-0.00015110702832332734,0.00015324569974986546,7.493019103987919e-05,-1.5970867542347555e-05,0.00044657647265752316,-0.0010269931075688639,-0.00021501321926190655,-5.794297428521168e-05,1.9712390684380236e-05,0.0004022444752281428,-0.0009156865883587228,0.06972616910934448,18.352502822875977,-0.8942596912384033,-18.071321487426758,-0.5761619210243225,-2.2818026542663574,0.27591270208358765,0
62,0.3048577308654785,-0.06972616910934448,-18.304895401000977,0.9180634021759033,18.099092483520508,0.5761619210243225,2.2689852714538574,-0.23471395671367645,0.0,0.0,0.0,0.0,0.0,0.0,0.0,-0.06336537886338939,0.3597323737671659,0.09550396405119475,0.4330255411839386,0.14960051120225948,0.09108192747090485,-0.239007472637302,-0.6089791600704192,-0.05750206911668443,-0.6665255223715361,-2.594407376354883,-0.055774685132651304,2.5079025211864048,0.8763222419338094,-0.6090851748156966,-0.05753196718556838,-0.666603097082616,-2.5945565370258534,-0.05562143941554,2.507976027223799,0.8763108487046415,-9.480122077220723e-05,-0.0003823809673562161,-0.0003086552660062817,-0.0013765145725533787,-0.00015517276255340873,0.0003766205388444664,0.0069566629395744475,0.0,0.0,0.0,0.0,0.0,0.0,0.0,-0.00010601474527738297,-2.989806888395452e-05,-7.757471107994185e-05,-0.00014916067097026087,0.00015324571711130414,7.350603739419981e-05,-1.139322916787755e-05,9.480122077220723e-05,0.0003823809673562161,0.0003086552660062817,0.0013765145725533787,0.00015517276255340873,-0.0003766205388444664,-0.0069566629395744475,0.06972616910934448,18.304895401000977,-0.9180634021759033,-18.099092483520508,-0.5761619210243225,-2.2689852714538574,0.23471395671367645,0
63,0.3097505569458008,-0.06972616910934448,-18.304895401000977,0.9180634021759033,18.099092483520508,0.5761619210243225,2.2689852714538574,-0.23471395671367645,0.0,0.0,0.0,0.0,0.0,0.0,0.0,-0.06336537886338939,0.3597323737671659,0.09550396405119475,0.4330255411839386,0.14960051120225948,0.09108192747090485,-0.239007472637302,-0.6089791600704192,-0.05750206911668443,-0.6665255223715361,-2.594407376354883,-0.055774685132651304,2.5079025211864048,0.8763222419338094,-0.6090851748156966,-0.05753196718556838,-0.666603097082616,-2.5945565370258534,-0.05562143941554,2.507976027223799,0.8763108487046415,-9.480122077220723e-05,-0.0003823809673562161,-0.0003086552660062817,-0.0013765145725533787,-0.00015517276255340873,0.0003766205388444664,0.0069566629395744475,0.0,0.0,0.0,0.0,0.0,0.0,0.0,-0.00010601474527738297,-2.989806888395452e-05,-7.757471107994185e-05,-0.00014916067097026087,0.00015324571711130414,7.350603739419981e-05,-1.139322916787755e-05,9.480122077220723e-05,0.0003823809673562161,0.0003086552660062817,0.0013765145725533787,0.00015517276255340873,-0.0003766205388444664,-0.0069566629395744475,0.06972616910934448,18.304895401000977,-0.9180634021759033,-18.099092483520508,-0.5761619210243225,-2.2689852714538574,0.23471395671367645,0
64,0.3147740364074707,-0.06972616910934448,-18.304895401000977,0.9180634021759033,18.099092483520508,0.5761619210243225,2.2689852714538574,-0.23471395671367645,0.0,0.0,0.0,0.0,0.0,0.0,0.0,-0.06336537886338939,0.3597323737671659,0.09550396405119475,0.4330255411839386,0.14960051120225948,0.09108192747090485,-0.239007472637302,-0.6089791600704192,-0.05750206911668443,-0.6665255223715361,-2.594407376354883,-0.055774685132651304,2.5079025211864048,0.8763222419338094,-0.6090851748156966,-0.05753196718556838,-0.666603097082616,-2.5945565370258534,-0.05562143941554,2.507976027223799,0.8763108487046415,-9.480122077220723e-05,-0.0003823809673562161,-0.0003086552660062817,-0.0013765145725533787,-0.00015517276255340873,0.0003766205388444664,0.0069566629395744475,0.0,0.0,0.0,0.0,0.0,0.0,0.0,-0.00010601474527738297,-2.989806888395452e-05,-7.757471107994185e-05,-0.00014916067097026087,0.00015324571711130414,7.350603739419981e-05,-1.139322916787755e-05,9.480122077220723e-05,0.0003823809673562161,0.0003086552660062817,0.0013765145725533787,0.00015517276255340873,-0.0003766205388444664,-0.0069566629395744475,0.06972616910934448,18.304895401000977,-0.9180634021759033,-18.099092483520508,-0.5761619210243225,-2.2689852714538574,0.23471395671367645,0
65,0.31977128982543945,-0.06972616910934448,-18.304895401000977,0.9180634021759033,18.099092483520508,0.5761619210243225,2.2689852714538574,-0.23471395671367645,0.0,0.0,0.0,0.0,0.0,0.0,0.0,-0.06336537886338939,0.3597323737671659,0.09550396405119475,0.4330255411839386,0.14960051120225948,0.09108192747090485,-0.239007472637302,-0.6089791600704192,-0.05750206911668443,-0.6665255223715361,-2.594407376354883,-0.055774685132651304,2.5079025211864048,0.8763222419338094,-0.6090851748156966,-0.05753196718556838,-0.666603097082616,-2.5945565370258534,-0.05562143941554,2.507976027223799,0.8763108487046415,-9.480122077220723e-05,-0.0003823809673562161,-0.0003086552660062817,-0.0013765145725533787,-0.00015517276255340873,0.0003766205388444664,0.0069566629395744475,0.0,0.0,0.0,0.0,0.0,0.0,0.0,-0.00010601474527738297,-2.989806888395452e-05,-7.757471107994185e-05,-0.00014916067097026087,0.00015324571711130414,7.350603739419981e-05,-1.139322916787755e-05,9.480122077220723e-05,0.0003823809673562161,0.0003086552660062817,0.0013765145725533787,0.00015517276255340873,-0.0003766205388444664,-0.0069566629395744475,0.06972616910934448,18.304895401000977,-0.9180634021759033,-18.099092483520508,-0.5761619210243225,-2.2689852714538574,0.23471395671367645,0
66,0.32476377487182617,-0.04592245817184448,-18.277124404907227,0.9180634021759033,18.071321487426758,0.5697532296180725,2.2818026542663574,-0.24844686686992645,0.0,0.0,0.0,0.0,0.0,0.0,0.0,-0.061113550148344076,0.3601322840516049,0.09959934475599758,0.4338541174455702,0.1490670391019701,0.09202840720054706,-0.23924359625503128,-0.6089808305062745,-0.05750401795851557,-0.6665248203651839,-2.5944054356663777,-0.05577397305582848,2.507901097032759,0.8763237678127156,-0.6090851748156966,-0.05753196718556838,-0.666603097082616,-2.5945565370258534,-0.05562143941554,2.507976027223799,0.8763108487046415,-0.00040684480864061997,-0.0005197233055242895,0.00010215697033779666,-0.0002827481247377751,0.0001814960747494724,-0.0001278295166231333,0.0009522854714603534,0.0,0.0,0.0,0.0,0.0,0.0,0.0,-0.00010434430942207751,-2.7949227052813386e-05,-7.827671743210196e-05,-0.0001511013594757138,0.00015253364028847832,7.493019103987919e-05,-1.2919108074105345e-05,0.00040684480864061997,0.0005197233055242895,-0.00010215697033779666,0.0002827481247377751,-0.0001814960747494724,0.0001278295166231333,-0.0009522854714603534,0.04592245817184448,18.277124404907227,-0.9180634021759033,-18.071321487426758,-0.5697532296180725,-2.2818026542663574,0.24844686686992645,0
67,0.3297770023345947,-0.04592245817184448,-18.277124404907227,0.9180634021759033,18.071321487426758,0.5697532296180725,2.2818026542663574,-0.24844686686992645,0.0,0.0,0.0,0.0,0.0,0.0,0.0,-0.061113550148344076,0.3601322840516049,0.09959934475599758,0.4338541174455702,0.1490670391019701,0.09202840720054706,-0.23924359625503128,-0.6089808305062745,-0.05750401795851557,-0.6665248203651839,-2.5944054356663777,-0.05577397305582848,2.507901097032759,0.8763237678127156,-0.6090851748156966,-0.05753196718556838,-0.666603097082616,-2.5945565370258534,-0.05562143941554,2.507976027223799,0.8763108487046415,-0.00040684480864061997,-0.0005197233055242895,0.00010215697033779666,-0.0002827481247377751,0.0001814960747494724,-0.0001278295166231333,0.0009522854714603534,0.0,0.0,0.0,0.0,0.0,0.0,0.0,-0.00010434430942207751,-2.7949227052813386e-05,-7.827671743210196e-05,-0.0001511013594757138,0.00015253364028847832,7.493019103987919e-05,-1.2919108074105345e-05,0.00040684480864061997,0.0005197233055242895,-0.00010215697033779666,0.0002827481247377751,-0.0001814960747494724,0.0001278295166231333,-0.0009522854714603534,0.04592245817184448,18.277124404907227,-0.9180634021759033,-18.071321487426758,-0.5697532296180725,-2.2818026542663574,0.24844686686992645,0
68,0.3347814083099365,-0.06972616910934448,-18.304895401000977,0.9696381092071533,18.071321487426758,0.5761619210243225,2.2818026542663574,-0.24844686686992645,0.0,0.0,0.0,0.0,0.0,0.0,0.0,-0.0626552469721429,0.3578965446854637,0.0966589285650152,0.43570064125581126,0.14930350717164234,0.0925373760654811,-0.23778951413910596,-0.6089791600704192,-0.05750206911668443,-0.6665284396389074,-2.594405427163155,-0.055771649036388565,2.507901097032759,0.8763237678127156,-0.6090851748156966,-0.05753196718556838,-0.666603097082616,-2.5945565370258534,-0.05562143941554,2.507976027223799,0.8763108487046415,0.0003719359106438441,-3.963469654909303e-05,-0.0013150060908988135,-3.0676906442146316e-06,-0.00014623878394342315,-0.00030932614344649975,0.0008198332140140416,0.0,0.0,0.0,0.0,0.0,0.0,0.0,-0.00010601474527738297,-2.989806888395452e-05,-7.465744370860339e-05,-0.0001511098626982843,0.00015020962084856537,7.493019103987919e-05,-1.2919108074105345e-05,-0.0003719359106438441,3.963469654909303e-05,0.0013150060908988135,3.0676906442146316e-06,0.00014623878394342315,0.00030932614344649975,-0.0008198332140140416,0.06972616910934448,18.304895401000977,-0.9696381092071533,-18.071321487426758,-0.5761619210243225,-2.2818026542663574,0.24844686686992645,0
69,0.33977723121643066,-0.06972616910934448,-18.304895401000977,0.9696381092071533,18.071321487426758,0.5761619210243225,2.2818026542663574,-0.24844686686992645,0.0,0.0,0.0,0.0,0.0,0.0,0.0,-0.0626552469721429,0.3578965446854637,0.0966589285650152,0.43570064125581126,0.14930350717164234,0.0925373760654811,-0.23778951413910596,-0.6089791600704192,-0.05750206911668443,-0.6665284396389074,-2.594405427163155,-0.055771649036388565,2.507901097032759,0.8763237678127156,-0.6090851748156966,-0.05753196718556838,-0.666603097082616,-2.5945565370258534,-0.05562143941554,2.507976027223799,0.8763108487046415,0.0003719359106438441,-3.963469654909303e-05,-0.0013150060908988135,-3.0676906442146316e-06,-0.00014623878394342315,-0.00030932614344649975,0.0008198332140140416,0.0,0.0,0.0,0.0,0.0,0.0,0.0,-0.00010601474527738297,-2.989806888395452e-05,-7.465744370860339e-05,-0.0001511098626982843,0.00015020962084856537,7.493019103987919e-05,-1.2919108074105345e-05,-0.0003719359106438441,3.963469654909303e-05,0.0013150060908988135,3.0676906442146316e-06,0.00014623878394342315,0.00030932614344649975,-0.0008198332140140416,0.06972616910934448,18.304895401000977,-0.9696381092071533,-18.071321487426758,-0.5761619210243225,-2.2818026542663574,0.24844686686992645,0
70,0.34476470947265625,-0.018151462078094482,-18.352502822875977,0.9696381092071533,18.047517776489258,0.5816550850868225,2.2689852714538574,-0.21457235515117645,0.0,0.0,0.0,0.0,0.0,0.0,0.0,-0.058460263550757,0.3645463690044047,0.10049733469504292,0.431808809293415,0.14910334746819634,0.09144676420921558,-0.2363627622177556,-0.6089827793481056,-0.0574987282449739,-0.6665285177470449,-2.594403756727252,-0.055772114794799696,2.5079025211864048,0.8763198862405102,-0.6090851748156966,-0.05753196718556838,-0.666603097082616,-2.5945565370258534,-0.05562143941554,2.507976027223799,0.8763108487046415,-0.0007730481500527962,0.0016700106415534189,-0.0010773674927652302,0.00026534343592740325,-0.00048723703420326463,0.00025258292647015797,-0.0006728459669994561,0.0,0.0,0.0,0.0,0.0,0.0,0.0,-0.00010239546759094331,-3.323894059448218e-05,-7.457933557108998e-05,-0.00015278029860121833,0.00015067537925969599,7.350603739419981e-05,-9.037535868672286e-06,0.0007730481500527962,-0.0016700106415534189,0.0010773674927652302,-0.00026534343592740325,0.00048723703420326463,-0.00025258292647015797,0.0006728459669994561,0.018151462078094482,18.352502822875977,-0.9696381092071533,-18.047517776489258,-0.5816550850868225,-2.2689852714538574,0.21457235515117645,0
71,0.34975409507751465,-0.018151462078094482,-18.352502822875977,0.9696381092071533,18.047517776489258,0.5816550850868225,2.2689852714538574,-0.21457235515117645,0.0,0.0,0.0,0.0,0.0,0.0,0.0,-0.058460263550757,0.3645463690044047,0.10049733469504292,0.431808809293415,0.14910334746819634,0.09144676420921558,-0.2363627622177556,-0.6089827793481056,-0.0574987282449739,-0.6665285177470449,-2.594403756727252,-0.055772114794799696,2.5079025211864048,0.8763198862405102,-0.6090851748156966,-0.05753196718556838,-0.666603097082616,-2.5945565370258534,-0.05562143941554,2.507976027223799,0.8763108487046415,-0.0007730481500527962,0.0016700106415534189,-0.0010773674927652302,0.00026534343592740325,-0.00048723703420326463,0.00025258292647015797,-0.0006728459669994561,0.0,0.0,0.0,0.0,0.0,0.0,0.0,-0.00010239546759094331,-3.323894059448218e-05,-7.457933557108998e-05,-0.00015278029860121833,0.00015067537925969599,7.350603739419981e-05,-9.037535868672286e-06,0.0007730481500527962,-0.0016700106415534189,0.0010773674927652302,-0.00026534343592740325,0.00048723703420326463,-0.00025258292647015797,0.0006728459669994561,0.018151462078094482,18.352502822875977,-0.9696381092071533,-18.047517776489258,-0.5816550850868225,-2.2689852714538574,0.21457235515117645,0
72,0.35476183891296387,-0.09352988004684448,-18.328699111938477,0.8942596912384033,18.099092483520508,0.5642600655555725,2.2753939628601074,-0.23471395671367645,0.0,0.0,0.0,0.0,0.0,0.0,0.0,-0.061978684457651305,0.3572099548134853,0.10074543954411112,0.43916109390335606,0.14957246200473076,0.09188669826019762,-0.2347293478511918,-0.6089774896345639,-0.057500398680829165,-0.6665231614815311,-2.5944073760049386,-0.055770287160226466,2.507901809109582,0.8763222419331447,-0.6090851748156966,-0.05753196718556838,-0.666603097082616,-2.5945565370258534,-0.05562143941554,2.507976027223799,0.8763108487046415,0.0008757534100463533,0.00038831316872420604,0.0007705362925513451,-0.00037779629820036237,0.0001589838693688107,8.218357175023281e-07,0.0006138429368813186,0.0,0.0,0.0,0.0,0.0,0.0,0.0,-0.00010768518113268843,-3.156850473921835e-05,-7.993560108487952e-05,-0.00014916102091477867,0.00014884774468646583,7.42181142170395e-05,-1.1393228503187025e-05,-0.0008757534100463533,-0.00038831316872420604,-0.0007705362925513451,0.00037779629820036237,-0.0001589838693688107,-8.218357175023281e-07,-0.0006138429368813186,0.09352988004684448,18.328699111938477,-0.8942596912384033,-18.099092483520508,-0.5642600655555725,-2.2753939628601074,0.23471395671367645,0
73,0.3597867488861084,-0.09352988004684448,-18.328699111938477,0.8942596912384033,18.099092483520508,0.5642600655555725,2.2753939628601074,-0.23471395671367645,0.0,0.0,0.0,0.0,0.0,0.0,0.0,-0.061978684457651305,0.3572099548134853,0.10074543954411112,0.43916109390335606,0.14957246200473076,0.09188669826019762,-0.2347293478511918,-0.6089774896345639,-0.057500398680829165,-0.6665231614815311,-2.5944073760049386,-0.055770287160226466,2.507901809109582,0.8763222419331447,-0.6090851748156966,-0.05753196718556838,-0.666603097082616,-2.5945565370258534,-0.05562143941554,2.507976027223799,0.8763108487046415,0.0008757534100463533,0.00038831316872420604,0.0007705362925513451,-0.00037779629820036237,0.0001589838693688107,8.218357175023281e-07,0.0006138429368813186,0.0,0.0,0.0,0.0,0.0,0.0,0.0,-0.00010768518113268843,-3.156850473921835e-05,-7.993560108487952e-05,-0.00014916102091477867,0.00014884774468646583,7.42181142170395e-05,-1.1393228503187025e-05,-0.0008757534100463533,-0.00038831316872420604,-0.0007705362925513451,0.00037779629820036237,-0.0001589838693688107,-8.218357175023281e-07,-0.0006138429368813186,0.09352988004684448,18.328699111938477,-0.8942596912384033,-18.099092483520508,-0.5642600655555725,-2.2753939628601074,0.23471395671367645,0
74,0.36476850509643555,-0.04592245817184448,-18.277124404907227,0.8942596912384033,18.071321487426758,0.5761619210243225,2.2689852714538574,-0.21457235515117645,0.0,0.0,0.0,0.0,0.0,0.0,0.0,-0.06309421224891254,0.3598994479607426,0.10255406942584289,0.4372920708524128,0.14917865412595857,0.09145055552845158,-0.23285091981731287,-0.6089808305062745,-0.05750401795851557,-0.6665231499254309,-2.5944055036925273,-0.05577149129974065,2.5079025211864048,0.8763200039780801,-0.6090851748156966,-0.05753196718556838,-0.666603097082616,-2.5945565370258534,-0.05562143941554,2.507976027223799,0.8763108487046415,-0.0006222000607552295,-0.0009189525237144643,0.00039670292398314685,9.473800866004756e-05,2.9119108064727743e-05,0.0004284084433938661,-0.0003654320446083107,0.0,0.0,0.0,0.0,0.0,0.0,0.0,-0.00010434430942207751,-2.7949227052813386e-05,-7.99471571850674e-05,-0.00015103333332611157,0.00015005188420064847,7.350603739419981e-05,-9.155273438588019e-06,0.0006222000607552295,0.0009189525237144643,-0.00039670292398314685,-9.473800866004756e-05,-2.9119108064727743e-05,-0.0004284084433938661,0.0003654320446083107,0.04592245817184448,18.277124404907227,-0.8942596912384033,-18.071321487426758,-0.5761619210243225,-2.2689852714538574,0.21457235515117645,0
75,0.36975979804992676,-0.04592245817184448,-18.277124404907227,0.8942596912384033,18.071321487426758,0.5761619210243225,2.2689852714538574,-0.21457235515117645,0.0,0.0,0.0,0.0,0.0,0.0,0.0,-0.06309421224891254,0.3598994479607426,0.10255406942584289,0.4372920708524128,0.14917865412595857,0.09145055552845158,-0.23285091981731287,-0.6089808305062745,-0.05750401795851557,-0.6665231499254309,-2.5944055036925273,-0.05577149129974065,2.5079025211864048,0.8763200039780801,-0.6090851748156966,-0.05753196718556838,-0.666603097082616,-2.5945565370258534,-0.05562143941554,2.507976027223799,0.8763108487046415,-0.0006222000607552295,-0.0009189525237144643,0.00039670292398314685,9.473800866004756e-05,2.9119108064727743e-05,0.0004284084433938661,-0.0003654320446083107,0.0,0.0,0.0,0.0,0.0,0.0,0.0,-0.00010434430942207751,-2.7949227052813386e-05,-7.99471571850674e-05,-0.00015103333332611157,0.00015005188420064847,7.350603739419981e-05,-9.155273438588019e-06,0.0006222000607552295,0.0009189525237144643,-0.00039670292398314685,-9.473800866004756e-05,-2.9119108064727743e-05,-0.0004284084433938661,0.0003654320446083107,0.04592245817184448,18.277124404907227,-0.8942596912384033,-18.071321487426758,-0.5761619210243225,-2.2689852714538574,0.21457235515117645,0
76,0.37476181983947754,-0.04592245817184448,-18.304895401000977,0.9180634021759033,18.023714065551758,0.5816550850868225,2.2753939628601074,-0.21457235515117645,0.0,0.0,0.0,0.0,0.0,0.0,0.0,-0.06698300796953088,0.3580022789336434,0.09962149661146863,0.4382547636409689,0.14935183265164,0.09232974885052712,-0.2322593787247269,-0.6089808301792258,-0.05750206911668443,-0.6665269267129954,-2.5944020947950976,-0.055772101650635404,2.507901809109582,0.8763189443399507,-0.6090851748156966,-0.05753196718556838,-0.666603097082616,-2.5945565370258534,-0.05562143941554,2.507976027223799,0.8763108487046415,-0.000880596600261174,-0.00018942294158051626,-0.00039031841123049395,0.0012117535088893058,-0.00035312485356891744,-4.836840908352358e-05,-0.0014306636537636818,0.0,0.0,0.0,0.0,0.0,0.0,0.0,-0.00010434463647079895,-2.989806888395452e-05,-7.617036962059842e-05,-0.00015444223075578023,0.00015066223509540427,7.42181142170395e-05,-8.095635309235405e-06,0.000880596600261174,0.00018942294158051626,0.00039031841123049395,-0.0012117535088893058,0.00035312485356891744,4.836840908352358e-05,0.0014306636537636818,0.04592245817184448,18.304895401000977,-0.9180634021759033,-18.023714065551758,-0.5816550850868225,-2.2753939628601074,0.21457235515117645,0
77,0.37976884841918945,-0.04592245817184448,-18.304895401000977,0.9180634021759033,18.023714065551758,0.5816550850868225,2.2753939628601074,-0.21457235515117645,0.0,0.0,0.0,0.0,0.0,0.0,0.0,-0.06698300796953088,0.3580022789336434,0.09962149661146863,0.4382547636409689,0.14935183265164,0.09232974885052712,-0.2322593787247269,-0.6089808301792258,-0.05750206911668443,-0.6665269267129954,-2.5944020947950976,-0.055772101650635404,2.507901809109582,0.8763189443399507,-0.6090851748156966,-0.05753196718556838,-0.666603097082616,-2.5945565370258534,-0.05562143941554,2.507976027223799,0.8763108487046415,-0.000880596600261174,-0.00018942294158051626,-0.00039031841123049395,0.0012117535088893058,-0.00035312485356891744,-4.836840908352358e-05,-0.0014306636537636818,0.0,0.0,0.0,0.0,0.0,0.0,0.0,-0.00010434463647079895,-2.989806888395452e-05,-7.617036962059842e-05,-0.00015444223075578023,0.00015066223509540427,7.42181142170395e-05,-8.095635309235405e-06,0.000880596600261174,0.00018942294158051626,0.00039031841123049395,-0.0012117535088893058,0.00035312485356891744,4.836840908352358e-05,0.0014306636537636818,0.04592245817184448,18.304895401000977,-0.9180634021759033,-18.023714065551758,-0.5816550850868225,-2.2753939628601074,0.21457235515117645,0
78,0.38475489616394043,-0.06972616910934448,-18.328699111938477,0.8942596912384033,18.071321487426758,0.5761619210243225,2.2753939628601074,-0.21457235515117645,0.0,0.0,0.0,0.0,0.0,0.0,0.0,-0.06646920340864994,0.35718773767319933,0.10007509158089001,0.43756241376504484,0.14904153825596667,0.09246028698748696,-0.23298417022629242,-0.6089791600704137,-0.057500398680829165,-0.6665231500680344,-2.5944054274781867,-0.055771491299072905,2.507901809109582,0.8763200039601351,-0.6090851748156966,-0.05753196718556838,-0.666603097082616,-2.5945565370258534,-0.05562143941554,2.507976027223799,0.8763108487046415,-0.00033456858570039637,0.00038874377195309643,0.00026870934826081055,-0.00021927291844912894,-0.00014863797428040672,-8.668739780936645e-05,-0.000712458460145376,0.0,0.0,0.0,0.0,0.0,0.0,0.0,-0.00010601474528282306,-3.156850473921835e-05,-7.994701458158282e-05,-0.0001511095476667279,0.00015005188353290483,7.42181142170395e-05,-9.155255493609182e-06,0.00033456858570039637,-0.00038874377195309643,-0.00026870934826081055,0.00021927291844912894,0.00014863797428040672,8.668739780936645e-05,0.000712458460145376,0.06972616910934448,18.328699111938477,-0.8942596912384033,-18.071321487426758,-0.5761619210243225,-2.2753939628601074,0.21457235515117645,0
79,0.38976526260375977,-0.06972616910934448,-18.328699111938477,0.8942596912384033,18.071321487426758,0.5761619210243225,2.2753939628601074,-0.21457235515117645,0.0,0.0,0.0,0.0,0.0,0.0,0.0,-0.06646920340864994,0.35718773767319933,0.10007509158089001,0.43756241376504484,0.14904153825596667,0.09246028698748696,-0.23298417022629242,-0.6089791600704137,-0.057500398680829165,-0.6665231500680344,-2.5944054274781867,-0.055771491299072905,2.507901809109582,0.8763200039601351,-0.6090851748156966,-0.05753196718556838,-0.666603097082616,-2.5945565370258534,-0.05562143941554,2.507976027223799,0.8763108487046415,-0.00033456858570039637,0.00038874377195309643,0.00026870934826081055,-0.00021927291844912894,-0.00014863797428040672,-8.668739780936645e-05,-0.000712458460145376,0.0,0.0,0.0,0.0,0.0,0.0,0.0,-0.00010601474528282306,-3.156850473921835e-05,-7.994701458158282e-05,-0.0001511095476667279,0.00015005188353290483,7.42181142170395e-05,-9.155255493609182e-06,0.00033456858570039637,-0.00038874377195309643,-0.00026870934826081055,0.00021927291844912894,0.00014863797428040672,8.668739780936645e-05,0.000712458460145376,0.06972616910934448,18.328699111938477,-0.8942596912384033,-18.071321487426758,-0.5761619210243225,-2.2753939628601074,0.21457235515117645,0
