rezayati/contactInterpretation/dataset/franka_main/labeled_data/link6/b14_4.csv
index,time,tau_J0,tau_J1,tau_J2,tau_J3,tau_J4,tau_J5,tau_J6,tau_J_d0,tau_J_d1,tau_J_d2,tau_J_d3,tau_J_d4,tau_J_d5,tau_J_d6,tau_ext0,tau_ext1,tau_ext2,tau_ext3,tau_ext4,tau_ext5,tau_ext6,q0,q1,q2,q3,q4,q5,q6,q_d0,q_d1,q_d2,q_d3,q_d4,q_d5,q_d6,dq0,dq1,dq2,dq3,dq4,dq5,dq6,dq_d0,dq_d1,dq_d2,dq_d3,dq_d4,dq_d5,dq_d6,e0,e1,e2,e3,e4,e5,e6,de0,de1,de2,de3,de4,de5,de6,etau_J0,etau_J1,etau_J2,etau_J3,etau_J4,etau_J5,etau_J6,label
1,0.0,-0.4267818331718445,-19.868005752563477,-0.4466826617717743,20.082735061645508,0.7134910225868225,2.4758944511413574,-0.29605430364608765,0.0,0.0,0.0,0.0,0.0,0.0,0.0,-0.4161046338019833,-0.11486023273342545,-0.2390609599053959,0.2876180220231278,0.11687283408428964,0.09306406732637512,-0.2743057912250804,1.2136740965215784,-0.22007424732467584,-0.007411657204901956,-2.6036896921030404,-0.10899670680547875,2.4681303857697383,0.8264841964953322,1.2134413937687574,-0.2202432315892585,-0.0075118285948192216,-2.6038483821997875,-0.10888392708698907,2.4681821257803174,0.826474908251239,0.00042990121618509283,0.00019911568671140037,0.0005609711266110348,-0.0004780190324194089,-0.00033560684832117515,0.009190509863892306,0.0009448538470501939,0.0,0.0,0.0,0.0,0.0,0.0,0.0,-0.0002327027528210568,-0.00016898426458264448,-0.0001001713899172656,-0.0001586900967471827,0.00011277971848967783,5.174001057905997e-05,-9.288244093186293e-06,-0.00042990121618509283,-0.00019911568671140037,-0.0005609711266110348,0.0004780190324194089,0.00033560684832117515,-0.009190509863892306,-0.0009448538470501939,0.4267818331718445,19.868005752563477,0.4466826617717743,-20.082735061645508,-0.7134910225868225,-2.4758944511413574,0.29605430364608765,0
2,0.004995584487915039,-0.4267818331718445,-19.891809463500977,-0.4228789508342743,20.106538772583008,0.7015891671180725,2.4694857597351074,-0.27591270208358765,0.0,0.0,0.0,0.0,0.0,0.0,0.0,-0.41216124201862514,-0.11781519811756515,-0.23505123477140638,0.28498135972250643,0.11783959202334249,0.0919112243155306,-0.274154516734601,1.2136740965215784,-0.2200725768888206,-0.007413327640608737,-2.6036913606842695,-0.10899538439512242,2.4681310976769804,0.8264819585416051,1.2134413937687574,-0.2202432315892585,-0.0075118285948192216,-2.6038483821997875,-0.10888392708698907,2.4681821257803174,0.826474908251239,0.0005310602183030698,0.00010181631819296292,0.0002213967633919966,-0.0012802607349735645,-7.4126946967495865e-06,0.00016065433400211225,-0.00010475052529727355,0.0,0.0,0.0,0.0,0.0,0.0,0.0,-0.0002327027528210568,-0.00017065470043789444,-9.850095421048456e-05,-0.0001570215155179966,0.00011145730813334753,5.102810333701413e-05,-7.050290366072964e-06,-0.0005310602183030698,-0.00010181631819296292,-0.0002213967633919966,0.0012802607349735645,7.4126946967495865e-06,-0.00016065433400211225,0.00010475052529727355,0.4267818331718445,19.891809463500977,0.4228789508342743,-20.106538772583008,-0.7015891671180725,-2.4694857597351074,0.27591270208358765,0
3,0.009996414184570312,-0.4267818331718445,-19.891809463500977,-0.4228789508342743,20.106538772583008,0.7015891671180725,2.4694857597351074,-0.27591270208358765,0.0,0.0,0.0,0.0,0.0,0.0,0.0,-0.41216124201862514,-0.11781519811756515,-0.23505123477140638,0.28498135972250643,0.11783959202334249,0.0919112243155306,-0.274154516734601,1.2136740965215784,-0.2200725768888206,-0.007413327640608737,-2.6036913606842695,-0.10899538439512242,2.4681310976769804,0.8264819585416051,1.2134413937687574,-0.2202432315892585,-0.0075118285948192216,-2.6038483821997875,-0.10888392708698907,2.4681821257803174,0.826474908251239,0.0005310602183030698,0.00010181631819296292,0.0002213967633919966,-0.0012802607349735645,-7.4126946967495865e-06,0.00016065433400211225,-0.00010475052529727355,0.0,0.0,0.0,0.0,0.0,0.0,0.0,-0.0002327027528210568,-0.00017065470043789444,-9.850095421048456e-05,-0.0001570215155179966,0.00011145730813334753,5.102810333701413e-05,-7.050290366072964e-06,-0.0005310602183030698,-0.00010181631819296292,-0.0002213967633919966,0.0012802607349735645,7.4126946967495865e-06,-0.00016065433400211225,0.00010475052529727355,0.4267818331718445,19.891809463500977,0.4228789508342743,-20.106538772583008,-0.7015891671180725,-2.4694857597351074,0.27591270208358765,0
4,0.014995574951171875,-0.4029781222343445,-19.891809463500977,-0.4228789508342743,20.082735061645508,0.6896873116493225,2.4630770683288574,-0.24844686686992645,0.0,0.0,0.0,0.0,0.0,0.0,0.0,-0.41007686091359474,-0.11644717298260372,-0.232039566628486,0.2874781755180691,0.11793271819019913,0.09299156647910112,-0.27345210892654853,1.213672426085723,-0.2200725768888206,-0.007413336408327296,-2.6036895882090483,-0.1089940619667371,2.4681318099233756,0.8264788937001847,1.2134413937687574,-0.2202432315892585,-0.0075118285948192216,-2.6038483821997875,-0.10888392708698907,2.4681821257803174,0.826474908251239,0.0003048652439870025,0.0006217527571538654,0.00022972287582666138,-0.000643990829894034,0.0003966302720940794,0.00019190682014636617,-0.0010194455063445372,0.0,0.0,0.0,0.0,0.0,0.0,0.0,-0.0002310323169656403,-0.00017065470043789444,-9.849218649192557e-05,-0.00015879399073925882,0.00011013487974802227,5.031585694181828e-05,-3.985448945642567e-06,-0.0003048652439870025,-0.0006217527571538654,-0.00022972287582666138,0.000643990829894034,-0.0003966302720940794,-0.00019190682014636617,0.0010194455063445372,0.4029781222343445,19.891809463500977,0.4228789508342743,-20.082735061645508,-0.6896873116493225,-2.4630770683288574,0.24844686686992645,0
5,0.019997358322143555,-0.4029781222343445,-19.891809463500977,-0.4228789508342743,20.082735061645508,0.6896873116493225,2.4630770683288574,-0.24844686686992645,0.0,0.0,0.0,0.0,0.0,0.0,0.0,-0.41007686091359474,-0.11644717298260372,-0.232039566628486,0.2874781755180691,0.11793271819019913,0.09299156647910112,-0.27345210892654853,1.213672426085723,-0.2200725768888206,-0.007413336408327296,-2.6036895882090483,-0.1089940619667371,2.4681318099233756,0.8264788937001847,1.2134413937687574,-0.2202432315892585,-0.0075118285948192216,-2.6038483821997875,-0.10888392708698907,2.4681821257803174,0.826474908251239,0.0003048652439870025,0.0006217527571538654,0.00022972287582666138,-0.000643990829894034,0.0003966302720940794,0.00019190682014636617,-0.0010194455063445372,0.0,0.0,0.0,0.0,0.0,0.0,0.0,-0.0002310323169656403,-0.00017065470043789444,-9.849218649192557e-05,-0.00015879399073925882,0.00011013487974802227,5.031585694181828e-05,-3.985448945642567e-06,-0.0003048652439870025,-0.0006217527571538654,-0.00022972287582666138,0.000643990829894034,-0.0003966302720940794,-0.00019190682014636617,0.0010194455063445372,0.4029781222343445,19.891809463500977,0.4228789508342743,-20.082735061645508,-0.6896873116493225,-2.4630770683288574,0.24844686686992645,0
6,0.025012731552124023,-0.3752071261405945,-19.844202041625977,-0.3713042438030243,20.082735061645508,0.6896873116493225,2.4630770683288574,-0.23471395671367645,0.0,0.0,0.0,0.0,0.0,0.0,0.0,-0.40318912506692506,-0.12059909409440529,-0.2250303361699092,0.29021538676568404,0.11799062056187136,0.09317428687422888,-0.2731607935982127,1.213670477243892,-0.22007591776053112,-0.0074190774739105025,-2.603689616506699,-0.1089940619667371,2.468131809923384,0.8264773794496721,1.2134413937687574,-0.2202432315892585,-0.0075118285948192216,-2.6038483821997875,-0.10888392708698907,2.4681821257803174,0.826474908251239,-0.00015599650307196312,-0.0003163441388737877,-0.0006340025286794581,-0.0006368872579124485,0.0005431055755254575,-0.0001754645544182046,-0.001788629024636888,0.0,0.0,0.0,0.0,0.0,0.0,0.0,-0.00022908347513461713,-0.00016731382872736678,-9.275112090871909e-05,-0.00015876569308836963,0.00011013487974802227,5.031585693338059e-05,-2.471198433107169e-06,0.00015599650307196312,0.0003163441388737877,0.0006340025286794581,0.0006368872579124485,-0.0005431055755254575,0.0001754645544182046,0.001788629024636888,0.3752071261405945,19.844202041625977,0.3713042438030243,-20.082735061645508,-0.6896873116493225,-2.4630770683288574,0.23471395671367645,0
7,0.030028820037841797,-0.3752071261405945,-19.844202041625977,-0.3713042438030243,20.082735061645508,0.6896873116493225,2.4630770683288574,-0.23471395671367645,0.0,0.0,0.0,0.0,0.0,0.0,0.0,-0.40318912506692506,-0.12059909409440529,-0.2250303361699092,0.29021538676568404,0.11799062056187136,0.09317428687422888,-0.2731607935982127,1.213670477243892,-0.22007591776053112,-0.0074190774739105025,-2.603689616506699,-0.1089940619667371,2.468131809923384,0.8264773794496721,1.2134413937687574,-0.2202432315892585,-0.0075118285948192216,-2.6038483821997875,-0.10888392708698907,2.4681821257803174,0.826474908251239,-0.00015599650307196312,-0.0003163441388737877,-0.0006340025286794581,-0.0006368872579124485,0.0005431055755254575,-0.0001754645544182046,-0.001788629024636888,0.0,0.0,0.0,0.0,0.0,0.0,0.0,-0.00022908347513461713,-0.00016731382872736678,-9.275112090871909e-05,-0.00015876569308836963,0.00011013487974802227,5.031585693338059e-05,-2.471198433107169e-06,0.00015599650307196312,0.0003163441388737877,0.0006340025286794581,0.0006368872579124485,-0.0005431055755254575,0.0001754645544182046,0.001788629024636888,0.3752071261405945,19.844202041625977,0.3713042438030243,-20.082735061645508,-0.6896873116493225,-2.4630770683288574,0.23471395671367645,0
8,0.035025596618652344,-0.3752071261405945,-19.891809463500977,-0.4228789508342743,20.031160354614258,0.7070823311805725,2.4630770683288574,-0.24844686686992645,0.0,0.0,0.0,0.0,0.0,0.0,0.0,-0.4014466411508958,-0.12169074045417502,-0.22381503982773981,0.2914364525315687,0.11771361269063796,0.09212950035671705,-0.2728666071532637,1.213670477243892,-0.2200725768888206,-0.007413327652635786,-2.603685741862299,-0.10899599474668502,2.468131809923384,0.8264789066206231,1.2134413937687574,-0.2202432315892585,-0.0075118285948192216,-2.6038483821997875,-0.10888392708698907,2.4681821257803174,0.826474908251239,-0.00012475051980086703,0.0007745536614605066,0.00036136681936528527,0.0009248781974446371,-0.0002962111966866437,0.00016883640041919577,-0.0011782577923337943,0.0,0.0,0.0,0.0,0.0,0.0,0.0,-0.00022908347513461713,-0.00017065470043789444,-9.850094218343593e-05,-0.00016264033748836226,0.00011206765969594412,5.031585693338059e-05,-3.998369384028422e-06,0.00012475051980086703,-0.0007745536614605066,-0.00036136681936528527,-0.0009248781974446371,0.0002962111966866437,-0.00016883640041919577,0.0011782577923337943,0.3752071261405945,19.891809463500977,0.4228789508342743,-20.031160354614258,-0.7070823311805725,-2.4630770683288574,0.24844686686992645,0
9,0.04002094268798828,-0.3752071261405945,-19.891809463500977,-0.4228789508342743,20.031160354614258,0.7070823311805725,2.4630770683288574,-0.24844686686992645,0.0,0.0,0.0,0.0,0.0,0.0,0.0,-0.4014466411508958,-0.12169074045417502,-0.22381503982773981,0.2914364525315687,0.11771361269063796,0.09212950035671705,-0.2728666071532637,1.213670477243892,-0.2200725768888206,-0.007413327652635786,-2.603685741862299,-0.10899599474668502,2.468131809923384,0.8264789066206231,1.2134413937687574,-0.2202432315892585,-0.0075118285948192216,-2.6038483821997875,-0.10888392708698907,2.4681821257803174,0.826474908251239,-0.00012475051980086703,0.0007745536614605066,0.00036136681936528527,0.0009248781974446371,-0.0002962111966866437,0.00016883640041919577,-0.0011782577923337943,0.0,0.0,0.0,0.0,0.0,0.0,0.0,-0.00022908347513461713,-0.00017065470043789444,-9.850094218343593e-05,-0.00016264033748836226,0.00011206765969594412,5.031585693338059e-05,-3.998369384028422e-06,0.00012475051980086703,-0.0007745536614605066,-0.00036136681936528527,-0.0009248781974446371,0.0002962111966866437,-0.00016883640041919577,0.0011782577923337943,0.3752071261405945,19.891809463500977,0.4228789508342743,-20.031160354614258,-0.7070823311805725,-2.4630770683288574,0.24844686686992645,0
10,0.04500865936279297,-0.4267818331718445,-19.844202041625977,-0.4466826617717743,20.031160354614258,0.7015891671180725,2.4694857597351074,-0.26858848333358765,0.0,0.0,0.0,0.0,0.0,0.0,0.0,-0.4025465075256085,-0.12004624649820202,-0.22605507060760416,0.2890042472109888,0.11795701322799108,0.0917712531867242,-0.27339732539469924,1.2136740965215784,-0.22007591776053112,-0.007411683507909219,-2.603685971764055,-0.10899538439512252,2.468131097846561,0.8264811447395208,1.2134413937687574,-0.2202432315892585,-0.0075118285948192216,-2.6038483821997875,-0.10888392708698907,2.4681821257803174,0.826474908251239,0.00034266488377286073,-0.00037403098196888486,0.0006429146007215511,0.0006330783377833145,1.528200620117238e-05,-7.063076550422473e-05,-0.0004249140916567014,0.0,0.0,0.0,0.0,0.0,0.0,0.0,-0.0002327027528210568,-0.00016731382872736678,-0.0001001450869100029,-0.00016241043573250735,0.00011145730813344468,5.102793375622028e-05,-6.2364882817966816e-06,-0.00034266488377286073,0.00037403098196888486,-0.0006429146007215511,-0.0006330783377833145,-1.528200620117238e-05,7.063076550422473e-05,0.0004249140916567014,0.4267818331718445,19.844202041625977,0.4466826617717743,-20.031160354614258,-0.7015891671180725,-2.4694857597351074,0.26858848333358765,0
11,0.04999232292175293,-0.4267818331718445,-19.844202041625977,-0.4466826617717743,20.031160354614258,0.7015891671180725,2.4694857597351074,-0.26858848333358765,0.0,0.0,0.0,0.0,0.0,0.0,0.0,-0.4025465075256085,-0.12004624649820202,-0.22605507060760416,0.2890042472109888,0.11795701322799108,0.0917712531867242,-0.27339732539469924,1.2136740965215784,-0.22007591776053112,-0.007411683507909219,-2.603685971764055,-0.10899538439512252,2.468131097846561,0.8264811447395208,1.2134413937687574,-0.2202432315892585,-0.0075118285948192216,-2.6038483821997875,-0.10888392708698907,2.4681821257803174,0.826474908251239,0.00034266488377286073,-0.00037403098196888486,0.0006429146007215511,0.0006330783377833145,1.528200620117238e-05,-7.063076550422473e-05,-0.0004249140916567014,0.0,0.0,0.0,0.0,0.0,0.0,0.0,-0.0002327027528210568,-0.00016731382872736678,-0.0001001450869100029,-0.00016241043573250735,0.00011145730813344468,5.102793375622028e-05,-6.2364882817966816e-06,-0.00034266488377286073,0.00037403098196888486,-0.0006429146007215511,-0.0006330783377833145,-1.528200620117238e-05,7.063076550422473e-05,0.0004249140916567014,0.4267818331718445,19.844202041625977,0.4466826617717743,-20.031160354614258,-0.7015891671180725,-2.4694857597351074,0.26858848333358765,0
12,0.05504870414733887,-0.4505855441093445,-19.844202041625977,-0.4228789508342743,20.082735061645508,0.7015891671180725,2.4630770683288574,-0.26858848333358765,0.0,0.0,0.0,0.0,0.0,0.0,0.0,-0.4014719219240476,-0.12181885358703508,-0.22487175175801635,0.2901426485331302,0.11791128657797864,0.09283033657091024,-0.2737370216672381,1.2136757669574336,-0.22007599649753098,-0.007415458196664045,-2.6036896902466915,-0.10899534496530093,2.468131809923384,0.8264811316575695,1.2134413937687574,-0.2202432315892585,-0.0075118285948192216,-2.6038483821997875,-0.10888392708698907,2.4681821257803174,0.826474908251239,0.0011401747572326727,-0.0005222226253253869,-0.000642439422324868,-0.0004966813057415855,7.119309719427934e-05,9.439167800838508e-05,-0.00015087679365983732,0.0,0.0,0.0,0.0,0.0,0.0,0.0,-0.00023437318867625123,-0.00016723509172750228,-9.63703981551765e-05,-0.00015869195309603512,0.00011141787831185634,5.031585693338059e-05,-6.2234063304966725e-06,-0.0011401747572326727,0.0005222226253253869,0.000642439422324868,0.0004966813057415855,-7.119309719427934e-05,-9.439167800838508e-05,0.00015087679365983732,0.4505855441093445,19.844202041625977,0.4228789508342743,-20.082735061645508,-0.7015891671180725,-2.4630770683288574,0.26858848333358765,0
13,0.060015201568603516,-0.4505855441093445,-19.844202041625977,-0.4228789508342743,20.082735061645508,0.7015891671180725,2.4630770683288574,-0.26858848333358765,0.0,0.0,0.0,0.0,0.0,0.0,0.0,-0.4014719219240476,-0.12181885358703508,-0.22487175175801635,0.2901426485331302,0.11791128657797864,0.09283033657091024,-0.2737370216672381,1.2136757669574336,-0.22007599649753098,-0.007415458196664045,-2.6036896902466915,-0.10899534496530093,2.468131809923384,0.8264811316575695,1.2134413937687574,-0.2202432315892585,-0.0075118285948192216,-2.6038483821997875,-0.10888392708698907,2.4681821257803174,0.826474908251239,0.0011401747572326727,-0.0005222226253253869,-0.000642439422324868,-0.0004966813057415855,7.119309719427934e-05,9.439167800838508e-05,-0.00015087679365983732,0.0,0.0,0.0,0.0,0.0,0.0,0.0,-0.00023437318867625123,-0.00016723509172750228,-9.63703981551765e-05,-0.00015869195309603512,0.00011141787831185634,5.031585693338059e-05,-6.2234063304966725e-06,-0.0011401747572326727,0.0005222226253253869,0.000642439422324868,0.0004966813057415855,-7.119309719427934e-05,-9.439167800838508e-05,0.00015087679365983732,0.4505855441093445,19.844202041625977,0.4228789508342743,-20.082735061645508,-0.7015891671180725,-2.4630770683288574,0.26858848333358765,0
14,0.06499552726745605,-0.4505855441093445,-19.891809463500977,-0.4228789508342743,20.082735061645508,0.7015891671180725,2.4694857597351074,-0.28232139348983765,0.0,0.0,0.0,0.0,0.0,0.0,0.0,-0.4049767532586788,-0.12248257517829098,-0.23059871655876454,0.2876986635163731,0.11784298982746959,0.09334446223802978,-0.2746948648647975,1.2136757669574336,-0.22007257688896872,-0.007413336412336313,-2.60368969303618,-0.10899538439504833,2.468131097846561,0.8264784320658862,1.2134413937687574,-0.2202432315892585,-0.0075118285948192216,-2.6038483821997875,-0.10888392708698907,2.4681821257803174,0.826474908251239,0.00041319123384896475,0.0001621382188790454,-0.0008854145078585997,-0.0007873452961804815,0.00010437512203762088,-0.00011101731638845437,0.00042201112442873817,0.0,0.0,0.0,0.0,0.0,0.0,0.0,-0.00023437318867625123,-0.00017065470028976293,-9.84921824829085e-05,-0.00015868916360739505,0.00011145730805925402,5.102793375622028e-05,-3.523814647188317e-06,-0.00041319123384896475,-0.0001621382188790454,0.0008854145078585997,0.0007873452961804815,-0.00010437512203762088,0.00011101731638845437,-0.00042201112442873817,0.4505855441093445,19.891809463500977,0.4228789508342743,-20.082735061645508,-0.7015891671180725,-2.4694857597351074,0.28232139348983765,0
15,0.07002043724060059,-0.4505855441093445,-19.891809463500977,-0.4228789508342743,20.082735061645508,0.7015891671180725,2.4694857597351074,-0.28232139348983765,0.0,0.0,0.0,0.0,0.0,0.0,0.0,-0.4049767532586788,-0.12248257517829098,-0.23059871655876454,0.2876986635163731,0.11784298982746959,0.09334446223802978,-0.2746948648647975,1.2136757669574336,-0.22007257688896872,-0.007413336412336313,-2.60368969303618,-0.10899538439504833,2.468131097846561,0.8264784320658862,1.2134413937687574,-0.2202432315892585,-0.0075118285948192216,-2.6038483821997875,-0.10888392708698907,2.4681821257803174,0.826474908251239,0.00041319123384896475,0.0001621382188790454,-0.0008854145078585997,-0.0007873452961804815,0.00010437512203762088,-0.00011101731638845437,0.00042201112442873817,0.0,0.0,0.0,0.0,0.0,0.0,0.0,-0.00023437318867625123,-0.00017065470028976293,-9.84921824829085e-05,-0.00015868916360739505,0.00011145730805925402,5.102793375622028e-05,-3.523814647188317e-06,-0.00041319123384896475,-0.0001621382188790454,0.0008854145078585997,0.0007873452961804815,-0.00010437512203762088,0.00011101731638845437,-0.00042201112442873817,0.4505855441093445,19.891809463500977,0.4228789508342743,-20.082735061645508,-0.7015891671180725,-2.4694857597351074,0.28232139348983765,0
16,0.07495665550231934,-0.4267818331718445,-19.844202041625977,-0.4466826617717743,20.054964065551758,0.7015891671180725,2.4694857597351074,-0.30337852239608765,0.0,0.0,0.0,0.0,0.0,0.0,0.0,-0.41040465359663486,-0.11881566067559005,-0.23357481527182308,0.2869657325196741,0.11784839678199724,0.0940793240724592,-0.27483507505183546,1.2136740965215784,-0.22007591873259283,-0.007411736114270023,-2.6036870469729583,-0.10899538439512252,2.468131097846561,0.8264850059148401,1.2134413937687574,-0.2202432315892585,-0.0075118285948192216,-2.6038483821997875,-0.10888392708698907,2.4681821257803174,0.826474908251239,0.0003228864684370908,-0.000417585051270452,-0.00029753915420668885,0.0004502209044534676,-9.216794933088926e-05,-0.00014663964642328014,0.0012709237819157175,0.0,0.0,0.0,0.0,0.0,0.0,0.0,-0.0002327027528210568,-0.00016731285666565787,-0.00010009248054919893,-0.00016133522682926227,0.00011145730813344468,5.102793375622028e-05,-1.0097663601049689e-05,-0.0003228864684370908,0.000417585051270452,0.00029753915420668885,-0.0004502209044534676,9.216794933088926e-05,0.00014663964642328014,-0.0012709237819157175,0.4267818331718445,19.844202041625977,0.4466826617717743,-20.054964065551758,-0.7015891671180725,-2.4694857597351074,0.30337852239608765,0
17,0.07999324798583984,-0.4267818331718445,-19.844202041625977,-0.4466826617717743,20.054964065551758,0.7015891671180725,2.4694857597351074,-0.30337852239608765,0.0,0.0,0.0,0.0,0.0,0.0,0.0,-0.41040465359663486,-0.11881566067559005,-0.23357481527182308,0.2869657325196741,0.11784839678199724,0.0940793240724592,-0.27483507505183546,1.2136740965215784,-0.22007591873259283,-0.007411736114270023,-2.6036870469729583,-0.10899538439512252,2.468131097846561,0.8264850059148401,1.2134413937687574,-0.2202432315892585,-0.0075118285948192216,-2.6038483821997875,-0.10888392708698907,2.4681821257803174,0.826474908251239,0.0003228864684370908,-0.000417585051270452,-0.00029753915420668885,0.0004502209044534676,-9.216794933088926e-05,-0.00014663964642328014,0.0012709237819157175,0.0,0.0,0.0,0.0,0.0,0.0,0.0,-0.0002327027528210568,-0.00016731285666565787,-0.00010009248054919893,-0.00016133522682926227,0.00011145730813344468,5.102793375622028e-05,-1.0097663601049689e-05,-0.0003228864684370908,0.000417585051270452,0.00029753915420668885,-0.0004502209044534676,9.216794933088926e-05,0.00014663964642328014,-0.0012709237819157175,0.4267818331718445,19.844202041625977,0.4466826617717743,-20.054964065551758,-0.7015891671180725,-2.4694857597351074,0.30337852239608765,0
18,0.084991455078125,-0.4267818331718445,-19.844202041625977,-0.4466826617717743,20.054964065551758,0.7015891671180725,2.4694857597351074,-0.30337852239608765,0.0,0.0,0.0,0.0,0.0,0.0,0.0,-0.41040465359663486,-0.11881566067559005,-0.23357481527182308,0.2869657325196741,0.11784839678199724,0.0940793240724592,-0.27483507505183546,1.2136740965215784,-0.22007591873259283,-0.007411736114270023,-2.6036870469729583,-0.10899538439512252,2.468131097846561,0.8264850059148401,1.2134413937687574,-0.2202432315892585,-0.0075118285948192216,-2.6038483821997875,-0.10888392708698907,2.4681821257803174,0.826474908251239,0.0003228864684370908,-0.000417585051270452,-0.00029753915420668885,0.0004502209044534676,-9.216794933088926e-05,-0.00014663964642328014,0.0012709237819157175,0.0,0.0,0.0,0.0,0.0,0.0,0.0,-0.0002327027528210568,-0.00016731285666565787,-0.00010009248054919893,-0.00016133522682926227,0.00011145730813344468,5.102793375622028e-05,-1.0097663601049689e-05,-0.0003228864684370908,0.000417585051270452,0.00029753915420668885,-0.0004502209044534676,9.216794933088926e-05,0.00014663964642328014,-0.0012709237819157175,0.4267818331718445,19.844202041625977,0.4466826617717743,-20.054964065551758,-0.7015891671180725,-2.4694857597351074,0.30337852239608765,0
19,0.09000444412231445,-0.4267818331718445,-19.844202041625977,-0.4466826617717743,20.054964065551758,0.7015891671180725,2.4694857597351074,-0.30337852239608765,0.0,0.0,0.0,0.0,0.0,0.0,0.0,-0.41040465359663486,-0.11881566067559005,-0.23357481527182308,0.2869657325196741,0.11784839678199724,0.0940793240724592,-0.27483507505183546,1.2136740965215784,-0.22007591873259283,-0.007411736114270023,-2.6036870469729583,-0.10899538439512252,2.468131097846561,0.8264850059148401,1.2134413937687574,-0.2202432315892585,-0.0075118285948192216,-2.6038483821997875,-0.10888392708698907,2.4681821257803174,0.826474908251239,0.0003228864684370908,-0.000417585051270452,-0.00029753915420668885,0.0004502209044534676,-9.216794933088926e-05,-0.00014663964642328014,0.0012709237819157175,0.0,0.0,0.0,0.0,0.0,0.0,0.0,-0.0002327027528210568,-0.00016731285666565787,-0.00010009248054919893,-0.00016133522682926227,0.00011145730813344468,5.102793375622028e-05,-1.0097663601049689e-05,-0.0003228864684370908,0.000417585051270452,0.00029753915420668885,-0.0004502209044534676,9.216794933088926e-05,0.00014663964642328014,-0.0012709237819157175,0.4267818331718445,19.844202041625977,0.4466826617717743,-20.054964065551758,-0.7015891671180725,-2.4694857597351074,0.30337852239608765,0
20,0.09502744674682617,-0.3752071261405945,-19.844202041625977,-0.4228789508342743,20.082735061645508,0.6951804757118225,2.4630770683288574,-0.28964561223983765,0.0,0.0,0.0,0.0,0.0,0.0,0.0,-0.40848751154931484,-0.1224348347747657,-0.23343132835392294,0.28841404296416073,0.11721337234189536,0.09475329347961796,-0.27385095301693985,1.213670477243892,-0.2200759177605366,-0.0074133276771353295,-2.6036896930789064,-0.1089946723182996,2.468131809923384,0.8264834839359698,1.2134413937687574,-0.2202432315892585,-0.0075118285948192216,-2.6038483821997875,-0.10888392708698907,2.4681821257803174,0.826474908251239,-0.0004791175221670051,-0.0003033330037720786,-0.0002215667349250208,-0.0002845212690061916,0.00012688017218856094,3.4437730053861076e-05,0.0007491879933568339,0.0,0.0,0.0,0.0,0.0,0.0,0.0,-0.00022908347513461713,-0.00016731382872189893,-9.850091768389205e-05,-0.00015868912088112808,0.00011074523131052172,5.031585693338059e-05,-8.57568473078274e-06,0.0004791175221670051,0.0003033330037720786,0.0002215667349250208,0.0002845212690061916,-0.00012688017218856094,-3.4437730053861076e-05,-0.0007491879933568339,0.3752071261405945,19.844202041625977,0.4228789508342743,-20.082735061645508,-0.6951804757118225,-2.4630770683288574,0.28964561223983765,0
21,0.10004925727844238,-0.3752071261405945,-19.844202041625977,-0.4228789508342743,20.082735061645508,0.6951804757118225,2.4630770683288574,-0.28964561223983765,0.0,0.0,0.0,0.0,0.0,0.0,0.0,-0.40848751154931484,-0.1224348347747657,-0.23343132835392294,0.28841404296416073,0.11721337234189536,0.09475329347961796,-0.27385095301693985,1.213670477243892,-0.2200759177605366,-0.0074133276771353295,-2.6036896930789064,-0.1089946723182996,2.468131809923384,0.8264834839359698,1.2134413937687574,-0.2202432315892585,-0.0075118285948192216,-2.6038483821997875,-0.10888392708698907,2.4681821257803174,0.826474908251239,-0.0004791175221670051,-0.0003033330037720786,-0.0002215667349250208,-0.0002845212690061916,0.00012688017218856094,3.4437730053861076e-05,0.0007491879933568339,0.0,0.0,0.0,0.0,0.0,0.0,0.0,-0.00022908347513461713,-0.00016731382872189893,-9.850091768389205e-05,-0.00015868912088112808,0.00011074523131052172,5.031585693338059e-05,-8.57568473078274e-06,0.0004791175221670051,0.0003033330037720786,0.0002215667349250208,0.0002845212690061916,-0.00012688017218856094,-3.4437730053861076e-05,-0.0007491879933568339,0.3752071261405945,19.844202041625977,0.4228789508342743,-20.082735061645508,-0.6951804757118225,-2.4630770683288574,0.28964561223983765,0
22,0.10499286651611328,-0.3752071261405945,-19.844202041625977,-0.3713042438030243,20.054964065551758,0.7015891671180725,2.4694857597351074,-0.28232139348983765,0.0,0.0,0.0,0.0,0.0,0.0,0.0,-0.40559817506960094,-0.11881968444119397,-0.23285815903745918,0.28670883857168133,0.11686954907570603,0.09352469657015242,-0.2732667673947176,1.213670477243892,-0.220078047547775,-0.007416947351268965,-2.6036869780019996,-0.10899538439512252,2.468131097846561,0.8264826555445728,1.2134413937687574,-0.2202432315892585,-0.0075118285948192216,-2.6038483821997875,-0.10888392708698907,2.4681821257803174,0.826474908251239,-0.0005461103016589255,-0.0005839027000098797,-0.0003023472325142549,0.00011315068846191282,-6.767828130630725e-05,-0.00039928417113180883,0.0005377299917603128,0.0,0.0,0.0,0.0,0.0,0.0,0.0,-0.00022908347513461713,-0.00016518404148349597,-9.488124355025614e-05,-0.00016140419778798432,0.00011145730813344468,5.102793375622028e-05,-7.747293333748573e-06,0.0005461103016589255,0.0005839027000098797,0.0003023472325142549,-0.00011315068846191282,6.767828130630725e-05,0.00039928417113180883,-0.0005377299917603128,0.3752071261405945,19.844202041625977,0.3713042438030243,-20.054964065551758,-0.7015891671180725,-2.4694857597351074,0.28232139348983765,0
23,0.10996413230895996,-0.3752071261405945,-19.844202041625977,-0.3713042438030243,20.054964065551758,0.7015891671180725,2.4694857597351074,-0.28232139348983765,0.0,0.0,0.0,0.0,0.0,0.0,0.0,-0.40559817506960094,-0.11881968444119397,-0.23285815903745918,0.28670883857168133,0.11686954907570603,0.09352469657015242,-0.2732667673947176,1.213670477243892,-0.220078047547775,-0.007416947351268965,-2.6036869780019996,-0.10899538439512252,2.468131097846561,0.8264826555445728,1.2134413937687574,-0.2202432315892585,-0.0075118285948192216,-2.6038483821997875,-0.10888392708698907,2.4681821257803174,0.826474908251239,-0.0005461103016589255,-0.0005839027000098797,-0.0003023472325142549,0.00011315068846191282,-6.767828130630725e-05,-0.00039928417113180883,0.0005377299917603128,0.0,0.0,0.0,0.0,0.0,0.0,0.0,-0.00022908347513461713,-0.00016518404148349597,-9.488124355025614e-05,-0.00016140419778798432,0.00011145730813344468,5.102793375622028e-05,-7.747293333748573e-06,0.0005461103016589255,0.0005839027000098797,0.0003023472325142549,-0.00011315068846191282,6.767828130630725e-05,0.00039928417113180883,-0.0005377299917603128,0.3752071261405945,19.844202041625977,0.3713042438030243,-20.054964065551758,-0.7015891671180725,-2.4694857597351074,0.28232139348983765,0
24,0.11499190330505371,-0.4029781222343445,-19.868005752563477,-0.3713042438030243,20.082735061645508,0.7070823311805725,2.4630770683288574,-0.30337852239608765,0.0,0.0,0.0,0.0,0.0,0.0,0.0,-0.40938658629867236,-0.11442337259644861,-0.23397470330257672,0.2871208064147076,0.11750805638274128,0.09309221444134506,-0.27351563293741016,1.213672426085723,-0.22007424733669853,-0.007416947928569682,-2.6036896892992867,-0.10899599474668502,2.468131809923384,0.8264850102993325,1.2134413937687574,-0.2202432315892585,-0.0075118285948192216,-2.6038483821997875,-0.10888392708698907,2.4681821257803174,0.826474908251239,0.00020864492121673786,0.0004594612744807733,-0.00085011382810521,-0.00043950171734205334,-0.00024983006831785364,0.0001436784375042447,0.0012837279483237938,0.0,0.0,0.0,0.0,0.0,0.0,0.0,-0.0002310323169656403,-0.00016898425255995608,-9.488066624953936e-05,-0.00015869290050085638,0.00011206765969594412,5.031585693338059e-05,-1.0102048093485472e-05,-0.00020864492121673786,-0.0004594612744807733,0.00085011382810521,0.00043950171734205334,0.00024983006831785364,-0.0001436784375042447,-0.0012837279483237938,0.4029781222343445,19.868005752563477,0.3713042438030243,-20.082735061645508,-0.7070823311805725,-2.4630770683288574,0.30337852239608765,0
25,0.1199955940246582,-0.4029781222343445,-19.868005752563477,-0.3713042438030243,20.082735061645508,0.7070823311805725,2.4630770683288574,-0.30337852239608765,0.0,0.0,0.0,0.0,0.0,0.0,0.0,-0.40938658629867236,-0.11442337259644861,-0.23397470330257672,0.2871208064147076,0.11750805638274128,0.09309221444134506,-0.27351563293741016,1.213672426085723,-0.22007424733669853,-0.007416947928569682,-2.6036896892992867,-0.10899599474668502,2.468131809923384,0.8264850102993325,1.2134413937687574,-0.2202432315892585,-0.0075118285948192216,-2.6038483821997875,-0.10888392708698907,2.4681821257803174,0.826474908251239,0.00020864492121673786,0.0004594612744807733,-0.00085011382810521,-0.00043950171734205334,-0.00024983006831785364,0.0001436784375042447,0.0012837279483237938,0.0,0.0,0.0,0.0,0.0,0.0,0.0,-0.0002310323169656403,-0.00016898425255995608,-9.488066624953936e-05,-0.00015869290050085638,0.00011206765969594412,5.031585693338059e-05,-1.0102048093485472e-05,-0.00020864492121673786,-0.0004594612744807733,0.00085011382810521,0.00043950171734205334,0.00024983006831785364,-0.0001436784375042447,-0.0012837279483237938,0.4029781222343445,19.868005752563477,0.3713042438030243,-20.082735061645508,-0.7070823311805725,-2.4630770683288574,0.30337852239608765,0
26,0.12502455711364746,-0.4029781222343445,-19.868005752563477,-0.3990752398967743,20.082735061645508,0.7015891671180725,2.4566683769226074,-0.29605430364608765,0.0,0.0,0.0,0.0,0.0,0.0,0.0,-0.402652323395189,-0.11864464424619774,-0.22217606048739116,0.28795239338586615,0.11703803654344264,0.0940328430299413,-0.2734178615036241,1.213672426085723,-0.2200742473246759,-0.007415708586403308,-2.6036896817451294,-0.10899538439512252,2.468132522000207,0.8264841572514776,1.2134413937687574,-0.2202432315892585,-0.0075118285948192216,-2.6038483821997875,-0.10888392708698907,2.4681821257803174,0.826474908251239,-3.260646330925007e-05,2.773557076299576e-05,-6.908730515552002e-05,-0.0005745429278191911,-0.00023670128657695758,0.0003433310827228374,0.0007984697925551991,0.0,0.0,0.0,0.0,0.0,0.0,0.0,-0.0002310323169656403,-0.00016898426458258897,-9.612000841591369e-05,-0.00015870045465815608,0.00011145730813344468,4.9603780110540896e-05,-9.249000238575888e-06,3.260646330925007e-05,-2.773557076299576e-05,6.908730515552002e-05,0.0005745429278191911,0.00023670128657695758,-0.0003433310827228374,-0.0007984697925551991,0.4029781222343445,19.868005752563477,0.3990752398967743,-20.082735061645508,-0.7015891671180725,-2.4566683769226074,0.29605430364608765,0
27,0.1299912929534912,-0.4029781222343445,-19.868005752563477,-0.3990752398967743,20.082735061645508,0.7015891671180725,2.4566683769226074,-0.29605430364608765,0.0,0.0,0.0,0.0,0.0,0.0,0.0,-0.402652323395189,-0.11864464424619774,-0.22217606048739116,0.28795239338586615,0.11703803654344264,0.0940328430299413,-0.2734178615036241,1.213672426085723,-0.2200742473246759,-0.007415708586403308,-2.6036896817451294,-0.10899538439512252,2.468132522000207,0.8264841572514776,1.2134413937687574,-0.2202432315892585,-0.0075118285948192216,-2.6038483821997875,-0.10888392708698907,2.4681821257803174,0.826474908251239,-3.260646330925007e-05,2.773557076299576e-05,-6.908730515552002e-05,-0.0005745429278191911,-0.00023670128657695758,0.0003433310827228374,0.0007984697925551991,0.0,0.0,0.0,0.0,0.0,0.0,0.0,-0.0002310323169656403,-0.00016898426458258897,-9.612000841591369e-05,-0.00015870045465815608,0.00011145730813344468,4.9603780110540896e-05,-9.249000238575888e-06,3.260646330925007e-05,-2.773557076299576e-05,6.908730515552002e-05,0.0005745429278191911,0.00023670128657695758,-0.0003433310827228374,-0.0007984697925551991,0.4029781222343445,19.868005752563477,0.3990752398967743,-20.082735061645508,-0.7015891671180725,-2.4566683769226074,0.29605430364608765,0
28,0.13504242897033691,-0.4029781222343445,-19.915613174438477,-0.4704863727092743,20.082735061645508,0.7070823311805725,2.4694857597351074,-0.29605430364608765,0.0,0.0,0.0,0.0,0.0,0.0,0.0,-0.4071374228758968,-0.12132181016165894,-0.22198360510481066,0.29084735350285595,0.11747941789054271,0.09418308757772893,-0.27371179400502715,1.213672426085723,-0.22007090645296531,-0.007410065682376092,-2.6036869124788424,-0.10899599474668502,2.468131097846561,0.8264840785980372,1.2134413937687574,-0.2202432315892585,-0.0075118285948192216,-2.6038483821997875,-0.10888392708698907,2.4681821257803174,0.826474908251239,-0.0001735243679610688,0.0008019642771958285,0.0013018992823349619,-0.00041099395089805237,-0.002576178125839803,-0.00023765055965543615,0.0006653377265761804,0.0,0.0,0.0,0.0,0.0,0.0,0.0,-0.0002310323169656403,-0.00017232513629317214,-0.00010176291244312977,-0.0001614697209451066,0.00011206765969594412,5.102793375622028e-05,-9.170346798148543e-06,0.0001735243679610688,-0.0008019642771958285,-0.0013018992823349619,0.00041099395089805237,0.002576178125839803,0.00023765055965543615,-0.0006653377265761804,0.4029781222343445,19.915613174438477,0.4704863727092743,-20.082735061645508,-0.7070823311805725,-2.4694857597351074,0.29605430364608765,0
29,0.14003801345825195,-0.4029781222343445,-19.915613174438477,-0.4704863727092743,20.082735061645508,0.7070823311805725,2.4694857597351074,-0.29605430364608765,0.0,0.0,0.0,0.0,0.0,0.0,0.0,-0.4071374228758968,-0.12132181016165894,-0.22198360510481066,0.29084735350285595,0.11747941789054271,0.09418308757772893,-0.27371179400502715,1.213672426085723,-0.22007090645296531,-0.007410065682376092,-2.6036869124788424,-0.10899599474668502,2.468131097846561,0.8264840785980372,1.2134413937687574,-0.2202432315892585,-0.0075118285948192216,-2.6038483821997875,-0.10888392708698907,2.4681821257803174,0.826474908251239,-0.0001735243679610688,0.0008019642771958285,0.0013018992823349619,-0.00041099395089805237,-0.002576178125839803,-0.00023765055965543615,0.0006653377265761804,0.0,0.0,0.0,0.0,0.0,0.0,0.0,-0.0002310323169656403,-0.00017232513629317214,-0.00010176291244312977,-0.0001614697209451066,0.00011206765969594412,5.102793375622028e-05,-9.170346798148543e-06,0.0001735243679610688,-0.0008019642771958285,-0.0013018992823349619,0.00041099395089805237,0.002576178125839803,0.00023765055965543615,-0.0006653377265761804,0.4029781222343445,19.915613174438477,0.4704863727092743,-20.082735061645508,-0.7070823311805725,-2.4694857597351074,0.29605430364608765,0
30,0.14499115943908691,-0.4505855441093445,-19.868005752563477,-0.4228789508342743,20.082735061645508,0.7134910225868225,2.4694857597351074,-0.28964561223983765,0.0,0.0,0.0,0.0,0.0,0.0,0.0,-0.4082224691696324,-0.12601525938269553,-0.22229879431625635,0.2902724792662233,0.11647776204319545,0.09444193044553206,-0.2742895375803509,1.2136757669574336,-0.22007424732467584,-0.007413327641054205,-2.603689003952433,-0.10899670682350793,2.468131097846561,0.8264834844198458,1.2134413937687574,-0.2202432315892585,-0.0075118285948192216,-2.6038483821997875,-0.10888392708698907,2.4681821257803174,0.826474908251239,0.0005421700896193404,-0.0005108967707281778,-0.00010500713858540378,-0.00034075227250886437,-0.0003182600280082959,0.00010717910283621941,9.110992162174276e-06,0.0,0.0,0.0,0.0,0.0,0.0,0.0,-0.00023437318867625123,-0.00016898426458264448,-9.850095376501625e-05,-0.00015937824735434702,0.0001127797365188532,5.102793375622028e-05,-8.576168606722057e-06,-0.0005421700896193404,0.0005108967707281778,0.00010500713858540378,0.00034075227250886437,0.0003182600280082959,-0.00010717910283621941,-9.110992162174276e-06,0.4505855441093445,19.868005752563477,0.4228789508342743,-20.082735061645508,-0.7134910225868225,-2.4694857597351074,0.28964561223983765,0
31,0.14993810653686523,-0.4505855441093445,-19.868005752563477,-0.4228789508342743,20.082735061645508,0.7134910225868225,2.4694857597351074,-0.28964561223983765,0.0,0.0,0.0,0.0,0.0,0.0,0.0,-0.4082224691696324,-0.12601525938269553,-0.22229879431625635,0.2902724792662233,0.11647776204319545,0.09444193044553206,-0.2742895375803509,1.2136757669574336,-0.22007424732467584,-0.007413327641054205,-2.603689003952433,-0.10899670682350793,2.468131097846561,0.8264834844198458,1.2134413937687574,-0.2202432315892585,-0.0075118285948192216,-2.6038483821997875,-0.10888392708698907,2.4681821257803174,0.826474908251239,0.0005421700896193404,-0.0005108967707281778,-0.00010500713858540378,-0.00034075227250886437,-0.0003182600280082959,0.00010717910283621941,9.110992162174276e-06,0.0,0.0,0.0,0.0,0.0,0.0,0.0,-0.00023437318867625123,-0.00016898426458264448,-9.850095376501625e-05,-0.00015937824735434702,0.0001127797365188532,5.102793375622028e-05,-8.576168606722057e-06,-0.0005421700896193404,0.0005108967707281778,0.00010500713858540378,0.00034075227250886437,0.0003182600280082959,-0.00010717910283621941,-9.110992162174276e-06,0.4505855441093445,19.868005752563477,0.4228789508342743,-20.082735061645508,-0.7134910225868225,-2.4694857597351074,0.28964561223983765,0
32,0.15499448776245117,-0.4505855441093445,-19.844202041625977,-0.4228789508342743,20.106538772583008,0.7015891671180725,2.4694857597351074,-0.29605430364608765,0.0,0.0,0.0,0.0,0.0,0.0,0.0,-0.4101856333464267,-0.12492511755338295,-0.22119241772395473,0.288845342036942,0.11661000380914993,0.09471097501776853,-0.2757884535371044,1.2136757669574336,-0.22007663514208564,-0.007415458196218606,-2.603691363402049,-0.10899538439512252,2.468131097846561,0.8264841960128175,1.2134413937687574,-0.2202432315892585,-0.0075118285948192216,-2.6038483821997875,-0.10888392708698907,2.4681821257803174,0.826474908251239,0.00012883812346849665,-0.000863300019739438,2.9070579417702468e-05,-0.0007122566545938944,-2.3625077514196833e-06,-0.0001697300498226382,0.0012119049245620497,0.0,0.0,0.0,0.0,0.0,0.0,0.0,-0.00023437318867625123,-0.00016659644717284539,-9.637039860061532e-05,-0.00015701879773866168,0.00011145730813344468,5.102793375622028e-05,-9.287761578491427e-06,-0.00012883812346849665,0.000863300019739438,-2.9070579417702468e-05,0.0007122566545938944,2.3625077514196833e-06,0.0001697300498226382,-0.0012119049245620497,0.4505855441093445,19.844202041625977,0.4228789508342743,-20.106538772583008,-0.7015891671180725,-2.4694857597351074,0.29605430364608765,0
33,0.15999484062194824,-0.4505855441093445,-19.844202041625977,-0.4228789508342743,20.106538772583008,0.7015891671180725,2.4694857597351074,-0.29605430364608765,0.0,0.0,0.0,0.0,0.0,0.0,0.0,-0.4101856333464267,-0.12492511755338295,-0.22119241772395473,0.288845342036942,0.11661000380914993,0.09471097501776853,-0.2757884535371044,1.2136757669574336,-0.22007663514208564,-0.007415458196218606,-2.603691363402049,-0.10899538439512252,2.468131097846561,0.8264841960128175,1.2134413937687574,-0.2202432315892585,-0.0075118285948192216,-2.6038483821997875,-0.10888392708698907,2.4681821257803174,0.826474908251239,0.00012883812346849665,-0.000863300019739438,2.9070579417702468e-05,-0.0007122566545938944,-2.3625077514196833e-06,-0.0001697300498226382,0.0012119049245620497,0.0,0.0,0.0,0.0,0.0,0.0,0.0,-0.00023437318867625123,-0.00016659644717284539,-9.637039860061532e-05,-0.00015701879773866168,0.00011145730813344468,5.102793375622028e-05,-9.287761578491427e-06,-0.00012883812346849665,0.000863300019739438,-2.9070579417702468e-05,0.0007122566545938944,2.3625077514196833e-06,0.0001697300498226382,-0.0012119049245620497,0.4505855441093445,19.844202041625977,0.4228789508342743,-20.106538772583008,-0.7015891671180725,-2.4694857597351074,0.29605430364608765,0
34,0.16500020027160645,-0.4783565402030945,-19.868005752563477,-0.4466826617717743,20.054964065551758,0.6951804757118225,2.4630770683288574,-0.30337852239608765,0.0,0.0,0.0,0.0,0.0,0.0,0.0,-0.4122479920290164,-0.12171380997268347,-0.21902302600640672,0.28798363864257337,0.11689893414079984,0.09448340635442683,-0.27485544118046695,1.2136777157992646,-0.22007424732872546,-0.007411893945181618,-2.6036876648771674,-0.1089946723182996,2.468131809923384,0.8264846570328699,1.2134413937687574,-0.2202432315892585,-0.0075118285948192216,-2.6038483821997875,-0.10888392708698907,2.4681821257803174,0.826474908251239,0.0017285504594490527,0.00018543020083993547,0.00043852292336235516,0.0005729673521339003,0.00024659186741573516,2.205944188562739e-05,0.0012432707703032655,0.0,0.0,0.0,0.0,0.0,0.0,0.0,-0.0002363220305072744,-0.00016898426053302273,-9.993464963760357e-05,-0.00016071732262012972,0.00011074523131052172,5.031585693338059e-05,-9.748781630847247e-06,-0.0017285504594490527,-0.00018543020083993547,-0.00043852292336235516,-0.0005729673521339003,-0.00024659186741573516,-2.205944188562739e-05,-0.0012432707703032655,0.4783565402030945,19.868005752563477,0.4466826617717743,-20.054964065551758,-0.6951804757118225,-2.4630770683288574,0.30337852239608765,0
35,0.17001080513000488,-0.4783565402030945,-19.868005752563477,-0.4466826617717743,20.054964065551758,0.6951804757118225,2.4630770683288574,-0.30337852239608765,0.0,0.0,0.0,0.0,0.0,0.0,0.0,-0.4122479920290164,-0.12171380997268347,-0.21902302600640672,0.28798363864257337,0.11689893414079984,0.09448340635442683,-0.27485544118046695,1.2136777157992646,-0.22007424732872546,-0.007411893945181618,-2.6036876648771674,-0.1089946723182996,2.468131809923384,0.8264846570328699,1.2134413937687574,-0.2202432315892585,-0.0075118285948192216,-2.6038483821997875,-0.10888392708698907,2.4681821257803174,0.826474908251239,0.0017285504594490527,0.00018543020083993547,0.00043852292336235516,0.0005729673521339003,0.00024659186741573516,2.205944188562739e-05,0.0012432707703032655,0.0,0.0,0.0,0.0,0.0,0.0,0.0,-0.0002363220305072744,-0.00016898426053302273,-9.993464963760357e-05,-0.00016071732262012972,0.00011074523131052172,5.031585693338059e-05,-9.748781630847247e-06,-0.0017285504594490527,-0.00018543020083993547,-0.00043852292336235516,-0.0005729673521339003,-0.00024659186741573516,-2.205944188562739e-05,-0.0012432707703032655,0.4783565402030945,19.868005752563477,0.4466826617717743,-20.054964065551758,-0.6951804757118225,-2.4630770683288574,0.30337852239608765,0
36,0.17502379417419434,-0.4267818331718445,-19.816431045532227,-0.4466826617717743,20.054964065551758,0.7070823311805725,2.4694857597351074,-0.25485557317733765,0.0,0.0,0.0,0.0,0.0,0.0,0.0,-0.41836202411331425,-0.1231251793502414,-0.22693876052259812,0.28983019212352557,0.11766092189074824,0.09401803509416547,-0.2744451214169068,1.2136740965215784,-0.22007786663836454,-0.007412604443533643,-2.6036877413714463,-0.10899599474668502,2.468131097846561,0.8264764394610461,1.2134413937687574,-0.2202432315892585,-0.0075118285948192216,-2.6038483821997875,-0.10888392708698907,2.4681821257803174,0.826474908251239,7.229143583303447e-05,-0.0008889601177276877,0.0002691956572827218,0.0001824731712519128,-0.00016333875813214077,-0.000457747836106405,-0.0008473081249239991,0.0,0.0,0.0,0.0,0.0,0.0,0.0,-0.0002327027528210568,-0.0001653649508939481,-9.922415128557887e-05,-0.00016064082834121862,0.00011206765969594412,5.102793375622028e-05,-1.5312098070596747e-06,-7.229143583303447e-05,0.0008889601177276877,-0.0002691956572827218,-0.0001824731712519128,0.00016333875813214077,0.000457747836106405,0.0008473081249239991,0.4267818331718445,19.816431045532227,0.4466826617717743,-20.054964065551758,-0.7070823311805725,-2.4694857597351074,0.25485557317733765,0
37,0.18001961708068848,-0.4267818331718445,-19.816431045532227,-0.4466826617717743,20.054964065551758,0.7070823311805725,2.4694857597351074,-0.25485557317733765,0.0,0.0,0.0,0.0,0.0,0.0,0.0,-0.41836202411331425,-0.1231251793502414,-0.22693876052259812,0.28983019212352557,0.11766092189074824,0.09401803509416547,-0.2744451214169068,1.2136740965215784,-0.22007786663836454,-0.007412604443533643,-2.6036877413714463,-0.10899599474668502,2.468131097846561,0.8264764394610461,1.2134413937687574,-0.2202432315892585,-0.0075118285948192216,-2.6038483821997875,-0.10888392708698907,2.4681821257803174,0.826474908251239,7.229143583303447e-05,-0.0008889601177276877,0.0002691956572827218,0.0001824731712519128,-0.00016333875813214077,-0.000457747836106405,-0.0008473081249239991,0.0,0.0,0.0,0.0,0.0,0.0,0.0,-0.0002327027528210568,-0.0001653649508939481,-9.922415128557887e-05,-0.00016064082834121862,0.00011206765969594412,5.102793375622028e-05,-1.5312098070596747e-06,-7.229143583303447e-05,0.0008889601177276877,-0.0002691956572827218,-0.0001824731712519128,0.00016333875813214077,0.000457747836106405,0.0008473081249239991,0.4267818331718445,19.816431045532227,0.4466826617717743,-20.054964065551758,-0.7070823311805725,-2.4694857597351074,0.25485557317733765,0
38,0.18501782417297363,-0.4029781222343445,-19.868005752563477,-0.4466826617717743,20.082735061645508,0.7134910225868225,2.4694857597351074,-0.25485557317733765,0.0,0.0,0.0,0.0,0.0,0.0,0.0,-0.4142353424476161,-0.12565735843140993,-0.22468763995243213,0.29378639738343426,0.11808898377392957,0.09429989894186346,-0.2746135167863571,1.213672426085723,-0.220074955957675,-0.0074123673953039515,-2.603689667468041,-0.10899670682350793,2.4681299852265255,0.8264785592045384,1.2134413937687574,-0.2202432315892585,-0.0075118285948192216,-2.6038483821997875,-0.10888392708698907,2.4681821257803174,0.826474908251239,-5.146584255240585e-05,9.416247748952382e-05,0.0005947195709183349,-0.0001392787355083172,-0.00042241466412917426,6.301061720861254e-05,-0.0010268197840076132,0.0,0.0,0.0,0.0,0.0,0.0,0.0,-0.0002310323169656403,-0.00016827563158347547,-9.94611995152701e-05,-0.00015871473174655648,0.0001127797365188532,5.214055379187954e-05,-3.650953299350057e-06,5.146584255240585e-05,-9.416247748952382e-05,-0.0005947195709183349,0.0001392787355083172,0.00042241466412917426,-6.301061720861254e-05,0.0010268197840076132,0.4029781222343445,19.868005752563477,0.4466826617717743,-20.082735061645508,-0.7134910225868225,-2.4694857597351074,0.25485557317733765,0
39,0.1900949478149414,-0.4029781222343445,-19.868005752563477,-0.4466826617717743,20.082735061645508,0.7134910225868225,2.4694857597351074,-0.25485557317733765,0.0,0.0,0.0,0.0,0.0,0.0,0.0,-0.4142353424476161,-0.12565735843140993,-0.22468763995243213,0.29378639738343426,0.11808898377392957,0.09429989894186346,-0.2746135167863571,1.213672426085723,-0.220074955957675,-0.0074123673953039515,-2.603689667468041,-0.10899670682350793,2.4681299852265255,0.8264785592045384,1.2134413937687574,-0.2202432315892585,-0.0075118285948192216,-2.6038483821997875,-0.10888392708698907,2.4681821257803174,0.826474908251239,-5.146584255240585e-05,9.416247748952382e-05,0.0005947195709183349,-0.0001392787355083172,-0.00042241466412917426,6.301061720861254e-05,-0.0010268197840076132,0.0,0.0,0.0,0.0,0.0,0.0,0.0,-0.0002310323169656403,-0.00016827563158347547,-9.94611995152701e-05,-0.00015871473174655648,0.0001127797365188532,5.214055379187954e-05,-3.650953299350057e-06,5.146584255240585e-05,-9.416247748952382e-05,-0.0005947195709183349,0.0001392787355083172,0.00042241466412917426,-6.301061720861254e-05,0.0010268197840076132,0.4029781222343445,19.868005752563477,0.4466826617717743,-20.082735061645508,-0.7134910225868225,-2.4694857597351074,0.25485557317733765,0
40,0.19500160217285156,-0.4029781222343445,-19.868005752563477,-0.4466826617717743,20.082735061645508,0.7134910225868225,2.4694857597351074,-0.25485557317733765,0.0,0.0,0.0,0.0,0.0,0.0,0.0,-0.4142353424476161,-0.12565735843140993,-0.22468763995243213,0.29378639738343426,0.11808898377392957,0.09429989894186346,-0.2746135167863571,1.213672426085723,-0.220074955957675,-0.0074123673953039515,-2.603689667468041,-0.10899670682350793,2.4681299852265255,0.8264785592045384,1.2134413937687574,-0.2202432315892585,-0.0075118285948192216,-2.6038483821997875,-0.10888392708698907,2.4681821257803174,0.826474908251239,-5.146584255240585e-05,9.416247748952382e-05,0.0005947195709183349,-0.0001392787355083172,-0.00042241466412917426,6.301061720861254e-05,-0.0010268197840076132,0.0,0.0,0.0,0.0,0.0,0.0,0.0,-0.0002310323169656403,-0.00016827563158347547,-9.94611995152701e-05,-0.00015871473174655648,0.0001127797365188532,5.214055379187954e-05,-3.650953299350057e-06,5.146584255240585e-05,-9.416247748952382e-05,-0.0005947195709183349,0.0001392787355083172,0.00042241466412917426,-6.301061720861254e-05,0.0010268197840076132,0.4029781222343445,19.868005752563477,0.4466826617717743,-20.082735061645508,-0.7134910225868225,-2.4694857597351074,0.25485557317733765,0
41,0.20000815391540527,-0.4029781222343445,-19.868005752563477,-0.4466826617717743,20.082735061645508,0.7134910225868225,2.4694857597351074,-0.25485557317733765,0.0,0.0,0.0,0.0,0.0,0.0,0.0,-0.4142353424476161,-0.12565735843140993,-0.22468763995243213,0.29378639738343426,0.11808898377392957,0.09429989894186346,-0.2746135167863571,1.213672426085723,-0.220074955957675,-0.0074123673953039515,-2.603689667468041,-0.10899670682350793,2.4681299852265255,0.8264785592045384,1.2134413937687574,-0.2202432315892585,-0.0075118285948192216,-2.6038483821997875,-0.10888392708698907,2.4681821257803174,0.826474908251239,-5.146584255240585e-05,9.416247748952382e-05,0.0005947195709183349,-0.0001392787355083172,-0.00042241466412917426,6.301061720861254e-05,-0.0010268197840076132,0.0,0.0,0.0,0.0,0.0,0.0,0.0,-0.0002310323169656403,-0.00016827563158347547,-9.94611995152701e-05,-0.00015871473174655648,0.0001127797365188532,5.214055379187954e-05,-3.650953299350057e-06,5.146584255240585e-05,-9.416247748952382e-05,-0.0005947195709183349,0.0001392787355083172,0.00042241466412917426,-6.301061720861254e-05,0.0010268197840076132,0.4029781222343445,19.868005752563477,0.4466826617717743,-20.082735061645508,-0.7134910225868225,-2.4694857597351074,0.25485557317733765,0
42,0.2050001621246338,-0.4029781222343445,-19.868005752563477,-0.4228789508342743,20.054964065551758,0.6951804757118225,2.4694857597351074,-0.25485557317733765,0.0,0.0,0.0,0.0,0.0,0.0,0.0,-0.41239829905128084,-0.12117975886437077,-0.22427375635915234,0.29217318167559575,0.11810515261722027,0.09461934292809396,-0.2753697717097422,1.213672426085723,-0.22007425121692298,-0.007413415321803374,-2.6036877187310603,-0.1089946723182996,2.4681310978402804,0.826476439455729,1.2134413937687574,-0.2202432315892585,-0.0075118285948192216,-2.6038483821997875,-0.10888392708698907,2.4681821257803174,0.826474908251239,-0.00011286452120730512,-1.6997472249014637e-05,0.0005989308681926366,0.00023890268575827434,0.0002633443442504402,3.646757086823555e-05,-0.0005600689501390177,0.0,0.0,0.0,0.0,0.0,0.0,0.0,-0.0002310323169656403,-0.00016898037233550878,-9.841327301584723e-05,-0.00016066346872722903,0.00011074523131052172,5.102794003697397e-05,-1.5312044899795652e-06,0.00011286452120730512,1.6997472249014637e-05,-0.0005989308681926366,-0.00023890268575827434,-0.0002633443442504402,-3.646757086823555e-05,0.0005600689501390177,0.4029781222343445,19.868005752563477,0.4228789508342743,-20.054964065551758,-0.6951804757118225,-2.4694857597351074,0.25485557317733765,0
43,0.21001529693603516,-0.4029781222343445,-19.868005752563477,-0.4228789508342743,20.054964065551758,0.6951804757118225,2.4694857597351074,-0.25485557317733765,0.0,0.0,0.0,0.0,0.0,0.0,0.0,-0.41239829905128084,-0.12117975886437077,-0.22427375635915234,0.29217318167559575,0.11810515261722027,0.09461934292809396,-0.2753697717097422,1.213672426085723,-0.22007425121692298,-0.007413415321803374,-2.6036877187310603,-0.1089946723182996,2.4681310978402804,0.826476439455729,1.2134413937687574,-0.2202432315892585,-0.0075118285948192216,-2.6038483821997875,-0.10888392708698907,2.4681821257803174,0.826474908251239,-0.00011286452120730512,-1.6997472249014637e-05,0.0005989308681926366,0.00023890268575827434,0.0002633443442504402,3.646757086823555e-05,-0.0005600689501390177,0.0,0.0,0.0,0.0,0.0,0.0,0.0,-0.0002310323169656403,-0.00016898037233550878,-9.841327301584723e-05,-0.00016066346872722903,0.00011074523131052172,5.102794003697397e-05,-1.5312044899795652e-06,0.00011286452120730512,1.6997472249014637e-05,-0.0005989308681926366,-0.00023890268575827434,-0.0002633443442504402,-3.646757086823555e-05,0.0005600689501390177,0.4029781222343445,19.868005752563477,0.4228789508342743,-20.054964065551758,-0.6951804757118225,-2.4694857597351074,0.25485557317733765,0
44,0.2150099277496338,-0.3752071261405945,-19.915613174438477,-0.3713042438030243,20.082735061645508,0.7015891671180725,2.4630770683288574,-0.28232139348983765,0.0,0.0,0.0,0.0,0.0,0.0,0.0,-0.4101335548594466,-0.12404029905994163,-0.21922922940625555,0.290220367403877,0.11752697294099555,0.09493619688590213,-0.2746727742785463,1.213670477243892,-0.22007090645298727,-0.007417893832394487,-2.603689437879652,-0.10899538439512252,2.468131809923384,0.8264823172262649,1.2134413937687574,-0.2202432315892585,-0.0075118285948192216,-2.6038483821997875,-0.10888392708698907,2.4681821257803174,0.826474908251239,-0.0004030790374240464,0.0006252256446745527,-0.000661857046129747,-0.0006920263394648943,0.00012047358720006846,0.00021674950162319656,0.0005170370994830212,0.0,0.0,0.0,0.0,0.0,0.0,0.0,-0.00022908347513461713,-0.00017232513627121748,-9.393476242473484e-05,-0.00015894432013574544,0.00011145730813344468,5.031585693338059e-05,-7.4089750258243825e-06,0.0004030790374240464,-0.0006252256446745527,0.000661857046129747,0.0006920263394648943,-0.00012047358720006846,-0.00021674950162319656,-0.0005170370994830212,0.3752071261405945,19.915613174438477,0.3713042438030243,-20.082735061645508,-0.7015891671180725,-2.4630770683288574,0.28232139348983765,0
45,0.21999669075012207,-0.3752071261405945,-19.915613174438477,-0.3713042438030243,20.082735061645508,0.7015891671180725,2.4630770683288574,-0.28232139348983765,0.0,0.0,0.0,0.0,0.0,0.0,0.0,-0.4101335548594466,-0.12404029905994163,-0.21922922940625555,0.290220367403877,0.11752697294099555,0.09493619688590213,-0.2746727742785463,1.213670477243892,-0.22007090645298727,-0.007417893832394487,-2.603689437879652,-0.10899538439512252,2.468131809923384,0.8264823172262649,1.2134413937687574,-0.2202432315892585,-0.0075118285948192216,-2.6038483821997875,-0.10888392708698907,2.4681821257803174,0.826474908251239,-0.0004030790374240464,0.0006252256446745527,-0.000661857046129747,-0.0006920263394648943,0.00012047358720006846,0.00021674950162319656,0.0005170370994830212,0.0,0.0,0.0,0.0,0.0,0.0,0.0,-0.00022908347513461713,-0.00017232513627121748,-9.393476242473484e-05,-0.00015894432013574544,0.00011145730813344468,5.031585693338059e-05,-7.4089750258243825e-06,0.0004030790374240464,-0.0006252256446745527,0.000661857046129747,0.0006920263394648943,-0.00012047358720006846,-0.00021674950162319656,-0.0005170370994830212,0.3752071261405945,19.915613174438477,0.3713042438030243,-20.082735061645508,-0.7015891671180725,-2.4630770683288574,0.28232139348983765,0
46,0.22499871253967285,-0.3752071261405945,-19.915613174438477,-0.3990752398967743,20.082735061645508,0.7015891671180725,2.4694857597351074,-0.26217979192733765,0.0,0.0,0.0,0.0,0.0,0.0,0.0,-0.40536768817398666,-0.1268628931254222,-0.21319032679780436,0.2913042961843555,0.11792525023039545,0.09531641696178529,-0.27384883468229393,1.213670477243892,-0.22007090645296531,-0.0074150773485242814,-2.6036896902479394,-0.10899538439512252,2.468131097846561,0.8264804326620339,1.2134413937687574,-0.2202432315892585,-0.0075118285948192216,-2.6038483821997875,-0.10888392708698907,2.4681821257803174,0.826474908251239,-7.806872341315901e-07,0.0007591287100292216,-0.0002896935179187014,-0.000241428781492023,0.00010737578466218884,-4.661668667946625e-05,-0.00032570169383542387,0.0,0.0,0.0,0.0,0.0,0.0,0.0,-0.00022908347513461713,-0.00017232513629317214,-9.675124629494013e-05,-0.00015869195184814444,0.00011145730813344468,5.102793375622028e-05,-5.524410794821577e-06,7.806872341315901e-07,-0.0007591287100292216,0.0002896935179187014,0.000241428781492023,-0.00010737578466218884,4.661668667946625e-05,0.00032570169383542387,0.3752071261405945,19.915613174438477,0.3990752398967743,-20.082735061645508,-0.7015891671180725,-2.4694857597351074,0.26217979192733765,0
47,0.2299501895904541,-0.3752071261405945,-19.915613174438477,-0.3990752398967743,20.082735061645508,0.7015891671180725,2.4694857597351074,-0.26217979192733765,0.0,0.0,0.0,0.0,0.0,0.0,0.0,-0.40536768817398666,-0.1268628931254222,-0.21319032679780436,0.2913042961843555,0.11792525023039545,0.09531641696178529,-0.27384883468229393,1.213670477243892,-0.22007090645296531,-0.0074150773485242814,-2.6036896902479394,-0.10899538439512252,2.468131097846561,0.8264804326620339,1.2134413937687574,-0.2202432315892585,-0.0075118285948192216,-2.6038483821997875,-0.10888392708698907,2.4681821257803174,0.826474908251239,-7.806872341315901e-07,0.0007591287100292216,-0.0002896935179187014,-0.000241428781492023,0.00010737578466218884,-4.661668667946625e-05,-0.00032570169383542387,0.0,0.0,0.0,0.0,0.0,0.0,0.0,-0.00022908347513461713,-0.00017232513629317214,-9.675124629494013e-05,-0.00015869195184814444,0.00011145730813344468,5.102793375622028e-05,-5.524410794821577e-06,7.806872341315901e-07,-0.0007591287100292216,0.0002896935179187014,0.000241428781492023,-0.00010737578466218884,4.661668667946625e-05,0.00032570169383542387,0.3752071261405945,19.915613174438477,0.3990752398967743,-20.082735061645508,-0.7015891671180725,-2.4694857597351074,0.26217979192733765,0
48,0.23498940467834473,-0.4267818331718445,-19.915613174438477,-0.4228789508342743,20.082735061645508,0.6951804757118225,2.4694857597351074,-0.22098104655742645,0.0,0.0,0.0,0.0,0.0,0.0,0.0,-0.4095183718691824,-0.1302109088868624,-0.21912290422771175,0.29211023210662745,0.11790639648545762,0.09509615081586507,-0.27288769435366544,1.2136740965215784,-0.22007090645296531,-0.007415461443969262,-2.6036876239540514,-0.1089946723182996,2.468131097846561,0.8264758548089837,1.2134413937687574,-0.2202432315892585,-0.0075118285948192216,-2.6038483821997875,-0.10888392708698907,2.4681821257803174,0.826474908251239,0.0005467289068660825,0.0008712129413453699,-0.00010476513826399982,-2.15750442749799e-05,0.00019820123627534676,-0.00018299803831761644,-0.002393121074383536,0.0,0.0,0.0,0.0,0.0,0.0,0.0,-0.0002327027528210568,-0.00017232513629317214,-9.636715084995924e-05,-0.00016075824573613673,0.00011074523131052172,5.102793375622028e-05,-9.465577446299278e-07,-0.0005467289068660825,-0.0008712129413453699,0.00010476513826399982,2.15750442749799e-05,-0.00019820123627534676,0.00018299803831761644,0.002393121074383536,0.4267818331718445,19.915613174438477,0.4228789508342743,-20.082735061645508,-0.6951804757118225,-2.4694857597351074,0.22098104655742645,0
49,0.2400057315826416,-0.4267818331718445,-19.915613174438477,-0.4228789508342743,20.082735061645508,0.6951804757118225,2.4694857597351074,-0.22098104655742645,0.0,0.0,0.0,0.0,0.0,0.0,0.0,-0.4095183718691824,-0.1302109088868624,-0.21912290422771175,0.29211023210662745,0.11790639648545762,0.09509615081586507,-0.27288769435366544,1.2136740965215784,-0.22007090645296531,-0.007415461443969262,-2.6036876239540514,-0.1089946723182996,2.468131097846561,0.8264758548089837,1.2134413937687574,-0.2202432315892585,-0.0075118285948192216,-2.6038483821997875,-0.10888392708698907,2.4681821257803174,0.826474908251239,0.0005467289068660825,0.0008712129413453699,-0.00010476513826399982,-2.15750442749799e-05,0.00019820123627534676,-0.00018299803831761644,-0.002393121074383536,0.0,0.0,0.0,0.0,0.0,0.0,0.0,-0.0002327027528210568,-0.00017232513629317214,-9.636715084995924e-05,-0.00016075824573613673,0.00011074523131052172,5.102793375622028e-05,-9.465577446299278e-07,-0.0005467289068660825,-0.0008712129413453699,0.00010476513826399982,2.15750442749799e-05,-0.00019820123627534676,0.00018299803831761644,0.002393121074383536,0.4267818331718445,19.915613174438477,0.4228789508342743,-20.082735061645508,-0.6951804757118225,-2.4694857597351074,0.22098104655742645,0
50,0.24501514434814453,-0.4029781222343445,-19.844202041625977,-0.4704863727092743,20.082735061645508,0.7070823311805725,2.4630770683288574,-0.25485557317733765,0.0,0.0,0.0,0.0,0.0,0.0,0.0,-0.4127309515935122,-0.12755409094141107,-0.22289230333472648,0.28725529472347905,0.1171495281621121,0.0938506671273042,-0.2712824263771682,1.213672426085723,-0.22007599649753098,-0.007410013408829587,-2.60368960520405,-0.10899599474668502,2.468131809923384,0.8264791479103346,1.2134413937687574,-0.2202432315892585,-0.0075118285948192216,-2.6038483821997875,-0.10888392708698907,2.4681821257803174,0.826474908251239,-0.0009865045093044645,-0.0006249022874665401,0.0006069672573051742,-0.0007800995409838888,-0.005629211981734975,0.0001530325049345465,-0.0007597560229357866,0.0,0.0,0.0,0.0,0.0,0.0,0.0,-0.0002310323169656403,-0.00016723509172750228,-0.00010181518598963418,-0.00015877699573740855,0.00011206765969594412,5.031585693338059e-05,-4.23965909557289e-06,0.0009865045093044645,0.0006249022874665401,-0.0006069672573051742,0.0007800995409838888,0.005629211981734975,-0.0001530325049345465,0.0007597560229357866,0.4029781222343445,19.844202041625977,0.4704863727092743,-20.082735061645508,-0.7070823311805725,-2.4630770683288574,0.25485557317733765,0
51,0.25004124641418457,-0.4029781222343445,-19.844202041625977,-0.4704863727092743,20.082735061645508,0.7070823311805725,2.4630770683288574,-0.25485557317733765,0.0,0.0,0.0,0.0,0.0,0.0,0.0,-0.4127309515935122,-0.12755409094141107,-0.22289230333472648,0.28725529472347905,0.1171495281621121,0.0938506671273042,-0.2712824263771682,1.213672426085723,-0.22007599649753098,-0.007410013408829587,-2.60368960520405,-0.10899599474668502,2.468131809923384,0.8264791479103346,1.2134413937687574,-0.2202432315892585,-0.0075118285948192216,-2.6038483821997875,-0.10888392708698907,2.4681821257803174,0.826474908251239,-0.0009865045093044645,-0.0006249022874665401,0.0006069672573051742,-0.0007800995409838888,-0.005629211981734975,0.0001530325049345465,-0.0007597560229357866,0.0,0.0,0.0,0.0,0.0,0.0,0.0,-0.0002310323169656403,-0.00016723509172750228,-0.00010181518598963418,-0.00015877699573740855,0.00011206765969594412,5.031585693338059e-05,-4.23965909557289e-06,0.0009865045093044645,0.0006249022874665401,-0.0006069672573051742,0.0007800995409838888,0.005629211981734975,-0.0001530325049345465,0.0007597560229357866,0.4029781222343445,19.844202041625977,0.4704863727092743,-20.082735061645508,-0.7070823311805725,-2.4630770683288574,0.25485557317733765,0
52,0.2550320625305176,-0.4267818331718445,-19.868005752563477,-0.4466826617717743,20.054964065551758,0.6951804757118225,2.4630770683288574,-0.24112264811992645,0.0,0.0,0.0,0.0,0.0,0.0,0.0,-0.41056377198177907,-0.13026805028953653,-0.21937749235298246,0.29146196966732,0.11721845536604444,0.09515205663036598,-0.27162383979301824,1.2136740965215784,-0.22007448353611997,-0.007411657529634174,-2.603687514652254,-0.1089946723182996,2.468131809923384,0.8264777221605768,1.2134413937687574,-0.2202432315892585,-0.0075118285948192216,-2.6038483821997875,-0.10888392708698907,2.4681821257803174,0.826474908251239,-0.00012723893309572374,0.00020514399241083312,0.00038547653640167676,0.00012631572386098442,0.00019273405340014652,0.00011899154306876087,-0.0011601733241226662,0.0,0.0,0.0,0.0,0.0,0.0,0.0,-0.0002327027528210568,-0.0001687480531385177,-0.00010017106518504793,-0.0001608675475335275,0.00011074523131052172,5.031585693338059e-05,-2.813909337762155e-06,0.00012723893309572374,-0.00020514399241083312,-0.00038547653640167676,-0.00012631572386098442,-0.00019273405340014652,-0.00011899154306876087,0.0011601733241226662,0.4267818331718445,19.868005752563477,0.4466826617717743,-20.054964065551758,-0.6951804757118225,-2.4630770683288574,0.24112264811992645,0
53,0.2599930763244629,-0.4267818331718445,-19.868005752563477,-0.4466826617717743,20.054964065551758,0.6951804757118225,2.4630770683288574,-0.24112264811992645,0.0,0.0,0.0,0.0,0.0,0.0,0.0,-0.41056377198177907,-0.13026805028953653,-0.21937749235298246,0.29146196966732,0.11721845536604444,0.09515205663036598,-0.27162383979301824,1.2136740965215784,-0.22007448353611997,-0.007411657529634174,-2.603687514652254,-0.1089946723182996,2.468131809923384,0.8264777221605768,1.2134413937687574,-0.2202432315892585,-0.0075118285948192216,-2.6038483821997875,-0.10888392708698907,2.4681821257803174,0.826474908251239,-0.00012723893309572374,0.00020514399241083312,0.00038547653640167676,0.00012631572386098442,0.00019273405340014652,0.00011899154306876087,-0.0011601733241226662,0.0,0.0,0.0,0.0,0.0,0.0,0.0,-0.0002327027528210568,-0.0001687480531385177,-0.00010017106518504793,-0.0001608675475335275,0.00011074523131052172,5.031585693338059e-05,-2.813909337762155e-06,0.00012723893309572374,-0.00020514399241083312,-0.00038547653640167676,-0.00012631572386098442,-0.00019273405340014652,-0.00011899154306876087,0.0011601733241226662,0.4267818331718445,19.868005752563477,0.4466826617717743,-20.054964065551758,-0.6951804757118225,-2.4630770683288574,0.24112264811992645,0
54,0.26499247550964355,-0.3752071261405945,-19.816431045532227,-0.4228789508342743,20.031160354614258,0.6951804757118225,2.4630770683288574,-0.28232139348983765,0.0,0.0,0.0,0.0,0.0,0.0,0.0,-0.4171081394692517,-0.12142048540572847,-0.22734499996536667,0.28654628050252334,0.11769677393454268,0.09457150191975724,-0.2727042465732115,1.2136704772802307,-0.22007786660369566,-0.0074133305992645695,-2.6036860728590523,-0.1089946723182996,2.468131809923384,0.8264814888799848,1.2134413937687574,-0.2202432315892585,-0.0075118285948192216,-2.6038483821997875,-0.10888392708698907,2.4681821257803174,0.826474908251239,-0.0013753456538650511,-0.0007572863939071518,-0.000809587125757745,0.0006788682030904391,0.00019427565472527098,0.0001809153187791932,-0.00034178153992173746,0.0,0.0,0.0,0.0,0.0,0.0,0.0,-0.00022908351147332695,-0.00016536498556282697,-9.849799555465208e-05,-0.00016230934073524494,0.00011074523131052172,5.031585693338059e-05,-6.580628745811445e-06,0.0013753456538650511,0.0007572863939071518,0.000809587125757745,-0.0006788682030904391,-0.00019427565472527098,-0.0001809153187791932,0.00034178153992173746,0.3752071261405945,19.816431045532227,0.4228789508342743,-20.031160354614258,-0.6951804757118225,-2.4630770683288574,0.28232139348983765,0
55,0.2699918746948242,-0.3752071261405945,-19.816431045532227,-0.4228789508342743,20.031160354614258,0.6951804757118225,2.4630770683288574,-0.28232139348983765,0.0,0.0,0.0,0.0,0.0,0.0,0.0,-0.4171081394692517,-0.12142048540572847,-0.22734499996536667,0.28654628050252334,0.11769677393454268,0.09457150191975724,-0.2727042465732115,1.2136704772802307,-0.22007786660369566,-0.0074133305992645695,-2.6036860728590523,-0.1089946723182996,2.468131809923384,0.8264814888799848,1.2134413937687574,-0.2202432315892585,-0.0075118285948192216,-2.6038483821997875,-0.10888392708698907,2.4681821257803174,0.826474908251239,-0.0013753456538650511,-0.0007572863939071518,-0.000809587125757745,0.0006788682030904391,0.00019427565472527098,0.0001809153187791932,-0.00034178153992173746,0.0,0.0,0.0,0.0,0.0,0.0,0.0,-0.00022908351147332695,-0.00016536498556282697,-9.849799555465208e-05,-0.00016230934073524494,0.00011074523131052172,5.031585693338059e-05,-6.580628745811445e-06,0.0013753456538650511,0.0007572863939071518,0.000809587125757745,-0.0006788682030904391,-0.00019427565472527098,-0.0001809153187791932,0.00034178153992173746,0.3752071261405945,19.816431045532227,0.4228789508342743,-20.031160354614258,-0.6951804757118225,-2.4630770683288574,0.28232139348983765,0
56,0.27504396438598633,-0.4029781222343445,-19.844202041625977,-0.4466826617717743,20.054964065551758,0.7015891671180725,2.4630770683288574,-0.26858848333358765,0.0,0.0,0.0,0.0,0.0,0.0,0.0,-0.41423143596631534,-0.11825812378534523,-0.22489472639605151,0.2876983697910718,0.11717871492824537,0.0948785555077358,-0.27477500658563425,1.2136724260857237,-0.22007591776053112,-0.0074116602356198704,-2.6036877439260597,-0.10899538439512252,2.468131809923384,0.8264799671823041,1.2134413937687574,-0.2202432315892585,-0.0075118285948192216,-2.6038483821997875,-0.10888392708698907,2.4681821257803174,0.826474908251239,-0.0004820377429813108,0.0001262142855880628,0.0006018398582221254,0.00017371758199790721,1.2343902014237197e-05,1.0939575451861606e-05,-0.0010552274705640592,0.0,0.0,0.0,0.0,0.0,0.0,0.0,-0.00023103231696630644,-0.00016731382872736678,-0.00010016835919935112,-0.00016063827372780892,0.00011145730813344468,5.031585693338059e-05,-5.058931065060612e-06,0.0004820377429813108,-0.0001262142855880628,-0.0006018398582221254,-0.00017371758199790721,-1.2343902014237197e-05,-1.0939575451861606e-05,0.0010552274705640592,0.4029781222343445,19.844202041625977,0.4466826617717743,-20.054964065551758,-0.7015891671180725,-2.4630770683288574,0.26858848333358765,0
57,0.280040979385376,-0.4029781222343445,-19.844202041625977,-0.4466826617717743,20.054964065551758,0.7015891671180725,2.4630770683288574,-0.26858848333358765,0.0,0.0,0.0,0.0,0.0,0.0,0.0,-0.41423143596631534,-0.11825812378534523,-0.22489472639605151,0.2876983697910718,0.11717871492824537,0.0948785555077358,-0.27477500658563425,1.2136724260857237,-0.22007591776053112,-0.0074116602356198704,-2.6036877439260597,-0.10899538439512252,2.468131809923384,0.8264799671823041,1.2134413937687574,-0.2202432315892585,-0.0075118285948192216,-2.6038483821997875,-0.10888392708698907,2.4681821257803174,0.826474908251239,-0.0004820377429813108,0.0001262142855880628,0.0006018398582221254,0.00017371758199790721,1.2343902014237197e-05,1.0939575451861606e-05,-0.0010552274705640592,0.0,0.0,0.0,0.0,0.0,0.0,0.0,-0.00023103231696630644,-0.00016731382872736678,-0.00010016835919935112,-0.00016063827372780892,0.00011145730813344468,5.031585693338059e-05,-5.058931065060612e-06,0.0004820377429813108,-0.0001262142855880628,-0.0006018398582221254,-0.00017371758199790721,-1.2343902014237197e-05,-1.0939575451861606e-05,0.0010552274705640592,0.4029781222343445,19.844202041625977,0.4466826617717743,-20.054964065551758,-0.7015891671180725,-2.4630770683288574,0.26858848333358765,0
58,0.28504323959350586,-0.4029781222343445,-19.891809463500977,-0.3990752398967743,20.106538772583008,0.7015891671180725,2.4694857597351074,-0.28232139348983765,0.0,0.0,0.0,0.0,0.0,0.0,0.0,-0.4173964668139633,-0.1209347860780445,-0.22845455215332186,0.29315586719366804,0.11745582681986283,0.09481276172996077,-0.2762157812911878,1.213672426085723,-0.22007257699682745,-0.0074171289568098825,-2.603689059132815,-0.10899538439512252,2.468131097846561,0.8264794785660369,1.2134413937687574,-0.2202432315892585,-0.0075118285948192216,-2.6038483821997875,-0.10888392708698907,2.4681821257803174,0.826474908251239,-0.0002816167210784133,0.00018140983174261326,-0.00029881570578383217,-0.000864312727518577,-0.00014734798388364248,-0.00020157571895130255,0.0004177881453897267,0.0,0.0,0.0,0.0,0.0,0.0,0.0,-0.0002310323169656403,-0.00017065459243104097,-9.469963800933911e-05,-0.00015932306697274967,0.00011145730813344468,5.102793375622028e-05,-4.570314797835984e-06,0.0002816167210784133,-0.00018140983174261326,0.00029881570578383217,0.000864312727518577,0.00014734798388364248,0.00020157571895130255,-0.0004177881453897267,0.4029781222343445,19.891809463500977,0.3990752398967743,-20.106538772583008,-0.7015891671180725,-2.4694857597351074,0.28232139348983765,0
59,0.29001474380493164,-0.4029781222343445,-19.891809463500977,-0.3990752398967743,20.106538772583008,0.7015891671180725,2.4694857597351074,-0.28232139348983765,0.0,0.0,0.0,0.0,0.0,0.0,0.0,-0.4173964668139633,-0.1209347860780445,-0.22845455215332186,0.29315586719366804,0.11745582681986283,0.09481276172996077,-0.2762157812911878,1.213672426085723,-0.22007257699682745,-0.0074171289568098825,-2.603689059132815,-0.10899538439512252,2.468131097846561,0.8264794785660369,1.2134413937687574,-0.2202432315892585,-0.0075118285948192216,-2.6038483821997875,-0.10888392708698907,2.4681821257803174,0.826474908251239,-0.0002816167210784133,0.00018140983174261326,-0.00029881570578383217,-0.000864312727518577,-0.00014734798388364248,-0.00020157571895130255,0.0004177881453897267,0.0,0.0,0.0,0.0,0.0,0.0,0.0,-0.0002310323169656403,-0.00017065459243104097,-9.469963800933911e-05,-0.00015932306697274967,0.00011145730813344468,5.102793375622028e-05,-4.570314797835984e-06,0.0002816167210784133,-0.00018140983174261326,0.00029881570578383217,0.000864312727518577,0.00014734798388364248,0.00020157571895130255,-0.0004177881453897267,0.4029781222343445,19.891809463500977,0.3990752398967743,-20.106538772583008,-0.7015891671180725,-2.4694857597351074,0.28232139348983765,0
60,0.29499006271362305,-0.4029781222343445,-19.943384170532227,-0.4228789508342743,20.082735061645508,0.7015891671180725,2.4630770683288574,-0.30337852239608765,0.0,0.0,0.0,0.0,0.0,0.0,0.0,-0.41524330627409717,-0.12282286240520146,-0.2269413120479838,0.2914240972136598,0.11680060042685612,0.09422244032576214,-0.27599964886434675,1.213672426085723,-0.22006895793515535,-0.007413330575210471,-2.603689693069834,-0.10899538634833067,2.468131809923384,0.8264806132919043,1.2134413937687574,-0.2202432315892585,-0.0075118285948192216,-2.6038483821997875,-0.10888392708698907,2.4681821257803174,0.826474908251239,-0.00019734645381321828,0.0009297258714126634,0.0002327112027277938,-0.0004092724002402859,6.474039038417402e-05,3.826619665026443e-05,0.001444691790442544,0.0,0.0,0.0,0.0,0.0,0.0,0.0,-0.0002310323169656403,-0.00017427365410313533,-9.84980196087502e-05,-0.00015868912995342654,0.00011145926134159545,5.031585693338059e-05,-5.7050406652159324e-06,0.00019734645381321828,-0.0009297258714126634,-0.0002327112027277938,0.0004092724002402859,-6.474039038417402e-05,-3.826619665026443e-05,-0.001444691790442544,0.4029781222343445,19.943384170532227,0.4228789508342743,-20.082735061645508,-0.7015891671180725,-2.4630770683288574,0.30337852239608765,0
61,0.29999375343322754,-0.4029781222343445,-19.943384170532227,-0.4228789508342743,20.082735061645508,0.7015891671180725,2.4630770683288574,-0.30337852239608765,0.0,0.0,0.0,0.0,0.0,0.0,0.0,-0.41524330627409717,-0.12282286240520146,-0.2269413120479838,0.2914240972136598,0.11680060042685612,0.09422244032576214,-0.27599964886434675,1.213672426085723,-0.22006895793515535,-0.007413330575210471,-2.603689693069834,-0.10899538634833067,2.468131809923384,0.8264806132919043,1.2134413937687574,-0.2202432315892585,-0.0075118285948192216,-2.6038483821997875,-0.10888392708698907,2.4681821257803174,0.826474908251239,-0.00019734645381321828,0.0009297258714126634,0.0002327112027277938,-0.0004092724002402859,6.474039038417402e-05,3.826619665026443e-05,0.001444691790442544,0.0,0.0,0.0,0.0,0.0,0.0,0.0,-0.0002310323169656403,-0.00017427365410313533,-9.84980196087502e-05,-0.00015868912995342654,0.00011145926134159545,5.031585693338059e-05,-5.7050406652159324e-06,0.00019734645381321828,-0.0009297258714126634,-0.0002327112027277938,0.0004092724002402859,-6.474039038417402e-05,-3.826619665026443e-05,-0.001444691790442544,0.4029781222343445,19.943384170532227,0.4228789508342743,-20.082735061645508,-0.7015891671180725,-2.4630770683288574,0.30337852239608765,0
62,0.3049936294555664,-0.4029781222343445,-19.943384170532227,-0.4228789508342743,20.082735061645508,0.7015891671180725,2.4630770683288574,-0.30337852239608765,0.0,0.0,0.0,0.0,0.0,0.0,0.0,-0.41524330627409717,-0.12282286240520146,-0.2269413120479838,0.2914240972136598,0.11680060042685612,0.09422244032576214,-0.27599964886434675,1.213672426085723,-0.22006895793515535,-0.007413330575210471,-2.603689693069834,-0.10899538634833067,2.468131809923384,0.8264806132919043,1.2134413937687574,-0.2202432315892585,-0.0075118285948192216,-2.6038483821997875,-0.10888392708698907,2.4681821257803174,0.826474908251239,-0.00019734645381321828,0.0009297258714126634,0.0002327112027277938,-0.0004092724002402859,6.474039038417402e-05,3.826619665026443e-05,0.001444691790442544,0.0,0.0,0.0,0.0,0.0,0.0,0.0,-0.0002310323169656403,-0.00017427365410313533,-9.84980196087502e-05,-0.00015868912995342654,0.00011145926134159545,5.031585693338059e-05,-5.7050406652159324e-06,0.00019734645381321828,-0.0009297258714126634,-0.0002327112027277938,0.0004092724002402859,-6.474039038417402e-05,-3.826619665026443e-05,-0.001444691790442544,0.4029781222343445,19.943384170532227,0.4228789508342743,-20.082735061645508,-0.7015891671180725,-2.4630770683288574,0.30337852239608765,0
63,0.309995174407959,-0.4029781222343445,-19.943384170532227,-0.4228789508342743,20.082735061645508,0.7015891671180725,2.4630770683288574,-0.30337852239608765,0.0,0.0,0.0,0.0,0.0,0.0,0.0,-0.41524330627409717,-0.12282286240520146,-0.2269413120479838,0.2914240972136598,0.11680060042685612,0.09422244032576214,-0.27599964886434675,1.213672426085723,-0.22006895793515535,-0.007413330575210471,-2.603689693069834,-0.10899538634833067,2.468131809923384,0.8264806132919043,1.2134413937687574,-0.2202432315892585,-0.0075118285948192216,-2.6038483821997875,-0.10888392708698907,2.4681821257803174,0.826474908251239,-0.00019734645381321828,0.0009297258714126634,0.0002327112027277938,-0.0004092724002402859,6.474039038417402e-05,3.826619665026443e-05,0.001444691790442544,0.0,0.0,0.0,0.0,0.0,0.0,0.0,-0.0002310323169656403,-0.00017427365410313533,-9.84980196087502e-05,-0.00015868912995342654,0.00011145926134159545,5.031585693338059e-05,-5.7050406652159324e-06,0.00019734645381321828,-0.0009297258714126634,-0.0002327112027277938,0.0004092724002402859,-6.474039038417402e-05,-3.826619665026443e-05,-0.001444691790442544,0.4029781222343445,19.943384170532227,0.4228789508342743,-20.082735061645508,-0.7015891671180725,-2.4630770683288574,0.30337852239608765,0
64,0.3150002956390381,-0.4029781222343445,-19.943384170532227,-0.4228789508342743,20.082735061645508,0.7015891671180725,2.4630770683288574,-0.30337852239608765,0.0,0.0,0.0,0.0,0.0,0.0,0.0,-0.41524330627409717,-0.12282286240520146,-0.2269413120479838,0.2914240972136598,0.11680060042685612,0.09422244032576214,-0.27599964886434675,1.213672426085723,-0.22006895793515535,-0.007413330575210471,-2.603689693069834,-0.10899538634833067,2.468131809923384,0.8264806132919043,1.2134413937687574,-0.2202432315892585,-0.0075118285948192216,-2.6038483821997875,-0.10888392708698907,2.4681821257803174,0.826474908251239,-0.00019734645381321828,0.0009297258714126634,0.0002327112027277938,-0.0004092724002402859,6.474039038417402e-05,3.826619665026443e-05,0.001444691790442544,0.0,0.0,0.0,0.0,0.0,0.0,0.0,-0.0002310323169656403,-0.00017427365410313533,-9.84980196087502e-05,-0.00015868912995342654,0.00011145926134159545,5.031585693338059e-05,-5.7050406652159324e-06,0.00019734645381321828,-0.0009297258714126634,-0.0002327112027277938,0.0004092724002402859,-6.474039038417402e-05,-3.826619665026443e-05,-0.001444691790442544,0.4029781222343445,19.943384170532227,0.4228789508342743,-20.082735061645508,-0.7015891671180725,-2.4630770683288574,0.30337852239608765,0
65,0.3200037479400635,-0.3514034152030945,-19.868005752563477,-0.3990752398967743,20.082735061645508,0.7015891671180725,2.4566683769226074,-0.25485557317733765,0.0,0.0,0.0,0.0,0.0,0.0,0.0,-0.40977550765018395,-0.11976571730324918,-0.22452909164729692,0.28722032158962696,0.11682531933235785,0.09337903572294212,-0.2742573669363513,1.2136688068080366,-0.22007424732467765,-0.007415790093723739,-2.6036887492199905,-0.10899538439513355,2.468132522000207,0.8264792655692493,1.2134413937687574,-0.2202432315892585,-0.0075118285948192216,-2.6038483821997875,-0.10888392708698907,2.4681821257803174,0.826474908251239,-0.0008830871417852434,-0.00027104421583249686,-0.0005753194469953161,-0.00042542171137233484,-0.00018796070953885403,0.00035368912988553854,-0.0007292164377509988,0.0,0.0,0.0,0.0,0.0,0.0,0.0,-0.00022741303927920065,-0.00016898426458084037,-9.60385010954825e-05,-0.00015963297979704194,0.00011145730814447752,4.9603780110540896e-05,-4.3573180102951525e-06,0.0008830871417852434,0.00027104421583249686,0.0005753194469953161,0.00042542171137233484,0.00018796070953885403,-0.00035368912988553854,0.0007292164377509988,0.3514034152030945,19.868005752563477,0.3990752398967743,-20.082735061645508,-0.7015891671180725,-2.4566683769226074,0.25485557317733765,0
66,0.3249931335449219,-0.3514034152030945,-19.868005752563477,-0.3990752398967743,20.082735061645508,0.7015891671180725,2.4566683769226074,-0.25485557317733765,0.0,0.0,0.0,0.0,0.0,0.0,0.0,-0.40977550765018395,-0.11976571730324918,-0.22452909164729692,0.28722032158962696,0.11682531933235785,0.09337903572294212,-0.2742573669363513,1.2136688068080366,-0.22007424732467765,-0.007415790093723739,-2.6036887492199905,-0.10899538439513355,2.468132522000207,0.8264792655692493,1.2134413937687574,-0.2202432315892585,-0.0075118285948192216,-2.6038483821997875,-0.10888392708698907,2.4681821257803174,0.826474908251239,-0.0008830871417852434,-0.00027104421583249686,-0.0005753194469953161,-0.00042542171137233484,-0.00018796070953885403,0.00035368912988553854,-0.0007292164377509988,0.0,0.0,0.0,0.0,0.0,0.0,0.0,-0.00022741303927920065,-0.00016898426458084037,-9.60385010954825e-05,-0.00015963297979704194,0.00011145730814447752,4.9603780110540896e-05,-4.3573180102951525e-06,0.0008830871417852434,0.00027104421583249686,0.0005753194469953161,0.00042542171137233484,0.00018796070953885403,-0.00035368912988553854,0.0007292164377509988,0.3514034152030945,19.868005752563477,0.3990752398967743,-20.082735061645508,-0.7015891671180725,-2.4566683769226074,0.25485557317733765,0
67,0.32999300956726074,-0.4029781222343445,-19.844202041625977,-0.3475005328655243,20.082735061645508,0.6951804757118225,2.4566683769226074,-0.28232139348983765,0.0,0.0,0.0,0.0,0.0,0.0,0.0,-0.40713579211644707,-0.12319122030834047,-0.22697626110819344,0.287956814381411,0.11661119135523387,0.09309647832316471,-0.2729389362486405,1.213672426085723,-0.22007591776053112,-0.0074186184771369,-2.6036896930775146,-0.10899467231829961,2.468132522000207,0.8264826299170268,1.2134413937687574,-0.2202432315892585,-0.0075118285948192216,-2.6038483821997875,-0.10888392708698907,2.4681821257803174,0.826474908251239,-7.614470907397778e-05,-0.0006157785120294012,-0.001779639394534841,-0.0004461776440241953,0.00013872071950333007,9.681646846725083e-05,0.000598017002956186,0.0,0.0,0.0,0.0,0.0,0.0,0.0,-0.0002310323169656403,-0.00016731382872736678,-9.321011768232117e-05,-0.00015868912227290366,0.0001107452313105356,4.9603780110540896e-05,-7.721665787774334e-06,7.614470907397778e-05,0.0006157785120294012,0.001779639394534841,0.0004461776440241953,-0.00013872071950333007,-9.681646846725083e-05,-0.000598017002956186,0.4029781222343445,19.844202041625977,0.3475005328655243,-20.082735061645508,-0.6951804757118225,-2.4566683769226074,0.28232139348983765,0
68,0.33495497703552246,-0.4029781222343445,-19.844202041625977,-0.3475005328655243,20.082735061645508,0.6951804757118225,2.4566683769226074,-0.28232139348983765,0.0,0.0,0.0,0.0,0.0,0.0,0.0,-0.40713579211644707,-0.12319122030834047,-0.22697626110819344,0.287956814381411,0.11661119135523387,0.09309647832316471,-0.2729389362486405,1.213672426085723,-0.22007591776053112,-0.0074186184771369,-2.6036896930775146,-0.10899467231829961,2.468132522000207,0.8264826299170268,1.2134413937687574,-0.2202432315892585,-0.0075118285948192216,-2.6038483821997875,-0.10888392708698907,2.4681821257803174,0.826474908251239,-7.614470907397778e-05,-0.0006157785120294012,-0.001779639394534841,-0.0004461776440241953,0.00013872071950333007,9.681646846725083e-05,0.000598017002956186,0.0,0.0,0.0,0.0,0.0,0.0,0.0,-0.0002310323169656403,-0.00016731382872736678,-9.321011768232117e-05,-0.00015868912227290366,0.0001107452313105356,4.9603780110540896e-05,-7.721665787774334e-06,7.614470907397778e-05,0.0006157785120294012,0.001779639394534841,0.0004461776440241953,-0.00013872071950333007,-9.681646846725083e-05,-0.000598017002956186,0.4029781222343445,19.844202041625977,0.3475005328655243,-20.082735061645508,-0.6951804757118225,-2.4566683769226074,0.28232139348983765,0
69,0.3400132656097412,-0.4267818331718445,-19.844202041625977,-0.4704863727092743,20.054964065551758,0.7015891671180725,2.4630770683288574,-0.31711143255233765,0.0,0.0,0.0,0.0,0.0,0.0,0.0,-0.4013873712068482,-0.12576042440321053,-0.21955511799293556,0.2905877428249904,0.11580223617142263,0.09233447045418648,-0.27278058501699104,1.2136740965215784,-0.22007592067671627,-0.007409987743095501,-2.6036856779466593,-0.10899538488342456,2.468131809923384,0.8264830035126444,1.2134413937687574,-0.2202432315892585,-0.0075118285948192216,-2.6038483821997875,-0.10888392708698907,2.4681821257803174,0.826474908251239,0.0010611680714904743,-0.0005994807949579305,0.0013622536569900545,0.00012289650459512227,-6.834122843269685e-05,4.891748451129861e-05,0.0019017501971690875,0.0,0.0,0.0,0.0,0.0,0.0,0.0,-0.0002327027528210568,-0.0001673109125422123,-0.00010184085172372081,-0.0001627042531282541,0.00011145779643548237,5.031585693338059e-05,-8.09526140532757e-06,-0.0010611680714904743,0.0005994807949579305,-0.0013622536569900545,-0.00012289650459512227,6.834122843269685e-05,-4.891748451129861e-05,-0.0019017501971690875,0.4267818331718445,19.844202041625977,0.4704863727092743,-20.054964065551758,-0.7015891671180725,-2.4630770683288574,0.31711143255233765,0
70,0.3450005054473877,-0.4267818331718445,-19.844202041625977,-0.4704863727092743,20.054964065551758,0.7015891671180725,2.4630770683288574,-0.31711143255233765,0.0,0.0,0.0,0.0,0.0,0.0,0.0,-0.4013873712068482,-0.12576042440321053,-0.21955511799293556,0.2905877428249904,0.11580223617142263,0.09233447045418648,-0.27278058501699104,1.2136740965215784,-0.22007592067671627,-0.007409987743095501,-2.6036856779466593,-0.10899538488342456,2.468131809923384,0.8264830035126444,1.2134413937687574,-0.2202432315892585,-0.0075118285948192216,-2.6038483821997875,-0.10888392708698907,2.4681821257803174,0.826474908251239,0.0010611680714904743,-0.0005994807949579305,0.0013622536569900545,0.00012289650459512227,-6.834122843269685e-05,4.891748451129861e-05,0.0019017501971690875,0.0,0.0,0.0,0.0,0.0,0.0,0.0,-0.0002327027528210568,-0.0001673109125422123,-0.00010184085172372081,-0.0001627042531282541,0.00011145779643548237,5.031585693338059e-05,-8.09526140532757e-06,-0.0010611680714904743,0.0005994807949579305,-0.0013622536569900545,-0.00012289650459512227,6.834122843269685e-05,-4.891748451129861e-05,-0.0019017501971690875,0.4267818331718445,19.844202041625977,0.4704863727092743,-20.054964065551758,-0.7015891671180725,-2.4630770683288574,0.31711143255233765,0
71,0.34999990463256836,-0.4029781222343445,-19.844202041625977,-0.3990752398967743,20.054964065551758,0.7015891671180725,2.4630770683288574,-0.29605430364608765,0.0,0.0,0.0,0.0,0.0,0.0,0.0,-0.4049067417788325,-0.12447062594900246,-0.2234256811871915,0.2911868725530791,0.11553818666893953,0.09195261020102957,-0.2726740170689004,1.213672426085723,-0.2200759177605805,-0.007417394586219987,-2.6036876667317905,-0.10899538439513079,2.468131809923384,0.8264838432247985,1.2134413937687574,-0.2202432315892585,-0.0075118285948192216,-2.6038483821997875,-0.10888392708698907,2.4681821257803174,0.826474908251239,-0.00022946574639044775,-0.00021319488178364775,-0.0004269632772421846,0.00021829200827697462,-4.459784214023648e-05,4.307232361178125e-05,0.0005259218919398007,0.0,0.0,0.0,0.0,0.0,0.0,0.0,-0.0002310323169656403,-0.0001673138286779896,-9.443400859923418e-05,-0.00016071546799700798,0.00011145730814171584,5.031585693338059e-05,-8.93497355947126e-06,0.00022946574639044775,0.00021319488178364775,0.0004269632772421846,-0.00021829200827697462,4.459784214023648e-05,-4.307232361178125e-05,-0.0005259218919398007,0.4029781222343445,19.844202041625977,0.3990752398967743,-20.054964065551758,-0.7015891671180725,-2.4630770683288574,0.29605430364608765,0
72,0.354996919631958,-0.4029781222343445,-19.844202041625977,-0.3990752398967743,20.054964065551758,0.7015891671180725,2.4630770683288574,-0.29605430364608765,0.0,0.0,0.0,0.0,0.0,0.0,0.0,-0.4049067417788325,-0.12447062594900246,-0.2234256811871915,0.2911868725530791,0.11553818666893953,0.09195261020102957,-0.2726740170689004,1.213672426085723,-0.2200759177605805,-0.007417394586219987,-2.6036876667317905,-0.10899538439513079,2.468131809923384,0.8264838432247985,1.2134413937687574,-0.2202432315892585,-0.0075118285948192216,-2.6038483821997875,-0.10888392708698907,2.4681821257803174,0.826474908251239,-0.00022946574639044775,-0.00021319488178364775,-0.0004269632772421846,0.00021829200827697462,-4.459784214023648e-05,4.307232361178125e-05,0.0005259218919398007,0.0,0.0,0.0,0.0,0.0,0.0,0.0,-0.0002310323169656403,-0.0001673138286779896,-9.443400859923418e-05,-0.00016071546799700798,0.00011145730814171584,5.031585693338059e-05,-8.93497355947126e-06,0.00022946574639044775,0.00021319488178364775,0.0004269632772421846,-0.00021829200827697462,4.459784214023648e-05,-4.307232361178125e-05,-0.0005259218919398007,0.4029781222343445,19.844202041625977,0.3990752398967743,-20.054964065551758,-0.7015891671180725,-2.4630770683288574,0.29605430364608765,0
73,0.35999345779418945,-0.4505855441093445,-19.915613174438477,-0.4466826617717743,20.082735061645508,0.6951804757118225,2.4630770683288574,-0.27591270208358765,0.0,0.0,0.0,0.0,0.0,0.0,0.0,-0.40854821417938064,-0.12403276466622333,-0.227924604095672,0.2914764599269121,0.11652235143281367,0.0921228112419857,-0.2732096111137558,1.2136757669574336,-0.22007090645296531,-0.007411894262394342,-2.603689684579428,-0.10899467231829961,2.468131809923384,0.8264819584871052,1.2134413937687574,-0.2202432315892585,-0.0075118285948192216,-2.6038483821997875,-0.10888392708698907,2.4681821257803174,0.826474908251239,0.0007214800094970594,0.001143359499571752,0.0005620644691006601,-0.00033512611855119543,-0.00044372483372092275,-2.469464467537065e-05,0.0006627788324069405,0.0,0.0,0.0,0.0,0.0,0.0,0.0,-0.00023437318867625123,-0.00017232513629317214,-9.99343324248796e-05,-0.00015869762035958246,0.0001107452313105356,5.031585693338059e-05,-7.050235866112864e-06,-0.0007214800094970594,-0.001143359499571752,-0.0005620644691006601,0.00033512611855119543,0.00044372483372092275,2.469464467537065e-05,-0.0006627788324069405,0.4505855441093445,19.915613174438477,0.4466826617717743,-20.082735061645508,-0.6951804757118225,-2.4630770683288574,0.27591270208358765,0
74,0.3649561405181885,-0.4505855441093445,-19.915613174438477,-0.4466826617717743,20.082735061645508,0.6951804757118225,2.4630770683288574,-0.27591270208358765,0.0,0.0,0.0,0.0,0.0,0.0,0.0,-0.40854821417938064,-0.12403276466622333,-0.227924604095672,0.2914764599269121,0.11652235143281367,0.0921228112419857,-0.2732096111137558,1.2136757669574336,-0.22007090645296531,-0.007411894262394342,-2.603689684579428,-0.10899467231829961,2.468131809923384,0.8264819584871052,1.2134413937687574,-0.2202432315892585,-0.0075118285948192216,-2.6038483821997875,-0.10888392708698907,2.4681821257803174,0.826474908251239,0.0007214800094970594,0.001143359499571752,0.0005620644691006601,-0.00033512611855119543,-0.00044372483372092275,-2.469464467537065e-05,0.0006627788324069405,0.0,0.0,0.0,0.0,0.0,0.0,0.0,-0.00023437318867625123,-0.00017232513629317214,-9.99343324248796e-05,-0.00015869762035958246,0.0001107452313105356,5.031585693338059e-05,-7.050235866112864e-06,-0.0007214800094970594,-0.001143359499571752,-0.0005620644691006601,0.00033512611855119543,0.00044372483372092275,2.469464467537065e-05,-0.0006627788324069405,0.4505855441093445,19.915613174438477,0.4466826617717743,-20.082735061645508,-0.6951804757118225,-2.4630770683288574,0.27591270208358765,0
75,0.3699967861175537,-0.4505855441093445,-19.891809463500977,-0.4228789508342743,20.007356643676758,0.7070823311805725,2.4758944511413574,-0.30337852239608765,0.0,0.0,0.0,0.0,0.0,0.0,0.0,-0.4125673861311275,-0.1152408390129603,-0.23044819353296397,0.28447349394156657,0.11652588792096975,0.09124566627280337,-0.272183079302044,1.2136757669574336,-0.2200725768888206,-0.007413356870351859,-2.6036837051562967,-0.10899599474668503,2.4681303857697383,0.8264850101379111,1.2134413937687574,-0.2202432315892585,-0.0075118285948192216,-2.6038483821997875,-0.10888392708698907,2.4681821257803174,0.826474908251239,0.00030752788789501444,0.0008787375495785106,-0.0005679421596296274,0.001147567747489196,1.5496954547244045e-05,-0.00034262885603573013,0.0012813134328228312,0.0,0.0,0.0,0.0,0.0,0.0,0.0,-0.00023437318867625123,-0.00017065470043789444,-9.847172446736299e-05,-0.00016467704349087953,0.000112067659695958,5.174001057905997e-05,-1.0101886672053695e-05,-0.00030752788789501444,-0.0008787375495785106,0.0005679421596296274,-0.001147567747489196,-1.5496954547244045e-05,0.00034262885603573013,-0.0012813134328228312,0.4505855441093445,19.891809463500977,0.4228789508342743,-20.007356643676758,-0.7070823311805725,-2.4758944511413574,0.30337852239608765,0
76,0.37500882148742676,-0.4505855441093445,-19.891809463500977,-0.4228789508342743,20.007356643676758,0.7070823311805725,2.4758944511413574,-0.30337852239608765,0.0,0.0,0.0,0.0,0.0,0.0,0.0,-0.4125673861311275,-0.1152408390129603,-0.23044819353296397,0.28447349394156657,0.11652588792096975,0.09124566627280337,-0.272183079302044,1.2136757669574336,-0.2200725768888206,-0.007413356870351859,-2.6036837051562967,-0.10899599474668503,2.4681303857697383,0.8264850101379111,1.2134413937687574,-0.2202432315892585,-0.0075118285948192216,-2.6038483821997875,-0.10888392708698907,2.4681821257803174,0.826474908251239,0.00030752788789501444,0.0008787375495785106,-0.0005679421596296274,0.001147567747489196,1.5496954547244045e-05,-0.00034262885603573013,0.0012813134328228312,0.0,0.0,0.0,0.0,0.0,0.0,0.0,-0.00023437318867625123,-0.00017065470043789444,-9.847172446736299e-05,-0.00016467704349087953,0.000112067659695958,5.174001057905997e-05,-1.0101886672053695e-05,-0.00030752788789501444,-0.0008787375495785106,0.0005679421596296274,-0.001147567747489196,-1.5496954547244045e-05,0.00034262885603573013,-0.0012813134328228312,0.4505855441093445,19.891809463500977,0.4228789508342743,-20.007356643676758,-0.7070823311805725,-2.4758944511413574,0.30337852239608765,0
77,0.3799715042114258,-0.4505855441093445,-19.844202041625977,-0.4228789508342743,20.082735061645508,0.7134910225868225,2.4694857597351074,-0.26217979192733765,0.0,0.0,0.0,0.0,0.0,0.0,0.0,-0.41164112866834657,-0.12473360137131058,-0.22716937020198633,0.2902596148757051,0.11652558196278863,0.09383513188497573,-0.2732692539745554,1.2136757669574336,-0.22007591776053112,-0.007413327640663737,-2.6036896920317423,-0.10899670682350794,2.468131097846561,0.8264802754998214,1.2134413937687574,-0.2202432315892585,-0.0075118285948192216,-2.6038483821997875,-0.10888392708698907,2.4681821257803174,0.826474908251239,0.0006656556021125672,-0.0007404114651656486,-0.0008799227643093461,-2.7608264947045556e-05,-1.634407532084337e-05,2.727418999406516e-05,-0.0009907400997360297,0.0,0.0,0.0,0.0,0.0,0.0,0.0,-0.00023437318867625123,-0.00016731382872736678,-9.850095415548429e-05,-0.00015869016804526126,0.00011277973651886708,5.102793375622028e-05,-5.367248582355266e-06,-0.0006656556021125672,0.0007404114651656486,0.0008799227643093461,2.7608264947045556e-05,1.634407532084337e-05,-2.727418999406516e-05,0.0009907400997360297,0.4505855441093445,19.844202041625977,0.4228789508342743,-20.082735061645508,-0.7134910225868225,-2.4694857597351074,0.26217979192733765,0
78,0.38500404357910156,-0.4505855441093445,-19.844202041625977,-0.4228789508342743,20.082735061645508,0.7134910225868225,2.4694857597351074,-0.26217979192733765,0.0,0.0,0.0,0.0,0.0,0.0,0.0,-0.41164112866834657,-0.12473360137131058,-0.22716937020198633,0.2902596148757051,0.11652558196278863,0.09383513188497573,-0.2732692539745554,1.2136757669574336,-0.22007591776053112,-0.007413327640663737,-2.6036896920317423,-0.10899670682350794,2.468131097846561,0.8264802754998214,1.2134413937687574,-0.2202432315892585,-0.0075118285948192216,-2.6038483821997875,-0.10888392708698907,2.4681821257803174,0.826474908251239,0.0006656556021125672,-0.0007404114651656486,-0.0008799227643093461,-2.7608264947045556e-05,-1.634407532084337e-05,2.727418999406516e-05,-0.0009907400997360297,0.0,0.0,0.0,0.0,0.0,0.0,0.0,-0.00023437318867625123,-0.00016731382872736678,-9.850095415548429e-05,-0.00015869016804526126,0.00011277973651886708,5.102793375622028e-05,-5.367248582355266e-06,-0.0006656556021125672,0.0007404114651656486,0.0008799227643093461,2.7608264947045556e-05,1.634407532084337e-05,-2.727418999406516e-05,0.0009907400997360297,0.4505855441093445,19.844202041625977,0.4228789508342743,-20.082735061645508,-0.7134910225868225,-2.4694857597351074,0.26217979192733765,0
79,0.3900430202484131,-0.3514034152030945,-19.816431045532227,-0.4228789508342743,20.106538772583008,0.7070823311805725,2.4630770683288574,-0.22098104655742645,0.0,0.0,0.0,0.0,0.0,0.0,0.0,-0.4133227906565791,-0.1075898492296769,-0.2283091812866538,0.28174078316003426,0.11703648273362056,0.09334184009417347,-0.27413052724174736,1.2136688068080366,-0.2200778695185474,-0.007415458196218599,-2.603689294354924,-0.10899599474668503,2.468131809923384,0.8264758375808343,1.2134413937687574,-0.2202432315892585,-0.0075118285948192216,-2.6038483821997875,-0.10888392708698907,2.4681821257803174,0.826474908251239,-0.0016517122110250007,-0.0002307179698935438,0.00010145550211575538,-0.0008564850954587429,-8.921930908244126e-05,0.00016847923717492588,-0.001953413017740239,0.0,0.0,0.0,0.0,0.0,0.0,0.0,-0.00022741303927920065,-0.0001653620707110781,-9.637039860062226e-05,-0.00015908784486340366,0.000112067659695958,5.031585693338059e-05,-9.293295952783609e-07,0.0016517122110250007,0.0002307179698935438,-0.00010145550211575538,0.0008564850954587429,8.921930908244126e-05,-0.00016847923717492588,0.001953413017740239,0.3514034152030945,19.816431045532227,0.4228789508342743,-20.106538772583008,-0.7070823311805725,-2.4630770683288574,0.22098104655742645,0
