rezayati/contactInterpretation/dataset/franka_main/labeled_data/link6/b14_5.csv
index,time,tau_J0,tau_J1,tau_J2,tau_J3,tau_J4,tau_J5,tau_J6,tau_J_d0,tau_J_d1,tau_J_d2,tau_J_d3,tau_J_d4,tau_J_d5,tau_J_d6,tau_ext0,tau_ext1,tau_ext2,tau_ext3,tau_ext4,tau_ext5,tau_ext6,q0,q1,q2,q3,q4,q5,q6,q_d0,q_d1,q_d2,q_d3,q_d4,q_d5,q_d6,dq0,dq1,dq2,dq3,dq4,dq5,dq6,dq_d0,dq_d1,dq_d2,dq_d3,dq_d4,dq_d5,dq_d6,e0,e1,e2,e3,e4,e5,e6,de0,de1,de2,de3,de4,de5,de6,etau_J0,etau_J1,etau_J2,etau_J3,etau_J4,etau_J5,etau_J6,label
1,0.0,-0.8354122042655945,-46.64718246459961,-5.810451984405518,19.459871292114258,0.7903953194618225,2.3724398612976074,-0.39950889348983765,0.0,0.0,0.0,0.0,0.0,0.0,0.0,-0.8311840941206756,-0.338022258579105,-0.5991243667042758,0.2410243610299217,0.20015021234432778,0.1116841690309218,-0.41958100123697384,0.8780805213033107,0.75543201349791,-0.2824966653062586,-1.6687803894344126,0.1413274657341845,2.4034186098672428,1.0273657285306186,0.878092876070424,0.7554597494309409,-0.2825552651693207,-1.6690993614607135,0.1414185955172306,2.4034451173676383,1.0273381002308042,2.89336144233409e-05,-0.0001794221804840386,0.0011172404025531055,-0.00032854570233007996,-0.00028448906898587145,0.00011437797954380748,-0.0011546657617837535,0.0,0.0,0.0,0.0,0.0,0.0,0.0,1.2354767113254006e-05,2.773593303084798e-05,-5.859986306211429e-05,-0.00031897202630082333,9.112978304609554e-05,2.6507500395567263e-05,-2.7628299814397295e-05,-2.89336144233409e-05,0.0001794221804840386,-0.0011172404025531055,0.00032854570233007996,0.00028448906898587145,-0.00011437797954380748,0.0011546657617837535,0.8354122042655945,46.64718246459961,5.810451984405518,-19.459871292114258,-0.7903953194618225,-2.3724398612976074,0.39950889348983765,0
2,0.005025386810302734,-0.8354122042655945,-46.64718246459961,-5.810451984405518,19.459871292114258,0.7903953194618225,2.3724398612976074,-0.39950889348983765,0.0,0.0,0.0,0.0,0.0,0.0,0.0,-0.8311840941206756,-0.338022258579105,-0.5991243667042758,0.2410243610299217,0.20015021234432778,0.1116841690309218,-0.41958100123697384,0.8780805213033107,0.75543201349791,-0.2824966653062586,-1.6687803894344126,0.1413274657341845,2.4034186098672428,1.0273657285306186,0.878092876070424,0.7554597494309409,-0.2825552651693207,-1.6690993614607135,0.1414185955172306,2.4034451173676383,1.0273381002308042,2.89336144233409e-05,-0.0001794221804840386,0.0011172404025531055,-0.00032854570233007996,-0.00028448906898587145,0.00011437797954380748,-0.0011546657617837535,0.0,0.0,0.0,0.0,0.0,0.0,0.0,1.2354767113254006e-05,2.773593303084798e-05,-5.859986306211429e-05,-0.00031897202630082333,9.112978304609554e-05,2.6507500395567263e-05,-2.7628299814397295e-05,-2.89336144233409e-05,0.0001794221804840386,-0.0011172404025531055,0.00032854570233007996,0.00028448906898587145,-0.00011437797954380748,0.0011546657617837535,0.8354122042655945,46.64718246459961,5.810451984405518,-19.459871292114258,-0.7903953194618225,-2.3724398612976074,0.39950889348983765,0
3,0.009963750839233398,-0.8076412081718445,-46.69875717163086,-5.762844562530518,19.436067581176758,0.7849021553993225,2.3724398612976074,-0.43338340520858765,0.0,0.0,0.0,0.0,0.0,0.0,0.0,-0.8256863765585256,-0.35217837980335226,-0.5974990583276142,0.24899577044682505,0.20008796439242596,0.11219877163223389,-0.41968239908610266,0.8780785724614796,0.7554358667547991,-0.28250000617796917,-1.6687787193377193,0.14133130134195918,2.403417196965227,1.0273694880046034,0.878092876070424,0.7554597494309409,-0.2825552651693207,-1.6690993614607135,0.1414185955172306,2.4034451173676383,1.0273381002308042,-0.0001395905569823978,0.0004625385568339658,-0.00041902723323106487,0.0002819480324621234,-3.255225999776531e-05,0.0002256601877970755,0.0011171600085543645,0.0,0.0,0.0,0.0,0.0,0.0,0.0,1.4303608944388202e-05,2.3882676141728787e-05,-5.525899135155887e-05,-0.000320642122994208,8.729417527142402e-05,2.7920402411396594e-05,-3.1387773799185226e-05,0.0001395905569823978,-0.0004625385568339658,0.00041902723323106487,-0.0002819480324621234,3.255225999776531e-05,-0.0002256601877970755,-0.0011171600085543645,0.8076412081718445,46.69875717163086,5.762844562530518,-19.436067581176758,-0.7849021553993225,-2.3724398612976074,0.43338340520858765,0
4,0.014949321746826172,-0.8076412081718445,-46.69875717163086,-5.762844562530518,19.436067581176758,0.7849021553993225,2.3724398612976074,-0.43338340520858765,0.0,0.0,0.0,0.0,0.0,0.0,0.0,-0.8256863765585256,-0.35217837980335226,-0.5974990583276142,0.24899577044682505,0.20008796439242596,0.11219877163223389,-0.41968239908610266,0.8780785724614796,0.7554358667547991,-0.28250000617796917,-1.6687787193377193,0.14133130134195918,2.403417196965227,1.0273694880046034,0.878092876070424,0.7554597494309409,-0.2825552651693207,-1.6690993614607135,0.1414185955172306,2.4034451173676383,1.0273381002308042,-0.0001395905569823978,0.0004625385568339658,-0.00041902723323106487,0.0002819480324621234,-3.255225999776531e-05,0.0002256601877970755,0.0011171600085543645,0.0,0.0,0.0,0.0,0.0,0.0,0.0,1.4303608944388202e-05,2.3882676141728787e-05,-5.525899135155887e-05,-0.000320642122994208,8.729417527142402e-05,2.7920402411396594e-05,-3.1387773799185226e-05,0.0001395905569823978,-0.0004625385568339658,0.00041902723323106487,-0.0002819480324621234,3.255225999776531e-05,-0.0002256601877970755,-0.0011171600085543645,0.8076412081718445,46.69875717163086,5.762844562530518,-19.436067581176758,-0.7849021553993225,-2.3724398612976074,0.43338340520858765,0
5,0.0200040340423584,-0.8592159152030945,-46.64718246459961,-5.762844562530518,19.436067581176758,0.7849021553993225,2.3852572441101074,-0.39950889348983765,0.0,0.0,0.0,0.0,0.0,0.0,0.0,-0.8319026087653955,-0.35027259110662917,-0.6031808555821763,0.247420125259475,0.20013823590786745,0.11190825959211648,-0.4182829848689108,0.878082191739166,0.7554322474062212,-0.28250000617796917,-1.6687787281559259,0.14133142606873686,2.4034157728089225,1.0273657285305942,0.878092876070424,0.7554597494309409,-0.2825552651693207,-1.6690993614607135,0.1414185955172306,2.4034451173676383,1.0273381002308042,0.0005530481802217043,-0.0012136545002682183,7.05268845504649e-05,0.00040340719904133023,-7.601090917980787e-05,-0.00013356230920374935,-0.0011526454466069694,0.0,0.0,0.0,0.0,0.0,0.0,0.0,1.0684331257948543e-05,2.7502024719683327e-05,-5.525899135155887e-05,-0.00032063330478759866,8.71694484937402e-05,2.9344558715838076e-05,-2.7628299789972388e-05,-0.0005530481802217043,0.0012136545002682183,-7.05268845504649e-05,-0.00040340719904133023,7.601090917980787e-05,0.00013356230920374935,0.0011526454466069694,0.8592159152030945,46.64718246459961,5.762844562530518,-19.436067581176758,-0.7849021553993225,-2.3852572441101074,0.39950889348983765,0
6,0.025012731552124023,-0.8592159152030945,-46.64718246459961,-5.762844562530518,19.436067581176758,0.7849021553993225,2.3852572441101074,-0.39950889348983765,0.0,0.0,0.0,0.0,0.0,0.0,0.0,-0.8319026087653955,-0.35027259110662917,-0.6031808555821763,0.247420125259475,0.20013823590786745,0.11190825959211648,-0.4182829848689108,0.878082191739166,0.7554322474062212,-0.28250000617796917,-1.6687787281559259,0.14133142606873686,2.4034157728089225,1.0273657285305942,0.878092876070424,0.7554597494309409,-0.2825552651693207,-1.6690993614607135,0.1414185955172306,2.4034451173676383,1.0273381002308042,0.0005530481802217043,-0.0012136545002682183,7.05268845504649e-05,0.00040340719904133023,-7.601090917980787e-05,-0.00013356230920374935,-0.0011526454466069694,0.0,0.0,0.0,0.0,0.0,0.0,0.0,1.0684331257948543e-05,2.7502024719683327e-05,-5.525899135155887e-05,-0.00032063330478759866,8.71694484937402e-05,2.9344558715838076e-05,-2.7628299789972388e-05,-0.0005530481802217043,0.0012136545002682183,-7.05268845504649e-05,-0.00040340719904133023,7.601090917980787e-05,0.00013356230920374935,0.0011526454466069694,0.8592159152030945,46.64718246459961,5.762844562530518,-19.436067581176758,-0.7849021553993225,-2.3852572441101074,0.39950889348983765,0
7,0.029949426651000977,-0.8592159152030945,-46.64718246459961,-5.762844562530518,19.436067581176758,0.7849021553993225,2.3852572441101074,-0.39950889348983765,0.0,0.0,0.0,0.0,0.0,0.0,0.0,-0.8319026087653955,-0.35027259110662917,-0.6031808555821763,0.247420125259475,0.20013823590786745,0.11190825959211648,-0.4182829848689108,0.878082191739166,0.7554322474062212,-0.28250000617796917,-1.6687787281559259,0.14133142606873686,2.4034157728089225,1.0273657285305942,0.878092876070424,0.7554597494309409,-0.2825552651693207,-1.6690993614607135,0.1414185955172306,2.4034451173676383,1.0273381002308042,0.0005530481802217043,-0.0012136545002682183,7.05268845504649e-05,0.00040340719904133023,-7.601090917980787e-05,-0.00013356230920374935,-0.0011526454466069694,0.0,0.0,0.0,0.0,0.0,0.0,0.0,1.0684331257948543e-05,2.7502024719683327e-05,-5.525899135155887e-05,-0.00032063330478759866,8.71694484937402e-05,2.9344558715838076e-05,-2.7628299789972388e-05,-0.0005530481802217043,0.0012136545002682183,-7.05268845504649e-05,-0.00040340719904133023,7.601090917980787e-05,0.00013356230920374935,0.0011526454466069694,0.8592159152030945,46.64718246459961,5.762844562530518,-19.436067581176758,-0.7849021553993225,-2.3852572441101074,0.39950889348983765,0
8,0.03499937057495117,-0.8592159152030945,-46.64718246459961,-5.762844562530518,19.436067581176758,0.7849021553993225,2.3852572441101074,-0.39950889348983765,0.0,0.0,0.0,0.0,0.0,0.0,0.0,-0.8319026087653955,-0.35027259110662917,-0.6031808555821763,0.247420125259475,0.20013823590786745,0.11190825959211648,-0.4182829848689108,0.878082191739166,0.7554322474062212,-0.28250000617796917,-1.6687787281559259,0.14133142606873686,2.4034157728089225,1.0273657285305942,0.878092876070424,0.7554597494309409,-0.2825552651693207,-1.6690993614607135,0.1414185955172306,2.4034451173676383,1.0273381002308042,0.0005530481802217043,-0.0012136545002682183,7.05268845504649e-05,0.00040340719904133023,-7.601090917980787e-05,-0.00013356230920374935,-0.0011526454466069694,0.0,0.0,0.0,0.0,0.0,0.0,0.0,1.0684331257948543e-05,2.7502024719683327e-05,-5.525899135155887e-05,-0.00032063330478759866,8.71694484937402e-05,2.9344558715838076e-05,-2.7628299789972388e-05,-0.0005530481802217043,0.0012136545002682183,-7.05268845504649e-05,-0.00040340719904133023,7.601090917980787e-05,0.00013356230920374935,0.0011526454466069694,0.8592159152030945,46.64718246459961,5.762844562530518,-19.436067581176758,-0.7849021553993225,-2.3852572441101074,0.39950889348983765,0
9,0.04000115394592285,-0.8076412081718445,-46.69875717163086,-5.762844562530518,19.459871292114258,0.7730002999305725,2.3788485527038574,-0.42605918645858765,0.0,0.0,0.0,0.0,0.0,0.0,0.0,-0.7383910962701842,-0.33044058892296174,-0.5279852543954905,0.24553740768029667,0.1980414596912728,0.11052974688343581,-0.4185259033053354,0.8780785724614796,0.7554358667908889,-0.28250000617796917,-1.6687811403398656,0.1413290832952381,2.4034164848857458,1.0273686785631708,0.878092876070424,0.7554597494309409,-0.2825552651693207,-1.6690993614607135,0.1414185955172306,2.4034451173676383,1.0273381002308042,9.006669397996433e-05,0.00033641336591444423,-0.001997420198575743,0.00014584132982686394,0.00023921502438017112,-9.55266332461919e-06,0.0006937236812925292,0.0,0.0,0.0,0.0,0.0,0.0,0.0,1.4303608944388202e-05,2.388264005193097e-05,-5.525899135155887e-05,-0.00031822112084789467,8.951222199249376e-05,2.8632481892554296e-05,-3.057833236663754e-05,-9.006669397996433e-05,-0.00033641336591444423,0.001997420198575743,-0.00014584132982686394,-0.00023921502438017112,9.55266332461919e-06,-0.0006937236812925292,0.8076412081718445,46.69875717163086,5.762844562530518,-19.459871292114258,-0.7730002999305725,-2.3788485527038574,0.42605918645858765,0
10,0.04501843452453613,-0.8076412081718445,-46.69875717163086,-5.762844562530518,19.459871292114258,0.7730002999305725,2.3788485527038574,-0.42605918645858765,0.0,0.0,0.0,0.0,0.0,0.0,0.0,-0.7383910962701842,-0.33044058892296174,-0.5279852543954905,0.24553740768029667,0.1980414596912728,0.11052974688343581,-0.4185259033053354,0.8780785724614796,0.7554358667908889,-0.28250000617796917,-1.6687811403398656,0.1413290832952381,2.4034164848857458,1.0273686785631708,0.878092876070424,0.7554597494309409,-0.2825552651693207,-1.6690993614607135,0.1414185955172306,2.4034451173676383,1.0273381002308042,9.006669397996433e-05,0.00033641336591444423,-0.001997420198575743,0.00014584132982686394,0.00023921502438017112,-9.55266332461919e-06,0.0006937236812925292,0.0,0.0,0.0,0.0,0.0,0.0,0.0,1.4303608944388202e-05,2.388264005193097e-05,-5.525899135155887e-05,-0.00031822112084789467,8.951222199249376e-05,2.8632481892554296e-05,-3.057833236663754e-05,-9.006669397996433e-05,-0.00033641336591444423,0.001997420198575743,-0.00014584132982686394,-0.00023921502438017112,9.55266332461919e-06,-0.0006937236812925292,0.8076412081718445,46.69875717163086,5.762844562530518,-19.459871292114258,-0.7730002999305725,-2.3788485527038574,0.42605918645858765,0
11,0.05000591278076172,-0.8076412081718445,-46.67495346069336,-5.762844562530518,19.459871292114258,0.7849021553993225,2.3788485527038574,-0.41965049505233765,0.0,0.0,0.0,0.0,0.0,0.0,0.0,-0.8342618421485621,-0.3319083955584373,-0.6071998692382777,0.23912539963524537,0.19926803770186827,0.11113810489531459,-0.41917478002374164,0.8780807182286915,0.7554341963550499,-0.28250000617796917,-1.668780389434465,0.14133143769610407,2.4034164848857458,1.0273679664863478,0.878092876070424,0.7554597494309409,-0.2825552651693207,-1.6690993614607135,0.1414185955172306,2.4034451173676383,1.0273381002308042,-0.000425207829034126,0.0003876661845342472,1.0306676589023488e-05,-0.000316968464273576,1.334692099734306e-05,-1.3642822799328913e-05,2.2534549475509805e-05,0.0,0.0,0.0,0.0,0.0,0.0,0.0,1.215784173247414e-05,2.5553075890916155e-05,-5.525899135155887e-05,-0.0003189720262484208,8.715782112653225e-05,2.8632481892554296e-05,-2.9866255543575804e-05,0.000425207829034126,-0.0003876661845342472,-1.0306676589023488e-05,0.000316968464273576,-1.334692099734306e-05,1.3642822799328913e-05,-2.2534549475509805e-05,0.8076412081718445,46.67495346069336,5.762844562530518,-19.459871292114258,-0.7849021553993225,-2.3788485527038574,0.41965049505233765,0
12,0.055001020431518555,-0.8076412081718445,-46.67495346069336,-5.762844562530518,19.459871292114258,0.7849021553993225,2.3788485527038574,-0.41965049505233765,0.0,0.0,0.0,0.0,0.0,0.0,0.0,-0.8342618421485621,-0.3319083955584373,-0.6071998692382777,0.23912539963524537,0.19926803770186827,0.11113810489531459,-0.41917478002374164,0.8780807182286915,0.7554341963550499,-0.28250000617796917,-1.668780389434465,0.14133143769610407,2.4034164848857458,1.0273679664863478,0.878092876070424,0.7554597494309409,-0.2825552651693207,-1.6690993614607135,0.1414185955172306,2.4034451173676383,1.0273381002308042,-0.000425207829034126,0.0003876661845342472,1.0306676589023488e-05,-0.000316968464273576,1.334692099734306e-05,-1.3642822799328913e-05,2.2534549475509805e-05,0.0,0.0,0.0,0.0,0.0,0.0,0.0,1.215784173247414e-05,2.5553075890916155e-05,-5.525899135155887e-05,-0.0003189720262484208,8.715782112653225e-05,2.8632481892554296e-05,-2.9866255543575804e-05,0.000425207829034126,-0.0003876661845342472,-1.0306676589023488e-05,0.000316968464273576,-1.334692099734306e-05,1.3642822799328913e-05,-2.2534549475509805e-05,0.8076412081718445,46.67495346069336,5.762844562530518,-19.459871292114258,-0.7849021553993225,-2.3788485527038574,0.41965049505233765,0
13,0.0599973201751709,-0.8354122042655945,-46.64718246459961,-5.810451984405518,19.412263870239258,0.7730002999305725,2.3660311698913574,-0.42605918645858765,0.0,0.0,0.0,0.0,0.0,0.0,0.0,-0.835374766615644,-0.3451977946414396,-0.6087199804665663,0.2473363320270515,0.19940342652764845,0.11230409137618287,-0.41851830387298594,0.8780805213073483,0.7554322475132188,-0.2824966653062586,-1.6687770486757563,0.14133260331783817,2.4034179104929416,1.0273654996487829,0.878092876070424,0.7554597494309409,-0.2825552651693207,-1.6690993614607135,0.1414185955172306,2.4034451173676383,1.0273381002308042,0.0006755791408016334,-0.0006854574030326761,0.0013159144550366033,0.001125724595537874,0.0005098516232676012,0.00021571626783682517,0.0006047273132919617,0.0,0.0,0.0,0.0,0.0,0.0,0.0,1.2354763075705932e-05,2.750191772205035e-05,-5.859986306211429e-05,-0.0003223127849572016,8.59921993924262e-05,2.7206874696705796e-05,-2.739941797869072e-05,-0.0006755791408016334,0.0006854574030326761,-0.0013159144550366033,-0.001125724595537874,-0.0005098516232676012,-0.00021571626783682517,-0.0006047273132919617,0.8354122042655945,46.64718246459961,5.810451984405518,-19.412263870239258,-0.7730002999305725,-2.3660311698913574,0.42605918645858765,0
14,0.06499576568603516,-0.8354122042655945,-46.64718246459961,-5.810451984405518,19.412263870239258,0.7730002999305725,2.3660311698913574,-0.42605918645858765,0.0,0.0,0.0,0.0,0.0,0.0,0.0,-0.835374766615644,-0.3451977946414396,-0.6087199804665663,0.2473363320270515,0.19940342652764845,0.11230409137618287,-0.41851830387298594,0.8780805213073483,0.7554322475132188,-0.2824966653062586,-1.6687770486757563,0.14133260331783817,2.4034179104929416,1.0273654996487829,0.878092876070424,0.7554597494309409,-0.2825552651693207,-1.6690993614607135,0.1414185955172306,2.4034451173676383,1.0273381002308042,0.0006755791408016334,-0.0006854574030326761,0.0013159144550366033,0.001125724595537874,0.0005098516232676012,0.00021571626783682517,0.0006047273132919617,0.0,0.0,0.0,0.0,0.0,0.0,0.0,1.2354763075705932e-05,2.750191772205035e-05,-5.859986306211429e-05,-0.0003223127849572016,8.59921993924262e-05,2.7206874696705796e-05,-2.739941797869072e-05,-0.0006755791408016334,0.0006854574030326761,-0.0013159144550366033,-0.001125724595537874,-0.0005098516232676012,-0.00021571626783682517,-0.0006047273132919617,0.8354122042655945,46.64718246459961,5.810451984405518,-19.412263870239258,-0.7730002999305725,-2.3660311698913574,0.42605918645858765,0
15,0.07000184059143066,-0.8076412081718445,-46.64718246459961,-5.762844562530518,19.487642288208008,0.7849021553993225,2.3852572441101074,-0.43979209661483765,0.0,0.0,0.0,0.0,0.0,0.0,0.0,-0.8378573916554166,-0.3437694766038034,-0.6108007656164413,0.24852269748865233,0.1997737601179528,0.11169408094012127,-0.4188386234796239,0.8780785724614796,0.7554315445399811,-0.28250000617796917,-1.6687823392937298,0.14132984203498675,2.4034157728089305,1.027370204424132,0.878092876070424,0.7554597494309409,-0.2825552651693207,-1.6690993614607135,0.1414185955172306,2.4034451173676383,1.0273381002308042,-0.00029728624259331356,-0.0005451747102525117,-0.00026583827814974836,-0.00035312657307433836,-3.2715909443475607e-05,-0.00017098405578465774,0.0010014625371961392,0.0,0.0,0.0,0.0,0.0,0.0,0.0,1.4303608944388202e-05,2.820489095978207e-05,-5.525899135155887e-05,-0.0003170221669837048,8.875348224385293e-05,2.934455870784447e-05,-3.2104193327775477e-05,0.00029728624259331356,0.0005451747102525117,0.00026583827814974836,0.00035312657307433836,3.2715909443475607e-05,0.00017098405578465774,-0.0010014625371961392,0.8076412081718445,46.64718246459961,5.762844562530518,-19.487642288208008,-0.7849021553993225,-2.3852572441101074,0.43979209661483765,0
16,0.0749979019165039,-0.8076412081718445,-46.64718246459961,-5.762844562530518,19.487642288208008,0.7849021553993225,2.3852572441101074,-0.43979209661483765,0.0,0.0,0.0,0.0,0.0,0.0,0.0,-0.8378573916554166,-0.3437694766038034,-0.6108007656164413,0.24852269748865233,0.1997737601179528,0.11169408094012127,-0.4188386234796239,0.8780785724614796,0.7554315445399811,-0.28250000617796917,-1.6687823392937298,0.14132984203498675,2.4034157728089305,1.027370204424132,0.878092876070424,0.7554597494309409,-0.2825552651693207,-1.6690993614607135,0.1414185955172306,2.4034451173676383,1.0273381002308042,-0.00029728624259331356,-0.0005451747102525117,-0.00026583827814974836,-0.00035312657307433836,-3.2715909443475607e-05,-0.00017098405578465774,0.0010014625371961392,0.0,0.0,0.0,0.0,0.0,0.0,0.0,1.4303608944388202e-05,2.820489095978207e-05,-5.525899135155887e-05,-0.0003170221669837048,8.875348224385293e-05,2.934455870784447e-05,-3.2104193327775477e-05,0.00029728624259331356,0.0005451747102525117,0.00026583827814974836,0.00035312657307433836,3.2715909443475607e-05,0.00017098405578465774,-0.0010014625371961392,0.8076412081718445,46.64718246459961,5.762844562530518,-19.487642288208008,-0.7849021553993225,-2.3852572441101074,0.43979209661483765,0
17,0.08037090301513672,-0.8592159152030945,-46.64718246459961,-5.762844562530518,19.459871292114258,0.7903953194618225,2.3852572441101074,-0.39218467473983765,0.0,0.0,0.0,0.0,0.0,0.0,0.0,-0.831323939285507,-0.336148187913614,-0.6028031647419948,0.24638821168636188,0.19956015564846774,0.11150185211411784,-0.4181830256485502,0.8780821927203124,0.7554322475118961,-0.28250000617796917,-1.6687804718507135,0.1413296397022885,2.4034157728089225,1.0273649147285353,0.878092876070424,0.7554597494309409,-0.2825552651693207,-1.6690993614607135,0.1414185955172306,2.4034451173676383,1.0273381002308042,0.0004113595762066243,-0.0006548708682800736,0.0005724288686030975,-0.0002899543297506565,-0.0001552343458006495,-0.00013068902131293386,-0.0010273703268560913,0.0,0.0,0.0,0.0,0.0,0.0,0.0,1.0683350111562184e-05,2.7501919044770062e-05,-5.525899135155887e-05,-0.0003188896099999283,8.895581494208771e-05,2.9344558715838076e-05,-2.6814497731120213e-05,-0.0004113595762066243,0.0006548708682800736,-0.0005724288686030975,0.0002899543297506565,0.0001552343458006495,0.00013068902131293386,0.0010273703268560913,0.8592159152030945,46.64718246459961,5.762844562530518,-19.459871292114258,-0.7903953194618225,-2.3852572441101074,0.39218467473983765,0
18,0.08501720428466797,-0.8592159152030945,-46.64718246459961,-5.762844562530518,19.459871292114258,0.7903953194618225,2.3852572441101074,-0.39218467473983765,0.0,0.0,0.0,0.0,0.0,0.0,0.0,-0.831323939285507,-0.336148187913614,-0.6028031647419948,0.24638821168636188,0.19956015564846774,0.11150185211411784,-0.4181830256485502,0.8780821927203124,0.7554322475118961,-0.28250000617796917,-1.6687804718507135,0.1413296397022885,2.4034157728089225,1.0273649147285353,0.878092876070424,0.7554597494309409,-0.2825552651693207,-1.6690993614607135,0.1414185955172306,2.4034451173676383,1.0273381002308042,0.0004113595762066243,-0.0006548708682800736,0.0005724288686030975,-0.0002899543297506565,-0.0001552343458006495,-0.00013068902131293386,-0.0010273703268560913,0.0,0.0,0.0,0.0,0.0,0.0,0.0,1.0683350111562184e-05,2.7501919044770062e-05,-5.525899135155887e-05,-0.0003188896099999283,8.895581494208771e-05,2.9344558715838076e-05,-2.6814497731120213e-05,-0.0004113595762066243,0.0006548708682800736,-0.0005724288686030975,0.0002899543297506565,0.0001552343458006495,0.00013068902131293386,0.0010273703268560913,0.8592159152030945,46.64718246459961,5.762844562530518,-19.459871292114258,-0.7903953194618225,-2.3852572441101074,0.39218467473983765,0
19,0.08999896049499512,-0.8354122042655945,-46.69875717163086,-5.786648273468018,19.436067581176758,0.7903953194618225,2.3916659355163574,-0.39218467473983765,0.0,0.0,0.0,0.0,0.0,0.0,0.0,-0.8277304703325777,-0.33290134968916185,-0.5954912155962853,0.24380564913753217,0.19931708002627482,0.11221783443644688,-0.4176721981238125,0.8780805213033162,0.7554358667909052,-0.28249833574211386,-1.6687787189990226,0.14132650965981935,2.403416133506016,1.0273649132749851,0.878092876070424,0.7554597494309409,-0.2825552651693207,-1.6690993614607135,0.1414185955172306,2.4034451173676383,1.0273381002308042,0.00028827730230976834,0.00102130072219965,0.00042571904293719007,0.00011119933333563365,-1.2904528744381666e-05,-0.00029545909863038026,-0.0010596711176309743,0.0,0.0,0.0,0.0,0.0,0.0,0.0,1.2354767107813913e-05,2.388264003561069e-05,-5.6929427206864336e-05,-0.0003206424616908343,9.208585741124486e-05,2.898386162231148e-05,-2.6813044180951096e-05,-0.00028827730230976834,-0.00102130072219965,-0.00042571904293719007,-0.00011119933333563365,1.2904528744381666e-05,0.00029545909863038026,0.0010596711176309743,0.8354122042655945,46.69875717163086,5.786648273468018,-19.436067581176758,-0.7903953194618225,-2.3916659355163574,0.39218467473983765,0
20,0.09499406814575195,-0.8354122042655945,-46.69875717163086,-5.786648273468018,19.436067581176758,0.7903953194618225,2.3916659355163574,-0.39218467473983765,0.0,0.0,0.0,0.0,0.0,0.0,0.0,-0.8277304703325777,-0.33290134968916185,-0.5954912155962853,0.24380564913753217,0.19931708002627482,0.11221783443644688,-0.4176721981238125,0.8780805213033162,0.7554358667909052,-0.28249833574211386,-1.6687787189990226,0.14132650965981935,2.403416133506016,1.0273649132749851,0.878092876070424,0.7554597494309409,-0.2825552651693207,-1.6690993614607135,0.1414185955172306,2.4034451173676383,1.0273381002308042,0.00028827730230976834,0.00102130072219965,0.00042571904293719007,0.00011119933333563365,-1.2904528744381666e-05,-0.00029545909863038026,-0.0010596711176309743,0.0,0.0,0.0,0.0,0.0,0.0,0.0,1.2354767107813913e-05,2.388264003561069e-05,-5.6929427206864336e-05,-0.0003206424616908343,9.208585741124486e-05,2.898386162231148e-05,-2.6813044180951096e-05,-0.00028827730230976834,-0.00102130072219965,-0.00042571904293719007,-0.00011119933333563365,1.2904528744381666e-05,0.00029545909863038026,0.0010596711176309743,0.8354122042655945,46.69875717163086,5.786648273468018,-19.436067581176758,-0.7903953194618225,-2.3916659355163574,0.39218467473983765,0
21,0.10000133514404297,-0.8076412081718445,-46.69875717163086,-5.786648273468018,19.459871292114258,0.7903953194618225,2.3724398612976074,-0.43979209661483765,0.0,0.0,0.0,0.0,0.0,0.0,0.0,-0.8262442821292807,-0.3512150225274198,-0.5973928511586081,0.2528816492023994,0.20004954275109219,0.11433772190683941,-0.4177973413663029,0.8780785724614796,0.7554358667909052,-0.28249833574211386,-1.6687811311811032,0.14133078741596186,2.4034171970224594,1.027370204442069,0.878092876070424,0.7554597494309409,-0.2825552651693207,-1.6690993614607135,0.1414185955172306,2.4034451173676383,1.0273381002308042,-0.00031764810795610344,6.324606947634113e-05,0.00027720315741117877,0.00026359041034015044,-0.00016253680822738177,0.0003215724727034303,0.001224894519336919,0.0,0.0,0.0,0.0,0.0,0.0,0.0,1.4303608944388202e-05,2.388264003561069e-05,-5.6929427206864336e-05,-0.0003182302796103098,8.780810126873817e-05,2.7920345178955586e-05,-3.210421126476071e-05,0.00031764810795610344,-6.324606947634113e-05,-0.00027720315741117877,-0.00026359041034015044,0.00016253680822738177,-0.0003215724727034303,-0.001224894519336919,0.8076412081718445,46.69875717163086,5.786648273468018,-19.459871292114258,-0.7903953194618225,-2.3724398612976074,0.43979209661483765,0
22,0.1049950122833252,-0.8076412081718445,-46.69875717163086,-5.786648273468018,19.459871292114258,0.7903953194618225,2.3724398612976074,-0.43979209661483765,0.0,0.0,0.0,0.0,0.0,0.0,0.0,-0.8262442821292807,-0.3512150225274198,-0.5973928511586081,0.2528816492023994,0.20004954275109219,0.11433772190683941,-0.4177973413663029,0.8780785724614796,0.7554358667909052,-0.28249833574211386,-1.6687811311811032,0.14133078741596186,2.4034171970224594,1.027370204442069,0.878092876070424,0.7554597494309409,-0.2825552651693207,-1.6690993614607135,0.1414185955172306,2.4034451173676383,1.0273381002308042,-0.00031764810795610344,6.324606947634113e-05,0.00027720315741117877,0.00026359041034015044,-0.00016253680822738177,0.0003215724727034303,0.001224894519336919,0.0,0.0,0.0,0.0,0.0,0.0,0.0,1.4303608944388202e-05,2.388264003561069e-05,-5.6929427206864336e-05,-0.0003182302796103098,8.780810126873817e-05,2.7920345178955586e-05,-3.210421126476071e-05,0.00031764810795610344,-6.324606947634113e-05,-0.00027720315741117877,-0.00026359041034015044,0.00016253680822738177,-0.0003215724727034303,-0.001224894519336919,0.8076412081718445,46.69875717163086,5.786648273468018,-19.459871292114258,-0.7903953194618225,-2.3724398612976074,0.43979209661483765,0
23,0.10999679565429688,-0.8076412081718445,-46.69875717163086,-5.786648273468018,19.459871292114258,0.7903953194618225,2.3724398612976074,-0.43979209661483765,0.0,0.0,0.0,0.0,0.0,0.0,0.0,-0.8262442821292807,-0.3512150225274198,-0.5973928511586081,0.2528816492023994,0.20004954275109219,0.11433772190683941,-0.4177973413663029,0.8780785724614796,0.7554358667909052,-0.28249833574211386,-1.6687811311811032,0.14133078741596186,2.4034171970224594,1.027370204442069,0.878092876070424,0.7554597494309409,-0.2825552651693207,-1.6690993614607135,0.1414185955172306,2.4034451173676383,1.0273381002308042,-0.00031764810795610344,6.324606947634113e-05,0.00027720315741117877,0.00026359041034015044,-0.00016253680822738177,0.0003215724727034303,0.001224894519336919,0.0,0.0,0.0,0.0,0.0,0.0,0.0,1.4303608944388202e-05,2.388264003561069e-05,-5.6929427206864336e-05,-0.0003182302796103098,8.780810126873817e-05,2.7920345178955586e-05,-3.210421126476071e-05,0.00031764810795610344,-6.324606947634113e-05,-0.00027720315741117877,-0.00026359041034015044,0.00016253680822738177,-0.0003215724727034303,-0.001224894519336919,0.8076412081718445,46.69875717163086,5.786648273468018,-19.459871292114258,-0.7903953194618225,-2.3724398612976074,0.43979209661483765,0
24,0.11499500274658203,-0.8076412081718445,-46.69875717163086,-5.786648273468018,19.459871292114258,0.7903953194618225,2.3724398612976074,-0.43979209661483765,0.0,0.0,0.0,0.0,0.0,0.0,0.0,-0.8262442821292807,-0.3512150225274198,-0.5973928511586081,0.2528816492023994,0.20004954275109219,0.11433772190683941,-0.4177973413663029,0.8780785724614796,0.7554358667909052,-0.28249833574211386,-1.6687811311811032,0.14133078741596186,2.4034171970224594,1.027370204442069,0.878092876070424,0.7554597494309409,-0.2825552651693207,-1.6690993614607135,0.1414185955172306,2.4034451173676383,1.0273381002308042,-0.00031764810795610344,6.324606947634113e-05,0.00027720315741117877,0.00026359041034015044,-0.00016253680822738177,0.0003215724727034303,0.001224894519336919,0.0,0.0,0.0,0.0,0.0,0.0,0.0,1.4303608944388202e-05,2.388264003561069e-05,-5.6929427206864336e-05,-0.0003182302796103098,8.780810126873817e-05,2.7920345178955586e-05,-3.210421126476071e-05,0.00031764810795610344,-6.324606947634113e-05,-0.00027720315741117877,-0.00026359041034015044,0.00016253680822738177,-0.0003215724727034303,-0.001224894519336919,0.8076412081718445,46.69875717163086,5.786648273468018,-19.459871292114258,-0.7903953194618225,-2.3724398612976074,0.43979209661483765,0
25,0.12000870704650879,-0.8592159152030945,-46.67495346069336,-5.762844562530518,19.487642288208008,0.7784934639930725,2.3788485527038574,-0.46084922552108765,0.0,0.0,0.0,0.0,0.0,0.0,0.0,-0.819603845663151,-0.3422143122055486,-0.5917302463039251,0.24762426895194872,0.19984519587665273,0.113013488441254,-0.4178920291961943,0.878082191739166,0.7554341963550499,-0.28250000617796917,-1.668782338280431,0.14133211051855532,2.4034164848857458,1.0273725441230666,0.878092876070424,0.7554597494309409,-0.2825552651693207,-1.6690993614607135,0.1414185955172306,2.4034451173676383,1.0273381002308042,0.0013929466441320079,-0.00025634018264998376,-2.3336596512844523e-05,-0.0005957265616294864,0.0003088921047228803,0.00021625503315885942,0.0014688976600976047,0.0,0.0,0.0,0.0,0.0,0.0,0.0,1.0684331257948543e-05,2.5553075890916155e-05,-5.525899135155887e-05,-0.000317023180282483,8.648499867527915e-05,2.8632481892554296e-05,-3.444389226237021e-05,-0.0013929466441320079,0.00025634018264998376,2.3336596512844523e-05,0.0005957265616294864,-0.0003088921047228803,-0.00021625503315885942,-0.0014688976600976047,0.8592159152030945,46.67495346069336,5.762844562530518,-19.487642288208008,-0.7784934639930725,-2.3788485527038574,0.46084922552108765,0
26,0.12494564056396484,-0.8592159152030945,-46.67495346069336,-5.762844562530518,19.487642288208008,0.7784934639930725,2.3788485527038574,-0.46084922552108765,0.0,0.0,0.0,0.0,0.0,0.0,0.0,-0.819603845663151,-0.3422143122055486,-0.5917302463039251,0.24762426895194872,0.19984519587665273,0.113013488441254,-0.4178920291961943,0.878082191739166,0.7554341963550499,-0.28250000617796917,-1.668782338280431,0.14133211051855532,2.4034164848857458,1.0273725441230666,0.878092876070424,0.7554597494309409,-0.2825552651693207,-1.6690993614607135,0.1414185955172306,2.4034451173676383,1.0273381002308042,0.0013929466441320079,-0.00025634018264998376,-2.3336596512844523e-05,-0.0005957265616294864,0.0003088921047228803,0.00021625503315885942,0.0014688976600976047,0.0,0.0,0.0,0.0,0.0,0.0,0.0,1.0684331257948543e-05,2.5553075890916155e-05,-5.525899135155887e-05,-0.000317023180282483,8.648499867527915e-05,2.8632481892554296e-05,-3.444389226237021e-05,-0.0013929466441320079,0.00025634018264998376,2.3336596512844523e-05,0.0005957265616294864,-0.0003088921047228803,-0.00021625503315885942,-0.0014688976600976047,0.8592159152030945,46.67495346069336,5.762844562530518,-19.487642288208008,-0.7784934639930725,-2.3788485527038574,0.46084922552108765,0
27,0.12999486923217773,-0.8076412081718445,-46.64718246459961,-5.762844562530518,19.459871292114258,0.7903953194618225,2.3788485527038574,-0.38577598333358765,0.0,0.0,0.0,0.0,0.0,0.0,0.0,-0.8246278815381621,-0.32691987465795685,-0.595314833717095,0.23962670642473685,0.1998509311221754,0.11152161154152335,-0.4167663609619598,0.8780785724614796,0.7554322475132188,-0.2825000061659684,-1.6687803894344126,0.14133081143831513,2.4034164849036905,1.0273642026517125,0.878092876070424,0.7554597494309409,-0.2825552651693207,-1.6690993614607135,0.1414185955172306,2.4034451173676383,1.0273381002308042,-4.0328825683830326e-05,-1.2904807338668824e-06,9.053031596528783e-05,-0.0004546806344317342,-6.212310782537649e-05,0.00014902741324694703,-0.0010559458711116541,0.0,0.0,0.0,0.0,0.0,0.0,0.0,1.4303608944388202e-05,2.750191772205035e-05,-5.5259003352348124e-05,-0.00031897202630082333,8.778407891546491e-05,2.8632463947797504e-05,-2.610242090828052e-05,4.0328825683830326e-05,1.2904807338668824e-06,-9.053031596528783e-05,0.0004546806344317342,6.212310782537649e-05,-0.00014902741324694703,0.0010559458711116541,0.8076412081718445,46.64718246459961,5.762844562530518,-19.459871292114258,-0.7903953194618225,-2.3788485527038574,0.38577598333358765,0
28,0.1350090503692627,-0.8076412081718445,-46.64718246459961,-5.762844562530518,19.459871292114258,0.7903953194618225,2.3788485527038574,-0.38577598333358765,0.0,0.0,0.0,0.0,0.0,0.0,0.0,-0.8246278815381621,-0.32691987465795685,-0.595314833717095,0.23962670642473685,0.1998509311221754,0.11152161154152335,-0.4167663609619598,0.8780785724614796,0.7554322475132188,-0.2825000061659684,-1.6687803894344126,0.14133081143831513,2.4034164849036905,1.0273642026517125,0.878092876070424,0.7554597494309409,-0.2825552651693207,-1.6690993614607135,0.1414185955172306,2.4034451173676383,1.0273381002308042,-4.0328825683830326e-05,-1.2904807338668824e-06,9.053031596528783e-05,-0.0004546806344317342,-6.212310782537649e-05,0.00014902741324694703,-0.0010559458711116541,0.0,0.0,0.0,0.0,0.0,0.0,0.0,1.4303608944388202e-05,2.750191772205035e-05,-5.5259003352348124e-05,-0.00031897202630082333,8.778407891546491e-05,2.8632463947797504e-05,-2.610242090828052e-05,4.0328825683830326e-05,1.2904807338668824e-06,-9.053031596528783e-05,0.0004546806344317342,6.212310782537649e-05,-0.00014902741324694703,0.0010559458711116541,0.8076412081718445,46.64718246459961,5.762844562530518,-19.459871292114258,-0.7903953194618225,-2.3788485527038574,0.38577598333358765,0
29,0.14003896713256836,-0.8354122042655945,-46.64718246459961,-5.762844562530518,19.459871292114258,0.7903953194618225,2.3724398612976074,-0.42605918645858765,0.0,0.0,0.0,0.0,0.0,0.0,0.0,-0.8236563628195084,-0.3417880434526472,-0.5974246861909679,0.24955343815994172,0.20064517236487653,0.11334391806929733,-0.4149079439971126,0.8780806007761703,0.7554322475132188,-0.28250000617796905,-1.6687803894344126,0.14132936180455719,2.4034171969625686,1.0273686785631708,0.878092876070424,0.7554597494309409,-0.2825552651693207,-1.6690993614607135,0.1414185955172306,2.4034451173676383,1.0273381002308042,0.0001815513278079363,-9.885975123125506e-05,0.0004473193934483663,-0.0002943416369123881,-0.00011238876535879172,0.00030937826741577715,0.00035823804666066414,0.0,0.0,0.0,0.0,0.0,0.0,0.0,1.22752942536275e-05,2.750191772205035e-05,-5.5258991351669895e-05,-0.00031897202630082333,8.92337126734144e-05,2.7920405069714604e-05,-3.057833236663754e-05,-0.0001815513278079363,9.885975123125506e-05,-0.0004473193934483663,0.0002943416369123881,0.00011238876535879172,-0.00030937826741577715,-0.00035823804666066414,0.8354122042655945,46.64718246459961,5.762844562530518,-19.459871292114258,-0.7903953194618225,-2.3724398612976074,0.42605918645858765,0
30,0.14499521255493164,-0.8354122042655945,-46.64718246459961,-5.762844562530518,19.459871292114258,0.7903953194618225,2.3724398612976074,-0.42605918645858765,0.0,0.0,0.0,0.0,0.0,0.0,0.0,-0.8236563628195084,-0.3417880434526472,-0.5974246861909679,0.24955343815994172,0.20064517236487653,0.11334391806929733,-0.4149079439971126,0.8780806007761703,0.7554322475132188,-0.28250000617796905,-1.6687803894344126,0.14132936180455719,2.4034171969625686,1.0273686785631708,0.878092876070424,0.7554597494309409,-0.2825552651693207,-1.6690993614607135,0.1414185955172306,2.4034451173676383,1.0273381002308042,0.0001815513278079363,-9.885975123125506e-05,0.0004473193934483663,-0.0002943416369123881,-0.00011238876535879172,0.00030937826741577715,0.00035823804666066414,0.0,0.0,0.0,0.0,0.0,0.0,0.0,1.22752942536275e-05,2.750191772205035e-05,-5.5258991351669895e-05,-0.00031897202630082333,8.92337126734144e-05,2.7920405069714604e-05,-3.057833236663754e-05,-0.0001815513278079363,9.885975123125506e-05,-0.0004473193934483663,0.0002943416369123881,0.00011238876535879172,-0.00030937826741577715,-0.00035823804666066414,0.8354122042655945,46.64718246459961,5.762844562530518,-19.459871292114258,-0.7903953194618225,-2.3724398612976074,0.42605918645858765,0
31,0.1499948501586914,-0.8592159152030945,-46.69875717163086,-5.786648273468018,19.412263870239258,0.7903953194618225,2.3852572441101074,-0.45352500677108765,0.0,0.0,0.0,0.0,0.0,0.0,0.0,-0.8308147455998741,-0.3479708260199987,-0.5994499080480027,0.25260864789795323,0.20134149590192138,0.11372664865489909,-0.41626886983866845,0.8780821917396145,0.7554358581241118,-0.2824983357421138,-1.668777131016686,0.14133081370531947,2.4034157728089225,1.0273717303209833,0.878092876070424,0.7554597494309409,-0.2825552651693207,-1.6690993614607135,0.1414185955172306,2.4034451173676383,1.0273381002308042,0.0009212062384679094,0.0004129008472414244,0.0002603506218508349,0.0008628653345479203,-0.00022478687822676118,-0.0002823963980258932,0.0018720551606094833,0.0,0.0,0.0,0.0,0.0,0.0,0.0,1.068433080941844e-05,2.3891306829004755e-05,-5.692942720691985e-05,-0.0003222304440275714,8.778181191113066e-05,2.9344558715838076e-05,-3.363009017909313e-05,-0.0009212062384679094,-0.0004129008472414244,-0.0002603506218508349,-0.0008628653345479203,0.00022478687822676118,0.0002823963980258932,-0.0018720551606094833,0.8592159152030945,46.69875717163086,5.786648273468018,-19.412263870239258,-0.7903953194618225,-2.3852572441101074,0.45352500677108765,0
32,0.1549973487854004,-0.8592159152030945,-46.69875717163086,-5.786648273468018,19.412263870239258,0.7903953194618225,2.3852572441101074,-0.45352500677108765,0.0,0.0,0.0,0.0,0.0,0.0,0.0,-0.8308147455998741,-0.3479708260199987,-0.5994499080480027,0.25260864789795323,0.20134149590192138,0.11372664865489909,-0.41626886983866845,0.8780821917396145,0.7554358581241118,-0.2824983357421138,-1.668777131016686,0.14133081370531947,2.4034157728089225,1.0273717303209833,0.878092876070424,0.7554597494309409,-0.2825552651693207,-1.6690993614607135,0.1414185955172306,2.4034451173676383,1.0273381002308042,0.0009212062384679094,0.0004129008472414244,0.0002603506218508349,0.0008628653345479203,-0.00022478687822676118,-0.0002823963980258932,0.0018720551606094833,0.0,0.0,0.0,0.0,0.0,0.0,0.0,1.068433080941844e-05,2.3891306829004755e-05,-5.692942720691985e-05,-0.0003222304440275714,8.778181191113066e-05,2.9344558715838076e-05,-3.363009017909313e-05,-0.0009212062384679094,-0.0004129008472414244,-0.0002603506218508349,-0.0008628653345479203,0.00022478687822676118,0.0002823963980258932,-0.0018720551606094833,0.8592159152030945,46.69875717163086,5.786648273468018,-19.412263870239258,-0.7903953194618225,-2.3852572441101074,0.45352500677108765,0
33,0.1600029468536377,-0.8354122042655945,-46.67495346069336,-5.810451984405518,19.436067581176758,0.7849021553993225,2.3788485527038574,-0.41965049505233765,0.0,0.0,0.0,0.0,0.0,0.0,0.0,-0.8316412781324983,-0.3404011503779353,-0.5985158930880142,0.24553324004774782,0.20103325587097495,0.11299150083692937,-0.41648795192320925,0.8780805213033107,0.755434196355001,-0.28249666530625855,-1.6687787189990229,0.14133032909322832,2.4034164848857458,1.0273679664863478,0.878092876070424,0.7554597494309409,-0.2825552651693207,-1.6690993614607135,0.1414185955172306,2.4034451173676383,1.0273381002308042,0.000172665774885187,-0.00038630270504258333,0.0004750586630765644,0.00011373014457266933,-2.571373172653496e-05,0.0002595548955929448,-0.00021566496637990458,0.0,0.0,0.0,0.0,0.0,0.0,0.0,1.2354767113254006e-05,2.555307593987699e-05,-5.85998630621698e-05,-0.0003206424616906123,8.826642400228124e-05,2.8632481892554296e-05,-2.9866255543575804e-05,-0.000172665774885187,0.00038630270504258333,-0.0004750586630765644,-0.00011373014457266933,2.571373172653496e-05,-0.0002595548955929448,0.00021566496637990458,0.8354122042655945,46.67495346069336,5.810451984405518,-19.436067581176758,-0.7849021553993225,-2.3788485527038574,0.41965049505233765,0
34,0.16504979133605957,-0.8354122042655945,-46.67495346069336,-5.810451984405518,19.436067581176758,0.7849021553993225,2.3788485527038574,-0.41965049505233765,0.0,0.0,0.0,0.0,0.0,0.0,0.0,-0.8316412781324983,-0.3404011503779353,-0.5985158930880142,0.24553324004774782,0.20103325587097495,0.11299150083692937,-0.41648795192320925,0.8780805213033107,0.755434196355001,-0.28249666530625855,-1.6687787189990229,0.14133032909322832,2.4034164848857458,1.0273679664863478,0.878092876070424,0.7554597494309409,-0.2825552651693207,-1.6690993614607135,0.1414185955172306,2.4034451173676383,1.0273381002308042,0.000172665774885187,-0.00038630270504258333,0.0004750586630765644,0.00011373014457266933,-2.571373172653496e-05,0.0002595548955929448,-0.00021566496637990458,0.0,0.0,0.0,0.0,0.0,0.0,0.0,1.2354767113254006e-05,2.555307593987699e-05,-5.85998630621698e-05,-0.0003206424616906123,8.826642400228124e-05,2.8632481892554296e-05,-2.9866255543575804e-05,-0.000172665774885187,0.00038630270504258333,-0.0004750586630765644,-0.00011373014457266933,2.571373172653496e-05,-0.0002595548955929448,0.00021566496637990458,0.8354122042655945,46.67495346069336,5.810451984405518,-19.436067581176758,-0.7849021553993225,-2.3788485527038574,0.41965049505233765,0
35,0.17000770568847656,-0.8076412081718445,-46.67495346069336,-5.786648273468018,19.412263870239258,0.7849021553993225,2.3724398612976074,-0.37845176458358765,0.0,0.0,0.0,0.0,0.0,0.0,0.0,-0.8144350912881729,-0.3412054151334985,-0.5879639263942802,0.24294011542862778,0.2002193479891045,0.11281607936471215,-0.41767938720721554,0.8780785724614796,0.7554341963550499,-0.2824983357421138,-1.6687771319964864,0.1413278320441831,2.4034171970164038,1.027363388849629,0.878092876070424,0.7554597494309409,-0.2825552651693207,-1.6690993614607135,0.1414185955172306,2.4034451173676383,1.0273381002308042,-0.00027513677940519294,-0.0005544415020423468,0.0004492707884546481,0.000700326050403831,-8.319658527723978e-05,0.0002669017031296006,-0.0012531161666808391,0.0,0.0,0.0,0.0,0.0,0.0,0.0,1.4303608944388202e-05,2.5553075890916155e-05,-5.692942720691985e-05,-0.0003222294642271084,9.076347304751153e-05,2.792035123455605e-05,-2.5288618824781395e-05,0.00027513677940519294,0.0005544415020423468,-0.0004492707884546481,-0.000700326050403831,8.319658527723978e-05,-0.0002669017031296006,0.0012531161666808391,0.8076412081718445,46.67495346069336,5.786648273468018,-19.412263870239258,-0.7849021553993225,-2.3724398612976074,0.37845176458358765,0
36,0.17496061325073242,-0.8076412081718445,-46.67495346069336,-5.786648273468018,19.412263870239258,0.7849021553993225,2.3724398612976074,-0.37845176458358765,0.0,0.0,0.0,0.0,0.0,0.0,0.0,-0.8144350912881729,-0.3412054151334985,-0.5879639263942802,0.24294011542862778,0.2002193479891045,0.11281607936471215,-0.41767938720721554,0.8780785724614796,0.7554341963550499,-0.2824983357421138,-1.6687771319964864,0.1413278320441831,2.4034171970164038,1.027363388849629,0.878092876070424,0.7554597494309409,-0.2825552651693207,-1.6690993614607135,0.1414185955172306,2.4034451173676383,1.0273381002308042,-0.00027513677940519294,-0.0005544415020423468,0.0004492707884546481,0.000700326050403831,-8.319658527723978e-05,0.0002669017031296006,-0.0012531161666808391,0.0,0.0,0.0,0.0,0.0,0.0,0.0,1.4303608944388202e-05,2.5553075890916155e-05,-5.692942720691985e-05,-0.0003222294642271084,9.076347304751153e-05,2.792035123455605e-05,-2.5288618824781395e-05,0.00027513677940519294,0.0005544415020423468,-0.0004492707884546481,-0.000700326050403831,8.319658527723978e-05,-0.0002669017031296006,0.0012531161666808391,0.8076412081718445,46.67495346069336,5.786648273468018,-19.412263870239258,-0.7849021553993225,-2.3724398612976074,0.37845176458358765,0
37,0.1799917221069336,-0.8592159152030945,-46.67495346069336,-5.786648273468018,19.459871292114258,0.7903953194618225,2.3788485527038574,-0.45352500677108765,0.0,0.0,0.0,0.0,0.0,0.0,0.0,-0.8253783664695167,-0.3488360331815505,-0.5993702276625756,0.24272954163828217,0.20043851102043048,0.11272895229955146,-0.41695391477782234,0.878082191739166,0.7554341962480525,-0.2824983357421138,-1.6687803894358255,0.14133082264500754,2.4034164848857467,1.0273716125834134,0.878092876070424,0.7554597494309409,-0.2825552651693207,-1.6690993614607135,0.1414185955172306,2.4034451173676383,1.0273381002308042,0.0009102309822418674,-0.00019410143318582932,0.0004973176606679009,-0.00017495857459223695,-0.00013085739498289094,2.6708665798999628e-05,0.001426933642963296,0.0,0.0,0.0,0.0,0.0,0.0,0.0,1.0684331257948543e-05,2.5553182888327086e-05,-5.692942720691985e-05,-0.0003189720248879535,8.777287222305752e-05,2.8632481891666117e-05,-3.35123526091774e-05,-0.0009102309822418674,0.00019410143318582932,-0.0004973176606679009,0.00017495857459223695,0.00013085739498289094,-2.6708665798999628e-05,-0.001426933642963296,0.8592159152030945,46.67495346069336,5.786648273468018,-19.459871292114258,-0.7903953194618225,-2.3788485527038574,0.45352500677108765,0
38,0.1850295066833496,-0.8592159152030945,-46.67495346069336,-5.786648273468018,19.459871292114258,0.7903953194618225,2.3788485527038574,-0.45352500677108765,0.0,0.0,0.0,0.0,0.0,0.0,0.0,-0.8253783664695167,-0.3488360331815505,-0.5993702276625756,0.24272954163828217,0.20043851102043048,0.11272895229955146,-0.41695391477782234,0.878082191739166,0.7554341962480525,-0.2824983357421138,-1.6687803894358255,0.14133082264500754,2.4034164848857467,1.0273716125834134,0.878092876070424,0.7554597494309409,-0.2825552651693207,-1.6690993614607135,0.1414185955172306,2.4034451173676383,1.0273381002308042,0.0009102309822418674,-0.00019410143318582932,0.0004973176606679009,-0.00017495857459223695,-0.00013085739498289094,2.6708665798999628e-05,0.001426933642963296,0.0,0.0,0.0,0.0,0.0,0.0,0.0,1.0684331257948543e-05,2.5553182888327086e-05,-5.692942720691985e-05,-0.0003189720248879535,8.777287222305752e-05,2.8632481891666117e-05,-3.35123526091774e-05,-0.0009102309822418674,0.00019410143318582932,-0.0004973176606679009,0.00017495857459223695,0.00013085739498289094,-2.6708665798999628e-05,-0.001426933642963296,0.8592159152030945,46.67495346069336,5.786648273468018,-19.459871292114258,-0.7903953194618225,-2.3788485527038574,0.45352500677108765,0
39,0.19000530242919922,-0.8354122042655945,-46.67495346069336,-5.786648273468018,19.459871292114258,0.7903953194618225,2.3788485527038574,-0.39218467473983765,0.0,0.0,0.0,0.0,0.0,0.0,0.0,-0.8178018327075222,-0.33956504233635154,-0.5944619228131807,0.24017664860376706,0.20035871363880628,0.11182995145724957,-0.41876166695379236,0.8780805213033107,0.7554341963550497,-0.2824983357421138,-1.6687803894720974,0.14132750673211636,2.4034164848857458,1.027364914728314,0.878092876070424,0.7554597494309409,-0.2825552651693207,-1.6690993614607135,0.1414185955172306,2.4034451173676383,1.0273381002308042,0.0003080007607536808,3.1708966573280604e-05,0.00039965237819376874,9.086260026305432e-05,-0.00012591999588002227,-9.716092997313361e-06,-0.0010458083345029825,0.0,0.0,0.0,0.0,0.0,0.0,0.0,1.2354767113254006e-05,2.55530758911382e-05,-5.692942720691985e-05,-0.0003189719886160791,9.108878511424057e-05,2.8632481892554296e-05,-2.681449750974174e-05,-0.0003080007607536808,-3.1708966573280604e-05,-0.00039965237819376874,-9.086260026305432e-05,0.00012591999588002227,9.716092997313361e-06,0.0010458083345029825,0.8354122042655945,46.67495346069336,5.786648273468018,-19.459871292114258,-0.7903953194618225,-2.3788485527038574,0.39218467473983765,0
40,0.19501996040344238,-0.8354122042655945,-46.67495346069336,-5.786648273468018,19.459871292114258,0.7903953194618225,2.3788485527038574,-0.39218467473983765,0.0,0.0,0.0,0.0,0.0,0.0,0.0,-0.8178018327075222,-0.33956504233635154,-0.5944619228131807,0.24017664860376706,0.20035871363880628,0.11182995145724957,-0.41876166695379236,0.8780805213033107,0.7554341963550497,-0.2824983357421138,-1.6687803894720974,0.14132750673211636,2.4034164848857458,1.027364914728314,0.878092876070424,0.7554597494309409,-0.2825552651693207,-1.6690993614607135,0.1414185955172306,2.4034451173676383,1.0273381002308042,0.0003080007607536808,3.1708966573280604e-05,0.00039965237819376874,9.086260026305432e-05,-0.00012591999588002227,-9.716092997313361e-06,-0.0010458083345029825,0.0,0.0,0.0,0.0,0.0,0.0,0.0,1.2354767113254006e-05,2.55530758911382e-05,-5.692942720691985e-05,-0.0003189719886160791,9.108878511424057e-05,2.8632481892554296e-05,-2.681449750974174e-05,-0.0003080007607536808,-3.1708966573280604e-05,-0.00039965237819376874,-9.086260026305432e-05,0.00012591999588002227,9.716092997313361e-06,0.0010458083345029825,0.8354122042655945,46.67495346069336,5.786648273468018,-19.459871292114258,-0.7903953194618225,-2.3788485527038574,0.39218467473983765,0
41,0.20012474060058594,-0.7838374972343445,-46.64718246459961,-5.762844562530518,19.459871292114258,0.7849021553993225,2.3788485527038574,-0.39218467473983765,0.0,0.0,0.0,0.0,0.0,0.0,0.0,-0.8317534597924117,-0.3592144482263281,-0.6063176467098474,0.25029208337628367,0.20083495052614628,0.11378721019063187,-0.41777589072100396,0.878076902352673,0.7554322388464254,-0.2825000061779691,-1.6687803894344129,0.14132716978310064,2.4034164848857458,1.0273649147285353,0.878092876070424,0.7554597494309409,-0.2825552651693207,-1.6690993614607135,0.1414185955172306,2.4034451173676383,1.0273381002308042,-0.001085446974979426,-0.0012177960900763183,-0.00039386443984415877,-0.00046633059865975533,0.0002149054417655853,0.00018088647633791806,-0.0013140001786948693,0.0,0.0,0.0,0.0,0.0,0.0,0.0,1.5973717750972227e-05,2.7510584515444414e-05,-5.5258991351614384e-05,-0.0003189720263006013,9.142573412995736e-05,2.8632481892554296e-05,-2.6814497731120213e-05,0.001085446974979426,0.0012177960900763183,0.00039386443984415877,0.00046633059865975533,-0.0002149054417655853,-0.00018088647633791806,0.0013140001786948693,0.7838374972343445,46.64718246459961,5.762844562530518,-19.459871292114258,-0.7849021553993225,-2.3788485527038574,0.39218467473983765,0
42,0.20495080947875977,-0.7838374972343445,-46.64718246459961,-5.762844562530518,19.459871292114258,0.7849021553993225,2.3788485527038574,-0.39218467473983765,0.0,0.0,0.0,0.0,0.0,0.0,0.0,-0.8317534597924117,-0.3592144482263281,-0.6063176467098474,0.25029208337628367,0.20083495052614628,0.11378721019063187,-0.41777589072100396,0.878076902352673,0.7554322388464254,-0.2825000061779691,-1.6687803894344129,0.14132716978310064,2.4034164848857458,1.0273649147285353,0.878092876070424,0.7554597494309409,-0.2825552651693207,-1.6690993614607135,0.1414185955172306,2.4034451173676383,1.0273381002308042,-0.001085446974979426,-0.0012177960900763183,-0.00039386443984415877,-0.00046633059865975533,0.0002149054417655853,0.00018088647633791806,-0.0013140001786948693,0.0,0.0,0.0,0.0,0.0,0.0,0.0,1.5973717750972227e-05,2.7510584515444414e-05,-5.5258991351614384e-05,-0.0003189720263006013,9.142573412995736e-05,2.8632481892554296e-05,-2.6814497731120213e-05,0.001085446974979426,0.0012177960900763183,0.00039386443984415877,0.00046633059865975533,-0.0002149054417655853,-0.00018088647633791806,0.0013140001786948693,0.7838374972343445,46.64718246459961,5.762844562530518,-19.459871292114258,-0.7849021553993225,-2.3788485527038574,0.39218467473983765,0
43,0.2099452018737793,-0.7838374972343445,-46.64718246459961,-5.762844562530518,19.459871292114258,0.7849021553993225,2.3788485527038574,-0.39218467473983765,0.0,0.0,0.0,0.0,0.0,0.0,0.0,-0.8317534597924117,-0.3592144482263281,-0.6063176467098474,0.25029208337628367,0.20083495052614628,0.11378721019063187,-0.41777589072100396,0.878076902352673,0.7554322388464254,-0.2825000061779691,-1.6687803894344129,0.14132716978310064,2.4034164848857458,1.0273649147285353,0.878092876070424,0.7554597494309409,-0.2825552651693207,-1.6690993614607135,0.1414185955172306,2.4034451173676383,1.0273381002308042,-0.001085446974979426,-0.0012177960900763183,-0.00039386443984415877,-0.00046633059865975533,0.0002149054417655853,0.00018088647633791806,-0.0013140001786948693,0.0,0.0,0.0,0.0,0.0,0.0,0.0,1.5973717750972227e-05,2.7510584515444414e-05,-5.5258991351614384e-05,-0.0003189720263006013,9.142573412995736e-05,2.8632481892554296e-05,-2.6814497731120213e-05,0.001085446974979426,0.0012177960900763183,0.00039386443984415877,0.00046633059865975533,-0.0002149054417655853,-0.00018088647633791806,0.0013140001786948693,0.7838374972343445,46.64718246459961,5.762844562530518,-19.459871292114258,-0.7849021553993225,-2.3788485527038574,0.39218467473983765,0
44,0.21499395370483398,-0.7838374972343445,-46.64718246459961,-5.762844562530518,19.459871292114258,0.7849021553993225,2.3788485527038574,-0.39218467473983765,0.0,0.0,0.0,0.0,0.0,0.0,0.0,-0.8317534597924117,-0.3592144482263281,-0.6063176467098474,0.25029208337628367,0.20083495052614628,0.11378721019063187,-0.41777589072100396,0.878076902352673,0.7554322388464254,-0.2825000061779691,-1.6687803894344129,0.14132716978310064,2.4034164848857458,1.0273649147285353,0.878092876070424,0.7554597494309409,-0.2825552651693207,-1.6690993614607135,0.1414185955172306,2.4034451173676383,1.0273381002308042,-0.001085446974979426,-0.0012177960900763183,-0.00039386443984415877,-0.00046633059865975533,0.0002149054417655853,0.00018088647633791806,-0.0013140001786948693,0.0,0.0,0.0,0.0,0.0,0.0,0.0,1.5973717750972227e-05,2.7510584515444414e-05,-5.5258991351614384e-05,-0.0003189720263006013,9.142573412995736e-05,2.8632481892554296e-05,-2.6814497731120213e-05,0.001085446974979426,0.0012177960900763183,0.00039386443984415877,0.00046633059865975533,-0.0002149054417655853,-0.00018088647633791806,0.0013140001786948693,0.7838374972343445,46.64718246459961,5.762844562530518,-19.459871292114258,-0.7849021553993225,-2.3788485527038574,0.39218467473983765,0
45,0.2200174331665039,-0.8354122042655945,-46.67495346069336,-5.762844562530518,19.436067581176758,0.7849021553993225,2.3788485527038574,-0.43338340520858765,0.0,0.0,0.0,0.0,0.0,0.0,0.0,-0.8224472071956946,-0.34526560385116334,-0.5972082788441148,0.2438070497353697,0.2008263216956231,0.11379233305287179,-0.4173088736169017,0.8780805213033113,0.755434196343145,-0.2825000061779691,-1.6687787191116115,0.14132705370394466,2.4034164848857458,1.0273693746276842,0.878092876070424,0.7554597494309409,-0.2825552651693207,-1.6690993614607135,0.1414185955172306,2.4034451173676383,1.0273381002308042,0.00030470610671430516,5.65881108027373e-05,-0.00028959985254071194,0.0005859607004812737,-1.4656718063299904e-05,0.00010581375899450525,0.0006489548641660777,0.0,0.0,0.0,0.0,0.0,0.0,0.0,1.2354767112698894e-05,2.5553087795837648e-05,-5.5258991351614384e-05,-0.0003206423491020072,9.154181328593913e-05,2.8632481892554296e-05,-3.127439687999889e-05,-0.00030470610671430516,-5.65881108027373e-05,0.00028959985254071194,-0.0005859607004812737,1.4656718063299904e-05,-0.00010581375899450525,-0.0006489548641660777,0.8354122042655945,46.67495346069336,5.762844562530518,-19.436067581176758,-0.7849021553993225,-2.3788485527038574,0.43338340520858765,0
46,0.22503280639648438,-0.8354122042655945,-46.67495346069336,-5.762844562530518,19.436067581176758,0.7849021553993225,2.3788485527038574,-0.43338340520858765,0.0,0.0,0.0,0.0,0.0,0.0,0.0,-0.8224472071956946,-0.34526560385116334,-0.5972082788441148,0.2438070497353697,0.2008263216956231,0.11379233305287179,-0.4173088736169017,0.8780805213033113,0.755434196343145,-0.2825000061779691,-1.6687787191116115,0.14132705370394466,2.4034164848857458,1.0273693746276842,0.878092876070424,0.7554597494309409,-0.2825552651693207,-1.6690993614607135,0.1414185955172306,2.4034451173676383,1.0273381002308042,0.00030470610671430516,5.65881108027373e-05,-0.00028959985254071194,0.0005859607004812737,-1.4656718063299904e-05,0.00010581375899450525,0.0006489548641660777,0.0,0.0,0.0,0.0,0.0,0.0,0.0,1.2354767112698894e-05,2.5553087795837648e-05,-5.5258991351614384e-05,-0.0003206423491020072,9.154181328593913e-05,2.8632481892554296e-05,-3.127439687999889e-05,-0.00030470610671430516,-5.65881108027373e-05,0.00028959985254071194,-0.0005859607004812737,1.4656718063299904e-05,-0.00010581375899450525,-0.0006489548641660777,0.8354122042655945,46.67495346069336,5.762844562530518,-19.436067581176758,-0.7849021553993225,-2.3788485527038574,0.43338340520858765,0
47,0.23004388809204102,-0.8354122042655945,-46.62337875366211,-5.735073566436768,19.436067581176758,0.7849021553993225,2.3788485527038574,-0.43979209661483765,0.0,0.0,0.0,0.0,0.0,0.0,0.0,-0.8188911999905182,-0.3477516597621541,-0.5963641232478215,0.24767384473534113,0.20065270923920211,0.11389132471013803,-0.41655767727362325,0.8780805242467499,0.7554305684105701,-0.28250195501980024,-1.6687809442386312,0.14132812206544082,2.4034164979676977,1.0273702044400832,0.878092876070424,0.7554597494309409,-0.2825552651693207,-1.6690993614607135,0.1414185955172306,2.4034451173676383,1.0273381002308042,0.0005024628564332239,-0.001500819218831354,-0.0009976399051025925,0.0005985721950713222,6.644634377408053e-05,1.111427455763415e-06,0.0008191280526099056,0.0,0.0,0.0,0.0,0.0,0.0,0.0,1.235182367409493e-05,2.9181020370749877e-05,-5.331014952048019e-05,-0.00031841722208225676,9.047345178977984e-05,2.8619399940588153e-05,-3.2104209279015805e-05,-0.0005024628564332239,0.001500819218831354,0.0009976399051025925,-0.0005985721950713222,-6.644634377408053e-05,-1.111427455763415e-06,-0.0008191280526099056,0.8354122042655945,46.62337875366211,5.735073566436768,-19.436067581176758,-0.7849021553993225,-2.3788485527038574,0.43979209661483765,0
48,0.2350451946258545,-0.8354122042655945,-46.62337875366211,-5.735073566436768,19.436067581176758,0.7849021553993225,2.3788485527038574,-0.43979209661483765,0.0,0.0,0.0,0.0,0.0,0.0,0.0,-0.8188911999905182,-0.3477516597621541,-0.5963641232478215,0.24767384473534113,0.20065270923920211,0.11389132471013803,-0.41655767727362325,0.8780805242467499,0.7554305684105701,-0.28250195501980024,-1.6687809442386312,0.14132812206544082,2.4034164979676977,1.0273702044400832,0.878092876070424,0.7554597494309409,-0.2825552651693207,-1.6690993614607135,0.1414185955172306,2.4034451173676383,1.0273381002308042,0.0005024628564332239,-0.001500819218831354,-0.0009976399051025925,0.0005985721950713222,6.644634377408053e-05,1.111427455763415e-06,0.0008191280526099056,0.0,0.0,0.0,0.0,0.0,0.0,0.0,1.235182367409493e-05,2.9181020370749877e-05,-5.331014952048019e-05,-0.00031841722208225676,9.047345178977984e-05,2.8619399940588153e-05,-3.2104209279015805e-05,-0.0005024628564332239,0.001500819218831354,0.0009976399051025925,-0.0005985721950713222,-6.644634377408053e-05,-1.111427455763415e-06,-0.0008191280526099056,0.8354122042655945,46.62337875366211,5.735073566436768,-19.436067581176758,-0.7849021553993225,-2.3788485527038574,0.43979209661483765,0
49,0.23999667167663574,-0.8354122042655945,-46.67495346069336,-5.762844562530518,19.487642288208008,0.7849021553993225,2.3852572441101074,-0.42605918645858765,0.0,0.0,0.0,0.0,0.0,0.0,0.0,-0.8216606986655466,-0.33831327778059356,-0.59862124332828,0.24366297278646376,0.20045832649353265,0.1126459122037508,-0.41544331835747683,0.8780805213033162,0.7554341963550336,-0.2825000061779691,-1.668782338280431,0.14133032874398554,2.403415772808947,1.0273654996487829,0.878092876070424,0.7554597494309409,-0.2825552651693207,-1.6690993614607135,0.1414185955172306,2.4034451173676383,1.0273381002308042,0.0007973884386689704,-7.07106809202538e-05,-0.0006867681662226525,-0.0008235668551871375,-4.0795404239301936e-05,-0.00013239749112341795,0.0007912053614426989,0.0,0.0,0.0,0.0,0.0,0.0,0.0,1.2354767107813913e-05,2.5553075907236433e-05,-5.5258991351614384e-05,-0.000317023180282483,8.826677324505483e-05,2.934455869141317e-05,-2.739941797869072e-05,-0.0007973884386689704,7.07106809202538e-05,0.0006867681662226525,0.0008235668551871375,4.0795404239301936e-05,0.00013239749112341795,-0.0007912053614426989,0.8354122042655945,46.67495346069336,5.762844562530518,-19.487642288208008,-0.7849021553993225,-2.3852572441101074,0.42605918645858765,0
50,0.2449476718902588,-0.8354122042655945,-46.67495346069336,-5.762844562530518,19.487642288208008,0.7849021553993225,2.3852572441101074,-0.42605918645858765,0.0,0.0,0.0,0.0,0.0,0.0,0.0,-0.8216606986655466,-0.33831327778059356,-0.59862124332828,0.24366297278646376,0.20045832649353265,0.1126459122037508,-0.41544331835747683,0.8780805213033162,0.7554341963550336,-0.2825000061779691,-1.668782338280431,0.14133032874398554,2.403415772808947,1.0273654996487829,0.878092876070424,0.7554597494309409,-0.2825552651693207,-1.6690993614607135,0.1414185955172306,2.4034451173676383,1.0273381002308042,0.0007973884386689704,-7.07106809202538e-05,-0.0006867681662226525,-0.0008235668551871375,-4.0795404239301936e-05,-0.00013239749112341795,0.0007912053614426989,0.0,0.0,0.0,0.0,0.0,0.0,0.0,1.2354767107813913e-05,2.5553075907236433e-05,-5.5258991351614384e-05,-0.000317023180282483,8.826677324505483e-05,2.934455869141317e-05,-2.739941797869072e-05,-0.0007973884386689704,7.07106809202538e-05,0.0006867681662226525,0.0008235668551871375,4.0795404239301936e-05,0.00013239749112341795,-0.0007912053614426989,0.8354122042655945,46.67495346069336,5.762844562530518,-19.487642288208008,-0.7849021553993225,-2.3852572441101074,0.42605918645858765,0
51,0.2499983310699463,-0.7838374972343445,-46.69875717163086,-5.762844562530518,19.436067581176758,0.7849021553993225,2.3788485527038574,-0.40591758489608765,0.0,0.0,0.0,0.0,0.0,0.0,0.0,-0.879798544704189,-0.3558714168917484,-0.6476902181599457,0.24907968955687268,0.201451295884476,0.11412910970736992,-0.41521825043641675,0.878076910855942,0.7554358667909052,-0.2825000061779691,-1.6687787190362422,0.14133095211490987,2.403416602784821,1.027366440605448,0.878092876070424,0.7554597494309409,-0.2825552651693207,-1.6690993614607135,0.1414185955172306,2.4034451173676383,1.0273381002308042,-0.0008775522293171784,0.000277765870095702,0.0028212385866068705,0.0005732968871636308,5.845214650639382e-05,5.4016587524113066e-05,-0.0003518490748939747,0.0,0.0,0.0,0.0,0.0,0.0,0.0,1.5965214481994394e-05,2.388264003561069e-05,-5.5258991351614384e-05,-0.00032064242447127356,8.764340232073065e-05,2.8514582817162903e-05,-2.8340374643720523e-05,0.0008775522293171784,-0.000277765870095702,-0.0028212385866068705,-0.0005732968871636308,-5.845214650639382e-05,-5.4016587524113066e-05,0.0003518490748939747,0.7838374972343445,46.69875717163086,5.762844562530518,-19.436067581176758,-0.7849021553993225,-2.3788485527038574,0.40591758489608765,0
52,0.2550048828125,-0.7838374972343445,-46.69875717163086,-5.762844562530518,19.436067581176758,0.7849021553993225,2.3788485527038574,-0.40591758489608765,0.0,0.0,0.0,0.0,0.0,0.0,0.0,-0.879798544704189,-0.3558714168917484,-0.6476902181599457,0.24907968955687268,0.201451295884476,0.11412910970736992,-0.41521825043641675,0.878076910855942,0.7554358667909052,-0.2825000061779691,-1.6687787190362422,0.14133095211490987,2.403416602784821,1.027366440605448,0.878092876070424,0.7554597494309409,-0.2825552651693207,-1.6690993614607135,0.1414185955172306,2.4034451173676383,1.0273381002308042,-0.0008775522293171784,0.000277765870095702,0.0028212385866068705,0.0005732968871636308,5.845214650639382e-05,5.4016587524113066e-05,-0.0003518490748939747,0.0,0.0,0.0,0.0,0.0,0.0,0.0,1.5965214481994394e-05,2.388264003561069e-05,-5.5258991351614384e-05,-0.00032064242447127356,8.764340232073065e-05,2.8514582817162903e-05,-2.8340374643720523e-05,0.0008775522293171784,-0.000277765870095702,-0.0028212385866068705,-0.0005732968871636308,-5.845214650639382e-05,-5.4016587524113066e-05,0.0003518490748939747,0.7838374972343445,46.69875717163086,5.762844562530518,-19.436067581176758,-0.7849021553993225,-2.3788485527038574,0.40591758489608765,0
53,0.2600104808807373,-0.8592159152030945,-46.67495346069336,-5.786648273468018,19.459871292114258,0.7849021553993225,2.3788485527038574,-0.42605918645858765,0.0,0.0,0.0,0.0,0.0,0.0,0.0,-0.8595359688556731,-0.34413435083008775,-0.6304155695888929,0.2441850857818332,0.20122482828105773,0.11317297766015857,-0.4159721680941089,0.8780821917393155,0.7554341960340576,-0.2824983357421138,-1.6687803894344133,0.14133108331714425,2.4034164848877424,1.0273686785631708,0.878092876070424,0.7554597494309409,-0.2825552651693207,-1.6690993614607135,0.1414185955172306,2.4034451173676383,1.0273381002308042,0.0007281125143867921,9.460610095993598e-05,0.0004616231859196951,6.739675920836985e-05,0.00016078272450989933,0.0002444096265866008,0.00010585665289043544,0.0,0.0,0.0,0.0,0.0,0.0,0.0,1.0684331108512524e-05,2.555339688325997e-05,-5.692942720691985e-05,-0.0003189720263001572,8.751220008634819e-05,2.8632479895929208e-05,-3.057833236663754e-05,-0.0007281125143867921,-9.460610095993598e-05,-0.0004616231859196951,-6.739675920836985e-05,-0.00016078272450989933,-0.0002444096265866008,-0.00010585665289043544,0.8592159152030945,46.67495346069336,5.786648273468018,-19.459871292114258,-0.7849021553993225,-2.3788485527038574,0.42605918645858765,0
54,0.26500487327575684,-0.8592159152030945,-46.67495346069336,-5.786648273468018,19.459871292114258,0.7849021553993225,2.3788485527038574,-0.42605918645858765,0.0,0.0,0.0,0.0,0.0,0.0,0.0,-0.8595359688556731,-0.34413435083008775,-0.6304155695888929,0.2441850857818332,0.20122482828105773,0.11317297766015857,-0.4159721680941089,0.8780821917393155,0.7554341960340576,-0.2824983357421138,-1.6687803894344133,0.14133108331714425,2.4034164848877424,1.0273686785631708,0.878092876070424,0.7554597494309409,-0.2825552651693207,-1.6690993614607135,0.1414185955172306,2.4034451173676383,1.0273381002308042,0.0007281125143867921,9.460610095993598e-05,0.0004616231859196951,6.739675920836985e-05,0.00016078272450989933,0.0002444096265866008,0.00010585665289043544,0.0,0.0,0.0,0.0,0.0,0.0,0.0,1.0684331108512524e-05,2.555339688325997e-05,-5.692942720691985e-05,-0.0003189720263001572,8.751220008634819e-05,2.8632479895929208e-05,-3.057833236663754e-05,-0.0007281125143867921,-9.460610095993598e-05,-0.0004616231859196951,-6.739675920836985e-05,-0.00016078272450989933,-0.0002444096265866008,-0.00010585665289043544,0.8592159152030945,46.67495346069336,5.786648273468018,-19.459871292114258,-0.7849021553993225,-2.3788485527038574,0.42605918645858765,0
55,0.27001070976257324,-0.8354122042655945,-46.64718246459961,-5.762844562530518,19.459871292114258,0.7849021553993225,2.3724398612976074,-0.40591758489608765,0.0,0.0,0.0,0.0,0.0,0.0,0.0,-0.7958841835616497,-0.3511687448993331,-0.5826301813805298,0.2521286597669462,0.20062432938016786,0.11374971428949512,-0.4173483937576343,0.8780805213033107,0.755432244624287,-0.2824999799323025,-1.6687826146744844,0.14133126239819122,2.4034171969625686,1.0273664406074416,0.878092876070424,0.7554597494309409,-0.2825552651693207,-1.6690993614607135,0.1414185955172306,2.4034451173676383,1.0273381002308042,0.0005879011350950838,-0.0008002727229936701,-0.00027071461108784203,4.87458710431075e-05,-1.672442373608807e-05,0.0002250853266285062,-0.0006695248437567043,0.0,0.0,0.0,0.0,0.0,0.0,0.0,1.2354767113254006e-05,2.750480665381083e-05,-5.5285237018198874e-05,-0.0003167467862290607,8.733311903938445e-05,2.7920405069714604e-05,-2.834037663745903e-05,-0.0005879011350950838,0.0008002727229936701,0.00027071461108784203,-4.87458710431075e-05,1.672442373608807e-05,-0.0002250853266285062,0.0006695248437567043,0.8354122042655945,46.64718246459961,5.762844562530518,-19.459871292114258,-0.7849021553993225,-2.3724398612976074,0.40591758489608765,0
56,0.2749924659729004,-0.8354122042655945,-46.64718246459961,-5.762844562530518,19.459871292114258,0.7849021553993225,2.3724398612976074,-0.40591758489608765,0.0,0.0,0.0,0.0,0.0,0.0,0.0,-0.7958841835616497,-0.3511687448993331,-0.5826301813805298,0.2521286597669462,0.20062432938016786,0.11374971428949512,-0.4173483937576343,0.8780805213033107,0.755432244624287,-0.2824999799323025,-1.6687826146744844,0.14133126239819122,2.4034171969625686,1.0273664406074416,0.878092876070424,0.7554597494309409,-0.2825552651693207,-1.6690993614607135,0.1414185955172306,2.4034451173676383,1.0273381002308042,0.0005879011350950838,-0.0008002727229936701,-0.00027071461108784203,4.87458710431075e-05,-1.672442373608807e-05,0.0002250853266285062,-0.0006695248437567043,0.0,0.0,0.0,0.0,0.0,0.0,0.0,1.2354767113254006e-05,2.750480665381083e-05,-5.5285237018198874e-05,-0.0003167467862290607,8.733311903938445e-05,2.7920405069714604e-05,-2.834037663745903e-05,-0.0005879011350950838,0.0008002727229936701,0.00027071461108784203,-4.87458710431075e-05,1.672442373608807e-05,-0.0002250853266285062,0.0006695248437567043,0.8354122042655945,46.64718246459961,5.762844562530518,-19.459871292114258,-0.7849021553993225,-2.3724398612976074,0.40591758489608765,0
57,0.2799954414367676,-0.8592159152030945,-46.67495346069336,-5.762844562530518,19.459871292114258,0.7849021553993225,2.3852572441101074,-0.41324180364608765,0.0,0.0,0.0,0.0,0.0,0.0,0.0,-0.8077126727428819,-0.34950280323197985,-0.5892915131228459,0.24977316424818918,0.20051610459197233,0.11328104500214159,-0.41868272528238826,0.878082191739166,0.7554341963550336,-0.282500006177821,-1.668780636695871,0.1413303188538712,2.4034157728089225,1.027364075495137,0.878092876070424,0.7554597494309409,-0.2825552651693207,-1.6690993614607135,0.1414185955172306,2.4034451173676383,1.0273381002308042,0.0009378294324835021,-0.00027749120045757815,-0.0002205356555712136,-0.00028620181685555843,-0.0002789494033749105,3.176911929650812e-05,0.00020312474440181764,0.0,0.0,0.0,0.0,0.0,0.0,0.0,1.0684331257948543e-05,2.5553075907236433e-05,-5.5258991499718135e-05,-0.0003187247648424041,8.827666335939344e-05,2.9344558715838076e-05,-2.5975264332789294e-05,-0.0009378294324835021,0.00027749120045757815,0.0002205356555712136,0.00028620181685555843,0.0002789494033749105,-3.176911929650812e-05,-0.00020312474440181764,0.8592159152030945,46.67495346069336,5.762844562530518,-19.459871292114258,-0.7849021553993225,-2.3852572441101074,0.41324180364608765,0
58,0.28499627113342285,-0.8592159152030945,-46.67495346069336,-5.762844562530518,19.459871292114258,0.7849021553993225,2.3852572441101074,-0.41324180364608765,0.0,0.0,0.0,0.0,0.0,0.0,0.0,-0.8077126727428819,-0.34950280323197985,-0.5892915131228459,0.24977316424818918,0.20051610459197233,0.11328104500214159,-0.41868272528238826,0.878082191739166,0.7554341963550336,-0.282500006177821,-1.668780636695871,0.1413303188538712,2.4034157728089225,1.027364075495137,0.878092876070424,0.7554597494309409,-0.2825552651693207,-1.6690993614607135,0.1414185955172306,2.4034451173676383,1.0273381002308042,0.0009378294324835021,-0.00027749120045757815,-0.0002205356555712136,-0.00028620181685555843,-0.0002789494033749105,3.176911929650812e-05,0.00020312474440181764,0.0,0.0,0.0,0.0,0.0,0.0,0.0,1.0684331257948543e-05,2.5553075907236433e-05,-5.5258991499718135e-05,-0.0003187247648424041,8.827666335939344e-05,2.9344558715838076e-05,-2.5975264332789294e-05,-0.0009378294324835021,0.00027749120045757815,0.0002205356555712136,0.00028620181685555843,0.0002789494033749105,-3.176911929650812e-05,-0.00020312474440181764,0.8592159152030945,46.67495346069336,5.762844562530518,-19.459871292114258,-0.7849021553993225,-2.3852572441101074,0.41324180364608765,0
59,0.2899949550628662,-0.8354122042655945,-46.67495346069336,-5.762844562530518,19.459871292114258,0.7784934639930725,2.3788485527038574,-0.44711631536483765,0.0,0.0,0.0,0.0,0.0,0.0,0.0,-0.8026945493344249,-0.34609122568925915,-0.5841533503084747,0.24790447207461794,0.1996351781783773,0.11339558105338125,-0.41803283112439504,0.8780805213033107,0.7554341703546699,-0.2825000061779691,-1.6687803894358084,0.14133108076329887,2.4034164848857458,1.0273710182262152,0.878092876070424,0.7554597494309409,-0.2825552651693207,-1.6690993614607135,0.1414185955172306,2.4034451173676383,1.0273381002308042,0.0008333002917674621,-8.474320201327652e-05,0.00019914280655041722,-0.00047583844188167054,0.00010421632639055096,8.900556700624153e-05,0.0011893899581734118,0.0,0.0,0.0,0.0,0.0,0.0,0.0,1.2354767113254006e-05,2.5579076270987322e-05,-5.5258991351614384e-05,-0.00031897202490505094,8.751475393173336e-05,2.8632481892554296e-05,-3.291799541105256e-05,-0.0008333002917674621,8.474320201327652e-05,-0.00019914280655041722,0.00047583844188167054,-0.00010421632639055096,-8.900556700624153e-05,-0.0011893899581734118,0.8354122042655945,46.67495346069336,5.762844562530518,-19.459871292114258,-0.7784934639930725,-2.3788485527038574,0.44711631536483765,0
60,0.2950007915496826,-0.8354122042655945,-46.67495346069336,-5.762844562530518,19.459871292114258,0.7784934639930725,2.3788485527038574,-0.44711631536483765,0.0,0.0,0.0,0.0,0.0,0.0,0.0,-0.8026945493344249,-0.34609122568925915,-0.5841533503084747,0.24790447207461794,0.1996351781783773,0.11339558105338125,-0.41803283112439504,0.8780805213033107,0.7554341703546699,-0.2825000061779691,-1.6687803894358084,0.14133108076329887,2.4034164848857458,1.0273710182262152,0.878092876070424,0.7554597494309409,-0.2825552651693207,-1.6690993614607135,0.1414185955172306,2.4034451173676383,1.0273381002308042,0.0008333002917674621,-8.474320201327652e-05,0.00019914280655041722,-0.00047583844188167054,0.00010421632639055096,8.900556700624153e-05,0.0011893899581734118,0.0,0.0,0.0,0.0,0.0,0.0,0.0,1.2354767113254006e-05,2.5579076270987322e-05,-5.5258991351614384e-05,-0.00031897202490505094,8.751475393173336e-05,2.8632481892554296e-05,-3.291799541105256e-05,-0.0008333002917674621,8.474320201327652e-05,-0.00019914280655041722,0.00047583844188167054,-0.00010421632639055096,-8.900556700624153e-05,-0.0011893899581734118,0.8354122042655945,46.67495346069336,5.762844562530518,-19.459871292114258,-0.7784934639930725,-2.3788485527038574,0.44711631536483765,0
61,0.30001044273376465,-0.8354122042655945,-46.67495346069336,-5.762844562530518,19.459871292114258,0.7784934639930725,2.3788485527038574,-0.44711631536483765,0.0,0.0,0.0,0.0,0.0,0.0,0.0,-0.8026945493344249,-0.34609122568925915,-0.5841533503084747,0.24790447207461794,0.1996351781783773,0.11339558105338125,-0.41803283112439504,0.8780805213033107,0.7554341703546699,-0.2825000061779691,-1.6687803894358084,0.14133108076329887,2.4034164848857458,1.0273710182262152,0.878092876070424,0.7554597494309409,-0.2825552651693207,-1.6690993614607135,0.1414185955172306,2.4034451173676383,1.0273381002308042,0.0008333002917674621,-8.474320201327652e-05,0.00019914280655041722,-0.00047583844188167054,0.00010421632639055096,8.900556700624153e-05,0.0011893899581734118,0.0,0.0,0.0,0.0,0.0,0.0,0.0,1.2354767113254006e-05,2.5579076270987322e-05,-5.5258991351614384e-05,-0.00031897202490505094,8.751475393173336e-05,2.8632481892554296e-05,-3.291799541105256e-05,-0.0008333002917674621,8.474320201327652e-05,-0.00019914280655041722,0.00047583844188167054,-0.00010421632639055096,-8.900556700624153e-05,-0.0011893899581734118,0.8354122042655945,46.67495346069336,5.762844562530518,-19.459871292114258,-0.7784934639930725,-2.3788485527038574,0.44711631536483765,0
62,0.30500125885009766,-0.8354122042655945,-46.67495346069336,-5.762844562530518,19.459871292114258,0.7784934639930725,2.3788485527038574,-0.44711631536483765,0.0,0.0,0.0,0.0,0.0,0.0,0.0,-0.8026945493344249,-0.34609122568925915,-0.5841533503084747,0.24790447207461794,0.1996351781783773,0.11339558105338125,-0.41803283112439504,0.8780805213033107,0.7554341703546699,-0.2825000061779691,-1.6687803894358084,0.14133108076329887,2.4034164848857458,1.0273710182262152,0.878092876070424,0.7554597494309409,-0.2825552651693207,-1.6690993614607135,0.1414185955172306,2.4034451173676383,1.0273381002308042,0.0008333002917674621,-8.474320201327652e-05,0.00019914280655041722,-0.00047583844188167054,0.00010421632639055096,8.900556700624153e-05,0.0011893899581734118,0.0,0.0,0.0,0.0,0.0,0.0,0.0,1.2354767113254006e-05,2.5579076270987322e-05,-5.5258991351614384e-05,-0.00031897202490505094,8.751475393173336e-05,2.8632481892554296e-05,-3.291799541105256e-05,-0.0008333002917674621,8.474320201327652e-05,-0.00019914280655041722,0.00047583844188167054,-0.00010421632639055096,-8.900556700624153e-05,-0.0011893899581734118,0.8354122042655945,46.67495346069336,5.762844562530518,-19.459871292114258,-0.7784934639930725,-2.3788485527038574,0.44711631536483765,0
63,0.3099935054779053,-0.8354122042655945,-46.64718246459961,-5.810451984405518,19.459871292114258,0.7849021553993225,2.3852572441101074,-0.39218467473983765,0.0,0.0,0.0,0.0,0.0,0.0,0.0,-0.8076925527202827,-0.3513822320334096,-0.5888795312345951,0.2506191142203271,0.1995509133929859,0.11432084189723182,-0.4182667499458465,0.8780805213033107,0.755432247513072,-0.28249666530625855,-1.6687804170195661,0.1413310779021858,2.4034157728089225,1.0273649146747001,0.878092876070424,0.7554597494309409,-0.2825552651693207,-1.6690993614607135,0.1414185955172306,2.4034451173676383,1.0273381002308042,0.0004001427100971342,-0.0009229882296381908,0.0016121575630675792,2.2146583338458556e-05,8.080972856988086e-05,-0.00029590583813231605,-0.0007653012632886601,0.0,0.0,0.0,0.0,0.0,0.0,0.0,1.2354767113254006e-05,2.7501917868821835e-05,-5.85998630621698e-05,-0.00031894444114732856,8.751761504480204e-05,2.9344558715838076e-05,-2.681444389596166e-05,-0.0004001427100971342,0.0009229882296381908,-0.0016121575630675792,-2.2146583338458556e-05,-8.080972856988086e-05,0.00029590583813231605,0.0007653012632886601,0.8354122042655945,46.64718246459961,5.810451984405518,-19.459871292114258,-0.7849021553993225,-2.3852572441101074,0.39218467473983765,0
64,0.31494784355163574,-0.8354122042655945,-46.64718246459961,-5.810451984405518,19.459871292114258,0.7849021553993225,2.3852572441101074,-0.39218467473983765,0.0,0.0,0.0,0.0,0.0,0.0,0.0,-0.8076925527202827,-0.3513822320334096,-0.5888795312345951,0.2506191142203271,0.1995509133929859,0.11432084189723182,-0.4182667499458465,0.8780805213033107,0.755432247513072,-0.28249666530625855,-1.6687804170195661,0.1413310779021858,2.4034157728089225,1.0273649146747001,0.878092876070424,0.7554597494309409,-0.2825552651693207,-1.6690993614607135,0.1414185955172306,2.4034451173676383,1.0273381002308042,0.0004001427100971342,-0.0009229882296381908,0.0016121575630675792,2.2146583338458556e-05,8.080972856988086e-05,-0.00029590583813231605,-0.0007653012632886601,0.0,0.0,0.0,0.0,0.0,0.0,0.0,1.2354767113254006e-05,2.7501917868821835e-05,-5.85998630621698e-05,-0.00031894444114732856,8.751761504480204e-05,2.9344558715838076e-05,-2.681444389596166e-05,-0.0004001427100971342,0.0009229882296381908,-0.0016121575630675792,-2.2146583338458556e-05,-8.080972856988086e-05,0.00029590583813231605,0.0007653012632886601,0.8354122042655945,46.64718246459961,5.810451984405518,-19.459871292114258,-0.7849021553993225,-2.3852572441101074,0.39218467473983765,0
65,0.32004261016845703,-0.8592159152030945,-46.69875717163086,-5.786648273468018,19.436067581176758,0.7903953194618225,2.3916659355163574,-0.39950889348983765,0.0,0.0,0.0,0.0,0.0,0.0,0.0,-0.8263553283375134,-0.3447746184815901,-0.5979684851812985,0.2463651840927061,0.19975384706584925,0.1135237463717801,-0.4166024297151477,0.8780822182301192,0.7554358667909052,-0.2824983357421138,-1.668778718998713,0.14132615538180832,2.4034154153983596,1.0273657285306184,0.878092876070424,0.7554597494309409,-0.2825552651693207,-1.6690993614607135,0.1414185955172306,2.4034451173676383,1.0273381002308042,0.00017027059626063845,0.00028206994428578495,0.0008422293544400268,0.0005594442629885784,-0.00031752720295563934,-0.0004054708179343708,-0.00079447455921422,0.0,0.0,0.0,0.0,0.0,0.0,0.0,1.0657840304739707e-05,2.388264003561069e-05,-5.692942720691985e-05,-0.0003206424620003645,9.244013542228369e-05,2.9701969278761453e-05,-2.762829981417525e-05,-0.00017027059626063845,-0.00028206994428578495,-0.0008422293544400268,-0.0005594442629885784,0.00031752720295563934,0.0004054708179343708,0.00079447455921422,0.8592159152030945,46.69875717163086,5.786648273468018,-19.436067581176758,-0.7903953194618225,-2.3916659355163574,0.39950889348983765,0
66,0.3254215717315674,-0.8592159152030945,-46.69875717163086,-5.786648273468018,19.436067581176758,0.7903953194618225,2.3916659355163574,-0.39950889348983765,0.0,0.0,0.0,0.0,0.0,0.0,0.0,-0.8263553283375134,-0.3447746184815901,-0.5979684851812985,0.2463651840927061,0.19975384706584925,0.1135237463717801,-0.4166024297151477,0.8780822182301192,0.7554358667909052,-0.2824983357421138,-1.668778718998713,0.14132615538180832,2.4034154153983596,1.0273657285306184,0.878092876070424,0.7554597494309409,-0.2825552651693207,-1.6690993614607135,0.1414185955172306,2.4034451173676383,1.0273381002308042,0.00017027059626063845,0.00028206994428578495,0.0008422293544400268,0.0005594442629885784,-0.00031752720295563934,-0.0004054708179343708,-0.00079447455921422,0.0,0.0,0.0,0.0,0.0,0.0,0.0,1.0657840304739707e-05,2.388264003561069e-05,-5.692942720691985e-05,-0.0003206424620003645,9.244013542228369e-05,2.9701969278761453e-05,-2.762829981417525e-05,-0.00017027059626063845,-0.00028206994428578495,-0.0008422293544400268,-0.0005594442629885784,0.00031752720295563934,0.0004054708179343708,0.00079447455921422,0.8592159152030945,46.69875717163086,5.786648273468018,-19.436067581176758,-0.7903953194618225,-2.3916659355163574,0.39950889348983765,0
67,0.33001041412353516,-0.8076412081718445,-46.64718246459961,-5.810451984405518,19.436067581176758,0.7784934639930725,2.3724398612976074,-0.40591758489608765,0.0,0.0,0.0,0.0,0.0,0.0,0.0,-0.8158979244764613,-0.3409432445775864,-0.5852044593222397,0.24503549480928324,0.19957109015344038,0.11370368409135412,-0.4164510261247413,0.8780792877172666,0.7554322475132188,-0.28249666530625855,-1.6687787200160427,0.14132739425267654,2.4034172362090924,1.0273663228698717,0.878092876070424,0.7554597494309409,-0.2825552651693207,-1.6690993614607135,0.1414185955172306,2.4034451173676383,1.0273381002308042,-0.0006331230009609161,-0.0005351510261154637,0.0013805137272892625,0.0003326462810928779,0.00017699761301726098,0.00033234386057260116,-0.00011956844910427848,0.0,0.0,0.0,0.0,0.0,0.0,0.0,1.3588353157345523e-05,2.750191772205035e-05,-5.85998630621698e-05,-0.00032064144467081057,9.12012645540583e-05,2.7881158545906004e-05,-2.8222639067543298e-05,0.0006331230009609161,0.0005351510261154637,-0.0013805137272892625,-0.0003326462810928779,-0.00017699761301726098,-0.00033234386057260116,0.00011956844910427848,0.8076412081718445,46.64718246459961,5.810451984405518,-19.436067581176758,-0.7784934639930725,-2.3724398612976074,0.40591758489608765,0
68,0.3350038528442383,-0.8076412081718445,-46.64718246459961,-5.810451984405518,19.436067581176758,0.7784934639930725,2.3724398612976074,-0.40591758489608765,0.0,0.0,0.0,0.0,0.0,0.0,0.0,-0.8158979244764613,-0.3409432445775864,-0.5852044593222397,0.24503549480928324,0.19957109015344038,0.11370368409135412,-0.4164510261247413,0.8780792877172666,0.7554322475132188,-0.28249666530625855,-1.6687787200160427,0.14132739425267654,2.4034172362090924,1.0273663228698717,0.878092876070424,0.7554597494309409,-0.2825552651693207,-1.6690993614607135,0.1414185955172306,2.4034451173676383,1.0273381002308042,-0.0006331230009609161,-0.0005351510261154637,0.0013805137272892625,0.0003326462810928779,0.00017699761301726098,0.00033234386057260116,-0.00011956844910427848,0.0,0.0,0.0,0.0,0.0,0.0,0.0,1.3588353157345523e-05,2.750191772205035e-05,-5.85998630621698e-05,-0.00032064144467081057,9.12012645540583e-05,2.7881158545906004e-05,-2.8222639067543298e-05,0.0006331230009609161,0.0005351510261154637,-0.0013805137272892625,-0.0003326462810928779,-0.00017699761301726098,-0.00033234386057260116,0.00011956844910427848,0.8076412081718445,46.64718246459961,5.810451984405518,-19.436067581176758,-0.7784934639930725,-2.3724398612976074,0.40591758489608765,0
69,0.3399941921234131,-0.8076412081718445,-46.69875717163086,-5.735073566436768,19.436067581176758,0.7849021553993225,2.3852572441101074,-0.41324180364608765,0.0,0.0,0.0,0.0,0.0,0.0,0.0,-0.8316866846350726,-0.34322040495036343,-0.5996078487049218,0.2447707705035007,0.19965821319791915,0.11412990348458604,-0.41582248561424906,0.8780785724735924,0.7554358667909052,-0.28250195501980024,-1.6687787193377364,0.14132819454083576,2.403415772809587,1.0273672529539808,0.878092876070424,0.7554597494309409,-0.2825552651693207,-1.6690993614607135,0.1414185955172306,2.4034451173676383,1.0273381002308042,-0.0008163240884442273,0.0009301636142985671,-0.0011744798946060804,0.0008205618810319601,-0.00018122095044122106,-0.00024840595240204307,-0.0006821437923590204,0.0,0.0,0.0,0.0,0.0,0.0,0.0,1.4303596831521936e-05,2.388264003561069e-05,-5.331014952048019e-05,-0.0003206421229771106,9.040097639484435e-05,2.9344558051480618e-05,-2.9152723176606443e-05,0.0008163240884442273,-0.0009301636142985671,0.0011744798946060804,-0.0008205618810319601,0.00018122095044122106,0.00024840595240204307,0.0006821437923590204,0.8076412081718445,46.69875717163086,5.735073566436768,-19.436067581176758,-0.7849021553993225,-2.3852572441101074,0.41324180364608765,0
70,0.34499669075012207,-0.8076412081718445,-46.69875717163086,-5.735073566436768,19.436067581176758,0.7849021553993225,2.3852572441101074,-0.41324180364608765,0.0,0.0,0.0,0.0,0.0,0.0,0.0,-0.8316866846350726,-0.34322040495036343,-0.5996078487049218,0.2447707705035007,0.19965821319791915,0.11412990348458604,-0.41582248561424906,0.8780785724735924,0.7554358667909052,-0.28250195501980024,-1.6687787193377364,0.14132819454083576,2.403415772809587,1.0273672529539808,0.878092876070424,0.7554597494309409,-0.2825552651693207,-1.6690993614607135,0.1414185955172306,2.4034451173676383,1.0273381002308042,-0.0008163240884442273,0.0009301636142985671,-0.0011744798946060804,0.0008205618810319601,-0.00018122095044122106,-0.00024840595240204307,-0.0006821437923590204,0.0,0.0,0.0,0.0,0.0,0.0,0.0,1.4303596831521936e-05,2.388264003561069e-05,-5.331014952048019e-05,-0.0003206421229771106,9.040097639484435e-05,2.9344558051480618e-05,-2.9152723176606443e-05,0.0008163240884442273,-0.0009301636142985671,0.0011744798946060804,-0.0008205618810319601,0.00018122095044122106,0.00024840595240204307,0.0006821437923590204,0.8076412081718445,46.69875717163086,5.735073566436768,-19.436067581176758,-0.7849021553993225,-2.3852572441101074,0.41324180364608765,0
71,0.35005688667297363,-0.8354122042655945,-46.67495346069336,-5.735073566436768,19.459871292114258,0.7903953194618225,2.3660311698913574,-0.43338340520858765,0.0,0.0,0.0,0.0,0.0,0.0,0.0,-0.8173063608971204,-0.34840150627080674,-0.5905283215221067,0.2479907016845479,0.1993300208791267,0.11406253802622877,-0.4163526089477633,0.8780805213033107,0.7554341963550499,-0.28250195501980024,-1.668780389547467,0.1413308098071365,2.4034179090393915,1.0273694923652514,0.878092876070424,0.7554597494309409,-0.2825552651693207,-1.6690993614607135,0.1414185955172306,2.4034451173676383,1.0273381002308042,0.0002459810301675068,9.742342645139742e-06,-0.0008070061332308202,-5.288133265034106e-05,-0.0001446414176659681,0.0004794358271018537,0.0009655446442636577,0.0,0.0,0.0,0.0,0.0,0.0,0.0,1.2354767113254006e-05,2.5553075890916155e-05,-5.331014952048019e-05,-0.00031897191324636864,8.778571009410152e-05,2.7208328246874913e-05,-3.1392134447250086e-05,-0.0002459810301675068,-9.742342645139742e-06,0.0008070061332308202,5.288133265034106e-05,0.0001446414176659681,-0.0004794358271018537,-0.0009655446442636577,0.8354122042655945,46.67495346069336,5.735073566436768,-19.459871292114258,-0.7903953194618225,-2.3660311698913574,0.43338340520858765,0
72,0.3550107479095459,-0.8354122042655945,-46.67495346069336,-5.735073566436768,19.459871292114258,0.7903953194618225,2.3660311698913574,-0.43338340520858765,0.0,0.0,0.0,0.0,0.0,0.0,0.0,-0.8173063608971204,-0.34840150627080674,-0.5905283215221067,0.2479907016845479,0.1993300208791267,0.11406253802622877,-0.4163526089477633,0.8780805213033107,0.7554341963550499,-0.28250195501980024,-1.668780389547467,0.1413308098071365,2.4034179090393915,1.0273694923652514,0.878092876070424,0.7554597494309409,-0.2825552651693207,-1.6690993614607135,0.1414185955172306,2.4034451173676383,1.0273381002308042,0.0002459810301675068,9.742342645139742e-06,-0.0008070061332308202,-5.288133265034106e-05,-0.0001446414176659681,0.0004794358271018537,0.0009655446442636577,0.0,0.0,0.0,0.0,0.0,0.0,0.0,1.2354767113254006e-05,2.5553075890916155e-05,-5.331014952048019e-05,-0.00031897191324636864,8.778571009410152e-05,2.7208328246874913e-05,-3.1392134447250086e-05,-0.0002459810301675068,-9.742342645139742e-06,0.0008070061332308202,5.288133265034106e-05,0.0001446414176659681,-0.0004794358271018537,-0.0009655446442636577,0.8354122042655945,46.67495346069336,5.735073566436768,-19.459871292114258,-0.7903953194618225,-2.3660311698913574,0.43338340520858765,0
73,0.35995030403137207,-0.8076412081718445,-46.69875717163086,-5.735073566436768,19.459871292114258,0.7849021553993225,2.3916659355163574,-0.41965049505233765,0.0,0.0,0.0,0.0,0.0,0.0,0.0,-0.8101035739907562,-0.34435496710425095,-0.585086195105951,0.2452589531445464,0.19936907224425654,0.11342498603614061,-0.4175292219811893,0.8780785812917973,0.7554358667909052,-0.28250195501980024,-1.6687803894344133,0.14133023987247526,2.403415099977956,1.0273679664863478,0.878092876070424,0.7554597494309409,-0.2825552651693207,-1.6690993614607135,0.1414185955172306,2.4034451173676383,1.0273381002308042,0.0002943554222839793,0.0004185254736883723,-0.0005439710651413048,0.0001587451651269953,8.545869582980105e-05,-0.00042137290770254593,-0.00011596188063624487,0.0,0.0,0.0,0.0,0.0,0.0,0.0,1.4294778626688931e-05,2.388264003561069e-05,-5.331014952048019e-05,-0.0003189720263001572,8.835564475534463e-05,3.001738968233525e-05,-2.9866255543575804e-05,-0.0002943554222839793,-0.0004185254736883723,0.0005439710651413048,-0.0001587451651269953,-8.545869582980105e-05,0.00042137290770254593,0.00011596188063624487,0.8076412081718445,46.69875717163086,5.735073566436768,-19.459871292114258,-0.7849021553993225,-2.3916659355163574,0.41965049505233765,0
74,0.3649942874908447,-0.8076412081718445,-46.69875717163086,-5.735073566436768,19.459871292114258,0.7849021553993225,2.3916659355163574,-0.41965049505233765,0.0,0.0,0.0,0.0,0.0,0.0,0.0,-0.8101035739907562,-0.34435496710425095,-0.585086195105951,0.2452589531445464,0.19936907224425654,0.11342498603614061,-0.4175292219811893,0.8780785812917973,0.7554358667909052,-0.28250195501980024,-1.6687803894344133,0.14133023987247526,2.403415099977956,1.0273679664863478,0.878092876070424,0.7554597494309409,-0.2825552651693207,-1.6690993614607135,0.1414185955172306,2.4034451173676383,1.0273381002308042,0.0002943554222839793,0.0004185254736883723,-0.0005439710651413048,0.0001587451651269953,8.545869582980105e-05,-0.00042137290770254593,-0.00011596188063624487,0.0,0.0,0.0,0.0,0.0,0.0,0.0,1.4294778626688931e-05,2.388264003561069e-05,-5.331014952048019e-05,-0.0003189720263001572,8.835564475534463e-05,3.001738968233525e-05,-2.9866255543575804e-05,-0.0002943554222839793,-0.0004185254736883723,0.0005439710651413048,-0.0001587451651269953,-8.545869582980105e-05,0.00042137290770254593,0.00011596188063624487,0.8076412081718445,46.69875717163086,5.735073566436768,-19.459871292114258,-0.7849021553993225,-2.3916659355163574,0.41965049505233765,0
75,0.3699970245361328,-0.8076412081718445,-46.67495346069336,-5.762844562530518,19.436067581176758,0.7903953194618225,2.3660311698913574,-0.41965049505233765,0.0,0.0,0.0,0.0,0.0,0.0,0.0,-0.8204484718319864,-0.3426090004064046,-0.5935356426603625,0.2431452437397453,0.20025393276470704,0.11351439473963436,-0.4182897618875292,0.8780785724615293,0.7554341963550499,-0.2825000061779691,-1.6687787189985575,0.1413271123195268,2.4034179487699863,1.0273679664863478,0.878092876070424,0.7554597494309409,-0.2825552651693207,-1.6690993614607135,0.1414185955172306,2.4034451173676383,1.0273381002308042,-0.0003049075198161455,0.00016215830220888124,0.00023274042993505297,0.0006827886724028844,-0.00018305831727471246,0.0004396986725485766,-1.1678717645934026e-05,0.0,0.0,0.0,0.0,0.0,0.0,0.0,1.430360889465021e-05,2.5553075890916155e-05,-5.5258991351614384e-05,-0.00032064246215601777,9.148319770380109e-05,2.716859765206081e-05,-2.9866255543575804e-05,0.0003049075198161455,-0.00016215830220888124,-0.00023274042993505297,-0.0006827886724028844,0.00018305831727471246,-0.0004396986725485766,1.1678717645934026e-05,0.8076412081718445,46.67495346069336,5.762844562530518,-19.436067581176758,-0.7903953194618225,-2.3660311698913574,0.41965049505233765,0
76,0.3750145435333252,-0.8076412081718445,-46.67495346069336,-5.762844562530518,19.436067581176758,0.7903953194618225,2.3660311698913574,-0.41965049505233765,0.0,0.0,0.0,0.0,0.0,0.0,0.0,-0.8204484718319864,-0.3426090004064046,-0.5935356426603625,0.2431452437397453,0.20025393276470704,0.11351439473963436,-0.4182897618875292,0.8780785724615293,0.7554341963550499,-0.2825000061779691,-1.6687787189985575,0.1413271123195268,2.4034179487699863,1.0273679664863478,0.878092876070424,0.7554597494309409,-0.2825552651693207,-1.6690993614607135,0.1414185955172306,2.4034451173676383,1.0273381002308042,-0.0003049075198161455,0.00016215830220888124,0.00023274042993505297,0.0006827886724028844,-0.00018305831727471246,0.0004396986725485766,-1.1678717645934026e-05,0.0,0.0,0.0,0.0,0.0,0.0,0.0,1.430360889465021e-05,2.5553075890916155e-05,-5.5258991351614384e-05,-0.00032064246215601777,9.148319770380109e-05,2.716859765206081e-05,-2.9866255543575804e-05,0.0003049075198161455,-0.00016215830220888124,-0.00023274042993505297,-0.0006827886724028844,0.00018305831727471246,-0.0004396986725485766,1.1678717645934026e-05,0.8076412081718445,46.67495346069336,5.762844562530518,-19.436067581176758,-0.7903953194618225,-2.3660311698913574,0.41965049505233765,0
77,0.38002848625183105,-0.8076412081718445,-46.64718246459961,-5.762844562530518,19.459871292114258,0.7849021553993225,2.3788485527038574,-0.39218467473983765,0.0,0.0,0.0,0.0,0.0,0.0,0.0,-0.8260392175752773,-0.3488701628413025,-0.5973996760183995,0.24622264345143774,0.20061702964873393,0.11359205950312418,-0.4195794389668305,0.8780785724614796,0.7554322475132188,-0.2825000061779691,-1.6687803894344126,0.1413310780456941,2.4034164853703373,1.0273649147285353,0.878092876070424,0.7554597494309409,-0.2825552651693207,-1.6690993614607135,0.1414185955172306,2.4034451173676383,1.0273381002308042,-0.000170671541853964,-0.0007108429604832703,7.166758654961502e-05,-0.00012723522540164056,-3.7070943778634686e-05,6.804569623458244e-05,-0.0009590262280753896,0.0,0.0,0.0,0.0,0.0,0.0,0.0,1.4303608944388202e-05,2.750191772205035e-05,-5.5258991351614384e-05,-0.00031897202630082333,8.751747153651346e-05,2.863199730107624e-05,-2.6814497731120213e-05,0.000170671541853964,0.0007108429604832703,-7.166758654961502e-05,0.00012723522540164056,3.7070943778634686e-05,-6.804569623458244e-05,0.0009590262280753896,0.8076412081718445,46.64718246459961,5.762844562530518,-19.459871292114258,-0.7849021553993225,-2.3788485527038574,0.39218467473983765,0
78,0.38501524925231934,-0.8076412081718445,-46.64718246459961,-5.762844562530518,19.459871292114258,0.7849021553993225,2.3788485527038574,-0.39218467473983765,0.0,0.0,0.0,0.0,0.0,0.0,0.0,-0.8260392175752773,-0.3488701628413025,-0.5973996760183995,0.24622264345143774,0.20061702964873393,0.11359205950312418,-0.4195794389668305,0.8780785724614796,0.7554322475132188,-0.2825000061779691,-1.6687803894344126,0.1413310780456941,2.4034164853703373,1.0273649147285353,0.878092876070424,0.7554597494309409,-0.2825552651693207,-1.6690993614607135,0.1414185955172306,2.4034451173676383,1.0273381002308042,-0.000170671541853964,-0.0007108429604832703,7.166758654961502e-05,-0.00012723522540164056,-3.7070943778634686e-05,6.804569623458244e-05,-0.0009590262280753896,0.0,0.0,0.0,0.0,0.0,0.0,0.0,1.4303608944388202e-05,2.750191772205035e-05,-5.5258991351614384e-05,-0.00031897202630082333,8.751747153651346e-05,2.863199730107624e-05,-2.6814497731120213e-05,0.000170671541853964,0.0007108429604832703,-7.166758654961502e-05,0.00012723522540164056,3.7070943778634686e-05,-6.804569623458244e-05,0.0009590262280753896,0.8076412081718445,46.64718246459961,5.762844562530518,-19.459871292114258,-0.7849021553993225,-2.3788485527038574,0.39218467473983765,0
79,0.3900110721588135,-0.8354122042655945,-46.67495346069336,-5.786648273468018,19.436067581176758,0.7903953194618225,2.3788485527038574,-0.38577598333358765,0.0,0.0,0.0,0.0,0.0,0.0,0.0,-0.8255230888395447,-0.34417393490570275,-0.595081924702399,0.24552405466057672,0.20084607154126824,0.11321075789723656,-0.41915203376375426,0.8780805213033107,0.7554341963550499,-0.2824983357421138,-1.6687787189985575,0.14133081571591383,2.4034164848857484,1.0273642025978773,0.878092876070424,0.7554597494309409,-0.2825552651693207,-1.6690993614607135,0.1414185955172306,2.4034451173676383,1.0273381002308042,0.00022059982608786503,0.0003219095874712289,0.00039256488652052233,0.00037022734114120235,-7.878161174432051e-05,0.00012158251729556346,-0.001520022066766316,0.0,0.0,0.0,0.0,0.0,0.0,0.0,1.2354767113254006e-05,2.5553075890916155e-05,-5.692942720691985e-05,-0.00032064246215601777,8.777980131677299e-05,2.863248188988976e-05,-2.6102367073121968e-05,-0.00022059982608786503,-0.0003219095874712289,-0.00039256488652052233,-0.00037022734114120235,7.878161174432051e-05,-0.00012158251729556346,0.001520022066766316,0.8354122042655945,46.67495346069336,5.786648273468018,-19.436067581176758,-0.7903953194618225,-2.3788485527038574,0.38577598333358765,0
80,0.3949728012084961,-0.8354122042655945,-46.67495346069336,-5.786648273468018,19.436067581176758,0.7903953194618225,2.3788485527038574,-0.38577598333358765,0.0,0.0,0.0,0.0,0.0,0.0,0.0,-0.8255230888395447,-0.34417393490570275,-0.595081924702399,0.24552405466057672,0.20084607154126824,0.11321075789723656,-0.41915203376375426,0.8780805213033107,0.7554341963550499,-0.2824983357421138,-1.6687787189985575,0.14133081571591383,2.4034164848857484,1.0273642025978773,0.878092876070424,0.7554597494309409,-0.2825552651693207,-1.6690993614607135,0.1414185955172306,2.4034451173676383,1.0273381002308042,0.00022059982608786503,0.0003219095874712289,0.00039256488652052233,0.00037022734114120235,-7.878161174432051e-05,0.00012158251729556346,-0.001520022066766316,0.0,0.0,0.0,0.0,0.0,0.0,0.0,1.2354767113254006e-05,2.5553075890916155e-05,-5.692942720691985e-05,-0.00032064246215601777,8.777980131677299e-05,2.863248188988976e-05,-2.6102367073121968e-05,-0.00022059982608786503,-0.0003219095874712289,-0.00039256488652052233,-0.00037022734114120235,7.878161174432051e-05,-0.00012158251729556346,0.001520022066766316,0.8354122042655945,46.67495346069336,5.786648273468018,-19.436067581176758,-0.7903953194618225,-2.3788485527038574,0.38577598333358765,0
