rezayati/contactInterpretation/dataset/franka_main/labeled_data/link6/b14_3.csv
index,time,tau_J0,tau_J1,tau_J2,tau_J3,tau_J4,tau_J5,tau_J6,tau_J_d0,tau_J_d1,tau_J_d2,tau_J_d3,tau_J_d4,tau_J_d5,tau_J_d6,tau_ext0,tau_ext1,tau_ext2,tau_ext3,tau_ext4,tau_ext5,tau_ext6,q0,q1,q2,q3,q4,q5,q6,q_d0,q_d1,q_d2,q_d3,q_d4,q_d5,q_d6,dq0,dq1,dq2,dq3,dq4,dq5,dq6,dq_d0,dq_d1,dq_d2,dq_d3,dq_d4,dq_d5,dq_d6,e0,e1,e2,e3,e4,e5,e6,de0,de1,de2,de3,de4,de5,de6,etau_J0,etau_J1,etau_J2,etau_J3,etau_J4,etau_J5,etau_J6,label
1,0.0,-0.6806880831718445,-34.13833236694336,-4.048977375030518,19.336885452270508,0.2429099678993225,1.790164589881897,-0.17978231608867645,0.0,0.0,0.0,0.0,0.0,0.0,0.0,-0.6727149389355589,-0.07742926963428275,-0.49825337296455224,0.27037554490313537,0.18316021811272318,-0.11344224484245635,-0.16272658274070098,1.054630830795167,0.3236720093551435,-0.3923670317290122,-2.153142347653077,0.8646348291653363,2.4659340868746793,0.5444979618376742,1.0544104758940245,0.3238615046091247,-0.39250456234122666,-2.153291787532338,0.8647539153680389,2.46587817577521,0.5445020185570556,-0.00013930822135939375,-0.00025431634921663834,-0.00031002765438625367,-0.0009135350940837093,-0.0002169569485032323,-5.095446477759293e-07,0.0004052140811337815,0.0,0.0,0.0,0.0,0.0,0.0,0.0,-0.00022035490114258316,0.00018949525398120892,-0.00013753061221444263,-0.0001494398792609708,0.00011908620270262293,-5.591109946934125e-05,4.056719381417828e-06,0.00013930822135939375,0.00025431634921663834,0.00031002765438625367,0.0009135350940837093,0.0002169569485032323,5.095446477759293e-07,-0.0004052140811337815,0.6806880831718445,34.13833236694336,4.048977375030518,-19.336885452270508,-0.2429099678993225,-1.790164589881897,0.17978231608867645,0
2,0.004995822906494141,-0.6806880831718445,-34.13833236694336,-4.048977375030518,19.336885452270508,0.2429099678993225,1.790164589881897,-0.17978231608867645,0.0,0.0,0.0,0.0,0.0,0.0,0.0,-0.6727149389355589,-0.07742926963428275,-0.49825337296455224,0.27037554490313537,0.18316021811272318,-0.11344224484245635,-0.16272658274070098,1.054630830795167,0.3236720093551435,-0.3923670317290122,-2.153142347653077,0.8646348291653363,2.4659340868746793,0.5444979618376742,1.0544104758940245,0.3238615046091247,-0.39250456234122666,-2.153291787532338,0.8647539153680389,2.46587817577521,0.5445020185570556,-0.00013930822135939375,-0.00025431634921663834,-0.00031002765438625367,-0.0009135350940837093,-0.0002169569485032323,-5.095446477759293e-07,0.0004052140811337815,0.0,0.0,0.0,0.0,0.0,0.0,0.0,-0.00022035490114258316,0.00018949525398120892,-0.00013753061221444263,-0.0001494398792609708,0.00011908620270262293,-5.591109946934125e-05,4.056719381417828e-06,0.00013930822135939375,0.00025431634921663834,0.00031002765438625367,0.0009135350940837093,0.0002169569485032323,5.095446477759293e-07,-0.0004052140811337815,0.6806880831718445,34.13833236694336,4.048977375030518,-19.336885452270508,-0.2429099678993225,-1.790164589881897,0.17978231608867645,0
3,0.009993791580200195,-0.6806880831718445,-34.09072494506836,-3.9974029064178467,19.336885452270508,0.2310081124305725,1.783755898475647,-0.18710653483867645,0.0,0.0,0.0,0.0,0.0,0.0,0.0,-0.6530016806614714,-0.08497770826041491,-0.4780423620394156,0.2785188461996386,0.18202504268173375,-0.11470913040486036,-0.163687216371424,1.0546307552143948,0.32366866848343295,-0.3923706509899675,-2.1531423480677603,0.8646346004806692,2.465934881367103,0.5445008964771596,1.0544104758940245,0.3238615046091247,-0.39250456234122666,-2.153291787532338,0.8647539153680389,2.46587817577521,0.5445020185570556,0.0002513369222630833,-0.001585651891220202,-0.0011786607748356178,-0.0003018530027469709,3.594702526031088e-05,7.912581521842795e-05,0.001188319338809691,0.0,0.0,0.0,0.0,0.0,0.0,0.0,-0.00022027932037027576,0.00019283612569176434,-0.00013391135125917497,-0.00014943946457757207,0.00011931488736971474,-5.6705591893191354e-05,1.1220798959987732e-06,-0.0002513369222630833,0.001585651891220202,0.0011786607748356178,0.0003018530027469709,-3.594702526031088e-05,-7.912581521842795e-05,-0.001188319338809691,0.6806880831718445,34.09072494506836,3.9974029064178467,-19.336885452270508,-0.2310081124305725,-1.783755898475647,0.18710653483867645,0
4,0.014991998672485352,-0.6806880831718445,-34.09072494506836,-3.9974029064178467,19.336885452270508,0.2310081124305725,1.783755898475647,-0.18710653483867645,0.0,0.0,0.0,0.0,0.0,0.0,0.0,-0.6530016806614714,-0.08497770826041491,-0.4780423620394156,0.2785188461996386,0.18202504268173375,-0.11470913040486036,-0.163687216371424,1.0546307552143948,0.32366866848343295,-0.3923706509899675,-2.1531423480677603,0.8646346004806692,2.465934881367103,0.5445008964771596,1.0544104758940245,0.3238615046091247,-0.39250456234122666,-2.153291787532338,0.8647539153680389,2.46587817577521,0.5445020185570556,0.0002513369222630833,-0.001585651891220202,-0.0011786607748356178,-0.0003018530027469709,3.594702526031088e-05,7.912581521842795e-05,0.001188319338809691,0.0,0.0,0.0,0.0,0.0,0.0,0.0,-0.00022027932037027576,0.00019283612569176434,-0.00013391135125917497,-0.00014943946457757207,0.00011931488736971474,-5.6705591893191354e-05,1.1220798959987732e-06,-0.0002513369222630833,0.001585651891220202,0.0011786607748356178,0.0003018530027469709,-3.594702526031088e-05,-7.912581521842795e-05,-0.001188319338809691,0.6806880831718445,34.09072494506836,3.9974029064178467,-19.336885452270508,-0.2310081124305725,-1.783755898475647,0.18710653483867645,0
5,0.019937992095947266,-0.6568843722343445,-34.11452865600586,-4.048977375030518,19.360689163208008,0.2365012764930725,1.790164589881897,-0.17978231608867645,0.0,0.0,0.0,0.0,0.0,0.0,0.0,-0.6557065837713496,-0.07262282035154377,-0.4786208940456919,0.2689424043561512,0.18183629116293684,-0.1160103024175653,-0.16472292120027365,1.0546291698108021,0.32367033891928826,-0.3923670317290122,-2.1531440185413024,0.8646309271447643,2.465934210498895,0.5445016160210524,1.0544104758940245,0.3238615046091247,-0.39250456234122666,-2.153291787532338,0.8647539153680389,2.46587817577521,0.5445020185570556,0.00051906483009147,-0.0006644802970607255,-9.234855646004387e-05,-0.0015625707372245974,3.310948243151517e-05,-4.070916149714501e-05,0.0001488625114129376,0.0,0.0,0.0,0.0,0.0,0.0,0.0,-0.00021869391677764582,0.00019116568983645887,-0.00013753061221444263,-0.00014776899103541297,0.00012298822327461156,-5.6034723685094434e-05,4.0253600319672955e-07,-0.00051906483009147,0.0006644802970607255,9.234855646004387e-05,0.0015625707372245974,-3.310948243151517e-05,4.070916149714501e-05,-0.0001488625114129376,0.6568843722343445,34.11452865600586,4.048977375030518,-19.360689163208008,-0.2365012764930725,-1.790164589881897,0.17978231608867645,0
6,0.024999380111694336,-0.6568843722343445,-34.11452865600586,-4.048977375030518,19.360689163208008,0.2365012764930725,1.790164589881897,-0.17978231608867645,0.0,0.0,0.0,0.0,0.0,0.0,0.0,-0.6557065837713496,-0.07262282035154377,-0.4786208940456919,0.2689424043561512,0.18183629116293684,-0.1160103024175653,-0.16472292120027365,1.0546291698108021,0.32367033891928826,-0.3923670317290122,-2.1531440185413024,0.8646309271447643,2.465934210498895,0.5445016160210524,1.0544104758940245,0.3238615046091247,-0.39250456234122666,-2.153291787532338,0.8647539153680389,2.46587817577521,0.5445020185570556,0.00051906483009147,-0.0006644802970607255,-9.234855646004387e-05,-0.0015625707372245974,3.310948243151517e-05,-4.070916149714501e-05,0.0001488625114129376,0.0,0.0,0.0,0.0,0.0,0.0,0.0,-0.00021869391677764582,0.00019116568983645887,-0.00013753061221444263,-0.00014776899103541297,0.00012298822327461156,-5.6034723685094434e-05,4.0253600319672955e-07,-0.00051906483009147,0.0006644802970607255,9.234855646004387e-05,0.0015625707372245974,-3.310948243151517e-05,4.070916149714501e-05,-0.0001488625114129376,0.6568843722343445,34.11452865600586,4.048977375030518,-19.360689163208008,-0.2365012764930725,-1.790164589881897,0.17978231608867645,0
7,0.029999494552612305,-0.7084590792655945,-34.16213607788086,-4.072781085968018,19.261507034301758,0.2310081124305725,1.777347207069397,-0.15964071452617645,0.0,0.0,0.0,0.0,0.0,0.0,0.0,-0.6623654923665131,-0.07722338835777995,-0.4897211220638745,0.2744620653134245,0.1819946214150686,-0.11429415596764168,-0.16658441351508438,1.05463278898399,0.32367367979099876,-0.39236536129315697,-2.153137049234539,0.8646346354488447,2.4659352179925955,0.544495861128406,1.0544104758940245,0.3238615046091247,-0.39250456234122666,-2.153291787532338,0.8647539153680389,2.46587817577521,0.5445020185570556,0.0007598314571028712,0.0005107605981133637,0.0008164206656382945,0.001206399922243804,0.000218633241154527,0.0007208313823833673,-0.00046454403617394297,0.0,0.0,0.0,0.0,0.0,0.0,0.0,-0.00022231308996545351,0.00018782481812595897,-0.00013920104806969258,-0.00015473829779866222,0.00011927991919424841,-5.7042217385561145e-05,6.157428649622432e-06,-0.0007598314571028712,-0.0005107605981133637,-0.0008164206656382945,-0.001206399922243804,-0.000218633241154527,-0.0007208313823833673,0.00046454403617394297,0.7084590792655945,34.16213607788086,4.072781085968018,-19.261507034301758,-0.2310081124305725,-1.777347207069397,0.15964071452617645,0
8,0.03499865531921387,-0.7084590792655945,-34.16213607788086,-4.072781085968018,19.261507034301758,0.2310081124305725,1.777347207069397,-0.15964071452617645,0.0,0.0,0.0,0.0,0.0,0.0,0.0,-0.6623654923665131,-0.07722338835777995,-0.4897211220638745,0.2744620653134245,0.1819946214150686,-0.11429415596764168,-0.16658441351508438,1.05463278898399,0.32367367979099876,-0.39236536129315697,-2.153137049234539,0.8646346354488447,2.4659352179925955,0.544495861128406,1.0544104758940245,0.3238615046091247,-0.39250456234122666,-2.153291787532338,0.8647539153680389,2.46587817577521,0.5445020185570556,0.0007598314571028712,0.0005107605981133637,0.0008164206656382945,0.001206399922243804,0.000218633241154527,0.0007208313823833673,-0.00046454403617394297,0.0,0.0,0.0,0.0,0.0,0.0,0.0,-0.00022231308996545351,0.00018782481812595897,-0.00013920104806969258,-0.00015473829779866222,0.00011927991919424841,-5.7042217385561145e-05,6.157428649622432e-06,-0.0007598314571028712,-0.0005107605981133637,-0.0008164206656382945,-0.001206399922243804,-0.000218633241154527,-0.0007208313823833673,0.00046454403617394297,0.7084590792655945,34.16213607788086,4.072781085968018,-19.261507034301758,-0.2310081124305725,-1.777347207069397,0.15964071452617645,0
9,0.03999638557434082,-0.6053096652030945,-34.16213607788086,-3.9735991954803467,19.289278030395508,0.2429099678993225,1.790164589881897,-0.18710653483867645,0.0,0.0,0.0,0.0,0.0,0.0,0.0,-0.6345642015288245,-0.08457590135367174,-0.4656541796557556,0.28378779837529444,0.1809179479515561,-0.11512880891904237,-0.16720188017610307,1.054624861768811,0.32367367979099876,-0.39237232142582273,-2.1531389244782244,0.8646311464486282,2.4659341687798837,0.5445024428938905,1.0544104758940245,0.3238615046091247,-0.39250456234122666,-2.153291787532338,0.8647539153680389,2.46587817577521,0.5445020185570556,-0.00040700539874709204,-0.00025522592658604903,-0.0009791773724156865,0.0008944542231805205,-0.00033232900798977987,-0.00010408525030279533,0.0012706308852303168,0.0,0.0,0.0,0.0,0.0,0.0,0.0,-0.00021438587478650462,0.00018782481812595897,-0.00013224091540392502,-0.00015286305411343903,0.00012276891941076506,-5.59930046737378e-05,-4.2433683489218055e-07,0.00040700539874709204,0.00025522592658604903,0.0009791773724156865,-0.0008944542231805205,0.00033232900798977987,0.00010408525030279533,-0.0012706308852303168,0.6053096652030945,34.16213607788086,3.9735991954803467,-19.289278030395508,-0.2429099678993225,-1.790164589881897,0.18710653483867645,0
10,0.04499697685241699,-0.6053096652030945,-34.16213607788086,-3.9735991954803467,19.289278030395508,0.2429099678993225,1.790164589881897,-0.18710653483867645,0.0,0.0,0.0,0.0,0.0,0.0,0.0,-0.6345642015288245,-0.08457590135367174,-0.4656541796557556,0.28378779837529444,0.1809179479515561,-0.11512880891904237,-0.16720188017610307,1.054624861768811,0.32367367979099876,-0.39237232142582273,-2.1531389244782244,0.8646311464486282,2.4659341687798837,0.5445024428938905,1.0544104758940245,0.3238615046091247,-0.39250456234122666,-2.153291787532338,0.8647539153680389,2.46587817577521,0.5445020185570556,-0.00040700539874709204,-0.00025522592658604903,-0.0009791773724156865,0.0008944542231805205,-0.00033232900798977987,-0.00010408525030279533,0.0012706308852303168,0.0,0.0,0.0,0.0,0.0,0.0,0.0,-0.00021438587478650462,0.00018782481812595897,-0.00013224091540392502,-0.00015286305411343903,0.00012276891941076506,-5.59930046737378e-05,-4.2433683489218055e-07,0.00040700539874709204,0.00025522592658604903,0.0009791773724156865,-0.0008944542231805205,0.00033232900798977987,0.00010408525030279533,-0.0012706308852303168,0.6053096652030945,34.16213607788086,3.9735991954803467,-19.289278030395508,-0.2429099678993225,-1.790164589881897,0.18710653483867645,0
11,0.04999423027038574,-0.6568843722343445,-34.18990707397461,-4.025173664093018,19.313081741333008,0.2484031319618225,1.790164589881897,-0.17978231608867645,0.0,0.0,0.0,0.0,0.0,0.0,0.0,-0.6539536455184346,-0.07952407450096659,-0.47977149634799865,0.2749905892357666,0.1821130760840552,-0.1147684551780534,-0.16573027943633772,1.0546291430378438,0.3236756286328299,-0.39236870216486747,-2.153140677669125,0.8646298420872703,2.465933839625547,0.5444973882981387,1.0544104758940245,0.3238615046091247,-0.39250456234122666,-2.153291787532338,0.8647539153680389,2.46587817577521,0.5445020185570556,0.0008773307885027623,0.0005952339098870038,0.0002567251353381377,-0.00029214852260543776,-0.0003930489829761121,-7.8349308642183e-05,0.0008685148220656411,0.0,0.0,0.0,0.0,0.0,0.0,0.0,-0.00021866714381935104,0.00018587597629482477,-0.00013586017635919267,-0.0001511098632129837,0.00012407328076857738,-5.5663850337062115e-05,4.630258916948904e-06,-0.0008773307885027623,-0.0005952339098870038,-0.0002567251353381377,0.00029214852260543776,0.0003930489829761121,7.8349308642183e-05,-0.0008685148220656411,0.6568843722343445,34.18990707397461,4.025173664093018,-19.313081741333008,-0.2484031319618225,-1.790164589881897,0.17978231608867645,0
12,0.05499625205993652,-0.6568843722343445,-34.18990707397461,-4.025173664093018,19.313081741333008,0.2484031319618225,1.790164589881897,-0.17978231608867645,0.0,0.0,0.0,0.0,0.0,0.0,0.0,-0.6539536455184346,-0.07952407450096659,-0.47977149634799865,0.2749905892357666,0.1821130760840552,-0.1147684551780534,-0.16573027943633772,1.0546291430378438,0.3236756286328299,-0.39236870216486747,-2.153140677669125,0.8646298420872703,2.465933839625547,0.5444973882981387,1.0544104758940245,0.3238615046091247,-0.39250456234122666,-2.153291787532338,0.8647539153680389,2.46587817577521,0.5445020185570556,0.0008773307885027623,0.0005952339098870038,0.0002567251353381377,-0.00029214852260543776,-0.0003930489829761121,-7.8349308642183e-05,0.0008685148220656411,0.0,0.0,0.0,0.0,0.0,0.0,0.0,-0.00021866714381935104,0.00018587597629482477,-0.00013586017635919267,-0.0001511098632129837,0.00012407328076857738,-5.5663850337062115e-05,4.630258916948904e-06,-0.0008773307885027623,-0.0005952339098870038,-0.0002567251353381377,0.00029214852260543776,0.0003930489829761121,7.8349308642183e-05,-0.0008685148220656411,0.6568843722343445,34.18990707397461,4.025173664093018,-19.313081741333008,-0.2484031319618225,-1.790164589881897,0.17978231608867645,0
13,0.05999302864074707,-0.6568843722343445,-34.16213607788086,-4.072781085968018,19.289278030395508,0.2310081124305725,1.796573281288147,-0.15964071452617645,0.0,0.0,0.0,0.0,0.0,0.0,0.0,-0.6624899246763485,-0.07925498675594993,-0.4852590362676467,0.271791928529102,0.1832653663967926,-0.11420756529659698,-0.1651246229004119,1.0546289399079338,0.32367367979099876,-0.39236536125715465,-2.1531390072337366,0.8646329398111452,2.465930160560104,0.5444948218699497,1.0544104758940245,0.3238615046091247,-0.39250456234122666,-2.153291787532338,0.8647539153680389,2.46587817577521,0.5445020185570556,-0.0001418066911483507,0.0003796390862840069,0.0005064300387313462,0.0004841075617156573,0.00033975714348641437,-0.00021835117230196548,-0.00041999633758811643,0.0,0.0,0.0,0.0,0.0,0.0,0.0,-0.00021846401390934744,0.00018782481812595897,-0.00013920108407200482,-0.00015278029860121833,0.00012097555689372097,-5.198478489409908e-05,7.196687105914812e-06,0.0001418066911483507,-0.0003796390862840069,-0.0005064300387313462,-0.0004841075617156573,-0.00033975714348641437,0.00021835117230196548,0.00041999633758811643,0.6568843722343445,34.16213607788086,4.072781085968018,-19.289278030395508,-0.2310081124305725,-1.796573281288147,0.15964071452617645,0
14,0.06529784202575684,-0.6568843722343445,-34.16213607788086,-4.072781085968018,19.289278030395508,0.2310081124305725,1.796573281288147,-0.15964071452617645,0.0,0.0,0.0,0.0,0.0,0.0,0.0,-0.6624899246763485,-0.07925498675594993,-0.4852590362676467,0.271791928529102,0.1832653663967926,-0.11420756529659698,-0.1651246229004119,1.0546289399079338,0.32367367979099876,-0.39236536125715465,-2.1531390072337366,0.8646329398111452,2.465930160560104,0.5444948218699497,1.0544104758940245,0.3238615046091247,-0.39250456234122666,-2.153291787532338,0.8647539153680389,2.46587817577521,0.5445020185570556,-0.0001418066911483507,0.0003796390862840069,0.0005064300387313462,0.0004841075617156573,0.00033975714348641437,-0.00021835117230196548,-0.00041999633758811643,0.0,0.0,0.0,0.0,0.0,0.0,0.0,-0.00021846401390934744,0.00018782481812595897,-0.00013920108407200482,-0.00015278029860121833,0.00012097555689372097,-5.198478489409908e-05,7.196687105914812e-06,0.0001418066911483507,-0.0003796390862840069,-0.0005064300387313462,-0.0004841075617156573,-0.00033975714348641437,0.00021835117230196548,0.00041999633758811643,0.6568843722343445,34.16213607788086,4.072781085968018,-19.289278030395508,-0.2310081124305725,-1.796573281288147,0.15964071452617645,0
15,0.07000327110290527,-0.6568843722343445,-34.11452865600586,-4.048977375030518,19.289278030395508,0.2429099678993225,1.796573281288147,-0.12485067546367645,0.0,0.0,0.0,0.0,0.0,0.0,0.0,-0.6462914707158769,-0.07837967195214046,-0.4706689925482285,0.2729944492136831,0.18264851796251355,-0.11501474909768661,-0.16556668227802568,1.0546291668355898,0.32367033891928826,-0.392367031729012,-2.1531390071206826,0.8646311425689788,2.4659334984034627,0.5444920172383737,1.0544104758940245,0.3238615046091247,-0.39250456234122666,-2.153291787532338,0.8647539153680389,2.46587817577521,0.5445020185570556,-0.000143140897376477,-0.0006198638599895378,0.00045305643987861527,0.0005587028728271404,-0.00023350852454008436,-0.00020188111135625506,-0.0016734623594044026,0.0,0.0,0.0,0.0,0.0,0.0,0.0,-0.00021869094156534707,0.00019116568983645887,-0.00013753061221466467,-0.00015278041165522893,0.0001227727990601446,-5.5322628252696404e-05,1.000131868189591e-05,0.000143140897376477,0.0006198638599895378,-0.00045305643987861527,-0.0005587028728271404,0.00023350852454008436,0.00020188111135625506,0.0016734623594044026,0.6568843722343445,34.11452865600586,4.048977375030518,-19.289278030395508,-0.2429099678993225,-1.796573281288147,0.12485067546367645,0
16,0.0750420093536377,-0.6568843722343445,-34.11452865600586,-4.048977375030518,19.289278030395508,0.2429099678993225,1.796573281288147,-0.12485067546367645,0.0,0.0,0.0,0.0,0.0,0.0,0.0,-0.6462914707158769,-0.07837967195214046,-0.4706689925482285,0.2729944492136831,0.18264851796251355,-0.11501474909768661,-0.16556668227802568,1.0546291668355898,0.32367033891928826,-0.392367031729012,-2.1531390071206826,0.8646311425689788,2.4659334984034627,0.5444920172383737,1.0544104758940245,0.3238615046091247,-0.39250456234122666,-2.153291787532338,0.8647539153680389,2.46587817577521,0.5445020185570556,-0.000143140897376477,-0.0006198638599895378,0.00045305643987861527,0.0005587028728271404,-0.00023350852454008436,-0.00020188111135625506,-0.0016734623594044026,0.0,0.0,0.0,0.0,0.0,0.0,0.0,-0.00021869094156534707,0.00019116568983645887,-0.00013753061221466467,-0.00015278041165522893,0.0001227727990601446,-5.5322628252696404e-05,1.000131868189591e-05,0.000143140897376477,0.0006198638599895378,-0.00045305643987861527,-0.0005587028728271404,0.00023350852454008436,0.00020188111135625506,0.0016734623594044026,0.6568843722343445,34.11452865600586,4.048977375030518,-19.289278030395508,-0.2429099678993225,-1.796573281288147,0.12485067546367645,0
17,0.07999253273010254,-0.7322627902030945,-34.16213607788086,-4.048977375030518,19.289278030395508,0.2310081124305725,1.777347207069397,-0.16604940593242645,0.0,0.0,0.0,0.0,0.0,0.0,0.0,-0.6657121145815922,-0.07579452287326814,-0.4846751424364279,0.2709276278432676,0.1830120979967884,-0.11323300410439634,-0.16388898439693658,1.054634459524807,0.32367367979099876,-0.3923670317290122,-2.153139007233736,0.8646356831004203,2.4659356346527734,0.5444953898340922,1.0544104758940245,0.3238615046091247,-0.39250456234122666,-2.153291787532338,0.8647539153680389,2.46587817577521,0.5445020185570556,0.0013636262244143488,0.0006427258602148399,-0.00040768760937836635,0.0008224736015312587,0.00016696711451490048,0.0003945666644194434,0.00036785071596272094,0.0,0.0,0.0,0.0,0.0,0.0,0.0,-0.00022398363078246497,0.00018782481812595897,-0.00013753061221444263,-0.00015278029860166242,0.00011823226761864536,-5.745887756347656e-05,6.628722963419875e-06,-0.0013636262244143488,-0.0006427258602148399,0.00040768760937836635,-0.0008224736015312587,-0.00016696711451490048,-0.0003945666644194434,-0.00036785071596272094,0.7322627902030945,34.16213607788086,4.048977375030518,-19.289278030395508,-0.2310081124305725,-1.777347207069397,0.16604940593242645,0
18,0.08494925498962402,-0.7322627902030945,-34.16213607788086,-4.048977375030518,19.289278030395508,0.2310081124305725,1.777347207069397,-0.16604940593242645,0.0,0.0,0.0,0.0,0.0,0.0,0.0,-0.6657121145815922,-0.07579452287326814,-0.4846751424364279,0.2709276278432676,0.1830120979967884,-0.11323300410439634,-0.16388898439693658,1.054634459524807,0.32367367979099876,-0.3923670317290122,-2.153139007233736,0.8646356831004203,2.4659356346527734,0.5444953898340922,1.0544104758940245,0.3238615046091247,-0.39250456234122666,-2.153291787532338,0.8647539153680389,2.46587817577521,0.5445020185570556,0.0013636262244143488,0.0006427258602148399,-0.00040768760937836635,0.0008224736015312587,0.00016696711451490048,0.0003945666644194434,0.00036785071596272094,0.0,0.0,0.0,0.0,0.0,0.0,0.0,-0.00022398363078246497,0.00018782481812595897,-0.00013753061221444263,-0.00015278029860166242,0.00011823226761864536,-5.745887756347656e-05,6.628722963419875e-06,-0.0013636262244143488,-0.0006427258602148399,0.00040768760937836635,-0.0008224736015312587,-0.00016696711451490048,-0.0003945666644194434,-0.00036785071596272094,0.7322627902030945,34.16213607788086,4.048977375030518,-19.289278030395508,-0.2310081124305725,-1.777347207069397,0.16604940593242645,0
19,0.09000968933105469,-0.6568843722343445,-34.11452865600586,-4.048977375030518,19.289278030395508,0.2310081124305725,1.783755898475647,-0.17978231608867645,0.0,0.0,0.0,0.0,0.0,0.0,0.0,-0.6498781610219712,-0.07609736505287228,-0.4696979368976041,0.2764785851796938,0.18177046333105312,-0.11473705150532786,-0.16183919643786177,1.0546291443014755,0.32367033891928826,-0.3923670317290122,-2.1531390072337366,0.864632627011025,2.4659347988949754,0.5444969172135814,1.0544104758940245,0.3238615046091247,-0.39250456234122666,-2.153291787532338,0.8647539153680389,2.46587817577521,0.5445020185570556,-0.00022133130013595768,-0.000388662272229329,6.419866555039748e-05,0.0009322007957991725,0.0003559109251324198,0.0003134952144489686,0.0003960058394998808,0.0,0.0,0.0,0.0,0.0,0.0,0.0,-0.0002186684074509948,0.00019116568983645887,-0.00013753061221444263,-0.00015278029860121833,0.00012128835701397112,-5.662311976539769e-05,5.101343474200881e-06,0.00022133130013595768,0.000388662272229329,-6.419866555039748e-05,-0.0009322007957991725,-0.0003559109251324198,-0.0003134952144489686,-0.0003960058394998808,0.6568843722343445,34.11452865600586,4.048977375030518,-19.289278030395508,-0.2310081124305725,-1.783755898475647,0.17978231608867645,0
20,0.09518194198608398,-0.6568843722343445,-34.11452865600586,-4.048977375030518,19.289278030395508,0.2310081124305725,1.783755898475647,-0.17978231608867645,0.0,0.0,0.0,0.0,0.0,0.0,0.0,-0.6498781610219712,-0.07609736505287228,-0.4696979368976041,0.2764785851796938,0.18177046333105312,-0.11473705150532786,-0.16183919643786177,1.0546291443014755,0.32367033891928826,-0.3923670317290122,-2.1531390072337366,0.864632627011025,2.4659347988949754,0.5444969172135814,1.0544104758940245,0.3238615046091247,-0.39250456234122666,-2.153291787532338,0.8647539153680389,2.46587817577521,0.5445020185570556,-0.00022133130013595768,-0.000388662272229329,6.419866555039748e-05,0.0009322007957991725,0.0003559109251324198,0.0003134952144489686,0.0003960058394998808,0.0,0.0,0.0,0.0,0.0,0.0,0.0,-0.0002186684074509948,0.00019116568983645887,-0.00013753061221444263,-0.00015278029860121833,0.00012128835701397112,-5.662311976539769e-05,5.101343474200881e-06,0.00022133130013595768,0.000388662272229329,-6.419866555039748e-05,-0.0009322007957991725,-0.0003559109251324198,-0.0003134952144489686,-0.0003960058394998808,0.6568843722343445,34.11452865600586,4.048977375030518,-19.289278030395508,-0.2310081124305725,-1.783755898475647,0.17978231608867645,0
21,0.09995484352111816,-0.6568843722343445,-34.13833236694336,-4.025173664093018,19.336885452270508,0.2484031319618225,1.783755898475647,-0.19351522624492645,0.0,0.0,0.0,0.0,0.0,0.0,0.0,-0.6436986895499184,-0.06898163389745525,-0.46273323281519674,0.276298303639728,0.18162165579568754,-0.11554353870834534,-0.16236555084080684,1.0546291613078693,0.3236720093551435,-0.39236870216486747,-2.1531423481054475,0.8646341335135707,2.4659349209924977,0.544502720837035,1.0544104758940245,0.3238615046091247,-0.39250456234122666,-2.153291787532338,0.8647539153680389,2.46587817577521,0.5445020185570556,0.00042081874231488225,0.00016377893785187087,2.9426326866050674e-05,-0.0005200466187433726,-0.00030258914610121145,0.00014737261970857197,0.0008256375860539077,0.0,0.0,0.0,0.0,0.0,0.0,0.0,-0.00021868541384484352,0.00018949525398120892,-0.00013586017635919267,-0.00014943942689038536,0.0001197818544682594,-5.6745217287712535e-05,-7.022799793920953e-07,-0.00042081874231488225,-0.00016377893785187087,-2.9426326866050674e-05,0.0005200466187433726,0.00030258914610121145,-0.00014737261970857197,-0.0008256375860539077,0.6568843722343445,34.13833236694336,4.025173664093018,-19.336885452270508,-0.2484031319618225,-1.783755898475647,0.19351522624492645,0
22,0.10499048233032227,-0.6568843722343445,-34.13833236694336,-4.025173664093018,19.336885452270508,0.2484031319618225,1.783755898475647,-0.19351522624492645,0.0,0.0,0.0,0.0,0.0,0.0,0.0,-0.6436986895499184,-0.06898163389745525,-0.46273323281519674,0.276298303639728,0.18162165579568754,-0.11554353870834534,-0.16236555084080684,1.0546291613078693,0.3236720093551435,-0.39236870216486747,-2.1531423481054475,0.8646341335135707,2.4659349209924977,0.544502720837035,1.0544104758940245,0.3238615046091247,-0.39250456234122666,-2.153291787532338,0.8647539153680389,2.46587817577521,0.5445020185570556,0.00042081874231488225,0.00016377893785187087,2.9426326866050674e-05,-0.0005200466187433726,-0.00030258914610121145,0.00014737261970857197,0.0008256375860539077,0.0,0.0,0.0,0.0,0.0,0.0,0.0,-0.00021868541384484352,0.00018949525398120892,-0.00013586017635919267,-0.00014943942689038536,0.0001197818544682594,-5.6745217287712535e-05,-7.022799793920953e-07,-0.00042081874231488225,-0.00016377893785187087,-2.9426326866050674e-05,0.0005200466187433726,0.00030258914610121145,-0.00014737261970857197,-0.0008256375860539077,0.6568843722343445,34.13833236694336,4.025173664093018,-19.336885452270508,-0.2484031319618225,-1.783755898475647,0.19351522624492645,0
23,0.11000370979309082,-0.6568843722343445,-34.13833236694336,-4.025173664093018,19.336885452270508,0.2484031319618225,1.783755898475647,-0.19351522624492645,0.0,0.0,0.0,0.0,0.0,0.0,0.0,-0.6436986895499184,-0.06898163389745525,-0.46273323281519674,0.276298303639728,0.18162165579568754,-0.11554353870834534,-0.16236555084080684,1.0546291613078693,0.3236720093551435,-0.39236870216486747,-2.1531423481054475,0.8646341335135707,2.4659349209924977,0.544502720837035,1.0544104758940245,0.3238615046091247,-0.39250456234122666,-2.153291787532338,0.8647539153680389,2.46587817577521,0.5445020185570556,0.00042081874231488225,0.00016377893785187087,2.9426326866050674e-05,-0.0005200466187433726,-0.00030258914610121145,0.00014737261970857197,0.0008256375860539077,0.0,0.0,0.0,0.0,0.0,0.0,0.0,-0.00021868541384484352,0.00018949525398120892,-0.00013586017635919267,-0.00014943942689038536,0.0001197818544682594,-5.6745217287712535e-05,-7.022799793920953e-07,-0.00042081874231488225,-0.00016377893785187087,-2.9426326866050674e-05,0.0005200466187433726,0.00030258914610121145,-0.00014737261970857197,-0.0008256375860539077,0.6568843722343445,34.13833236694336,4.025173664093018,-19.336885452270508,-0.2484031319618225,-1.783755898475647,0.19351522624492645,0
24,0.11500787734985352,-0.6568843722343445,-34.13833236694336,-4.025173664093018,19.336885452270508,0.2484031319618225,1.783755898475647,-0.19351522624492645,0.0,0.0,0.0,0.0,0.0,0.0,0.0,-0.6436986895499184,-0.06898163389745525,-0.46273323281519674,0.276298303639728,0.18162165579568754,-0.11554353870834534,-0.16236555084080684,1.0546291613078693,0.3236720093551435,-0.39236870216486747,-2.1531423481054475,0.8646341335135707,2.4659349209924977,0.544502720837035,1.0544104758940245,0.3238615046091247,-0.39250456234122666,-2.153291787532338,0.8647539153680389,2.46587817577521,0.5445020185570556,0.00042081874231488225,0.00016377893785187087,2.9426326866050674e-05,-0.0005200466187433726,-0.00030258914610121145,0.00014737261970857197,0.0008256375860539077,0.0,0.0,0.0,0.0,0.0,0.0,0.0,-0.00021868541384484352,0.00018949525398120892,-0.00013586017635919267,-0.00014943942689038536,0.0001197818544682594,-5.6745217287712535e-05,-7.022799793920953e-07,-0.00042081874231488225,-0.00016377893785187087,-2.9426326866050674e-05,0.0005200466187433726,0.00030258914610121145,-0.00014737261970857197,-0.0008256375860539077,0.6568843722343445,34.13833236694336,4.025173664093018,-19.336885452270508,-0.2484031319618225,-1.783755898475647,0.19351522624492645,0
25,0.11999797821044922,-0.6806880831718445,-34.16213607788086,-4.048977375030518,19.289278030395508,0.2245994210243225,1.790164589881897,-0.13858358561992645,0.0,0.0,0.0,0.0,0.0,0.0,0.0,-0.6671789464182936,-0.07677685603356019,-0.4822495578567646,0.277051480947287,0.1824514873449071,-0.11427168732447882,-0.16324431466103148,1.0546308145973113,0.32367367979099876,-0.3923670317290122,-2.1531390072337366,0.8646363848955353,2.4659308726390115,0.5444924859250773,1.0544104758940245,0.3238615046091247,-0.39250456234122666,-2.153291787532338,0.8647539153680389,2.46587817577521,0.5445020185570556,0.0002615969978585898,-0.00023324924746142528,-3.4790584714650254e-06,5.7873672397621475e-05,0.0003872752139077017,-8.085270799900279e-05,-0.000976760337796853,0.0,0.0,0.0,0.0,0.0,0.0,0.0,-0.00022033870328685978,0.00018782481812595897,-0.00013753061221444263,-0.00015278029860121833,0.00011753047250362414,-5.269686380149352e-05,9.532631978337314e-06,-0.0002615969978585898,0.00023324924746142528,3.4790584714650254e-06,-5.7873672397621475e-05,-0.0003872752139077017,8.085270799900279e-05,0.000976760337796853,0.6806880831718445,34.16213607788086,4.048977375030518,-19.289278030395508,-0.2245994210243225,-1.790164589881897,0.13858358561992645,0
26,0.12501788139343262,-0.6806880831718445,-34.16213607788086,-4.048977375030518,19.289278030395508,0.2245994210243225,1.790164589881897,-0.13858358561992645,0.0,0.0,0.0,0.0,0.0,0.0,0.0,-0.6671789464182936,-0.07677685603356019,-0.4822495578567646,0.277051480947287,0.1824514873449071,-0.11427168732447882,-0.16324431466103148,1.0546308145973113,0.32367367979099876,-0.3923670317290122,-2.1531390072337366,0.8646363848955353,2.4659308726390115,0.5444924859250773,1.0544104758940245,0.3238615046091247,-0.39250456234122666,-2.153291787532338,0.8647539153680389,2.46587817577521,0.5445020185570556,0.0002615969978585898,-0.00023324924746142528,-3.4790584714650254e-06,5.7873672397621475e-05,0.0003872752139077017,-8.085270799900279e-05,-0.000976760337796853,0.0,0.0,0.0,0.0,0.0,0.0,0.0,-0.00022033870328685978,0.00018782481812595897,-0.00013753061221444263,-0.00015278029860121833,0.00011753047250362414,-5.269686380149352e-05,9.532631978337314e-06,-0.0002615969978585898,0.00023324924746142528,3.4790584714650254e-06,-5.7873672397621475e-05,-0.0003872752139077017,8.085270799900279e-05,0.000976760337796853,0.6806880831718445,34.16213607788086,4.048977375030518,-19.289278030395508,-0.2245994210243225,-1.790164589881897,0.13858358561992645,0
27,0.12999868392944336,-0.6568843722343445,-34.11452865600586,-4.048977375030518,19.289278030395508,0.2310081124305725,1.790164589881897,-0.16604940593242645,0.0,0.0,0.0,0.0,0.0,0.0,0.0,-0.6635405233901305,-0.07104366478131122,-0.47601096844834806,0.27105053573753163,0.18189002707957488,-0.11568967879522844,-0.1620827628705449,1.0546291698108479,0.32367033891928826,-0.3923670317290122,-2.1531387599848397,0.8646346531268179,2.465933097822565,0.5444965972456844,1.0544104758940245,0.3238615046091247,-0.39250456234122666,-2.153291787532338,0.8647539153680389,2.46587817577521,0.5445020185570556,-8.635599378741934e-05,-0.0009405137931223275,-0.00010048647570563793,8.688895488685856e-05,0.00032554433123126256,-7.765169476694041e-05,0.0005638269438222949,0.0,0.0,0.0,0.0,0.0,0.0,0.0,-0.000218693916823387,0.00019116568983645887,-0.00013753061221444263,-0.0001530275474981302,0.000119262241221052,-5.4922047354910575e-05,5.421311371156534e-06,8.635599378741934e-05,0.0009405137931223275,0.00010048647570563793,-8.688895488685856e-05,-0.00032554433123126256,7.765169476694041e-05,-0.0005638269438222949,0.6568843722343445,34.11452865600586,4.048977375030518,-19.289278030395508,-0.2310081124305725,-1.790164589881897,0.16604940593242645,0
28,0.1349482536315918,-0.6568843722343445,-34.11452865600586,-4.048977375030518,19.289278030395508,0.2310081124305725,1.790164589881897,-0.16604940593242645,0.0,0.0,0.0,0.0,0.0,0.0,0.0,-0.6635405233901305,-0.07104366478131122,-0.47601096844834806,0.27105053573753163,0.18189002707957488,-0.11568967879522844,-0.1620827628705449,1.0546291698108479,0.32367033891928826,-0.3923670317290122,-2.1531387599848397,0.8646346531268179,2.465933097822565,0.5444965972456844,1.0544104758940245,0.3238615046091247,-0.39250456234122666,-2.153291787532338,0.8647539153680389,2.46587817577521,0.5445020185570556,-8.635599378741934e-05,-0.0009405137931223275,-0.00010048647570563793,8.688895488685856e-05,0.00032554433123126256,-7.765169476694041e-05,0.0005638269438222949,0.0,0.0,0.0,0.0,0.0,0.0,0.0,-0.000218693916823387,0.00019116568983645887,-0.00013753061221444263,-0.0001530275474981302,0.000119262241221052,-5.4922047354910575e-05,5.421311371156534e-06,8.635599378741934e-05,0.0009405137931223275,0.00010048647570563793,-8.688895488685856e-05,-0.00032554433123126256,7.765169476694041e-05,-0.0005638269438222949,0.6568843722343445,34.11452865600586,4.048977375030518,-19.289278030395508,-0.2310081124305725,-1.790164589881897,0.16604940593242645,0
29,0.13999271392822266,-0.7084590792655945,-34.11452865600586,-4.048977375030518,19.313081741333008,0.2429099678993225,1.790164589881897,-0.19351522624492645,0.0,0.0,0.0,0.0,0.0,0.0,0.0,-0.6554576119904799,-0.08063259157581279,-0.4719097147444015,0.2760327556202234,0.1815313470930465,-0.11532295049627184,-0.1603496679639997,1.0546325591857715,0.32367033891928826,-0.3923670317290122,-2.1531399359224364,0.8646347095422856,2.4659308725803997,0.5445017393698202,1.0544104758940245,0.3238615046091247,-0.39250456234122666,-2.153291787532338,0.8647539153680389,2.46587817577521,0.5445020185570556,0.0015345379641153768,-0.0010483524028981632,8.527719860491573e-05,0.00024632802404652386,-0.00018090460060772205,4.0474749949518575e-05,0.0011501936007486022,0.0,0.0,0.0,0.0,0.0,0.0,0.0,-0.00022208329174699948,0.00019116568983645887,-0.00013753061221444263,-0.00015185160990149882,0.00011920582575331018,-5.2696805189711426e-05,2.7918723544129165e-07,-0.0015345379641153768,0.0010483524028981632,-8.527719860491573e-05,-0.00024632802404652386,0.00018090460060772205,-4.0474749949518575e-05,-0.0011501936007486022,0.7084590792655945,34.11452865600586,4.048977375030518,-19.313081741333008,-0.2429099678993225,-1.790164589881897,0.19351522624492645,0
30,0.1449909210205078,-0.7084590792655945,-34.11452865600586,-4.048977375030518,19.313081741333008,0.2429099678993225,1.790164589881897,-0.19351522624492645,0.0,0.0,0.0,0.0,0.0,0.0,0.0,-0.6554576119904799,-0.08063259157581279,-0.4719097147444015,0.2760327556202234,0.1815313470930465,-0.11532295049627184,-0.1603496679639997,1.0546325591857715,0.32367033891928826,-0.3923670317290122,-2.1531399359224364,0.8646347095422856,2.4659308725803997,0.5445017393698202,1.0544104758940245,0.3238615046091247,-0.39250456234122666,-2.153291787532338,0.8647539153680389,2.46587817577521,0.5445020185570556,0.0015345379641153768,-0.0010483524028981632,8.527719860491573e-05,0.00024632802404652386,-0.00018090460060772205,4.0474749949518575e-05,0.0011501936007486022,0.0,0.0,0.0,0.0,0.0,0.0,0.0,-0.00022208329174699948,0.00019116568983645887,-0.00013753061221444263,-0.00015185160990149882,0.00011920582575331018,-5.2696805189711426e-05,2.7918723544129165e-07,-0.0015345379641153768,0.0010483524028981632,-8.527719860491573e-05,-0.00024632802404652386,0.00018090460060772205,-4.0474749949518575e-05,-0.0011501936007486022,0.7084590792655945,34.11452865600586,4.048977375030518,-19.313081741333008,-0.2429099678993225,-1.790164589881897,0.19351522624492645,0
31,0.1499924659729004,-0.6053096652030945,-34.16213607788086,-4.048977375030518,19.313081741333008,0.2310081124305725,1.790164589881897,-0.19351522624492645,0.0,0.0,0.0,0.0,0.0,0.0,0.0,-0.6579253615253347,-0.07670868947435436,-0.4759188861538692,0.27210192776494013,0.18184300075997678,-0.11559396880023949,-0.1612059888330184,1.0546253195793145,0.32367367979099876,-0.39236702298045667,-2.153140677552351,0.8646360394402294,2.465934210480285,0.5445021322216281,1.0544104758940245,0.3238615046091247,-0.39250456234122666,-2.153291787532338,0.8647539153680389,2.46587817577521,0.5445020185570556,-0.0012709085572991663,0.0003659621664247257,0.0002404986866866867,-0.0001918652315990768,3.930394658454069e-05,-3.6175605738802906e-05,0.0012963494434210467,0.0,0.0,0.0,0.0,0.0,0.0,0.0,-0.00021484368529001152,0.00018782481812595897,-0.0001375393607699893,-0.00015110997998668552,0.00011787592780954093,-5.6034705075092006e-05,-1.1366457253192408e-07,0.0012709085572991663,-0.0003659621664247257,-0.0002404986866866867,0.0001918652315990768,-3.930394658454069e-05,3.6175605738802906e-05,-0.0012963494434210467,0.6053096652030945,34.16213607788086,4.048977375030518,-19.313081741333008,-0.2310081124305725,-1.790164589881897,0.19351522624492645,0
32,0.15500736236572266,-0.6053096652030945,-34.16213607788086,-4.048977375030518,19.313081741333008,0.2310081124305725,1.790164589881897,-0.19351522624492645,0.0,0.0,0.0,0.0,0.0,0.0,0.0,-0.6579253615253347,-0.07670868947435436,-0.4759188861538692,0.27210192776494013,0.18184300075997678,-0.11559396880023949,-0.1612059888330184,1.0546253195793145,0.32367367979099876,-0.39236702298045667,-2.153140677552351,0.8646360394402294,2.465934210480285,0.5445021322216281,1.0544104758940245,0.3238615046091247,-0.39250456234122666,-2.153291787532338,0.8647539153680389,2.46587817577521,0.5445020185570556,-0.0012709085572991663,0.0003659621664247257,0.0002404986866866867,-0.0001918652315990768,3.930394658454069e-05,-3.6175605738802906e-05,0.0012963494434210467,0.0,0.0,0.0,0.0,0.0,0.0,0.0,-0.00021484368529001152,0.00018782481812595897,-0.0001375393607699893,-0.00015110997998668552,0.00011787592780954093,-5.6034705075092006e-05,-1.1366457253192408e-07,0.0012709085572991663,-0.0003659621664247257,-0.0002404986866866867,0.0001918652315990768,-3.930394658454069e-05,3.6175605738802906e-05,-0.0012963494434210467,0.6053096652030945,34.16213607788086,4.048977375030518,-19.313081741333008,-0.2310081124305725,-1.790164589881897,0.19351522624492645,0
33,0.1599888801574707,-0.6291133761405945,-34.13833236694336,-3.9974029064178467,19.336885452270508,0.2365012764930725,1.790164589881897,-0.13217489421367645,0.0,0.0,0.0,0.0,0.0,0.0,0.0,-0.6532464724040891,-0.08077677912118722,-0.4752105944985179,0.2741310043332746,0.18152296840904472,-0.11581765134995564,-0.16187338718752556,1.0546251545688166,0.3236720093551435,-0.3923706509899181,-2.153142347087962,0.8646312448262935,2.4659342104991278,0.5444951990553335,1.0544104758940245,0.3238615046091247,-0.39250456234122666,-2.153291787532338,0.8647539153680389,2.46587817577521,0.5445020185570556,0.00019390049410335854,-0.0004362379194587519,-0.0009556306023800657,-0.0007748608663140776,-6.944349983817033e-05,-5.661355611400739e-05,-0.00139916954382359,0.0,0.0,0.0,0.0,0.0,0.0,0.0,-0.00021467867479207925,0.00018949525398120892,-0.0001339113513085799,-0.00014944044437603665,0.0001226705417454177,-5.603472391779718e-05,6.819501722099552e-06,-0.00019390049410335854,0.0004362379194587519,0.0009556306023800657,0.0007748608663140776,6.944349983817033e-05,5.661355611400739e-05,0.00139916954382359,0.6291133761405945,34.13833236694336,3.9974029064178467,-19.336885452270508,-0.2365012764930725,-1.790164589881897,0.13217489421367645,0
34,0.16499805450439453,-0.6291133761405945,-34.13833236694336,-3.9974029064178467,19.336885452270508,0.2365012764930725,1.790164589881897,-0.13217489421367645,0.0,0.0,0.0,0.0,0.0,0.0,0.0,-0.6532464724040891,-0.08077677912118722,-0.4752105944985179,0.2741310043332746,0.18152296840904472,-0.11581765134995564,-0.16187338718752556,1.0546251545688166,0.3236720093551435,-0.3923706509899181,-2.153142347087962,0.8646312448262935,2.4659342104991278,0.5444951990553335,1.0544104758940245,0.3238615046091247,-0.39250456234122666,-2.153291787532338,0.8647539153680389,2.46587817577521,0.5445020185570556,0.00019390049410335854,-0.0004362379194587519,-0.0009556306023800657,-0.0007748608663140776,-6.944349983817033e-05,-5.661355611400739e-05,-0.00139916954382359,0.0,0.0,0.0,0.0,0.0,0.0,0.0,-0.00021467867479207925,0.00018949525398120892,-0.0001339113513085799,-0.00014944044437603665,0.0001226705417454177,-5.603472391779718e-05,6.819501722099552e-06,-0.00019390049410335854,0.0004362379194587519,0.0009556306023800657,0.0007748608663140776,6.944349983817033e-05,5.661355611400739e-05,0.00139916954382359,0.6291133761405945,34.13833236694336,3.9974029064178467,-19.336885452270508,-0.2365012764930725,-1.790164589881897,0.13217489421367645,0
35,0.169996976852417,-0.6291133761405945,-34.13833236694336,-4.048977375030518,19.313081741333008,0.2310081124305725,1.796573281288147,-0.12485067546367645,0.0,0.0,0.0,0.0,0.0,0.0,0.0,-0.6561700336091923,-0.07166430448193689,-0.47970430347420406,0.267897370522044,0.18172192698391815,-0.11609147890779485,-0.16152897447878503,1.0546269913461952,0.3236720093551435,-0.3923670317290122,-2.1531406776695747,0.8646328256769659,2.4659334968960773,0.5444913221243595,1.0544104758940245,0.3238615046091247,-0.39250456234122666,-2.153291787532338,0.8647539153680389,2.46587817577521,0.5445020185570556,-0.00048633382049774004,0.00013701993305092789,0.00077950051550184,3.0834977499724464e-05,9.27118859428731e-05,-0.00010647462833131372,-0.0016274138085109109,0.0,0.0,0.0,0.0,0.0,0.0,0.0,-0.000216515452170718,0.00018949525398120892,-0.00013753061221444263,-0.00015110986276312133,0.00012108969107305079,-5.5321120867368734e-05,1.0696432696133407e-05,0.00048633382049774004,-0.00013701993305092789,-0.00077950051550184,-3.0834977499724464e-05,-9.27118859428731e-05,0.00010647462833131372,0.0016274138085109109,0.6291133761405945,34.13833236694336,4.048977375030518,-19.313081741333008,-0.2310081124305725,-1.796573281288147,0.12485067546367645,0
36,0.17503929138183594,-0.6291133761405945,-34.13833236694336,-4.048977375030518,19.313081741333008,0.2310081124305725,1.796573281288147,-0.12485067546367645,0.0,0.0,0.0,0.0,0.0,0.0,0.0,-0.6561700336091923,-0.07166430448193689,-0.47970430347420406,0.267897370522044,0.18172192698391815,-0.11609147890779485,-0.16152897447878503,1.0546269913461952,0.3236720093551435,-0.3923670317290122,-2.1531406776695747,0.8646328256769659,2.4659334968960773,0.5444913221243595,1.0544104758940245,0.3238615046091247,-0.39250456234122666,-2.153291787532338,0.8647539153680389,2.46587817577521,0.5445020185570556,-0.00048633382049774004,0.00013701993305092789,0.00077950051550184,3.0834977499724464e-05,9.27118859428731e-05,-0.00010647462833131372,-0.0016274138085109109,0.0,0.0,0.0,0.0,0.0,0.0,0.0,-0.000216515452170718,0.00018949525398120892,-0.00013753061221444263,-0.00015110986276312133,0.00012108969107305079,-5.5321120867368734e-05,1.0696432696133407e-05,0.00048633382049774004,-0.00013701993305092789,-0.00077950051550184,-3.0834977499724464e-05,-9.27118859428731e-05,0.00010647462833131372,0.0016274138085109109,0.6291133761405945,34.13833236694336,4.048977375030518,-19.313081741333008,-0.2310081124305725,-1.796573281288147,0.12485067546367645,0
37,0.18000507354736328,-0.6291133761405945,-34.13833236694336,-4.025173664093018,19.289278030395508,0.2245994210243225,1.790164589881897,-0.15231649577617645,0.0,0.0,0.0,0.0,0.0,0.0,0.0,-0.6479807535313021,-0.07611977787152237,-0.47290700476706027,0.2713259234901734,0.18123330246543323,-0.11591457715371829,-0.1611305912828736,1.0546271943627687,0.3236720093551435,-0.39236870216486747,-2.153136781993665,0.8646332152964618,2.465934210499125,0.5444942231377082,1.0544104758940245,0.3238615046091247,-0.39250456234122666,-2.153291787532338,0.8647539153680389,2.46587817577521,0.5445020185570556,-7.352782212061323e-05,-0.00011548509911695849,-0.00023151307212417515,0.0005435620516016027,0.000299682787087919,-0.0002501569275741162,-0.0005782465180386799,0.0,0.0,0.0,0.0,0.0,0.0,0.0,-0.00021671846874427025,0.00018949525398120892,-0.00013586017635919267,-0.00015500553867298095,0.00012070007157716223,-5.6034723915132645e-05,7.795419347367272e-06,7.352782212061323e-05,0.00011548509911695849,0.00023151307212417515,-0.0005435620516016027,-0.000299682787087919,0.0002501569275741162,0.0005782465180386799,0.6291133761405945,34.13833236694336,4.025173664093018,-19.289278030395508,-0.2245994210243225,-1.790164589881897,0.15231649577617645,0
38,0.18503975868225098,-0.6291133761405945,-34.13833236694336,-4.025173664093018,19.289278030395508,0.2245994210243225,1.790164589881897,-0.15231649577617645,0.0,0.0,0.0,0.0,0.0,0.0,0.0,-0.6479807535313021,-0.07611977787152237,-0.47290700476706027,0.2713259234901734,0.18123330246543323,-0.11591457715371829,-0.1611305912828736,1.0546271943627687,0.3236720093551435,-0.39236870216486747,-2.153136781993665,0.8646332152964618,2.465934210499125,0.5444942231377082,1.0544104758940245,0.3238615046091247,-0.39250456234122666,-2.153291787532338,0.8647539153680389,2.46587817577521,0.5445020185570556,-7.352782212061323e-05,-0.00011548509911695849,-0.00023151307212417515,0.0005435620516016027,0.000299682787087919,-0.0002501569275741162,-0.0005782465180386799,0.0,0.0,0.0,0.0,0.0,0.0,0.0,-0.00021671846874427025,0.00018949525398120892,-0.00013586017635919267,-0.00015500553867298095,0.00012070007157716223,-5.6034723915132645e-05,7.795419347367272e-06,7.352782212061323e-05,0.00011548509911695849,0.00023151307212417515,-0.0005435620516016027,-0.000299682787087919,0.0002501569275741162,0.0005782465180386799,0.6291133761405945,34.13833236694336,4.025173664093018,-19.289278030395508,-0.2245994210243225,-1.790164589881897,0.15231649577617645,0
39,0.18999934196472168,-0.6568843722343445,-34.13833236694336,-3.9974029064178467,19.336885452270508,0.2429099678993225,1.790164589881897,-0.19351522624492645,0.0,0.0,0.0,0.0,0.0,0.0,0.0,-0.6600008679181101,-0.0780237629684177,-0.485992686470311,0.27182584030976253,0.18144380029669901,-0.11519348186199198,-0.16152035006680593,1.0546291698108317,0.3236720093551435,-0.3923706509899675,-2.153142265651464,0.8646300545968719,2.4659342104991278,0.5444988337268936,1.0544104758940245,0.3238615046091247,-0.39250456234122666,-2.153291787532338,0.8647539153680389,2.46587817577521,0.5445020185570556,1.4925200763503418e-06,-4.989592786425319e-05,-0.0015394076331418179,-0.0006647284344516633,-0.00026065242913955456,5.065131701915536e-05,0.0009440766726469975,0.0,0.0,0.0,0.0,0.0,0.0,0.0,-0.00021869391680717776,0.00018949525398120892,-0.00013391135125917497,-0.00014952188087402618,0.0001238607711669948,-5.603472391779718e-05,3.1848301620396313e-06,-1.4925200763503418e-06,4.989592786425319e-05,0.0015394076331418179,0.0006647284344516633,0.00026065242913955456,-5.065131701915536e-05,-0.0009440766726469975,0.6568843722343445,34.13833236694336,3.9974029064178467,-19.336885452270508,-0.2429099678993225,-1.790164589881897,0.19351522624492645,0
40,0.1949939727783203,-0.6568843722343445,-34.13833236694336,-3.9974029064178467,19.336885452270508,0.2429099678993225,1.790164589881897,-0.19351522624492645,0.0,0.0,0.0,0.0,0.0,0.0,0.0,-0.6600008679181101,-0.0780237629684177,-0.485992686470311,0.27182584030976253,0.18144380029669901,-0.11519348186199198,-0.16152035006680593,1.0546291698108317,0.3236720093551435,-0.3923706509899675,-2.153142265651464,0.8646300545968719,2.4659342104991278,0.5444988337268936,1.0544104758940245,0.3238615046091247,-0.39250456234122666,-2.153291787532338,0.8647539153680389,2.46587817577521,0.5445020185570556,1.4925200763503418e-06,-4.989592786425319e-05,-0.0015394076331418179,-0.0006647284344516633,-0.00026065242913955456,5.065131701915536e-05,0.0009440766726469975,0.0,0.0,0.0,0.0,0.0,0.0,0.0,-0.00021869391680717776,0.00018949525398120892,-0.00013391135125917497,-0.00014952188087402618,0.0001238607711669948,-5.603472391779718e-05,3.1848301620396313e-06,-1.4925200763503418e-06,4.989592786425319e-05,0.0015394076331418179,0.0006647284344516633,0.00026065242913955456,-5.065131701915536e-05,-0.0009440766726469975,0.6568843722343445,34.13833236694336,3.9974029064178467,-19.336885452270508,-0.2429099678993225,-1.790164589881897,0.19351522624492645,0
41,0.20003056526184082,-0.6291133761405945,-34.13833236694336,-4.025173664093018,19.360689163208008,0.2310081124305725,1.796573281288147,-0.15231649577617645,0.0,0.0,0.0,0.0,0.0,0.0,0.0,-0.6480195700275435,-0.07678677059256525,-0.4765298366308908,0.272639601162286,0.18113458101252275,-0.11553719081206525,-0.16234589093209123,1.0546264528408236,0.3236720093551435,-0.3923687018048446,-2.1531440185411475,0.8646313819119144,2.4659323858022693,0.5444975460251292,1.0544104758940245,0.3238615046091247,-0.39250456234122666,-2.153291787532338,0.8647539153680389,2.46587817577521,0.5445020185570556,-0.0007846634504368116,-0.00042244039919011234,-0.0002639468469218558,-0.0010958425535380534,0.000400266965979613,-0.00029981781723735555,-0.0005674481096774391,0.0,0.0,0.0,0.0,0.0,0.0,0.0,-0.00021597694679909019,0.00018949525398120892,-0.00013586053638203754,-0.0001477689911904001,0.0001225334561245628,-5.421002705929823e-05,4.4725319263694274e-06,0.0007846634504368116,0.00042244039919011234,0.0002639468469218558,0.0010958425535380534,-0.000400266965979613,0.00029981781723735555,0.0005674481096774391,0.6291133761405945,34.13833236694336,4.025173664093018,-19.360689163208008,-0.2310081124305725,-1.796573281288147,0.15231649577617645,0
42,0.20500540733337402,-0.6291133761405945,-34.13833236694336,-4.025173664093018,19.360689163208008,0.2310081124305725,1.796573281288147,-0.15231649577617645,0.0,0.0,0.0,0.0,0.0,0.0,0.0,-0.6480195700275435,-0.07678677059256525,-0.4765298366308908,0.272639601162286,0.18113458101252275,-0.11553719081206525,-0.16234589093209123,1.0546264528408236,0.3236720093551435,-0.3923687018048446,-2.1531440185411475,0.8646313819119144,2.4659323858022693,0.5444975460251292,1.0544104758940245,0.3238615046091247,-0.39250456234122666,-2.153291787532338,0.8647539153680389,2.46587817577521,0.5445020185570556,-0.0007846634504368116,-0.00042244039919011234,-0.0002639468469218558,-0.0010958425535380534,0.000400266965979613,-0.00029981781723735555,-0.0005674481096774391,0.0,0.0,0.0,0.0,0.0,0.0,0.0,-0.00021597694679909019,0.00018949525398120892,-0.00013586053638203754,-0.0001477689911904001,0.0001225334561245628,-5.421002705929823e-05,4.4725319263694274e-06,0.0007846634504368116,0.00042244039919011234,0.0002639468469218558,0.0010958425535380534,-0.000400266965979613,0.00029981781723735555,0.0005674481096774391,0.6291133761405945,34.13833236694336,4.025173664093018,-19.360689163208008,-0.2310081124305725,-1.796573281288147,0.15231649577617645,0
43,0.2099916934967041,-0.6568843722343445,-34.18990707397461,-4.025173664093018,19.313081741333008,0.2365012764930725,1.777347207069397,-0.19351522624492645,0.0,0.0,0.0,0.0,0.0,0.0,0.0,-0.6536743291629629,-0.07663194193567396,-0.4804697935314167,0.27204537180311394,0.1818548707788205,-0.11538892310964162,-0.1627426876590224,1.0546290918778105,0.3236756286328299,-0.3923687021648654,-2.1531406773304305,0.8646312891151148,2.4659356346464927,0.5445021173652839,1.0544104758940245,0.3238615046091247,-0.39250456234122666,-2.153291787532338,0.8647539153680389,2.46587817577521,0.5445020185570556,-0.0004257980146664364,0.0010137598183722495,-0.0004952137023841553,-0.0003564084279245702,-0.00018562866635699456,0.0004801874630699597,0.0011690051222203253,0.0,0.0,0.0,0.0,0.0,0.0,0.0,-0.0002186159837860302,0.00018587597629482477,-0.0001358601763612466,-0.00015111020190738955,0.00012262625292414064,-5.745887128272287e-05,-9.880822826602298e-08,0.0004257980146664364,-0.0010137598183722495,0.0004952137023841553,0.0003564084279245702,0.00018562866635699456,-0.0004801874630699597,-0.0011690051222203253,0.6568843722343445,34.18990707397461,4.025173664093018,-19.313081741333008,-0.2365012764930725,-1.777347207069397,0.19351522624492645,0
44,0.214951753616333,-0.6568843722343445,-34.18990707397461,-4.025173664093018,19.313081741333008,0.2365012764930725,1.777347207069397,-0.19351522624492645,0.0,0.0,0.0,0.0,0.0,0.0,0.0,-0.6536743291629629,-0.07663194193567396,-0.4804697935314167,0.27204537180311394,0.1818548707788205,-0.11538892310964162,-0.1627426876590224,1.0546290918778105,0.3236756286328299,-0.3923687021648654,-2.1531406773304305,0.8646312891151148,2.4659356346464927,0.5445021173652839,1.0544104758940245,0.3238615046091247,-0.39250456234122666,-2.153291787532338,0.8647539153680389,2.46587817577521,0.5445020185570556,-0.0004257980146664364,0.0010137598183722495,-0.0004952137023841553,-0.0003564084279245702,-0.00018562866635699456,0.0004801874630699597,0.0011690051222203253,0.0,0.0,0.0,0.0,0.0,0.0,0.0,-0.0002186159837860302,0.00018587597629482477,-0.0001358601763612466,-0.00015111020190738955,0.00012262625292414064,-5.745887128272287e-05,-9.880822826602298e-08,0.0004257980146664364,-0.0010137598183722495,0.0004952137023841553,0.0003564084279245702,0.00018562866635699456,-0.0004801874630699597,-0.0011690051222203253,0.6568843722343445,34.18990707397461,4.025173664093018,-19.313081741333008,-0.2365012764930725,-1.777347207069397,0.19351522624492645,0
45,0.21998977661132812,-0.6806880831718445,-34.11452865600586,-4.048977375030518,19.289278030395508,0.2365012764930725,1.783755898475647,-0.12485067546367645,0.0,0.0,0.0,0.0,0.0,0.0,0.0,-0.6521138306463977,-0.07731793527759474,-0.47821933442525943,0.27568950974450795,0.18158808359081877,-0.11557330098851228,-0.16293423912868338,1.054630814701898,0.32367033891928826,-0.3923670317290122,-2.153139007233735,0.8646312433857117,2.4659348797850464,0.5444922638773351,1.0544104758940245,0.3238615046091247,-0.39250456234122666,-2.153291787532338,0.8647539153680389,2.46587817577521,0.5445020185570556,0.00047342509741487356,-0.0006001862103211384,0.00011090972952026655,0.0007657829475762024,-3.400960083263688e-05,0.00032465088561919734,-0.0014676116072815768,0.0,0.0,0.0,0.0,0.0,0.0,0.0,-0.00022033880787342142,0.00019116568983645887,-0.00013753061221444263,-0.0001527802986029947,0.00012267198232718268,-5.670400983648349e-05,9.754679720530568e-06,-0.00047342509741487356,0.0006001862103211384,-0.00011090972952026655,-0.0007657829475762024,3.400960083263688e-05,-0.00032465088561919734,0.0014676116072815768,0.6806880831718445,34.11452865600586,4.048977375030518,-19.289278030395508,-0.2365012764930725,-1.783755898475647,0.12485067546367645,0
46,0.22495102882385254,-0.6806880831718445,-34.11452865600586,-4.048977375030518,19.289278030395508,0.2365012764930725,1.783755898475647,-0.12485067546367645,0.0,0.0,0.0,0.0,0.0,0.0,0.0,-0.6521138306463977,-0.07731793527759474,-0.47821933442525943,0.27568950974450795,0.18158808359081877,-0.11557330098851228,-0.16293423912868338,1.054630814701898,0.32367033891928826,-0.3923670317290122,-2.153139007233735,0.8646312433857117,2.4659348797850464,0.5444922638773351,1.0544104758940245,0.3238615046091247,-0.39250456234122666,-2.153291787532338,0.8647539153680389,2.46587817577521,0.5445020185570556,0.00047342509741487356,-0.0006001862103211384,0.00011090972952026655,0.0007657829475762024,-3.400960083263688e-05,0.00032465088561919734,-0.0014676116072815768,0.0,0.0,0.0,0.0,0.0,0.0,0.0,-0.00022033880787342142,0.00019116568983645887,-0.00013753061221444263,-0.0001527802986029947,0.00012267198232718268,-5.670400983648349e-05,9.754679720530568e-06,-0.00047342509741487356,0.0006001862103211384,-0.00011090972952026655,-0.0007657829475762024,3.400960083263688e-05,-0.00032465088561919734,0.0014676116072815768,0.6806880831718445,34.11452865600586,4.048977375030518,-19.289278030395508,-0.2365012764930725,-1.783755898475647,0.12485067546367645,0
47,0.22998642921447754,-0.6806880831718445,-34.11452865600586,-4.048977375030518,19.289278030395508,0.2365012764930725,1.783755898475647,-0.12485067546367645,0.0,0.0,0.0,0.0,0.0,0.0,0.0,-0.6521138306463977,-0.07731793527759474,-0.47821933442525943,0.27568950974450795,0.18158808359081877,-0.11557330098851228,-0.16293423912868338,1.054630814701898,0.32367033891928826,-0.3923670317290122,-2.153139007233735,0.8646312433857117,2.4659348797850464,0.5444922638773351,1.0544104758940245,0.3238615046091247,-0.39250456234122666,-2.153291787532338,0.8647539153680389,2.46587817577521,0.5445020185570556,0.00047342509741487356,-0.0006001862103211384,0.00011090972952026655,0.0007657829475762024,-3.400960083263688e-05,0.00032465088561919734,-0.0014676116072815768,0.0,0.0,0.0,0.0,0.0,0.0,0.0,-0.00022033880787342142,0.00019116568983645887,-0.00013753061221444263,-0.0001527802986029947,0.00012267198232718268,-5.670400983648349e-05,9.754679720530568e-06,-0.00047342509741487356,0.0006001862103211384,-0.00011090972952026655,-0.0007657829475762024,3.400960083263688e-05,-0.00032465088561919734,0.0014676116072815768,0.6806880831718445,34.11452865600586,4.048977375030518,-19.289278030395508,-0.2365012764930725,-1.783755898475647,0.12485067546367645,0
48,0.23494577407836914,-0.6806880831718445,-34.11452865600586,-4.048977375030518,19.289278030395508,0.2365012764930725,1.783755898475647,-0.12485067546367645,0.0,0.0,0.0,0.0,0.0,0.0,0.0,-0.6521138306463977,-0.07731793527759474,-0.47821933442525943,0.27568950974450795,0.18158808359081877,-0.11557330098851228,-0.16293423912868338,1.054630814701898,0.32367033891928826,-0.3923670317290122,-2.153139007233735,0.8646312433857117,2.4659348797850464,0.5444922638773351,1.0544104758940245,0.3238615046091247,-0.39250456234122666,-2.153291787532338,0.8647539153680389,2.46587817577521,0.5445020185570556,0.00047342509741487356,-0.0006001862103211384,0.00011090972952026655,0.0007657829475762024,-3.400960083263688e-05,0.00032465088561919734,-0.0014676116072815768,0.0,0.0,0.0,0.0,0.0,0.0,0.0,-0.00022033880787342142,0.00019116568983645887,-0.00013753061221444263,-0.0001527802986029947,0.00012267198232718268,-5.670400983648349e-05,9.754679720530568e-06,-0.00047342509741487356,0.0006001862103211384,-0.00011090972952026655,-0.0007657829475762024,3.400960083263688e-05,-0.00032465088561919734,0.0014676116072815768,0.6806880831718445,34.11452865600586,4.048977375030518,-19.289278030395508,-0.2365012764930725,-1.783755898475647,0.12485067546367645,0
49,0.24004101753234863,-0.6568843722343445,-34.13833236694336,-4.048977375030518,19.261507034301758,0.2429099678993225,1.783755898475647,-0.11844198405742645,0.0,0.0,0.0,0.0,0.0,0.0,0.0,-0.6550648540264059,-0.08101104454872095,-0.48050190227365364,0.27624987705979814,0.18145195909353323,-0.11536100221987991,-0.16243721834817365,1.054629090342316,0.3236720093551435,-0.3923670317290122,-2.153137049234539,0.8646348230065789,2.4659338099556734,0.5444947962197766,1.0544104758940245,0.3238615046091247,-0.39250456234122666,-2.153291787532338,0.8647539153680389,2.46587817577521,0.5445020185570556,-4.4632789284667506e-05,-0.0007170722618211044,8.874165994017867e-05,0.0011665466481570494,-0.0003805144482892682,0.0003955247811460268,-0.0017522054650709943,0.0,0.0,0.0,0.0,0.0,0.0,0.0,-0.00021861444829140986,0.00018949525398120892,-0.00013753061221444263,-0.00015473829779866222,0.0001190923614600159,-5.563418046339308e-05,7.222337279011448e-06,4.4632789284667506e-05,0.0007170722618211044,-8.874165994017867e-05,-0.0011665466481570494,0.0003805144482892682,-0.0003955247811460268,0.0017522054650709943,0.6568843722343445,34.13833236694336,4.048977375030518,-19.261507034301758,-0.2429099678993225,-1.783755898475647,0.11844198405742645,0
50,0.24499249458312988,-0.6568843722343445,-34.13833236694336,-4.048977375030518,19.261507034301758,0.2429099678993225,1.783755898475647,-0.11844198405742645,0.0,0.0,0.0,0.0,0.0,0.0,0.0,-0.6550648540264059,-0.08101104454872095,-0.48050190227365364,0.27624987705979814,0.18145195909353323,-0.11536100221987991,-0.16243721834817365,1.054629090342316,0.3236720093551435,-0.3923670317290122,-2.153137049234539,0.8646348230065789,2.4659338099556734,0.5444947962197766,1.0544104758940245,0.3238615046091247,-0.39250456234122666,-2.153291787532338,0.8647539153680389,2.46587817577521,0.5445020185570556,-4.4632789284667506e-05,-0.0007170722618211044,8.874165994017867e-05,0.0011665466481570494,-0.0003805144482892682,0.0003955247811460268,-0.0017522054650709943,0.0,0.0,0.0,0.0,0.0,0.0,0.0,-0.00021861444829140986,0.00018949525398120892,-0.00013753061221444263,-0.00015473829779866222,0.0001190923614600159,-5.563418046339308e-05,7.222337279011448e-06,4.4632789284667506e-05,0.0007170722618211044,-8.874165994017867e-05,-0.0011665466481570494,0.0003805144482892682,-0.0003955247811460268,0.0017522054650709943,0.6568843722343445,34.13833236694336,4.048977375030518,-19.261507034301758,-0.2429099678993225,-1.783755898475647,0.11844198405742645,0
51,0.24999237060546875,-0.6568843722343445,-34.11452865600586,-4.025173664093018,19.261507034301758,0.2429099678993225,1.802981972694397,-0.18710653483867645,0.0,0.0,0.0,0.0,0.0,0.0,0.0,-0.6447492215373722,-0.07722975443955249,-0.47150738684398147,0.2735130901026144,0.18082967358379362,-0.11619585763487329,-0.16197808096797842,1.0546289398026576,0.32367033891928826,-0.3923687018408469,-2.153137058391854,0.8646336485440375,2.465932743604824,0.5445009536707401,1.0544104758940245,0.3238615046091247,-0.39250456234122666,-2.153291787532338,0.8647539153680389,2.46587817577521,0.5445020185570556,0.0006957213219243023,-0.0008057280843833035,-0.00024295829986049878,0.0010642884107354626,-0.0003976010579107827,-0.00046084765866551055,0.001497663203039785,0.0,0.0,0.0,0.0,0.0,0.0,0.0,-0.00021846390863311527,0.00019116568983645887,-0.0001358605003797808,-0.00015472914048375586,0.00012026682400145816,-5.456782961399398e-05,1.0648863154605337e-06,-0.0006957213219243023,0.0008057280843833035,0.00024295829986049878,-0.0010642884107354626,0.0003976010579107827,0.00046084765866551055,-0.001497663203039785,0.6568843722343445,34.11452865600586,4.025173664093018,-19.261507034301758,-0.2429099678993225,-1.802981972694397,0.18710653483867645,0
52,0.25504016876220703,-0.6568843722343445,-34.11452865600586,-4.025173664093018,19.261507034301758,0.2429099678993225,1.802981972694397,-0.18710653483867645,0.0,0.0,0.0,0.0,0.0,0.0,0.0,-0.6447492215373722,-0.07722975443955249,-0.47150738684398147,0.2735130901026144,0.18082967358379362,-0.11619585763487329,-0.16197808096797842,1.0546289398026576,0.32367033891928826,-0.3923687018408469,-2.153137058391854,0.8646336485440375,2.465932743604824,0.5445009536707401,1.0544104758940245,0.3238615046091247,-0.39250456234122666,-2.153291787532338,0.8647539153680389,2.46587817577521,0.5445020185570556,0.0006957213219243023,-0.0008057280843833035,-0.00024295829986049878,0.0010642884107354626,-0.0003976010579107827,-0.00046084765866551055,0.001497663203039785,0.0,0.0,0.0,0.0,0.0,0.0,0.0,-0.00021846390863311527,0.00019116568983645887,-0.0001358605003797808,-0.00015472914048375586,0.00012026682400145816,-5.456782961399398e-05,1.0648863154605337e-06,-0.0006957213219243023,0.0008057280843833035,0.00024295829986049878,-0.0010642884107354626,0.0003976010579107827,0.00046084765866551055,-0.001497663203039785,0.6568843722343445,34.11452865600586,4.025173664093018,-19.261507034301758,-0.2429099678993225,-1.802981972694397,0.18710653483867645,0
53,0.25995302200317383,-0.6053096652030945,-34.16213607788086,-3.9735991954803467,19.289278030395508,0.2365012764930725,1.802981972694397,-0.14590780436992645,0.0,0.0,0.0,0.0,0.0,0.0,0.0,-0.6580391206181221,-0.08037749306579273,-0.4856049793042091,0.27239805999773126,0.18150587129351273,-0.11420742218059375,-0.16205109653932454,1.0546255247075547,0.32367367979099876,-0.3923723214258209,-2.1531390072337366,0.8646308077740418,2.465932772609191,0.544497865268692,1.0544104758940245,0.3238615046091247,-0.39250456234122666,-2.153291787532338,0.8647539153680389,2.46587817577521,0.5445020185570556,-0.0011759023396286272,0.00026776607029323457,-0.0018551327817643078,0.000700757398285299,-0.0001235905417810211,-0.0004879364112355551,-0.0011124510619976956,0.0,0.0,0.0,0.0,0.0,0.0,0.0,-0.00021504881353018312,0.00018782481812595897,-0.0001322409154057569,-0.00015278029860121833,0.00012310759399714044,-5.4596833980902204e-05,4.153288363561991e-06,0.0011759023396286272,-0.00026776607029323457,0.0018551327817643078,-0.000700757398285299,0.0001235905417810211,0.0004879364112355551,0.0011124510619976956,0.6053096652030945,34.16213607788086,3.9735991954803467,-19.289278030395508,-0.2365012764930725,-1.802981972694397,0.14590780436992645,0
54,0.2649879455566406,-0.6053096652030945,-34.16213607788086,-3.9735991954803467,19.289278030395508,0.2365012764930725,1.802981972694397,-0.14590780436992645,0.0,0.0,0.0,0.0,0.0,0.0,0.0,-0.6580391206181221,-0.08037749306579273,-0.4856049793042091,0.27239805999773126,0.18150587129351273,-0.11420742218059375,-0.16205109653932454,1.0546255247075547,0.32367367979099876,-0.3923723214258209,-2.1531390072337366,0.8646308077740418,2.465932772609191,0.544497865268692,1.0544104758940245,0.3238615046091247,-0.39250456234122666,-2.153291787532338,0.8647539153680389,2.46587817577521,0.5445020185570556,-0.0011759023396286272,0.00026776607029323457,-0.0018551327817643078,0.000700757398285299,-0.0001235905417810211,-0.0004879364112355551,-0.0011124510619976956,0.0,0.0,0.0,0.0,0.0,0.0,0.0,-0.00021504881353018312,0.00018782481812595897,-0.0001322409154057569,-0.00015278029860121833,0.00012310759399714044,-5.4596833980902204e-05,4.153288363561991e-06,0.0011759023396286272,-0.00026776607029323457,0.0018551327817643078,-0.000700757398285299,0.0001235905417810211,0.0004879364112355551,0.0011124510619976956,0.6053096652030945,34.16213607788086,3.9735991954803467,-19.289278030395508,-0.2365012764930725,-1.802981972694397,0.14590780436992645,0
55,0.2699861526489258,-0.6568843722343445,-34.11452865600586,-4.048977375030518,19.313081741333008,0.2310081124305725,1.783755898475647,-0.12485067546367645,0.0,0.0,0.0,0.0,0.0,0.0,0.0,-0.6543783362303544,-0.08236349777548659,-0.4837419781156868,0.27329162448936833,0.18159740568292745,-0.11371555516782557,-0.16442760265249245,1.0546270776920414,0.32367033891928826,-0.39236702881282703,-2.153140677669592,0.8646313768428906,2.465933809955837,0.5444945010585267,1.0544104758940245,0.3238615046091247,-0.39250456234122666,-2.153291787532338,0.8647539153680389,2.46587817577521,0.5445020185570556,0.0003393905208467205,-0.0008578605338003554,8.135167861944287e-05,0.00024572574129038663,2.7917234154492037e-05,0.0002889945254276698,-0.0017095494281128012,0.0,0.0,0.0,0.0,0.0,0.0,0.0,-0.00021660179801696877,0.00019116568983645887,-0.00013753352839962485,-0.00015110986274580185,0.0001225385251483191,-5.5634180627262e-05,7.517498528897271e-06,-0.0003393905208467205,0.0008578605338003554,-8.135167861944287e-05,-0.00024572574129038663,-2.7917234154492037e-05,-0.0002889945254276698,0.0017095494281128012,0.6568843722343445,34.11452865600586,4.048977375030518,-19.313081741333008,-0.2310081124305725,-1.783755898475647,0.12485067546367645,0
56,0.27501344680786133,-0.6568843722343445,-34.11452865600586,-4.048977375030518,19.313081741333008,0.2310081124305725,1.783755898475647,-0.12485067546367645,0.0,0.0,0.0,0.0,0.0,0.0,0.0,-0.6543783362303544,-0.08236349777548659,-0.4837419781156868,0.27329162448936833,0.18159740568292745,-0.11371555516782557,-0.16442760265249245,1.0546270776920414,0.32367033891928826,-0.39236702881282703,-2.153140677669592,0.8646313768428906,2.465933809955837,0.5444945010585267,1.0544104758940245,0.3238615046091247,-0.39250456234122666,-2.153291787532338,0.8647539153680389,2.46587817577521,0.5445020185570556,0.0003393905208467205,-0.0008578605338003554,8.135167861944287e-05,0.00024572574129038663,2.7917234154492037e-05,0.0002889945254276698,-0.0017095494281128012,0.0,0.0,0.0,0.0,0.0,0.0,0.0,-0.00021660179801696877,0.00019116568983645887,-0.00013753352839962485,-0.00015110986274580185,0.0001225385251483191,-5.5634180627262e-05,7.517498528897271e-06,-0.0003393905208467205,0.0008578605338003554,-8.135167861944287e-05,-0.00024572574129038663,-2.7917234154492037e-05,-0.0002889945254276698,0.0017095494281128012,0.6568843722343445,34.11452865600586,4.048977375030518,-19.313081741333008,-0.2310081124305725,-1.783755898475647,0.12485067546367645,0
57,0.2799954414367676,-0.6568843722343445,-34.09072494506836,-4.048977375030518,19.313081741333008,0.2365012764930725,1.783755898475647,-0.17978231608867645,0.0,0.0,0.0,0.0,0.0,0.0,0.0,-0.6399734108112862,-0.07433911485119027,-0.4697186268861303,0.26990497281242276,0.18071566361417027,-0.11579879224464498,-0.16547293094256876,1.0546284526904581,0.32366866848343295,-0.39236703172899573,-2.153140677669592,0.8646318849980095,2.4659348813615205,0.5445016117171829,1.0544104758940245,0.3238615046091247,-0.39250456234122666,-2.153291787532338,0.8647539153680389,2.46587817577521,0.5445020185570556,0.0006578375689325851,-0.0011780733659564,0.0008040188955679267,-0.0002371722778587865,-3.524809923793008e-05,0.0002484298849822513,0.0008820221701637388,0.0,0.0,0.0,0.0,0.0,0.0,0.0,-0.00021797679643364987,0.00019283612569176434,-0.00013753061223092944,-0.00015110986274580185,0.00012203037002944672,-5.67055863105459e-05,4.0683987267975397e-07,-0.0006578375689325851,0.0011780733659564,-0.0008040188955679267,0.0002371722778587865,3.524809923793008e-05,-0.0002484298849822513,-0.0008820221701637388,0.6568843722343445,34.09072494506836,4.048977375030518,-19.313081741333008,-0.2365012764930725,-1.783755898475647,0.17978231608867645,0
58,0.285001277923584,-0.6568843722343445,-34.09072494506836,-4.048977375030518,19.313081741333008,0.2365012764930725,1.783755898475647,-0.17978231608867645,0.0,0.0,0.0,0.0,0.0,0.0,0.0,-0.6399734108112862,-0.07433911485119027,-0.4697186268861303,0.26990497281242276,0.18071566361417027,-0.11579879224464498,-0.16547293094256876,1.0546284526904581,0.32366866848343295,-0.39236703172899573,-2.153140677669592,0.8646318849980095,2.4659348813615205,0.5445016117171829,1.0544104758940245,0.3238615046091247,-0.39250456234122666,-2.153291787532338,0.8647539153680389,2.46587817577521,0.5445020185570556,0.0006578375689325851,-0.0011780733659564,0.0008040188955679267,-0.0002371722778587865,-3.524809923793008e-05,0.0002484298849822513,0.0008820221701637388,0.0,0.0,0.0,0.0,0.0,0.0,0.0,-0.00021797679643364987,0.00019283612569176434,-0.00013753061223092944,-0.00015110986274580185,0.00012203037002944672,-5.67055863105459e-05,4.0683987267975397e-07,-0.0006578375689325851,0.0011780733659564,-0.0008040188955679267,0.0002371722778587865,3.524809923793008e-05,-0.0002484298849822513,-0.0008820221701637388,0.6568843722343445,34.09072494506836,4.048977375030518,-19.313081741333008,-0.2365012764930725,-1.783755898475647,0.17978231608867645,0
59,0.2900388240814209,-0.6568843722343445,-34.09072494506836,-4.025173664093018,19.313081741333008,0.2484031319618225,1.790164589881897,-0.12485067546367645,0.0,0.0,0.0,0.0,0.0,0.0,0.0,-0.6511097889804013,-0.07590901033036461,-0.48183434968597993,0.2710312098116059,0.1812425263286543,-0.11478549704673728,-0.1650946863053105,1.0546291688624263,0.32366866848343295,-0.39236799353186846,-2.1531406746171364,0.8646298017514005,2.4659341692907457,0.54449092995465,1.0544104758940245,0.3238615046091247,-0.39250456234122666,-2.153291787532338,0.8647539153680389,2.46587817577521,0.5445020185570556,0.0005644816610138423,-0.0009854969946543341,-0.0006209552270754098,-0.0002855091467359373,-0.0004962890775046038,0.0002154335484105121,-0.0009181927160316506,0.0,0.0,0.0,0.0,0.0,0.0,0.0,-0.0002186929684018235,0.00019283612569176434,-0.00013656880935819515,-0.00015111291520142345,0.00012411361663844378,-5.5993515535757155e-05,1.108860240561782e-05,-0.0005644816610138423,0.0009854969946543341,0.0006209552270754098,0.0002855091467359373,0.0004962890775046038,-0.0002154335484105121,0.0009181927160316506,0.6568843722343445,34.09072494506836,4.025173664093018,-19.313081741333008,-0.2484031319618225,-1.790164589881897,0.12485067546367645,0
60,0.2949509620666504,-0.6568843722343445,-34.09072494506836,-4.025173664093018,19.313081741333008,0.2484031319618225,1.790164589881897,-0.12485067546367645,0.0,0.0,0.0,0.0,0.0,0.0,0.0,-0.6511097889804013,-0.07590901033036461,-0.48183434968597993,0.2710312098116059,0.1812425263286543,-0.11478549704673728,-0.1650946863053105,1.0546291688624263,0.32366866848343295,-0.39236799353186846,-2.1531406746171364,0.8646298017514005,2.4659341692907457,0.54449092995465,1.0544104758940245,0.3238615046091247,-0.39250456234122666,-2.153291787532338,0.8647539153680389,2.46587817577521,0.5445020185570556,0.0005644816610138423,-0.0009854969946543341,-0.0006209552270754098,-0.0002855091467359373,-0.0004962890775046038,0.0002154335484105121,-0.0009181927160316506,0.0,0.0,0.0,0.0,0.0,0.0,0.0,-0.0002186929684018235,0.00019283612569176434,-0.00013656880935819515,-0.00015111291520142345,0.00012411361663844378,-5.5993515535757155e-05,1.108860240561782e-05,-0.0005644816610138423,0.0009854969946543341,0.0006209552270754098,0.0002855091467359373,0.0004962890775046038,-0.0002154335484105121,0.0009181927160316506,0.6568843722343445,34.09072494506836,4.025173664093018,-19.313081741333008,-0.2484031319618225,-1.790164589881897,0.12485067546367645,0
61,0.29999351501464844,-0.6568843722343445,-34.16213607788086,-4.048977375030518,19.289278030395508,0.2365012764930725,1.802981972694397,-0.11844198405742645,0.0,0.0,0.0,0.0,0.0,0.0,0.0,-0.6521255097636455,-0.08299427382274392,-0.48386552785227344,0.2776954591267074,0.18153097455208614,-0.11358699295651686,-0.16415390674853425,1.0546290931768778,0.32367367979099876,-0.39236703172501197,-2.1531390072337193,0.8646319984859641,2.4659327863452494,0.5444902611354789,1.0544104758940245,0.3238615046091247,-0.39250456234122666,-2.153291787532338,0.8647539153680389,2.46587817577521,0.5445020185570556,-4.678930991719619e-05,0.00020673981485883929,-0.00019787487570231102,0.0007059416173305105,6.307726507681326e-05,-0.00030229868478545273,-0.0014377153262096916,0.0,0.0,0.0,0.0,0.0,0.0,0.0,-0.00021861728285332838,0.00018782481812595897,-0.0001375306162146872,-0.0001527802986185378,0.00012191688207485729,-5.461057003941505e-05,1.1757421576663596e-05,4.678930991719619e-05,-0.00020673981485883929,0.00019787487570231102,-0.0007059416173305105,-6.307726507681326e-05,0.00030229868478545273,0.0014377153262096916,0.6568843722343445,34.16213607788086,4.048977375030518,-19.289278030395508,-0.2365012764930725,-1.802981972694397,0.11844198405742645,0
62,0.3049941062927246,-0.6568843722343445,-34.16213607788086,-4.048977375030518,19.289278030395508,0.2365012764930725,1.802981972694397,-0.11844198405742645,0.0,0.0,0.0,0.0,0.0,0.0,0.0,-0.6521255097636455,-0.08299427382274392,-0.48386552785227344,0.2776954591267074,0.18153097455208614,-0.11358699295651686,-0.16415390674853425,1.0546290931768778,0.32367367979099876,-0.39236703172501197,-2.1531390072337193,0.8646319984859641,2.4659327863452494,0.5444902611354789,1.0544104758940245,0.3238615046091247,-0.39250456234122666,-2.153291787532338,0.8647539153680389,2.46587817577521,0.5445020185570556,-4.678930991719619e-05,0.00020673981485883929,-0.00019787487570231102,0.0007059416173305105,6.307726507681326e-05,-0.00030229868478545273,-0.0014377153262096916,0.0,0.0,0.0,0.0,0.0,0.0,0.0,-0.00021861728285332838,0.00018782481812595897,-0.0001375306162146872,-0.0001527802986185378,0.00012191688207485729,-5.461057003941505e-05,1.1757421576663596e-05,4.678930991719619e-05,-0.00020673981485883929,0.00019787487570231102,-0.0007059416173305105,-6.307726507681326e-05,0.00030229868478545273,0.0014377153262096916,0.6568843722343445,34.16213607788086,4.048977375030518,-19.289278030395508,-0.2365012764930725,-1.802981972694397,0.11844198405742645,0
63,0.3100004196166992,-0.6053096652030945,-34.16213607788086,-4.025173664093018,19.313081741333008,0.2365012764930725,1.783755898475647,-0.13858358561992645,0.0,0.0,0.0,0.0,0.0,0.0,0.0,-0.6447143246078145,-0.07388023734764895,-0.4746607022041448,0.2731109880304231,0.18122320219255533,-0.11427583255530603,-0.16295372116384674,1.054625549483377,0.32367367979099876,-0.39236870216486747,-2.153140677669592,0.8646323301183882,2.4659349225759506,0.5444970390133873,1.0544104758940245,0.3238615046091247,-0.39250456234122666,-2.153291787532338,0.8647539153680389,2.46587817577521,0.5445020185570556,-0.0011607426377452125,0.00040008600392078093,-0.0003424060165225783,-0.00012426873003224947,-1.0458146536832028e-05,0.00012417061643376812,-0.0010241039051051431,0.0,0.0,0.0,0.0,0.0,0.0,0.0,-0.0002150735893524658,0.00018782481812595897,-0.00013586017635919267,-0.00015110986274580185,0.00012158524965066864,-5.674680074063687e-05,4.979543668293118e-06,0.0011607426377452125,-0.00040008600392078093,0.0003424060165225783,0.00012426873003224947,1.0458146536832028e-05,-0.00012417061643376812,0.0010241039051051431,0.6053096652030945,34.16213607788086,4.025173664093018,-19.313081741333008,-0.2365012764930725,-1.783755898475647,0.13858358561992645,0
64,0.3149905204772949,-0.6053096652030945,-34.16213607788086,-4.025173664093018,19.313081741333008,0.2365012764930725,1.783755898475647,-0.13858358561992645,0.0,0.0,0.0,0.0,0.0,0.0,0.0,-0.6447143246078145,-0.07388023734764895,-0.4746607022041448,0.2731109880304231,0.18122320219255533,-0.11427583255530603,-0.16295372116384674,1.054625549483377,0.32367367979099876,-0.39236870216486747,-2.153140677669592,0.8646323301183882,2.4659349225759506,0.5444970390133873,1.0544104758940245,0.3238615046091247,-0.39250456234122666,-2.153291787532338,0.8647539153680389,2.46587817577521,0.5445020185570556,-0.0011607426377452125,0.00040008600392078093,-0.0003424060165225783,-0.00012426873003224947,-1.0458146536832028e-05,0.00012417061643376812,-0.0010241039051051431,0.0,0.0,0.0,0.0,0.0,0.0,0.0,-0.0002150735893524658,0.00018782481812595897,-0.00013586017635919267,-0.00015110986274580185,0.00012158524965066864,-5.674680074063687e-05,4.979543668293118e-06,0.0011607426377452125,-0.00040008600392078093,0.0003424060165225783,0.00012426873003224947,1.0458146536832028e-05,-0.00012417061643376812,0.0010241039051051431,0.6053096652030945,34.16213607788086,4.025173664093018,-19.313081741333008,-0.2365012764930725,-1.783755898475647,0.13858358561992645,0
65,0.31999802589416504,-0.6291133761405945,-34.13833236694336,-4.025173664093018,19.289278030395508,0.2429099678993225,1.790164589881897,-0.18710653483867645,0.0,0.0,0.0,0.0,0.0,0.0,0.0,-0.6469434083558881,-0.07370140190000855,-0.4779229963825194,0.27273600636422224,0.18072919061139484,-0.11435880836842886,-0.16358982688285884,1.0546269904363763,0.3236720093551435,-0.39236870216486747,-2.1531387599848397,0.8646313059298607,2.4659342104991278,0.5445021306157852,1.0544104758940245,0.3238615046091247,-0.39250456234122666,-2.153291787532338,0.8647539153680389,2.46587817577521,0.5445020185570556,-0.00015819607117201646,0.00011336509004935305,-0.0006048258827700267,0.0004572313845379782,-0.00038057408137435024,-0.0001239467721042993,0.001204875328134972,0.0,0.0,0.0,0.0,0.0,0.0,0.0,-0.0002165145423518311,0.00018949525398120892,-0.00013586017635919267,-0.0001530275474981302,0.00012260943817821168,-5.603472391779718e-05,-1.1205872962882779e-07,0.00015819607117201646,-0.00011336509004935305,0.0006048258827700267,-0.0004572313845379782,0.00038057408137435024,0.0001239467721042993,-0.001204875328134972,0.6291133761405945,34.13833236694336,4.025173664093018,-19.289278030395508,-0.2429099678993225,-1.790164589881897,0.18710653483867645,0
66,0.32500529289245605,-0.6291133761405945,-34.13833236694336,-4.025173664093018,19.289278030395508,0.2429099678993225,1.790164589881897,-0.18710653483867645,0.0,0.0,0.0,0.0,0.0,0.0,0.0,-0.6469434083558881,-0.07370140190000855,-0.4779229963825194,0.27273600636422224,0.18072919061139484,-0.11435880836842886,-0.16358982688285884,1.0546269904363763,0.3236720093551435,-0.39236870216486747,-2.1531387599848397,0.8646313059298607,2.4659342104991278,0.5445021306157852,1.0544104758940245,0.3238615046091247,-0.39250456234122666,-2.153291787532338,0.8647539153680389,2.46587817577521,0.5445020185570556,-0.00015819607117201646,0.00011336509004935305,-0.0006048258827700267,0.0004572313845379782,-0.00038057408137435024,-0.0001239467721042993,0.001204875328134972,0.0,0.0,0.0,0.0,0.0,0.0,0.0,-0.0002165145423518311,0.00018949525398120892,-0.00013586017635919267,-0.0001530275474981302,0.00012260943817821168,-5.603472391779718e-05,-1.1205872962882779e-07,0.00015819607117201646,-0.00011336509004935305,0.0006048258827700267,-0.0004572313845379782,0.00038057408137435024,0.0001239467721042993,-0.001204875328134972,0.6291133761405945,34.13833236694336,4.025173664093018,-19.289278030395508,-0.2429099678993225,-1.790164589881897,0.18710653483867645,0
67,0.3299994468688965,-0.6291133761405945,-34.13833236694336,-4.025173664093018,19.313081741333008,0.2429099678993225,1.783755898475647,-0.12485067546367645,0.0,0.0,0.0,0.0,0.0,0.0,0.0,-0.6442450732382436,-0.07652248812528156,-0.4790279964334044,0.2757627898597142,0.18042618816706774,-0.11478534893225503,-0.16339339255202376,1.0546272199883493,0.3236720093551435,-0.39236870216486747,-2.1531406776681963,0.8646336765413645,2.465934921049723,0.5444955139659444,1.0544104758940245,0.3238615046091247,-0.39250456234122666,-2.153291787532338,0.8647539153680389,2.46587817577521,0.5445020185570556,-0.0007696562037985263,-5.150490564846073e-05,0.00014781252240306266,-3.541234836481572e-05,-0.0003358242109287442,0.00015391216283181704,-0.0012725489470115827,0.0,0.0,0.0,0.0,0.0,0.0,0.0,-0.00021674409432481667,0.00018949525398120892,-0.00013586017635919267,-0.00015110986414157423,0.00012023882667444585,-5.6745274513048116e-05,6.504591111178293e-06,0.0007696562037985263,5.150490564846073e-05,-0.00014781252240306266,3.541234836481572e-05,0.0003358242109287442,-0.00015391216283181704,0.0012725489470115827,0.6291133761405945,34.13833236694336,4.025173664093018,-19.313081741333008,-0.2429099678993225,-1.783755898475647,0.12485067546367645,0
68,0.3349921703338623,-0.6291133761405945,-34.13833236694336,-4.025173664093018,19.313081741333008,0.2429099678993225,1.783755898475647,-0.12485067546367645,0.0,0.0,0.0,0.0,0.0,0.0,0.0,-0.6442450732382436,-0.07652248812528156,-0.4790279964334044,0.2757627898597142,0.18042618816706774,-0.11478534893225503,-0.16339339255202376,1.0546272199883493,0.3236720093551435,-0.39236870216486747,-2.1531406776681963,0.8646336765413645,2.465934921049723,0.5444955139659444,1.0544104758940245,0.3238615046091247,-0.39250456234122666,-2.153291787532338,0.8647539153680389,2.46587817577521,0.5445020185570556,-0.0007696562037985263,-5.150490564846073e-05,0.00014781252240306266,-3.541234836481572e-05,-0.0003358242109287442,0.00015391216283181704,-0.0012725489470115827,0.0,0.0,0.0,0.0,0.0,0.0,0.0,-0.00021674409432481667,0.00018949525398120892,-0.00013586017635919267,-0.00015110986414157423,0.00012023882667444585,-5.6745274513048116e-05,6.504591111178293e-06,0.0007696562037985263,5.150490564846073e-05,-0.00014781252240306266,3.541234836481572e-05,0.0003358242109287442,-0.00015391216283181704,0.0012725489470115827,0.6291133761405945,34.13833236694336,4.025173664093018,-19.313081741333008,-0.2429099678993225,-1.783755898475647,0.12485067546367645,0
69,0.3400282859802246,-0.6291133761405945,-34.13833236694336,-4.025173664093018,19.313081741333008,0.2429099678993225,1.783755898475647,-0.12485067546367645,0.0,0.0,0.0,0.0,0.0,0.0,0.0,-0.6442450732382436,-0.07652248812528156,-0.4790279964334044,0.2757627898597142,0.18042618816706774,-0.11478534893225503,-0.16339339255202376,1.0546272199883493,0.3236720093551435,-0.39236870216486747,-2.1531406776681963,0.8646336765413645,2.465934921049723,0.5444955139659444,1.0544104758940245,0.3238615046091247,-0.39250456234122666,-2.153291787532338,0.8647539153680389,2.46587817577521,0.5445020185570556,-0.0007696562037985263,-5.150490564846073e-05,0.00014781252240306266,-3.541234836481572e-05,-0.0003358242109287442,0.00015391216283181704,-0.0012725489470115827,0.0,0.0,0.0,0.0,0.0,0.0,0.0,-0.00021674409432481667,0.00018949525398120892,-0.00013586017635919267,-0.00015110986414157423,0.00012023882667444585,-5.6745274513048116e-05,6.504591111178293e-06,0.0007696562037985263,5.150490564846073e-05,-0.00014781252240306266,3.541234836481572e-05,0.0003358242109287442,-0.00015391216283181704,0.0012725489470115827,0.6291133761405945,34.13833236694336,4.025173664093018,-19.313081741333008,-0.2429099678993225,-1.783755898475647,0.12485067546367645,0
70,0.3450045585632324,-0.6291133761405945,-34.13833236694336,-4.025173664093018,19.313081741333008,0.2429099678993225,1.783755898475647,-0.12485067546367645,0.0,0.0,0.0,0.0,0.0,0.0,0.0,-0.6442450732382436,-0.07652248812528156,-0.4790279964334044,0.2757627898597142,0.18042618816706774,-0.11478534893225503,-0.16339339255202376,1.0546272199883493,0.3236720093551435,-0.39236870216486747,-2.1531406776681963,0.8646336765413645,2.465934921049723,0.5444955139659444,1.0544104758940245,0.3238615046091247,-0.39250456234122666,-2.153291787532338,0.8647539153680389,2.46587817577521,0.5445020185570556,-0.0007696562037985263,-5.150490564846073e-05,0.00014781252240306266,-3.541234836481572e-05,-0.0003358242109287442,0.00015391216283181704,-0.0012725489470115827,0.0,0.0,0.0,0.0,0.0,0.0,0.0,-0.00021674409432481667,0.00018949525398120892,-0.00013586017635919267,-0.00015110986414157423,0.00012023882667444585,-5.6745274513048116e-05,6.504591111178293e-06,0.0007696562037985263,5.150490564846073e-05,-0.00014781252240306266,3.541234836481572e-05,0.0003358242109287442,-0.00015391216283181704,0.0012725489470115827,0.6291133761405945,34.13833236694336,4.025173664093018,-19.313081741333008,-0.2429099678993225,-1.783755898475647,0.12485067546367645,0
71,0.3500032424926758,-0.6291133761405945,-34.13833236694336,-4.025173664093018,19.313081741333008,0.2429099678993225,1.783755898475647,-0.12485067546367645,0.0,0.0,0.0,0.0,0.0,0.0,0.0,-0.6442450732382436,-0.07652248812528156,-0.4790279964334044,0.2757627898597142,0.18042618816706774,-0.11478534893225503,-0.16339339255202376,1.0546272199883493,0.3236720093551435,-0.39236870216486747,-2.1531406776681963,0.8646336765413645,2.465934921049723,0.5444955139659444,1.0544104758940245,0.3238615046091247,-0.39250456234122666,-2.153291787532338,0.8647539153680389,2.46587817577521,0.5445020185570556,-0.0007696562037985263,-5.150490564846073e-05,0.00014781252240306266,-3.541234836481572e-05,-0.0003358242109287442,0.00015391216283181704,-0.0012725489470115827,0.0,0.0,0.0,0.0,0.0,0.0,0.0,-0.00021674409432481667,0.00018949525398120892,-0.00013586017635919267,-0.00015110986414157423,0.00012023882667444585,-5.6745274513048116e-05,6.504591111178293e-06,0.0007696562037985263,5.150490564846073e-05,-0.00014781252240306266,3.541234836481572e-05,0.0003358242109287442,-0.00015391216283181704,0.0012725489470115827,0.6291133761405945,34.13833236694336,4.025173664093018,-19.313081741333008,-0.2429099678993225,-1.783755898475647,0.12485067546367645,0
72,0.3550105094909668,-0.6568843722343445,-34.13833236694336,-4.048977375030518,19.336885452270508,0.2310081124305725,1.796573281288147,-0.13858358561992645,0.0,0.0,0.0,0.0,0.0,0.0,0.0,-0.6443486582535127,-0.07450239466688433,-0.4719119669491441,0.2729940054787094,0.1822281069812377,-0.1155336785395673,-0.16335634611763677,1.0546291698112813,0.3236720093551435,-0.39236679551801257,-2.153142347766286,0.8646314344598769,2.465930160560104,0.5444956793574909,1.0544104758940245,0.3238615046091247,-0.39250456234122666,-2.153291787532338,0.8647539153680389,2.46587817577521,0.5445020185570556,0.00019964741610395794,-0.00024243122140876395,0.0005310870288337241,-0.0006142265037165441,0.00036319067987498145,-1.6103668115939114e-05,-0.0007820793004526523,0.0,0.0,0.0,0.0,0.0,0.0,0.0,-0.00021869391725681808,0.00018949525398120892,-0.00013776682321409162,-0.00014943976605197307,0.00012248090816202595,-5.198478489409908e-05,6.339199564719955e-06,-0.00019964741610395794,0.00024243122140876395,-0.0005310870288337241,0.0006142265037165441,-0.00036319067987498145,1.6103668115939114e-05,0.0007820793004526523,0.6568843722343445,34.13833236694336,4.048977375030518,-19.336885452270508,-0.2310081124305725,-1.796573281288147,0.13858358561992645,0
73,0.36003994941711426,-0.6568843722343445,-34.13833236694336,-4.048977375030518,19.336885452270508,0.2310081124305725,1.796573281288147,-0.13858358561992645,0.0,0.0,0.0,0.0,0.0,0.0,0.0,-0.6443486582535127,-0.07450239466688433,-0.4719119669491441,0.2729940054787094,0.1822281069812377,-0.1155336785395673,-0.16335634611763677,1.0546291698112813,0.3236720093551435,-0.39236679551801257,-2.153142347766286,0.8646314344598769,2.465930160560104,0.5444956793574909,1.0544104758940245,0.3238615046091247,-0.39250456234122666,-2.153291787532338,0.8647539153680389,2.46587817577521,0.5445020185570556,0.00019964741610395794,-0.00024243122140876395,0.0005310870288337241,-0.0006142265037165441,0.00036319067987498145,-1.6103668115939114e-05,-0.0007820793004526523,0.0,0.0,0.0,0.0,0.0,0.0,0.0,-0.00021869391725681808,0.00018949525398120892,-0.00013776682321409162,-0.00014943976605197307,0.00012248090816202595,-5.198478489409908e-05,6.339199564719955e-06,-0.00019964741610395794,0.00024243122140876395,-0.0005310870288337241,0.0006142265037165441,-0.00036319067987498145,1.6103668115939114e-05,0.0007820793004526523,0.6568843722343445,34.13833236694336,4.048977375030518,-19.336885452270508,-0.2310081124305725,-1.796573281288147,0.13858358561992645,0
74,0.36504030227661133,-0.6568843722343445,-34.13833236694336,-4.048977375030518,19.336885452270508,0.2310081124305725,1.796573281288147,-0.13858358561992645,0.0,0.0,0.0,0.0,0.0,0.0,0.0,-0.6443486582535127,-0.07450239466688433,-0.4719119669491441,0.2729940054787094,0.1822281069812377,-0.1155336785395673,-0.16335634611763677,1.0546291698112813,0.3236720093551435,-0.39236679551801257,-2.153142347766286,0.8646314344598769,2.465930160560104,0.5444956793574909,1.0544104758940245,0.3238615046091247,-0.39250456234122666,-2.153291787532338,0.8647539153680389,2.46587817577521,0.5445020185570556,0.00019964741610395794,-0.00024243122140876395,0.0005310870288337241,-0.0006142265037165441,0.00036319067987498145,-1.6103668115939114e-05,-0.0007820793004526523,0.0,0.0,0.0,0.0,0.0,0.0,0.0,-0.00021869391725681808,0.00018949525398120892,-0.00013776682321409162,-0.00014943976605197307,0.00012248090816202595,-5.198478489409908e-05,6.339199564719955e-06,-0.00019964741610395794,0.00024243122140876395,-0.0005310870288337241,0.0006142265037165441,-0.00036319067987498145,1.6103668115939114e-05,0.0007820793004526523,0.6568843722343445,34.13833236694336,4.048977375030518,-19.336885452270508,-0.2310081124305725,-1.796573281288147,0.13858358561992645,0
75,0.3700296878814697,-0.6568843722343445,-34.13833236694336,-4.048977375030518,19.336885452270508,0.2310081124305725,1.796573281288147,-0.13858358561992645,0.0,0.0,0.0,0.0,0.0,0.0,0.0,-0.6443486582535127,-0.07450239466688433,-0.4719119669491441,0.2729940054787094,0.1822281069812377,-0.1155336785395673,-0.16335634611763677,1.0546291698112813,0.3236720093551435,-0.39236679551801257,-2.153142347766286,0.8646314344598769,2.465930160560104,0.5444956793574909,1.0544104758940245,0.3238615046091247,-0.39250456234122666,-2.153291787532338,0.8647539153680389,2.46587817577521,0.5445020185570556,0.00019964741610395794,-0.00024243122140876395,0.0005310870288337241,-0.0006142265037165441,0.00036319067987498145,-1.6103668115939114e-05,-0.0007820793004526523,0.0,0.0,0.0,0.0,0.0,0.0,0.0,-0.00021869391725681808,0.00018949525398120892,-0.00013776682321409162,-0.00014943976605197307,0.00012248090816202595,-5.198478489409908e-05,6.339199564719955e-06,-0.00019964741610395794,0.00024243122140876395,-0.0005310870288337241,0.0006142265037165441,-0.00036319067987498145,1.6103668115939114e-05,0.0007820793004526523,0.6568843722343445,34.13833236694336,4.048977375030518,-19.336885452270508,-0.2310081124305725,-1.796573281288147,0.13858358561992645,0
76,0.37500858306884766,-0.6568843722343445,-34.16213607788086,-3.9735991954803467,19.313081741333008,0.2429099678993225,1.796573281288147,-0.16604940593242645,0.0,0.0,0.0,0.0,0.0,0.0,0.0,-0.6484239833603184,-0.0806448274317149,-0.4756587169461905,0.27557181304197925,0.18277902350643913,-0.11421324008604013,-0.1636647427875195,1.0546291697762893,0.32367367979099876,-0.3923723214244893,-2.1531406776695903,0.8646345181402173,2.4659334984034627,0.5444969132206443,1.0544104758940245,0.3238615046091247,-0.39250456234122666,-2.153291787532338,0.8647539153680389,2.46587817577521,0.5445020185570556,0.00035458133972972696,-8.528869687524836e-05,-0.0013286571948935046,-0.00023894811796398892,-0.00026622724178143364,2.059564577541665e-05,0.0005317462434474503,0.0,0.0,0.0,0.0,0.0,0.0,0.0,-0.0002186938822648088,0.00018782481812595897,-0.00013224091673735838,-0.0001511098627475782,0.00011939722782161599,-5.5322628252696404e-05,5.10533641129296e-06,-0.00035458133972972696,8.528869687524836e-05,0.0013286571948935046,0.00023894811796398892,0.00026622724178143364,-2.059564577541665e-05,-0.0005317462434474503,0.6568843722343445,34.16213607788086,3.9735991954803467,-19.313081741333008,-0.2429099678993225,-1.796573281288147,0.16604940593242645,0
77,0.3800508975982666,-0.6568843722343445,-34.16213607788086,-3.9735991954803467,19.313081741333008,0.2429099678993225,1.796573281288147,-0.16604940593242645,0.0,0.0,0.0,0.0,0.0,0.0,0.0,-0.6484239833603184,-0.0806448274317149,-0.4756587169461905,0.27557181304197925,0.18277902350643913,-0.11421324008604013,-0.1636647427875195,1.0546291697762893,0.32367367979099876,-0.3923723214244893,-2.1531406776695903,0.8646345181402173,2.4659334984034627,0.5444969132206443,1.0544104758940245,0.3238615046091247,-0.39250456234122666,-2.153291787532338,0.8647539153680389,2.46587817577521,0.5445020185570556,0.00035458133972972696,-8.528869687524836e-05,-0.0013286571948935046,-0.00023894811796398892,-0.00026622724178143364,2.059564577541665e-05,0.0005317462434474503,0.0,0.0,0.0,0.0,0.0,0.0,0.0,-0.0002186938822648088,0.00018782481812595897,-0.00013224091673735838,-0.0001511098627475782,0.00011939722782161599,-5.5322628252696404e-05,5.10533641129296e-06,-0.00035458133972972696,8.528869687524836e-05,0.0013286571948935046,0.00023894811796398892,0.00026622724178143364,-2.059564577541665e-05,-0.0005317462434474503,0.6568843722343445,34.16213607788086,3.9735991954803467,-19.313081741333008,-0.2429099678993225,-1.796573281288147,0.16604940593242645,0
78,0.38500046730041504,-0.6568843722343445,-34.18990707397461,-4.048977375030518,19.336885452270508,0.2429099678993225,1.783755898475647,-0.15231649577617645,0.0,0.0,0.0,0.0,0.0,0.0,0.0,-0.6480833349385308,-0.07768030703867376,-0.4751046877883047,0.27224832289289447,0.1832023643842734,-0.11425212674248064,-0.1633601074160507,1.0546290893976522,0.3236756286328299,-0.3923670317290122,-2.1531423481054475,0.8646347433381925,2.4659349225759506,0.5444975414391054,1.0544104758940245,0.3238615046091247,-0.39250456234122666,-2.153291787532338,0.8647539153680389,2.46587817577521,0.5445020185570556,0.0006726668808382417,0.000871145876229088,0.00029413557891337357,-0.0009619285682018219,-0.00023857625510917277,0.00018223781488676622,-0.00020419274829357138,0.0,0.0,0.0,0.0,0.0,0.0,0.0,-0.00021861350362772924,0.00018587597629482477,-0.00013753061221444263,-0.00014943942689038536,0.00011917202984645936,-5.674680074063687e-05,4.477117950152376e-06,-0.0006726668808382417,-0.000871145876229088,-0.00029413557891337357,0.0009619285682018219,0.00023857625510917277,-0.00018223781488676622,0.00020419274829357138,0.6568843722343445,34.18990707397461,4.048977375030518,-19.336885452270508,-0.2429099678993225,-1.783755898475647,0.15231649577617645,0
79,0.38999247550964355,-0.6568843722343445,-34.18990707397461,-4.048977375030518,19.336885452270508,0.2429099678993225,1.783755898475647,-0.15231649577617645,0.0,0.0,0.0,0.0,0.0,0.0,0.0,-0.6480833349385308,-0.07768030703867376,-0.4751046877883047,0.27224832289289447,0.1832023643842734,-0.11425212674248064,-0.1633601074160507,1.0546290893976522,0.3236756286328299,-0.3923670317290122,-2.1531423481054475,0.8646347433381925,2.4659349225759506,0.5444975414391054,1.0544104758940245,0.3238615046091247,-0.39250456234122666,-2.153291787532338,0.8647539153680389,2.46587817577521,0.5445020185570556,0.0006726668808382417,0.000871145876229088,0.00029413557891337357,-0.0009619285682018219,-0.00023857625510917277,0.00018223781488676622,-0.00020419274829357138,0.0,0.0,0.0,0.0,0.0,0.0,0.0,-0.00021861350362772924,0.00018587597629482477,-0.00013753061221444263,-0.00014943942689038536,0.00011917202984645936,-5.674680074063687e-05,4.477117950152376e-06,-0.0006726668808382417,-0.000871145876229088,-0.00029413557891337357,0.0009619285682018219,0.00023857625510917277,-0.00018223781488676622,0.00020419274829357138,0.6568843722343445,34.18990707397461,4.048977375030518,-19.336885452270508,-0.2429099678993225,-1.783755898475647,0.15231649577617645,0
80,0.39494872093200684,-0.6291133761405945,-34.16213607788086,-3.9974029064178467,19.313081741333008,0.2310081124305725,1.790164589881897,-0.12485067546367645,0.0,0.0,0.0,0.0,0.0,0.0,0.0,-0.6410303127399781,-0.08506856280581367,-0.46859975221495825,0.27874411088634604,0.18301647635988377,-0.11441418056083974,-0.1623135655558112,1.0546272180295957,0.32367367979099876,-0.3923706509899675,-2.153140677669592,0.8646317395662518,2.4659330973703493,0.5444922638235096,1.0544104758940245,0.3238615046091247,-0.39250456234122666,-2.153291787532338,0.8647539153680389,2.46587817577521,0.5445020185570556,-0.0004419755997151926,0.000345053694890895,-0.00022792483614344415,0.0007150760463222577,0.00036348709233248,3.428852923932627e-05,-0.001497451019726408,0.0,0.0,0.0,0.0,0.0,0.0,0.0,-0.0002167421355712129,0.00018782481812595897,-0.00013391135125917497,-0.00015110986274580185,0.00012217580178708332,-5.4921595139312274e-05,9.754733546030181e-06,0.0004419755997151926,-0.000345053694890895,0.00022792483614344415,-0.0007150760463222577,-0.00036348709233248,-3.428852923932627e-05,0.001497451019726408,0.6291133761405945,34.16213607788086,3.9974029064178467,-19.313081741333008,-0.2310081124305725,-1.790164589881897,0.12485067546367645,0
