rezayati/contactInterpretation/dataset/franka_main/labeled_data/link6/b1_3.csv
index,time,tau_J0,tau_J1,tau_J2,tau_J3,tau_J4,tau_J5,tau_J6,tau_J_d0,tau_J_d1,tau_J_d2,tau_J_d3,tau_J_d4,tau_J_d5,tau_J_d6,tau_ext0,tau_ext1,tau_ext2,tau_ext3,tau_ext4,tau_ext5,tau_ext6,q0,q1,q2,q3,q4,q5,q6,q_d0,q_d1,q_d2,q_d3,q_d4,q_d5,q_d6,dq0,dq1,dq2,dq3,dq4,dq5,dq6,dq_d0,dq_d1,dq_d2,dq_d3,dq_d4,dq_d5,dq_d6,e0,e1,e2,e3,e4,e5,e6,de0,de1,de2,de3,de4,de5,de6,etau_J0,etau_J1,etau_J2,etau_J3,etau_J4,etau_J5,etau_J6,label
1,0.0,-0.6806880831718445,-34.26528549194336,-4.096584796905518,19.412263870239258,0.2429099678993225,1.815799355506897,-0.11844198405742645,0.0,0.0,0.0,0.0,0.0,0.0,0.0,-0.6805066432675823,-0.22352573974903286,-0.5244403878246775,0.4060687992051298,0.1963853083107268,-0.08911550999278173,-0.11481697876896887,1.0545893554143746,0.3238052856092726,-0.3924109109814401,-2.153476655458149,0.8646013249754906,2.465902513543764,0.5444900866010377,1.0544104758940245,0.3238615046091247,-0.39250456234122666,-2.153291787532338,0.8647539153680389,2.46587817577521,0.5445020185570556,-0.0011699913886010552,-0.0015040748830331269,0.0003606197077961974,0.0008801464009277957,0.00029270262207959367,-0.00038035663561711324,0.00040834034649700344,0.0,0.0,0.0,0.0,0.0,0.0,0.0,-0.000178879520350117,5.621899985214229e-05,-9.36513597865618e-05,0.00018486792581118294,0.00015259039254833517,-2.4337768554261174e-05,1.1931956017896539e-05,0.0011699913886010552,0.0015040748830331269,-0.0003606197077961974,-0.0008801464009277957,-0.00029270262207959367,0.00038035663561711324,-0.00040834034649700344,0.6806880831718445,34.26528549194336,4.096584796905518,-19.412263870239258,-0.2429099678993225,-1.815799355506897,0.11844198405742645,0
2,0.004997730255126953,-0.7084590792655945,-34.28908920288086,-4.072781085968018,19.436067581176758,0.2603049874305725,1.815799355506897,-0.12485067546367645,0.0,0.0,0.0,0.0,0.0,0.0,0.0,-0.6611375304455175,-0.21678679789443492,-0.5008070546437594,0.4006638728017653,0.19501945628781034,-0.09178475335231298,-0.11487496904034519,1.0545920204930888,0.32380711355379627,-0.3924132834235935,-2.1534783258940045,0.8645993921955426,2.465902513543764,0.5444909556074523,1.0544104758940245,0.3238615046091247,-0.39250456234122666,-2.153291787532338,0.8647539153680389,2.46587817577521,0.5445020185570556,1.0330744240437635e-05,-0.0003247861031018054,-0.00023441382142739246,-1.6039062747500406e-05,-0.00038785855698853454,0.0003745875269041266,0.0004147423039783628,0.0,0.0,0.0,0.0,0.0,0.0,0.0,-0.0001815445990642761,5.439105532845101e-05,-9.127891763316409e-05,0.00018653836166659943,0.00015452317249631253,-2.4337768554261174e-05,1.1062949603291017e-05,-1.0330744240437635e-05,0.0003247861031018054,0.00023441382142739246,1.6039062747500406e-05,0.00038785855698853454,-0.0003745875269041266,-0.0004147423039783628,0.7084590792655945,34.28908920288086,4.072781085968018,-19.436067581176758,-0.2603049874305725,-1.815799355506897,0.12485067546367645,0
3,0.009998559951782227,-0.7084590792655945,-34.28908920288086,-4.072781085968018,19.436067581176758,0.2603049874305725,1.815799355506897,-0.12485067546367645,0.0,0.0,0.0,0.0,0.0,0.0,0.0,-0.6611375304455175,-0.21678679789443492,-0.5008070546437594,0.4006638728017653,0.19501945628781034,-0.09178475335231298,-0.11487496904034519,1.0545920204930888,0.32380711355379627,-0.3924132834235935,-2.1534783258940045,0.8645993921955426,2.465902513543764,0.5444909556074523,1.0544104758940245,0.3238615046091247,-0.39250456234122666,-2.153291787532338,0.8647539153680389,2.46587817577521,0.5445020185570556,1.0330744240437635e-05,-0.0003247861031018054,-0.00023441382142739246,-1.6039062747500406e-05,-0.00038785855698853454,0.0003745875269041266,0.0004147423039783628,0.0,0.0,0.0,0.0,0.0,0.0,0.0,-0.0001815445990642761,5.439105532845101e-05,-9.127891763316409e-05,0.00018653836166659943,0.00015452317249631253,-2.4337768554261174e-05,1.1062949603291017e-05,-1.0330744240437635e-05,0.0003247861031018054,0.00023441382142739246,1.6039062747500406e-05,0.00038785855698853454,-0.0003745875269041266,-0.0004147423039783628,0.7084590792655945,34.28908920288086,4.072781085968018,-19.436067581176758,-0.2603049874305725,-1.815799355506897,0.12485067546367645,0
4,0.015001296997070312,-0.6806880831718445,-34.26528549194336,-4.096584796905518,19.412263870239258,0.2429099678993225,1.822208046913147,-0.06991903483867645,0.0,0.0,0.0,0.0,0.0,0.0,0.0,-0.6649109385152371,-0.2152187836660224,-0.5032554478693484,0.39833193555881025,0.19535717381202225,-0.08961174487722681,-0.11530149179975106,1.0545893554184171,0.32380552185583,-0.3924116129917011,-2.1534766528417584,0.8646013249754906,2.4659018014669414,0.5444851660595663,1.0544104758940245,0.3238615046091247,-0.39250456234122666,-2.153291787532338,0.8647539153680389,2.46587817577521,0.5445020185570556,7.135108026024893e-05,-0.0004043362151579576,-0.00014480402718232847,-5.4632280697930836e-05,0.00041817825225877567,0.00019637151896415638,-0.0017898035112375729,0.0,0.0,0.0,0.0,0.0,0.0,0.0,-0.00017887952439266108,5.598275329471436e-05,-9.294934952558398e-05,0.00018486530942052326,0.00015259039254833517,-2.3625691731421483e-05,1.6852497489283635e-05,-7.135108026024893e-05,0.0004043362151579576,0.00014480402718232847,5.4632280697930836e-05,-0.00041817825225877567,-0.00019637151896415638,0.0017898035112375729,0.6806880831718445,34.26528549194336,4.096584796905518,-19.412263870239258,-0.2429099678993225,-1.822208046913147,0.06991903483867645,0
5,0.019995689392089844,-0.6806880831718445,-34.26528549194336,-4.096584796905518,19.412263870239258,0.2429099678993225,1.822208046913147,-0.06991903483867645,0.0,0.0,0.0,0.0,0.0,0.0,0.0,-0.6649109385152371,-0.2152187836660224,-0.5032554478693484,0.39833193555881025,0.19535717381202225,-0.08961174487722681,-0.11530149179975106,1.0545893554184171,0.32380552185583,-0.3924116129917011,-2.1534766528417584,0.8646013249754906,2.4659018014669414,0.5444851660595663,1.0544104758940245,0.3238615046091247,-0.39250456234122666,-2.153291787532338,0.8647539153680389,2.46587817577521,0.5445020185570556,7.135108026024893e-05,-0.0004043362151579576,-0.00014480402718232847,-5.4632280697930836e-05,0.00041817825225877567,0.00019637151896415638,-0.0017898035112375729,0.0,0.0,0.0,0.0,0.0,0.0,0.0,-0.00017887952439266108,5.598275329471436e-05,-9.294934952558398e-05,0.00018486530942052326,0.00015259039254833517,-2.3625691731421483e-05,1.6852497489283635e-05,-7.135108026024893e-05,0.0004043362151579576,0.00014480402718232847,5.4632280697930836e-05,-0.00041817825225877567,-0.00019637151896415638,0.0017898035112375729,0.6806880831718445,34.26528549194336,4.096584796905518,-19.412263870239258,-0.2429099678993225,-1.822208046913147,0.06991903483867645,0
6,0.024997949600219727,-0.6053096652030945,-34.28908920288086,-3.9974029064178467,19.487642288208008,0.2484031319618225,1.815799355506897,-0.13858358561992645,0.0,0.0,0.0,0.0,0.0,0.0,0.0,-0.6416585941884302,-0.22963615433420814,-0.48801206630554345,0.4084502317259458,0.1948548844315163,-0.08934367639549648,-0.1146705521991186,1.054584065700832,0.3238069471885654,-0.3924185731243669,-2.1534819451716762,0.8646007146239281,2.465902513543764,0.5444923245055902,1.0544104758940245,0.3238615046091247,-0.39250456234122666,-2.153291787532338,0.8647539153680389,2.46587817577521,0.5445020185570556,-7.792533673661637e-05,-0.00020605434296738583,-0.0013033999671733447,-0.0015227813528946646,-0.00014544400779366,-4.517017953012981e-05,0.0013163583572196045,0.0,0.0,0.0,0.0,0.0,0.0,0.0,-0.00017358980680759473,5.4557420559320224e-05,-8.598921685976091e-05,0.00019015763933838414,0.0001532007441108485,-2.4337768554261174e-05,9.69405146544755e-06,7.792533673661637e-05,0.00020605434296738583,0.0013033999671733447,0.0015227813528946646,0.00014544400779366,4.517017953012981e-05,-0.0013163583572196045,0.6053096652030945,34.28908920288086,3.9974029064178467,-19.487642288208008,-0.2484031319618225,-1.815799355506897,0.13858358561992645,0
7,0.029997587203979492,-0.6053096652030945,-34.28908920288086,-3.9974029064178467,19.487642288208008,0.2484031319618225,1.815799355506897,-0.13858358561992645,0.0,0.0,0.0,0.0,0.0,0.0,0.0,-0.6416585941884302,-0.22963615433420814,-0.48801206630554345,0.4084502317259458,0.1948548844315163,-0.08934367639549648,-0.1146705521991186,1.054584065700832,0.3238069471885654,-0.3924185731243669,-2.1534819451716762,0.8646007146239281,2.465902513543764,0.5444923245055902,1.0544104758940245,0.3238615046091247,-0.39250456234122666,-2.153291787532338,0.8647539153680389,2.46587817577521,0.5445020185570556,-7.792533673661637e-05,-0.00020605434296738583,-0.0013033999671733447,-0.0015227813528946646,-0.00014544400779366,-4.517017953012981e-05,0.0013163583572196045,0.0,0.0,0.0,0.0,0.0,0.0,0.0,-0.00017358980680759473,5.4557420559320224e-05,-8.598921685976091e-05,0.00019015763933838414,0.0001532007441108485,-2.4337768554261174e-05,9.69405146544755e-06,7.792533673661637e-05,0.00020605434296738583,0.0013033999671733447,0.0015227813528946646,0.00014544400779366,4.517017953012981e-05,-0.0013163583572196045,0.6053096652030945,34.28908920288086,3.9974029064178467,-19.487642288208008,-0.2484031319618225,-1.815799355506897,0.13858358561992645,0
8,0.03500866889953613,-0.5299312472343445,-34.33669662475586,-3.9735991954803467,19.459871292114258,0.2429099678993225,1.809390664100647,-0.10470907390117645,0.0,0.0,0.0,0.0,0.0,0.0,0.0,-0.6222248304455233,-0.22409506113551197,-0.4733621177189636,0.407692001786839,0.1948850625339333,-0.09096757104670278,-0.11343415501547478,1.0545787759872904,0.3238105331624566,-0.3924200095568019,-2.15347999632986,0.8646013249754906,2.4659032254590816,0.5444885606682963,1.0544104758940245,0.3238615046091247,-0.39250456234122666,-2.153291787532338,0.8647539153680389,2.46587817577521,0.5445020185570556,-0.00014651998165655518,0.0010157664047707935,0.0008949170631721782,-0.00028436053740829787,0.00014650742820543862,9.979730247677662e-05,-6.170128038988381e-05,0.0,0.0,0.0,0.0,0.0,0.0,0.0,-0.00016830009326596063,5.097144666810216e-05,-8.455278442476288e-05,0.00018820879752201591,0.00015259039254833517,-2.5049683871625206e-05,1.3457888759282888e-05,0.00014651998165655518,-0.0010157664047707935,-0.0008949170631721782,0.00028436053740829787,-0.00014650742820543862,-9.979730247677662e-05,6.170128038988381e-05,0.5299312472343445,34.33669662475586,3.9735991954803467,-19.459871292114258,-0.2429099678993225,-1.809390664100647,0.10470907390117645,0
9,0.04001474380493164,-0.5299312472343445,-34.33669662475586,-3.9735991954803467,19.459871292114258,0.2429099678993225,1.809390664100647,-0.10470907390117645,0.0,0.0,0.0,0.0,0.0,0.0,0.0,-0.6222248304455233,-0.22409506113551197,-0.4733621177189636,0.407692001786839,0.1948850625339333,-0.09096757104670278,-0.11343415501547478,1.0545787759872904,0.3238105331624566,-0.3924200095568019,-2.15347999632986,0.8646013249754906,2.4659032254590816,0.5444885606682963,1.0544104758940245,0.3238615046091247,-0.39250456234122666,-2.153291787532338,0.8647539153680389,2.46587817577521,0.5445020185570556,-0.00014651998165655518,0.0010157664047707935,0.0008949170631721782,-0.00028436053740829787,0.00014650742820543862,9.979730247677662e-05,-6.170128038988381e-05,0.0,0.0,0.0,0.0,0.0,0.0,0.0,-0.00016830009326596063,5.097144666810216e-05,-8.455278442476288e-05,0.00018820879752201591,0.00015259039254833517,-2.5049683871625206e-05,1.3457888759282888e-05,0.00014651998165655518,-0.0010157664047707935,-0.0008949170631721782,0.00028436053740829787,-0.00014650742820543862,-9.979730247677662e-05,6.170128038988381e-05,0.5299312472343445,34.33669662475586,3.9735991954803467,-19.459871292114258,-0.2429099678993225,-1.809390664100647,0.10470907390117645,0
10,0.045000314712524414,-0.5815059542655945,-34.31289291381836,-4.048977375030518,19.436067581176758,0.2484031319618225,1.802981972694397,-0.10470907390117645,0.0,0.0,0.0,0.0,0.0,0.0,0.0,-0.6602299335651312,-0.21365182575850444,-0.5040967434842114,0.39324177140018884,0.19769493765224877,-0.09020406817221263,-0.11262478035168103,1.0545823952649769,0.3238067280804325,-0.3924149538620907,-2.153477690111127,0.8646007146239281,2.4659035844846997,0.544488561152813,1.0544104758940245,0.3238615046091247,-0.39250456234122666,-2.153291787532338,0.8647539153680389,2.46587817577521,0.5445020185570556,0.00029304265373742924,0.0007782142921998445,0.0015922932242342178,-0.0007549822182637589,-0.0015628913875661247,-0.00016433304457418875,-0.00041160018562502086,0.0,0.0,0.0,0.0,0.0,0.0,0.0,-0.00017191937095240029,5.477652869223526e-05,-8.960847913597192e-05,0.0001859025787891433,0.0001532007441108485,-2.540870948974927e-05,1.3457404242633864e-05,-0.00029304265373742924,-0.0007782142921998445,-0.0015922932242342178,0.0007549822182637589,0.0015628913875661247,0.00016433304457418875,0.00041160018562502086,0.5815059542655945,34.31289291381836,4.048977375030518,-19.436067581176758,-0.2484031319618225,-1.802981972694397,0.10470907390117645,0
11,0.04999876022338867,-0.5815059542655945,-34.31289291381836,-4.048977375030518,19.436067581176758,0.2484031319618225,1.802981972694397,-0.10470907390117645,0.0,0.0,0.0,0.0,0.0,0.0,0.0,-0.6602299335651312,-0.21365182575850444,-0.5040967434842114,0.39324177140018884,0.19769493765224877,-0.09020406817221263,-0.11262478035168103,1.0545823952649769,0.3238067280804325,-0.3924149538620907,-2.153477690111127,0.8646007146239281,2.4659035844846997,0.544488561152813,1.0544104758940245,0.3238615046091247,-0.39250456234122666,-2.153291787532338,0.8647539153680389,2.46587817577521,0.5445020185570556,0.00029304265373742924,0.0007782142921998445,0.0015922932242342178,-0.0007549822182637589,-0.0015628913875661247,-0.00016433304457418875,-0.00041160018562502086,0.0,0.0,0.0,0.0,0.0,0.0,0.0,-0.00017191937095240029,5.477652869223526e-05,-8.960847913597192e-05,0.0001859025787891433,0.0001532007441108485,-2.540870948974927e-05,1.3457404242633864e-05,-0.00029304265373742924,-0.0007782142921998445,-0.0015922932242342178,0.0007549822182637589,0.0015628913875661247,0.00016433304457418875,0.00041160018562502086,0.5815059542655945,34.31289291381836,4.048977375030518,-19.436067581176758,-0.2484031319618225,-1.802981972694397,0.10470907390117645,0
12,0.054999589920043945,-0.7084590792655945,-34.26528549194336,-4.048977375030518,19.436067581176758,0.2484031319618225,1.809390664100647,-0.09738485515117645,0.0,0.0,0.0,0.0,0.0,0.0,0.0,-0.6533803178707542,-0.22530523391639132,-0.499244424291861,0.4020770506992537,0.19723535775541912,-0.09068416494740777,-0.11376102736434333,1.054591304256205,0.3238055100714768,-0.39241495386341163,-2.153478323274025,0.8646007146239281,2.4659032256185935,0.5444877468662156,1.0544104758940245,0.3238615046091247,-0.39250456234122666,-2.153291787532338,0.8647539153680389,2.46587817577521,0.5445020185570556,0.0016372602233081786,-0.00020873388218598695,-9.764861802758864e-05,-0.00033774803662972727,-0.0001496188130848703,-1.1406435115953744e-05,-0.0007875974687392019,0.0,0.0,0.0,0.0,0.0,0.0,0.0,-0.00018082836218047404,5.599453764792983e-05,-8.960847781502856e-05,0.00018653574168725484,0.0001532007441108485,-2.5049843383584403e-05,1.4271690840006457e-05,-0.0016372602233081786,0.00020873388218598695,9.764861802758864e-05,0.00033774803662972727,0.0001496188130848703,1.1406435115953744e-05,0.0007875974687392019,0.7084590792655945,34.26528549194336,4.048977375030518,-19.436067581176758,-0.2484031319618225,-1.809390664100647,0.09738485515117645,0
13,0.059999942779541016,-0.7084590792655945,-34.26528549194336,-4.048977375030518,19.436067581176758,0.2484031319618225,1.809390664100647,-0.09738485515117645,0.0,0.0,0.0,0.0,0.0,0.0,0.0,-0.6533803178707542,-0.22530523391639132,-0.499244424291861,0.4020770506992537,0.19723535775541912,-0.09068416494740777,-0.11376102736434333,1.054591304256205,0.3238055100714768,-0.39241495386341163,-2.153478323274025,0.8646007146239281,2.4659032256185935,0.5444877468662156,1.0544104758940245,0.3238615046091247,-0.39250456234122666,-2.153291787532338,0.8647539153680389,2.46587817577521,0.5445020185570556,0.0016372602233081786,-0.00020873388218598695,-9.764861802758864e-05,-0.00033774803662972727,-0.0001496188130848703,-1.1406435115953744e-05,-0.0007875974687392019,0.0,0.0,0.0,0.0,0.0,0.0,0.0,-0.00018082836218047404,5.599453764792983e-05,-8.960847781502856e-05,0.00018653574168725484,0.0001532007441108485,-2.5049843383584403e-05,1.4271690840006457e-05,-0.0016372602233081786,0.00020873388218598695,9.764861802758864e-05,0.00033774803662972727,0.0001496188130848703,1.1406435115953744e-05,0.0007875974687392019,0.7084590792655945,34.26528549194336,4.048977375030518,-19.436067581176758,-0.2484031319618225,-1.809390664100647,0.09738485515117645,0
14,0.06503844261169434,-0.7322627902030945,-34.31289291381836,-4.096584796905518,19.412263870239258,0.2484031319618225,1.822208046913147,-0.14590780436992645,0.0,0.0,0.0,0.0,0.0,0.0,0.0,-0.6461650411905094,-0.2325307952125273,-0.49287112543799333,0.40724772033946915,0.19658112459477506,-0.09021407940827875,-0.1141849115973366,1.0545929746920601,0.32380862640891195,-0.3924116129917011,-2.1534766554581344,0.86459753570954,2.4659018014669414,0.544493138305015,1.0544104758940245,0.3238615046091247,-0.39250456234122666,-2.153291787532338,0.8647539153680389,2.46587817577521,0.5445020185570556,0.000502267587836715,6.391504691134562e-05,0.00017199962704934923,0.0007448102362945862,-0.00021480145406976747,0.0002541781226864037,0.001526909423027799,0.0,0.0,0.0,0.0,0.0,0.0,0.0,-0.00018249879803566849,5.287820021276923e-05,-9.294934952558398e-05,0.000184867925796528,0.00015637965849890634,-2.3625691731421483e-05,8.880252040599501e-06,-0.000502267587836715,-6.391504691134562e-05,-0.00017199962704934923,-0.0007448102362945862,0.00021480145406976747,-0.0002541781226864037,-0.001526909423027799,0.7322627902030945,34.31289291381836,4.096584796905518,-19.412263870239258,-0.2484031319618225,-1.822208046913147,0.14590780436992645,0
15,0.06994795799255371,-0.7322627902030945,-34.31289291381836,-4.096584796905518,19.412263870239258,0.2484031319618225,1.822208046913147,-0.14590780436992645,0.0,0.0,0.0,0.0,0.0,0.0,0.0,-0.6461650411905094,-0.2325307952125273,-0.49287112543799333,0.40724772033946915,0.19658112459477506,-0.09021407940827875,-0.1141849115973366,1.0545929746920601,0.32380862640891195,-0.3924116129917011,-2.1534766554581344,0.86459753570954,2.4659018014669414,0.544493138305015,1.0544104758940245,0.3238615046091247,-0.39250456234122666,-2.153291787532338,0.8647539153680389,2.46587817577521,0.5445020185570556,0.000502267587836715,6.391504691134562e-05,0.00017199962704934923,0.0007448102362945862,-0.00021480145406976747,0.0002541781226864037,0.001526909423027799,0.0,0.0,0.0,0.0,0.0,0.0,0.0,-0.00018249879803566849,5.287820021276923e-05,-9.294934952558398e-05,0.000184867925796528,0.00015637965849890634,-2.3625691731421483e-05,8.880252040599501e-06,-0.000502267587836715,-6.391504691134562e-05,-0.00017199962704934923,-0.0007448102362945862,0.00021480145406976747,-0.0002541781226864037,-0.001526909423027799,0.7322627902030945,34.31289291381836,4.096584796905518,-19.412263870239258,-0.2484031319618225,-1.822208046913147,0.14590780436992645,0
16,0.07500147819519043,-0.7322627902030945,-34.31289291381836,-4.096584796905518,19.412263870239258,0.2484031319618225,1.822208046913147,-0.14590780436992645,0.0,0.0,0.0,0.0,0.0,0.0,0.0,-0.6461650411905094,-0.2325307952125273,-0.49287112543799333,0.40724772033946915,0.19658112459477506,-0.09021407940827875,-0.1141849115973366,1.0545929746920601,0.32380862640891195,-0.3924116129917011,-2.1534766554581344,0.86459753570954,2.4659018014669414,0.544493138305015,1.0544104758940245,0.3238615046091247,-0.39250456234122666,-2.153291787532338,0.8647539153680389,2.46587817577521,0.5445020185570556,0.000502267587836715,6.391504691134562e-05,0.00017199962704934923,0.0007448102362945862,-0.00021480145406976747,0.0002541781226864037,0.001526909423027799,0.0,0.0,0.0,0.0,0.0,0.0,0.0,-0.00018249879803566849,5.287820021276923e-05,-9.294934952558398e-05,0.000184867925796528,0.00015637965849890634,-2.3625691731421483e-05,8.880252040599501e-06,-0.000502267587836715,-6.391504691134562e-05,-0.00017199962704934923,-0.0007448102362945862,0.00021480145406976747,-0.0002541781226864037,-0.001526909423027799,0.7322627902030945,34.31289291381836,4.096584796905518,-19.412263870239258,-0.2484031319618225,-1.822208046913147,0.14590780436992645,0
17,0.08000850677490234,-0.6806880831718445,-34.26528549194336,-4.096584796905518,19.436067581176758,0.2484031319618225,1.822208046913147,-0.13217489421367645,0.0,0.0,0.0,0.0,0.0,0.0,0.0,-0.6344427779411275,-0.2155962341397737,-0.47763147590270405,0.39918242887567934,0.19409436151359197,-0.09088494791734596,-0.11394013561105078,1.054589355414374,0.32380478589620626,-0.3924116129917011,-2.153478325797101,0.864600714605983,2.4659018014669414,0.5444916129106254,1.0544104758940245,0.3238615046091247,-0.39250456234122666,-2.153291787532338,0.8647539153680389,2.46587817577521,0.5445020185570556,-0.0004925649126688636,-0.0007575659884537865,-0.0004813334109143463,-0.0002800782533429878,0.0003628130623975651,-9.824117210211667e-05,0.00116287508031481,0.0,0.0,0.0,0.0,0.0,0.0,0.0,-0.00017887952034945087,5.671871291845765e-05,-9.294934952558398e-05,0.00018653826476322521,0.00015320076205593836,-2.3625691731421483e-05,1.0405646430178273e-05,0.0004925649126688636,0.0007575659884537865,0.0004813334109143463,0.0002800782533429878,-0.0003628130623975651,9.824117210211667e-05,-0.00116287508031481,0.6806880831718445,34.26528549194336,4.096584796905518,-19.436067581176758,-0.2484031319618225,-1.822208046913147,0.13217489421367645,0
18,0.0850069522857666,-0.6806880831718445,-34.26528549194336,-4.096584796905518,19.436067581176758,0.2484031319618225,1.822208046913147,-0.13217489421367645,0.0,0.0,0.0,0.0,0.0,0.0,0.0,-0.6344427779411275,-0.2155962341397737,-0.47763147590270405,0.39918242887567934,0.19409436151359197,-0.09088494791734596,-0.11394013561105078,1.054589355414374,0.32380478589620626,-0.3924116129917011,-2.153478325797101,0.864600714605983,2.4659018014669414,0.5444916129106254,1.0544104758940245,0.3238615046091247,-0.39250456234122666,-2.153291787532338,0.8647539153680389,2.46587817577521,0.5445020185570556,-0.0004925649126688636,-0.0007575659884537865,-0.0004813334109143463,-0.0002800782533429878,0.0003628130623975651,-9.824117210211667e-05,0.00116287508031481,0.0,0.0,0.0,0.0,0.0,0.0,0.0,-0.00017887952034945087,5.671871291845765e-05,-9.294934952558398e-05,0.00018653826476322521,0.00015320076205593836,-2.3625691731421483e-05,1.0405646430178273e-05,0.0004925649126688636,0.0007575659884537865,0.0004813334109143463,0.0002800782533429878,-0.0003628130623975651,9.824117210211667e-05,-0.00116287508031481,0.6806880831718445,34.26528549194336,4.096584796905518,-19.436067581176758,-0.2484031319618225,-1.822208046913147,0.13217489421367645,0
19,0.09000587463378906,-0.6806880831718445,-34.28908920288086,-4.048977375030518,19.412263870239258,0.2429099678993225,1.822208046913147,-0.09097616374492645,0.0,0.0,0.0,0.0,0.0,0.0,0.0,-0.6368602569298171,-0.2253938633274741,-0.4821787226161042,0.4035002910744904,0.19397617435799275,-0.09090120791976156,-0.11350978058245259,1.054589355414374,0.32380695596896875,-0.39241495386341163,-2.1534766554581486,0.8646013249754905,2.4659018014669414,0.5444870754887996,1.0544104758940245,0.3238615046091247,-0.39250456234122666,-2.153291787532338,0.8647539153680389,2.46587817577521,0.5445020185570556,2.384542657477625e-05,-0.0003106487778545691,-0.0007535472830400093,0.00010073343312212534,0.0001214953364981467,-8.298880740581109e-05,-0.0008160297017380849,0.0,0.0,0.0,0.0,0.0,0.0,0.0,-0.00017887952034945087,5.4548640155971384e-05,-8.960847781502856e-05,0.00018486792581073885,0.0001525903925484462,-2.3625691731421483e-05,1.4943068256001446e-05,-2.384542657477625e-05,0.0003106487778545691,0.0007535472830400093,-0.00010073343312212534,-0.0001214953364981467,8.298880740581109e-05,0.0008160297017380849,0.6806880831718445,34.28908920288086,4.048977375030518,-19.412263870239258,-0.2429099678993225,-1.822208046913147,0.09097616374492645,0
20,0.09499764442443848,-0.6806880831718445,-34.28908920288086,-4.048977375030518,19.412263870239258,0.2429099678993225,1.822208046913147,-0.09097616374492645,0.0,0.0,0.0,0.0,0.0,0.0,0.0,-0.6368602569298171,-0.2253938633274741,-0.4821787226161042,0.4035002910744904,0.19397617435799275,-0.09090120791976156,-0.11350978058245259,1.054589355414374,0.32380695596896875,-0.39241495386341163,-2.1534766554581486,0.8646013249754905,2.4659018014669414,0.5444870754887996,1.0544104758940245,0.3238615046091247,-0.39250456234122666,-2.153291787532338,0.8647539153680389,2.46587817577521,0.5445020185570556,2.384542657477625e-05,-0.0003106487778545691,-0.0007535472830400093,0.00010073343312212534,0.0001214953364981467,-8.298880740581109e-05,-0.0008160297017380849,0.0,0.0,0.0,0.0,0.0,0.0,0.0,-0.00017887952034945087,5.4548640155971384e-05,-8.960847781502856e-05,0.00018486792581073885,0.0001525903925484462,-2.3625691731421483e-05,1.4943068256001446e-05,-2.384542657477625e-05,0.0003106487778545691,0.0007535472830400093,-0.00010073343312212534,-0.0001214953364981467,8.298880740581109e-05,0.0008160297017380849,0.6806880831718445,34.28908920288086,4.048977375030518,-19.412263870239258,-0.2429099678993225,-1.822208046913147,0.09097616374492645,0
21,0.09999966621398926,-0.6291133761405945,-34.31289291381836,-4.072781085968018,19.412263870239258,0.2484031319618225,1.822208046913147,-0.07724325358867645,0.0,0.0,0.0,0.0,0.0,0.0,0.0,-0.6547953644774555,-0.2287276516137201,-0.4977041979606134,0.40251007315903825,0.19446183955670082,-0.08936150597735289,-0.1135872941643878,1.0545857361366875,0.32380886272665094,-0.3924132834275564,-2.153476655458149,0.8646007146239281,2.4659018014669414,0.5444855219926656,1.0544104758940245,0.3238615046091247,-0.39250456234122666,-2.153291787532338,0.8647539153680389,2.46587817577521,0.5445020185570556,-0.0009331521517445508,0.00030214642662958565,0.00023695913846412923,0.0005772790455621152,-0.0001604121173290122,-0.00022149997441046147,-0.0019667175670487953,0.0,0.0,0.0,0.0,0.0,0.0,0.0,-0.0001752602426630112,5.2641882473780655e-05,-9.127891367027852e-05,0.00018486792581118294,0.0001532007441108485,-2.3625691731421483e-05,1.649656438995617e-05,0.0009331521517445508,-0.00030214642662958565,-0.00023695913846412923,-0.0005772790455621152,0.0001604121173290122,0.00022149997441046147,0.0019667175670487953,0.6291133761405945,34.31289291381836,4.072781085968018,-19.412263870239258,-0.2484031319618225,-1.822208046913147,0.07724325358867645,0
22,0.10499739646911621,-0.6291133761405945,-34.31289291381836,-4.072781085968018,19.412263870239258,0.2484031319618225,1.822208046913147,-0.07724325358867645,0.0,0.0,0.0,0.0,0.0,0.0,0.0,-0.6547953644774555,-0.2287276516137201,-0.4977041979606134,0.40251007315903825,0.19446183955670082,-0.08936150597735289,-0.1135872941643878,1.0545857361366875,0.32380886272665094,-0.3924132834275564,-2.153476655458149,0.8646007146239281,2.4659018014669414,0.5444855219926656,1.0544104758940245,0.3238615046091247,-0.39250456234122666,-2.153291787532338,0.8647539153680389,2.46587817577521,0.5445020185570556,-0.0009331521517445508,0.00030214642662958565,0.00023695913846412923,0.0005772790455621152,-0.0001604121173290122,-0.00022149997441046147,-0.0019667175670487953,0.0,0.0,0.0,0.0,0.0,0.0,0.0,-0.0001752602426630112,5.2641882473780655e-05,-9.127891367027852e-05,0.00018486792581118294,0.0001532007441108485,-2.3625691731421483e-05,1.649656438995617e-05,0.0009331521517445508,-0.00030214642662958565,-0.00023695913846412923,-0.0005772790455621152,0.0001604121173290122,0.00022149997441046147,0.0019667175670487953,0.6291133761405945,34.31289291381836,4.072781085968018,-19.412263870239258,-0.2484031319618225,-1.822208046913147,0.07724325358867645,0
23,0.10999751091003418,-0.6568843722343445,-34.26528549194336,-4.048977375030518,19.412263870239258,0.2484031319618225,1.802981972694397,-0.13858358561992645,0.0,0.0,0.0,0.0,0.0,0.0,0.0,-0.6735494967119194,-0.21969511282358473,-0.5126450119013696,0.39404964215236216,0.1950244773863998,-0.08908331323699893,-0.1157498609598763,1.0545877114694717,0.3238055218562745,-0.39241495386341163,-2.1534747481095162,0.8646007146239281,2.4659039376974103,0.5444938957908214,1.0544104758940245,0.3238615046091247,-0.39250456234122666,-2.153291787532338,0.8647539153680389,2.46587817577521,0.5445020185570556,-0.000664992806817596,-0.0003134723034831334,-0.0007174931728536064,0.00012458239439291512,2.8562985557510455e-05,0.0001222989851696324,0.0008322397016409553,0.0,0.0,0.0,0.0,0.0,0.0,0.0,-0.00017723557544724322,5.598275285023657e-05,-8.960847781502856e-05,0.00018296057717837044,0.0001532007441108485,-2.5761922200384646e-05,8.122766234186507e-06,0.000664992806817596,0.0003134723034831334,0.0007174931728536064,-0.00012458239439291512,-2.8562985557510455e-05,-0.0001222989851696324,-0.0008322397016409553,0.6568843722343445,34.26528549194336,4.048977375030518,-19.412263870239258,-0.2484031319618225,-1.802981972694397,0.13858358561992645,0
24,0.11500144004821777,-0.6568843722343445,-34.26528549194336,-4.048977375030518,19.412263870239258,0.2484031319618225,1.802981972694397,-0.13858358561992645,0.0,0.0,0.0,0.0,0.0,0.0,0.0,-0.6735494967119194,-0.21969511282358473,-0.5126450119013696,0.39404964215236216,0.1950244773863998,-0.08908331323699893,-0.1157498609598763,1.0545877114694717,0.3238055218562745,-0.39241495386341163,-2.1534747481095162,0.8646007146239281,2.4659039376974103,0.5444938957908214,1.0544104758940245,0.3238615046091247,-0.39250456234122666,-2.153291787532338,0.8647539153680389,2.46587817577521,0.5445020185570556,-0.000664992806817596,-0.0003134723034831334,-0.0007174931728536064,0.00012458239439291512,2.8562985557510455e-05,0.0001222989851696324,0.0008322397016409553,0.0,0.0,0.0,0.0,0.0,0.0,0.0,-0.00017723557544724322,5.598275285023657e-05,-8.960847781502856e-05,0.00018296057717837044,0.0001532007441108485,-2.5761922200384646e-05,8.122766234186507e-06,0.000664992806817596,0.0003134723034831334,0.0007174931728536064,-0.00012458239439291512,-2.8562985557510455e-05,-0.0001222989851696324,-0.0008322397016409553,0.6568843722343445,34.26528549194336,4.048977375030518,-19.412263870239258,-0.2484031319618225,-1.802981972694397,0.13858358561992645,0
25,0.11999940872192383,-0.6291133761405945,-34.18990707397461,-4.124355792999268,19.412263870239258,0.2484031319618225,1.809390664100647,-0.11844198405742645,0.0,0.0,0.0,0.0,0.0,0.0,0.0,-0.6533420644377691,-0.21176310492633688,-0.4956276855819422,0.3952933741445767,0.1937232131799963,-0.09171397709107881,-0.11813598339080178,1.054585736137136,0.3238002311706711,-0.39240966414986994,-2.153474748077215,0.8646007146239281,2.465903225620587,0.5444900996557646,1.0544104758940245,0.3238615046091247,-0.39250456234122666,-2.153291787532338,0.8647539153680389,2.46587817577521,0.5445020185570556,-0.00046904963202344267,-0.00105068553328397,0.0014345340747808184,0.0005221401518645608,0.002910065163977487,-5.366446886482068e-05,-8.837310007188372e-05,0.0,0.0,0.0,0.0,0.0,0.0,0.0,-0.00017526024311154131,6.127343845363509e-05,-9.489819135671818e-05,0.00018296054487709767,0.0001532007441108485,-2.5049845377100866e-05,1.191890129104145e-05,0.00046904963202344267,0.00105068553328397,-0.0014345340747808184,-0.0005221401518645608,-0.002910065163977487,5.366446886482068e-05,8.837310007188372e-05,0.6291133761405945,34.18990707397461,4.124355792999268,-19.412263870239258,-0.2484031319618225,-1.809390664100647,0.11844198405742645,0
26,0.12499785423278809,-0.6291133761405945,-34.18990707397461,-4.124355792999268,19.412263870239258,0.2484031319618225,1.809390664100647,-0.11844198405742645,0.0,0.0,0.0,0.0,0.0,0.0,0.0,-0.6533420644377691,-0.21176310492633688,-0.4956276855819422,0.3952933741445767,0.1937232131799963,-0.09171397709107881,-0.11813598339080178,1.054585736137136,0.3238002311706711,-0.39240966414986994,-2.153474748077215,0.8646007146239281,2.465903225620587,0.5444900996557646,1.0544104758940245,0.3238615046091247,-0.39250456234122666,-2.153291787532338,0.8647539153680389,2.46587817577521,0.5445020185570556,-0.00046904963202344267,-0.00105068553328397,0.0014345340747808184,0.0005221401518645608,0.002910065163977487,-5.366446886482068e-05,-8.837310007188372e-05,0.0,0.0,0.0,0.0,0.0,0.0,0.0,-0.00017526024311154131,6.127343845363509e-05,-9.489819135671818e-05,0.00018296054487709767,0.0001532007441108485,-2.5049845377100866e-05,1.191890129104145e-05,0.00046904963202344267,0.00105068553328397,-0.0014345340747808184,-0.0005221401518645608,-0.002910065163977487,5.366446886482068e-05,8.837310007188372e-05,0.6291133761405945,34.18990707397461,4.124355792999268,-19.412263870239258,-0.2484031319618225,-1.809390664100647,0.11844198405742645,0
27,0.13001298904418945,-0.6291133761405945,-34.23751449584961,-4.072781085968018,19.459871292114258,0.2548118233680725,1.822208046913147,-0.15964071452617645,0.0,0.0,0.0,0.0,0.0,0.0,0.0,-0.666432195517184,-0.22328986593190955,-0.5139292650709177,0.40678431136318294,0.1951244957242718,-0.08997761746074369,-0.11811875613596946,1.0545857361366875,0.32380333646742054,-0.3924125814172957,-2.1534799963262707,0.8646000025471051,2.4659018014669414,0.5444946643992866,1.0544104758940245,0.3238615046091247,-0.39250456234122666,-2.153291787532338,0.8647539153680389,2.46587817577521,0.5445020185570556,-0.0005423661390836019,-0.0005198649907719452,-0.00040788549956541603,-0.0004309375791953082,-0.0002243655808619063,-0.0002106422935062827,0.0017645876279036648,0.0,0.0,0.0,0.0,0.0,0.0,0.0,-0.0001752602426630112,5.8168141704173504e-05,-9.198092393097879e-05,0.00018820879393288692,0.0001539128209337992,-2.3625691731421483e-05,7.354157768979519e-06,0.0005423661390836019,0.0005198649907719452,0.00040788549956541603,0.0004309375791953082,0.0002243655808619063,0.0002106422935062827,-0.0017645876279036648,0.6291133761405945,34.23751449584961,4.072781085968018,-19.459871292114258,-0.2548118233680725,-1.822208046913147,0.15964071452617645,0
28,0.13499855995178223,-0.6291133761405945,-34.23751449584961,-4.072781085968018,19.459871292114258,0.2548118233680725,1.822208046913147,-0.15964071452617645,0.0,0.0,0.0,0.0,0.0,0.0,0.0,-0.666432195517184,-0.22328986593190955,-0.5139292650709177,0.40678431136318294,0.1951244957242718,-0.08997761746074369,-0.11811875613596946,1.0545857361366875,0.32380333646742054,-0.3924125814172957,-2.1534799963262707,0.8646000025471051,2.4659018014669414,0.5444946643992866,1.0544104758940245,0.3238615046091247,-0.39250456234122666,-2.153291787532338,0.8647539153680389,2.46587817577521,0.5445020185570556,-0.0005423661390836019,-0.0005198649907719452,-0.00040788549956541603,-0.0004309375791953082,-0.0002243655808619063,-0.0002106422935062827,0.0017645876279036648,0.0,0.0,0.0,0.0,0.0,0.0,0.0,-0.0001752602426630112,5.8168141704173504e-05,-9.198092393097879e-05,0.00018820879393288692,0.0001539128209337992,-2.3625691731421483e-05,7.354157768979519e-06,0.0005423661390836019,0.0005198649907719452,0.00040788549956541603,0.0004309375791953082,0.0002243655808619063,0.0002106422935062827,-0.0017645876279036648,0.6291133761405945,34.23751449584961,4.072781085968018,-19.459871292114258,-0.2548118233680725,-1.822208046913147,0.15964071452617645,0
29,0.13996052742004395,-0.6291133761405945,-34.23751449584961,-4.072781085968018,19.459871292114258,0.2548118233680725,1.822208046913147,-0.15964071452617645,0.0,0.0,0.0,0.0,0.0,0.0,0.0,-0.666432195517184,-0.22328986593190955,-0.5139292650709177,0.40678431136318294,0.1951244957242718,-0.08997761746074369,-0.11811875613596946,1.0545857361366875,0.32380333646742054,-0.3924125814172957,-2.1534799963262707,0.8646000025471051,2.4659018014669414,0.5444946643992866,1.0544104758940245,0.3238615046091247,-0.39250456234122666,-2.153291787532338,0.8647539153680389,2.46587817577521,0.5445020185570556,-0.0005423661390836019,-0.0005198649907719452,-0.00040788549956541603,-0.0004309375791953082,-0.0002243655808619063,-0.0002106422935062827,0.0017645876279036648,0.0,0.0,0.0,0.0,0.0,0.0,0.0,-0.0001752602426630112,5.8168141704173504e-05,-9.198092393097879e-05,0.00018820879393288692,0.0001539128209337992,-2.3625691731421483e-05,7.354157768979519e-06,0.0005423661390836019,0.0005198649907719452,0.00040788549956541603,0.0004309375791953082,0.0002243655808619063,0.0002106422935062827,-0.0017645876279036648,0.6291133761405945,34.23751449584961,4.072781085968018,-19.459871292114258,-0.2548118233680725,-1.822208046913147,0.15964071452617645,0
30,0.14499568939208984,-0.6291133761405945,-34.23751449584961,-4.072781085968018,19.459871292114258,0.2548118233680725,1.822208046913147,-0.15964071452617645,0.0,0.0,0.0,0.0,0.0,0.0,0.0,-0.666432195517184,-0.22328986593190955,-0.5139292650709177,0.40678431136318294,0.1951244957242718,-0.08997761746074369,-0.11811875613596946,1.0545857361366875,0.32380333646742054,-0.3924125814172957,-2.1534799963262707,0.8646000025471051,2.4659018014669414,0.5444946643992866,1.0544104758940245,0.3238615046091247,-0.39250456234122666,-2.153291787532338,0.8647539153680389,2.46587817577521,0.5445020185570556,-0.0005423661390836019,-0.0005198649907719452,-0.00040788549956541603,-0.0004309375791953082,-0.0002243655808619063,-0.0002106422935062827,0.0017645876279036648,0.0,0.0,0.0,0.0,0.0,0.0,0.0,-0.0001752602426630112,5.8168141704173504e-05,-9.198092393097879e-05,0.00018820879393288692,0.0001539128209337992,-2.3625691731421483e-05,7.354157768979519e-06,0.0005423661390836019,0.0005198649907719452,0.00040788549956541603,0.0004309375791953082,0.0002243655808619063,0.0002106422935062827,-0.0017645876279036648,0.6291133761405945,34.23751449584961,4.072781085968018,-19.459871292114258,-0.2548118233680725,-1.822208046913147,0.15964071452617645,0
31,0.1500086784362793,-0.6291133761405945,-34.33669662475586,-4.072781085968018,19.459871292114258,0.2603049874305725,1.802981972694397,-0.11111776530742645,0.0,0.0,0.0,0.0,0.0,0.0,0.0,-0.6442201007553578,-0.2247384053992118,-0.4983608456782906,0.4131578509379811,0.1944526186380292,-0.09086399856249976,-0.11769297101969275,1.0545857361366875,0.32381052344188765,-0.3924130494201733,-2.15347999632986,0.8645993921955426,2.4659039376974103,0.5444892741986705,1.0544104758940245,0.3238615046091247,-0.39250456234122666,-2.153291787532338,0.8647539153680389,2.46587817577521,0.5445020185570556,2.6148862907932555e-05,0.0005327502711161228,0.001201878197925599,-0.0001825991404422814,-0.0006794990684002303,0.00033969703855345163,-0.000364372190644053,0.0,0.0,0.0,0.0,0.0,0.0,0.0,-0.0001752602426630112,5.098116723706303e-05,-9.151292105336051e-05,0.00018820879752201591,0.00015452317249631253,-2.5761922200384646e-05,1.2744358385052834e-05,-2.6148862907932555e-05,-0.0005327502711161228,-0.001201878197925599,0.0001825991404422814,0.0006794990684002303,-0.00033969703855345163,0.000364372190644053,0.6291133761405945,34.33669662475586,4.072781085968018,-19.459871292114258,-0.2603049874305725,-1.802981972694397,0.11111776530742645,0
32,0.15500521659851074,-0.6291133761405945,-34.33669662475586,-4.072781085968018,19.459871292114258,0.2603049874305725,1.802981972694397,-0.11111776530742645,0.0,0.0,0.0,0.0,0.0,0.0,0.0,-0.6442201007553578,-0.2247384053992118,-0.4983608456782906,0.4131578509379811,0.1944526186380292,-0.09086399856249976,-0.11769297101969275,1.0545857361366875,0.32381052344188765,-0.3924130494201733,-2.15347999632986,0.8645993921955426,2.4659039376974103,0.5444892741986705,1.0544104758940245,0.3238615046091247,-0.39250456234122666,-2.153291787532338,0.8647539153680389,2.46587817577521,0.5445020185570556,2.6148862907932555e-05,0.0005327502711161228,0.001201878197925599,-0.0001825991404422814,-0.0006794990684002303,0.00033969703855345163,-0.000364372190644053,0.0,0.0,0.0,0.0,0.0,0.0,0.0,-0.0001752602426630112,5.098116723706303e-05,-9.151292105336051e-05,0.00018820879752201591,0.00015452317249631253,-2.5761922200384646e-05,1.2744358385052834e-05,-2.6148862907932555e-05,-0.0005327502711161228,-0.001201878197925599,0.0001825991404422814,0.0006794990684002303,-0.00033969703855345163,0.000364372190644053,0.6291133761405945,34.33669662475586,4.072781085968018,-19.459871292114258,-0.2603049874305725,-1.802981972694397,0.11111776530742645,0
33,0.16017508506774902,-0.5815059542655945,-34.31289291381836,-4.025173664093018,19.436067581176758,0.2429099678993225,1.835025429725647,-0.09097616374492645,0.0,0.0,0.0,0.0,0.0,0.0,0.0,-0.6439065941820541,-0.2128260994007079,-0.49487536505956115,0.404777035452949,0.1947442212812778,-0.09272644394199805,-0.11826957702431584,1.05458242175593,0.32380791788396807,-0.39241662429882657,-2.153477690111127,0.8646013249754906,2.465900377295351,0.5444880987881727,1.0544104758940245,0.3238615046091247,-0.39250456234122666,-2.153291787532338,0.8647539153680389,2.46587817577521,0.5445020185570556,-0.0005682528994144721,0.00011414707176789061,3.491609422694009e-05,9.204685519075987e-05,0.0001712943779910731,-0.0007731667983406625,-0.0002985853126107698,0.0,0.0,0.0,0.0,0.0,0.0,0.0,-0.00017194586190560912,5.3586725156651305e-05,-8.793804240009306e-05,0.0001859025787891433,0.00015259039254833517,-2.220152014098531e-05,1.3919768882875161e-05,0.0005682528994144721,-0.00011414707176789061,-3.491609422694009e-05,-9.204685519075987e-05,-0.0001712943779910731,0.0007731667983406625,0.0002985853126107698,0.5815059542655945,34.31289291381836,4.025173664093018,-19.436067581176758,-0.2429099678993225,-1.835025429725647,0.09097616374492645,0
34,0.16495823860168457,-0.5815059542655945,-34.31289291381836,-4.025173664093018,19.436067581176758,0.2429099678993225,1.835025429725647,-0.09097616374492645,0.0,0.0,0.0,0.0,0.0,0.0,0.0,-0.6439065941820541,-0.2128260994007079,-0.49487536505956115,0.404777035452949,0.1947442212812778,-0.09272644394199805,-0.11826957702431584,1.05458242175593,0.32380791788396807,-0.39241662429882657,-2.153477690111127,0.8646013249754906,2.465900377295351,0.5444880987881727,1.0544104758940245,0.3238615046091247,-0.39250456234122666,-2.153291787532338,0.8647539153680389,2.46587817577521,0.5445020185570556,-0.0005682528994144721,0.00011414707176789061,3.491609422694009e-05,9.204685519075987e-05,0.0001712943779910731,-0.0007731667983406625,-0.0002985853126107698,0.0,0.0,0.0,0.0,0.0,0.0,0.0,-0.00017194586190560912,5.3586725156651305e-05,-8.793804240009306e-05,0.0001859025787891433,0.00015259039254833517,-2.220152014098531e-05,1.3919768882875161e-05,0.0005682528994144721,-0.00011414707176789061,-3.491609422694009e-05,-9.204685519075987e-05,-0.0001712943779910731,0.0007731667983406625,0.0002985853126107698,0.5815059542655945,34.31289291381836,4.025173664093018,-19.436067581176758,-0.2429099678993225,-1.835025429725647,0.09097616374492645,0
35,0.17000412940979004,-0.6291133761405945,-34.28908920288086,-4.072781085968018,19.459871292114258,0.2548118233680725,1.822208046913147,-0.12485067546367645,0.0,0.0,0.0,0.0,0.0,0.0,0.0,-0.6567340354921349,-0.21744770646651876,-0.5070520241064663,0.4038735887254121,0.19566450682779274,-0.09107111523664813,-0.11489630261623232,1.054585736136837,0.32380719131473434,-0.3924132834275564,-2.1534799963262707,0.8646000025471051,2.4659018014669414,0.5444908378758884,1.0544104758940245,0.3238615046091247,-0.39250456234122666,-2.153291787532338,0.8647539153680389,2.46587817577521,0.5445020185570556,6.268183476464065e-05,5.347510213800493e-05,0.0006619337668791991,-0.0003884090623634808,-0.0003825679386747845,-0.00022784312026394752,0.00112345045442975,0.0,0.0,0.0,0.0,0.0,0.0,0.0,-0.00017526024281244723,5.431329439037347e-05,-9.127891367027852e-05,0.00018820879393288692,0.0001539128209337992,-2.3625691731421483e-05,1.1180681167233253e-05,-6.268183476464065e-05,-5.347510213800493e-05,-0.0006619337668791991,0.0003884090623634808,0.0003825679386747845,0.00022784312026394752,-0.00112345045442975,0.6291133761405945,34.28908920288086,4.072781085968018,-19.459871292114258,-0.2548118233680725,-1.822208046913147,0.12485067546367645,0
36,0.17499709129333496,-0.6291133761405945,-34.28908920288086,-4.072781085968018,19.459871292114258,0.2548118233680725,1.822208046913147,-0.12485067546367645,0.0,0.0,0.0,0.0,0.0,0.0,0.0,-0.6567340354921349,-0.21744770646651876,-0.5070520241064663,0.4038735887254121,0.19566450682779274,-0.09107111523664813,-0.11489630261623232,1.054585736136837,0.32380719131473434,-0.3924132834275564,-2.1534799963262707,0.8646000025471051,2.4659018014669414,0.5444908378758884,1.0544104758940245,0.3238615046091247,-0.39250456234122666,-2.153291787532338,0.8647539153680389,2.46587817577521,0.5445020185570556,6.268183476464065e-05,5.347510213800493e-05,0.0006619337668791991,-0.0003884090623634808,-0.0003825679386747845,-0.00022784312026394752,0.00112345045442975,0.0,0.0,0.0,0.0,0.0,0.0,0.0,-0.00017526024281244723,5.431329439037347e-05,-9.127891367027852e-05,0.00018820879393288692,0.0001539128209337992,-2.3625691731421483e-05,1.1180681167233253e-05,-6.268183476464065e-05,-5.347510213800493e-05,-0.0006619337668791991,0.0003884090623634808,0.0003825679386747845,0.00022784312026394752,-0.00112345045442975,0.6291133761405945,34.28908920288086,4.072781085968018,-19.459871292114258,-0.2548118233680725,-1.822208046913147,0.12485067546367645,0
37,0.17999601364135742,-0.6806880831718445,-34.31289291381836,-4.072781085968018,19.412263870239258,0.2548118233680725,1.802981972694397,-0.12485067546367645,0.0,0.0,0.0,0.0,0.0,0.0,0.0,-0.6572408039677282,-0.22357271465042144,-0.5058781005401771,0.4052997674024835,0.1951869684655988,-0.08977549018322045,-0.11420804710399095,1.054589355414374,0.3238088626199763,-0.3924132834275564,-2.153476655458149,0.8646000025471051,2.4659039376974103,0.5444907986240993,1.0544104758940245,0.3238615046091247,-0.39250456234122666,-2.153291787532338,0.8647539153680389,2.46587817577521,0.5445020185570556,6.986759146589494e-05,0.00044594155033375864,-0.00014134085587595485,0.0005856748807975935,-0.00040237420682675174,0.0004781217638889142,0.0003058482359928213,0.0,0.0,0.0,0.0,0.0,0.0,0.0,-0.00017887952034945087,5.264198914839424e-05,-9.127891367027852e-05,0.00018486792581118294,0.0001539128209337992,-2.5761922200384646e-05,1.1219932956274548e-05,-6.986759146589494e-05,-0.00044594155033375864,0.00014134085587595485,-0.0005856748807975935,0.00040237420682675174,-0.0004781217638889142,-0.0003058482359928213,0.6806880831718445,34.31289291381836,4.072781085968018,-19.412263870239258,-0.2548118233680725,-1.802981972694397,0.12485067546367645,0
38,0.18501901626586914,-0.6806880831718445,-34.31289291381836,-4.072781085968018,19.412263870239258,0.2548118233680725,1.802981972694397,-0.12485067546367645,0.0,0.0,0.0,0.0,0.0,0.0,0.0,-0.6572408039677282,-0.22357271465042144,-0.5058781005401771,0.4052997674024835,0.1951869684655988,-0.08977549018322045,-0.11420804710399095,1.054589355414374,0.3238088626199763,-0.3924132834275564,-2.153476655458149,0.8646000025471051,2.4659039376974103,0.5444907986240993,1.0544104758940245,0.3238615046091247,-0.39250456234122666,-2.153291787532338,0.8647539153680389,2.46587817577521,0.5445020185570556,6.986759146589494e-05,0.00044594155033375864,-0.00014134085587595485,0.0005856748807975935,-0.00040237420682675174,0.0004781217638889142,0.0003058482359928213,0.0,0.0,0.0,0.0,0.0,0.0,0.0,-0.00017887952034945087,5.264198914839424e-05,-9.127891367027852e-05,0.00018486792581118294,0.0001539128209337992,-2.5761922200384646e-05,1.1219932956274548e-05,-6.986759146589494e-05,-0.00044594155033375864,0.00014134085587595485,-0.0005856748807975935,0.00040237420682675174,-0.0004781217638889142,-0.0003058482359928213,0.6806880831718445,34.31289291381836,4.072781085968018,-19.412263870239258,-0.2548118233680725,-1.802981972694397,0.12485067546367645,0
39,0.19000458717346191,-0.6806880831718445,-34.23751449584961,-4.072781085968018,19.436067581176758,0.2429099678993225,1.802981972694397,-0.13858358561992645,0.0,0.0,0.0,0.0,0.0,0.0,0.0,-0.6463098335249496,-0.2137551493814306,-0.4920383643079482,0.40071188521399465,0.19408563141588336,-0.09101602141810446,-0.1162159286614127,1.054589355414374,0.32380121058042555,-0.3924132834275564,-2.153478318044833,0.8646013249754906,2.4659039376974103,0.544493384141061,1.0544104758940245,0.3238615046091247,-0.39250456234122666,-2.153291787532338,0.8647539153680389,2.46587817577521,0.5445020185570556,3.936561747866582e-05,-0.0007760964483248189,0.0002725332995700879,-0.00016714963707316642,8.724066231402361e-05,0.0004327085499469057,0.0015860959618140278,0.0,0.0,0.0,0.0,0.0,0.0,0.0,-0.00017887952034945087,6.029402869917044e-05,-9.127891367027852e-05,0.00018653051249506447,0.00015259039254833517,-2.5761922200384646e-05,8.634415994634992e-06,-3.936561747866582e-05,0.0007760964483248189,-0.0002725332995700879,0.00016714963707316642,-8.724066231402361e-05,-0.0004327085499469057,-0.0015860959618140278,0.6806880831718445,34.23751449584961,4.072781085968018,-19.436067581176758,-0.2429099678993225,-1.802981972694397,0.13858358561992645,0
40,0.19499778747558594,-0.6806880831718445,-34.23751449584961,-4.072781085968018,19.436067581176758,0.2429099678993225,1.802981972694397,-0.13858358561992645,0.0,0.0,0.0,0.0,0.0,0.0,0.0,-0.6463098335249496,-0.2137551493814306,-0.4920383643079482,0.40071188521399465,0.19408563141588336,-0.09101602141810446,-0.1162159286614127,1.054589355414374,0.32380121058042555,-0.3924132834275564,-2.153478318044833,0.8646013249754906,2.4659039376974103,0.544493384141061,1.0544104758940245,0.3238615046091247,-0.39250456234122666,-2.153291787532338,0.8647539153680389,2.46587817577521,0.5445020185570556,3.936561747866582e-05,-0.0007760964483248189,0.0002725332995700879,-0.00016714963707316642,8.724066231402361e-05,0.0004327085499469057,0.0015860959618140278,0.0,0.0,0.0,0.0,0.0,0.0,0.0,-0.00017887952034945087,6.029402869917044e-05,-9.127891367027852e-05,0.00018653051249506447,0.00015259039254833517,-2.5761922200384646e-05,8.634415994634992e-06,-3.936561747866582e-05,0.0007760964483248189,-0.0002725332995700879,0.00016714963707316642,-8.724066231402361e-05,-0.0004327085499469057,-0.0015860959618140278,0.6806880831718445,34.23751449584961,4.072781085968018,-19.436067581176758,-0.2429099678993225,-1.802981972694397,0.13858358561992645,0
41,0.1999979019165039,-0.7084590792655945,-34.23751449584961,-4.048977375030518,19.412263870239258,0.2484031319618225,1.809390664100647,-0.12485067546367645,0.0,0.0,0.0,0.0,0.0,0.0,0.0,-0.6531833051540915,-0.20830666808989834,-0.49636167118557034,0.398150695963793,0.19403831827070253,-0.09108521204114299,-0.11600933357402173,1.054591304256205,0.323803573009998,-0.39241487586227153,-2.1534766554581344,0.8646007146239281,2.4659028724078773,0.5444911518387291,1.0544104758940245,0.3238615046091247,-0.39250456234122666,-2.153291787532338,0.8647539153680389,2.46587817577521,0.5445020185570556,0.0009015006581830823,-0.00022934250795322449,-0.0006289354346831496,6.737849879972988e-05,-1.6423175132208752e-05,0.00011261310976608339,0.0007647854803926901,0.0,0.0,0.0,0.0,0.0,0.0,0.0,-0.00018082836218047404,5.793159912670376e-05,-8.968647895513104e-05,0.000184867925796528,0.0001532007441108485,-2.469663266735367e-05,1.0866718326507652e-05,-0.0009015006581830823,0.00022934250795322449,0.0006289354346831496,-6.737849879972988e-05,1.6423175132208752e-05,-0.00011261310976608339,-0.0007647854803926901,0.7084590792655945,34.23751449584961,4.048977375030518,-19.412263870239258,-0.2484031319618225,-1.809390664100647,0.12485067546367645,0
42,0.2049551010131836,-0.7084590792655945,-34.23751449584961,-4.048977375030518,19.412263870239258,0.2484031319618225,1.809390664100647,-0.12485067546367645,0.0,0.0,0.0,0.0,0.0,0.0,0.0,-0.6531833051540915,-0.20830666808989834,-0.49636167118557034,0.398150695963793,0.19403831827070253,-0.09108521204114299,-0.11600933357402173,1.054591304256205,0.323803573009998,-0.39241487586227153,-2.1534766554581344,0.8646007146239281,2.4659028724078773,0.5444911518387291,1.0544104758940245,0.3238615046091247,-0.39250456234122666,-2.153291787532338,0.8647539153680389,2.46587817577521,0.5445020185570556,0.0009015006581830823,-0.00022934250795322449,-0.0006289354346831496,6.737849879972988e-05,-1.6423175132208752e-05,0.00011261310976608339,0.0007647854803926901,0.0,0.0,0.0,0.0,0.0,0.0,0.0,-0.00018082836218047404,5.793159912670376e-05,-8.968647895513104e-05,0.000184867925796528,0.0001532007441108485,-2.469663266735367e-05,1.0866718326507652e-05,-0.0009015006581830823,0.00022934250795322449,0.0006289354346831496,-6.737849879972988e-05,1.6423175132208752e-05,-0.00011261310976608339,-0.0007647854803926901,0.7084590792655945,34.23751449584961,4.048977375030518,-19.412263870239258,-0.2484031319618225,-1.809390664100647,0.12485067546367645,0
43,0.20999813079833984,-0.6806880831718445,-34.26528549194336,-4.048977375030518,19.436067581176758,0.2484031319618225,1.809390664100647,-0.14590780436992645,0.0,0.0,0.0,0.0,0.0,0.0,0.0,-0.6472295318498157,-0.21986465727607557,-0.4926587819280552,0.4088513389266887,0.19367200117455372,-0.09070918633819776,-0.11638938668385068,1.054589355414374,0.3238055218562745,-0.3924149538629713,-2.1534783258940045,0.8646007146239281,2.4659032256185935,0.5444934920042354,1.0544104758940245,0.3238615046091247,-0.39250456234122666,-2.153291787532338,0.8647539153680389,2.46587817577521,0.5445020185570556,0.0005943507757578635,-6.328885740971017e-05,0.00014407407036433987,-4.8198686213681244e-05,3.7532667336039644e-05,0.00018951205863720585,0.0011213415399551083,0.0,0.0,0.0,0.0,0.0,0.0,0.0,-0.00017887952034945087,5.598275285023657e-05,-8.960847825534302e-05,0.00018653836166659943,0.0001532007441108485,-2.5049843383584403e-05,8.526552820242728e-06,-0.0005943507757578635,6.328885740971017e-05,-0.00014407407036433987,4.8198686213681244e-05,-3.7532667336039644e-05,-0.00018951205863720585,-0.0011213415399551083,0.6806880831718445,34.26528549194336,4.048977375030518,-19.436067581176758,-0.2484031319618225,-1.809390664100647,0.14590780436992645,0
44,0.21500515937805176,-0.6806880831718445,-34.26528549194336,-4.048977375030518,19.436067581176758,0.2484031319618225,1.809390664100647,-0.14590780436992645,0.0,0.0,0.0,0.0,0.0,0.0,0.0,-0.6472295318498157,-0.21986465727607557,-0.4926587819280552,0.4088513389266887,0.19367200117455372,-0.09070918633819776,-0.11638938668385068,1.054589355414374,0.3238055218562745,-0.3924149538629713,-2.1534783258940045,0.8646007146239281,2.4659032256185935,0.5444934920042354,1.0544104758940245,0.3238615046091247,-0.39250456234122666,-2.153291787532338,0.8647539153680389,2.46587817577521,0.5445020185570556,0.0005943507757578635,-6.328885740971017e-05,0.00014407407036433987,-4.8198686213681244e-05,3.7532667336039644e-05,0.00018951205863720585,0.0011213415399551083,0.0,0.0,0.0,0.0,0.0,0.0,0.0,-0.00017887952034945087,5.598275285023657e-05,-8.960847825534302e-05,0.00018653836166659943,0.0001532007441108485,-2.5049843383584403e-05,8.526552820242728e-06,-0.0005943507757578635,6.328885740971017e-05,-0.00014407407036433987,4.8198686213681244e-05,-3.7532667336039644e-05,-0.00018951205863720585,-0.0011213415399551083,0.6806880831718445,34.26528549194336,4.048977375030518,-19.436067581176758,-0.2484031319618225,-1.809390664100647,0.14590780436992645,0
45,0.2200007438659668,-0.7084590792655945,-34.28908920288086,-4.048977375030518,19.436067581176758,0.2484031319618225,1.815799355506897,-0.13217489421367645,0.0,0.0,0.0,0.0,0.0,0.0,0.0,-0.6606934389292421,-0.21985751798240957,-0.5004990309123801,0.4060375377114355,0.19382577423709385,-0.09097819312708814,-0.11664685491485732,1.054591304256205,0.32380718343556736,-0.3924149538277458,-2.1534783258940045,0.8646007146239281,2.465902513543764,0.544491612589611,1.0544104758940245,0.3238615046091247,-0.39250456234122666,-2.153291787532338,0.8647539153680389,2.46587817577521,0.5445020185570556,0.0015103738979228042,-0.0005964409800920695,-3.0404628063945916e-05,7.181540912224945e-05,-0.00019626696359729148,-6.291201955364378e-05,0.0002767735312229211,0.0,0.0,0.0,0.0,0.0,0.0,0.0,-0.00018082836218047404,5.432117355735899e-05,-8.960851348083221e-05,0.00018653836166659943,0.0001532007441108485,-2.4337768554261174e-05,1.0405967444615527e-05,-0.0015103738979228042,0.0005964409800920695,3.0404628063945916e-05,-7.181540912224945e-05,0.00019626696359729148,6.291201955364378e-05,-0.0002767735312229211,0.7084590792655945,34.28908920288086,4.048977375030518,-19.436067581176758,-0.2484031319618225,-1.815799355506897,0.13217489421367645,0
46,0.22501468658447266,-0.7084590792655945,-34.28908920288086,-4.048977375030518,19.436067581176758,0.2484031319618225,1.815799355506897,-0.13217489421367645,0.0,0.0,0.0,0.0,0.0,0.0,0.0,-0.6606934389292421,-0.21985751798240957,-0.5004990309123801,0.4060375377114355,0.19382577423709385,-0.09097819312708814,-0.11664685491485732,1.054591304256205,0.32380718343556736,-0.3924149538277458,-2.1534783258940045,0.8646007146239281,2.465902513543764,0.544491612589611,1.0544104758940245,0.3238615046091247,-0.39250456234122666,-2.153291787532338,0.8647539153680389,2.46587817577521,0.5445020185570556,0.0015103738979228042,-0.0005964409800920695,-3.0404628063945916e-05,7.181540912224945e-05,-0.00019626696359729148,-6.291201955364378e-05,0.0002767735312229211,0.0,0.0,0.0,0.0,0.0,0.0,0.0,-0.00018082836218047404,5.432117355735899e-05,-8.960851348083221e-05,0.00018653836166659943,0.0001532007441108485,-2.4337768554261174e-05,1.0405967444615527e-05,-0.0015103738979228042,0.0005964409800920695,3.0404628063945916e-05,-7.181540912224945e-05,0.00019626696359729148,6.291201955364378e-05,-0.0002767735312229211,0.7084590792655945,34.28908920288086,4.048977375030518,-19.436067581176758,-0.2484031319618225,-1.815799355506897,0.13217489421367645,0
47,0.2299823760986328,-0.6053096652030945,-34.36446762084961,-4.072781085968018,19.459871292114258,0.2484031319618225,1.828616738319397,-0.13858358561992645,0.0,0.0,0.0,0.0,0.0,0.0,0.0,-0.6693201878504998,-0.21159853524226224,-0.5052599960397064,0.39923981604961006,0.19443509157943406,-0.09222737474386147,-0.11750027496061033,1.054584065700832,0.3238096473656186,-0.3924132054264161,-2.15347999632986,0.86459753570954,2.4659010893901185,0.5444923259564829,1.0544104758940245,0.3238615046091247,-0.39250456234122666,-2.153291787532338,0.8647539153680389,2.46587817577521,0.5445020185570556,-0.001303239330496578,0.001664956409701205,-8.51618642173551e-05,-0.0005523198413507312,-0.000661663195291492,-0.00037829723220042316,0.0014873611524816302,0.0,0.0,0.0,0.0,0.0,0.0,0.0,-0.00017358980680759473,5.1857243506092665e-05,-9.135691481054753e-05,0.00018820879752201591,0.00015637965849890634,-2.2913614908581792e-05,9.692600572708265e-06,0.001303239330496578,-0.001664956409701205,8.51618642173551e-05,0.0005523198413507312,0.000661663195291492,0.00037829723220042316,-0.0014873611524816302,0.6053096652030945,34.36446762084961,4.072781085968018,-19.459871292114258,-0.2484031319618225,-1.828616738319397,0.13858358561992645,0
48,0.235001802444458,-0.6053096652030945,-34.36446762084961,-4.072781085968018,19.459871292114258,0.2484031319618225,1.828616738319397,-0.13858358561992645,0.0,0.0,0.0,0.0,0.0,0.0,0.0,-0.6693201878504998,-0.21159853524226224,-0.5052599960397064,0.39923981604961006,0.19443509157943406,-0.09222737474386147,-0.11750027496061033,1.054584065700832,0.3238096473656186,-0.3924132054264161,-2.15347999632986,0.86459753570954,2.4659010893901185,0.5444923259564829,1.0544104758940245,0.3238615046091247,-0.39250456234122666,-2.153291787532338,0.8647539153680389,2.46587817577521,0.5445020185570556,-0.001303239330496578,0.001664956409701205,-8.51618642173551e-05,-0.0005523198413507312,-0.000661663195291492,-0.00037829723220042316,0.0014873611524816302,0.0,0.0,0.0,0.0,0.0,0.0,0.0,-0.00017358980680759473,5.1857243506092665e-05,-9.135691481054753e-05,0.00018820879752201591,0.00015637965849890634,-2.2913614908581792e-05,9.692600572708265e-06,0.001303239330496578,-0.001664956409701205,8.51618642173551e-05,0.0005523198413507312,0.000661663195291492,0.00037829723220042316,-0.0014873611524816302,0.6053096652030945,34.36446762084961,4.072781085968018,-19.459871292114258,-0.2484031319618225,-1.828616738319397,0.13858358561992645,0
49,0.2399446964263916,-0.6053096652030945,-34.36446762084961,-4.072781085968018,19.459871292114258,0.2484031319618225,1.828616738319397,-0.13858358561992645,0.0,0.0,0.0,0.0,0.0,0.0,0.0,-0.6693201878504998,-0.21159853524226224,-0.5052599960397064,0.39923981604961006,0.19443509157943406,-0.09222737474386147,-0.11750027496061033,1.054584065700832,0.3238096473656186,-0.3924132054264161,-2.15347999632986,0.86459753570954,2.4659010893901185,0.5444923259564829,1.0544104758940245,0.3238615046091247,-0.39250456234122666,-2.153291787532338,0.8647539153680389,2.46587817577521,0.5445020185570556,-0.001303239330496578,0.001664956409701205,-8.51618642173551e-05,-0.0005523198413507312,-0.000661663195291492,-0.00037829723220042316,0.0014873611524816302,0.0,0.0,0.0,0.0,0.0,0.0,0.0,-0.00017358980680759473,5.1857243506092665e-05,-9.135691481054753e-05,0.00018820879752201591,0.00015637965849890634,-2.2913614908581792e-05,9.692600572708265e-06,0.001303239330496578,-0.001664956409701205,8.51618642173551e-05,0.0005523198413507312,0.000661663195291492,0.00037829723220042316,-0.0014873611524816302,0.6053096652030945,34.36446762084961,4.072781085968018,-19.459871292114258,-0.2484031319618225,-1.828616738319397,0.13858358561992645,0
50,0.24501299858093262,-0.6053096652030945,-34.36446762084961,-4.072781085968018,19.459871292114258,0.2484031319618225,1.828616738319397,-0.13858358561992645,0.0,0.0,0.0,0.0,0.0,0.0,0.0,-0.6693201878504998,-0.21159853524226224,-0.5052599960397064,0.39923981604961006,0.19443509157943406,-0.09222737474386147,-0.11750027496061033,1.054584065700832,0.3238096473656186,-0.3924132054264161,-2.15347999632986,0.86459753570954,2.4659010893901185,0.5444923259564829,1.0544104758940245,0.3238615046091247,-0.39250456234122666,-2.153291787532338,0.8647539153680389,2.46587817577521,0.5445020185570556,-0.001303239330496578,0.001664956409701205,-8.51618642173551e-05,-0.0005523198413507312,-0.000661663195291492,-0.00037829723220042316,0.0014873611524816302,0.0,0.0,0.0,0.0,0.0,0.0,0.0,-0.00017358980680759473,5.1857243506092665e-05,-9.135691481054753e-05,0.00018820879752201591,0.00015637965849890634,-2.2913614908581792e-05,9.692600572708265e-06,0.001303239330496578,-0.001664956409701205,8.51618642173551e-05,0.0005523198413507312,0.000661663195291492,0.00037829723220042316,-0.0014873611524816302,0.6053096652030945,34.36446762084961,4.072781085968018,-19.459871292114258,-0.2484031319618225,-1.828616738319397,0.13858358561992645,0
51,0.2499990463256836,-0.6806880831718445,-34.26528549194336,-4.048977375030518,19.412263870239258,0.2484031319618225,1.815799355506897,-0.13217489421367645,0.0,0.0,0.0,0.0,0.0,0.0,0.0,-0.6594806844799623,-0.2178507478139491,-0.5018756266002107,0.40396372629874233,0.19433900393120462,-0.0908644723157664,-0.11784250612185468,1.054589593832953,0.32380268720027006,-0.3924149538629713,-2.1534746539194605,0.864600714605983,2.465902513543764,0.5444919656388267,1.0544104758940245,0.3238615046091247,-0.39250456234122666,-2.153291787532338,0.8647539153680389,2.46587817577521,0.5445020185570556,0.0006409703374122037,-0.0005684046298327387,-0.0006318004759180601,0.0004390151464739097,-0.00010876387473306119,9.272623867651462e-05,0.0005973504550653382,0.0,0.0,0.0,0.0,0.0,0.0,0.0,-0.00017911793892855243,5.8817408854661135e-05,-8.960847825534302e-05,0.0001828663871226155,0.00015320076205593836,-2.4337768554261174e-05,1.005291822886445e-05,-0.0006409703374122037,0.0005684046298327387,0.0006318004759180601,-0.0004390151464739097,0.00010876387473306119,-9.272623867651462e-05,-0.0005973504550653382,0.6806880831718445,34.26528549194336,4.048977375030518,-19.412263870239258,-0.2484031319618225,-1.815799355506897,0.13217489421367645,0
52,0.2549717426300049,-0.6806880831718445,-34.26528549194336,-4.048977375030518,19.412263870239258,0.2484031319618225,1.815799355506897,-0.13217489421367645,0.0,0.0,0.0,0.0,0.0,0.0,0.0,-0.6594806844799623,-0.2178507478139491,-0.5018756266002107,0.40396372629874233,0.19433900393120462,-0.0908644723157664,-0.11784250612185468,1.054589593832953,0.32380268720027006,-0.3924149538629713,-2.1534746539194605,0.864600714605983,2.465902513543764,0.5444919656388267,1.0544104758940245,0.3238615046091247,-0.39250456234122666,-2.153291787532338,0.8647539153680389,2.46587817577521,0.5445020185570556,0.0006409703374122037,-0.0005684046298327387,-0.0006318004759180601,0.0004390151464739097,-0.00010876387473306119,9.272623867651462e-05,0.0005973504550653382,0.0,0.0,0.0,0.0,0.0,0.0,0.0,-0.00017911793892855243,5.8817408854661135e-05,-8.960847825534302e-05,0.0001828663871226155,0.00015320076205593836,-2.4337768554261174e-05,1.005291822886445e-05,-0.0006409703374122037,0.0005684046298327387,0.0006318004759180601,-0.0004390151464739097,0.00010876387473306119,-9.272623867651462e-05,-0.0005973504550653382,0.6806880831718445,34.26528549194336,4.048977375030518,-19.412263870239258,-0.2484031319618225,-1.815799355506897,0.13217489421367645,0
53,0.2599971294403076,-0.6291133761405945,-34.28908920288086,-4.025173664093018,19.412263870239258,0.2429099678993225,1.809390664100647,-0.11844198405742645,0.0,0.0,0.0,0.0,0.0,0.0,0.0,-0.6483160277522688,-0.22663417613441522,-0.4976228613346065,0.40880507409902944,0.19434410377891764,-0.08973425528265908,-0.11682807315517209,1.0545857361380333,0.32380719227612803,-0.3924166242992669,-2.1534760196639726,0.8646013249754905,2.465902165982458,0.5444900909098471,1.0544104758940245,0.3238615046091247,-0.39250456234122666,-2.153291787532338,0.8647539153680389,2.46587817577521,0.5445020185570556,-0.0002853067846141037,-0.0003482739011615692,-0.0004406361330579475,0.0003545574956829171,0.00025528376476801587,0.00016141762379806227,0.000588060779090452,0.0,0.0,0.0,0.0,0.0,0.0,0.0,-0.00017526024400882356,5.4312332996686585e-05,-8.793804195977861e-05,0.00018423213163476504,0.0001525903925484462,-2.3990207247859274e-05,1.1927647208476166e-05,0.0002853067846141037,0.0003482739011615692,0.0004406361330579475,-0.0003545574956829171,-0.00025528376476801587,-0.00016141762379806227,-0.000588060779090452,0.6291133761405945,34.28908920288086,4.025173664093018,-19.412263870239258,-0.2429099678993225,-1.809390664100647,0.11844198405742645,0
54,0.2649996280670166,-0.6291133761405945,-34.28908920288086,-4.025173664093018,19.412263870239258,0.2429099678993225,1.809390664100647,-0.11844198405742645,0.0,0.0,0.0,0.0,0.0,0.0,0.0,-0.6483160277522688,-0.22663417613441522,-0.4976228613346065,0.40880507409902944,0.19434410377891764,-0.08973425528265908,-0.11682807315517209,1.0545857361380333,0.32380719227612803,-0.3924166242992669,-2.1534760196639726,0.8646013249754905,2.465902165982458,0.5444900909098471,1.0544104758940245,0.3238615046091247,-0.39250456234122666,-2.153291787532338,0.8647539153680389,2.46587817577521,0.5445020185570556,-0.0002853067846141037,-0.0003482739011615692,-0.0004406361330579475,0.0003545574956829171,0.00025528376476801587,0.00016141762379806227,0.000588060779090452,0.0,0.0,0.0,0.0,0.0,0.0,0.0,-0.00017526024400882356,5.4312332996686585e-05,-8.793804195977861e-05,0.00018423213163476504,0.0001525903925484462,-2.3990207247859274e-05,1.1927647208476166e-05,0.0002853067846141037,0.0003482739011615692,0.0004406361330579475,-0.0003545574956829171,-0.00025528376476801587,-0.00016141762379806227,-0.000588060779090452,0.6291133761405945,34.28908920288086,4.025173664093018,-19.412263870239258,-0.2429099678993225,-1.809390664100647,0.11844198405742645,0
55,0.26999974250793457,-0.6053096652030945,-34.28908920288086,-4.025173664093018,19.436067581176758,0.2484031319618225,1.809390664100647,-0.07724325358867645,0.0,0.0,0.0,0.0,0.0,0.0,0.0,-0.6459157735263321,-0.2252821730758172,-0.49562440816874764,0.4072123569316965,0.19426147387196344,-0.09001195721726697,-0.11546060257549325,1.054584065700832,0.32380695608113,-0.3924166242992669,-2.153478325793512,0.8646007146239281,2.4659032256146056,0.5444855482102001,1.0544104758940245,0.3238615046091247,-0.39250456234122666,-2.153291787532338,0.8647539153680389,2.46587817577521,0.5445020185570556,-0.0006549067540815505,-0.00027668500005370176,-0.00020155264292154507,0.00016630804548423318,-3.814317348346996e-05,5.425483088401919e-05,-0.0016589036745712122,0.0,0.0,0.0,0.0,0.0,0.0,0.0,-0.00017358980680759473,5.454852799469112e-05,-8.793804195977861e-05,0.00018653826117409622,0.0001532007441108485,-2.5049839395663298e-05,1.6470346855479434e-05,0.0006549067540815505,0.00027668500005370176,0.00020155264292154507,-0.00016630804548423318,3.814317348346996e-05,-5.425483088401919e-05,0.0016589036745712122,0.6053096652030945,34.28908920288086,4.025173664093018,-19.436067581176758,-0.2484031319618225,-1.809390664100647,0.07724325358867645,0
56,0.2750117778778076,-0.6053096652030945,-34.28908920288086,-4.025173664093018,19.436067581176758,0.2484031319618225,1.809390664100647,-0.07724325358867645,0.0,0.0,0.0,0.0,0.0,0.0,0.0,-0.6459157735263321,-0.2252821730758172,-0.49562440816874764,0.4072123569316965,0.19426147387196344,-0.09001195721726697,-0.11546060257549325,1.054584065700832,0.32380695608113,-0.3924166242992669,-2.153478325793512,0.8646007146239281,2.4659032256146056,0.5444855482102001,1.0544104758940245,0.3238615046091247,-0.39250456234122666,-2.153291787532338,0.8647539153680389,2.46587817577521,0.5445020185570556,-0.0006549067540815505,-0.00027668500005370176,-0.00020155264292154507,0.00016630804548423318,-3.814317348346996e-05,5.425483088401919e-05,-0.0016589036745712122,0.0,0.0,0.0,0.0,0.0,0.0,0.0,-0.00017358980680759473,5.454852799469112e-05,-8.793804195977861e-05,0.00018653826117409622,0.0001532007441108485,-2.5049839395663298e-05,1.6470346855479434e-05,0.0006549067540815505,0.00027668500005370176,0.00020155264292154507,-0.00016630804548423318,3.814317348346996e-05,-5.425483088401919e-05,0.0016589036745712122,0.6053096652030945,34.28908920288086,4.025173664093018,-19.436067581176758,-0.2484031319618225,-1.809390664100647,0.07724325358867645,0
57,0.28000831604003906,-0.6053096652030945,-34.28908920288086,-4.072781085968018,19.388460159301758,0.2484031319618225,1.822208046913147,-0.07724325358867645,0.0,0.0,0.0,0.0,0.0,0.0,0.0,-0.6467501978975059,-0.2181175692185967,-0.49471320174265293,0.40295619719401155,0.1942695225464737,-0.09099114644787845,-0.11598672061686945,1.0545840686442713,0.3238048038991308,-0.3924132834275564,-2.1534749850222936,0.8646007146239281,2.4659018014669414,0.5444855089107056,1.0544104758940245,0.3238615046091247,-0.39250456234122666,-2.153291787532338,0.8647539153680389,2.46587817577521,0.5445020185570556,-0.0003950078015295567,0.0004171597345016445,0.0005814883418528373,0.0011465984622003292,-0.00012732827699042234,-0.00033619904037792737,-0.0015895865519864327,0.0,0.0,0.0,0.0,0.0,0.0,0.0,-0.00017359275024686482,5.670070999391763e-05,-9.127891367027852e-05,0.00018319748995576646,0.0001532007441108485,-2.3625691731421483e-05,1.650964635002694e-05,0.0003950078015295567,-0.0004171597345016445,-0.0005814883418528373,-0.0011465984622003292,0.00012732827699042234,0.00033619904037792737,0.0015895865519864327,0.6053096652030945,34.28908920288086,4.072781085968018,-19.388460159301758,-0.2484031319618225,-1.822208046913147,0.07724325358867645,0
58,0.285001277923584,-0.6053096652030945,-34.28908920288086,-4.072781085968018,19.388460159301758,0.2484031319618225,1.822208046913147,-0.07724325358867645,0.0,0.0,0.0,0.0,0.0,0.0,0.0,-0.6467501978975059,-0.2181175692185967,-0.49471320174265293,0.40295619719401155,0.1942695225464737,-0.09099114644787845,-0.11598672061686945,1.0545840686442713,0.3238048038991308,-0.3924132834275564,-2.1534749850222936,0.8646007146239281,2.4659018014669414,0.5444855089107056,1.0544104758940245,0.3238615046091247,-0.39250456234122666,-2.153291787532338,0.8647539153680389,2.46587817577521,0.5445020185570556,-0.0003950078015295567,0.0004171597345016445,0.0005814883418528373,0.0011465984622003292,-0.00012732827699042234,-0.00033619904037792737,-0.0015895865519864327,0.0,0.0,0.0,0.0,0.0,0.0,0.0,-0.00017359275024686482,5.670070999391763e-05,-9.127891367027852e-05,0.00018319748995576646,0.0001532007441108485,-2.3625691731421483e-05,1.650964635002694e-05,0.0003950078015295567,-0.0004171597345016445,-0.0005814883418528373,-0.0011465984622003292,0.00012732827699042234,0.00033619904037792737,0.0015895865519864327,0.6053096652030945,34.28908920288086,4.072781085968018,-19.388460159301758,-0.2484031319618225,-1.822208046913147,0.07724325358867645,0
59,0.2899961471557617,-0.6291133761405945,-34.28908920288086,-4.048977375030518,19.412263870239258,0.2603049874305725,1.822208046913147,-0.04977743700146675,0.0,0.0,0.0,0.0,0.0,0.0,0.0,-0.6533262609770771,-0.21970995003206314,-0.5037782054586541,0.40672578670052256,0.19446672462360146,-0.0901192570265945,-0.11499686070081541,1.054585736136693,0.3238071922876356,-0.39241495386341163,-2.153476655458149,0.8645993921955426,2.4659018014669414,0.5444826141365117,1.0544104758940245,0.3238615046091247,-0.39250456234122666,-2.153291787532338,0.8647539153680389,2.46587817577521,0.5445020185570556,-0.0007824262337693634,0.0005593733567167882,-0.00048505274368748505,0.0007847095986465673,-0.0005659665157095777,-0.00023966742499914636,-0.0029588110840225476,0.0,0.0,0.0,0.0,0.0,0.0,0.0,-0.00017526024266856233,5.431232148911391e-05,-8.960847781502856e-05,0.00018486792581118294,0.00015452317249631253,-2.3625691731421483e-05,1.9404420543933654e-05,0.0007824262337693634,-0.0005593733567167882,0.00048505274368748505,-0.0007847095986465673,0.0005659665157095777,0.00023966742499914636,0.0029588110840225476,0.6291133761405945,34.28908920288086,4.048977375030518,-19.412263870239258,-0.2603049874305725,-1.822208046913147,0.04977743700146675,0
60,0.29500794410705566,-0.6291133761405945,-34.28908920288086,-4.048977375030518,19.412263870239258,0.2603049874305725,1.822208046913147,-0.04977743700146675,0.0,0.0,0.0,0.0,0.0,0.0,0.0,-0.6533262609770771,-0.21970995003206314,-0.5037782054586541,0.40672578670052256,0.19446672462360146,-0.0901192570265945,-0.11499686070081541,1.054585736136693,0.3238071922876356,-0.39241495386341163,-2.153476655458149,0.8645993921955426,2.4659018014669414,0.5444826141365117,1.0544104758940245,0.3238615046091247,-0.39250456234122666,-2.153291787532338,0.8647539153680389,2.46587817577521,0.5445020185570556,-0.0007824262337693634,0.0005593733567167882,-0.00048505274368748505,0.0007847095986465673,-0.0005659665157095777,-0.00023966742499914636,-0.0029588110840225476,0.0,0.0,0.0,0.0,0.0,0.0,0.0,-0.00017526024266856233,5.431232148911391e-05,-8.960847781502856e-05,0.00018486792581118294,0.00015452317249631253,-2.3625691731421483e-05,1.9404420543933654e-05,0.0007824262337693634,-0.0005593733567167882,0.00048505274368748505,-0.0007847095986465673,0.0005659665157095777,0.00023966742499914636,0.0029588110840225476,0.6291133761405945,34.28908920288086,4.048977375030518,-19.412263870239258,-0.2603049874305725,-1.822208046913147,0.04977743700146675,0
61,0.2999992370605469,-0.6568843722343445,-34.31289291381836,-4.072781085968018,19.412263870239258,0.2484031319618225,1.822208046913147,-0.14590780436992645,0.0,0.0,0.0,0.0,0.0,0.0,0.0,-0.6536262265665999,-0.22825624486363388,-0.5050656332544612,0.4125374267215342,0.19444877654595188,-0.088570350483249,-0.11356234336953172,1.0545876880309741,0.3238080753579861,-0.3924132834275564,-2.153476655458149,0.8646007146239281,2.4659018014669414,0.5444931513878534,1.0544104758940245,0.3238615046091247,-0.39250456234122666,-2.153291787532338,0.8647539153680389,2.46587817577521,0.5445020185570556,-0.0007337699685170453,0.0003415530128271099,-0.00016073502951789297,0.0005887037705702,-5.7409515133086366e-05,-3.169250186163849e-05,0.0016617223348333466,0.0,0.0,0.0,0.0,0.0,0.0,0.0,-0.00017721213694965599,5.342925113860364e-05,-9.127891367027852e-05,0.00018486792581118294,0.0001532007441108485,-2.3625691731421483e-05,8.867169202231295e-06,0.0007337699685170453,-0.0003415530128271099,0.00016073502951789297,-0.0005887037705702,5.7409515133086366e-05,3.169250186163849e-05,-0.0016617223348333466,0.6568843722343445,34.31289291381836,4.072781085968018,-19.412263870239258,-0.2484031319618225,-1.822208046913147,0.14590780436992645,0
62,0.3050072193145752,-0.6568843722343445,-34.31289291381836,-4.072781085968018,19.412263870239258,0.2484031319618225,1.822208046913147,-0.14590780436992645,0.0,0.0,0.0,0.0,0.0,0.0,0.0,-0.6536262265665999,-0.22825624486363388,-0.5050656332544612,0.4125374267215342,0.19444877654595188,-0.088570350483249,-0.11356234336953172,1.0545876880309741,0.3238080753579861,-0.3924132834275564,-2.153476655458149,0.8646007146239281,2.4659018014669414,0.5444931513878534,1.0544104758940245,0.3238615046091247,-0.39250456234122666,-2.153291787532338,0.8647539153680389,2.46587817577521,0.5445020185570556,-0.0007337699685170453,0.0003415530128271099,-0.00016073502951789297,0.0005887037705702,-5.7409515133086366e-05,-3.169250186163849e-05,0.0016617223348333466,0.0,0.0,0.0,0.0,0.0,0.0,0.0,-0.00017721213694965599,5.342925113860364e-05,-9.127891367027852e-05,0.00018486792581118294,0.0001532007441108485,-2.3625691731421483e-05,8.867169202231295e-06,0.0007337699685170453,-0.0003415530128271099,0.00016073502951789297,-0.0005887037705702,5.7409515133086366e-05,3.169250186163849e-05,-0.0016617223348333466,0.6568843722343445,34.31289291381836,4.072781085968018,-19.412263870239258,-0.2484031319618225,-1.822208046913147,0.14590780436992645,0
63,0.3100287914276123,-0.6291133761405945,-34.26528549194336,-4.072781085968018,19.436067581176758,0.2429099678993225,1.828616738319397,-0.07724325358867645,0.0,0.0,0.0,0.0,0.0,0.0,0.0,-0.652523875197255,-0.20463806193113093,-0.4993241396063669,0.3996076332822411,0.19410827247355905,-0.08998361379308102,-0.1120623747126782,1.054586452373577,0.32380313252706794,-0.3924132833205589,-2.1534783258940045,0.8646013249754906,2.4659010893901185,0.5444856266480782,1.0544104758940245,0.3238615046091247,-0.39250456234122666,-2.153291787532338,0.8647539153680389,2.46587817577521,0.5445020185570556,-0.0011447095425130118,-9.754823289585776e-05,-0.0005071453005042316,-0.00045380172344711714,0.00029137069311824037,-0.0006147617624193394,-0.0018073188165821635,0.0,0.0,0.0,0.0,0.0,0.0,0.0,-0.00017597647955258644,5.837208205677902e-05,-9.127902066774496e-05,0.00018653836166659943,0.00015259039254833517,-2.2913614908581792e-05,1.639190897739784e-05,0.0011447095425130118,9.754823289585776e-05,0.0005071453005042316,0.00045380172344711714,-0.00029137069311824037,0.0006147617624193394,0.0018073188165821635,0.6291133761405945,34.26528549194336,4.072781085968018,-19.436067581176758,-0.2429099678993225,-1.828616738319397,0.07724325358867645,0
64,0.3150062561035156,-0.6291133761405945,-34.26528549194336,-4.072781085968018,19.436067581176758,0.2429099678993225,1.828616738319397,-0.07724325358867645,0.0,0.0,0.0,0.0,0.0,0.0,0.0,-0.652523875197255,-0.20463806193113093,-0.4993241396063669,0.3996076332822411,0.19410827247355905,-0.08998361379308102,-0.1120623747126782,1.054586452373577,0.32380313252706794,-0.3924132833205589,-2.1534783258940045,0.8646013249754906,2.4659010893901185,0.5444856266480782,1.0544104758940245,0.3238615046091247,-0.39250456234122666,-2.153291787532338,0.8647539153680389,2.46587817577521,0.5445020185570556,-0.0011447095425130118,-9.754823289585776e-05,-0.0005071453005042316,-0.00045380172344711714,0.00029137069311824037,-0.0006147617624193394,-0.0018073188165821635,0.0,0.0,0.0,0.0,0.0,0.0,0.0,-0.00017597647955258644,5.837208205677902e-05,-9.127902066774496e-05,0.00018653836166659943,0.00015259039254833517,-2.2913614908581792e-05,1.639190897739784e-05,0.0011447095425130118,9.754823289585776e-05,0.0005071453005042316,0.00045380172344711714,-0.00029137069311824037,0.0006147617624193394,0.0018073188165821635,0.6291133761405945,34.26528549194336,4.072781085968018,-19.436067581176758,-0.2429099678993225,-1.828616738319397,0.07724325358867645,0
65,0.31996965408325195,-0.6568843722343445,-34.26528549194336,-4.096584796905518,19.459871292114258,0.2429099678993225,1.815799355506897,-0.13217489421367645,0.0,0.0,0.0,0.0,0.0,0.0,0.0,-0.6561519591241308,-0.21346776570236423,-0.5033251001506653,0.4037533286648979,0.19440915421574426,-0.08926771200430364,-0.11208491103270597,1.0545876849825617,0.32380552184278666,-0.39241161299170046,-2.15347999632986,0.8646013249754906,2.465902513543764,0.5444919656394831,1.0544104758940245,0.3238615046091247,-0.39250456234122666,-2.153291787532338,0.8647539153680389,2.46587817577521,0.5445020185570556,-0.0002286765790005801,-0.00042953289497047506,0.00041057892654436243,-0.0012257366430827813,0.00030651265518879877,-0.00012498481442793874,0.000628809922844764,0.0,0.0,0.0,0.0,0.0,0.0,0.0,-0.0001772090885372446,5.598276633805854e-05,-9.29493495261946e-05,0.00018820879752201591,0.00015259039254833517,-2.4337768554261174e-05,1.0052917572500597e-05,0.0002286765790005801,0.00042953289497047506,-0.00041057892654436243,0.0012257366430827813,-0.00030651265518879877,0.00012498481442793874,-0.000628809922844764,0.6568843722343445,34.26528549194336,4.096584796905518,-19.459871292114258,-0.2429099678993225,-1.815799355506897,0.13217489421367645,0
66,0.32495975494384766,-0.6568843722343445,-34.26528549194336,-4.096584796905518,19.459871292114258,0.2429099678993225,1.815799355506897,-0.13217489421367645,0.0,0.0,0.0,0.0,0.0,0.0,0.0,-0.6561519591241308,-0.21346776570236423,-0.5033251001506653,0.4037533286648979,0.19440915421574426,-0.08926771200430364,-0.11208491103270597,1.0545876849825617,0.32380552184278666,-0.39241161299170046,-2.15347999632986,0.8646013249754906,2.465902513543764,0.5444919656394831,1.0544104758940245,0.3238615046091247,-0.39250456234122666,-2.153291787532338,0.8647539153680389,2.46587817577521,0.5445020185570556,-0.0002286765790005801,-0.00042953289497047506,0.00041057892654436243,-0.0012257366430827813,0.00030651265518879877,-0.00012498481442793874,0.000628809922844764,0.0,0.0,0.0,0.0,0.0,0.0,0.0,-0.0001772090885372446,5.598276633805854e-05,-9.29493495261946e-05,0.00018820879752201591,0.00015259039254833517,-2.4337768554261174e-05,1.0052917572500597e-05,0.0002286765790005801,0.00042953289497047506,-0.00041057892654436243,0.0012257366430827813,-0.00030651265518879877,0.00012498481442793874,-0.000628809922844764,0.6568843722343445,34.26528549194336,4.096584796905518,-19.459871292114258,-0.2429099678993225,-1.815799355506897,0.13217489421367645,0
67,0.3300130367279053,-0.6568843722343445,-34.31289291381836,-4.025173664093018,19.436067581176758,0.2548118233680725,1.809390664100647,-0.11111776530742645,0.0,0.0,0.0,0.0,0.0,0.0,0.0,-0.6523696286475339,-0.22144520337508958,-0.5003323922022109,0.40789186338567734,0.19438754511359357,-0.08956730160543139,-0.11342899019352001,1.0545876849785185,0.3238066579479789,-0.3924166242992669,-2.1534783258940045,0.8646000025471051,2.465903225620587,0.5444924516615011,1.0544104758940245,0.3238615046091247,-0.39250456234122666,-2.153291787532338,0.8647539153680389,2.46587817577521,0.5445020185570556,0.0001376413068522572,0.0003240444041224932,-0.0008057230756515791,4.055897677586316e-05,-0.00017431754667914282,0.00016019500360252547,-0.000289043819286227,0.0,0.0,0.0,0.0,0.0,0.0,0.0,-0.00017720908449403439,5.4846661145802056e-05,-8.793804195977861e-05,0.00018653836166659943,0.0001539128209337992,-2.5049845377100866e-05,9.566895554535826e-06,-0.0001376413068522572,-0.0003240444041224932,0.0008057230756515791,-4.055897677586316e-05,0.00017431754667914282,-0.00016019500360252547,0.000289043819286227,0.6568843722343445,34.31289291381836,4.025173664093018,-19.436067581176758,-0.2548118233680725,-1.809390664100647,0.11111776530742645,0
68,0.33504748344421387,-0.6568843722343445,-34.31289291381836,-4.025173664093018,19.436067581176758,0.2548118233680725,1.809390664100647,-0.11111776530742645,0.0,0.0,0.0,0.0,0.0,0.0,0.0,-0.6523696286475339,-0.22144520337508958,-0.5003323922022109,0.40789186338567734,0.19438754511359357,-0.08956730160543139,-0.11342899019352001,1.0545876849785185,0.3238066579479789,-0.3924166242992669,-2.1534783258940045,0.8646000025471051,2.465903225620587,0.5444924516615011,1.0544104758940245,0.3238615046091247,-0.39250456234122666,-2.153291787532338,0.8647539153680389,2.46587817577521,0.5445020185570556,0.0001376413068522572,0.0003240444041224932,-0.0008057230756515791,4.055897677586316e-05,-0.00017431754667914282,0.00016019500360252547,-0.000289043819286227,0.0,0.0,0.0,0.0,0.0,0.0,0.0,-0.00017720908449403439,5.4846661145802056e-05,-8.793804195977861e-05,0.00018653836166659943,0.0001539128209337992,-2.5049845377100866e-05,9.566895554535826e-06,-0.0001376413068522572,-0.0003240444041224932,0.0008057230756515791,-4.055897677586316e-05,0.00017431754667914282,-0.00016019500360252547,0.000289043819286227,0.6568843722343445,34.31289291381836,4.025173664093018,-19.436067581176758,-0.2548118233680725,-1.809390664100647,0.11111776530742645,0
69,0.3400101661682129,-0.6568843722343445,-34.31289291381836,-4.025173664093018,19.436067581176758,0.2548118233680725,1.809390664100647,-0.11111776530742645,0.0,0.0,0.0,0.0,0.0,0.0,0.0,-0.6523696286475339,-0.22144520337508958,-0.5003323922022109,0.40789186338567734,0.19438754511359357,-0.08956730160543139,-0.11342899019352001,1.0545876849785185,0.3238066579479789,-0.3924166242992669,-2.1534783258940045,0.8646000025471051,2.465903225620587,0.5444924516615011,1.0544104758940245,0.3238615046091247,-0.39250456234122666,-2.153291787532338,0.8647539153680389,2.46587817577521,0.5445020185570556,0.0001376413068522572,0.0003240444041224932,-0.0008057230756515791,4.055897677586316e-05,-0.00017431754667914282,0.00016019500360252547,-0.000289043819286227,0.0,0.0,0.0,0.0,0.0,0.0,0.0,-0.00017720908449403439,5.4846661145802056e-05,-8.793804195977861e-05,0.00018653836166659943,0.0001539128209337992,-2.5049845377100866e-05,9.566895554535826e-06,-0.0001376413068522572,-0.0003240444041224932,0.0008057230756515791,-4.055897677586316e-05,0.00017431754667914282,-0.00016019500360252547,0.000289043819286227,0.6568843722343445,34.31289291381836,4.025173664093018,-19.436067581176758,-0.2548118233680725,-1.809390664100647,0.11111776530742645,0
70,0.34500980377197266,-0.6568843722343445,-34.31289291381836,-4.025173664093018,19.436067581176758,0.2548118233680725,1.809390664100647,-0.11111776530742645,0.0,0.0,0.0,0.0,0.0,0.0,0.0,-0.6523696286475339,-0.22144520337508958,-0.5003323922022109,0.40789186338567734,0.19438754511359357,-0.08956730160543139,-0.11342899019352001,1.0545876849785185,0.3238066579479789,-0.3924166242992669,-2.1534783258940045,0.8646000025471051,2.465903225620587,0.5444924516615011,1.0544104758940245,0.3238615046091247,-0.39250456234122666,-2.153291787532338,0.8647539153680389,2.46587817577521,0.5445020185570556,0.0001376413068522572,0.0003240444041224932,-0.0008057230756515791,4.055897677586316e-05,-0.00017431754667914282,0.00016019500360252547,-0.000289043819286227,0.0,0.0,0.0,0.0,0.0,0.0,0.0,-0.00017720908449403439,5.4846661145802056e-05,-8.793804195977861e-05,0.00018653836166659943,0.0001539128209337992,-2.5049845377100866e-05,9.566895554535826e-06,-0.0001376413068522572,-0.0003240444041224932,0.0008057230756515791,-4.055897677586316e-05,0.00017431754667914282,-0.00016019500360252547,0.000289043819286227,0.6568843722343445,34.31289291381836,4.025173664093018,-19.436067581176758,-0.2548118233680725,-1.809390664100647,0.11111776530742645,0
71,0.34999561309814453,-0.6568843722343445,-34.33669662475586,-4.025173664093018,19.436067581176758,0.2429099678993225,1.822208046913147,-0.12485067546367645,0.0,0.0,0.0,0.0,0.0,0.0,0.0,-0.6609678706804799,-0.21806409305698402,-0.5064344570560569,0.4016204516504644,0.19538882386872022,-0.09029752430030755,-0.11418547206215,1.0545898307457304,0.3238083800346689,-0.3924166242992669,-2.1534783258940045,0.8646013249754906,2.4659018014669414,0.5444939906383107,1.0544104758940245,0.3238615046091247,-0.39250456234122666,-2.153291787532338,0.8647539153680389,2.46587817577521,0.5445020185570556,-2.6892583619055524e-05,0.0009318793593209578,-0.0004336025005588591,-0.00015390404919121524,-0.0009893270232852595,-6.263996104645874e-05,0.0005033052483000097,0.0,0.0,0.0,0.0,0.0,0.0,0.0,-0.00017935485170594845,5.312457445583174e-05,-8.793804195977861e-05,0.00018653836166659943,0.00015259039254833517,-2.3625691731421483e-05,8.027918744879514e-06,2.6892583619055524e-05,-0.0009318793593209578,0.0004336025005588591,0.00015390404919121524,0.0009893270232852595,6.263996104645874e-05,-0.0005033052483000097,0.6568843722343445,34.33669662475586,4.025173664093018,-19.436067581176758,-0.2429099678993225,-1.822208046913147,0.12485067546367645,0
72,0.3549513816833496,-0.6568843722343445,-34.33669662475586,-4.025173664093018,19.436067581176758,0.2429099678993225,1.822208046913147,-0.12485067546367645,0.0,0.0,0.0,0.0,0.0,0.0,0.0,-0.6609678706804799,-0.21806409305698402,-0.5064344570560569,0.4016204516504644,0.19538882386872022,-0.09029752430030755,-0.11418547206215,1.0545898307457304,0.3238083800346689,-0.3924166242992669,-2.1534783258940045,0.8646013249754906,2.4659018014669414,0.5444939906383107,1.0544104758940245,0.3238615046091247,-0.39250456234122666,-2.153291787532338,0.8647539153680389,2.46587817577521,0.5445020185570556,-2.6892583619055524e-05,0.0009318793593209578,-0.0004336025005588591,-0.00015390404919121524,-0.0009893270232852595,-6.263996104645874e-05,0.0005033052483000097,0.0,0.0,0.0,0.0,0.0,0.0,0.0,-0.00017935485170594845,5.312457445583174e-05,-8.793804195977861e-05,0.00018653836166659943,0.00015259039254833517,-2.3625691731421483e-05,8.027918744879514e-06,2.6892583619055524e-05,-0.0009318793593209578,0.0004336025005588591,0.00015390404919121524,0.0009893270232852595,6.263996104645874e-05,-0.0005033052483000097,0.6568843722343445,34.33669662475586,4.025173664093018,-19.436067581176758,-0.2429099678993225,-1.822208046913147,0.12485067546367645,0
73,0.35999631881713867,-0.5815059542655945,-34.31289291381836,-3.9974029064178467,19.436067581176758,0.2603049874305725,1.822208046913147,-0.12485067546367645,0.0,0.0,0.0,0.0,0.0,0.0,0.0,-0.6528395624816014,-0.2169237206365778,-0.49775477319607525,0.40076794676342076,0.1943089288845091,-0.08963821929895609,-0.11399259563582129,1.0545823953013156,0.3238081539505157,-0.3924185731243669,-2.1534783258940045,0.8645993921955426,2.4659018014669414,0.5444908030387332,1.0544104758940245,0.3238615046091247,-0.39250456234122666,-2.153291787532338,0.8647539153680389,2.46587817577521,0.5445020185570556,-0.0011060939109693248,0.0006531148398965254,-0.0013231916817605612,6.403647818487568e-05,-0.0005963901218615085,-0.00015052243576851274,0.0004590383799152124,0.0,0.0,0.0,0.0,0.0,0.0,0.0,-0.0001719194072911101,5.335065860900823e-05,-8.598921685976091e-05,0.00018653836166659943,0.00015452317249631253,-2.3625691731421483e-05,1.121551832239387e-05,0.0011060939109693248,-0.0006531148398965254,0.0013231916817605612,-6.403647818487568e-05,0.0005963901218615085,0.00015052243576851274,-0.0004590383799152124,0.5815059542655945,34.31289291381836,3.9974029064178467,-19.436067581176758,-0.2603049874305725,-1.822208046913147,0.12485067546367645,0
74,0.36499547958374023,-0.5815059542655945,-34.31289291381836,-3.9974029064178467,19.436067581176758,0.2603049874305725,1.822208046913147,-0.12485067546367645,0.0,0.0,0.0,0.0,0.0,0.0,0.0,-0.6528395624816014,-0.2169237206365778,-0.49775477319607525,0.40076794676342076,0.1943089288845091,-0.08963821929895609,-0.11399259563582129,1.0545823953013156,0.3238081539505157,-0.3924185731243669,-2.1534783258940045,0.8645993921955426,2.4659018014669414,0.5444908030387332,1.0544104758940245,0.3238615046091247,-0.39250456234122666,-2.153291787532338,0.8647539153680389,2.46587817577521,0.5445020185570556,-0.0011060939109693248,0.0006531148398965254,-0.0013231916817605612,6.403647818487568e-05,-0.0005963901218615085,-0.00015052243576851274,0.0004590383799152124,0.0,0.0,0.0,0.0,0.0,0.0,0.0,-0.0001719194072911101,5.335065860900823e-05,-8.598921685976091e-05,0.00018653836166659943,0.00015452317249631253,-2.3625691731421483e-05,1.121551832239387e-05,0.0011060939109693248,-0.0006531148398965254,0.0013231916817605612,-6.403647818487568e-05,0.0005963901218615085,0.00015052243576851274,-0.0004590383799152124,0.5815059542655945,34.31289291381836,3.9974029064178467,-19.436067581176758,-0.2603049874305725,-1.822208046913147,0.12485067546367645,0
75,0.3699955940246582,-0.6568843722343445,-34.28908920288086,-4.048977375030518,19.436067581176758,0.2603049874305725,1.828616738319397,-0.14590780436992645,0.0,0.0,0.0,0.0,0.0,0.0,0.0,-0.6501685093394679,-0.22436237986484378,-0.4994749030040799,0.4046610118270783,0.19483018740324462,-0.08793462956314477,-0.11388314440494827,1.0545898307457304,0.3238071131937733,-0.39241495386341163,-2.1534783258940045,0.8645994314413993,2.4659010893901185,0.5444931383050232,1.0544104758940245,0.3238615046091247,-0.39250456234122666,-2.153291787532338,0.8647539153680389,2.46587817577521,0.5445020185570556,0.0008361633996079177,-6.095183007205565e-05,-3.936324988639795e-05,3.0498727213345187e-05,-0.00032979003116786234,-0.0004972386671451447,0.0009114315289623859,0.0,0.0,0.0,0.0,0.0,0.0,0.0,-0.00017935485170594845,5.43914153514069e-05,-8.960847781502856e-05,0.00018653836166659943,0.00015448392663963695,-2.2913614908581792e-05,8.88025203238385e-06,-0.0008361633996079177,6.095183007205565e-05,3.936324988639795e-05,-3.0498727213345187e-05,0.00032979003116786234,0.0004972386671451447,-0.0009114315289623859,0.6568843722343445,34.28908920288086,4.048977375030518,-19.436067581176758,-0.2603049874305725,-1.828616738319397,0.14590780436992645,0
76,0.3750171661376953,-0.6568843722343445,-34.28908920288086,-4.048977375030518,19.436067581176758,0.2603049874305725,1.828616738319397,-0.14590780436992645,0.0,0.0,0.0,0.0,0.0,0.0,0.0,-0.6501685093394679,-0.22436237986484378,-0.4994749030040799,0.4046610118270783,0.19483018740324462,-0.08793462956314477,-0.11388314440494827,1.0545898307457304,0.3238071131937733,-0.39241495386341163,-2.1534783258940045,0.8645994314413993,2.4659010893901185,0.5444931383050232,1.0544104758940245,0.3238615046091247,-0.39250456234122666,-2.153291787532338,0.8647539153680389,2.46587817577521,0.5445020185570556,0.0008361633996079177,-6.095183007205565e-05,-3.936324988639795e-05,3.0498727213345187e-05,-0.00032979003116786234,-0.0004972386671451447,0.0009114315289623859,0.0,0.0,0.0,0.0,0.0,0.0,0.0,-0.00017935485170594845,5.43914153514069e-05,-8.960847781502856e-05,0.00018653836166659943,0.00015448392663963695,-2.2913614908581792e-05,8.88025203238385e-06,-0.0008361633996079177,6.095183007205565e-05,3.936324988639795e-05,-3.0498727213345187e-05,0.00032979003116786234,0.0004972386671451447,-0.0009114315289623859,0.6568843722343445,34.28908920288086,4.048977375030518,-19.436067581176758,-0.2603049874305725,-1.828616738319397,0.14590780436992645,0
77,0.38002800941467285,-0.6568843722343445,-34.31289291381836,-4.048977375030518,19.412263870239258,0.2484031319618225,1.815799355506897,-0.13217489421367645,0.0,0.0,0.0,0.0,0.0,0.0,0.0,-0.6534469003738601,-0.21810668635144254,-0.5030802043338951,0.40106648900123515,0.19562444385723549,-0.08798368956201211,-0.11492840402712476,1.0545876849906315,0.3238088617554768,-0.39241495386341163,-2.153476655458149,0.8645975357097615,2.4659023958061943,0.5444917301636787,1.0544104758940245,0.3238615046091247,-0.39250456234122666,-2.153291787532338,0.8647539153680389,2.46587817577521,0.5445020185570556,-0.00017005926121789827,0.0007899439776471655,-0.0001623309455844916,0.0003243745491139311,6.278878521850119e-05,-0.00010017924951747189,0.001154842463516719,0.0,0.0,0.0,0.0,0.0,0.0,0.0,-0.00017720909660701167,5.264285364792176e-05,-8.960847781502856e-05,0.00018486792581118294,0.00015637965827741684,-2.4220030984345442e-05,1.0288393376911564e-05,0.00017005926121789827,-0.0007899439776471655,0.0001623309455844916,-0.0003243745491139311,-6.278878521850119e-05,0.00010017924951747189,-0.001154842463516719,0.6568843722343445,34.31289291381836,4.048977375030518,-19.412263870239258,-0.2484031319618225,-1.815799355506897,0.13217489421367645,0
78,0.3849954605102539,-0.6568843722343445,-34.31289291381836,-4.048977375030518,19.412263870239258,0.2484031319618225,1.815799355506897,-0.13217489421367645,0.0,0.0,0.0,0.0,0.0,0.0,0.0,-0.6534469003738601,-0.21810668635144254,-0.5030802043338951,0.40106648900123515,0.19562444385723549,-0.08798368956201211,-0.11492840402712476,1.0545876849906315,0.3238088617554768,-0.39241495386341163,-2.153476655458149,0.8645975357097615,2.4659023958061943,0.5444917301636787,1.0544104758940245,0.3238615046091247,-0.39250456234122666,-2.153291787532338,0.8647539153680389,2.46587817577521,0.5445020185570556,-0.00017005926121789827,0.0007899439776471655,-0.0001623309455844916,0.0003243745491139311,6.278878521850119e-05,-0.00010017924951747189,0.001154842463516719,0.0,0.0,0.0,0.0,0.0,0.0,0.0,-0.00017720909660701167,5.264285364792176e-05,-8.960847781502856e-05,0.00018486792581118294,0.00015637965827741684,-2.4220030984345442e-05,1.0288393376911564e-05,0.00017005926121789827,-0.0007899439776471655,0.0001623309455844916,-0.0003243745491139311,-6.278878521850119e-05,0.00010017924951747189,-0.001154842463516719,0.6568843722343445,34.31289291381836,4.048977375030518,-19.412263870239258,-0.2484031319618225,-1.815799355506897,0.13217489421367645,0
79,0.38994455337524414,-0.6568843722343445,-34.26528549194336,-4.096584796905518,19.436067581176758,0.2484031319618225,1.796573281288147,-0.12485067546367645,0.0,0.0,0.0,0.0,0.0,0.0,0.0,-0.647153174758236,-0.2255530889772943,-0.49581789078907784,0.40891732587979623,0.19548027342780902,-0.08883229013915137,-0.11357028313064056,1.0545876849785185,0.32380552185626904,-0.3924116129917011,-2.1534783258940045,0.864600714605983,2.465904649773569,0.5444919760003893,1.0544104758940245,0.3238615046091247,-0.39250456234122666,-2.153291787532338,0.8647539153680389,2.46587817577521,0.5445020185570556,0.00017354661835121695,-0.0006535650379061617,0.0004844108185821042,0.0003348725868016456,6.565255685919447e-05,0.00042546808255531125,0.0009580086523564055,0.0,0.0,0.0,0.0,0.0,0.0,0.0,-0.00017720908449403439,5.5982752855676665e-05,-9.294934952558398e-05,0.00018653836166659943,0.00015320076205593836,-2.647399835886688e-05,1.004255666625653e-05,-0.00017354661835121695,0.0006535650379061617,-0.0004844108185821042,-0.0003348725868016456,-6.565255685919447e-05,-0.00042546808255531125,-0.0009580086523564055,0.6568843722343445,34.26528549194336,4.096584796905518,-19.436067581176758,-0.2484031319618225,-1.796573281288147,0.12485067546367645,0
80,0.39500975608825684,-0.6568843722343445,-34.26528549194336,-4.096584796905518,19.436067581176758,0.2484031319618225,1.796573281288147,-0.12485067546367645,0.0,0.0,0.0,0.0,0.0,0.0,0.0,-0.647153174758236,-0.2255530889772943,-0.49581789078907784,0.40891732587979623,0.19548027342780902,-0.08883229013915137,-0.11357028313064056,1.0545876849785185,0.32380552185626904,-0.3924116129917011,-2.1534783258940045,0.864600714605983,2.465904649773569,0.5444919760003893,1.0544104758940245,0.3238615046091247,-0.39250456234122666,-2.153291787532338,0.8647539153680389,2.46587817577521,0.5445020185570556,0.00017354661835121695,-0.0006535650379061617,0.0004844108185821042,0.0003348725868016456,6.565255685919447e-05,0.00042546808255531125,0.0009580086523564055,0.0,0.0,0.0,0.0,0.0,0.0,0.0,-0.00017720908449403439,5.5982752855676665e-05,-9.294934952558398e-05,0.00018653836166659943,0.00015320076205593836,-2.647399835886688e-05,1.004255666625653e-05,-0.00017354661835121695,0.0006535650379061617,-0.0004844108185821042,-0.0003348725868016456,-6.565255685919447e-05,-0.00042546808255531125,-0.0009580086523564055,0.6568843722343445,34.26528549194336,4.096584796905518,-19.436067581176758,-0.2484031319618225,-1.796573281288147,0.12485067546367645,0
