rezayati/contactInterpretation/dataset/franka_main/labeled_data/link6/b1_4.csv
index,time,tau_J0,tau_J1,tau_J2,tau_J3,tau_J4,tau_J5,tau_J6,tau_J_d0,tau_J_d1,tau_J_d2,tau_J_d3,tau_J_d4,tau_J_d5,tau_J_d6,tau_ext0,tau_ext1,tau_ext2,tau_ext3,tau_ext4,tau_ext5,tau_ext6,q0,q1,q2,q3,q4,q5,q6,q_d0,q_d1,q_d2,q_d3,q_d4,q_d5,q_d6,dq0,dq1,dq2,dq3,dq4,dq5,dq6,dq_d0,dq_d1,dq_d2,dq_d3,dq_d4,dq_d5,dq_d6,e0,e1,e2,e3,e4,e5,e6,de0,de1,de2,de3,de4,de5,de6,etau_J0,etau_J1,etau_J2,etau_J3,etau_J4,etau_J5,etau_J6,label
1,0.0,-0.3514034152030945,-19.717248916625977,-0.3990752398967743,20.106538772583008,0.6063743233680725,2.4758944511413574,-0.28964561223983765,0.0,0.0,0.0,0.0,0.0,0.0,0.0,-0.37964094860066705,0.015016163544512351,-0.206418731809661,0.3052221223743246,0.015526242879422296,0.10649222400100927,-0.2749811832441488,1.2135090663600383,-0.22034475166543419,-0.007503739291727275,-2.6040940524988008,-0.10892249576862686,2.468221223248376,0.826482424728473,1.2134413937687574,-0.2202432315892585,-0.0075118285948192216,-2.6038483821997875,-0.10888392708698907,2.4681821257803174,0.826474908251239,-0.0010056742610821756,-2.588649750140403e-05,-0.0003394959570359401,-0.0006496548477702242,-0.0003251611108272675,-0.0001749445165383806,0.0005515267975226418,0.0,0.0,0.0,0.0,0.0,0.0,0.0,-6.767259128093173e-05,0.00010152007617569847,-8.089303091946692e-06,0.00024567029901323423,3.856868163779059e-05,-3.909746805863534e-05,-7.516477233959762e-06,0.0010056742610821756,2.588649750140403e-05,0.0003394959570359401,0.0006496548477702242,0.0003251611108272675,0.0001749445165383806,-0.0005515267975226418,0.3514034152030945,19.717248916625977,0.3990752398967743,-20.106538772583008,-0.6063743233680725,-2.4758944511413574,0.28964561223983765,0
2,0.0042324066162109375,-0.3514034152030945,-19.717248916625977,-0.4228789508342743,20.054964065551758,0.5944724678993225,2.4823031425476074,-0.28232139348983765,0.0,0.0,0.0,0.0,0.0,0.0,0.0,-0.3759107628857999,0.01221122579912823,-0.20422728766902087,0.3053376638404954,0.015230820396975828,0.10532995258636739,-0.274950315431087,1.2135090663600383,-0.22034464764284192,-0.007502485133389841,-2.604090458765914,-0.1089247220180653,2.4682205111715527,0.826481257761607,1.2134413937687574,-0.2202432315892585,-0.0075118285948192216,-2.6038483821997875,-0.10888392708698907,2.4681821257803174,0.826474908251239,-0.0005974064853003377,-0.0002586562229184498,0.0006953456100346759,0.0005280232529018241,0.00027534714555551984,-0.0002695251671285934,0.0004576532132324287,0.0,0.0,0.0,0.0,0.0,0.0,0.0,-6.767259128093173e-05,0.0001014160535834363,-9.343461429380147e-06,0.0002420765661264035,4.079493107622678e-05,-3.838539123535156e-05,-6.349510367931188e-06,0.0005974064853003377,0.0002586562229184498,-0.0006953456100346759,-0.0005280232529018241,-0.00027534714555551984,0.0002695251671285934,-0.0004576532132324287,0.3514034152030945,19.717248916625977,0.4228789508342743,-20.054964065551758,-0.5944724678993225,-2.4823031425476074,0.28232139348983765,0
3,0.010004997253417969,-0.3514034152030945,-19.717248916625977,-0.4228789508342743,20.054964065551758,0.5944724678993225,2.4823031425476074,-0.28232139348983765,0.0,0.0,0.0,0.0,0.0,0.0,0.0,-0.3759107628857999,0.01221122579912823,-0.20422728766902087,0.3053376638404954,0.015230820396975828,0.10532995258636739,-0.274950315431087,1.2135090663600383,-0.22034464764284192,-0.007502485133389841,-2.604090458765914,-0.1089247220180653,2.4682205111715527,0.826481257761607,1.2134413937687574,-0.2202432315892585,-0.0075118285948192216,-2.6038483821997875,-0.10888392708698907,2.4681821257803174,0.826474908251239,-0.0005974064853003377,-0.0002586562229184498,0.0006953456100346759,0.0005280232529018241,0.00027534714555551984,-0.0002695251671285934,0.0004576532132324287,0.0,0.0,0.0,0.0,0.0,0.0,0.0,-6.767259128093173e-05,0.0001014160535834363,-9.343461429380147e-06,0.0002420765661264035,4.079493107622678e-05,-3.838539123535156e-05,-6.349510367931188e-06,0.0005974064853003377,0.0002586562229184498,-0.0006953456100346759,-0.0005280232529018241,-0.00027534714555551984,0.0002695251671285934,-0.0004576532132324287,0.3514034152030945,19.717248916625977,0.4228789508342743,-20.054964065551758,-0.5944724678993225,-2.4823031425476074,0.28232139348983765,0
4,0.014182806015014648,-0.3514034152030945,-19.717248916625977,-0.3990752398967743,20.082735061645508,0.6063743233680725,2.4694857597351074,-0.30337852239608765,0.0,0.0,0.0,0.0,0.0,0.0,0.0,-0.3748541641538162,0.009256231815164086,-0.2041713517971268,0.307671182854338,0.015552346802866974,0.10526346434981383,-0.27445089266474887,1.2135090663600383,-0.2203459327438601,-0.007502270548185943,-2.6040923820630892,-0.10892357520771043,2.468221935325199,0.8264818312155484,1.2134413937687574,-0.2202432315892585,-0.0075118285948192216,-2.6038483821997875,-0.10888392708698907,2.4681821257803174,0.826474908251239,-0.0005775990385288865,-0.0003256025484074118,0.00019662266072108985,-4.731924738240272e-05,-0.00010201555687194227,0.00016058205329008663,0.0013457283061292533,0.0,0.0,0.0,0.0,0.0,0.0,0.0,-6.767259128093173e-05,0.00010270115460161988,-9.558046633278625e-06,0.00024399986330170265,3.964812072135282e-05,-3.9809544881475034e-05,-6.9229643093748905e-06,0.0005775990385288865,0.0003256025484074118,-0.00019662266072108985,4.731924738240272e-05,0.00010201555687194227,-0.00016058205329008663,-0.0013457283061292533,0.3514034152030945,19.717248916625977,0.3990752398967743,-20.082735061645508,-0.6063743233680725,-2.4694857597351074,0.30337852239608765,0
5,0.019311904907226562,-0.3514034152030945,-19.717248916625977,-0.3990752398967743,20.082735061645508,0.6063743233680725,2.4694857597351074,-0.30337852239608765,0.0,0.0,0.0,0.0,0.0,0.0,0.0,-0.3748541641538162,0.009256231815164086,-0.2041713517971268,0.307671182854338,0.015552346802866974,0.10526346434981383,-0.27445089266474887,1.2135090663600383,-0.2203459327438601,-0.007502270548185943,-2.6040923820630892,-0.10892357520771043,2.468221935325199,0.8264818312155484,1.2134413937687574,-0.2202432315892585,-0.0075118285948192216,-2.6038483821997875,-0.10888392708698907,2.4681821257803174,0.826474908251239,-0.0005775990385288865,-0.0003256025484074118,0.00019662266072108985,-4.731924738240272e-05,-0.00010201555687194227,0.00016058205329008663,0.0013457283061292533,0.0,0.0,0.0,0.0,0.0,0.0,0.0,-6.767259128093173e-05,0.00010270115460161988,-9.558046633278625e-06,0.00024399986330170265,3.964812072135282e-05,-3.9809544881475034e-05,-6.9229643093748905e-06,0.0005775990385288865,0.0003256025484074118,-0.00019662266072108985,4.731924738240272e-05,0.00010201555687194227,-0.00016058205329008663,-0.0013457283061292533,0.3514034152030945,19.717248916625977,0.3990752398967743,-20.082735061645508,-0.6063743233680725,-2.4694857597351074,0.30337852239608765,0
6,0.024237632751464844,-0.3752071261405945,-19.693445205688477,-0.4466826617717743,20.082735061645508,0.5944724678993225,2.4823031425476074,-0.30978721380233765,0.0,0.0,0.0,0.0,0.0,0.0,0.0,-0.3773319620496978,0.014465277557927213,-0.20656612007396924,0.3037111805556355,0.016084973795776954,0.10400281756312621,-0.2742512436482517,1.2135107367958937,-0.22034642309335475,-0.007501101004275772,-2.6040923848973683,-0.10892130965302005,2.4682205111715527,0.8264857090789447,1.2134413937687574,-0.2202432315892585,-0.0075118285948192216,-2.6038483821997875,-0.10888392708698907,2.4681821257803174,0.826474908251239,0.0006573063928648524,-0.0004559786853207234,0.0009097508706227531,-8.427307291141081e-05,0.00023114003332106605,-9.256643493087152e-05,0.0017010158757829082,0.0,0.0,0.0,0.0,0.0,0.0,0.0,-6.934302713634821e-05,0.0001031915040962672,-1.0727590543449517e-05,0.00024400269758073634,3.738256603097456e-05,-3.838539123535156e-05,-1.0800827705659266e-05,-0.0006573063928648524,0.0004559786853207234,-0.0009097508706227531,8.427307291141081e-05,-0.00023114003332106605,9.256643493087152e-05,-0.0017010158757829082,0.3752071261405945,19.693445205688477,0.4466826617717743,-20.082735061645508,-0.5944724678993225,-2.4823031425476074,0.30978721380233765,0
7,0.029234886169433594,-0.3752071261405945,-19.693445205688477,-0.4466826617717743,20.082735061645508,0.5944724678993225,2.4823031425476074,-0.30978721380233765,0.0,0.0,0.0,0.0,0.0,0.0,0.0,-0.3773319620496978,0.014465277557927213,-0.20656612007396924,0.3037111805556355,0.016084973795776954,0.10400281756312621,-0.2742512436482517,1.2135107367958937,-0.22034642309335475,-0.007501101004275772,-2.6040923848973683,-0.10892130965302005,2.4682205111715527,0.8264857090789447,1.2134413937687574,-0.2202432315892585,-0.0075118285948192216,-2.6038483821997875,-0.10888392708698907,2.4681821257803174,0.826474908251239,0.0006573063928648524,-0.0004559786853207234,0.0009097508706227531,-8.427307291141081e-05,0.00023114003332106605,-9.256643493087152e-05,0.0017010158757829082,0.0,0.0,0.0,0.0,0.0,0.0,0.0,-6.934302713634821e-05,0.0001031915040962672,-1.0727590543449517e-05,0.00024400269758073634,3.738256603097456e-05,-3.838539123535156e-05,-1.0800827705659266e-05,-0.0006573063928648524,0.0004559786853207234,-0.0009097508706227531,8.427307291141081e-05,-0.00023114003332106605,9.256643493087152e-05,-0.0017010158757829082,0.3752071261405945,19.693445205688477,0.4466826617717743,-20.082735061645508,-0.5944724678993225,-2.4823031425476074,0.30978721380233765,0
8,0.03423881530761719,-0.3752071261405945,-19.717248916625977,-0.3475005328655243,20.082735061645508,0.5944724678993225,2.4823031425476074,-0.21457235515117645,0.0,0.0,0.0,0.0,0.0,0.0,0.0,-0.3723849750014947,0.011882230960840283,-0.20499863467259624,0.3078014287017776,0.015862302561796774,0.10423107140715884,-0.27395254024912863,1.2135107367958937,-0.22034687856851387,-0.007507362804350016,-2.6040930708277346,-0.10892472207240932,2.4682205111715527,0.8264751424091245,1.2134413937687574,-0.2202432315892585,-0.0075118285948192216,-2.6038483821997875,-0.10888392708698907,2.4681821257803174,0.826474908251239,0.0001451363428702617,-6.694613225590777e-05,-0.0007495392296506749,5.8531019955648176e-05,0.00022081922400590207,-0.0002818816931113311,-0.00235511492962007,0.0,0.0,0.0,0.0,0.0,0.0,0.0,-6.934302713634821e-05,0.00010364697925538402,-4.4657904692052205e-06,0.0002446886279470206,4.079498542024218e-05,-3.838539123535156e-05,-2.3415788541480964e-07,-0.0001451363428702617,6.694613225590777e-05,0.0007495392296506749,-5.8531019955648176e-05,-0.00022081922400590207,0.0002818816931113311,0.00235511492962007,0.3752071261405945,19.717248916625977,0.3475005328655243,-20.082735061645508,-0.5944724678993225,-2.4823031425476074,0.21457235515117645,0
9,0.03919243812561035,-0.3752071261405945,-19.717248916625977,-0.3475005328655243,20.082735061645508,0.5944724678993225,2.4823031425476074,-0.21457235515117645,0.0,0.0,0.0,0.0,0.0,0.0,0.0,-0.3723849750014947,0.011882230960840283,-0.20499863467259624,0.3078014287017776,0.015862302561796774,0.10423107140715884,-0.27395254024912863,1.2135107367958937,-0.22034687856851387,-0.007507362804350016,-2.6040930708277346,-0.10892472207240932,2.4682205111715527,0.8264751424091245,1.2134413937687574,-0.2202432315892585,-0.0075118285948192216,-2.6038483821997875,-0.10888392708698907,2.4681821257803174,0.826474908251239,0.0001451363428702617,-6.694613225590777e-05,-0.0007495392296506749,5.8531019955648176e-05,0.00022081922400590207,-0.0002818816931113311,-0.00235511492962007,0.0,0.0,0.0,0.0,0.0,0.0,0.0,-6.934302713634821e-05,0.00010364697925538402,-4.4657904692052205e-06,0.0002446886279470206,4.079498542024218e-05,-3.838539123535156e-05,-2.3415788541480964e-07,-0.0001451363428702617,6.694613225590777e-05,0.0007495392296506749,-5.8531019955648176e-05,-0.00022081922400590207,0.0002818816931113311,0.00235511492962007,0.3752071261405945,19.717248916625977,0.3475005328655243,-20.082735061645508,-0.5944724678993225,-2.4823031425476074,0.21457235515117645,0
10,0.044226884841918945,-0.3752071261405945,-19.745019912719727,-0.3713042438030243,20.082735061645508,0.6118674874305725,2.4823031425476074,-0.28232139348983765,0.0,0.0,0.0,0.0,0.0,0.0,0.0,-0.37160561938804315,0.009114989392731518,-0.203087122985882,0.31082003445675965,0.01598443321403752,0.10455435413568759,-0.27362302579708964,1.2135107367958937,-0.220344929730683,-0.0075041843168168545,-2.6040926116550946,-0.10892428956962566,2.4682205111715527,0.8264826166755603,1.2134413937687574,-0.2202432315892585,-0.0075118285948192216,-2.6038483821997875,-0.10888392708698907,2.4681821257803174,0.826474908251239,0.0002472451115342707,0.00022114363629586187,-0.0006638428806806573,0.00011395203218905052,-0.0005143149288550874,-0.00026215128432467293,0.0005184333857311503,0.0,0.0,0.0,0.0,0.0,0.0,0.0,-6.934302713634821e-05,0.00010169814142452216,-7.644278002367014e-06,0.00024422945530711004,4.0362482636585595e-05,-3.838539123535156e-05,-7.708424321295482e-06,-0.0002472451115342707,-0.00022114363629586187,0.0006638428806806573,-0.00011395203218905052,0.0005143149288550874,0.00026215128432467293,-0.0005184333857311503,0.3752071261405945,19.745019912719727,0.3713042438030243,-20.082735061645508,-0.6118674874305725,-2.4823031425476074,0.28232139348983765,0
11,0.0491788387298584,-0.3752071261405945,-19.745019912719727,-0.3713042438030243,20.082735061645508,0.6118674874305725,2.4823031425476074,-0.28232139348983765,0.0,0.0,0.0,0.0,0.0,0.0,0.0,-0.37160561938804315,0.009114989392731518,-0.203087122985882,0.31082003445675965,0.01598443321403752,0.10455435413568759,-0.27362302579708964,1.2135107367958937,-0.220344929730683,-0.0075041843168168545,-2.6040926116550946,-0.10892428956962566,2.4682205111715527,0.8264826166755603,1.2134413937687574,-0.2202432315892585,-0.0075118285948192216,-2.6038483821997875,-0.10888392708698907,2.4681821257803174,0.826474908251239,0.0002472451115342707,0.00022114363629586187,-0.0006638428806806573,0.00011395203218905052,-0.0005143149288550874,-0.00026215128432467293,0.0005184333857311503,0.0,0.0,0.0,0.0,0.0,0.0,0.0,-6.934302713634821e-05,0.00010169814142452216,-7.644278002367014e-06,0.00024422945530711004,4.0362482636585595e-05,-3.838539123535156e-05,-7.708424321295482e-06,-0.0002472451115342707,-0.00022114363629586187,0.0006638428806806573,-0.00011395203218905052,0.0005143149288550874,0.00026215128432467293,-0.0005184333857311503,0.3752071261405945,19.745019912719727,0.3713042438030243,-20.082735061645508,-0.6118674874305725,-2.4823031425476074,0.28232139348983765,0
12,0.054195404052734375,-0.3752071261405945,-19.745019912719727,-0.3475005328655243,20.082735061645508,0.5944724678993225,2.4823031425476074,-0.24844686686992645,0.0,0.0,0.0,0.0,0.0,0.0,0.0,-0.3740025464976738,0.014333411143880967,-0.20393689788998492,0.30684408309079614,0.0161219819366908,0.10390577534747734,-0.27406596454560117,1.2135107367958937,-0.22034209519868705,-0.00750808650738445,-2.604092383009049,-0.10892133106008871,2.4682205111715527,0.8264784353470359,1.2134413937687574,-0.2202432315892585,-0.0075118285948192216,-2.6038483821997875,-0.10888392708698907,2.4681821257803174,0.826474908251239,-0.0002702150978799732,0.0004211093615399856,-0.0012912022054826441,0.000258800535226604,0.00030996063770882256,-0.00014081782455381369,-0.0014384943740482262,0.0,0.0,0.0,0.0,0.0,0.0,0.0,-6.934302713634821e-05,9.886360942856776e-05,-3.7420874347713837e-06,0.00024400080926145762,3.740397309963395e-05,-3.838539123535156e-05,-3.5270957968736028e-06,0.0002702150978799732,-0.0004211093615399856,0.0012912022054826441,-0.000258800535226604,-0.00030996063770882256,0.00014081782455381369,0.0014384943740482262,0.3752071261405945,19.745019912719727,0.3475005328655243,-20.082735061645508,-0.5944724678993225,-2.4823031425476074,0.24844686686992645,0
13,0.05924415588378906,-0.3752071261405945,-19.745019912719727,-0.3475005328655243,20.082735061645508,0.5944724678993225,2.4823031425476074,-0.24844686686992645,0.0,0.0,0.0,0.0,0.0,0.0,0.0,-0.3740025464976738,0.014333411143880967,-0.20393689788998492,0.30684408309079614,0.0161219819366908,0.10390577534747734,-0.27406596454560117,1.2135107367958937,-0.22034209519868705,-0.00750808650738445,-2.604092383009049,-0.10892133106008871,2.4682205111715527,0.8264784353470359,1.2134413937687574,-0.2202432315892585,-0.0075118285948192216,-2.6038483821997875,-0.10888392708698907,2.4681821257803174,0.826474908251239,-0.0002702150978799732,0.0004211093615399856,-0.0012912022054826441,0.000258800535226604,0.00030996063770882256,-0.00014081782455381369,-0.0014384943740482262,0.0,0.0,0.0,0.0,0.0,0.0,0.0,-6.934302713634821e-05,9.886360942856776e-05,-3.7420874347713837e-06,0.00024400080926145762,3.740397309963395e-05,-3.838539123535156e-05,-3.5270957968736028e-06,0.0002702150978799732,-0.0004211093615399856,0.0012912022054826441,-0.000258800535226604,-0.00030996063770882256,0.00014081782455381369,0.0014384943740482262,0.3752071261405945,19.745019912719727,0.3475005328655243,-20.082735061645508,-0.5944724678993225,-2.4823031425476074,0.24844686686992645,0
14,0.06423234939575195,-0.3752071261405945,-19.768823623657227,-0.4228789508342743,20.106538772583008,0.5999656319618225,2.4694857597351074,-0.25485557317733765,0.0,0.0,0.0,0.0,0.0,0.0,0.0,-0.3774509611710355,0.006053393652473791,-0.2041409012902732,0.3110661174004393,0.01589898674569416,0.10498273910406963,-0.2748501309658998,1.2135107367958937,-0.2203432242846046,-0.007502569819949518,-2.6040940528137417,-0.10892183690872058,2.468221935325199,0.8264764399435662,1.2134413937687574,-0.2202432315892585,-0.0075118285948192216,-2.6038483821997875,-0.10888392708698907,2.4681821257803174,0.826474908251239,-0.00039641933526238503,0.00044148053843885937,-0.00011884245988827617,-8.24721472678491e-05,0.00011651677830203967,1.3490073364512905e-05,-0.0005538946992954828,0.0,0.0,0.0,0.0,0.0,0.0,0.0,-6.934302713634821e-05,9.999269534610722e-05,-9.258774869703827e-06,0.0002456706139541964,3.790982173150492e-05,-3.9809544881475034e-05,-1.5316923271946337e-06,0.00039641933526238503,-0.00044148053843885937,0.00011884245988827617,8.24721472678491e-05,-0.00011651677830203967,-1.3490073364512905e-05,0.0005538946992954828,0.3752071261405945,19.768823623657227,0.4228789508342743,-20.106538772583008,-0.5999656319618225,-2.4694857597351074,0.25485557317733765,0
15,0.06922507286071777,-0.3752071261405945,-19.768823623657227,-0.4228789508342743,20.106538772583008,0.5999656319618225,2.4694857597351074,-0.25485557317733765,0.0,0.0,0.0,0.0,0.0,0.0,0.0,-0.3774509611710355,0.006053393652473791,-0.2041409012902732,0.3110661174004393,0.01589898674569416,0.10498273910406963,-0.2748501309658998,1.2135107367958937,-0.2203432242846046,-0.007502569819949518,-2.6040940528137417,-0.10892183690872058,2.468221935325199,0.8264764399435662,1.2134413937687574,-0.2202432315892585,-0.0075118285948192216,-2.6038483821997875,-0.10888392708698907,2.4681821257803174,0.826474908251239,-0.00039641933526238503,0.00044148053843885937,-0.00011884245988827617,-8.24721472678491e-05,0.00011651677830203967,1.3490073364512905e-05,-0.0005538946992954828,0.0,0.0,0.0,0.0,0.0,0.0,0.0,-6.934302713634821e-05,9.999269534610722e-05,-9.258774869703827e-06,0.0002456706139541964,3.790982173150492e-05,-3.9809544881475034e-05,-1.5316923271946337e-06,0.00039641933526238503,-0.00044148053843885937,0.00011884245988827617,8.24721472678491e-05,-0.00011651677830203967,-1.3490073364512905e-05,0.0005538946992954828,0.3752071261405945,19.768823623657227,0.4228789508342743,-20.106538772583008,-0.5999656319618225,-2.4694857597351074,0.25485557317733765,0
16,0.07424306869506836,-0.3752071261405945,-19.717248916625977,-0.4466826617717743,20.082735061645508,0.5944724678993225,2.4630770683288574,-0.29605430364608765,0.0,0.0,0.0,0.0,0.0,0.0,0.0,-0.37908377168294993,0.006420331250419506,-0.20504378710530927,0.30540579592494776,0.01576405879683306,0.10338492811841389,-0.2751030258362191,1.2135107367958937,-0.22034687846430967,-0.0074989702321619535,-2.604092382062947,-0.10892448598031161,2.4682226474020217,0.826483799660172,1.2134413937687574,-0.2202432315892585,-0.0075118285948192216,-2.6038483821997875,-0.10888392708698907,2.4681821257803174,0.826474908251239,-0.0005780084516647156,-0.0007814726364546359,0.00048482872289890586,-0.0003566810726317899,0.0002289088497710945,-0.008035965681216752,0.0009126469151643544,0.0,0.0,0.0,0.0,0.0,0.0,0.0,-6.934302713634821e-05,0.0001036468750511832,-1.2858362657268071e-05,0.0002439998631595941,4.055889332253704e-05,-4.0521621704314725e-05,-8.891408933009437e-06,0.0005780084516647156,0.0007814726364546359,-0.00048482872289890586,0.0003566810726317899,-0.0002289088497710945,0.008035965681216752,-0.0009126469151643544,0.3752071261405945,19.717248916625977,0.4466826617717743,-20.082735061645508,-0.5944724678993225,-2.4630770683288574,0.29605430364608765,0
17,0.07924532890319824,-0.3752071261405945,-19.717248916625977,-0.4466826617717743,20.082735061645508,0.5944724678993225,2.4630770683288574,-0.29605430364608765,0.0,0.0,0.0,0.0,0.0,0.0,0.0,-0.37908377168294993,0.006420331250419506,-0.20504378710530927,0.30540579592494776,0.01576405879683306,0.10338492811841389,-0.2751030258362191,1.2135107367958937,-0.22034687846430967,-0.0074989702321619535,-2.604092382062947,-0.10892448598031161,2.4682226474020217,0.826483799660172,1.2134413937687574,-0.2202432315892585,-0.0075118285948192216,-2.6038483821997875,-0.10888392708698907,2.4681821257803174,0.826474908251239,-0.0005780084516647156,-0.0007814726364546359,0.00048482872289890586,-0.0003566810726317899,0.0002289088497710945,-0.008035965681216752,0.0009126469151643544,0.0,0.0,0.0,0.0,0.0,0.0,0.0,-6.934302713634821e-05,0.0001036468750511832,-1.2858362657268071e-05,0.0002439998631595941,4.055889332253704e-05,-4.0521621704314725e-05,-8.891408933009437e-06,0.0005780084516647156,0.0007814726364546359,-0.00048482872289890586,0.0003566810726317899,-0.0002289088497710945,0.008035965681216752,-0.0009126469151643544,0.3752071261405945,19.717248916625977,0.4466826617717743,-20.082735061645508,-0.5944724678993225,-2.4630770683288574,0.29605430364608765,0
18,0.08425140380859375,-0.4029781222343445,-19.717248916625977,-0.4228789508342743,20.082735061645508,0.5880637764930725,2.4758944511413574,-0.30337852239608765,0.0,0.0,0.0,0.0,0.0,0.0,0.0,-0.38383244349676454,0.0028044415954898813,-0.2100736186916779,0.312068888018411,0.01562838210157931,0.1048643705248347,-0.2746780315002829,1.2135126856377247,-0.2203459308123297,-0.007500599019484228,-2.6040923820629454,-0.10892164903852583,2.468221223248376,0.8264849972152252,1.2134413937687574,-0.2202432315892585,-0.0075118285948192216,-2.6038483821997875,-0.10888392708698907,2.4681821257803174,0.826474908251239,-8.716765254637192e-05,-0.00022059374186531903,3.5780024281184905e-05,-0.00010193745286905586,0.0005124217802479365,-0.00022953206225360644,0.001569873031283546,0.0,0.0,0.0,0.0,0.0,0.0,0.0,-7.129186896737139e-05,0.00010269922307121204,-1.1229575334993809e-05,0.00024399986315781774,3.7721951536756615e-05,-3.909746805863534e-05,-1.0088963986132349e-05,8.716765254637192e-05,0.00022059374186531903,-3.5780024281184905e-05,0.00010193745286905586,-0.0005124217802479365,0.00022953206225360644,-0.001569873031283546,0.4029781222343445,19.717248916625977,0.4228789508342743,-20.082735061645508,-0.5880637764930725,-2.4758944511413574,0.30337852239608765,0
19,0.08924746513366699,-0.4029781222343445,-19.717248916625977,-0.4228789508342743,20.082735061645508,0.5880637764930725,2.4758944511413574,-0.30337852239608765,0.0,0.0,0.0,0.0,0.0,0.0,0.0,-0.38383244349676454,0.0028044415954898813,-0.2100736186916779,0.312068888018411,0.01562838210157931,0.1048643705248347,-0.2746780315002829,1.2135126856377247,-0.2203459308123297,-0.007500599019484228,-2.6040923820629454,-0.10892164903852583,2.468221223248376,0.8264849972152252,1.2134413937687574,-0.2202432315892585,-0.0075118285948192216,-2.6038483821997875,-0.10888392708698907,2.4681821257803174,0.826474908251239,-8.716765254637192e-05,-0.00022059374186531903,3.5780024281184905e-05,-0.00010193745286905586,0.0005124217802479365,-0.00022953206225360644,0.001569873031283546,0.0,0.0,0.0,0.0,0.0,0.0,0.0,-7.129186896737139e-05,0.00010269922307121204,-1.1229575334993809e-05,0.00024399986315781774,3.7721951536756615e-05,-3.909746805863534e-05,-1.0088963986132349e-05,8.716765254637192e-05,0.00022059374186531903,-3.5780024281184905e-05,0.00010193745286905586,-0.0005124217802479365,0.00022953206225360644,-0.001569873031283546,0.4029781222343445,19.717248916625977,0.4228789508342743,-20.082735061645508,-0.5880637764930725,-2.4758944511413574,0.30337852239608765,0
20,0.09422993659973145,-0.4029781222343445,-19.717248916625977,-0.4228789508342743,20.082735061645508,0.5880637764930725,2.4758944511413574,-0.30337852239608765,0.0,0.0,0.0,0.0,0.0,0.0,0.0,-0.38383244349676454,0.0028044415954898813,-0.2100736186916779,0.312068888018411,0.01562838210157931,0.1048643705248347,-0.2746780315002829,1.2135126856377247,-0.2203459308123297,-0.007500599019484228,-2.6040923820629454,-0.10892164903852583,2.468221223248376,0.8264849972152252,1.2134413937687574,-0.2202432315892585,-0.0075118285948192216,-2.6038483821997875,-0.10888392708698907,2.4681821257803174,0.826474908251239,-8.716765254637192e-05,-0.00022059374186531903,3.5780024281184905e-05,-0.00010193745286905586,0.0005124217802479365,-0.00022953206225360644,0.001569873031283546,0.0,0.0,0.0,0.0,0.0,0.0,0.0,-7.129186896737139e-05,0.00010269922307121204,-1.1229575334993809e-05,0.00024399986315781774,3.7721951536756615e-05,-3.909746805863534e-05,-1.0088963986132349e-05,8.716765254637192e-05,0.00022059374186531903,-3.5780024281184905e-05,0.00010193745286905586,-0.0005124217802479365,0.00022953206225360644,-0.001569873031283546,0.4029781222343445,19.717248916625977,0.4228789508342743,-20.082735061645508,-0.5880637764930725,-2.4758944511413574,0.30337852239608765,0
21,0.09917664527893066,-0.4029781222343445,-19.717248916625977,-0.4228789508342743,20.082735061645508,0.5880637764930725,2.4758944511413574,-0.30337852239608765,0.0,0.0,0.0,0.0,0.0,0.0,0.0,-0.38383244349676454,0.0028044415954898813,-0.2100736186916779,0.312068888018411,0.01562838210157931,0.1048643705248347,-0.2746780315002829,1.2135126856377247,-0.2203459308123297,-0.007500599019484228,-2.6040923820629454,-0.10892164903852583,2.468221223248376,0.8264849972152252,1.2134413937687574,-0.2202432315892585,-0.0075118285948192216,-2.6038483821997875,-0.10888392708698907,2.4681821257803174,0.826474908251239,-8.716765254637192e-05,-0.00022059374186531903,3.5780024281184905e-05,-0.00010193745286905586,0.0005124217802479365,-0.00022953206225360644,0.001569873031283546,0.0,0.0,0.0,0.0,0.0,0.0,0.0,-7.129186896737139e-05,0.00010269922307121204,-1.1229575334993809e-05,0.00024399986315781774,3.7721951536756615e-05,-3.909746805863534e-05,-1.0088963986132349e-05,8.716765254637192e-05,0.00022059374186531903,-3.5780024281184905e-05,0.00010193745286905586,-0.0005124217802479365,0.00022953206225360644,-0.001569873031283546,0.4029781222343445,19.717248916625977,0.4228789508342743,-20.082735061645508,-0.5880637764930725,-2.4758944511413574,0.30337852239608765,0
22,0.10422587394714355,-0.4029781222343445,-19.693445205688477,-0.4466826617717743,20.054964065551758,0.5999656319618225,2.4758944511413574,-0.27591270208358765,0.0,0.0,0.0,0.0,0.0,0.0,0.0,-0.38003712974285114,0.008167379606807388,-0.20567889614963938,0.3057491570048608,0.015052078849908324,0.10350382966245049,-0.2732997502240956,1.2135126856377247,-0.22034854867899872,-0.0075004016683552265,-2.6040904332211143,-0.10892227064257282,2.468221223248376,0.8264787790887914,1.2134413937687574,-0.2202432315892585,-0.0075118285948192216,-2.6038483821997875,-0.10888392708698907,2.4681821257803174,0.826474908251239,0.0006829993074152431,-0.00046284024785235247,0.0013733767618642782,0.0011335725542352378,0.00020658324854005354,-3.046615102421658e-05,0.00038152232719738894,0.0,0.0,0.0,0.0,0.0,0.0,0.0,-7.129186896737139e-05,0.00010531708974023668,-1.1426926463995075e-05,0.00024205102132679457,3.834355558374192e-05,-3.909746805863534e-05,-3.870837552377715e-06,-0.0006829993074152431,0.00046284024785235247,-0.0013733767618642782,-0.0011335725542352378,-0.00020658324854005354,3.046615102421658e-05,-0.00038152232719738894,0.4029781222343445,19.693445205688477,0.4466826617717743,-20.054964065551758,-0.5999656319618225,-2.4758944511413574,0.27591270208358765,0
23,0.10924029350280762,-0.4029781222343445,-19.693445205688477,-0.4466826617717743,20.054964065551758,0.5999656319618225,2.4758944511413574,-0.27591270208358765,0.0,0.0,0.0,0.0,0.0,0.0,0.0,-0.38003712974285114,0.008167379606807388,-0.20567889614963938,0.3057491570048608,0.015052078849908324,0.10350382966245049,-0.2732997502240956,1.2135126856377247,-0.22034854867899872,-0.0075004016683552265,-2.6040904332211143,-0.10892227064257282,2.468221223248376,0.8264787790887914,1.2134413937687574,-0.2202432315892585,-0.0075118285948192216,-2.6038483821997875,-0.10888392708698907,2.4681821257803174,0.826474908251239,0.0006829993074152431,-0.00046284024785235247,0.0013733767618642782,0.0011335725542352378,0.00020658324854005354,-3.046615102421658e-05,0.00038152232719738894,0.0,0.0,0.0,0.0,0.0,0.0,0.0,-7.129186896737139e-05,0.00010531708974023668,-1.1426926463995075e-05,0.00024205102132679457,3.834355558374192e-05,-3.909746805863534e-05,-3.870837552377715e-06,-0.0006829993074152431,0.00046284024785235247,-0.0013733767618642782,-0.0011335725542352378,-0.00020658324854005354,3.046615102421658e-05,-0.00038152232719738894,0.4029781222343445,19.693445205688477,0.4466826617717743,-20.054964065551758,-0.5999656319618225,-2.4758944511413574,0.27591270208358765,0
24,0.11423826217651367,-0.3514034152030945,-19.717248916625977,-0.3475005328655243,20.054964065551758,0.5944724678993225,2.4823031425476074,-0.26858848333358765,0.0,0.0,0.0,0.0,0.0,0.0,0.0,-0.3794074746676301,0.009847505769545736,-0.20595093065690068,0.3044511832137394,0.015580858801371217,0.10353919474737798,-0.2722075525092171,1.2135090663600383,-0.22034474975733015,-0.007508098314426727,-2.6040904332211143,-0.1089222510853275,2.4682205111715527,0.8264811432680234,1.2134413937687574,-0.2202432315892585,-0.0075118285948192216,-2.6038483821997875,-0.10888392708698907,2.4681821257803174,0.826474908251239,-9.120955058357958e-05,6.492746739199116e-06,-0.0010982664702455344,0.0003409933679389675,0.00032320989381370434,-9.821577521768614e-06,-0.00034776263068095803,0.0,0.0,0.0,0.0,0.0,0.0,0.0,-6.767259128093173e-05,0.00010151816807166258,-3.730280392494345e-06,0.00024205102132679457,3.8323998338432586e-05,-3.838539123535156e-05,-6.23501678431726e-06,9.120955058357958e-05,-6.492746739199116e-06,0.0010982664702455344,-0.0003409933679389675,-0.00032320989381370434,9.821577521768614e-06,0.00034776263068095803,0.3514034152030945,19.717248916625977,0.3475005328655243,-20.054964065551758,-0.5944724678993225,-2.4823031425476074,0.26858848333358765,0
25,0.1193389892578125,-0.3514034152030945,-19.717248916625977,-0.3475005328655243,20.054964065551758,0.5944724678993225,2.4823031425476074,-0.26858848333358765,0.0,0.0,0.0,0.0,0.0,0.0,0.0,-0.3794074746676301,0.009847505769545736,-0.20595093065690068,0.3044511832137394,0.015580858801371217,0.10353919474737798,-0.2722075525092171,1.2135090663600383,-0.22034474975733015,-0.007508098314426727,-2.6040904332211143,-0.1089222510853275,2.4682205111715527,0.8264811432680234,1.2134413937687574,-0.2202432315892585,-0.0075118285948192216,-2.6038483821997875,-0.10888392708698907,2.4681821257803174,0.826474908251239,-9.120955058357958e-05,6.492746739199116e-06,-0.0010982664702455344,0.0003409933679389675,0.00032320989381370434,-9.821577521768614e-06,-0.00034776263068095803,0.0,0.0,0.0,0.0,0.0,0.0,0.0,-6.767259128093173e-05,0.00010151816807166258,-3.730280392494345e-06,0.00024205102132679457,3.8323998338432586e-05,-3.838539123535156e-05,-6.23501678431726e-06,9.120955058357958e-05,-6.492746739199116e-06,0.0010982664702455344,-0.0003409933679389675,-0.00032320989381370434,9.821577521768614e-06,0.00034776263068095803,0.3514034152030945,19.717248916625977,0.3475005328655243,-20.054964065551758,-0.5944724678993225,-2.4823031425476074,0.26858848333358765,0
26,0.12424468994140625,-0.4029781222343445,-19.693445205688477,-0.4228789508342743,20.082735061645508,0.5944724678993225,2.4758944511413574,-0.21457235515117645,0.0,0.0,0.0,0.0,0.0,0.0,0.0,-0.3790675324536481,0.019404094454424804,-0.20687313501729743,0.29414618782261664,0.015746688749616093,0.10192010100584643,-0.27265910337883725,1.2135126856377247,-0.22034783741116576,-0.0075004393726497455,-2.6040923820629454,-0.1089244985884935,2.468221223248376,0.8264751429474931,1.2134413937687574,-0.2202432315892585,-0.0075118285948192216,-2.6038483821997875,-0.10888392708698907,2.4681821257803174,0.826474908251239,0.000865988552321345,-0.000895002342066419,0.0010235344658826233,-2.0222842427750487e-05,0.00015023382811150043,0.0014179791313878615,-0.0023430938627266645,0.0,0.0,0.0,0.0,0.0,0.0,0.0,-7.129186896737139e-05,0.00010460582190727208,-1.1389222169476063e-05,0.00024399986315781774,4.0571501504424456e-05,-3.909746805863534e-05,-2.3469625409777706e-07,-0.000865988552321345,0.000895002342066419,-0.0010235344658826233,2.0222842427750487e-05,-0.00015023382811150043,-0.0014179791313878615,0.0023430938627266645,0.4029781222343445,19.693445205688477,0.4228789508342743,-20.082735061645508,-0.5944724678993225,-2.4758944511413574,0.21457235515117645,0
27,0.129227876663208,-0.4029781222343445,-19.693445205688477,-0.4228789508342743,20.082735061645508,0.5944724678993225,2.4758944511413574,-0.21457235515117645,0.0,0.0,0.0,0.0,0.0,0.0,0.0,-0.3790675324536481,0.019404094454424804,-0.20687313501729743,0.29414618782261664,0.015746688749616093,0.10192010100584643,-0.27265910337883725,1.2135126856377247,-0.22034783741116576,-0.0075004393726497455,-2.6040923820629454,-0.1089244985884935,2.468221223248376,0.8264751429474931,1.2134413937687574,-0.2202432315892585,-0.0075118285948192216,-2.6038483821997875,-0.10888392708698907,2.4681821257803174,0.826474908251239,0.000865988552321345,-0.000895002342066419,0.0010235344658826233,-2.0222842427750487e-05,0.00015023382811150043,0.0014179791313878615,-0.0023430938627266645,0.0,0.0,0.0,0.0,0.0,0.0,0.0,-7.129186896737139e-05,0.00010460582190727208,-1.1389222169476063e-05,0.00024399986315781774,4.0571501504424456e-05,-3.909746805863534e-05,-2.3469625409777706e-07,-0.000865988552321345,0.000895002342066419,-0.0010235344658826233,2.0222842427750487e-05,-0.00015023382811150043,-0.0014179791313878615,0.0023430938627266645,0.4029781222343445,19.693445205688477,0.4228789508342743,-20.082735061645508,-0.5944724678993225,-2.4758944511413574,0.21457235515117645,0
28,0.13418102264404297,-0.3752071261405945,-19.717248916625977,-0.3990752398967743,20.082735061645508,0.6063743233680725,2.4694857597351074,-0.26217979192733765,0.0,0.0,0.0,0.0,0.0,0.0,0.0,-0.3758751366997522,0.011299460904186686,-0.20239876350792435,0.3011841074908031,0.015264297419958855,0.10503999001142979,-0.2723372091360366,1.2135107367958937,-0.22034685199880996,-0.007504479965633312,-2.6040923820629454,-0.10892265809800612,2.468221935325199,0.8264803890561915,1.2134413937687574,-0.2202432315892585,-0.0075118285948192216,-2.6038483821997875,-0.10888392708698907,2.4681821257803174,0.826474908251239,0.00016346998630350365,-0.0006502202455874032,0.0002293266224197783,-0.0005368049847607008,-0.00017997630513797946,0.00040718418366896735,-0.0005144782270649252,0.0,0.0,0.0,0.0,0.0,0.0,0.0,-6.934302713634821e-05,0.00010362040955147478,-7.348629185909873e-06,0.00024399986315781774,3.873101101704857e-05,-3.9809544881475034e-05,-5.480804952440188e-06,-0.00016346998630350365,0.0006502202455874032,-0.0002293266224197783,0.0005368049847607008,0.00017997630513797946,-0.00040718418366896735,0.0005144782270649252,0.3752071261405945,19.717248916625977,0.3990752398967743,-20.082735061645508,-0.6063743233680725,-2.4694857597351074,0.26217979192733765,0
29,0.13922977447509766,-0.3752071261405945,-19.717248916625977,-0.3990752398967743,20.082735061645508,0.6063743233680725,2.4694857597351074,-0.26217979192733765,0.0,0.0,0.0,0.0,0.0,0.0,0.0,-0.3758751366997522,0.011299460904186686,-0.20239876350792435,0.3011841074908031,0.015264297419958855,0.10503999001142979,-0.2723372091360366,1.2135107367958937,-0.22034685199880996,-0.007504479965633312,-2.6040923820629454,-0.10892265809800612,2.468221935325199,0.8264803890561915,1.2134413937687574,-0.2202432315892585,-0.0075118285948192216,-2.6038483821997875,-0.10888392708698907,2.4681821257803174,0.826474908251239,0.00016346998630350365,-0.0006502202455874032,0.0002293266224197783,-0.0005368049847607008,-0.00017997630513797946,0.00040718418366896735,-0.0005144782270649252,0.0,0.0,0.0,0.0,0.0,0.0,0.0,-6.934302713634821e-05,0.00010362040955147478,-7.348629185909873e-06,0.00024399986315781774,3.873101101704857e-05,-3.9809544881475034e-05,-5.480804952440188e-06,-0.00016346998630350365,0.0006502202455874032,-0.0002293266224197783,0.0005368049847607008,0.00017997630513797946,-0.00040718418366896735,0.0005144782270649252,0.3752071261405945,19.717248916625977,0.3990752398967743,-20.082735061645508,-0.6063743233680725,-2.4694857597351074,0.26217979192733765,0
30,0.1442275047302246,-0.3514034152030945,-19.717248916625977,-0.3990752398967743,20.054964065551758,0.6063743233680725,2.4566683769226074,-0.28232139348983765,0.0,0.0,0.0,0.0,0.0,0.0,0.0,-0.37646199572984207,0.010613429824063261,-0.1994298865182998,0.3039535785096336,0.015276828395549965,0.10603041048072831,-0.2730029042061719,1.2135090663600383,-0.22034687760030242,-0.007503769829890776,-2.6040904332211143,-0.10892253535550774,2.4682233594788445,0.8264826662575312,1.2134413937687574,-0.2202432315892585,-0.0075118285948192216,-2.6038483821997875,-0.10888392708698907,2.4681821257803174,0.826474908251239,-0.000971376688339506,-0.00018261969590959107,0.00041412857751419157,0.0007394207215279181,-0.0002136119649306419,0.000855601878694102,0.0004496879320095935,0.0,0.0,0.0,0.0,0.0,0.0,0.0,-6.767259128093173e-05,0.00010364601104392857,-8.058764928445261e-06,0.00024205102132679457,3.860826851866117e-05,-4.1233698527154417e-05,-7.758006292157837e-06,0.000971376688339506,0.00018261969590959107,-0.00041412857751419157,-0.0007394207215279181,0.0002136119649306419,-0.000855601878694102,-0.0004496879320095935,0.3514034152030945,19.717248916625977,0.3990752398967743,-20.054964065551758,-0.6063743233680725,-2.4566683769226074,0.28232139348983765,0
31,0.1492595672607422,-0.3514034152030945,-19.717248916625977,-0.3990752398967743,20.054964065551758,0.6063743233680725,2.4566683769226074,-0.28232139348983765,0.0,0.0,0.0,0.0,0.0,0.0,0.0,-0.37646199572984207,0.010613429824063261,-0.1994298865182998,0.3039535785096336,0.015276828395549965,0.10603041048072831,-0.2730029042061719,1.2135090663600383,-0.22034687760030242,-0.007503769829890776,-2.6040904332211143,-0.10892253535550774,2.4682233594788445,0.8264826662575312,1.2134413937687574,-0.2202432315892585,-0.0075118285948192216,-2.6038483821997875,-0.10888392708698907,2.4681821257803174,0.826474908251239,-0.000971376688339506,-0.00018261969590959107,0.00041412857751419157,0.0007394207215279181,-0.0002136119649306419,0.000855601878694102,0.0004496879320095935,0.0,0.0,0.0,0.0,0.0,0.0,0.0,-6.767259128093173e-05,0.00010364601104392857,-8.058764928445261e-06,0.00024205102132679457,3.860826851866117e-05,-4.1233698527154417e-05,-7.758006292157837e-06,0.000971376688339506,0.00018261969590959107,-0.00041412857751419157,-0.0007394207215279181,0.0002136119649306419,-0.000855601878694102,-0.0004496879320095935,0.3514034152030945,19.717248916625977,0.3990752398967743,-20.054964065551758,-0.6063743233680725,-2.4566683769226074,0.28232139348983765,0
32,0.15425682067871094,-0.4029781222343445,-19.745019912719727,-0.3990752398967743,20.054964065551758,0.6063743233680725,2.4951205253601074,-0.27591270208358765,0.0,0.0,0.0,0.0,0.0,0.0,0.0,-0.3782825349758806,0.008474286518887398,-0.19845274843908917,0.3036904463935497,0.01564284928733768,0.10582587499218306,-0.2737342718553076,1.2135126856377247,-0.22034492940665695,-0.007501402433627642,-2.6040904332211143,-0.10892711105309649,2.468219087017907,0.8264814466765531,1.2134413937687574,-0.2202432315892585,-0.0075118285948192216,-2.6038483821997875,-0.10888392708698907,2.4681821257803174,0.826474908251239,0.0008085608997568204,0.0004841338264681283,-4.977854638072943e-05,0.0003196706365122853,-0.0002465988271937809,-0.0007480036174776016,0.00024969165589747833,0.0,0.0,0.0,0.0,0.0,0.0,0.0,-7.129186896737139e-05,0.00010169781739846617,-1.0426161191579193e-05,0.00024205102132679457,4.318396610741848e-05,-3.696123758967218e-05,-6.538425314062124e-06,-0.0008085608997568204,-0.0004841338264681283,4.977854638072943e-05,-0.0003196706365122853,0.0002465988271937809,0.0007480036174776016,-0.00024969165589747833,0.4029781222343445,19.745019912719727,0.3990752398967743,-20.054964065551758,-0.6063743233680725,-2.4951205253601074,0.27591270208358765,0
33,0.15927886962890625,-0.4029781222343445,-19.745019912719727,-0.3990752398967743,20.054964065551758,0.6063743233680725,2.4951205253601074,-0.27591270208358765,0.0,0.0,0.0,0.0,0.0,0.0,0.0,-0.3782825349758806,0.008474286518887398,-0.19845274843908917,0.3036904463935497,0.01564284928733768,0.10582587499218306,-0.2737342718553076,1.2135126856377247,-0.22034492940665695,-0.007501402433627642,-2.6040904332211143,-0.10892711105309649,2.468219087017907,0.8264814466765531,1.2134413937687574,-0.2202432315892585,-0.0075118285948192216,-2.6038483821997875,-0.10888392708698907,2.4681821257803174,0.826474908251239,0.0008085608997568204,0.0004841338264681283,-4.977854638072943e-05,0.0003196706365122853,-0.0002465988271937809,-0.0007480036174776016,0.00024969165589747833,0.0,0.0,0.0,0.0,0.0,0.0,0.0,-7.129186896737139e-05,0.00010169781739846617,-1.0426161191579193e-05,0.00024205102132679457,4.318396610741848e-05,-3.696123758967218e-05,-6.538425314062124e-06,-0.0008085608997568204,-0.0004841338264681283,4.977854638072943e-05,-0.0003196706365122853,0.0002465988271937809,0.0007480036174776016,-0.00024969165589747833,0.4029781222343445,19.745019912719727,0.3990752398967743,-20.054964065551758,-0.6063743233680725,-2.4951205253601074,0.27591270208358765,0
34,0.16419720649719238,-0.3752071261405945,-19.717248916625977,-0.3990752398967743,20.054964065551758,0.5999656319618225,2.4823031425476074,-0.29605430364608765,0.0,0.0,0.0,0.0,0.0,0.0,0.0,-0.3836402409648613,0.008402791964729149,-0.2049098170330924,0.3018618442368204,0.016025987229109577,0.10600796154788288,-0.2751754028077593,1.2135107367958937,-0.2203468520028251,-0.007504392176211129,-2.6040904332211143,-0.10892225692368433,2.468220511333058,0.8264838301997828,1.2134413937687574,-0.2202432315892585,-0.0075118285948192216,-2.6038483821997875,-0.10888392708698907,2.4681821257803174,0.826474908251239,-0.00030618432744648256,-0.00029885047080896357,-0.000795693792243913,0.0002826894765774884,-1.529361118619675e-05,-0.00030361827295981726,0.0005091633708877642,0.0,0.0,0.0,0.0,0.0,0.0,0.0,-6.934302713634821e-05,0.0001036204135666241,-7.436418608092188e-06,0.00024205102132679457,3.832983669525836e-05,-3.838555274082722e-05,-8.921948543738623e-06,0.00030618432744648256,0.00029885047080896357,0.000795693792243913,-0.0002826894765774884,1.529361118619675e-05,0.00030361827295981726,-0.0005091633708877642,0.3752071261405945,19.717248916625977,0.3990752398967743,-20.054964065551758,-0.5999656319618225,-2.4823031425476074,0.29605430364608765,0
35,0.16923761367797852,-0.3752071261405945,-19.717248916625977,-0.3990752398967743,20.054964065551758,0.5999656319618225,2.4823031425476074,-0.29605430364608765,0.0,0.0,0.0,0.0,0.0,0.0,0.0,-0.3836402409648613,0.008402791964729149,-0.2049098170330924,0.3018618442368204,0.016025987229109577,0.10600796154788288,-0.2751754028077593,1.2135107367958937,-0.2203468520028251,-0.007504392176211129,-2.6040904332211143,-0.10892225692368433,2.468220511333058,0.8264838301997828,1.2134413937687574,-0.2202432315892585,-0.0075118285948192216,-2.6038483821997875,-0.10888392708698907,2.4681821257803174,0.826474908251239,-0.00030618432744648256,-0.00029885047080896357,-0.000795693792243913,0.0002826894765774884,-1.529361118619675e-05,-0.00030361827295981726,0.0005091633708877642,0.0,0.0,0.0,0.0,0.0,0.0,0.0,-6.934302713634821e-05,0.0001036204135666241,-7.436418608092188e-06,0.00024205102132679457,3.832983669525836e-05,-3.838555274082722e-05,-8.921948543738623e-06,0.00030618432744648256,0.00029885047080896357,0.000795693792243913,-0.0002826894765774884,1.529361118619675e-05,0.00030361827295981726,-0.0005091633708877642,0.3752071261405945,19.717248916625977,0.3990752398967743,-20.054964065551758,-0.5999656319618225,-2.4823031425476074,0.29605430364608765,0
36,0.17422747611999512,-0.4029781222343445,-19.717248916625977,-0.4228789508342743,20.082735061645508,0.6063743233680725,2.4694857597351074,-0.26217979192733765,0.0,0.0,0.0,0.0,0.0,0.0,0.0,-0.37935388617350674,0.007752451032228197,-0.20052675780309293,0.3057664280637465,0.01591114333815219,0.10620100567431458,-0.27570181442161185,1.2135126856377247,-0.22034687760030244,-0.007499615098371421,-2.604093071772537,-0.10892407782592158,2.4682219353251997,0.8264803929302578,1.2134413937687574,-0.2202432315892585,-0.0075118285948192216,-2.6038483821997875,-0.10888392708698907,2.4681821257803174,0.826474908251239,0.0006049938298754267,3.896974777652209e-06,0.0005877455499157122,0.00031410118126201354,-0.0003201956000838461,0.0002359753337104116,-0.0004410609075149806,0.0,0.0,0.0,0.0,0.0,0.0,0.0,-7.129186896737139e-05,0.00010364601104395632,-1.2213496447800905e-05,0.0002446895727494791,4.0150738932501207e-05,-3.980954488236321e-05,-5.484679018730176e-06,-0.0006049938298754267,-3.896974777652209e-06,-0.0005877455499157122,-0.00031410118126201354,0.0003201956000838461,-0.0002359753337104116,0.0004410609075149806,0.4029781222343445,19.717248916625977,0.4228789508342743,-20.082735061645508,-0.6063743233680725,-2.4694857597351074,0.26217979192733765,0
37,0.17936301231384277,-0.4029781222343445,-19.717248916625977,-0.4228789508342743,20.082735061645508,0.6063743233680725,2.4694857597351074,-0.26217979192733765,0.0,0.0,0.0,0.0,0.0,0.0,0.0,-0.37935388617350674,0.007752451032228197,-0.20052675780309293,0.3057664280637465,0.01591114333815219,0.10620100567431458,-0.27570181442161185,1.2135126856377247,-0.22034687760030244,-0.007499615098371421,-2.604093071772537,-0.10892407782592158,2.4682219353251997,0.8264803929302578,1.2134413937687574,-0.2202432315892585,-0.0075118285948192216,-2.6038483821997875,-0.10888392708698907,2.4681821257803174,0.826474908251239,0.0006049938298754267,3.896974777652209e-06,0.0005877455499157122,0.00031410118126201354,-0.0003201956000838461,0.0002359753337104116,-0.0004410609075149806,0.0,0.0,0.0,0.0,0.0,0.0,0.0,-7.129186896737139e-05,0.00010364601104395632,-1.2213496447800905e-05,0.0002446895727494791,4.0150738932501207e-05,-3.980954488236321e-05,-5.484679018730176e-06,-0.0006049938298754267,-3.896974777652209e-06,-0.0005877455499157122,-0.00031410118126201354,0.0003201956000838461,-0.0002359753337104116,0.0004410609075149806,0.4029781222343445,19.717248916625977,0.4228789508342743,-20.082735061645508,-0.6063743233680725,-2.4694857597351074,0.26217979192733765,0
38,0.18425297737121582,-0.3236324191093445,-19.717248916625977,-0.4228789508342743,20.106538772583008,0.5999656319618225,2.4758944511413574,-0.28964561223983765,0.0,0.0,0.0,0.0,0.0,0.0,0.0,-0.38390109417433066,0.019009795079662155,-0.20537100319724272,0.29843676937020447,0.015770359381444502,0.1044091199974447,-0.27535659480303,1.2135071175182073,-0.22034685232684204,-0.007500360409074152,-2.604094052502694,-0.10892538641201778,2.468221223248376,0.8264824247821577,1.2134413937687574,-0.2202432315892585,-0.0075118285948192216,-2.6038483821997875,-0.10888392708698907,2.4681821257803174,0.826474908251239,-0.0015442459012021867,0.00045360223546911475,0.0003111654807725312,-0.0008645574013381787,-2.3421260488069528e-05,0.0001579405842554154,0.0006812960505092199,0.0,0.0,0.0,0.0,0.0,0.0,0.0,-6.572374944990855e-05,0.0001036207375835485,-1.146818574506922e-05,0.00024567030290656433,4.145932502870597e-05,-3.909746805863534e-05,-7.516530918683095e-06,0.0015442459012021867,-0.00045360223546911475,-0.0003111654807725312,0.0008645574013381787,2.3421260488069528e-05,-0.0001579405842554154,-0.0006812960505092199,0.3236324191093445,19.717248916625977,0.4228789508342743,-20.106538772583008,-0.5999656319618225,-2.4758944511413574,0.28964561223983765,0
39,0.18923258781433105,-0.3236324191093445,-19.717248916625977,-0.4228789508342743,20.106538772583008,0.5999656319618225,2.4758944511413574,-0.28964561223983765,0.0,0.0,0.0,0.0,0.0,0.0,0.0,-0.38390109417433066,0.019009795079662155,-0.20537100319724272,0.29843676937020447,0.015770359381444502,0.1044091199974447,-0.27535659480303,1.2135071175182073,-0.22034685232684204,-0.007500360409074152,-2.604094052502694,-0.10892538641201778,2.468221223248376,0.8264824247821577,1.2134413937687574,-0.2202432315892585,-0.0075118285948192216,-2.6038483821997875,-0.10888392708698907,2.4681821257803174,0.826474908251239,-0.0015442459012021867,0.00045360223546911475,0.0003111654807725312,-0.0008645574013381787,-2.3421260488069528e-05,0.0001579405842554154,0.0006812960505092199,0.0,0.0,0.0,0.0,0.0,0.0,0.0,-6.572374944990855e-05,0.0001036207375835485,-1.146818574506922e-05,0.00024567030290656433,4.145932502870597e-05,-3.909746805863534e-05,-7.516530918683095e-06,0.0015442459012021867,-0.00045360223546911475,-0.0003111654807725312,0.0008645574013381787,2.3421260488069528e-05,-0.0001579405842554154,-0.0006812960505092199,0.3236324191093445,19.717248916625977,0.4228789508342743,-20.106538772583008,-0.5999656319618225,-2.4758944511413574,0.28964561223983765,0
40,0.19454336166381836,-0.3752071261405945,-19.717248916625977,-0.4228789508342743,20.082735061645508,0.5880637764930725,2.4823031425476074,-0.25485557317733765,0.0,0.0,0.0,0.0,0.0,0.0,0.0,-0.3829594633152536,0.014325743060293689,-0.2065828740075503,0.3056883319432606,0.01591414224029803,0.1058288741396801,-0.27565601633727654,1.2135107367958937,-0.22034679951134553,-0.007502695260341857,-2.6040923820629454,-0.10892507462085048,2.4682205111715527,0.8264785417739016,1.2134413937687574,-0.2202432315892585,-0.0075118285948192216,-2.6038483821997875,-0.10888392708698907,2.4681821257803174,0.826474908251239,6.078401442490794e-05,0.000337158682041743,0.00024396883543687051,3.7039975207663926e-05,0.000578489435464024,-6.234444867444072e-05,-0.00039213975727403857,0.0,0.0,0.0,0.0,0.0,0.0,0.0,-6.934302713634821e-05,0.00010356792208704446,-9.133334477364786e-06,0.00024399986315781774,4.1147533861404795e-05,-3.838539123535156e-05,-3.6335226625272554e-06,-6.078401442490794e-05,-0.000337158682041743,-0.00024396883543687051,-3.7039975207663926e-05,-0.000578489435464024,6.234444867444072e-05,0.00039213975727403857,0.3752071261405945,19.717248916625977,0.4228789508342743,-20.082735061645508,-0.5880637764930725,-2.4823031425476074,0.25485557317733765,0
41,0.1992478370666504,-0.3752071261405945,-19.717248916625977,-0.4228789508342743,20.082735061645508,0.5880637764930725,2.4823031425476074,-0.25485557317733765,0.0,0.0,0.0,0.0,0.0,0.0,0.0,-0.3829594633152536,0.014325743060293689,-0.2065828740075503,0.3056883319432606,0.01591414224029803,0.1058288741396801,-0.27565601633727654,1.2135107367958937,-0.22034679951134553,-0.007502695260341857,-2.6040923820629454,-0.10892507462085048,2.4682205111715527,0.8264785417739016,1.2134413937687574,-0.2202432315892585,-0.0075118285948192216,-2.6038483821997875,-0.10888392708698907,2.4681821257803174,0.826474908251239,6.078401442490794e-05,0.000337158682041743,0.00024396883543687051,3.7039975207663926e-05,0.000578489435464024,-6.234444867444072e-05,-0.00039213975727403857,0.0,0.0,0.0,0.0,0.0,0.0,0.0,-6.934302713634821e-05,0.00010356792208704446,-9.133334477364786e-06,0.00024399986315781774,4.1147533861404795e-05,-3.838539123535156e-05,-3.6335226625272554e-06,-6.078401442490794e-05,-0.000337158682041743,-0.00024396883543687051,-3.7039975207663926e-05,-0.000578489435464024,6.234444867444072e-05,0.00039213975727403857,0.3752071261405945,19.717248916625977,0.4228789508342743,-20.082735061645508,-0.5880637764930725,-2.4823031425476074,0.25485557317733765,0
42,0.20427656173706055,-0.3752071261405945,-19.717248916625977,-0.3713042438030243,20.054964065551758,0.5999656319618225,2.4758944511413574,-0.29605430364608765,0.0,0.0,0.0,0.0,0.0,0.0,0.0,-0.37969462550241234,0.012069978995374145,-0.20680858455135068,0.3086459999715584,0.016004184040523246,0.10645107591984211,-0.2746190100086483,1.2135107367958937,-0.22034687857206786,-0.007503973786840162,-2.6040904360555372,-0.10892644151490441,2.468221223248376,0.826484077300134,1.2134413937687574,-0.2202432315892585,-0.0075118285948192216,-2.6038483821997875,-0.10888392708698907,2.4681821257803174,0.826474908251239,5.243383609948737e-05,-0.0001925501938608945,-0.0008550285813691914,0.000824547438532585,0.00017467383257870528,0.0001455961146661598,0.0010625818473940884,0.0,0.0,0.0,0.0,0.0,0.0,0.0,-6.934302713634821e-05,0.00010364698280937445,-7.854807979059374e-06,0.00024205385574971316,4.251442791533555e-05,-3.909746805863534e-05,-9.169048894919207e-06,-5.243383609948737e-05,0.0001925501938608945,0.0008550285813691914,-0.000824547438532585,-0.00017467383257870528,-0.0001455961146661598,-0.0010625818473940884,0.3752071261405945,19.717248916625977,0.3713042438030243,-20.054964065551758,-0.5999656319618225,-2.4758944511413574,0.29605430364608765,0
43,0.20927762985229492,-0.3752071261405945,-19.717248916625977,-0.3713042438030243,20.054964065551758,0.5999656319618225,2.4758944511413574,-0.29605430364608765,0.0,0.0,0.0,0.0,0.0,0.0,0.0,-0.37969462550241234,0.012069978995374145,-0.20680858455135068,0.3086459999715584,0.016004184040523246,0.10645107591984211,-0.2746190100086483,1.2135107367958937,-0.22034687857206786,-0.007503973786840162,-2.6040904360555372,-0.10892644151490441,2.468221223248376,0.826484077300134,1.2134413937687574,-0.2202432315892585,-0.0075118285948192216,-2.6038483821997875,-0.10888392708698907,2.4681821257803174,0.826474908251239,5.243383609948737e-05,-0.0001925501938608945,-0.0008550285813691914,0.000824547438532585,0.00017467383257870528,0.0001455961146661598,0.0010625818473940884,0.0,0.0,0.0,0.0,0.0,0.0,0.0,-6.934302713634821e-05,0.00010364698280937445,-7.854807979059374e-06,0.00024205385574971316,4.251442791533555e-05,-3.909746805863534e-05,-9.169048894919207e-06,-5.243383609948737e-05,0.0001925501938608945,0.0008550285813691914,-0.000824547438532585,-0.00017467383257870528,-0.0001455961146661598,-0.0010625818473940884,0.3752071261405945,19.717248916625977,0.3713042438030243,-20.054964065551758,-0.5999656319618225,-2.4758944511413574,0.29605430364608765,0
44,0.21422743797302246,-0.3752071261405945,-19.717248916625977,-0.3713042438030243,20.054964065551758,0.5999656319618225,2.4758944511413574,-0.29605430364608765,0.0,0.0,0.0,0.0,0.0,0.0,0.0,-0.37969462550241234,0.012069978995374145,-0.20680858455135068,0.3086459999715584,0.016004184040523246,0.10645107591984211,-0.2746190100086483,1.2135107367958937,-0.22034687857206786,-0.007503973786840162,-2.6040904360555372,-0.10892644151490441,2.468221223248376,0.826484077300134,1.2134413937687574,-0.2202432315892585,-0.0075118285948192216,-2.6038483821997875,-0.10888392708698907,2.4681821257803174,0.826474908251239,5.243383609948737e-05,-0.0001925501938608945,-0.0008550285813691914,0.000824547438532585,0.00017467383257870528,0.0001455961146661598,0.0010625818473940884,0.0,0.0,0.0,0.0,0.0,0.0,0.0,-6.934302713634821e-05,0.00010364698280937445,-7.854807979059374e-06,0.00024205385574971316,4.251442791533555e-05,-3.909746805863534e-05,-9.169048894919207e-06,-5.243383609948737e-05,0.0001925501938608945,0.0008550285813691914,-0.000824547438532585,-0.00017467383257870528,-0.0001455961146661598,-0.0010625818473940884,0.3752071261405945,19.717248916625977,0.3713042438030243,-20.054964065551758,-0.5999656319618225,-2.4758944511413574,0.29605430364608765,0
45,0.21919751167297363,-0.3752071261405945,-19.717248916625977,-0.3713042438030243,20.054964065551758,0.5999656319618225,2.4758944511413574,-0.29605430364608765,0.0,0.0,0.0,0.0,0.0,0.0,0.0,-0.37969462550241234,0.012069978995374145,-0.20680858455135068,0.3086459999715584,0.016004184040523246,0.10645107591984211,-0.2746190100086483,1.2135107367958937,-0.22034687857206786,-0.007503973786840162,-2.6040904360555372,-0.10892644151490441,2.468221223248376,0.826484077300134,1.2134413937687574,-0.2202432315892585,-0.0075118285948192216,-2.6038483821997875,-0.10888392708698907,2.4681821257803174,0.826474908251239,5.243383609948737e-05,-0.0001925501938608945,-0.0008550285813691914,0.000824547438532585,0.00017467383257870528,0.0001455961146661598,0.0010625818473940884,0.0,0.0,0.0,0.0,0.0,0.0,0.0,-6.934302713634821e-05,0.00010364698280937445,-7.854807979059374e-06,0.00024205385574971316,4.251442791533555e-05,-3.909746805863534e-05,-9.169048894919207e-06,-5.243383609948737e-05,0.0001925501938608945,0.0008550285813691914,-0.000824547438532585,-0.00017467383257870528,-0.0001455961146661598,-0.0010625818473940884,0.3752071261405945,19.717248916625977,0.3713042438030243,-20.054964065551758,-0.5999656319618225,-2.4758944511413574,0.29605430364608765,0
46,0.22422552108764648,-0.3236324191093445,-19.745019912719727,-0.3475005328655243,20.130342483520508,0.5944724678993225,2.4823031425476074,-0.26858848333358765,0.0,0.0,0.0,0.0,0.0,0.0,0.0,-0.3751495337060455,0.008666965502240791,-0.20065573479712168,0.3106091937974962,0.016223981233548745,0.10701165138302955,-0.27504916928755907,1.2135071175182073,-0.2203441948160151,-0.007505965367765333,-2.6040957260840307,-0.10892118699047705,2.4682205155322037,0.8264809833409363,1.2134413937687574,-0.2202432315892585,-0.0075118285948192216,-2.6038483821997875,-0.10888392708698907,2.4681821257803174,0.826474908251239,-0.0005442049500657883,-0.00014223137141510143,-0.0011587082525317052,-0.0008740799013656622,0.00032216223428968566,-0.00013175051959005653,2.5152122492662525e-06,0.0,0.0,0.0,0.0,0.0,0.0,0.0,-6.572374944990855e-05,0.00010096322675662295,-5.86322705388876e-06,0.00024734388424318965,3.72599034879767e-05,-3.8389751886303e-05,-6.075089697299418e-06,0.0005442049500657883,0.00014223137141510143,0.0011587082525317052,0.0008740799013656622,-0.00032216223428968566,0.00013175051959005653,-2.5152122492662525e-06,0.3236324191093445,19.745019912719727,0.3475005328655243,-20.130342483520508,-0.5944724678993225,-2.4823031425476074,0.26858848333358765,0
47,0.22926807403564453,-0.3236324191093445,-19.745019912719727,-0.3475005328655243,20.130342483520508,0.5944724678993225,2.4823031425476074,-0.26858848333358765,0.0,0.0,0.0,0.0,0.0,0.0,0.0,-0.3751495337060455,0.008666965502240791,-0.20065573479712168,0.3106091937974962,0.016223981233548745,0.10701165138302955,-0.27504916928755907,1.2135071175182073,-0.2203441948160151,-0.007505965367765333,-2.6040957260840307,-0.10892118699047705,2.4682205155322037,0.8264809833409363,1.2134413937687574,-0.2202432315892585,-0.0075118285948192216,-2.6038483821997875,-0.10888392708698907,2.4681821257803174,0.826474908251239,-0.0005442049500657883,-0.00014223137141510143,-0.0011587082525317052,-0.0008740799013656622,0.00032216223428968566,-0.00013175051959005653,2.5152122492662525e-06,0.0,0.0,0.0,0.0,0.0,0.0,0.0,-6.572374944990855e-05,0.00010096322675662295,-5.86322705388876e-06,0.00024734388424318965,3.72599034879767e-05,-3.8389751886303e-05,-6.075089697299418e-06,0.0005442049500657883,0.00014223137141510143,0.0011587082525317052,0.0008740799013656622,-0.00032216223428968566,0.00013175051959005653,-2.5152122492662525e-06,0.3236324191093445,19.745019912719727,0.3475005328655243,-20.130342483520508,-0.5944724678993225,-2.4823031425476074,0.26858848333358765,0
48,0.23424363136291504,-0.3236324191093445,-19.745019912719727,-0.3475005328655243,20.130342483520508,0.5944724678993225,2.4823031425476074,-0.26858848333358765,0.0,0.0,0.0,0.0,0.0,0.0,0.0,-0.3751495337060455,0.008666965502240791,-0.20065573479712168,0.3106091937974962,0.016223981233548745,0.10701165138302955,-0.27504916928755907,1.2135071175182073,-0.2203441948160151,-0.007505965367765333,-2.6040957260840307,-0.10892118699047705,2.4682205155322037,0.8264809833409363,1.2134413937687574,-0.2202432315892585,-0.0075118285948192216,-2.6038483821997875,-0.10888392708698907,2.4681821257803174,0.826474908251239,-0.0005442049500657883,-0.00014223137141510143,-0.0011587082525317052,-0.0008740799013656622,0.00032216223428968566,-0.00013175051959005653,2.5152122492662525e-06,0.0,0.0,0.0,0.0,0.0,0.0,0.0,-6.572374944990855e-05,0.00010096322675662295,-5.86322705388876e-06,0.00024734388424318965,3.72599034879767e-05,-3.8389751886303e-05,-6.075089697299418e-06,0.0005442049500657883,0.00014223137141510143,0.0011587082525317052,0.0008740799013656622,-0.00032216223428968566,0.00013175051959005653,-2.5152122492662525e-06,0.3236324191093445,19.745019912719727,0.3475005328655243,-20.130342483520508,-0.5944724678993225,-2.4823031425476074,0.26858848333358765,0
49,0.23923373222351074,-0.3514034152030945,-19.768823623657227,-0.3475005328655243,20.082735061645508,0.5944724678993225,2.4887118339538574,-0.31711143255233765,0.0,0.0,0.0,0.0,0.0,0.0,0.0,-0.3796192944647379,0.0166315460461134,-0.20722939651123484,0.3016739548179577,0.016668557124844507,0.10612815304464668,-0.2749458673325094,1.213509065378892,-0.22034247094861856,-0.007505967390122401,-2.6040923824128916,-0.10892164665432055,2.4682201523612997,0.8264861828031973,1.2134413937687574,-0.2202432315892585,-0.0075118285948192216,-2.6038483821997875,-0.10888392708698907,2.4681821257803174,0.826474908251239,-0.0004620678599015279,0.000821244308380817,-0.0011570186421649658,-0.00018120956631327998,0.00036994453454053616,-0.0002520425911742971,0.0018644255479261713,0.0,0.0,0.0,0.0,0.0,0.0,0.0,-6.767161013465639e-05,9.923935936007044e-05,-5.861204696820492e-06,0.0002440002131041119,3.7719567331478965e-05,-3.802658098228662e-05,-1.1274551958262435e-05,0.0004620678599015279,-0.000821244308380817,0.0011570186421649658,0.00018120956631327998,-0.00036994453454053616,0.0002520425911742971,-0.0018644255479261713,0.3514034152030945,19.768823623657227,0.3475005328655243,-20.082735061645508,-0.5944724678993225,-2.4887118339538574,0.31711143255233765,0
50,0.2442317008972168,-0.3514034152030945,-19.768823623657227,-0.3475005328655243,20.082735061645508,0.5944724678993225,2.4887118339538574,-0.31711143255233765,0.0,0.0,0.0,0.0,0.0,0.0,0.0,-0.3796192944647379,0.0166315460461134,-0.20722939651123484,0.3016739548179577,0.016668557124844507,0.10612815304464668,-0.2749458673325094,1.213509065378892,-0.22034247094861856,-0.007505967390122401,-2.6040923824128916,-0.10892164665432055,2.4682201523612997,0.8264861828031973,1.2134413937687574,-0.2202432315892585,-0.0075118285948192216,-2.6038483821997875,-0.10888392708698907,2.4681821257803174,0.826474908251239,-0.0004620678599015279,0.000821244308380817,-0.0011570186421649658,-0.00018120956631327998,0.00036994453454053616,-0.0002520425911742971,0.0018644255479261713,0.0,0.0,0.0,0.0,0.0,0.0,0.0,-6.767161013465639e-05,9.923935936007044e-05,-5.861204696820492e-06,0.0002440002131041119,3.7719567331478965e-05,-3.802658098228662e-05,-1.1274551958262435e-05,0.0004620678599015279,-0.000821244308380817,0.0011570186421649658,0.00018120956631327998,-0.00036994453454053616,0.0002520425911742971,-0.0018644255479261713,0.3514034152030945,19.768823623657227,0.3475005328655243,-20.082735061645508,-0.5944724678993225,-2.4887118339538574,0.31711143255233765,0
51,0.2492368221282959,-0.3752071261405945,-19.717248916625977,-0.3990752398967743,20.054964065551758,0.6063743233680725,2.4823031425476074,-0.28232139348983765,0.0,0.0,0.0,0.0,0.0,0.0,0.0,-0.37884068044507346,0.009110932378772718,-0.20649186178831205,0.30475510242104925,0.017156317254438877,0.10756757911464103,-0.27471049233127315,1.213510736795892,-0.22034475267203377,-0.007504479024864792,-2.6040904342709013,-0.10892267149383719,2.4682215708103468,0.8264826706177631,1.2134413937687574,-0.2202432315892585,-0.0075118285948192216,-2.6038483821997875,-0.10888392708698907,2.4681821257803174,0.826474908251239,-0.00043302414851798194,-0.0002732073965707243,-0.00010824538379335996,0.0006198906022489213,-0.00023514620739553538,6.0319808509019855e-05,0.0001548501775550565,0.0,0.0,0.0,0.0,0.0,0.0,0.0,-6.934302713457186e-05,0.00010152108277527994,-7.349569954429383e-06,0.00024205207111371863,3.8744406848117974e-05,-3.94450300293947e-05,-7.762366524111108e-06,0.00043302414851798194,0.0002732073965707243,0.00010824538379335996,-0.0006198906022489213,0.00023514620739553538,-6.0319808509019855e-05,-0.0001548501775550565,0.3752071261405945,19.717248916625977,0.3990752398967743,-20.054964065551758,-0.6063743233680725,-2.4823031425476074,0.28232139348983765,0
52,0.25423359870910645,-0.3752071261405945,-19.717248916625977,-0.3990752398967743,20.054964065551758,0.6063743233680725,2.4823031425476074,-0.28232139348983765,0.0,0.0,0.0,0.0,0.0,0.0,0.0,-0.37884068044507346,0.009110932378772718,-0.20649186178831205,0.30475510242104925,0.017156317254438877,0.10756757911464103,-0.27471049233127315,1.213510736795892,-0.22034475267203377,-0.007504479024864792,-2.6040904342709013,-0.10892267149383719,2.4682215708103468,0.8264826706177631,1.2134413937687574,-0.2202432315892585,-0.0075118285948192216,-2.6038483821997875,-0.10888392708698907,2.4681821257803174,0.826474908251239,-0.00043302414851798194,-0.0002732073965707243,-0.00010824538379335996,0.0006198906022489213,-0.00023514620739553538,6.0319808509019855e-05,0.0001548501775550565,0.0,0.0,0.0,0.0,0.0,0.0,0.0,-6.934302713457186e-05,0.00010152108277527994,-7.349569954429383e-06,0.00024205207111371863,3.8744406848117974e-05,-3.94450300293947e-05,-7.762366524111108e-06,0.00043302414851798194,0.0002732073965707243,0.00010824538379335996,-0.0006198906022489213,0.00023514620739553538,-6.0319808509019855e-05,-0.0001548501775550565,0.3752071261405945,19.717248916625977,0.3990752398967743,-20.054964065551758,-0.6063743233680725,-2.4823031425476074,0.28232139348983765,0
53,0.25922632217407227,-0.4029781222343445,-19.693445205688477,-0.4228789508342743,20.106538772583008,0.6063743233680725,2.4758944511413574,-0.26858848333358765,0.0,0.0,0.0,0.0,0.0,0.0,0.0,-0.37463062832518695,0.011720918240821734,-0.19943185463896013,0.303562668645278,0.016968935789153827,0.10776357822648491,-0.27530680422312426,1.2135126856377247,-0.22034784036336968,-0.007499730811097976,-2.6040940524988065,-0.10892286393742998,2.468221223254358,0.826481144255005,1.2134413937687574,-0.2202432315892585,-0.0075118285948192216,-2.6038483821997875,-0.10888392708698907,2.4681821257803174,0.826474908251239,0.0008261946919543902,2.563648010886492e-05,0.0006358729329353684,-0.0003941785913298262,-0.000267590557143139,-3.1323527937406165e-05,0.00026064731308244276,0.0,0.0,0.0,0.0,0.0,0.0,0.0,-7.129186896737139e-05,0.00010460877411119784,-1.2097783721245862e-05,0.0002456702990190074,3.893685044090156e-05,-3.9097474040517e-05,-6.2360037659248135e-06,-0.0008261946919543902,-2.563648010886492e-05,-0.0006358729329353684,0.0003941785913298262,0.000267590557143139,3.1323527937406165e-05,-0.00026064731308244276,0.4029781222343445,19.693445205688477,0.4228789508342743,-20.106538772583008,-0.6063743233680725,-2.4758944511413574,0.26858848333358765,0
54,0.264254093170166,-0.4029781222343445,-19.693445205688477,-0.4228789508342743,20.106538772583008,0.6063743233680725,2.4758944511413574,-0.26858848333358765,0.0,0.0,0.0,0.0,0.0,0.0,0.0,-0.37463062832518695,0.011720918240821734,-0.19943185463896013,0.303562668645278,0.016968935789153827,0.10776357822648491,-0.27530680422312426,1.2135126856377247,-0.22034784036336968,-0.007499730811097976,-2.6040940524988065,-0.10892286393742998,2.468221223254358,0.826481144255005,1.2134413937687574,-0.2202432315892585,-0.0075118285948192216,-2.6038483821997875,-0.10888392708698907,2.4681821257803174,0.826474908251239,0.0008261946919543902,2.563648010886492e-05,0.0006358729329353684,-0.0003941785913298262,-0.000267590557143139,-3.1323527937406165e-05,0.00026064731308244276,0.0,0.0,0.0,0.0,0.0,0.0,0.0,-7.129186896737139e-05,0.00010460877411119784,-1.2097783721245862e-05,0.0002456702990190074,3.893685044090156e-05,-3.9097474040517e-05,-6.2360037659248135e-06,-0.0008261946919543902,-2.563648010886492e-05,-0.0006358729329353684,0.0003941785913298262,0.000267590557143139,3.1323527937406165e-05,-0.00026064731308244276,0.4029781222343445,19.693445205688477,0.4228789508342743,-20.106538772583008,-0.6063743233680725,-2.4758944511413574,0.26858848333358765,0
55,0.26923537254333496,-0.3752071261405945,-19.717248916625977,-0.4228789508342743,20.082735061645508,0.5999656319618225,2.4630770683288574,-0.30337852239608765,0.0,0.0,0.0,0.0,0.0,0.0,0.0,-0.3767332320559756,0.008108497916910271,-0.20213800084061198,0.30413732380917835,0.016681907984902482,0.10714167662407499,-0.27488273556275267,1.2135107367958937,-0.22034687856851384,-0.007502020358945585,-2.6040923820629454,-0.10892288923721852,2.4682226474020217,0.8264807672247413,1.2134413937687574,-0.2202432315892585,-0.0075118285948192216,-2.6038483821997875,-0.10888392708698907,2.4681821257803174,0.826474908251239,-0.00028097143476100457,-0.0001366647025832038,0.00010236458672336084,-0.00044312584557122225,6.276333231641672e-05,0.0004914273925865173,0.0008101393644420401,0.0,0.0,0.0,0.0,0.0,0.0,0.0,-6.934302713634821e-05,0.00010364697925535626,-9.808235873636634e-06,0.00024399986315781774,3.896215022944349e-05,-4.0521621704314725e-05,-5.85897350224851e-06,0.00028097143476100457,0.0001366647025832038,-0.00010236458672336084,0.00044312584557122225,-6.276333231641672e-05,-0.0004914273925865173,-0.0008101393644420401,0.3752071261405945,19.717248916625977,0.4228789508342743,-20.082735061645508,-0.5999656319618225,-2.4630770683288574,0.30337852239608765,0
56,0.2742574214935303,-0.3752071261405945,-19.717248916625977,-0.4228789508342743,20.082735061645508,0.5999656319618225,2.4630770683288574,-0.30337852239608765,0.0,0.0,0.0,0.0,0.0,0.0,0.0,-0.3767332320559756,0.008108497916910271,-0.20213800084061198,0.30413732380917835,0.016681907984902482,0.10714167662407499,-0.27488273556275267,1.2135107367958937,-0.22034687856851384,-0.007502020358945585,-2.6040923820629454,-0.10892288923721852,2.4682226474020217,0.8264807672247413,1.2134413937687574,-0.2202432315892585,-0.0075118285948192216,-2.6038483821997875,-0.10888392708698907,2.4681821257803174,0.826474908251239,-0.00028097143476100457,-0.0001366647025832038,0.00010236458672336084,-0.00044312584557122225,6.276333231641672e-05,0.0004914273925865173,0.0008101393644420401,0.0,0.0,0.0,0.0,0.0,0.0,0.0,-6.934302713634821e-05,0.00010364697925535626,-9.808235873636634e-06,0.00024399986315781774,3.896215022944349e-05,-4.0521621704314725e-05,-5.85897350224851e-06,0.00028097143476100457,0.0001366647025832038,-0.00010236458672336084,0.00044312584557122225,-6.276333231641672e-05,-0.0004914273925865173,-0.0008101393644420401,0.3752071261405945,19.717248916625977,0.4228789508342743,-20.082735061645508,-0.5999656319618225,-2.4630770683288574,0.30337852239608765,0
57,0.27923035621643066,-0.4029781222343445,-19.717248916625977,-0.4228789508342743,20.082735061645508,0.5944724678993225,2.4630770683288574,-0.24844686686992645,0.0,0.0,0.0,0.0,0.0,0.0,0.0,-0.38009118468599,0.009765006313040078,-0.20748384908068257,0.30563213993610594,0.016622064910700753,0.1069146011435603,-0.2743233555695494,1.2135126856377247,-0.22034664236151447,-0.007499862538913659,-2.6040923820629454,-0.10892133257410025,2.4682226474020217,0.8264787888591091,1.2134413937687574,-0.2202432315892585,-0.0075118285948192216,-2.6038483821997875,-0.10888392708698907,2.4681821257803174,0.826474908251239,0.0002747018926502971,-0.00023082914532066966,-0.0003501656663307639,-0.00032248288516621265,0.0003883751843228521,0.0008500101937939519,-0.0007225449390301465,0.0,0.0,0.0,0.0,0.0,0.0,0.0,-7.129186896737139e-05,0.00010341077225597961,-1.1966055905562704e-05,0.00024399986315781774,3.7405487111175084e-05,-4.0521621704314725e-05,-3.88060787004374e-06,-0.0002747018926502971,0.00023082914532066966,0.0003501656663307639,0.00032248288516621265,-0.0003883751843228521,-0.0008500101937939519,0.0007225449390301465,0.4029781222343445,19.717248916625977,0.4228789508342743,-20.082735061645508,-0.5944724678993225,-2.4630770683288574,0.24844686686992645,0
58,0.284198522567749,-0.4029781222343445,-19.717248916625977,-0.4228789508342743,20.082735061645508,0.5944724678993225,2.4630770683288574,-0.24844686686992645,0.0,0.0,0.0,0.0,0.0,0.0,0.0,-0.38009118468599,0.009765006313040078,-0.20748384908068257,0.30563213993610594,0.016622064910700753,0.1069146011435603,-0.2743233555695494,1.2135126856377247,-0.22034664236151447,-0.007499862538913659,-2.6040923820629454,-0.10892133257410025,2.4682226474020217,0.8264787888591091,1.2134413937687574,-0.2202432315892585,-0.0075118285948192216,-2.6038483821997875,-0.10888392708698907,2.4681821257803174,0.826474908251239,0.0002747018926502971,-0.00023082914532066966,-0.0003501656663307639,-0.00032248288516621265,0.0003883751843228521,0.0008500101937939519,-0.0007225449390301465,0.0,0.0,0.0,0.0,0.0,0.0,0.0,-7.129186896737139e-05,0.00010341077225597961,-1.1966055905562704e-05,0.00024399986315781774,3.7405487111175084e-05,-4.0521621704314725e-05,-3.88060787004374e-06,-0.0002747018926502971,0.00023082914532066966,0.0003501656663307639,0.00032248288516621265,-0.0003883751843228521,-0.0008500101937939519,0.0007225449390301465,0.4029781222343445,19.717248916625977,0.4228789508342743,-20.082735061645508,-0.5944724678993225,-2.4630770683288574,0.24844686686992645,0
59,0.289196252822876,-0.3752071261405945,-19.745019912719727,-0.3990752398967743,20.031160354614258,0.5944724678993225,2.4823031425476074,-0.23471395671367645,0.0,0.0,0.0,0.0,0.0,0.0,0.0,-0.37878537519940986,0.010878626721284906,-0.20371806154808922,0.305252731079119,0.01615505555895839,0.10737726043308268,-0.27337118029941326,1.2135107367958937,-0.2203427921656119,-0.007504163061668819,-2.604088762785259,-0.10892449128148966,2.4682205111715527,0.8264773402031581,1.2134413937687574,-0.2202432315892585,-0.0075118285948192216,-2.6038483821997875,-0.10888392708698907,2.4681821257803174,0.826474908251239,-3.0224019165971118e-05,0.00047085586567204425,-0.0003131430743073067,0.0015033874968037853,0.0003026887533208265,-7.45102256584902e-05,-0.000985745800021997,0.0,0.0,0.0,0.0,0.0,0.0,0.0,-6.934302713634821e-05,9.956057635340798e-05,-7.665533150402748e-06,0.00024038058547137808,4.0564194500589124e-05,-3.838539123535156e-05,-2.4319519190685313e-06,3.0224019165971118e-05,-0.00047085586567204425,0.0003131430743073067,-0.0015033874968037853,-0.0003026887533208265,7.45102256584902e-05,0.000985745800021997,0.3752071261405945,19.745019912719727,0.3990752398967743,-20.031160354614258,-0.5944724678993225,-2.4823031425476074,0.23471395671367645,0
60,0.29425644874572754,-0.3752071261405945,-19.745019912719727,-0.3990752398967743,20.031160354614258,0.5944724678993225,2.4823031425476074,-0.23471395671367645,0.0,0.0,0.0,0.0,0.0,0.0,0.0,-0.37878537519940986,0.010878626721284906,-0.20371806154808922,0.305252731079119,0.01615505555895839,0.10737726043308268,-0.27337118029941326,1.2135107367958937,-0.2203427921656119,-0.007504163061668819,-2.604088762785259,-0.10892449128148966,2.4682205111715527,0.8264773402031581,1.2134413937687574,-0.2202432315892585,-0.0075118285948192216,-2.6038483821997875,-0.10888392708698907,2.4681821257803174,0.826474908251239,-3.0224019165971118e-05,0.00047085586567204425,-0.0003131430743073067,0.0015033874968037853,0.0003026887533208265,-7.45102256584902e-05,-0.000985745800021997,0.0,0.0,0.0,0.0,0.0,0.0,0.0,-6.934302713634821e-05,9.956057635340798e-05,-7.665533150402748e-06,0.00024038058547137808,4.0564194500589124e-05,-3.838539123535156e-05,-2.4319519190685313e-06,3.0224019165971118e-05,-0.00047085586567204425,0.0003131430743073067,-0.0015033874968037853,-0.0003026887533208265,7.45102256584902e-05,0.000985745800021997,0.3752071261405945,19.745019912719727,0.3990752398967743,-20.031160354614258,-0.5944724678993225,-2.4823031425476074,0.23471395671367645,0
61,0.2992675304412842,-0.3752071261405945,-19.768823623657227,-0.3990752398967743,20.106538772583008,0.6063743233680725,2.4951205253601074,-0.26858848333358765,0.0,0.0,0.0,0.0,0.0,0.0,0.0,-0.37977484345951007,0.0080121397637161,-0.20423557774426015,0.3045058561736462,0.015977269906278253,0.10785169122223577,-0.2721459952231173,1.2135107367958937,-0.2203424715887417,-0.007501637829246129,-2.604096130130845,-0.10892261412478935,2.468219087017907,0.8264809877558654,1.2134413937687574,-0.2202432315892585,-0.0075118285948192216,-2.6038483821997875,-0.10888392708698907,2.4681821257803174,0.826474908251239,0.0003529516243452771,0.0006549302173666891,-8.19241441192153e-05,-0.0005462300432726763,-0.00021489061187748845,-0.00027807964591326133,-0.00017373538448952697,0.0,0.0,0.0,0.0,0.0,0.0,0.0,-6.934302713634821e-05,9.923999948321938e-05,-1.0190765573092966e-05,0.0002477479310574182,3.8687037800272384e-05,-3.696123758967218e-05,-6.079504626388399e-06,-0.0003529516243452771,-0.0006549302173666891,8.19241441192153e-05,0.0005462300432726763,0.00021489061187748845,0.00027807964591326133,0.00017373538448952697,0.3752071261405945,19.768823623657227,0.3990752398967743,-20.106538772583008,-0.6063743233680725,-2.4951205253601074,0.26858848333358765,0
62,0.30423831939697266,-0.3752071261405945,-19.768823623657227,-0.3990752398967743,20.106538772583008,0.6063743233680725,2.4951205253601074,-0.26858848333358765,0.0,0.0,0.0,0.0,0.0,0.0,0.0,-0.37977484345951007,0.0080121397637161,-0.20423557774426015,0.3045058561736462,0.015977269906278253,0.10785169122223577,-0.2721459952231173,1.2135107367958937,-0.2203424715887417,-0.007501637829246129,-2.604096130130845,-0.10892261412478935,2.468219087017907,0.8264809877558654,1.2134413937687574,-0.2202432315892585,-0.0075118285948192216,-2.6038483821997875,-0.10888392708698907,2.4681821257803174,0.826474908251239,0.0003529516243452771,0.0006549302173666891,-8.19241441192153e-05,-0.0005462300432726763,-0.00021489061187748845,-0.00027807964591326133,-0.00017373538448952697,0.0,0.0,0.0,0.0,0.0,0.0,0.0,-6.934302713634821e-05,9.923999948321938e-05,-1.0190765573092966e-05,0.0002477479310574182,3.8687037800272384e-05,-3.696123758967218e-05,-6.079504626388399e-06,-0.0003529516243452771,-0.0006549302173666891,8.19241441192153e-05,0.0005462300432726763,0.00021489061187748845,0.00027807964591326133,0.00017373538448952697,0.3752071261405945,19.768823623657227,0.3990752398967743,-20.106538772583008,-0.6063743233680725,-2.4951205253601074,0.26858848333358765,0
63,0.30927252769470215,-0.4029781222343445,-19.768823623657227,-0.3990752398967743,20.082735061645508,0.5944724678993225,2.4823031425476074,-0.30337852239608765,0.0,0.0,0.0,0.0,0.0,0.0,0.0,-0.3818822542081091,0.008368622668625413,-0.20727691473379295,0.2999972797153226,0.016711630566913258,0.10808883750467904,-0.27235055153509263,1.2135126856377247,-0.22034302307034515,-0.007504231158080005,-2.6040923820668547,-0.10892122639422779,2.468220512625103,0.82648499721717,1.2134413937687574,-0.2202432315892585,-0.0075118285948192216,-2.6038483821997875,-0.10888392708698907,2.4681821257803174,0.826474908251239,0.0007258290287766679,0.0005573523488142412,-0.00011571726626082212,-0.0001794476294151584,0.0002336509376140763,-0.00016620708754441597,0.0017483039884422112,0.0,0.0,0.0,0.0,0.0,0.0,0.0,-7.129186896737139e-05,9.979148108665847e-05,-7.597436739216652e-06,0.00024399986706713506,3.729930723871122e-05,-3.838684478552068e-05,-1.0088965930910021e-05,-0.0007258290287766679,-0.0005573523488142412,0.00011571726626082212,0.0001794476294151584,-0.0002336509376140763,0.00016620708754441597,-0.0017483039884422112,0.4029781222343445,19.768823623657227,0.3990752398967743,-20.082735061645508,-0.5944724678993225,-2.4823031425476074,0.30337852239608765,0
64,0.31424784660339355,-0.4029781222343445,-19.768823623657227,-0.3990752398967743,20.082735061645508,0.5944724678993225,2.4823031425476074,-0.30337852239608765,0.0,0.0,0.0,0.0,0.0,0.0,0.0,-0.3818822542081091,0.008368622668625413,-0.20727691473379295,0.2999972797153226,0.016711630566913258,0.10808883750467904,-0.27235055153509263,1.2135126856377247,-0.22034302307034515,-0.007504231158080005,-2.6040923820668547,-0.10892122639422779,2.468220512625103,0.82648499721717,1.2134413937687574,-0.2202432315892585,-0.0075118285948192216,-2.6038483821997875,-0.10888392708698907,2.4681821257803174,0.826474908251239,0.0007258290287766679,0.0005573523488142412,-0.00011571726626082212,-0.0001794476294151584,0.0002336509376140763,-0.00016620708754441597,0.0017483039884422112,0.0,0.0,0.0,0.0,0.0,0.0,0.0,-7.129186896737139e-05,9.979148108665847e-05,-7.597436739216652e-06,0.00024399986706713506,3.729930723871122e-05,-3.838684478552068e-05,-1.0088965930910021e-05,-0.0007258290287766679,-0.0005573523488142412,0.00011571726626082212,0.0001794476294151584,-0.0002336509376140763,0.00016620708754441597,-0.0017483039884422112,0.4029781222343445,19.768823623657227,0.3990752398967743,-20.082735061645508,-0.5944724678993225,-2.4823031425476074,0.30337852239608765,0
65,0.31923913955688477,-0.4029781222343445,-19.745019912719727,-0.3990752398967743,20.082735061645508,0.5944724678993225,2.4758944511413574,-0.26858848333358765,0.0,0.0,0.0,0.0,0.0,0.0,0.0,-0.3777496725682577,0.0074845475273308286,-0.20265039893881026,0.2968880028754966,0.016860049044329712,0.10764876047240518,-0.2726695685095589,1.2135126856377247,-0.22034280091416736,-0.0075013995136590005,-2.6040923820629454,-0.10892158661736608,2.468221223248384,0.8264811442549311,1.2134413937687574,-0.2202432315892585,-0.0075118285948192216,-2.6038483821997875,-0.10888392708698907,2.4681821257803174,0.826474908251239,0.000787015579635829,0.0001404704524105887,-8.150562973574373e-05,-0.0005722279456705331,0.00020849122618635162,0.00014684737026794057,-0.0003398201997826114,0.0,0.0,0.0,0.0,0.0,0.0,0.0,-7.129186896737139e-05,9.956932490887138e-05,-1.0429081160221072e-05,0.00024399986315781774,3.765953037700165e-05,-3.909746806662895e-05,-6.236003692094982e-06,-0.000787015579635829,-0.0001404704524105887,8.150562973574373e-05,0.0005722279456705331,-0.00020849122618635162,-0.00014684737026794057,0.0003398201997826114,0.4029781222343445,19.745019912719727,0.3990752398967743,-20.082735061645508,-0.5944724678993225,-2.4758944511413574,0.26858848333358765,0
66,0.32422900199890137,-0.4029781222343445,-19.745019912719727,-0.3990752398967743,20.082735061645508,0.5944724678993225,2.4758944511413574,-0.26858848333358765,0.0,0.0,0.0,0.0,0.0,0.0,0.0,-0.3777496725682577,0.0074845475273308286,-0.20265039893881026,0.2968880028754966,0.016860049044329712,0.10764876047240518,-0.2726695685095589,1.2135126856377247,-0.22034280091416736,-0.0075013995136590005,-2.6040923820629454,-0.10892158661736608,2.468221223248384,0.8264811442549311,1.2134413937687574,-0.2202432315892585,-0.0075118285948192216,-2.6038483821997875,-0.10888392708698907,2.4681821257803174,0.826474908251239,0.000787015579635829,0.0001404704524105887,-8.150562973574373e-05,-0.0005722279456705331,0.00020849122618635162,0.00014684737026794057,-0.0003398201997826114,0.0,0.0,0.0,0.0,0.0,0.0,0.0,-7.129186896737139e-05,9.956932490887138e-05,-1.0429081160221072e-05,0.00024399986315781774,3.765953037700165e-05,-3.909746806662895e-05,-6.236003692094982e-06,-0.000787015579635829,-0.0001404704524105887,8.150562973574373e-05,0.0005722279456705331,-0.00020849122618635162,-0.00014684737026794057,0.0003398201997826114,0.4029781222343445,19.745019912719727,0.3990752398967743,-20.082735061645508,-0.5944724678993225,-2.4758944511413574,0.26858848333358765,0
67,0.3292539119720459,-0.4029781222343445,-19.693445205688477,-0.3990752398967743,20.130342483520508,0.6063743233680725,2.4823031425476074,-0.29605430364608765,0.0,0.0,0.0,0.0,0.0,0.0,0.0,-0.3792919320056935,0.007256721638916722,-0.20328179195812776,0.29998409285093847,0.01694281917734188,0.10777992285917778,-0.27327337561033904,1.2135126856377247,-0.2203482855435897,-0.007503761010003935,-2.604095722934656,-0.1089267541902384,2.4682205111715527,0.8264841963358205,1.2134413937687574,-0.2202432315892585,-0.0075118285948192216,-2.6038483821997875,-0.10888392708698907,2.4681821257803174,0.826474908251239,0.00021340595673952125,-0.00030442400024933156,0.00015747632681691477,-0.001158851855950558,-0.0002891600411003956,-0.0002583758321105107,0.001184542031388927,0.0,0.0,0.0,0.0,0.0,0.0,0.0,-7.129186896737139e-05,0.000105053954331219,-8.067584815286966e-06,0.0002473407348686507,4.282710324932104e-05,-3.838539123535156e-05,-9.28808458144914e-06,-0.00021340595673952125,0.00030442400024933156,-0.00015747632681691477,0.001158851855950558,0.0002891600411003956,0.0002583758321105107,-0.001184542031388927,0.4029781222343445,19.693445205688477,0.3990752398967743,-20.130342483520508,-0.6063743233680725,-2.4823031425476074,0.29605430364608765,0
68,0.334228515625,-0.4029781222343445,-19.693445205688477,-0.3990752398967743,20.130342483520508,0.6063743233680725,2.4823031425476074,-0.29605430364608765,0.0,0.0,0.0,0.0,0.0,0.0,0.0,-0.3792919320056935,0.007256721638916722,-0.20328179195812776,0.29998409285093847,0.01694281917734188,0.10777992285917778,-0.27327337561033904,1.2135126856377247,-0.2203482855435897,-0.007503761010003935,-2.604095722934656,-0.1089267541902384,2.4682205111715527,0.8264841963358205,1.2134413937687574,-0.2202432315892585,-0.0075118285948192216,-2.6038483821997875,-0.10888392708698907,2.4681821257803174,0.826474908251239,0.00021340595673952125,-0.00030442400024933156,0.00015747632681691477,-0.001158851855950558,-0.0002891600411003956,-0.0002583758321105107,0.001184542031388927,0.0,0.0,0.0,0.0,0.0,0.0,0.0,-7.129186896737139e-05,0.000105053954331219,-8.067584815286966e-06,0.0002473407348686507,4.282710324932104e-05,-3.838539123535156e-05,-9.28808458144914e-06,-0.00021340595673952125,0.00030442400024933156,-0.00015747632681691477,0.001158851855950558,0.0002891600411003956,0.0002583758321105107,-0.001184542031388927,0.4029781222343445,19.693445205688477,0.3990752398967743,-20.130342483520508,-0.6063743233680725,-2.4823031425476074,0.29605430364608765,0
69,0.33925890922546387,-0.4029781222343445,-19.693445205688477,-0.3990752398967743,20.130342483520508,0.6063743233680725,2.4823031425476074,-0.29605430364608765,0.0,0.0,0.0,0.0,0.0,0.0,0.0,-0.3792919320056935,0.007256721638916722,-0.20328179195812776,0.29998409285093847,0.01694281917734188,0.10777992285917778,-0.27327337561033904,1.2135126856377247,-0.2203482855435897,-0.007503761010003935,-2.604095722934656,-0.1089267541902384,2.4682205111715527,0.8264841963358205,1.2134413937687574,-0.2202432315892585,-0.0075118285948192216,-2.6038483821997875,-0.10888392708698907,2.4681821257803174,0.826474908251239,0.00021340595673952125,-0.00030442400024933156,0.00015747632681691477,-0.001158851855950558,-0.0002891600411003956,-0.0002583758321105107,0.001184542031388927,0.0,0.0,0.0,0.0,0.0,0.0,0.0,-7.129186896737139e-05,0.000105053954331219,-8.067584815286966e-06,0.0002473407348686507,4.282710324932104e-05,-3.838539123535156e-05,-9.28808458144914e-06,-0.00021340595673952125,0.00030442400024933156,-0.00015747632681691477,0.001158851855950558,0.0002891600411003956,0.0002583758321105107,-0.001184542031388927,0.4029781222343445,19.693445205688477,0.3990752398967743,-20.130342483520508,-0.6063743233680725,-2.4823031425476074,0.29605430364608765,0
70,0.3442416191101074,-0.4029781222343445,-19.693445205688477,-0.3990752398967743,20.130342483520508,0.6063743233680725,2.4823031425476074,-0.29605430364608765,0.0,0.0,0.0,0.0,0.0,0.0,0.0,-0.3792919320056935,0.007256721638916722,-0.20328179195812776,0.29998409285093847,0.01694281917734188,0.10777992285917778,-0.27327337561033904,1.2135126856377247,-0.2203482855435897,-0.007503761010003935,-2.604095722934656,-0.1089267541902384,2.4682205111715527,0.8264841963358205,1.2134413937687574,-0.2202432315892585,-0.0075118285948192216,-2.6038483821997875,-0.10888392708698907,2.4681821257803174,0.826474908251239,0.00021340595673952125,-0.00030442400024933156,0.00015747632681691477,-0.001158851855950558,-0.0002891600411003956,-0.0002583758321105107,0.001184542031388927,0.0,0.0,0.0,0.0,0.0,0.0,0.0,-7.129186896737139e-05,0.000105053954331219,-8.067584815286966e-06,0.0002473407348686507,4.282710324932104e-05,-3.838539123535156e-05,-9.28808458144914e-06,-0.00021340595673952125,0.00030442400024933156,-0.00015747632681691477,0.001158851855950558,0.0002891600411003956,0.0002583758321105107,-0.001184542031388927,0.4029781222343445,19.693445205688477,0.3990752398967743,-20.130342483520508,-0.6063743233680725,-2.4823031425476074,0.29605430364608765,0
71,0.34923291206359863,-0.3514034152030945,-19.717248916625977,-0.3713042438030243,20.082735061645508,0.6118674874305725,2.4758944511413574,-0.24112264811992645,0.0,0.0,0.0,0.0,0.0,0.0,0.0,-0.37555478831718064,0.0034856988009225633,-0.19734164537001442,0.3042055074091466,0.0165700221773067,0.10739793520174871,-0.273245958652619,1.2135090663600383,-0.22034472642735478,-0.007506320395646669,-2.6040923820629454,-0.10892630042441974,2.468221223248376,0.8264780913649975,1.2134413937687574,-0.2202432315892585,-0.0075118285948192216,-2.6038483821997875,-0.10888392708698907,2.4681821257803174,0.826474908251239,-0.0005443240976228619,-0.0002210201003604899,-6.252448576301819e-05,-6.377614301970072e-05,-0.0005038997387693384,-9.6984863677084e-06,-0.00140672835075451,0.0,0.0,0.0,0.0,0.0,0.0,0.0,-6.767259128093173e-05,0.00010149483809629434,-5.508199172552138e-06,0.00024399986315781774,4.237333743066507e-05,-3.909746805863534e-05,-3.183113758464806e-06,0.0005443240976228619,0.0002210201003604899,6.252448576301819e-05,6.377614301970072e-05,0.0005038997387693384,9.6984863677084e-06,0.00140672835075451,0.3514034152030945,19.717248916625977,0.3713042438030243,-20.082735061645508,-0.6118674874305725,-2.4758944511413574,0.24112264811992645,0
72,0.3541867733001709,-0.3514034152030945,-19.717248916625977,-0.3713042438030243,20.082735061645508,0.6118674874305725,2.4758944511413574,-0.24112264811992645,0.0,0.0,0.0,0.0,0.0,0.0,0.0,-0.37555478831718064,0.0034856988009225633,-0.19734164537001442,0.3042055074091466,0.0165700221773067,0.10739793520174871,-0.273245958652619,1.2135090663600383,-0.22034472642735478,-0.007506320395646669,-2.6040923820629454,-0.10892630042441974,2.468221223248376,0.8264780913649975,1.2134413937687574,-0.2202432315892585,-0.0075118285948192216,-2.6038483821997875,-0.10888392708698907,2.4681821257803174,0.826474908251239,-0.0005443240976228619,-0.0002210201003604899,-6.252448576301819e-05,-6.377614301970072e-05,-0.0005038997387693384,-9.6984863677084e-06,-0.00140672835075451,0.0,0.0,0.0,0.0,0.0,0.0,0.0,-6.767259128093173e-05,0.00010149483809629434,-5.508199172552138e-06,0.00024399986315781774,4.237333743066507e-05,-3.909746805863534e-05,-3.183113758464806e-06,0.0005443240976228619,0.0002210201003604899,6.252448576301819e-05,6.377614301970072e-05,0.0005038997387693384,9.6984863677084e-06,0.00140672835075451,0.3514034152030945,19.717248916625977,0.3713042438030243,-20.082735061645508,-0.6118674874305725,-2.4758944511413574,0.24112264811992645,0
73,0.35924458503723145,-0.4029781222343445,-19.745019912719727,-0.3713042438030243,20.082735061645508,0.5944724678993225,2.4758944511413574,-0.28964561223983765,0.0,0.0,0.0,0.0,0.0,0.0,0.0,-0.3789374512065887,0.012860934169789376,-0.19915138032210333,0.3024679859537838,0.016304700383769594,0.10626569342166634,-0.2727926078326892,1.2135126856377247,-0.22034492969423625,-0.00750358519170268,-2.604092390566214,-0.1089211870182794,2.468221224701926,0.8264803053445905,1.2134413937687574,-0.2202432315892585,-0.0075118285948192216,-2.6038483821997875,-0.10888392708698907,2.4681821257803174,0.826474908251239,0.00047450956175333647,0.0007155983144567368,-0.0011471037682596315,9.779229080167033e-05,0.0001258719887879168,0.00014767617739365273,0.0006415940961307206,0.0,0.0,0.0,0.0,0.0,0.0,0.0,-7.129186896737139e-05,0.00010169810497775988,-8.243403116541675e-06,0.00024400836642657353,3.725993129032046e-05,-3.909892160880446e-05,-5.397093351455773e-06,-0.00047450956175333647,-0.0007155983144567368,0.0011471037682596315,-9.779229080167033e-05,-0.0001258719887879168,-0.00014767617739365273,-0.0006415940961307206,0.4029781222343445,19.745019912719727,0.3713042438030243,-20.082735061645508,-0.5944724678993225,-2.4758944511413574,0.28964561223983765,0
74,0.3642432689666748,-0.4029781222343445,-19.745019912719727,-0.3713042438030243,20.082735061645508,0.5944724678993225,2.4758944511413574,-0.28964561223983765,0.0,0.0,0.0,0.0,0.0,0.0,0.0,-0.3789374512065887,0.012860934169789376,-0.19915138032210333,0.3024679859537838,0.016304700383769594,0.10626569342166634,-0.2727926078326892,1.2135126856377247,-0.22034492969423625,-0.00750358519170268,-2.604092390566214,-0.1089211870182794,2.468221224701926,0.8264803053445905,1.2134413937687574,-0.2202432315892585,-0.0075118285948192216,-2.6038483821997875,-0.10888392708698907,2.4681821257803174,0.826474908251239,0.00047450956175333647,0.0007155983144567368,-0.0011471037682596315,9.779229080167033e-05,0.0001258719887879168,0.00014767617739365273,0.0006415940961307206,0.0,0.0,0.0,0.0,0.0,0.0,0.0,-7.129186896737139e-05,0.00010169810497775988,-8.243403116541675e-06,0.00024400836642657353,3.725993129032046e-05,-3.909892160880446e-05,-5.397093351455773e-06,-0.00047450956175333647,-0.0007155983144567368,0.0011471037682596315,-9.779229080167033e-05,-0.0001258719887879168,-0.00014767617739365273,-0.0006415940961307206,0.4029781222343445,19.745019912719727,0.3713042438030243,-20.082735061645508,-0.5944724678993225,-2.4758944511413574,0.28964561223983765,0
75,0.3692440986633301,-0.4267818331718445,-19.768823623657227,-0.3990752398967743,20.054964065551758,0.5880637764930725,2.4823031425476074,-0.24112264811992645,0.0,0.0,0.0,0.0,0.0,0.0,0.0,-0.3811191386849595,0.011707771308567452,-0.19911390107716634,0.30488284010106304,0.015579060025683657,0.1064032092043951,-0.27277471372887024,1.2135143560735802,-0.2203431766335787,-0.007504215896499624,-2.604090433221116,-0.10892093590156669,2.468220511171553,0.826477975241819,1.2134413937687574,-0.2202432315892585,-0.0075118285948192216,-2.6038483821997875,-0.10888392708698907,2.4681821257803174,0.826474908251239,0.0006322192235645651,0.0010728786639790594,-2.9048837702484955e-05,0.00027333165554357806,0.000491297018420436,-7.018120941833739e-05,-0.0016564881249365542,0.0,0.0,0.0,0.0,0.0,0.0,0.0,-7.296230482278787e-05,9.994504432020435e-05,-7.612698319597183e-06,0.00024205102132857093,3.700881457761873e-05,-3.838539123579565e-05,-3.066990579947415e-06,-0.0006322192235645651,-0.0010728786639790594,2.9048837702484955e-05,-0.00027333165554357806,-0.000491297018420436,7.018120941833739e-05,0.0016564881249365542,0.4267818331718445,19.768823623657227,0.3990752398967743,-20.054964065551758,-0.5880637764930725,-2.4823031425476074,0.24112264811992645,0
76,0.37430286407470703,-0.4267818331718445,-19.768823623657227,-0.3990752398967743,20.054964065551758,0.5880637764930725,2.4823031425476074,-0.24112264811992645,0.0,0.0,0.0,0.0,0.0,0.0,0.0,-0.3811191386849595,0.011707771308567452,-0.19911390107716634,0.30488284010106304,0.015579060025683657,0.1064032092043951,-0.27277471372887024,1.2135143560735802,-0.2203431766335787,-0.007504215896499624,-2.604090433221116,-0.10892093590156669,2.468220511171553,0.826477975241819,1.2134413937687574,-0.2202432315892585,-0.0075118285948192216,-2.6038483821997875,-0.10888392708698907,2.4681821257803174,0.826474908251239,0.0006322192235645651,0.0010728786639790594,-2.9048837702484955e-05,0.00027333165554357806,0.000491297018420436,-7.018120941833739e-05,-0.0016564881249365542,0.0,0.0,0.0,0.0,0.0,0.0,0.0,-7.296230482278787e-05,9.994504432020435e-05,-7.612698319597183e-06,0.00024205102132857093,3.700881457761873e-05,-3.838539123579565e-05,-3.066990579947415e-06,-0.0006322192235645651,-0.0010728786639790594,2.9048837702484955e-05,-0.00027333165554357806,-0.000491297018420436,7.018120941833739e-05,0.0016564881249365542,0.4267818331718445,19.768823623657227,0.3990752398967743,-20.054964065551758,-0.5880637764930725,-2.4823031425476074,0.24112264811992645,0
77,0.3792431354522705,-0.3514034152030945,-19.717248916625977,-0.3990752398967743,20.054964065551758,0.5880637764930725,2.4758944511413574,-0.28964561223983765,0.0,0.0,0.0,0.0,0.0,0.0,0.0,-0.3856463251947069,0.0065553492941782775,-0.2027695354301749,0.30663834555705044,0.015995498541824887,0.10695020293900392,-0.27310207690734295,1.2135090663600383,-0.22034616993904854,-0.007504213049201663,-2.6040904332211143,-0.10892059415308057,2.468221340985946,0.82648348393533,1.2134413937687574,-0.2202432315892585,-0.0075118285948192216,-2.6038483821997875,-0.10888392708698907,2.4681821257803174,0.826474908251239,-0.0012410850667208878,-0.000706933272914547,-0.00047495887552470665,0.0004710172535090205,0.0005430877836272985,7.401524689497986e-05,0.001070900612464884,0.0,0.0,0.0,0.0,0.0,0.0,0.0,-6.767259128093173e-05,0.0001029383497900549,-7.615545617558825e-06,0.00024205102132679457,3.66670660914975e-05,-3.9215205628551075e-05,-8.575684090961211e-06,0.0012410850667208878,0.000706933272914547,0.00047495887552470665,-0.0004710172535090205,-0.0005430877836272985,-7.401524689497986e-05,-0.001070900612464884,0.3514034152030945,19.717248916625977,0.3990752398967743,-20.054964065551758,-0.5880637764930725,-2.4758944511413574,0.28964561223983765,0
78,0.38424086570739746,-0.3514034152030945,-19.717248916625977,-0.3990752398967743,20.054964065551758,0.5880637764930725,2.4758944511413574,-0.28964561223983765,0.0,0.0,0.0,0.0,0.0,0.0,0.0,-0.3856463251947069,0.0065553492941782775,-0.2027695354301749,0.30663834555705044,0.015995498541824887,0.10695020293900392,-0.27310207690734295,1.2135090663600383,-0.22034616993904854,-0.007504213049201663,-2.6040904332211143,-0.10892059415308057,2.468221340985946,0.82648348393533,1.2134413937687574,-0.2202432315892585,-0.0075118285948192216,-2.6038483821997875,-0.10888392708698907,2.4681821257803174,0.826474908251239,-0.0012410850667208878,-0.000706933272914547,-0.00047495887552470665,0.0004710172535090205,0.0005430877836272985,7.401524689497986e-05,0.001070900612464884,0.0,0.0,0.0,0.0,0.0,0.0,0.0,-6.767259128093173e-05,0.0001029383497900549,-7.615545617558825e-06,0.00024205102132679457,3.66670660914975e-05,-3.9215205628551075e-05,-8.575684090961211e-06,0.0012410850667208878,0.000706933272914547,0.00047495887552470665,-0.0004710172535090205,-0.0005430877836272985,-7.401524689497986e-05,-0.001070900612464884,0.3514034152030945,19.717248916625977,0.3990752398967743,-20.054964065551758,-0.5880637764930725,-2.4758944511413574,0.28964561223983765,0
79,0.38922691345214844,-0.4029781222343445,-19.768823623657227,-0.3990752398967743,20.031160354614258,0.6118674874305725,2.4630770683288574,-0.29605430364608765,0.0,0.0,0.0,0.0,0.0,0.0,0.0,-0.3835639619139926,0.0012473239874337095,-0.20275202124918967,0.31341355053938313,0.01580975684819792,0.1091291548230787,-0.27233310156466023,1.2135126856377247,-0.2203431717692698,-0.007503424820462782,-2.6040887637300663,-0.10892421020391202,2.4682226474026865,0.826484078598256,1.2134413937687574,-0.2202432315892585,-0.0075118285948192216,-2.6038483821997875,-0.10888392708698907,2.4681821257803174,0.826474908251239,0.0006112672515973595,0.0008261366674522587,-0.00030260071412276904,0.0010096412904631615,-0.0002624465427583685,-0.0003243108963945178,0.001085148949474854,0.0,0.0,0.0,0.0,0.0,0.0,0.0,-7.129186896737139e-05,9.994018001130422e-05,-8.40377435643979e-06,0.00024038153027872156,4.0283116922945617e-05,-4.052162236911627e-05,-9.170347016973501e-06,-0.0006112672515973595,-0.0008261366674522587,0.00030260071412276904,-0.0010096412904631615,0.0002624465427583685,0.0003243108963945178,-0.001085148949474854,0.4029781222343445,19.768823623657227,0.3990752398967743,-20.031160354614258,-0.6118674874305725,-2.4630770683288574,0.29605430364608765,0
