rezayati/contactInterpretation/dataset/franka_main/labeled_data/link6/b1_6.csv
index,time,tau_J0,tau_J1,tau_J2,tau_J3,tau_J4,tau_J5,tau_J6,tau_J_d0,tau_J_d1,tau_J_d2,tau_J_d3,tau_J_d4,tau_J_d5,tau_J_d6,tau_ext0,tau_ext1,tau_ext2,tau_ext3,tau_ext4,tau_ext5,tau_ext6,q0,q1,q2,q3,q4,q5,q6,q_d0,q_d1,q_d2,q_d3,q_d4,q_d5,q_d6,dq0,dq1,dq2,dq3,dq4,dq5,dq6,dq_d0,dq_d1,dq_d2,dq_d3,dq_d4,dq_d5,dq_d6,e0,e1,e2,e3,e4,e5,e6,de0,de1,de2,de3,de4,de5,de6,etau_J0,etau_J1,etau_J2,etau_J3,etau_J4,etau_J5,etau_J6,label
1,0.0,-0.06972616910934448,-18.106531143188477,0.9934418201446533,17.999910354614258,0.5221458077430725,2.2424349784851074,-0.17337362468242645,0.0,0.0,0.0,0.0,0.0,0.0,0.0,0.0055277547073058235,0.5593926923251243,0.16660958531679718,0.42322874242151637,0.09028285786508784,0.06897043211892631,-0.21255856942091916,-0.6088616197109222,-0.05762464868290382,-0.6664029601629298,-2.5943743477932615,-0.055600952600291784,2.5079581617249382,0.8763154263412876,-0.6090851748156966,-0.05753196718556838,-0.666603097082616,-2.5945565370258534,-0.05562143941554,2.507976027223799,0.8763108487046415,0.0013819155106810771,2.833771742125225e-05,0.00013419097444603064,0.0011074443199213912,-0.0003808661232813275,2.362010045400887e-05,-0.0009403567400283629,0.0,0.0,0.0,0.0,0.0,0.0,0.0,-0.00022355510477434226,9.268149733543396e-05,-0.00020013691968623348,-0.00018218923259194497,-2.0486815248216272e-05,1.7865498860736295e-05,-4.577636646074801e-06,-0.0013819155106810771,-2.833771742125225e-05,-0.00013419097444603064,-0.0011074443199213912,0.0003808661232813275,-2.362010045400887e-05,0.0009403567400283629,0.06972616910934448,18.106531143188477,-0.9934418201446533,-17.999910354614258,-0.5221458077430725,-2.2424349784851074,0.17337362468242645,0
2,0.0050127506256103516,-0.04592245817184448,-18.154138565063477,0.9180634021759033,18.047517776489258,0.5166526436805725,2.2424349784851074,-0.24112264811992645,0.0,0.0,0.0,0.0,0.0,0.0,0.0,8.213530001723682e-05,0.5535084231486207,0.1660797177991912,0.4259206897384787,0.09001778793672323,0.06764451019331248,-0.20952810707931113,-0.6088625778358253,-0.05762130781119329,-0.666396977101958,-2.5943749376883862,-0.055597100080502074,2.5079581617249382,0.8763226007979225,-0.6090851748156966,-0.05753196718556838,-0.666603097082616,-2.5945565370258534,-0.05562143941554,2.507976027223799,0.8763108487046415,0.0011271780926851078,0.0005617326171340445,0.0011276333710542891,-7.0733402013551e-05,-0.00018100582835859624,0.00018176370828803832,0.001131343830046966,0.0,0.0,0.0,0.0,0.0,0.0,0.0,-0.00022259697987125904,8.93406256249063e-05,-0.00020611998065800385,-0.00018159933746719759,-2.433933503792618e-05,1.7865498860736295e-05,-1.1752093280970044e-05,-0.0011271780926851078,-0.0005617326171340445,-0.0011276333710542891,7.0733402013551e-05,0.00018100582835859624,-0.00018176370828803832,-0.001131343830046966,0.04592245817184448,18.154138565063477,-0.9180634021759033,-18.047517776489258,-0.5166526436805725,-2.2424349784851074,0.24112264811992645,0
3,0.010021686553955078,-0.04592245817184448,-18.154138565063477,0.9180634021759033,18.047517776489258,0.5166526436805725,2.2424349784851074,-0.24112264811992645,0.0,0.0,0.0,0.0,0.0,0.0,0.0,8.213530001723682e-05,0.5535084231486207,0.1660797177991912,0.4259206897384787,0.09001778793672323,0.06764451019331248,-0.20952810707931113,-0.6088625778358253,-0.05762130781119329,-0.666396977101958,-2.5943749376883862,-0.055597100080502074,2.5079581617249382,0.8763226007979225,-0.6090851748156966,-0.05753196718556838,-0.666603097082616,-2.5945565370258534,-0.05562143941554,2.507976027223799,0.8763108487046415,0.0011271780926851078,0.0005617326171340445,0.0011276333710542891,-7.0733402013551e-05,-0.00018100582835859624,0.00018176370828803832,0.001131343830046966,0.0,0.0,0.0,0.0,0.0,0.0,0.0,-0.00022259697987125904,8.93406256249063e-05,-0.00020611998065800385,-0.00018159933746719759,-2.433933503792618e-05,1.7865498860736295e-05,-1.1752093280970044e-05,-0.0011271780926851078,-0.0005617326171340445,-0.0011276333710542891,7.0733402013551e-05,0.00018100582835859624,-0.00018176370828803832,-0.001131343830046966,0.04592245817184448,18.154138565063477,-0.9180634021759033,-18.047517776489258,-0.5166526436805725,-2.2424349784851074,0.24112264811992645,0
4,0.015005826950073242,-0.04592245817184448,-18.205713272094727,0.9418671131134033,18.071321487426758,0.5047507882118225,2.2552523612976074,-0.20724813640117645,0.0,0.0,0.0,0.0,0.0,0.0,0.0,-0.00428476144157901,0.5388389914825782,0.16037718192511285,0.42867546863300104,0.08946292479675672,0.06773388587745657,-0.21054231790825959,-0.6088625748910568,-0.05761768853350689,-0.6663986388340821,-2.5943766043749386,-0.055599331848910166,2.5079567376251277,0.876319190174003,-0.6090851748156966,-0.05753196718556838,-0.666603097082616,-2.5945565370258534,-0.05562143941554,2.507976027223799,0.8763108487046415,0.0005978195076848221,0.0005548901828227537,0.000791236512982133,-0.000246875279934521,0.00027227278510061993,-0.00013342147797897047,-0.000650418751969123,0.0,0.0,0.0,0.0,0.0,0.0,0.0,-0.00022259992463979916,8.572134793850827e-05,-0.00020445824853387862,-0.00017993265091487132,-2.2107566629833708e-05,1.9289598671257124e-05,-8.341469361461407e-06,-0.0005978195076848221,-0.0005548901828227537,-0.000791236512982133,0.000246875279934521,-0.00027227278510061993,0.00013342147797897047,0.000650418751969123,0.04592245817184448,18.205713272094727,-0.9418671131134033,-18.071321487426758,-0.5047507882118225,-2.2552523612976074,0.20724813640117645,0
5,0.0200040340423584,-0.04592245817184448,-18.205713272094727,0.9418671131134033,18.071321487426758,0.5047507882118225,2.2552523612976074,-0.20724813640117645,0.0,0.0,0.0,0.0,0.0,0.0,0.0,-0.00428476144157901,0.5388389914825782,0.16037718192511285,0.42867546863300104,0.08946292479675672,0.06773388587745657,-0.21054231790825959,-0.6088625748910568,-0.05761768853350689,-0.6663986388340821,-2.5943766043749386,-0.055599331848910166,2.5079567376251277,0.876319190174003,-0.6090851748156966,-0.05753196718556838,-0.666603097082616,-2.5945565370258534,-0.05562143941554,2.507976027223799,0.8763108487046415,0.0005978195076848221,0.0005548901828227537,0.000791236512982133,-0.000246875279934521,0.00027227278510061993,-0.00013342147797897047,-0.000650418751969123,0.0,0.0,0.0,0.0,0.0,0.0,0.0,-0.00022259992463979916,8.572134793850827e-05,-0.00020445824853387862,-0.00017993265091487132,-2.2107566629833708e-05,1.9289598671257124e-05,-8.341469361461407e-06,-0.0005978195076848221,-0.0005548901828227537,-0.000791236512982133,0.000246875279934521,-0.00027227278510061993,0.00013342147797897047,0.000650418751969123,0.04592245817184448,18.205713272094727,-0.9418671131134033,-18.071321487426758,-0.5047507882118225,-2.2552523612976074,0.20724813640117645,0
6,0.025005340576171875,-0.018151462078094482,-18.205713272094727,0.9418671131134033,18.099092483520508,0.5166526436805725,2.2552523612976074,-0.18710653483867645,0.0,0.0,0.0,0.0,0.0,0.0,0.0,-0.009397259060210283,0.5395634334013536,0.1554534620012348,0.4231178007855477,0.08888682851361461,0.06712956255039403,-0.21177857001172457,-0.6088645237328714,-0.05761768853350689,-0.6663987255019664,-2.594378603898112,-0.055598171806853766,2.5079570907840267,0.8763169522202667,-0.6090851748156966,-0.05753196718556838,-0.666603097082616,-2.5945565370258534,-0.05562143941554,2.507976027223799,0.8763108487046415,-0.0004822325482420566,0.0009058844736601431,0.0002883072856901037,-0.0009413232492882763,-0.0003468706514664475,-6.111344198390864e-05,-0.0015434804086133813,0.0,0.0,0.0,0.0,0.0,0.0,0.0,-0.0002206510828252073,8.572134793850827e-05,-0.00020437158064956495,-0.00017793312774161407,-2.3267608686233787e-05,1.8936439772243574e-05,-6.103515625244249e-06,0.0004822325482420566,-0.0009058844736601431,-0.0002883072856901037,0.0009413232492882763,0.0003468706514664475,6.111344198390864e-05,0.0015434804086133813,0.018151462078094482,18.205713272094727,-0.9418671131134033,-18.099092483520508,-0.5166526436805725,-2.2552523612976074,0.18710653483867645,0
7,0.03000020980834961,-0.018151462078094482,-18.205713272094727,0.9418671131134033,18.099092483520508,0.5166526436805725,2.2552523612976074,-0.18710653483867645,0.0,0.0,0.0,0.0,0.0,0.0,0.0,-0.009397259060210283,0.5395634334013536,0.1554534620012348,0.4231178007855477,0.08888682851361461,0.06712956255039403,-0.21177857001172457,-0.6088645237328714,-0.05761768853350689,-0.6663987255019664,-2.594378603898112,-0.055598171806853766,2.5079570907840267,0.8763169522202667,-0.6090851748156966,-0.05753196718556838,-0.666603097082616,-2.5945565370258534,-0.05562143941554,2.507976027223799,0.8763108487046415,-0.0004822325482420566,0.0009058844736601431,0.0002883072856901037,-0.0009413232492882763,-0.0003468706514664475,-6.111344198390864e-05,-0.0015434804086133813,0.0,0.0,0.0,0.0,0.0,0.0,0.0,-0.0002206510828252073,8.572134793850827e-05,-0.00020437158064956495,-0.00017793312774161407,-2.3267608686233787e-05,1.8936439772243574e-05,-6.103515625244249e-06,0.0004822325482420566,-0.0009058844736601431,-0.0002883072856901037,0.0009413232492882763,0.0003468706514664475,6.111344198390864e-05,0.0015434804086133813,0.018151462078094482,18.205713272094727,-0.9418671131134033,-18.099092483520508,-0.5166526436805725,-2.2552523612976074,0.18710653483867645,0
8,0.03505706787109375,-0.018151462078094482,-18.154138565063477,0.9696381092071533,18.071321487426758,0.5102439522743225,2.2552523612976074,-0.23471395671367645,0.0,0.0,0.0,0.0,0.0,0.0,0.0,-0.006248834560337052,0.5364613500474862,0.15936290221396227,0.42082364113115545,0.0882138471797133,0.06804827790033526,-0.21089724523017855,-0.6088645237328714,-0.05762130781119329,-0.66640129845997,-2.594379336420307,-0.055596446148522015,2.507956737571514,0.8763222419338093,-0.6090851748156966,-0.05753196718556838,-0.666603097082616,-2.5945565370258534,-0.05562143941554,2.507976027223799,0.8763108487046415,-6.244766141794843e-05,0.0007706078821543346,0.00010921210369181276,-0.00026820118331886945,0.00020130651056808897,0.00036373963541652763,0.0020595329454585268,0.0,0.0,0.0,0.0,0.0,0.0,0.0,-0.0002206510828252073,8.93406256249063e-05,-0.0002017986226460211,-0.00017720060554626826,-2.4993267017985044e-05,1.9289652284815162e-05,-1.1393229167766528e-05,6.244766141794843e-05,-0.0007706078821543346,-0.00010921210369181276,0.00026820118331886945,-0.00020130651056808897,-0.00036373963541652763,-0.0020595329454585268,0.018151462078094482,18.154138565063477,-0.9696381092071533,-18.071321487426758,-0.5102439522743225,-2.2552523612976074,0.23471395671367645,0
9,0.040003299713134766,-0.018151462078094482,-18.154138565063477,0.9696381092071533,18.071321487426758,0.5102439522743225,2.2552523612976074,-0.23471395671367645,0.0,0.0,0.0,0.0,0.0,0.0,0.0,-0.006248834560337052,0.5364613500474862,0.15936290221396227,0.42082364113115545,0.0882138471797133,0.06804827790033526,-0.21089724523017855,-0.6088645237328714,-0.05762130781119329,-0.66640129845997,-2.594379336420307,-0.055596446148522015,2.507956737571514,0.8763222419338093,-0.6090851748156966,-0.05753196718556838,-0.666603097082616,-2.5945565370258534,-0.05562143941554,2.507976027223799,0.8763108487046415,-6.244766141794843e-05,0.0007706078821543346,0.00010921210369181276,-0.00026820118331886945,0.00020130651056808897,0.00036373963541652763,0.0020595329454585268,0.0,0.0,0.0,0.0,0.0,0.0,0.0,-0.0002206510828252073,8.93406256249063e-05,-0.0002017986226460211,-0.00017720060554626826,-2.4993267017985044e-05,1.9289652284815162e-05,-1.1393229167766528e-05,6.244766141794843e-05,-0.0007706078821543346,-0.00010921210369181276,0.00026820118331886945,-0.00020130651056808897,-0.00036373963541652763,-0.0020595329454585268,0.018151462078094482,18.154138565063477,-0.9696381092071533,-18.071321487426758,-0.5102439522743225,-2.2552523612976074,0.23471395671367645,0
10,0.04499983787536621,0.05722695589065552,-18.054956436157227,0.9934418201446533,18.099092483520508,0.5102439522743225,2.2488436698913574,-0.19351522624492645,0.0,0.0,0.0,0.0,0.0,0.0,0.0,-0.005215144816506583,0.5448684381876489,0.15899613639112767,0.4178971611481225,0.08872237367058136,0.06890925242970083,-0.2080830013927512,-0.608869813446413,-0.05762826796059022,-0.6664030469101371,-2.594379446030038,-0.0555963881240884,2.5079574496481154,0.8763176642970906,-0.6090851748156966,-0.05753196718556838,-0.666603097082616,-2.5945565370258534,-0.05562143941554,2.507976027223799,0.8763108487046415,-0.001524075363262802,-0.00022973298949576128,-0.0005398994574253704,-0.0012435126740986016,0.00028529507484788497,-1.7781388119852752e-05,-0.0012712594449536454,0.0,0.0,0.0,0.0,0.0,0.0,0.0,-0.0002153613692835732,9.630077502183892e-05,-0.0002000501724789272,-0.00017709099581564303,-2.5051291451597124e-05,1.8577575683575986e-05,-6.815592449083141e-06,0.001524075363262802,0.00022973298949576128,0.0005398994574253704,0.0012435126740986016,-0.00028529507484788497,1.7781388119852752e-05,0.0012712594449536454,-0.05722695589065552,18.054956436157227,-0.9934418201446533,-18.099092483520508,-0.5102439522743225,-2.2488436698913574,0.19351522624492645,0
11,0.049997568130493164,0.05722695589065552,-18.054956436157227,0.9934418201446533,18.099092483520508,0.5102439522743225,2.2488436698913574,-0.19351522624492645,0.0,0.0,0.0,0.0,0.0,0.0,0.0,-0.005215144816506583,0.5448684381876489,0.15899613639112767,0.4178971611481225,0.08872237367058136,0.06890925242970083,-0.2080830013927512,-0.608869813446413,-0.05762826796059022,-0.6664030469101371,-2.594379446030038,-0.0555963881240884,2.5079574496481154,0.8763176642970906,-0.6090851748156966,-0.05753196718556838,-0.666603097082616,-2.5945565370258534,-0.05562143941554,2.507976027223799,0.8763108487046415,-0.001524075363262802,-0.00022973298949576128,-0.0005398994574253704,-0.0012435126740986016,0.00028529507484788497,-1.7781388119852752e-05,-0.0012712594449536454,0.0,0.0,0.0,0.0,0.0,0.0,0.0,-0.0002153613692835732,9.630077502183892e-05,-0.0002000501724789272,-0.00017709099581564303,-2.5051291451597124e-05,1.8577575683575986e-05,-6.815592449083141e-06,0.001524075363262802,0.00022973298949576128,0.0005398994574253704,0.0012435126740986016,-0.00028529507484788497,1.7781388119852752e-05,0.0012712594449536454,-0.05722695589065552,18.054956436157227,-0.9934418201446533,-18.099092483520508,-0.5102439522743225,-2.2488436698913574,0.19351522624492645,0
12,0.054996490478515625,0.08103066682815552,-18.007349014282227,1.0172455310821533,18.071321487426758,0.5047507882118225,2.2488436698913574,-0.21457235515117645,0.0,0.0,0.0,0.0,0.0,0.0,0.0,-0.0039271575058247655,0.5564034893082144,0.15377947027995398,0.4231207988419564,0.08896744686550428,0.06828008612641807,-0.21077394418395912,-0.6088714838822683,-0.05763160883230075,-0.6664039545524075,-2.5943772676349344,-0.05559589704036671,2.507957462730068,0.8763200039780801,-0.6090851748156966,-0.05753196718556838,-0.666603097082616,-2.5945565370258534,-0.05562143941554,2.507976027223799,0.8763108487046415,-0.0016722783293221658,-0.00020821623388101774,-0.000865192596864073,-0.000324426615689559,0.00021414965471388715,-0.0002694165712321822,-0.0001015069526225892,0.0,0.0,0.0,0.0,0.0,0.0,0.0,-0.00021369093342826773,9.964164673236658e-05,-0.00019914253020847372,-0.0001792693909190568,-2.5542375173291665e-05,1.8564493731165754e-05,-9.155273438588019e-06,0.0016722783293221658,0.00020821623388101774,0.000865192596864073,0.000324426615689559,-0.00021414965471388715,0.0002694165712321822,0.0001015069526225892,-0.08103066682815552,18.007349014282227,-1.0172455310821533,-18.071321487426758,-0.5047507882118225,-2.2488436698913574,0.21457235515117645,0
13,0.06001996994018555,0.08103066682815552,-18.007349014282227,1.0172455310821533,18.071321487426758,0.5047507882118225,2.2488436698913574,-0.21457235515117645,0.0,0.0,0.0,0.0,0.0,0.0,0.0,-0.0039271575058247655,0.5564034893082144,0.15377947027995398,0.4231207988419564,0.08896744686550428,0.06828008612641807,-0.21077394418395912,-0.6088714838822683,-0.05763160883230075,-0.6664039545524075,-2.5943772676349344,-0.05559589704036671,2.507957462730068,0.8763200039780801,-0.6090851748156966,-0.05753196718556838,-0.666603097082616,-2.5945565370258534,-0.05562143941554,2.507976027223799,0.8763108487046415,-0.0016722783293221658,-0.00020821623388101774,-0.000865192596864073,-0.000324426615689559,0.00021414965471388715,-0.0002694165712321822,-0.0001015069526225892,0.0,0.0,0.0,0.0,0.0,0.0,0.0,-0.00021369093342826773,9.964164673236658e-05,-0.00019914253020847372,-0.0001792693909190568,-2.5542375173291665e-05,1.8564493731165754e-05,-9.155273438588019e-06,0.0016722783293221658,0.00020821623388101774,0.000865192596864073,0.000324426615689559,-0.00021414965471388715,0.0002694165712321822,0.0001015069526225892,-0.08103066682815552,18.007349014282227,-1.0172455310821533,-18.071321487426758,-0.5047507882118225,-2.2488436698913574,0.21457235515117645,0
14,0.06499958038330078,0.08103066682815552,-18.007349014282227,1.0172455310821533,18.071321487426758,0.5047507882118225,2.2488436698913574,-0.21457235515117645,0.0,0.0,0.0,0.0,0.0,0.0,0.0,-0.0039271575058247655,0.5564034893082144,0.15377947027995398,0.4231207988419564,0.08896744686550428,0.06828008612641807,-0.21077394418395912,-0.6088714838822683,-0.05763160883230075,-0.6664039545524075,-2.5943772676349344,-0.05559589704036671,2.507957462730068,0.8763200039780801,-0.6090851748156966,-0.05753196718556838,-0.666603097082616,-2.5945565370258534,-0.05562143941554,2.507976027223799,0.8763108487046415,-0.0016722783293221658,-0.00020821623388101774,-0.000865192596864073,-0.000324426615689559,0.00021414965471388715,-0.0002694165712321822,-0.0001015069526225892,0.0,0.0,0.0,0.0,0.0,0.0,0.0,-0.00021369093342826773,9.964164673236658e-05,-0.00019914253020847372,-0.0001792693909190568,-2.5542375173291665e-05,1.8564493731165754e-05,-9.155273438588019e-06,0.0016722783293221658,0.00020821623388101774,0.000865192596864073,0.000324426615689559,-0.00021414965471388715,0.0002694165712321822,0.0001015069526225892,-0.08103066682815552,18.007349014282227,-1.0172455310821533,-18.071321487426758,-0.5047507882118225,-2.2488436698913574,0.21457235515117645,0
15,0.07005119323730469,0.08103066682815552,-18.007349014282227,1.0172455310821533,18.071321487426758,0.5047507882118225,2.2488436698913574,-0.21457235515117645,0.0,0.0,0.0,0.0,0.0,0.0,0.0,-0.0039271575058247655,0.5564034893082144,0.15377947027995398,0.4231207988419564,0.08896744686550428,0.06828008612641807,-0.21077394418395912,-0.6088714838822683,-0.05763160883230075,-0.6664039545524075,-2.5943772676349344,-0.05559589704036671,2.507957462730068,0.8763200039780801,-0.6090851748156966,-0.05753196718556838,-0.666603097082616,-2.5945565370258534,-0.05562143941554,2.507976027223799,0.8763108487046415,-0.0016722783293221658,-0.00020821623388101774,-0.000865192596864073,-0.000324426615689559,0.00021414965471388715,-0.0002694165712321822,-0.0001015069526225892,0.0,0.0,0.0,0.0,0.0,0.0,0.0,-0.00021369093342826773,9.964164673236658e-05,-0.00019914253020847372,-0.0001792693909190568,-2.5542375173291665e-05,1.8564493731165754e-05,-9.155273438588019e-06,0.0016722783293221658,0.00020821623388101774,0.000865192596864073,0.000324426615689559,-0.00021414965471388715,0.0002694165712321822,0.0001015069526225892,-0.08103066682815552,18.007349014282227,-1.0172455310821533,-18.071321487426758,-0.5047507882118225,-2.2488436698913574,0.21457235515117645,0
16,0.07501339912414551,0.03342324495315552,-18.054956436157227,1.0172455310821533,18.071321487426758,0.5166526436805725,2.2360262870788574,-0.22830526530742645,0.0,0.0,0.0,0.0,0.0,0.0,0.0,0.004338279909530717,0.5661113274427106,0.15864888009616893,0.4273437726212785,0.08893996516520611,0.0668849221032323,-0.212527243330906,-0.6088681430105577,-0.057628977421431506,-0.6664039285477216,-2.5943775236765143,-0.05560041678939342,2.507958873801835,0.8763215298569863,-0.6090851748156966,-0.05753196718556838,-0.666603097082616,-2.5945565370258534,-0.05562143941554,2.507976027223799,0.8763108487046415,5.497247213343657e-05,0.00040584990717669554,-0.0003832378534524924,-0.0007596510510397437,-0.00010420116137868621,0.0004227454875790059,0.0006617033867255361,0.0,0.0,0.0,0.0,0.0,0.0,0.0,-0.00021703180513887865,9.701023586312224e-05,-0.00019916853489443387,-0.00017901334933911883,-2.1022626146581513e-05,1.7153421964177795e-05,-1.0681152344815814e-05,-5.497247213343657e-05,-0.00040584990717669554,0.0003832378534524924,0.0007596510510397437,0.00010420116137868621,-0.0004227454875790059,-0.0006617033867255361,-0.03342324495315552,18.054956436157227,-1.0172455310821533,-18.071321487426758,-0.5166526436805725,-2.2360262870788574,0.22830526530742645,0
17,0.08002066612243652,0.03342324495315552,-18.054956436157227,1.0172455310821533,18.071321487426758,0.5166526436805725,2.2360262870788574,-0.22830526530742645,0.0,0.0,0.0,0.0,0.0,0.0,0.0,0.004338279909530717,0.5661113274427106,0.15864888009616893,0.4273437726212785,0.08893996516520611,0.0668849221032323,-0.212527243330906,-0.6088681430105577,-0.057628977421431506,-0.6664039285477216,-2.5943775236765143,-0.05560041678939342,2.507958873801835,0.8763215298569863,-0.6090851748156966,-0.05753196718556838,-0.666603097082616,-2.5945565370258534,-0.05562143941554,2.507976027223799,0.8763108487046415,5.497247213343657e-05,0.00040584990717669554,-0.0003832378534524924,-0.0007596510510397437,-0.00010420116137868621,0.0004227454875790059,0.0006617033867255361,0.0,0.0,0.0,0.0,0.0,0.0,0.0,-0.00021703180513887865,9.701023586312224e-05,-0.00019916853489443387,-0.00017901334933911883,-2.1022626146581513e-05,1.7153421964177795e-05,-1.0681152344815814e-05,-5.497247213343657e-05,-0.00040584990717669554,0.0003832378534524924,0.0007596510510397437,0.00010420116137868621,-0.0004227454875790059,-0.0006617033867255361,-0.03342324495315552,18.054956436157227,-1.0172455310821533,-18.071321487426758,-0.5166526436805725,-2.2360262870788574,0.22830526530742645,0
18,0.0850062370300293,0.005652248859405518,-18.205713272094727,0.9696381092071533,18.071321487426758,0.5047507882118225,2.2488436698913574,-0.18710653483867645,0.0,0.0,0.0,0.0,0.0,0.0,0.0,-0.0007384255436440962,0.559935589088973,0.15441090781884104,0.4358547503398712,0.0899780458334064,0.06720527494135613,-0.21183909810473636,-0.6088661941687266,-0.05761768853751182,-0.6664005876758642,-2.5943775063214933,-0.05559898175616697,2.5079574496481154,0.8763169507667175,-0.6090851748156966,-0.05753196718556838,-0.666603097082616,-2.5945565370258534,-0.05562143941554,2.507976027223799,0.8763108487046415,1.2102003550324162e-05,0.0014717914359104775,0.00020453062952666915,-0.00016397567364082058,0.0003484674050167175,-5.775899564392299e-05,-7.760545748450117e-05,0.0,0.0,0.0,0.0,0.0,0.0,0.0,-0.00021898064697001285,8.572135194343661e-05,-0.00020250940675181628,-0.00017903070436009472,-2.2457659373031902e-05,1.8577575683575986e-05,-6.10206207596331e-06,-1.2102003550324162e-05,-0.0014717914359104775,-0.00020453062952666915,0.00016397567364082058,-0.0003484674050167175,5.775899564392299e-05,7.760545748450117e-05,-0.005652248859405518,18.205713272094727,-0.9696381092071533,-18.071321487426758,-0.5047507882118225,-2.2488436698913574,0.18710653483867645,0
19,0.09004020690917969,0.005652248859405518,-18.205713272094727,0.9696381092071533,18.071321487426758,0.5047507882118225,2.2488436698913574,-0.18710653483867645,0.0,0.0,0.0,0.0,0.0,0.0,0.0,-0.0007384255436440962,0.559935589088973,0.15441090781884104,0.4358547503398712,0.0899780458334064,0.06720527494135613,-0.21183909810473636,-0.6088661941687266,-0.05761768853751182,-0.6664005876758642,-2.5943775063214933,-0.05559898175616697,2.5079574496481154,0.8763169507667175,-0.6090851748156966,-0.05753196718556838,-0.666603097082616,-2.5945565370258534,-0.05562143941554,2.507976027223799,0.8763108487046415,1.2102003550324162e-05,0.0014717914359104775,0.00020453062952666915,-0.00016397567364082058,0.0003484674050167175,-5.775899564392299e-05,-7.760545748450117e-05,0.0,0.0,0.0,0.0,0.0,0.0,0.0,-0.00021898064697001285,8.572135194343661e-05,-0.00020250940675181628,-0.00017903070436009472,-2.2457659373031902e-05,1.8577575683575986e-05,-6.10206207596331e-06,-1.2102003550324162e-05,-0.0014717914359104775,-0.00020453062952666915,0.00016397567364082058,-0.0003484674050167175,5.775899564392299e-05,7.760545748450117e-05,-0.005652248859405518,18.205713272094727,-0.9696381092071533,-18.071321487426758,-0.5047507882118225,-2.2488436698913574,0.18710653483867645,0
20,0.09500312805175781,-0.018151462078094482,-18.205713272094727,0.9696381092071533,18.071321487426758,0.5102439522743225,2.2689852714538574,-0.21457235515117645,0.0,0.0,0.0,0.0,0.0,0.0,0.0,0.004430187210963215,0.5561519768763551,0.16155493839568455,0.4284931632629478,0.08964422712124284,0.0665245021485382,-0.20817086540521876,-0.6088645237328714,-0.05761768853350691,-0.6664005963426575,-2.5943766578841165,-0.05559745427653542,2.507955211692386,0.8763200025245217,-0.6090851748156966,-0.05753196718556838,-0.666603097082616,-2.5945565370258534,-0.05562143941554,2.507976027223799,0.8763108487046415,0.00023650375141152482,0.00026416992350501993,0.0004589675451056086,-0.0002338464853899844,0.0001986588012189692,-0.0004108781516310466,-0.0002310672027083623,0.0,0.0,0.0,0.0,0.0,0.0,0.0,-0.0002206510828252073,8.572134793852909e-05,-0.00020250073995853324,-0.0001798791417368939,-2.3985139004582823e-05,2.0815531412754495e-05,-9.153819880203251e-06,-0.00023650375141152482,-0.00026416992350501993,-0.0004589675451056086,0.0002338464853899844,-0.0001986588012189692,0.0004108781516310466,0.0002310672027083623,0.018151462078094482,18.205713272094727,-0.9696381092071533,-18.071321487426758,-0.5102439522743225,-2.2689852714538574,0.21457235515117645,0
21,0.09999871253967285,-0.018151462078094482,-18.205713272094727,0.9696381092071533,18.071321487426758,0.5102439522743225,2.2689852714538574,-0.21457235515117645,0.0,0.0,0.0,0.0,0.0,0.0,0.0,0.004430187210963215,0.5561519768763551,0.16155493839568455,0.4284931632629478,0.08964422712124284,0.0665245021485382,-0.20817086540521876,-0.6088645237328714,-0.05761768853350691,-0.6664005963426575,-2.5943766578841165,-0.05559745427653542,2.507955211692386,0.8763200025245217,-0.6090851748156966,-0.05753196718556838,-0.666603097082616,-2.5945565370258534,-0.05562143941554,2.507976027223799,0.8763108487046415,0.00023650375141152482,0.00026416992350501993,0.0004589675451056086,-0.0002338464853899844,0.0001986588012189692,-0.0004108781516310466,-0.0002310672027083623,0.0,0.0,0.0,0.0,0.0,0.0,0.0,-0.0002206510828252073,8.572134793852909e-05,-0.00020250073995853324,-0.0001798791417368939,-2.3985139004582823e-05,2.0815531412754495e-05,-9.153819880203251e-06,-0.00023650375141152482,-0.00026416992350501993,-0.0004589675451056086,0.0002338464853899844,-0.0001986588012189692,0.0004108781516310466,0.0002310672027083623,0.018151462078094482,18.205713272094727,-0.9696381092071533,-18.071321487426758,-0.5102439522743225,-2.2689852714538574,0.21457235515117645,0
22,0.10499787330627441,0.005652248859405518,-18.154138565063477,0.9934418201446533,18.047517776489258,0.5047507882118225,2.2625765800476074,-0.18710653483867645,0.0,0.0,0.0,0.0,0.0,0.0,0.0,0.0006155394592672844,0.5454603833196457,0.15955745907121285,0.42568574268617654,0.08970118172998917,0.06817133662476918,-0.20840718251420146,-0.6088661941687266,-0.05762130781119329,-0.666402995859177,-2.594375676558185,-0.05559723882433725,2.507955923769209,0.8763169522202595,-0.6090851748156966,-0.05753196718556838,-0.666603097082616,-2.5945565370258534,-0.05562143941554,2.507976027223799,0.8763108487046415,-0.000752548481194684,-0.0006507702128347828,-0.0008671306599293167,0.0009029854108870369,0.00020479742280834438,4.351889538238506e-05,-0.0011874626694523603,0.0,0.0,0.0,0.0,0.0,0.0,0.0,-0.00021898064697001285,8.93406256249063e-05,-0.00020010122343905312,-0.00018086046766851993,-2.4200591202748478e-05,2.0103454589914804e-05,-6.103515618027799e-06,0.000752548481194684,0.0006507702128347828,0.0008671306599293167,-0.0009029854108870369,-0.00020479742280834438,-4.351889538238506e-05,0.0011874626694523603,-0.005652248859405518,18.154138565063477,-0.9934418201446533,-18.047517776489258,-0.5047507882118225,-2.2625765800476074,0.18710653483867645,0
23,0.10999584197998047,0.005652248859405518,-18.154138565063477,0.9934418201446533,18.047517776489258,0.5047507882118225,2.2625765800476074,-0.18710653483867645,0.0,0.0,0.0,0.0,0.0,0.0,0.0,0.0006155394592672844,0.5454603833196457,0.15955745907121285,0.42568574268617654,0.08970118172998917,0.06817133662476918,-0.20840718251420146,-0.6088661941687266,-0.05762130781119329,-0.666402995859177,-2.594375676558185,-0.05559723882433725,2.507955923769209,0.8763169522202595,-0.6090851748156966,-0.05753196718556838,-0.666603097082616,-2.5945565370258534,-0.05562143941554,2.507976027223799,0.8763108487046415,-0.000752548481194684,-0.0006507702128347828,-0.0008671306599293167,0.0009029854108870369,0.00020479742280834438,4.351889538238506e-05,-0.0011874626694523603,0.0,0.0,0.0,0.0,0.0,0.0,0.0,-0.00021898064697001285,8.93406256249063e-05,-0.00020010122343905312,-0.00018086046766851993,-2.4200591202748478e-05,2.0103454589914804e-05,-6.103515618027799e-06,0.000752548481194684,0.0006507702128347828,0.0008671306599293167,-0.0009029854108870369,-0.00020479742280834438,-4.351889538238506e-05,0.0011874626694523603,-0.005652248859405518,18.154138565063477,-0.9934418201446533,-18.047517776489258,-0.5047507882118225,-2.2625765800476074,0.18710653483867645,0
24,0.11499810218811035,-0.04592245817184448,-18.106531143188477,0.9696381092071533,18.071321487426758,0.5047507882118225,2.2424349784851074,-0.23471395671367645,0.0,0.0,0.0,0.0,0.0,0.0,0.0,0.0004298532948177794,0.5385956710794589,0.16327276382322,0.4229985684836528,0.088960618259778,0.06917351496469012,-0.20987799713816654,-0.6088625748910402,-0.05762464868290382,-0.666402927714231,-2.594378671408312,-0.055595910212328806,2.5079581617249382,0.8763222419338093,-0.6090851748156966,-0.05753196718556838,-0.666603097082616,-2.5945565370258534,-0.05562143941554,2.507976027223799,0.8763108487046415,0.0004162395101134544,-0.0007056389637105807,0.00015531158801840967,-0.00019001626496462011,0.00018739822496338388,0.00031736358175862535,0.000795033106816791,0.0,0.0,0.0,0.0,0.0,0.0,0.0,-0.00022259992465634149,9.268149733543396e-05,-0.00020016936838496147,-0.0001778656175415172,-2.552920321119423e-05,1.7865498860736295e-05,-1.1393229167766528e-05,-0.0004162395101134544,0.0007056389637105807,-0.00015531158801840967,0.00019001626496462011,-0.00018739822496338388,-0.00031736358175862535,-0.000795033106816791,0.04592245817184448,18.106531143188477,-0.9696381092071533,-18.071321487426758,-0.5047507882118225,-2.2424349784851074,0.23471395671367645,0
25,0.11999821662902832,-0.04592245817184448,-18.106531143188477,0.9696381092071533,18.071321487426758,0.5047507882118225,2.2424349784851074,-0.23471395671367645,0.0,0.0,0.0,0.0,0.0,0.0,0.0,0.0004298532948177794,0.5385956710794589,0.16327276382322,0.4229985684836528,0.088960618259778,0.06917351496469012,-0.20987799713816654,-0.6088625748910402,-0.05762464868290382,-0.666402927714231,-2.594378671408312,-0.055595910212328806,2.5079581617249382,0.8763222419338093,-0.6090851748156966,-0.05753196718556838,-0.666603097082616,-2.5945565370258534,-0.05562143941554,2.507976027223799,0.8763108487046415,0.0004162395101134544,-0.0007056389637105807,0.00015531158801840967,-0.00019001626496462011,0.00018739822496338388,0.00031736358175862535,0.000795033106816791,0.0,0.0,0.0,0.0,0.0,0.0,0.0,-0.00022259992465634149,9.268149733543396e-05,-0.00020016936838496147,-0.0001778656175415172,-2.552920321119423e-05,1.7865498860736295e-05,-1.1393229167766528e-05,-0.0004162395101134544,0.0007056389637105807,-0.00015531158801840967,0.00019001626496462011,-0.00018739822496338388,-0.00031736358175862535,-0.000795033106816791,0.04592245817184448,18.106531143188477,-0.9696381092071533,-18.071321487426758,-0.5047507882118225,-2.2424349784851074,0.23471395671367645,0
26,0.12500596046447754,0.005652248859405518,-18.078760147094727,0.9418671131134033,18.023714065551758,0.5102439522743225,2.2360262870788574,-0.21457235515117645,0.0,0.0,0.0,0.0,0.0,0.0,0.0,-0.008762280189246439,0.5463135973861888,0.15880316506455666,0.41932762916245775,0.08877798151970527,0.06760324199887119,-0.21124442612594851,-0.6088669094244639,-0.05762659752473496,-0.6663988728506628,-2.59437531280269,-0.05559970471264486,2.507959933601396,0.8763200039780801,-0.6090851748156966,-0.05753196718556838,-0.666603097082616,-2.5945565370258534,-0.05562143941554,2.507976027223799,0.8763108487046415,-0.0005674267210843671,0.00042567242908665026,0.00024018677702230122,0.0004446087645813175,0.00010221154272879073,0.00017676111188479762,8.727223668555374e-05,0.0,0.0,0.0,0.0,0.0,0.0,0.0,-0.00021826539123270816,9.46303391665751e-05,-0.0002042242319532095,-0.00018122422316357856,-2.1734702895140345e-05,1.6093622403179353e-05,-9.155273438588019e-06,0.0005674267210843671,-0.00042567242908665026,-0.00024018677702230122,-0.0004446087645813175,-0.00010221154272879073,-0.00017676111188479762,-8.727223668555374e-05,-0.005652248859405518,18.078760147094727,-0.9418671131134033,-18.023714065551758,-0.5102439522743225,-2.2360262870788574,0.21457235515117645,0
27,0.13001084327697754,0.005652248859405518,-18.078760147094727,0.9418671131134033,18.023714065551758,0.5102439522743225,2.2360262870788574,-0.21457235515117645,0.0,0.0,0.0,0.0,0.0,0.0,0.0,-0.008762280189246439,0.5463135973861888,0.15880316506455666,0.41932762916245775,0.08877798151970527,0.06760324199887119,-0.21124442612594851,-0.6088669094244639,-0.05762659752473496,-0.6663988728506628,-2.59437531280269,-0.05559970471264486,2.507959933601396,0.8763200039780801,-0.6090851748156966,-0.05753196718556838,-0.666603097082616,-2.5945565370258534,-0.05562143941554,2.507976027223799,0.8763108487046415,-0.0005674267210843671,0.00042567242908665026,0.00024018677702230122,0.0004446087645813175,0.00010221154272879073,0.00017676111188479762,8.727223668555374e-05,0.0,0.0,0.0,0.0,0.0,0.0,0.0,-0.00021826539123270816,9.46303391665751e-05,-0.0002042242319532095,-0.00018122422316357856,-2.1734702895140345e-05,1.6093622403179353e-05,-9.155273438588019e-06,0.0005674267210843671,-0.00042567242908665026,-0.00024018677702230122,-0.0004446087645813175,-0.00010221154272879073,-0.00017676111188479762,-8.727223668555374e-05,-0.005652248859405518,18.078760147094727,-0.9418671131134033,-18.023714065551758,-0.5102439522743225,-2.2360262870788574,0.21457235515117645,0
28,0.13500738143920898,-0.018151462078094482,-18.078760147094727,0.9696381092071533,18.047517776489258,0.5221458077430725,2.2424349784851074,-0.22830526530742645,0.0,0.0,0.0,0.0,0.0,0.0,0.0,-0.009931457806786127,0.5490155815638394,0.1568380208998208,0.4277615328435156,0.08853677949328786,0.06673434008815432,-0.20865972069679445,-0.6088645502278622,-0.05762659752473496,-0.6664005966649709,-2.594375605673884,-0.05559772469183654,2.507958161730921,0.8763215298569863,-0.6090851748156966,-0.05753196718556838,-0.666603097082616,-2.5945565370258534,-0.05562143941554,2.507976027223799,0.8763108487046415,-2.9365662645908418e-05,0.0005920212248545498,-0.00011941429264471999,0.00034286337847162264,-0.00033904986736575524,-8.064961666808698e-05,0.0011765284178364974,0.0,0.0,0.0,0.0,0.0,0.0,0.0,-0.00022062458783433936,9.46303391665751e-05,-0.00020250041764513504,-0.0001809313519696154,-2.371472370345934e-05,1.786549287796646e-05,-1.0681152344815814e-05,2.9365662645908418e-05,-0.0005920212248545498,0.00011941429264471999,-0.00034286337847162264,0.00033904986736575524,8.064961666808698e-05,-0.0011765284178364974,0.018151462078094482,18.078760147094727,-0.9696381092071533,-18.047517776489258,-0.5221458077430725,-2.2424349784851074,0.22830526530742645,0
29,0.14001727104187012,-0.018151462078094482,-18.078760147094727,0.9696381092071533,18.047517776489258,0.5221458077430725,2.2424349784851074,-0.22830526530742645,0.0,0.0,0.0,0.0,0.0,0.0,0.0,-0.009931457806786127,0.5490155815638394,0.1568380208998208,0.4277615328435156,0.08853677949328786,0.06673434008815432,-0.20865972069679445,-0.6088645502278622,-0.05762659752473496,-0.6664005966649709,-2.594375605673884,-0.05559772469183654,2.507958161730921,0.8763215298569863,-0.6090851748156966,-0.05753196718556838,-0.666603097082616,-2.5945565370258534,-0.05562143941554,2.507976027223799,0.8763108487046415,-2.9365662645908418e-05,0.0005920212248545498,-0.00011941429264471999,0.00034286337847162264,-0.00033904986736575524,-8.064961666808698e-05,0.0011765284178364974,0.0,0.0,0.0,0.0,0.0,0.0,0.0,-0.00022062458783433936,9.46303391665751e-05,-0.00020250041764513504,-0.0001809313519696154,-2.371472370345934e-05,1.786549287796646e-05,-1.0681152344815814e-05,2.9365662645908418e-05,-0.0005920212248545498,0.00011941429264471999,-0.00034286337847162264,0.00033904986736575524,8.064961666808698e-05,-0.0011765284178364974,0.018151462078094482,18.078760147094727,-0.9696381092071533,-18.047517776489258,-0.5221458077430725,-2.2424349784851074,0.22830526530742645,0
30,0.14500737190246582,-0.018151462078094482,-18.130334854125977,0.9934418201446533,18.071321487426758,0.5166526436805725,2.2424349784851074,-0.23471395671367645,0.0,0.0,0.0,0.0,0.0,0.0,0.0,-0.012204568201920738,0.5537146030384441,0.15119734805133977,0.43047489953732543,0.08886074092677367,0.06590485618555421,-0.2083792658558331,-0.6088645237330209,-0.057622978247048554,-0.6664022581117702,-2.59437957166964,-0.05559746957940584,2.507958514937648,0.8763222417723038,-0.6090851748156966,-0.05753196718556838,-0.666603097082616,-2.5945565370258534,-0.05562143941554,2.507976027223799,0.8763108487046415,0.00017569338272143366,0.0008611337827449697,-0.0006781692012127527,-0.00025337155182431363,-0.00016472075014547987,0.000763695045870339,0.00031588920136145927,0.0,0.0,0.0,0.0,0.0,0.0,0.0,-0.00022065108267566025,9.101106148017013e-05,-0.00020083897084577362,-0.0001769653562133655,-2.3969836134160594e-05,1.7512286150989098e-05,-1.1393067662290868e-05,-0.00017569338272143366,-0.0008611337827449697,0.0006781692012127527,0.00025337155182431363,0.00016472075014547987,-0.000763695045870339,-0.00031588920136145927,0.018151462078094482,18.130334854125977,-0.9934418201446533,-18.071321487426758,-0.5166526436805725,-2.2424349784851074,0.23471395671367645,0
31,0.14994573593139648,-0.018151462078094482,-18.130334854125977,0.9934418201446533,18.071321487426758,0.5166526436805725,2.2424349784851074,-0.23471395671367645,0.0,0.0,0.0,0.0,0.0,0.0,0.0,-0.012204568201920738,0.5537146030384441,0.15119734805133977,0.43047489953732543,0.08886074092677367,0.06590485618555421,-0.2083792658558331,-0.6088645237330209,-0.057622978247048554,-0.6664022581117702,-2.59437957166964,-0.05559746957940584,2.507958514937648,0.8763222417723038,-0.6090851748156966,-0.05753196718556838,-0.666603097082616,-2.5945565370258534,-0.05562143941554,2.507976027223799,0.8763108487046415,0.00017569338272143366,0.0008611337827449697,-0.0006781692012127527,-0.00025337155182431363,-0.00016472075014547987,0.000763695045870339,0.00031588920136145927,0.0,0.0,0.0,0.0,0.0,0.0,0.0,-0.00022065108267566025,9.101106148017013e-05,-0.00020083897084577362,-0.0001769653562133655,-2.3969836134160594e-05,1.7512286150989098e-05,-1.1393067662290868e-05,-0.00017569338272143366,-0.0008611337827449697,0.0006781692012127527,0.00025337155182431363,0.00016472075014547987,-0.000763695045870339,-0.00031588920136145927,0.018151462078094482,18.130334854125977,-0.9934418201446533,-18.071321487426758,-0.5166526436805725,-2.2424349784851074,0.23471395671367645,0
32,0.15509867668151855,0.05722695589065552,-18.177942276000977,0.9934418201446533,18.071321487426758,0.5166526436805725,2.2552523612976074,-0.18710653483867645,0.0,0.0,0.0,0.0,0.0,0.0,0.0,0.0008928759893976625,0.5560447919614249,0.1615190699767362,0.4316887676416542,0.08860251959274815,0.06861236867041325,-0.21158046645580178,-0.608869813446413,-0.057619637411382374,-0.6664053030451136,-2.5943765814713338,-0.05559710538531235,2.5079567768191433,0.8763169522202667,-0.6090851748156966,-0.05753196718556838,-0.666603097082616,-2.5945565370258534,-0.05562143941554,2.507976027223799,0.8763108487046415,-0.00018571803670625872,0.0008750702472654058,0.00011612197344129881,6.897663339584098e-05,-0.0001136196896295051,0.0003846016210570927,-0.0006292845018543172,0.0,0.0,0.0,0.0,0.0,0.0,0.0,-0.0002153613692835732,8.767022581399053e-05,-0.00019779403750241897,-0.00017995555451966183,-2.433403022764763e-05,1.9250404655668518e-05,-6.103515625244249e-06,0.00018571803670625872,-0.0008750702472654058,-0.00011612197344129881,-6.897663339584098e-05,0.0001136196896295051,-0.0003846016210570927,0.0006292845018543172,-0.05722695589065552,18.177942276000977,-0.9934418201446533,-18.071321487426758,-0.5166526436805725,-2.2552523612976074,0.18710653483867645,0
33,0.1600041389465332,0.05722695589065552,-18.177942276000977,0.9934418201446533,18.071321487426758,0.5166526436805725,2.2552523612976074,-0.18710653483867645,0.0,0.0,0.0,0.0,0.0,0.0,0.0,0.0008928759893976625,0.5560447919614249,0.1615190699767362,0.4316887676416542,0.08860251959274815,0.06861236867041325,-0.21158046645580178,-0.608869813446413,-0.057619637411382374,-0.6664053030451136,-2.5943765814713338,-0.05559710538531235,2.5079567768191433,0.8763169522202667,-0.6090851748156966,-0.05753196718556838,-0.666603097082616,-2.5945565370258534,-0.05562143941554,2.507976027223799,0.8763108487046415,-0.00018571803670625872,0.0008750702472654058,0.00011612197344129881,6.897663339584098e-05,-0.0001136196896295051,0.0003846016210570927,-0.0006292845018543172,0.0,0.0,0.0,0.0,0.0,0.0,0.0,-0.0002153613692835732,8.767022581399053e-05,-0.00019779403750241897,-0.00017995555451966183,-2.433403022764763e-05,1.9250404655668518e-05,-6.103515625244249e-06,0.00018571803670625872,-0.0008750702472654058,-0.00011612197344129881,-6.897663339584098e-05,0.0001136196896295051,-0.0003846016210570927,0.0006292845018543172,-0.05722695589065552,18.177942276000977,-0.9934418201446533,-18.071321487426758,-0.5166526436805725,-2.2552523612976074,0.18710653483867645,0
34,0.16500234603881836,0.03342324495315552,-18.154138565063477,1.0172455310821533,18.071321487426758,0.5221458077430725,2.2552523612976074,-0.16604940593242645,0.0,0.0,0.0,0.0,0.0,0.0,0.0,0.0034672600234669153,0.5543345920148834,0.1621428384918012,0.4263827114409371,0.08897834248902639,0.0698525202504091,-0.2110883857223484,-0.6088681430105577,-0.05762130781119349,-0.666404162889176,-2.5943773448590433,-0.05559928958418074,2.507956737571514,0.876314612539278,-0.6090851748156966,-0.05753196718556838,-0.666603097082616,-2.5945565370258534,-0.05562143941554,2.507976027223799,0.8763108487046415,0.00014110043604522842,0.00014524372228894985,-0.00010747577982200692,-0.0004360786749374668,-0.000389014817470547,-7.580279413584995e-05,-0.0018612915016871922,0.0,0.0,0.0,0.0,0.0,0.0,0.0,-0.00021703180513887865,8.934062562510753e-05,-0.0001989341934399702,-0.00017919216681017147,-2.21498313592583e-05,1.9289652284815162e-05,-3.7638346365165276e-06,-0.00014110043604522842,-0.00014524372228894985,0.00010747577982200692,0.0004360786749374668,0.000389014817470547,7.580279413584995e-05,0.0018612915016871922,-0.03342324495315552,18.154138565063477,-1.0172455310821533,-18.071321487426758,-0.5221458077430725,-2.2552523612976074,0.16604940593242645,0
35,0.1699998378753662,0.03342324495315552,-18.154138565063477,1.0172455310821533,18.071321487426758,0.5221458077430725,2.2552523612976074,-0.16604940593242645,0.0,0.0,0.0,0.0,0.0,0.0,0.0,0.0034672600234669153,0.5543345920148834,0.1621428384918012,0.4263827114409371,0.08897834248902639,0.0698525202504091,-0.2110883857223484,-0.6088681430105577,-0.05762130781119349,-0.666404162889176,-2.5943773448590433,-0.05559928958418074,2.507956737571514,0.876314612539278,-0.6090851748156966,-0.05753196718556838,-0.666603097082616,-2.5945565370258534,-0.05562143941554,2.507976027223799,0.8763108487046415,0.00014110043604522842,0.00014524372228894985,-0.00010747577982200692,-0.0004360786749374668,-0.000389014817470547,-7.580279413584995e-05,-0.0018612915016871922,0.0,0.0,0.0,0.0,0.0,0.0,0.0,-0.00021703180513887865,8.934062562510753e-05,-0.0001989341934399702,-0.00017919216681017147,-2.21498313592583e-05,1.9289652284815162e-05,-3.7638346365165276e-06,-0.00014110043604522842,-0.00014524372228894985,0.00010747577982200692,0.0004360786749374668,0.000389014817470547,7.580279413584995e-05,0.0018612915016871922,-0.03342324495315552,18.154138565063477,-1.0172455310821533,-18.071321487426758,-0.5221458077430725,-2.2552523612976074,0.16604940593242645,0
36,0.17499852180480957,0.03342324495315552,-18.106531143188477,0.9934418201446533,18.071321487426758,0.5047507882118225,2.2488436698913574,-0.17978231608867645,0.0,0.0,0.0,0.0,0.0,0.0,0.0,0.008516025536831074,0.5511652676674937,0.16481741035087547,0.42252567298958077,0.08969604187716444,0.0693719500427395,-0.21022054173109028,-0.6088681430105577,-0.05762464868290382,-0.6664023624355547,-2.594378960729401,-0.055596290985622895,2.507957449809621,0.8763161384181842,-0.6090851748156966,-0.05753196718556838,-0.666603097082616,-2.5945565370258534,-0.05562143941554,2.507976027223799,0.8763108487046415,-0.00014316586836058635,-0.0005159242628325753,5.7692840964392656e-05,-0.000841820050503081,0.0003228584732369604,0.00013019554391683054,-0.001263796402078189,0.0,0.0,0.0,0.0,0.0,0.0,0.0,-0.00021703180513887865,9.268149733543396e-05,-0.00020073464706127364,-0.00017757629645220874,-2.514842991710453e-05,1.8577414178100327e-05,-5.289713542744323e-06,0.00014316586836058635,0.0005159242628325753,-5.7692840964392656e-05,0.000841820050503081,-0.0003228584732369604,-0.00013019554391683054,0.001263796402078189,-0.03342324495315552,18.106531143188477,-0.9934418201446533,-18.071321487426758,-0.5047507882118225,-2.2488436698913574,0.17978231608867645,0
37,0.17999911308288574,0.03342324495315552,-18.106531143188477,0.9934418201446533,18.071321487426758,0.5047507882118225,2.2488436698913574,-0.17978231608867645,0.0,0.0,0.0,0.0,0.0,0.0,0.0,0.008516025536831074,0.5511652676674937,0.16481741035087547,0.42252567298958077,0.08969604187716444,0.0693719500427395,-0.21022054173109028,-0.6088681430105577,-0.05762464868290382,-0.6664023624355547,-2.594378960729401,-0.055596290985622895,2.507957449809621,0.8763161384181842,-0.6090851748156966,-0.05753196718556838,-0.666603097082616,-2.5945565370258534,-0.05562143941554,2.507976027223799,0.8763108487046415,-0.00014316586836058635,-0.0005159242628325753,5.7692840964392656e-05,-0.000841820050503081,0.0003228584732369604,0.00013019554391683054,-0.001263796402078189,0.0,0.0,0.0,0.0,0.0,0.0,0.0,-0.00021703180513887865,9.268149733543396e-05,-0.00020073464706127364,-0.00017757629645220874,-2.514842991710453e-05,1.8577414178100327e-05,-5.289713542744323e-06,0.00014316586836058635,0.0005159242628325753,-5.7692840964392656e-05,0.000841820050503081,-0.0003228584732369604,-0.00013019554391683054,0.001263796402078189,-0.03342324495315552,18.106531143188477,-0.9934418201446533,-18.071321487426758,-0.5047507882118225,-2.2488436698913574,0.17978231608867645,0
38,0.18500041961669922,0.03342324495315552,-18.106531143188477,0.9934418201446533,18.071321487426758,0.5047507882118225,2.2488436698913574,-0.17978231608867645,0.0,0.0,0.0,0.0,0.0,0.0,0.0,0.008516025536831074,0.5511652676674937,0.16481741035087547,0.42252567298958077,0.08969604187716444,0.0693719500427395,-0.21022054173109028,-0.6088681430105577,-0.05762464868290382,-0.6664023624355547,-2.594378960729401,-0.055596290985622895,2.507957449809621,0.8763161384181842,-0.6090851748156966,-0.05753196718556838,-0.666603097082616,-2.5945565370258534,-0.05562143941554,2.507976027223799,0.8763108487046415,-0.00014316586836058635,-0.0005159242628325753,5.7692840964392656e-05,-0.000841820050503081,0.0003228584732369604,0.00013019554391683054,-0.001263796402078189,0.0,0.0,0.0,0.0,0.0,0.0,0.0,-0.00021703180513887865,9.268149733543396e-05,-0.00020073464706127364,-0.00017757629645220874,-2.514842991710453e-05,1.8577414178100327e-05,-5.289713542744323e-06,0.00014316586836058635,0.0005159242628325753,-5.7692840964392656e-05,0.000841820050503081,-0.0003228584732369604,-0.00013019554391683054,0.001263796402078189,-0.03342324495315552,18.106531143188477,-0.9934418201446533,-18.071321487426758,-0.5047507882118225,-2.2488436698913574,0.17978231608867645,0
39,0.19000005722045898,0.03342324495315552,-18.106531143188477,0.9934418201446533,18.071321487426758,0.5047507882118225,2.2488436698913574,-0.17978231608867645,0.0,0.0,0.0,0.0,0.0,0.0,0.0,0.008516025536831074,0.5511652676674937,0.16481741035087547,0.42252567298958077,0.08969604187716444,0.0693719500427395,-0.21022054173109028,-0.6088681430105577,-0.05762464868290382,-0.6664023624355547,-2.594378960729401,-0.055596290985622895,2.507957449809621,0.8763161384181842,-0.6090851748156966,-0.05753196718556838,-0.666603097082616,-2.5945565370258534,-0.05562143941554,2.507976027223799,0.8763108487046415,-0.00014316586836058635,-0.0005159242628325753,5.7692840964392656e-05,-0.000841820050503081,0.0003228584732369604,0.00013019554391683054,-0.001263796402078189,0.0,0.0,0.0,0.0,0.0,0.0,0.0,-0.00021703180513887865,9.268149733543396e-05,-0.00020073464706127364,-0.00017757629645220874,-2.514842991710453e-05,1.8577414178100327e-05,-5.289713542744323e-06,0.00014316586836058635,0.0005159242628325753,-5.7692840964392656e-05,0.000841820050503081,-0.0003228584732369604,-0.00013019554391683054,0.001263796402078189,-0.03342324495315552,18.106531143188477,-0.9934418201446533,-18.071321487426758,-0.5047507882118225,-2.2488436698913574,0.17978231608867645,0
40,0.19499802589416504,0.03342324495315552,-18.130334854125977,0.9934418201446533,17.999910354614258,0.5166526436805725,2.2360262870788574,-0.24112264811992645,0.0,0.0,0.0,0.0,0.0,0.0,0.0,0.0024082090858481243,0.5487655619843931,0.15857813275068353,0.4274416491986967,0.09014795996684949,0.069473079500939,-0.20943211814122817,-0.6088681439917041,-0.057622978247048554,-0.6664022706306172,-2.5943723696685916,-0.055601377921407874,2.5079588738017615,0.8763229540106322,-0.6090851748156966,-0.05753196718556838,-0.666603097082616,-2.5945565370258534,-0.05562143941554,2.507976027223799,0.8763108487046415,-0.0012500528969048882,0.0011252692986139588,-0.0007477296555591096,0.0019019601150084612,-0.00014160560684422667,0.0004115325652672561,0.0009113502754227503,0.0,0.0,0.0,0.0,0.0,0.0,0.0,-0.0002170308239924923,9.101106148017013e-05,-0.00020082645199881455,-0.00018416735726178857,-2.006149413212588e-05,1.7153422037452515e-05,-1.2105305990717241e-05,0.0012500528969048882,-0.0011252692986139588,0.0007477296555591096,-0.0019019601150084612,0.00014160560684422667,-0.0004115325652672561,-0.0009113502754227503,-0.03342324495315552,18.130334854125977,-0.9934418201446533,-17.999910354614258,-0.5166526436805725,-2.2360262870788574,0.24112264811992645,0
41,0.19999909400939941,0.03342324495315552,-18.130334854125977,0.9934418201446533,17.999910354614258,0.5166526436805725,2.2360262870788574,-0.24112264811992645,0.0,0.0,0.0,0.0,0.0,0.0,0.0,0.0024082090858481243,0.5487655619843931,0.15857813275068353,0.4274416491986967,0.09014795996684949,0.069473079500939,-0.20943211814122817,-0.6088681439917041,-0.057622978247048554,-0.6664022706306172,-2.5943723696685916,-0.055601377921407874,2.5079588738017615,0.8763229540106322,-0.6090851748156966,-0.05753196718556838,-0.666603097082616,-2.5945565370258534,-0.05562143941554,2.507976027223799,0.8763108487046415,-0.0012500528969048882,0.0011252692986139588,-0.0007477296555591096,0.0019019601150084612,-0.00014160560684422667,0.0004115325652672561,0.0009113502754227503,0.0,0.0,0.0,0.0,0.0,0.0,0.0,-0.0002170308239924923,9.101106148017013e-05,-0.00020082645199881455,-0.00018416735726178857,-2.006149413212588e-05,1.7153422037452515e-05,-1.2105305990717241e-05,0.0012500528969048882,-0.0011252692986139588,0.0007477296555591096,-0.0019019601150084612,0.00014160560684422667,-0.0004115325652672561,-0.0009113502754227503,-0.03342324495315552,18.130334854125977,-0.9934418201446533,-17.999910354614258,-0.5166526436805725,-2.2360262870788574,0.24112264811992645,0
42,0.2050001621246338,-0.04592245817184448,-18.078760147094727,0.8942596912384033,18.071321487426758,0.5166526436805725,2.2488436698913574,-0.20724813640117645,0.0,0.0,0.0,0.0,0.0,0.0,0.0,-0.0070329443757917555,0.5483823098992484,0.15188151405383832,0.4276743836194314,0.09051955173561116,0.0675888543814251,-0.2100990338750533,-0.6088625748910457,-0.05762659752473496,-0.6663974299935552,-2.594378673613055,-0.05559758666844035,2.5079574496481154,0.8763181305378674,-0.6090851748156966,-0.05753196718556838,-0.666603097082616,-2.5945565370258534,-0.05562143941554,2.507976027223799,0.8763108487046415,-0.00016411315237455077,-0.0004899467634931054,0.000586923333999338,-0.0003061541150105015,-0.00011856025635227088,-0.00013989901004609023,-0.0006938355040778683,0.0,0.0,0.0,0.0,0.0,0.0,0.0,-0.0002225999246509014,9.46303391665751e-05,-0.00020566708906077924,-0.0001778634127984624,-2.3852747099650795e-05,1.8577575683575986e-05,-7.281833225958323e-06,0.00016411315237455077,0.0004899467634931054,-0.000586923333999338,0.0003061541150105015,0.00011856025635227088,0.00013989901004609023,0.0006938355040778683,0.04592245817184448,18.078760147094727,-0.8942596912384033,-18.071321487426758,-0.5166526436805725,-2.2488436698913574,0.20724813640117645,0
43,0.2100074291229248,-0.04592245817184448,-18.078760147094727,0.8942596912384033,18.071321487426758,0.5166526436805725,2.2488436698913574,-0.20724813640117645,0.0,0.0,0.0,0.0,0.0,0.0,0.0,-0.0070329443757917555,0.5483823098992484,0.15188151405383832,0.4276743836194314,0.09051955173561116,0.0675888543814251,-0.2100990338750533,-0.6088625748910457,-0.05762659752473496,-0.6663974299935552,-2.594378673613055,-0.05559758666844035,2.5079574496481154,0.8763181305378674,-0.6090851748156966,-0.05753196718556838,-0.666603097082616,-2.5945565370258534,-0.05562143941554,2.507976027223799,0.8763108487046415,-0.00016411315237455077,-0.0004899467634931054,0.000586923333999338,-0.0003061541150105015,-0.00011856025635227088,-0.00013989901004609023,-0.0006938355040778683,0.0,0.0,0.0,0.0,0.0,0.0,0.0,-0.0002225999246509014,9.46303391665751e-05,-0.00020566708906077924,-0.0001778634127984624,-2.3852747099650795e-05,1.8577575683575986e-05,-7.281833225958323e-06,0.00016411315237455077,0.0004899467634931054,-0.000586923333999338,0.0003061541150105015,0.00011856025635227088,0.00013989901004609023,0.0006938355040778683,0.04592245817184448,18.078760147094727,-0.8942596912384033,-18.071321487426758,-0.5166526436805725,-2.2488436698913574,0.20724813640117645,0
44,0.21501421928405762,-0.04592245817184448,-18.106531143188477,0.9696381092071533,18.023714065551758,0.5102439522743225,2.2552523612976074,-0.15964071452617645,0.0,0.0,0.0,0.0,0.0,0.0,0.0,-0.0018842913355663648,0.5514094965235281,0.1579611442521004,0.4269705679440325,0.08968296467073589,0.06688938768834823,-0.21201068099000694,-0.6088625748910402,-0.05762464868290382,-0.6664012896981601,-2.594374181657976,-0.05559971787835777,2.5079567375712926,0.8763138481286645,-0.6090851748156966,-0.05753196718556838,-0.666603097082616,-2.5945565370258534,-0.05562143941554,2.507976027223799,0.8763108487046415,0.00011409692356929007,-0.0006653852511727925,-0.000664163115500171,0.00039121437326819,0.0003646500710373478,3.633494265641572e-06,-0.0019204508292098596,0.0,0.0,0.0,0.0,0.0,0.0,0.0,-0.00022259992465634149,9.268149733543396e-05,-0.00020180738445585433,-0.00018235536787747364,-2.1721537182231576e-05,1.9289652506415678e-05,-2.9994240230424296e-06,-0.00011409692356929007,0.0006653852511727925,0.000664163115500171,-0.00039121437326819,-0.0003646500710373478,-3.633494265641572e-06,0.0019204508292098596,0.04592245817184448,18.106531143188477,-0.9696381092071533,-18.023714065551758,-0.5102439522743225,-2.2552523612976074,0.15964071452617645,0
45,0.22030258178710938,-0.04592245817184448,-18.106531143188477,0.9696381092071533,18.023714065551758,0.5102439522743225,2.2552523612976074,-0.15964071452617645,0.0,0.0,0.0,0.0,0.0,0.0,0.0,-0.0018842913355663648,0.5514094965235281,0.1579611442521004,0.4269705679440325,0.08968296467073589,0.06688938768834823,-0.21201068099000694,-0.6088625748910402,-0.05762464868290382,-0.6664012896981601,-2.594374181657976,-0.05559971787835777,2.5079567375712926,0.8763138481286645,-0.6090851748156966,-0.05753196718556838,-0.666603097082616,-2.5945565370258534,-0.05562143941554,2.507976027223799,0.8763108487046415,0.00011409692356929007,-0.0006653852511727925,-0.000664163115500171,0.00039121437326819,0.0003646500710373478,3.633494265641572e-06,-0.0019204508292098596,0.0,0.0,0.0,0.0,0.0,0.0,0.0,-0.00022259992465634149,9.268149733543396e-05,-0.00020180738445585433,-0.00018235536787747364,-2.1721537182231576e-05,1.9289652506415678e-05,-2.9994240230424296e-06,-0.00011409692356929007,0.0006653852511727925,0.000664163115500171,-0.00039121437326819,-0.0003646500710373478,-3.633494265641572e-06,0.0019204508292098596,0.04592245817184448,18.106531143188477,-0.9696381092071533,-18.023714065551758,-0.5102439522743225,-2.2552523612976074,0.15964071452617645,0
46,0.2250049114227295,0.005652248859405518,-18.106531143188477,0.9696381092071533,18.071321487426758,0.5166526436805725,2.2488436698913574,-0.24112264811992645,0.0,0.0,0.0,0.0,0.0,0.0,0.0,-0.01016079256963552,0.5513287947377553,0.1544744418219416,0.4285793147949532,0.08997594077710444,0.06841631193660125,-0.21013738060440088,-0.6088661941687266,-0.05762464868290382,-0.666400587679827,-2.594376613478248,-0.05559746976063758,2.5079574496481154,0.8763229540103369,-0.6090851748156966,-0.05753196718556838,-0.666603097082616,-2.5945565370258534,-0.05562143941554,2.507976027223799,0.8763108487046415,-0.0006498649051772707,-0.000451461728276185,-0.00015815690606577485,-0.00018153377039263502,-0.000106850729466176,-0.00010287710278571738,0.0015182731951530548,0.0,0.0,0.0,0.0,0.0,0.0,0.0,-0.00021898064697001285,9.268149733543396e-05,-0.00020250940278898621,-0.00017992354760520968,-2.3969654902422644e-05,1.8577575683575986e-05,-1.2105305695397917e-05,0.0006498649051772707,0.000451461728276185,0.00015815690606577485,0.00018153377039263502,0.000106850729466176,0.00010287710278571738,-0.0015182731951530548,-0.005652248859405518,18.106531143188477,-0.9696381092071533,-18.071321487426758,-0.5166526436805725,-2.2488436698913574,0.24112264811992645,0
47,0.23000144958496094,0.005652248859405518,-18.106531143188477,0.9696381092071533,18.071321487426758,0.5166526436805725,2.2488436698913574,-0.24112264811992645,0.0,0.0,0.0,0.0,0.0,0.0,0.0,-0.01016079256963552,0.5513287947377553,0.1544744418219416,0.4285793147949532,0.08997594077710444,0.06841631193660125,-0.21013738060440088,-0.6088661941687266,-0.05762464868290382,-0.666400587679827,-2.594376613478248,-0.05559746976063758,2.5079574496481154,0.8763229540103369,-0.6090851748156966,-0.05753196718556838,-0.666603097082616,-2.5945565370258534,-0.05562143941554,2.507976027223799,0.8763108487046415,-0.0006498649051772707,-0.000451461728276185,-0.00015815690606577485,-0.00018153377039263502,-0.000106850729466176,-0.00010287710278571738,0.0015182731951530548,0.0,0.0,0.0,0.0,0.0,0.0,0.0,-0.00021898064697001285,9.268149733543396e-05,-0.00020250940278898621,-0.00017992354760520968,-2.3969654902422644e-05,1.8577575683575986e-05,-1.2105305695397917e-05,0.0006498649051772707,0.000451461728276185,0.00015815690606577485,0.00018153377039263502,0.000106850729466176,0.00010287710278571738,-0.0015182731951530548,-0.005652248859405518,18.106531143188477,-0.9696381092071533,-18.071321487426758,-0.5166526436805725,-2.2488436698913574,0.24112264811992645,0
48,0.235001802444458,0.005652248859405518,-18.078760147094727,0.9934418201446533,18.047517776489258,0.5102439522743225,2.2488436698913574,-0.18710653483867645,0.0,0.0,0.0,0.0,0.0,0.0,0.0,-0.00975619933215475,0.5558355034600394,0.1560393906020767,0.4252994294649753,0.0894361147015618,0.06694334259937178,-0.20958381331480724,-0.6088661941687266,-0.05762659752473496,-0.6664022581117195,-2.5943749197324006,-0.0555964284159088,2.5079574496481154,0.8763169522202676,-0.6090851748156966,-0.05753196718556838,-0.666603097082616,-2.5945565370258534,-0.05562143941554,2.507976027223799,0.8763108487046415,-4.295330692808111e-05,-0.0009089037052198096,0.00010074782805285499,0.00016963157396591899,-2.3173414789243365e-05,-6.115091453659375e-05,-0.001414105951280694,0.0,0.0,0.0,0.0,0.0,0.0,0.0,-0.00021898064697001285,9.46303391665751e-05,-0.00020083897089651082,-0.00018161729345278488,-2.5010999631203124e-05,1.8577575683575986e-05,-6.1035156261324275e-06,4.295330692808111e-05,0.0009089037052198096,-0.00010074782805285499,-0.00016963157396591899,2.3173414789243365e-05,6.115091453659375e-05,0.001414105951280694,-0.005652248859405518,18.078760147094727,-0.9934418201446533,-18.047517776489258,-0.5102439522743225,-2.2488436698913574,0.18710653483867645,0
49,0.23999834060668945,0.005652248859405518,-18.078760147094727,0.9934418201446533,18.047517776489258,0.5102439522743225,2.2488436698913574,-0.18710653483867645,0.0,0.0,0.0,0.0,0.0,0.0,0.0,-0.00975619933215475,0.5558355034600394,0.1560393906020767,0.4252994294649753,0.0894361147015618,0.06694334259937178,-0.20958381331480724,-0.6088661941687266,-0.05762659752473496,-0.6664022581117195,-2.5943749197324006,-0.0555964284159088,2.5079574496481154,0.8763169522202676,-0.6090851748156966,-0.05753196718556838,-0.666603097082616,-2.5945565370258534,-0.05562143941554,2.507976027223799,0.8763108487046415,-4.295330692808111e-05,-0.0009089037052198096,0.00010074782805285499,0.00016963157396591899,-2.3173414789243365e-05,-6.115091453659375e-05,-0.001414105951280694,0.0,0.0,0.0,0.0,0.0,0.0,0.0,-0.00021898064697001285,9.46303391665751e-05,-0.00020083897089651082,-0.00018161729345278488,-2.5010999631203124e-05,1.8577575683575986e-05,-6.1035156261324275e-06,4.295330692808111e-05,0.0009089037052198096,-0.00010074782805285499,-0.00016963157396591899,2.3173414789243365e-05,6.115091453659375e-05,0.001414105951280694,-0.005652248859405518,18.078760147094727,-0.9934418201446533,-18.047517776489258,-0.5102439522743225,-2.2488436698913574,0.18710653483867645,0
50,0.24509787559509277,0.005652248859405518,-18.106531143188477,1.0410492420196533,18.071321487426758,0.5166526436805725,2.2488436698913574,-0.19351522624492645,0.0,0.0,0.0,0.0,0.0,0.0,0.0,-0.004737257994071826,0.5526722456178645,0.15890013982716117,0.4267067711164595,0.08911707585749495,0.06700456720847509,-0.21207726987308917,-0.6088661941687266,-0.05762464868290382,-0.6664055990190958,-2.59437657883127,-0.05559856222982439,2.507960628562503,0.8763176642970906,-0.6090851748156966,-0.05753196718556838,-0.666603097082616,-2.5945565370258534,-0.05562143941554,2.507976027223799,0.8763108487046415,0.0007168111642892154,-0.00031490675261309586,-0.0004964533463618623,-0.0008082112843774794,-0.00016877891893667856,9.929934193949694e-05,-0.0009260276253033918,0.0,0.0,0.0,0.0,0.0,0.0,0.0,-0.00021898064697001285,9.268149733543396e-05,-0.00019749806352020727,-0.00017995819458338502,-2.2877185715607096e-05,1.5398661295851213e-05,-6.815592449083141e-06,-0.0007168111642892154,0.00031490675261309586,0.0004964533463618623,0.0008082112843774794,0.00016877891893667856,-9.929934193949694e-05,0.0009260276253033918,-0.005652248859405518,18.106531143188477,-1.0410492420196533,-18.071321487426758,-0.5166526436805725,-2.2488436698913574,0.19351522624492645,0
51,0.25,0.005652248859405518,-18.106531143188477,1.0410492420196533,18.071321487426758,0.5166526436805725,2.2488436698913574,-0.19351522624492645,0.0,0.0,0.0,0.0,0.0,0.0,0.0,-0.004737257994071826,0.5526722456178645,0.15890013982716117,0.4267067711164595,0.08911707585749495,0.06700456720847509,-0.21207726987308917,-0.6088661941687266,-0.05762464868290382,-0.6664055990190958,-2.59437657883127,-0.05559856222982439,2.507960628562503,0.8763176642970906,-0.6090851748156966,-0.05753196718556838,-0.666603097082616,-2.5945565370258534,-0.05562143941554,2.507976027223799,0.8763108487046415,0.0007168111642892154,-0.00031490675261309586,-0.0004964533463618623,-0.0008082112843774794,-0.00016877891893667856,9.929934193949694e-05,-0.0009260276253033918,0.0,0.0,0.0,0.0,0.0,0.0,0.0,-0.00021898064697001285,9.268149733543396e-05,-0.00019749806352020727,-0.00017995819458338502,-2.2877185715607096e-05,1.5398661295851213e-05,-6.815592449083141e-06,-0.0007168111642892154,0.00031490675261309586,0.0004964533463618623,0.0008082112843774794,0.00016877891893667856,-9.929934193949694e-05,0.0009260276253033918,-0.005652248859405518,18.106531143188477,-1.0410492420196533,-18.071321487426758,-0.5166526436805725,-2.2488436698913574,0.19351522624492645,0
52,0.2549936771392822,0.005652248859405518,-18.106531143188477,0.9934418201446533,18.071321487426758,0.5221458077430725,2.2625765800476074,-0.20724813640117645,0.0,0.0,0.0,0.0,0.0,0.0,0.0,0.003939764489006469,0.5480753966441558,0.16632436162478728,0.43223807975847384,0.08937939859239684,0.06856796029467828,-0.21332120912298058,-0.6088661941687266,-0.05762464868290382,-0.6664022841120997,-2.5943766559892656,-0.05559787240749594,2.5079559237871543,0.8763191901759968,-0.6090851748156966,-0.05753196718556838,-0.666603097082616,-2.5945565370258534,-0.05562143941554,2.507976027223799,0.8763108487046415,0.0009260365171740449,-0.0004284845131578742,0.0007182508743701312,0.00015091331295360514,-0.0003104553447501288,-0.0004962857481757123,0.00021325314202701916,0.0,0.0,0.0,0.0,0.0,0.0,0.0,-0.00021898064697001285,9.268149733543396e-05,-0.00020081297051632863,-0.00017988103658783672,-2.356700804406059e-05,2.0103436644713923e-05,-8.341471355310937e-06,-0.0009260365171740449,0.0004284845131578742,-0.0007182508743701312,-0.00015091331295360514,0.0003104553447501288,0.0004962857481757123,-0.00021325314202701916,-0.005652248859405518,18.106531143188477,-0.9934418201446533,-18.071321487426758,-0.5221458077430725,-2.2625765800476074,0.20724813640117645,0
53,0.25999999046325684,0.005652248859405518,-18.106531143188477,0.9934418201446533,18.071321487426758,0.5221458077430725,2.2625765800476074,-0.20724813640117645,0.0,0.0,0.0,0.0,0.0,0.0,0.0,0.003939764489006469,0.5480753966441558,0.16632436162478728,0.43223807975847384,0.08937939859239684,0.06856796029467828,-0.21332120912298058,-0.6088661941687266,-0.05762464868290382,-0.6664022841120997,-2.5943766559892656,-0.05559787240749594,2.5079559237871543,0.8763191901759968,-0.6090851748156966,-0.05753196718556838,-0.666603097082616,-2.5945565370258534,-0.05562143941554,2.507976027223799,0.8763108487046415,0.0009260365171740449,-0.0004284845131578742,0.0007182508743701312,0.00015091331295360514,-0.0003104553447501288,-0.0004962857481757123,0.00021325314202701916,0.0,0.0,0.0,0.0,0.0,0.0,0.0,-0.00021898064697001285,9.268149733543396e-05,-0.00020081297051632863,-0.00017988103658783672,-2.356700804406059e-05,2.0103436644713923e-05,-8.341471355310937e-06,-0.0009260365171740449,0.0004284845131578742,-0.0007182508743701312,-0.00015091331295360514,0.0003104553447501288,0.0004962857481757123,-0.00021325314202701916,-0.005652248859405518,18.106531143188477,-0.9934418201446533,-18.071321487426758,-0.5221458077430725,-2.2625765800476074,0.20724813640117645,0
54,0.2649996280670166,0.005652248859405518,-18.130334854125977,0.9934418201446533,17.972139358520508,0.5102439522743225,2.2552523612976074,-0.22098104655742645,0.0,0.0,0.0,0.0,0.0,0.0,0.0,0.008368310184776162,0.5506764683501991,0.17010071785035794,0.42242178625051047,0.08959305236472094,0.06753325435517812,-0.2114778243154773,-0.6088661941687266,-0.057622978247048554,-0.6664044682511658,-2.5943696470252418,-0.05559638810683819,2.5079567375712926,0.876320716054903,-0.6090851748156966,-0.05753196718556838,-0.666603097082616,-2.5945565370258534,-0.05562143941554,2.507976027223799,0.8763108487046415,0.0003872935151082973,0.0001537710220933449,0.00010614585753594784,0.0016434908286767113,0.0001613670230711386,7.8110386783156e-05,0.0013355362375743291,0.0,0.0,0.0,0.0,0.0,0.0,0.0,-0.00021898064697001285,9.101106148017013e-05,-0.00019862883145016497,-0.0001868900006116725,-2.505130870181227e-05,1.9289652506415678e-05,-9.867350261538732e-06,-0.0003872935151082973,-0.0001537710220933449,-0.00010614585753594784,-0.0016434908286767113,-0.0001613670230711386,-7.8110386783156e-05,-0.0013355362375743291,-0.005652248859405518,18.130334854125977,-0.9934418201446533,-17.972139358520508,-0.5102439522743225,-2.2552523612976074,0.22098104655742645,0
55,0.2700009346008301,0.005652248859405518,-18.130334854125977,0.9934418201446533,17.972139358520508,0.5102439522743225,2.2552523612976074,-0.22098104655742645,0.0,0.0,0.0,0.0,0.0,0.0,0.0,0.008368310184776162,0.5506764683501991,0.17010071785035794,0.42242178625051047,0.08959305236472094,0.06753325435517812,-0.2114778243154773,-0.6088661941687266,-0.057622978247048554,-0.6664044682511658,-2.5943696470252418,-0.05559638810683819,2.5079567375712926,0.876320716054903,-0.6090851748156966,-0.05753196718556838,-0.666603097082616,-2.5945565370258534,-0.05562143941554,2.507976027223799,0.8763108487046415,0.0003872935151082973,0.0001537710220933449,0.00010614585753594784,0.0016434908286767113,0.0001613670230711386,7.8110386783156e-05,0.0013355362375743291,0.0,0.0,0.0,0.0,0.0,0.0,0.0,-0.00021898064697001285,9.101106148017013e-05,-0.00019862883145016497,-0.0001868900006116725,-2.505130870181227e-05,1.9289652506415678e-05,-9.867350261538732e-06,-0.0003872935151082973,-0.0001537710220933449,-0.00010614585753594784,-0.0016434908286767113,-0.0001613670230711386,-7.8110386783156e-05,-0.0013355362375743291,-0.005652248859405518,18.130334854125977,-0.9934418201446533,-17.972139358520508,-0.5102439522743225,-2.2552523612976074,0.22098104655742645,0
56,0.27500009536743164,0.005652248859405518,-18.106531143188477,1.0410492420196533,18.047517776489258,0.5102439522743225,2.2625765800476074,-0.24844686686992645,0.0,0.0,0.0,0.0,0.0,0.0,0.0,0.01097370685583517,0.5518882131015702,0.17265584275498658,0.42544873307036024,0.0897986082836776,0.06992546709645059,-0.2080258765792067,-0.6088661941687266,-0.05762464868290382,-0.6664077053833465,-2.5943751474656094,-0.05559644011072211,2.507955923769209,0.8763227081745861,-0.6090851748156966,-0.05753196718556838,-0.666603097082616,-2.5945565370258534,-0.05562143941554,2.507976027223799,0.8763108487046415,-0.0003506906093218912,0.00026260526919325683,-0.0010784154002507415,0.00045335253994825334,0.0001946748083598985,-0.00018912055695477823,0.0014399883112155216,0.0,0.0,0.0,0.0,0.0,0.0,0.0,-0.00021898064697001285,9.268149733543396e-05,-0.00019539169926952038,-0.00018138956024404962,-2.499930481789092e-05,2.0103454589914804e-05,-1.185946994464171e-05,0.0003506906093218912,-0.00026260526919325683,0.0010784154002507415,-0.00045335253994825334,-0.0001946748083598985,0.00018912055695477823,-0.0014399883112155216,-0.005652248859405518,18.106531143188477,-1.0410492420196533,-18.047517776489258,-0.5102439522743225,-2.2625765800476074,0.24844686686992645,0
57,0.28000450134277344,0.005652248859405518,-18.106531143188477,1.0410492420196533,18.047517776489258,0.5102439522743225,2.2625765800476074,-0.24844686686992645,0.0,0.0,0.0,0.0,0.0,0.0,0.0,0.01097370685583517,0.5518882131015702,0.17265584275498658,0.42544873307036024,0.0897986082836776,0.06992546709645059,-0.2080258765792067,-0.6088661941687266,-0.05762464868290382,-0.6664077053833465,-2.5943751474656094,-0.05559644011072211,2.507955923769209,0.8763227081745861,-0.6090851748156966,-0.05753196718556838,-0.666603097082616,-2.5945565370258534,-0.05562143941554,2.507976027223799,0.8763108487046415,-0.0003506906093218912,0.00026260526919325683,-0.0010784154002507415,0.00045335253994825334,0.0001946748083598985,-0.00018912055695477823,0.0014399883112155216,0.0,0.0,0.0,0.0,0.0,0.0,0.0,-0.00021898064697001285,9.268149733543396e-05,-0.00019539169926952038,-0.00018138956024404962,-2.499930481789092e-05,2.0103454589914804e-05,-1.185946994464171e-05,0.0003506906093218912,-0.00026260526919325683,0.0010784154002507415,-0.00045335253994825334,-0.0001946748083598985,0.00018912055695477823,-0.0014399883112155216,-0.005652248859405518,18.106531143188477,-1.0410492420196533,-18.047517776489258,-0.5102439522743225,-2.2625765800476074,0.24844686686992645,0
58,0.28501367568969727,0.005652248859405518,-18.106531143188477,1.0410492420196533,18.047517776489258,0.5102439522743225,2.2625765800476074,-0.24844686686992645,0.0,0.0,0.0,0.0,0.0,0.0,0.0,0.01097370685583517,0.5518882131015702,0.17265584275498658,0.42544873307036024,0.0897986082836776,0.06992546709645059,-0.2080258765792067,-0.6088661941687266,-0.05762464868290382,-0.6664077053833465,-2.5943751474656094,-0.05559644011072211,2.507955923769209,0.8763227081745861,-0.6090851748156966,-0.05753196718556838,-0.666603097082616,-2.5945565370258534,-0.05562143941554,2.507976027223799,0.8763108487046415,-0.0003506906093218912,0.00026260526919325683,-0.0010784154002507415,0.00045335253994825334,0.0001946748083598985,-0.00018912055695477823,0.0014399883112155216,0.0,0.0,0.0,0.0,0.0,0.0,0.0,-0.00021898064697001285,9.268149733543396e-05,-0.00019539169926952038,-0.00018138956024404962,-2.499930481789092e-05,2.0103454589914804e-05,-1.185946994464171e-05,0.0003506906093218912,-0.00026260526919325683,0.0010784154002507415,-0.00045335253994825334,-0.0001946748083598985,0.00018912055695477823,-0.0014399883112155216,-0.005652248859405518,18.106531143188477,-1.0410492420196533,-18.047517776489258,-0.5102439522743225,-2.2625765800476074,0.24844686686992645,0
59,0.29000377655029297,0.005652248859405518,-18.106531143188477,1.0410492420196533,18.047517776489258,0.5102439522743225,2.2625765800476074,-0.24844686686992645,0.0,0.0,0.0,0.0,0.0,0.0,0.0,0.01097370685583517,0.5518882131015702,0.17265584275498658,0.42544873307036024,0.0897986082836776,0.06992546709645059,-0.2080258765792067,-0.6088661941687266,-0.05762464868290382,-0.6664077053833465,-2.5943751474656094,-0.05559644011072211,2.507955923769209,0.8763227081745861,-0.6090851748156966,-0.05753196718556838,-0.666603097082616,-2.5945565370258534,-0.05562143941554,2.507976027223799,0.8763108487046415,-0.0003506906093218912,0.00026260526919325683,-0.0010784154002507415,0.00045335253994825334,0.0001946748083598985,-0.00018912055695477823,0.0014399883112155216,0.0,0.0,0.0,0.0,0.0,0.0,0.0,-0.00021898064697001285,9.268149733543396e-05,-0.00019539169926952038,-0.00018138956024404962,-2.499930481789092e-05,2.0103454589914804e-05,-1.185946994464171e-05,0.0003506906093218912,-0.00026260526919325683,0.0010784154002507415,-0.00045335253994825334,-0.0001946748083598985,0.00018912055695477823,-0.0014399883112155216,-0.005652248859405518,18.106531143188477,-1.0410492420196533,-18.047517776489258,-0.5102439522743225,-2.2625765800476074,0.24844686686992645,0
60,0.2950015068054199,-0.04592245817184448,-18.106531143188477,0.9696381092071533,18.071321487426758,0.5102439522743225,2.2552523612976074,-0.25485557317733765,0.0,0.0,0.0,0.0,0.0,0.0,0.0,0.0014203266351515882,0.5559692766597261,0.1672690548545875,0.4200246790523666,0.08979734756848083,0.06899121459322673,-0.2096020041805953,-0.6088625748910402,-0.05762467495923127,-0.6664036300769915,-2.5943766815031246,-0.05559638745675249,2.5079567773016658,0.8763244406273925,-0.6090851748156966,-0.05753196718556838,-0.666603097082616,-2.5945565370258534,-0.05562143941554,2.507976027223799,0.8763108487046415,0.0004441375713825388,0.0005633603018272059,-0.00027606034925423535,-0.0005557489094726861,0.0002531764287279794,-0.0004839771044414883,0.0015556488510379666,0.0,0.0,0.0,0.0,0.0,0.0,0.0,-0.00022259992465634149,9.270777366288813e-05,-0.00019946700562445407,-0.00017985552272881122,-2.5051958787512818e-05,1.924992213320209e-05,-1.3591922750966212e-05,-0.0004441375713825388,-0.0005633603018272059,0.00027606034925423535,0.0005557489094726861,-0.0002531764287279794,0.0004839771044414883,-0.0015556488510379666,0.04592245817184448,18.106531143188477,-0.9696381092071533,-18.071321487426758,-0.5102439522743225,-2.2552523612976074,0.25485557317733765,0
61,0.3000051975250244,-0.04592245817184448,-18.106531143188477,0.9696381092071533,18.071321487426758,0.5102439522743225,2.2552523612976074,-0.25485557317733765,0.0,0.0,0.0,0.0,0.0,0.0,0.0,0.0014203266351515882,0.5559692766597261,0.1672690548545875,0.4200246790523666,0.08979734756848083,0.06899121459322673,-0.2096020041805953,-0.6088625748910402,-0.05762467495923127,-0.6664036300769915,-2.5943766815031246,-0.05559638745675249,2.5079567773016658,0.8763244406273925,-0.6090851748156966,-0.05753196718556838,-0.666603097082616,-2.5945565370258534,-0.05562143941554,2.507976027223799,0.8763108487046415,0.0004441375713825388,0.0005633603018272059,-0.00027606034925423535,-0.0005557489094726861,0.0002531764287279794,-0.0004839771044414883,0.0015556488510379666,0.0,0.0,0.0,0.0,0.0,0.0,0.0,-0.00022259992465634149,9.270777366288813e-05,-0.00019946700562445407,-0.00017985552272881122,-2.5051958787512818e-05,1.924992213320209e-05,-1.3591922750966212e-05,-0.0004441375713825388,-0.0005633603018272059,0.00027606034925423535,0.0005557489094726861,-0.0002531764287279794,0.0004839771044414883,-0.0015556488510379666,0.04592245817184448,18.106531143188477,-0.9696381092071533,-18.071321487426758,-0.5102439522743225,-2.2552523612976074,0.25485557317733765,0
62,0.3050999641418457,-0.018151462078094482,-18.154138565063477,0.9418671131134033,18.047517776489258,0.5102439522743225,2.2488436698913574,-0.20083944499492645,0.0,0.0,0.0,0.0,0.0,0.0,0.0,0.0006121953828417414,0.55719028126203,0.16984559595401158,0.42436910571746483,0.08934364013644575,0.06875129689497377,-0.2117180350926057,-0.6088645237328714,-0.057621307811242736,-0.6663986388516464,-2.5943769829936385,-0.05559640224472511,2.507957449702025,0.8763184780991,-0.6090851748156966,-0.05753196718556838,-0.666603097082616,-2.5945565370258534,-0.05562143941554,2.507976027223799,0.8763108487046415,-0.0002331319302291153,0.0014336069977183995,0.00023739193974913058,0.00029112587371316333,0.00023982018642716417,-0.00012627745726997183,-0.0007853421472571645,0.0,0.0,0.0,0.0,0.0,0.0,0.0,-0.0002206510828252073,8.934062567435286e-05,-0.00020445823096959526,-0.0001795540322149236,-2.50371708148886e-05,1.8577521773810446e-05,-7.629394458530392e-06,0.0002331319302291153,-0.0014336069977183995,-0.00023739193974913058,-0.00029112587371316333,-0.00023982018642716417,0.00012627745726997183,0.0007853421472571645,0.018151462078094482,18.154138565063477,-0.9418671131134033,-18.047517776489258,-0.5102439522743225,-2.2488436698913574,0.20083944499492645,0
63,0.309999942779541,-0.018151462078094482,-18.154138565063477,0.9418671131134033,18.047517776489258,0.5102439522743225,2.2488436698913574,-0.20083944499492645,0.0,0.0,0.0,0.0,0.0,0.0,0.0,0.0006121953828417414,0.55719028126203,0.16984559595401158,0.42436910571746483,0.08934364013644575,0.06875129689497377,-0.2117180350926057,-0.6088645237328714,-0.057621307811242736,-0.6663986388516464,-2.5943769829936385,-0.05559640224472511,2.507957449702025,0.8763184780991,-0.6090851748156966,-0.05753196718556838,-0.666603097082616,-2.5945565370258534,-0.05562143941554,2.507976027223799,0.8763108487046415,-0.0002331319302291153,0.0014336069977183995,0.00023739193974913058,0.00029112587371316333,0.00023982018642716417,-0.00012627745726997183,-0.0007853421472571645,0.0,0.0,0.0,0.0,0.0,0.0,0.0,-0.0002206510828252073,8.934062567435286e-05,-0.00020445823096959526,-0.0001795540322149236,-2.50371708148886e-05,1.8577521773810446e-05,-7.629394458530392e-06,0.0002331319302291153,-0.0014336069977183995,-0.00023739193974913058,-0.00029112587371316333,-0.00023982018642716417,0.00012627745726997183,0.0007853421472571645,0.018151462078094482,18.154138565063477,-0.9418671131134033,-18.047517776489258,-0.5102439522743225,-2.2488436698913574,0.20083944499492645,0
64,0.309999942779541,-0.018151462078094482,-18.154138565063477,0.9418671131134033,18.047517776489258,0.5102439522743225,2.2488436698913574,-0.20083944499492645,0.0,0.0,0.0,0.0,0.0,0.0,0.0,0.0006121953828417414,0.55719028126203,0.16984559595401158,0.42436910571746483,0.08934364013644575,0.06875129689497377,-0.2117180350926057,-0.6088645237328714,-0.057621307811242736,-0.6663986388516464,-2.5943769829936385,-0.05559640224472511,2.507957449702025,0.8763184780991,-0.6090851748156966,-0.05753196718556838,-0.666603097082616,-2.5945565370258534,-0.05562143941554,2.507976027223799,0.8763108487046415,-0.0002331319302291153,0.0014336069977183995,0.00023739193974913058,0.00029112587371316333,0.00023982018642716417,-0.00012627745726997183,-0.0007853421472571645,0.0,0.0,0.0,0.0,0.0,0.0,0.0,-0.0002206510828252073,8.934062567435286e-05,-0.00020445823096959526,-0.0001795540322149236,-2.50371708148886e-05,1.8577521773810446e-05,-7.629394458530392e-06,0.0002331319302291153,-0.0014336069977183995,-0.00023739193974913058,-0.00029112587371316333,-0.00023982018642716417,0.00012627745726997183,0.0007853421472571645,0.018151462078094482,18.154138565063477,-0.9418671131134033,-18.047517776489258,-0.5102439522743225,-2.2488436698913574,0.20083944499492645,0
65,0.32000064849853516,-0.018151462078094482,-18.130334854125977,0.9696381092071533,17.999910354614258,0.4983420968055725,2.2488436698913574,-0.18710653483867645,0.0,0.0,0.0,0.0,0.0,0.0,0.0,-0.0047215717051605835,0.5572277244912521,0.16497539214177284,0.42458006451807717,0.08939458595778048,0.06791025922397921,-0.2131030990884916,-0.6088647650948896,-0.0576229782830929,-0.6664012896861249,-2.5943715936737974,-0.05559933023354442,2.507957449648116,0.8763169522202676,-0.6090851748156966,-0.05753196718556838,-0.666603097082616,-2.5945565370258534,-0.05562143941554,2.507976027223799,0.8763108487046415,-0.00017878784380342418,0.0005293148265181643,-0.00014592351550674144,0.001210343242568817,0.00075538341404626,0.00020058775124826093,-0.0008442880355391013,0.0,0.0,0.0,0.0,0.0,0.0,0.0,-0.00022040972080694665,9.101109752451819e-05,-0.000201807396491116,-0.00018494335205598844,-2.2109181995577654e-05,1.8577575683131897e-05,-6.1035156261324275e-06,0.00017878784380342418,-0.0005293148265181643,0.00014592351550674144,-0.001210343242568817,-0.00075538341404626,-0.00020058775124826093,0.0008442880355391013,0.018151462078094482,18.130334854125977,-0.9696381092071533,-17.999910354614258,-0.4983420968055725,-2.2488436698913574,0.18710653483867645,0
66,0.3250000476837158,-0.018151462078094482,-18.130334854125977,0.9696381092071533,17.999910354614258,0.4983420968055725,2.2488436698913574,-0.18710653483867645,0.0,0.0,0.0,0.0,0.0,0.0,0.0,-0.0047215717051605835,0.5572277244912521,0.16497539214177284,0.42458006451807717,0.08939458595778048,0.06791025922397921,-0.2131030990884916,-0.6088647650948896,-0.0576229782830929,-0.6664012896861249,-2.5943715936737974,-0.05559933023354442,2.507957449648116,0.8763169522202676,-0.6090851748156966,-0.05753196718556838,-0.666603097082616,-2.5945565370258534,-0.05562143941554,2.507976027223799,0.8763108487046415,-0.00017878784380342418,0.0005293148265181643,-0.00014592351550674144,0.001210343242568817,0.00075538341404626,0.00020058775124826093,-0.0008442880355391013,0.0,0.0,0.0,0.0,0.0,0.0,0.0,-0.00022040972080694665,9.101109752451819e-05,-0.000201807396491116,-0.00018494335205598844,-2.2109181995577654e-05,1.8577575683131897e-05,-6.1035156261324275e-06,0.00017878784380342418,-0.0005293148265181643,0.00014592351550674144,-0.001210343242568817,-0.00075538341404626,-0.00020058775124826093,0.0008442880355391013,0.018151462078094482,18.130334854125977,-0.9696381092071533,-17.999910354614258,-0.4983420968055725,-2.2488436698913574,0.18710653483867645,0
67,0.3299992084503174,-0.018151462078094482,-18.130334854125977,0.9934418201446533,18.047517776489258,0.5166526436805725,2.2552523612976074,-0.16604940593242645,0.0,0.0,0.0,0.0,0.0,0.0,0.0,-0.008243362752971,0.5499471415923298,0.16260449117307768,0.42618638961048155,0.08945922435984915,0.06868327365043085,-0.2112605879389669,-0.6088645531686263,-0.057622978247048755,-0.6664022581156823,-2.594375596844114,-0.05560137971412583,2.5079567375712926,0.876314612539278,-0.6090851748156966,-0.05753196718556838,-0.666603097082616,-2.5945565370258534,-0.05562143941554,2.507976027223799,0.8763108487046415,0.00018050695023649337,-0.0006926136197190082,-0.0006180755638579521,0.0002352786170595125,-6.017489750045118e-05,5.942392765009536e-05,-0.0011904857969720693,0.0,0.0,0.0,0.0,0.0,0.0,0.0,-0.00022062164707026266,9.101106148037136e-05,-0.00020083896693368075,-0.00018094018173941961,-2.0059701414172626e-05,1.9289652506415678e-05,-3.7638346365165276e-06,-0.00018050695023649337,0.0006926136197190082,0.0006180755638579521,-0.0002352786170595125,6.017489750045118e-05,-5.942392765009536e-05,0.0011904857969720693,0.018151462078094482,18.130334854125977,-0.9934418201446533,-18.047517776489258,-0.5166526436805725,-2.2552523612976074,0.16604940593242645,0
68,0.33499836921691895,-0.018151462078094482,-18.130334854125977,0.9934418201446533,18.047517776489258,0.5166526436805725,2.2552523612976074,-0.16604940593242645,0.0,0.0,0.0,0.0,0.0,0.0,0.0,-0.008243362752971,0.5499471415923298,0.16260449117307768,0.42618638961048155,0.08945922435984915,0.06868327365043085,-0.2112605879389669,-0.6088645531686263,-0.057622978247048755,-0.6664022581156823,-2.594375596844114,-0.05560137971412583,2.5079567375712926,0.876314612539278,-0.6090851748156966,-0.05753196718556838,-0.666603097082616,-2.5945565370258534,-0.05562143941554,2.507976027223799,0.8763108487046415,0.00018050695023649337,-0.0006926136197190082,-0.0006180755638579521,0.0002352786170595125,-6.017489750045118e-05,5.942392765009536e-05,-0.0011904857969720693,0.0,0.0,0.0,0.0,0.0,0.0,0.0,-0.00022062164707026266,9.101106148037136e-05,-0.00020083896693368075,-0.00018094018173941961,-2.0059701414172626e-05,1.9289652506415678e-05,-3.7638346365165276e-06,-0.00018050695023649337,0.0006926136197190082,0.0006180755638579521,-0.0002352786170595125,6.017489750045118e-05,-5.942392765009536e-05,0.0011904857969720693,0.018151462078094482,18.130334854125977,-0.9934418201446533,-18.047517776489258,-0.5166526436805725,-2.2552523612976074,0.16604940593242645,0
69,0.34000539779663086,0.005652248859405518,-18.154138565063477,0.9934418201446533,18.071321487426758,0.5102439522743225,2.2552523612976074,-0.24112264811992645,0.0,0.0,0.0,0.0,0.0,0.0,0.0,-0.004475169793708887,0.5506634801465882,0.16623727652719383,0.4205982781187568,0.0890176757739899,0.06807937048709818,-0.20810813867388148,-0.6088661941688926,-0.05762130781119329,-0.6664046252162763,-2.594376894119675,-0.05559639186792732,2.5079567375712926,0.8763229540106322,-0.6090851748156966,-0.05753196718556838,-0.666603097082616,-2.5945565370258534,-0.05562143941554,2.507976027223799,0.8763108487046415,2.1002740998957042e-05,0.000256199160716705,-6.801403467461922e-05,-0.00044045506679717984,-6.53541920691672e-05,0.0003101540934704788,0.00142408551497861,0.0,0.0,0.0,0.0,0.0,0.0,0.0,-0.00021898064680392348,8.93406256249063e-05,-0.00019847186633970004,-0.00017964290617822343,-2.504754761267769e-05,1.9289652506415678e-05,-1.2105305990717241e-05,-2.1002740998957042e-05,-0.000256199160716705,6.801403467461922e-05,0.00044045506679717984,6.53541920691672e-05,-0.0003101540934704788,-0.00142408551497861,-0.005652248859405518,18.154138565063477,-0.9934418201446533,-18.071321487426758,-0.5102439522743225,-2.2552523612976074,0.24112264811992645,0
70,0.3450298309326172,0.005652248859405518,-18.154138565063477,0.9934418201446533,18.071321487426758,0.5102439522743225,2.2552523612976074,-0.24112264811992645,0.0,0.0,0.0,0.0,0.0,0.0,0.0,-0.004475169793708887,0.5506634801465882,0.16623727652719383,0.4205982781187568,0.0890176757739899,0.06807937048709818,-0.20810813867388148,-0.6088661941688926,-0.05762130781119329,-0.6664046252162763,-2.594376894119675,-0.05559639186792732,2.5079567375712926,0.8763229540106322,-0.6090851748156966,-0.05753196718556838,-0.666603097082616,-2.5945565370258534,-0.05562143941554,2.507976027223799,0.8763108487046415,2.1002740998957042e-05,0.000256199160716705,-6.801403467461922e-05,-0.00044045506679717984,-6.53541920691672e-05,0.0003101540934704788,0.00142408551497861,0.0,0.0,0.0,0.0,0.0,0.0,0.0,-0.00021898064680392348,8.93406256249063e-05,-0.00019847186633970004,-0.00017964290617822343,-2.504754761267769e-05,1.9289652506415678e-05,-1.2105305990717241e-05,-2.1002740998957042e-05,-0.000256199160716705,6.801403467461922e-05,0.00044045506679717984,6.53541920691672e-05,-0.0003101540934704788,-0.00142408551497861,-0.005652248859405518,18.154138565063477,-0.9934418201446533,-18.071321487426758,-0.5102439522743225,-2.2552523612976074,0.24112264811992645,0
71,0.34999799728393555,0.03342324495315552,-18.154138565063477,0.9934418201446533,18.023714065551758,0.5166526436805725,2.2424349784851074,-0.20083944499492645,0.0,0.0,0.0,0.0,0.0,0.0,0.0,-0.0018597154692438643,0.551156338468547,0.16515612734449,0.41558669836520995,0.08858586013876994,0.06801720995042582,-0.20929295399120731,-0.6088681430105577,-0.05762130781119329,-0.6664023622246911,-2.594373240793278,-0.055598284935106566,2.5079581617249382,0.8763184780991738,-0.6090851748156966,-0.05753196718556838,-0.666603097082616,-2.5945565370258534,-0.05562143941554,2.507976027223799,0.8763108487046415,-0.0007020407543308102,0.0013269124692345151,0.0002973492997523647,0.00037669596701842874,-0.00020464925256703142,0.0005237551790844,-0.0009160104236130355,0.0,0.0,0.0,0.0,0.0,0.0,0.0,-0.00021703180513887865,8.93406256249063e-05,-0.0002007348579249335,-0.00018329623257562488,-2.3154480433433544e-05,1.7865498860736295e-05,-7.629394532360223e-06,0.0007020407543308102,-0.0013269124692345151,-0.0002973492997523647,-0.00037669596701842874,0.00020464925256703142,-0.0005237551790844,0.0009160104236130355,-0.03342324495315552,18.154138565063477,-0.9934418201446533,-18.023714065551758,-0.5166526436805725,-2.2424349784851074,0.20083944499492645,0
72,0.3550124168395996,0.03342324495315552,-18.154138565063477,0.9934418201446533,18.023714065551758,0.5166526436805725,2.2424349784851074,-0.20083944499492645,0.0,0.0,0.0,0.0,0.0,0.0,0.0,-0.0018597154692438643,0.551156338468547,0.16515612734449,0.41558669836520995,0.08858586013876994,0.06801720995042582,-0.20929295399120731,-0.6088681430105577,-0.05762130781119329,-0.6664023622246911,-2.594373240793278,-0.055598284935106566,2.5079581617249382,0.8763184780991738,-0.6090851748156966,-0.05753196718556838,-0.666603097082616,-2.5945565370258534,-0.05562143941554,2.507976027223799,0.8763108487046415,-0.0007020407543308102,0.0013269124692345151,0.0002973492997523647,0.00037669596701842874,-0.00020464925256703142,0.0005237551790844,-0.0009160104236130355,0.0,0.0,0.0,0.0,0.0,0.0,0.0,-0.00021703180513887865,8.93406256249063e-05,-0.0002007348579249335,-0.00018329623257562488,-2.3154480433433544e-05,1.7865498860736295e-05,-7.629394532360223e-06,0.0007020407543308102,-0.0013269124692345151,-0.0002973492997523647,-0.00037669596701842874,0.00020464925256703142,-0.0005237551790844,0.0009160104236130355,-0.03342324495315552,18.154138565063477,-0.9934418201446533,-18.023714065551758,-0.5166526436805725,-2.2424349784851074,0.20083944499492645,0
73,0.3600277900695801,0.005652248859405518,-18.054956436157227,1.0172455310821533,18.047517776489258,0.5221458077430725,2.2552523612976074,-0.20724813640117645,0.0,0.0,0.0,0.0,0.0,0.0,0.0,0.0054956948082995815,0.5498552943713315,0.17081853822947235,0.42034046235487543,0.0884812742902371,0.06905732287713547,-0.21147330699293315,-0.6088661942050653,-0.05762826893378754,-0.6664039285596592,-2.5943755968439706,-0.05559894743814677,2.507959955731537,0.8763191901759968,-0.6090851748156966,-0.05753196718556838,-0.666603097082616,-2.5945565370258534,-0.05562143941554,2.507976027223799,0.8763108487046415,0.0005374760928828824,-0.000533563665659809,-0.00040512922862852047,0.00020591131814996173,-0.0002783007291828843,-0.00014165361925712647,-0.0003462424066340859,0.0,0.0,0.0,0.0,0.0,0.0,0.0,-0.00021898061063130303,9.630174821915333e-05,-0.0001991685229567608,-0.00018094018188286043,-2.2491977393228335e-05,1.6071492261904297e-05,-8.341471355310937e-06,-0.0005374760928828824,0.000533563665659809,0.00040512922862852047,-0.00020591131814996173,0.0002783007291828843,0.00014165361925712647,0.0003462424066340859,-0.005652248859405518,18.054956436157227,-1.0172455310821533,-18.047517776489258,-0.5221458077430725,-2.2552523612976074,0.20724813640117645,0
74,0.3650169372558594,0.005652248859405518,-18.054956436157227,1.0172455310821533,18.047517776489258,0.5221458077430725,2.2552523612976074,-0.20724813640117645,0.0,0.0,0.0,0.0,0.0,0.0,0.0,0.0054956948082995815,0.5498552943713315,0.17081853822947235,0.42034046235487543,0.0884812742902371,0.06905732287713547,-0.21147330699293315,-0.6088661942050653,-0.05762826893378754,-0.6664039285596592,-2.5943755968439706,-0.05559894743814677,2.507959955731537,0.8763191901759968,-0.6090851748156966,-0.05753196718556838,-0.666603097082616,-2.5945565370258534,-0.05562143941554,2.507976027223799,0.8763108487046415,0.0005374760928828824,-0.000533563665659809,-0.00040512922862852047,0.00020591131814996173,-0.0002783007291828843,-0.00014165361925712647,-0.0003462424066340859,0.0,0.0,0.0,0.0,0.0,0.0,0.0,-0.00021898061063130303,9.630174821915333e-05,-0.0001991685229567608,-0.00018094018188286043,-2.2491977393228335e-05,1.6071492261904297e-05,-8.341471355310937e-06,-0.0005374760928828824,0.000533563665659809,0.00040512922862852047,-0.00020591131814996173,0.0002783007291828843,0.00014165361925712647,0.0003462424066340859,-0.005652248859405518,18.054956436157227,-1.0172455310821533,-18.047517776489258,-0.5221458077430725,-2.2552523612976074,0.20724813640117645,0
75,0.36996889114379883,0.005652248859405518,-18.054956436157227,0.9696381092071533,18.023714065551758,0.5166526436805725,2.2488436698913574,-0.20724813640117645,0.0,0.0,0.0,0.0,0.0,0.0,0.0,0.0017341603891049794,0.5574297245491192,0.16828168667998925,0.41805912116756727,0.08895540307089009,0.06821930003847848,-0.21345422134766195,-0.6088661941687271,-0.0576282679606067,-0.6664006916773845,-2.5943755335376033,-0.05559711287987118,2.5079574497026154,0.8763191900144913,-0.6090851748156966,-0.05753196718556838,-0.666603097082616,-2.5945565370258534,-0.05562143941554,2.507976027223799,0.8763108487046415,-0.0001884570163251608,-0.0002478137607930677,0.0005924744587481792,0.0003238586249229459,-0.0003185104864589145,-2.052099759265126e-05,-0.000494981259899398,0.0,0.0,0.0,0.0,0.0,0.0,0.0,-0.00021898064696945774,9.63007750383188e-05,-0.0002024054052315316,-0.00018100348825011991,-2.4326535668819926e-05,1.8577521183615886e-05,-8.341309849835277e-06,0.0001884570163251608,0.0002478137607930677,-0.0005924744587481792,-0.0003238586249229459,0.0003185104864589145,2.052099759265126e-05,0.000494981259899398,-0.005652248859405518,18.054956436157227,-0.9696381092071533,-18.023714065551758,-0.5166526436805725,-2.2488436698913574,0.20724813640117645,0
76,0.37495851516723633,0.005652248859405518,-18.054956436157227,0.9696381092071533,18.023714065551758,0.5166526436805725,2.2488436698913574,-0.20724813640117645,0.0,0.0,0.0,0.0,0.0,0.0,0.0,0.0017341603891049794,0.5574297245491192,0.16828168667998925,0.41805912116756727,0.08895540307089009,0.06821930003847848,-0.21345422134766195,-0.6088661941687271,-0.0576282679606067,-0.6664006916773845,-2.5943755335376033,-0.05559711287987118,2.5079574497026154,0.8763191900144913,-0.6090851748156966,-0.05753196718556838,-0.666603097082616,-2.5945565370258534,-0.05562143941554,2.507976027223799,0.8763108487046415,-0.0001884570163251608,-0.0002478137607930677,0.0005924744587481792,0.0003238586249229459,-0.0003185104864589145,-2.052099759265126e-05,-0.000494981259899398,0.0,0.0,0.0,0.0,0.0,0.0,0.0,-0.00021898064696945774,9.63007750383188e-05,-0.0002024054052315316,-0.00018100348825011991,-2.4326535668819926e-05,1.8577521183615886e-05,-8.341309849835277e-06,0.0001884570163251608,0.0002478137607930677,-0.0005924744587481792,-0.0003238586249229459,0.0003185104864589145,2.052099759265126e-05,0.000494981259899398,-0.005652248859405518,18.054956436157227,-0.9696381092071533,-18.023714065551758,-0.5166526436805725,-2.2488436698913574,0.20724813640117645,0
77,0.38001227378845215,-0.04592245817184448,-18.078760147094727,0.9418671131134033,18.071321487426758,0.5285544991493225,2.2488436698913574,-0.17337362468242645,0.0,0.0,0.0,0.0,0.0,0.0,0.0,-0.0030807017698779244,0.5556160777045394,0.16502795702064912,0.42431021152256837,0.08873224762317028,0.0683424543257305,-0.2141203775314652,-0.6088625748910402,-0.057626597536749744,-0.6664007459825396,-2.594379563201746,-0.055598544894657646,2.5079574496481154,0.8763154263413612,-0.6090851748156966,-0.05753196718556838,-0.666603097082616,-2.5945565370258534,-0.05562143941554,2.507976027223799,0.8763108487046415,0.0006026612385821081,-0.0008476639868386224,0.00045567187707165076,-0.0004401384031005963,-0.0004811616295182272,0.00021937324197589684,-0.00151368268951564,0.0,0.0,0.0,0.0,0.0,0.0,0.0,-0.00022259992465634149,9.46303511813601e-05,-0.00020235110007638113,-0.0001769738241073071,-2.289452088235361e-05,1.8577575683575986e-05,-4.577636719682587e-06,-0.0006026612385821081,0.0008476639868386224,-0.00045567187707165076,0.0004401384031005963,0.0004811616295182272,-0.00021937324197589684,0.00151368268951564,0.04592245817184448,18.078760147094727,-0.9418671131134033,-18.071321487426758,-0.5285544991493225,-2.2488436698913574,0.17337362468242645,0
78,0.38501429557800293,-0.04592245817184448,-18.078760147094727,0.9418671131134033,18.071321487426758,0.5285544991493225,2.2488436698913574,-0.17337362468242645,0.0,0.0,0.0,0.0,0.0,0.0,0.0,-0.0030807017698779244,0.5556160777045394,0.16502795702064912,0.42431021152256837,0.08873224762317028,0.0683424543257305,-0.2141203775314652,-0.6088625748910402,-0.057626597536749744,-0.6664007459825396,-2.594379563201746,-0.055598544894657646,2.5079574496481154,0.8763154263413612,-0.6090851748156966,-0.05753196718556838,-0.666603097082616,-2.5945565370258534,-0.05562143941554,2.507976027223799,0.8763108487046415,0.0006026612385821081,-0.0008476639868386224,0.00045567187707165076,-0.0004401384031005963,-0.0004811616295182272,0.00021937324197589684,-0.00151368268951564,0.0,0.0,0.0,0.0,0.0,0.0,0.0,-0.00022259992465634149,9.46303511813601e-05,-0.00020235110007638113,-0.0001769738241073071,-2.289452088235361e-05,1.8577575683575986e-05,-4.577636719682587e-06,-0.0006026612385821081,0.0008476639868386224,-0.00045567187707165076,0.0004401384031005963,0.0004811616295182272,-0.00021937324197589684,0.00151368268951564,0.04592245817184448,18.078760147094727,-0.9418671131134033,-18.071321487426758,-0.5285544991493225,-2.2488436698913574,0.17337362468242645,0
79,0.39000606536865234,-0.04592245817184448,-18.078760147094727,0.9418671131134033,18.071321487426758,0.5285544991493225,2.2488436698913574,-0.17337362468242645,0.0,0.0,0.0,0.0,0.0,0.0,0.0,-0.0030807017698779244,0.5556160777045394,0.16502795702064912,0.42431021152256837,0.08873224762317028,0.0683424543257305,-0.2141203775314652,-0.6088625748910402,-0.057626597536749744,-0.6664007459825396,-2.594379563201746,-0.055598544894657646,2.5079574496481154,0.8763154263413612,-0.6090851748156966,-0.05753196718556838,-0.666603097082616,-2.5945565370258534,-0.05562143941554,2.507976027223799,0.8763108487046415,0.0006026612385821081,-0.0008476639868386224,0.00045567187707165076,-0.0004401384031005963,-0.0004811616295182272,0.00021937324197589684,-0.00151368268951564,0.0,0.0,0.0,0.0,0.0,0.0,0.0,-0.00022259992465634149,9.46303511813601e-05,-0.00020235110007638113,-0.0001769738241073071,-2.289452088235361e-05,1.8577575683575986e-05,-4.577636719682587e-06,-0.0006026612385821081,0.0008476639868386224,-0.00045567187707165076,0.0004401384031005963,0.0004811616295182272,-0.00021937324197589684,0.00151368268951564,0.04592245817184448,18.078760147094727,-0.9418671131134033,-18.071321487426758,-0.5285544991493225,-2.2488436698913574,0.17337362468242645,0
