rezayati/contactInterpretation/dataset/franka_main/labeled_data/link6/b1_7.csv
index,time,tau_J0,tau_J1,tau_J2,tau_J3,tau_J4,tau_J5,tau_J6,tau_J_d0,tau_J_d1,tau_J_d2,tau_J_d3,tau_J_d4,tau_J_d5,tau_J_d6,tau_ext0,tau_ext1,tau_ext2,tau_ext3,tau_ext4,tau_ext5,tau_ext6,q0,q1,q2,q3,q4,q5,q6,q_d0,q_d1,q_d2,q_d3,q_d4,q_d5,q_d6,dq0,dq1,dq2,dq3,dq4,dq5,dq6,dq_d0,dq_d1,dq_d2,dq_d3,dq_d4,dq_d5,dq_d6,e0,e1,e2,e3,e4,e5,e6,de0,de1,de2,de3,de4,de5,de6,etau_J0,etau_J1,etau_J2,etau_J3,etau_J4,etau_J5,etau_J6,label
1,0.0,-0.14510458707809448,-11.774744033813477,1.2156097888946533,21.816438674926758,0.3317161202430725,2.5271639823913574,-0.26217979192733765,0.0,0.0,0.0,0.0,0.0,0.0,0.0,-0.14101875800038688,0.5038466186766889,0.04145015306576254,0.5404723715073974,-0.21564277114823532,0.12778773448220396,-0.30171372976385696,0.17279395017515248,-0.4875228985791785,-0.11144273408363496,-1.9466316432450945,0.13362082161506017,2.5955488242908573,0.9452538349241152,0.1728802376190821,-0.48752024683155326,-0.11147110072896137,-1.9463801863486305,0.1336059019074957,2.595550359778934,0.9452445589611904,2.5068639226337306e-05,-0.0013154966634913328,0.0007600744358726308,0.00023890341854863808,-0.0005770878947247471,7.742196783689255e-05,-0.0007002057153753146,0.0,0.0,0.0,0.0,0.0,0.0,0.0,8.62874439296335e-05,2.6517476252596595e-06,-2.8366645326405315e-05,0.0002514568964639974,-1.4919707564481355e-05,1.5354880766871304e-06,-9.275962924770731e-06,-2.5068639226337306e-05,0.0013154966634913328,-0.0007600744358726308,-0.00023890341854863808,0.0005770878947247471,-7.742196783689255e-05,0.0007002057153753146,0.14510458707809448,11.774744033813477,-1.2156097888946533,-21.816438674926758,-0.3317161202430725,-2.5271639823913574,0.26217979192733765,0
2,0.004984617233276367,-0.17287558317184448,-11.873926162719727,1.2433807849884033,21.792634963989258,0.3143211007118225,2.5335726737976074,-0.30978721380233765,0.0,0.0,0.0,0.0,0.0,0.0,0.0,-0.14161845141638535,0.488994544008503,0.04621723810622353,0.550063467099423,-0.215682441349614,0.12977786302690889,-0.29968780936053985,0.172795908737546,-0.48751500530501546,-0.11144476177042346,-1.946629972809239,0.13362310871150757,2.595549633157941,0.9452593659941987,0.1728802376190821,-0.48752024683155326,-0.11147110072896137,-1.9463801863486305,0.1336059019074957,2.595550359778934,0.9452445589611904,0.0006460140282920177,0.00016745973349464508,0.0001657281985907955,0.0012353630252494427,0.00017748885647371704,-0.00012121118313948095,0.0010592894190974687,0.0,0.0,0.0,0.0,0.0,0.0,0.0,8.43288815361165e-05,-5.241526537802521e-06,-2.633895853790258e-05,0.0002497864606085809,-1.7206804011876686e-05,7.266209931522383e-07,-1.4807033008268355e-05,-0.0006460140282920177,-0.00016745973349464508,-0.0001657281985907955,-0.0012353630252494427,-0.00017748885647371704,0.00012121118313948095,-0.0010592894190974687,0.17287558317184448,11.873926162719727,-1.2433807849884033,-21.792634963989258,-0.3143211007118225,-2.5335726737976074,0.30978721380233765,0
3,0.010000944137573242,-0.17287558317184448,-11.873926162719727,1.2433807849884033,21.792634963989258,0.3143211007118225,2.5335726737976074,-0.30978721380233765,0.0,0.0,0.0,0.0,0.0,0.0,0.0,-0.14161845141638535,0.488994544008503,0.04621723810622353,0.550063467099423,-0.215682441349614,0.12977786302690889,-0.29968780936053985,0.172795908737546,-0.48751500530501546,-0.11144476177042346,-1.946629972809239,0.13362310871150757,2.595549633157941,0.9452593659941987,0.1728802376190821,-0.48752024683155326,-0.11147110072896137,-1.9463801863486305,0.1336059019074957,2.595550359778934,0.9452445589611904,0.0006460140282920177,0.00016745973349464508,0.0001657281985907955,0.0012353630252494427,0.00017748885647371704,-0.00012121118313948095,0.0010592894190974687,0.0,0.0,0.0,0.0,0.0,0.0,0.0,8.43288815361165e-05,-5.241526537802521e-06,-2.633895853790258e-05,0.0002497864606085809,-1.7206804011876686e-05,7.266209931522383e-07,-1.4807033008268355e-05,-0.0006460140282920177,-0.00016745973349464508,-0.0001657281985907955,-0.0012353630252494427,-0.00017748885647371704,0.00012121118313948095,-0.0010592894190974687,0.17287558317184448,11.873926162719727,-1.2433807849884033,-21.792634963989258,-0.3143211007118225,-2.5335726737976074,0.30978721380233765,0
4,0.014988183975219727,-0.14510458707809448,-11.873926162719727,1.2156097888946533,21.816438674926758,0.3198142647743225,2.5271639823913574,-0.30978721380233765,0.0,0.0,0.0,0.0,0.0,0.0,0.0,-0.1457779770351122,0.5023464129453998,0.04097484738178968,0.5376543523348901,-0.21560384922616646,0.12797148747046702,-0.29977709445417894,0.17279395989576973,-0.4875159153165714,-0.11144273704792217,-1.9466316432450945,0.13362249836061177,2.59554678775993,0.9452637512341616,0.1728802376190821,-0.48752024683155326,-0.11147110072896137,-1.9463801863486305,0.1336059019074957,2.595550359778934,0.9452445589611904,0.00024242782863950023,8.812630718714923e-05,-0.0001654160013976931,0.0005425800110369744,-3.296251992250063e-05,-2.4093016559563485e-05,0.0008361317975113856,0.0,0.0,0.0,0.0,0.0,0.0,0.0,8.627772331237793e-05,-4.331514981859019e-06,-2.8363681039200728e-05,0.0002514568964639974,-1.6596453116080045e-05,3.5720190041388378e-06,-1.9192272971202406e-05,-0.00024242782863950023,-8.812630718714923e-05,0.0001654160013976931,-0.0005425800110369744,3.296251992250063e-05,2.4093016559563485e-05,-0.0008361317975113856,0.14510458707809448,11.873926162719727,-1.2156097888946533,-21.816438674926758,-0.3198142647743225,-2.5271639823913574,0.30978721380233765,0
5,0.01998162269592285,-0.14510458707809448,-11.873926162719727,1.2156097888946533,21.816438674926758,0.3198142647743225,2.5271639823913574,-0.30978721380233765,0.0,0.0,0.0,0.0,0.0,0.0,0.0,-0.1457779770351122,0.5023464129453998,0.04097484738178968,0.5376543523348901,-0.21560384922616646,0.12797148747046702,-0.29977709445417894,0.17279395989576973,-0.4875159153165714,-0.11144273704792217,-1.9466316432450945,0.13362249836061177,2.59554678775993,0.9452637512341616,0.1728802376190821,-0.48752024683155326,-0.11147110072896137,-1.9463801863486305,0.1336059019074957,2.595550359778934,0.9452445589611904,0.00024242782863950023,8.812630718714923e-05,-0.0001654160013976931,0.0005425800110369744,-3.296251992250063e-05,-2.4093016559563485e-05,0.0008361317975113856,0.0,0.0,0.0,0.0,0.0,0.0,0.0,8.627772331237793e-05,-4.331514981859019e-06,-2.8363681039200728e-05,0.0002514568964639974,-1.6596453116080045e-05,3.5720190041388378e-06,-1.9192272971202406e-05,-0.00024242782863950023,-8.812630718714923e-05,0.0001654160013976931,-0.0005425800110369744,3.296251992250063e-05,2.4093016559563485e-05,-0.0008361317975113856,0.14510458707809448,11.873926162719727,-1.2156097888946533,-21.816438674926758,-0.3198142647743225,-2.5271639823913574,0.30978721380233765,0
6,0.024980783462524414,-0.14510458707809448,-11.802515029907227,1.2156097888946533,21.840242385864258,0.3198142647743225,2.5335726737976074,-0.30337852239608765,0.0,0.0,0.0,0.0,0.0,0.0,0.0,-0.14630595074450548,0.505441885339333,0.042739716540863566,0.5323331127543129,-0.21586716452754492,0.1270722192817702,-0.30041675912200777,0.17279183399677275,-0.48752094395933837,-0.11144304903160186,-1.9466333136809497,0.1336221440454457,2.5955491185896573,0.9452582919004655,0.1728802376190821,-0.48752024683155326,-0.11147110072896137,-1.9463801863486305,0.1336059019074957,2.595550359778934,0.9452445589611904,-0.0006245933818409398,-0.0008402325079760005,0.0004034765334822496,0.0003421242386356189,-3.0280716581010585e-05,-0.0002323234446782864,0.00036454641446381856,0.0,0.0,0.0,0.0,0.0,0.0,0.0,8.840362230935761e-05,6.971277851097746e-07,-2.8051697359504635e-05,0.0002531273323191918,-1.624213795001217e-05,1.2411892766905908e-06,-1.3732939275090672e-05,0.0006245933818409398,0.0008402325079760005,-0.0004034765334822496,-0.0003421242386356189,3.0280716581010585e-05,0.0002323234446782864,-0.00036454641446381856,0.14510458707809448,11.802515029907227,-1.2156097888946533,-21.840242385864258,-0.3198142647743225,-2.5335726737976074,0.30337852239608765,0
7,0.029981374740600586,-0.14510458707809448,-11.802515029907227,1.2156097888946533,21.840242385864258,0.3198142647743225,2.5335726737976074,-0.30337852239608765,0.0,0.0,0.0,0.0,0.0,0.0,0.0,-0.14630595074450548,0.505441885339333,0.042739716540863566,0.5323331127543129,-0.21586716452754492,0.1270722192817702,-0.30041675912200777,0.17279183399677275,-0.48752094395933837,-0.11144304903160186,-1.9466333136809497,0.1336221440454457,2.5955491185896573,0.9452582919004655,0.1728802376190821,-0.48752024683155326,-0.11147110072896137,-1.9463801863486305,0.1336059019074957,2.595550359778934,0.9452445589611904,-0.0006245933818409398,-0.0008402325079760005,0.0004034765334822496,0.0003421242386356189,-3.0280716581010585e-05,-0.0002323234446782864,0.00036454641446381856,0.0,0.0,0.0,0.0,0.0,0.0,0.0,8.840362230935761e-05,6.971277851097746e-07,-2.8051697359504635e-05,0.0002531273323191918,-1.624213795001217e-05,1.2411892766905908e-06,-1.3732939275090672e-05,0.0006245933818409398,0.0008402325079760005,-0.0004034765334822496,-0.0003421242386356189,3.0280716581010585e-05,0.0002323234446782864,-0.00036454641446381856,0.14510458707809448,11.802515029907227,-1.2156097888946533,-21.840242385864258,-0.3198142647743225,-2.5335726737976074,0.30337852239608765,0
8,0.03498387336730957,-0.14510458707809448,-11.802515029907227,1.2156097888946533,21.840242385864258,0.3198142647743225,2.5335726737976074,-0.30337852239608765,0.0,0.0,0.0,0.0,0.0,0.0,0.0,-0.14630595074450548,0.505441885339333,0.042739716540863566,0.5323331127543129,-0.21586716452754492,0.1270722192817702,-0.30041675912200777,0.17279183399677275,-0.48752094395933837,-0.11144304903160186,-1.9466333136809497,0.1336221440454457,2.5955491185896573,0.9452582919004655,0.1728802376190821,-0.48752024683155326,-0.11147110072896137,-1.9463801863486305,0.1336059019074957,2.595550359778934,0.9452445589611904,-0.0006245933818409398,-0.0008402325079760005,0.0004034765334822496,0.0003421242386356189,-3.0280716581010585e-05,-0.0002323234446782864,0.00036454641446381856,0.0,0.0,0.0,0.0,0.0,0.0,0.0,8.840362230935761e-05,6.971277851097746e-07,-2.8051697359504635e-05,0.0002531273323191918,-1.624213795001217e-05,1.2411892766905908e-06,-1.3732939275090672e-05,0.0006245933818409398,0.0008402325079760005,-0.0004034765334822496,-0.0003421242386356189,3.0280716581010585e-05,0.0002323234446782864,-0.00036454641446381856,0.14510458707809448,11.802515029907227,-1.2156097888946533,-21.840242385864258,-0.3198142647743225,-2.5335726737976074,0.30337852239608765,0
9,0.03998255729675293,-0.14510458707809448,-11.802515029907227,1.2156097888946533,21.840242385864258,0.3198142647743225,2.5335726737976074,-0.30337852239608765,0.0,0.0,0.0,0.0,0.0,0.0,0.0,-0.14630595074450548,0.505441885339333,0.042739716540863566,0.5323331127543129,-0.21586716452754492,0.1270722192817702,-0.30041675912200777,0.17279183399677275,-0.48752094395933837,-0.11144304903160186,-1.9466333136809497,0.1336221440454457,2.5955491185896573,0.9452582919004655,0.1728802376190821,-0.48752024683155326,-0.11147110072896137,-1.9463801863486305,0.1336059019074957,2.595550359778934,0.9452445589611904,-0.0006245933818409398,-0.0008402325079760005,0.0004034765334822496,0.0003421242386356189,-3.0280716581010585e-05,-0.0002323234446782864,0.00036454641446381856,0.0,0.0,0.0,0.0,0.0,0.0,0.0,8.840362230935761e-05,6.971277851097746e-07,-2.8051697359504635e-05,0.0002531273323191918,-1.624213795001217e-05,1.2411892766905908e-06,-1.3732939275090672e-05,0.0006245933818409398,0.0008402325079760005,-0.0004034765334822496,-0.0003421242386356189,3.0280716581010585e-05,0.0002323234446782864,-0.00036454641446381856,0.14510458707809448,11.802515029907227,-1.2156097888946533,-21.840242385864258,-0.3198142647743225,-2.5335726737976074,0.30337852239608765,0
10,0.04498147964477539,-0.14510458707809448,-11.826318740844727,1.2433807849884033,21.868013381958008,0.3143211007118225,2.5271639823913574,-0.32352012395858765,0.0,0.0,0.0,0.0,0.0,0.0,0.0,-0.1487976864276489,0.4928033913752782,0.04459832636960254,0.5375480246083506,-0.2154777288785722,0.1278562702118781,-0.30112259523729334,0.17279395988376897,-0.487519273523581,-0.11144680886219388,-1.946635262522781,0.1336227543950081,2.5955491673802285,0.9452608968387205,0.1728802376190821,-0.48752024683155326,-0.11147110072896137,-1.9463801863486305,0.1336059019074957,2.595550359778934,0.9452445589611904,-0.0005987481789959512,-0.00017503158833543205,-0.0001744423484128818,-0.0012056295261857564,0.00022168521529932538,-0.00010323051469297091,0.0016784908482271748,0.0,0.0,0.0,0.0,0.0,0.0,0.0,8.627773531313943e-05,-9.733079722740179e-07,-2.4291866767486847e-05,0.00025507617415043704,-1.6852487512403203e-05,1.192398705551767e-06,-1.6337877530081535e-05,0.0005987481789959512,0.00017503158833543205,0.0001744423484128818,0.0012056295261857564,-0.00022168521529932538,0.00010323051469297091,-0.0016784908482271748,0.14510458707809448,11.826318740844727,-1.2433807849884033,-21.868013381958008,-0.3143211007118225,-2.5271639823913574,0.32352012395858765,0
11,0.04998159408569336,-0.14510458707809448,-11.826318740844727,1.2433807849884033,21.868013381958008,0.3143211007118225,2.5271639823913574,-0.32352012395858765,0.0,0.0,0.0,0.0,0.0,0.0,0.0,-0.1487976864276489,0.4928033913752782,0.04459832636960254,0.5375480246083506,-0.2154777288785722,0.1278562702118781,-0.30112259523729334,0.17279395988376897,-0.487519273523581,-0.11144680886219388,-1.946635262522781,0.1336227543950081,2.5955491673802285,0.9452608968387205,0.1728802376190821,-0.48752024683155326,-0.11147110072896137,-1.9463801863486305,0.1336059019074957,2.595550359778934,0.9452445589611904,-0.0005987481789959512,-0.00017503158833543205,-0.0001744423484128818,-0.0012056295261857564,0.00022168521529932538,-0.00010323051469297091,0.0016784908482271748,0.0,0.0,0.0,0.0,0.0,0.0,0.0,8.627773531313943e-05,-9.733079722740179e-07,-2.4291866767486847e-05,0.00025507617415043704,-1.6852487512403203e-05,1.192398705551767e-06,-1.6337877530081535e-05,0.0005987481789959512,0.00017503158833543205,0.0001744423484128818,0.0012056295261857564,-0.00022168521529932538,0.00010323051469297091,-0.0016784908482271748,0.14510458707809448,11.826318740844727,-1.2433807849884033,-21.868013381958008,-0.3143211007118225,-2.5271639823913574,0.32352012395858765,0
12,0.05498147010803223,-0.14510458707809448,-11.826318740844727,1.2433807849884033,21.816438674926758,0.3198142647743225,2.5271639823913574,-0.24844686686992645,0.0,0.0,0.0,0.0,0.0,0.0,0.0,-0.1502053733640155,0.5000839196643333,0.04452460178271883,0.5383624755240429,-0.21531147379437596,0.12725740733765298,-0.3008832841245001,0.17279395989576968,-0.487519273523581,-0.11144468297341999,-1.9466316460795174,0.13362214404344558,2.595549285544736,0.9452525563610416,0.1728802376190821,-0.48752024683155326,-0.11147110072896137,-1.9463801863486305,0.1336059019074957,2.595550359778934,0.9452445589611904,6.295163574272386e-05,0.0007680637271923189,-0.00022177336974649067,0.00032910326852269575,-6.635992331406674e-05,2.3081485091492082e-05,-0.001675609929279987,0.0,0.0,0.0,0.0,0.0,0.0,0.0,8.627772331243344e-05,-9.733079722740179e-07,-2.641775554138026e-05,0.000251459730886916,-1.624213594988988e-05,1.0742341980396475e-06,-7.997399851134013e-06,-6.295163574272386e-05,-0.0007680637271923189,0.00022177336974649067,-0.00032910326852269575,6.635992331406674e-05,-2.3081485091492082e-05,0.001675609929279987,0.14510458707809448,11.826318740844727,-1.2433807849884033,-21.816438674926758,-0.3198142647743225,-2.5271639823913574,0.24844686686992645,0
13,0.05998420715332031,-0.14510458707809448,-11.826318740844727,1.2433807849884033,21.816438674926758,0.3198142647743225,2.5271639823913574,-0.24844686686992645,0.0,0.0,0.0,0.0,0.0,0.0,0.0,-0.1502053733640155,0.5000839196643333,0.04452460178271883,0.5383624755240429,-0.21531147379437596,0.12725740733765298,-0.3008832841245001,0.17279395989576968,-0.487519273523581,-0.11144468297341999,-1.9466316460795174,0.13362214404344558,2.595549285544736,0.9452525563610416,0.1728802376190821,-0.48752024683155326,-0.11147110072896137,-1.9463801863486305,0.1336059019074957,2.595550359778934,0.9452445589611904,6.295163574272386e-05,0.0007680637271923189,-0.00022177336974649067,0.00032910326852269575,-6.635992331406674e-05,2.3081485091492082e-05,-0.001675609929279987,0.0,0.0,0.0,0.0,0.0,0.0,0.0,8.627772331243344e-05,-9.733079722740179e-07,-2.641775554138026e-05,0.000251459730886916,-1.624213594988988e-05,1.0742341980396475e-06,-7.997399851134013e-06,-6.295163574272386e-05,-0.0007680637271923189,0.00022177336974649067,-0.00032910326852269575,6.635992331406674e-05,-2.3081485091492082e-05,0.001675609929279987,0.14510458707809448,11.826318740844727,-1.2433807849884033,-21.816438674926758,-0.3198142647743225,-2.5271639823913574,0.24844686686992645,0
14,0.06551027297973633,-0.12130087614059448,-11.802515029907227,1.2671844959259033,21.816438674926758,0.3198142647743225,2.5271639823913574,-0.28232139348983765,0.0,0.0,0.0,0.0,0.0,0.0,0.0,-0.15060749449344996,0.50714479284826,0.040789301967072436,0.5385743950515469,-0.21487485505992412,0.1270851697648536,-0.30002877135900746,0.1727922078067294,-0.48752095259059636,-0.11144706199427105,-1.9466316432450999,0.13362214404344558,2.5955460629208797,0.9452560104645842,0.1728802376190821,-0.48752024683155326,-0.11147110072896137,-1.9463801863486305,0.1336059019074957,2.595550359778934,0.9452445589611904,-0.000628029890961675,0.00018682774696767996,-0.0008466025661727481,0.00046955296246810785,2.459976407098293e-05,-0.0001079545650412484,-0.00036866779325123394,0.0,0.0,0.0,0.0,0.0,0.0,0.0,8.802981235270235e-05,7.057590430958882e-07,-2.403873469031259e-05,0.00025145689646932645,-1.624213594988988e-05,4.296858054253505e-06,-1.1451503393766771e-05,0.000628029890961675,-0.00018682774696767996,0.0008466025661727481,-0.00046955296246810785,-2.459976407098293e-05,0.0001079545650412484,0.00036866779325123394,0.12130087614059448,11.802515029907227,-1.2671844959259033,-21.816438674926758,-0.3198142647743225,-2.5271639823913574,0.28232139348983765,0
15,0.0699923038482666,-0.12130087614059448,-11.802515029907227,1.2671844959259033,21.816438674926758,0.3198142647743225,2.5271639823913574,-0.28232139348983765,0.0,0.0,0.0,0.0,0.0,0.0,0.0,-0.15060749449344996,0.50714479284826,0.040789301967072436,0.5385743950515469,-0.21487485505992412,0.1270851697648536,-0.30002877135900746,0.1727922078067294,-0.48752095259059636,-0.11144706199427105,-1.9466316432450999,0.13362214404344558,2.5955460629208797,0.9452560104645842,0.1728802376190821,-0.48752024683155326,-0.11147110072896137,-1.9463801863486305,0.1336059019074957,2.595550359778934,0.9452445589611904,-0.000628029890961675,0.00018682774696767996,-0.0008466025661727481,0.00046955296246810785,2.459976407098293e-05,-0.0001079545650412484,-0.00036866779325123394,0.0,0.0,0.0,0.0,0.0,0.0,0.0,8.802981235270235e-05,7.057590430958882e-07,-2.403873469031259e-05,0.00025145689646932645,-1.624213594988988e-05,4.296858054253505e-06,-1.1451503393766771e-05,0.000628029890961675,-0.00018682774696767996,0.0008466025661727481,-0.00046955296246810785,-2.459976407098293e-05,0.0001079545650412484,0.00036866779325123394,0.12130087614059448,11.802515029907227,-1.2671844959259033,-21.816438674926758,-0.3198142647743225,-2.5271639823913574,0.28232139348983765,0
16,0.07498812675476074,-0.12130087614059448,-11.802515029907227,1.2671844959259033,21.816438674926758,0.3198142647743225,2.5271639823913574,-0.28232139348983765,0.0,0.0,0.0,0.0,0.0,0.0,0.0,-0.15060749449344996,0.50714479284826,0.040789301967072436,0.5385743950515469,-0.21487485505992412,0.1270851697648536,-0.30002877135900746,0.1727922078067294,-0.48752095259059636,-0.11144706199427105,-1.9466316432450999,0.13362214404344558,2.5955460629208797,0.9452560104645842,0.1728802376190821,-0.48752024683155326,-0.11147110072896137,-1.9463801863486305,0.1336059019074957,2.595550359778934,0.9452445589611904,-0.000628029890961675,0.00018682774696767996,-0.0008466025661727481,0.00046955296246810785,2.459976407098293e-05,-0.0001079545650412484,-0.00036866779325123394,0.0,0.0,0.0,0.0,0.0,0.0,0.0,8.802981235270235e-05,7.057590430958882e-07,-2.403873469031259e-05,0.00025145689646932645,-1.624213594988988e-05,4.296858054253505e-06,-1.1451503393766771e-05,0.000628029890961675,-0.00018682774696767996,0.0008466025661727481,-0.00046955296246810785,-2.459976407098293e-05,0.0001079545650412484,0.00036866779325123394,0.12130087614059448,11.802515029907227,-1.2671844959259033,-21.816438674926758,-0.3198142647743225,-2.5271639823913574,0.28232139348983765,0
17,0.07998418807983398,-0.14510458707809448,-11.826318740844727,1.2671844959259033,21.816438674926758,0.3198142647743225,2.5399813652038574,-0.29605430364608765,0.0,0.0,0.0,0.0,0.0,0.0,0.0,-0.14922303128195596,0.4959410068884752,0.04017863708069249,0.5450124936022686,-0.21462928621806282,0.1278502384977639,-0.29995361144192473,0.17279395114675328,-0.48751928219042306,-0.11144730695782643,-1.9466316432450945,0.13362214404344558,2.59554434378197,0.9452575989184651,0.1728802376190821,-0.48752024683155326,-0.11147110072896137,-1.9463801863486305,0.1336059019074957,2.595550359778934,0.9452445589611904,-0.0002151390768793246,-0.0002299322849373814,-0.0007326699855934511,0.00032578232641811573,-5.9480419574182045e-05,-0.0005629722344383379,-7.693538119533376e-05,0.0,0.0,0.0,0.0,0.0,0.0,0.0,8.628647232883369e-05,-9.64641130196675e-07,-2.3793771134941744e-05,0.0002514568964639974,-1.624213594988988e-05,6.015996964148229e-06,-1.3039957274640912e-05,0.0002151390768793246,0.0002299322849373814,0.0007326699855934511,-0.00032578232641811573,5.9480419574182045e-05,0.0005629722344383379,7.693538119533376e-05,0.14510458707809448,11.826318740844727,-1.2671844959259033,-21.816438674926758,-0.3198142647743225,-2.5399813652038574,0.29605430364608765,0
18,0.08494138717651367,-0.14510458707809448,-11.826318740844727,1.2671844959259033,21.816438674926758,0.3198142647743225,2.5399813652038574,-0.29605430364608765,0.0,0.0,0.0,0.0,0.0,0.0,0.0,-0.14922303128195596,0.4959410068884752,0.04017863708069249,0.5450124936022686,-0.21462928621806282,0.1278502384977639,-0.29995361144192473,0.17279395114675328,-0.48751928219042306,-0.11144730695782643,-1.9466316432450945,0.13362214404344558,2.59554434378197,0.9452575989184651,0.1728802376190821,-0.48752024683155326,-0.11147110072896137,-1.9463801863486305,0.1336059019074957,2.595550359778934,0.9452445589611904,-0.0002151390768793246,-0.0002299322849373814,-0.0007326699855934511,0.00032578232641811573,-5.9480419574182045e-05,-0.0005629722344383379,-7.693538119533376e-05,0.0,0.0,0.0,0.0,0.0,0.0,0.0,8.628647232883369e-05,-9.64641130196675e-07,-2.3793771134941744e-05,0.0002514568964639974,-1.624213594988988e-05,6.015996964148229e-06,-1.3039957274640912e-05,0.0002151390768793246,0.0002299322849373814,0.0007326699855934511,-0.00032578232641811573,5.9480419574182045e-05,0.0005629722344383379,7.693538119533376e-05,0.14510458707809448,11.826318740844727,-1.2671844959259033,-21.816438674926758,-0.3198142647743225,-2.5399813652038574,0.29605430364608765,0
19,0.08998441696166992,-0.06972616910934448,-11.774744033813477,1.2433807849884033,21.816438674926758,0.3198142647743225,2.5335726737976074,-0.30978721380233765,0.0,0.0,0.0,0.0,0.0,0.0,0.0,-0.14892188779060556,0.5073637855902178,0.03938789590424473,0.5391793263120128,-0.21489741906596713,0.12729882588525304,-0.3010487343515555,0.1727886701821787,-0.4875229014681096,-0.1114447616677997,-1.9466316432450945,0.13362214404344558,2.595549510504115,0.9452590040063531,0.1728802376190821,-0.48752024683155326,-0.11147110072896137,-1.9463801863486305,0.1336059019074957,2.595550359778934,0.9452445589611904,-0.0019867892920805074,-0.0011778625452715326,-0.0003955249225984893,0.0003198391259071285,-0.00012500187513945815,-0.0002865325117048184,0.0005087785257264535,0.0,0.0,0.0,0.0,0.0,0.0,0.0,9.156743690341695e-05,2.6546365563540064e-06,-2.6339061161673172e-05,0.0002514568964639974,-1.624213594988988e-05,8.492748189148358e-07,-1.444504516268097e-05,0.0019867892920805074,0.0011778625452715326,0.0003955249225984893,-0.0003198391259071285,0.00012500187513945815,0.0002865325117048184,-0.0005087785257264535,0.06972616910934448,11.774744033813477,-1.2433807849884033,-21.816438674926758,-0.3198142647743225,-2.5335726737976074,0.30978721380233765,0
20,0.09497880935668945,-0.06972616910934448,-11.774744033813477,1.2433807849884033,21.816438674926758,0.3198142647743225,2.5335726737976074,-0.30978721380233765,0.0,0.0,0.0,0.0,0.0,0.0,0.0,-0.14892188779060556,0.5073637855902178,0.03938789590424473,0.5391793263120128,-0.21489741906596713,0.12729882588525304,-0.3010487343515555,0.1727886701821787,-0.4875229014681096,-0.1114447616677997,-1.9466316432450945,0.13362214404344558,2.595549510504115,0.9452590040063531,0.1728802376190821,-0.48752024683155326,-0.11147110072896137,-1.9463801863486305,0.1336059019074957,2.595550359778934,0.9452445589611904,-0.0019867892920805074,-0.0011778625452715326,-0.0003955249225984893,0.0003198391259071285,-0.00012500187513945815,-0.0002865325117048184,0.0005087785257264535,0.0,0.0,0.0,0.0,0.0,0.0,0.0,9.156743690341695e-05,2.6546365563540064e-06,-2.6339061161673172e-05,0.0002514568964639974,-1.624213594988988e-05,8.492748189148358e-07,-1.444504516268097e-05,0.0019867892920805074,0.0011778625452715326,0.0003955249225984893,-0.0003198391259071285,0.00012500187513945815,0.0002865325117048184,-0.0005087785257264535,0.06972616910934448,11.774744033813477,-1.2433807849884033,-21.816438674926758,-0.3198142647743225,-2.5335726737976074,0.30978721380233765,0
21,0.09998202323913574,-0.17287558317184448,-11.774744033813477,1.2433807849884033,21.816438674926758,0.3317161202430725,2.5271639823913574,-0.25485557317733765,0.0,0.0,0.0,0.0,0.0,0.0,0.0,-0.14256119161922834,0.5099230187090059,0.04304126399897224,0.5377168708804503,-0.21540265250080817,0.12708577852620823,-0.301972649994831,0.17279377311798663,-0.4875229005051326,-0.11144680914887878,-1.9466316432450945,0.13362082161506017,2.595549136857886,0.9452529004348652,0.1728802376190821,-0.48752024683155326,-0.11147110072896137,-1.9463801863486305,0.1336059019074957,2.595550359778934,0.9452445589611904,0.0010278263446010657,-0.0010221460714248658,-0.00029182681103483214,0.00022275808161287638,-0.0005124476649508376,2.9664965656979034e-05,-0.0019684277101587933,0.0,0.0,0.0,0.0,0.0,0.0,0.0,8.646450109547898e-05,2.6536735793225574e-06,-2.4291580082588804e-05,0.0002514568964639974,-1.4919707564481355e-05,1.22292104798305e-06,-8.34147367478888e-06,-0.0010278263446010657,0.0010221460714248658,0.00029182681103483214,-0.00022275808161287638,0.0005124476649508376,-2.9664965656979034e-05,0.0019684277101587933,0.17287558317184448,11.774744033813477,-1.2433807849884033,-21.816438674926758,-0.3317161202430725,-2.5271639823913574,0.25485557317733765,0
22,0.1049811840057373,-0.17287558317184448,-11.774744033813477,1.2433807849884033,21.816438674926758,0.3317161202430725,2.5271639823913574,-0.25485557317733765,0.0,0.0,0.0,0.0,0.0,0.0,0.0,-0.14256119161922834,0.5099230187090059,0.04304126399897224,0.5377168708804503,-0.21540265250080817,0.12708577852620823,-0.301972649994831,0.17279377311798663,-0.4875229005051326,-0.11144680914887878,-1.9466316432450945,0.13362082161506017,2.595549136857886,0.9452529004348652,0.1728802376190821,-0.48752024683155326,-0.11147110072896137,-1.9463801863486305,0.1336059019074957,2.595550359778934,0.9452445589611904,0.0010278263446010657,-0.0010221460714248658,-0.00029182681103483214,0.00022275808161287638,-0.0005124476649508376,2.9664965656979034e-05,-0.0019684277101587933,0.0,0.0,0.0,0.0,0.0,0.0,0.0,8.646450109547898e-05,2.6536735793225574e-06,-2.4291580082588804e-05,0.0002514568964639974,-1.4919707564481355e-05,1.22292104798305e-06,-8.34147367478888e-06,-0.0010278263446010657,0.0010221460714248658,0.00029182681103483214,-0.00022275808161287638,0.0005124476649508376,-2.9664965656979034e-05,0.0019684277101587933,0.17287558317184448,11.774744033813477,-1.2433807849884033,-21.816438674926758,-0.3317161202430725,-2.5271639823913574,0.25485557317733765,0
23,0.10998296737670898,-0.14510458707809448,-11.850122451782227,1.2156097888946533,21.816438674926758,0.3262229561805725,2.5271639823913574,-0.32352012395858765,0.0,0.0,0.0,0.0,0.0,0.0,0.0,-0.14219680154376277,0.5163665043793513,0.04139427947067944,0.5348081733199294,-0.21537452187398973,0.1267828356141641,-0.3029193959879457,0.17279395696752894,-0.48751761175456254,-0.11144276066527536,-1.9466316432450945,0.13362143212863295,2.5955499668289472,0.9452608920379668,0.1728802376190821,-0.48752024683155326,-0.11147110072896137,-1.9463801863486305,0.1336059019074957,2.595550359778934,0.9452445589611904,0.0002402879283302974,0.001161559460128826,0.0004165053387087047,0.0003598933903178152,-0.00033054518398359687,-4.1301077837903965e-05,0.0007035385988585221,0.0,0.0,0.0,0.0,0.0,0.0,0.0,8.628065155316667e-05,-2.6350769907201865e-06,-2.8340063686002614e-05,0.0002514568964639974,-1.553022113726099e-05,3.9294998677164017e-07,-1.633307677639806e-05,-0.0002402879283302974,-0.001161559460128826,-0.0004165053387087047,-0.0003598933903178152,0.00033054518398359687,4.1301077837903965e-05,-0.0007035385988585221,0.14510458707809448,11.850122451782227,-1.2156097888946533,-21.816438674926758,-0.3262229561805725,-2.5271639823913574,0.32352012395858765,0
24,0.11498117446899414,-0.14510458707809448,-11.850122451782227,1.2156097888946533,21.816438674926758,0.3262229561805725,2.5271639823913574,-0.32352012395858765,0.0,0.0,0.0,0.0,0.0,0.0,0.0,-0.14219680154376277,0.5163665043793513,0.04139427947067944,0.5348081733199294,-0.21537452187398973,0.1267828356141641,-0.3029193959879457,0.17279395696752894,-0.48751761175456254,-0.11144276066527536,-1.9466316432450945,0.13362143212863295,2.5955499668289472,0.9452608920379668,0.1728802376190821,-0.48752024683155326,-0.11147110072896137,-1.9463801863486305,0.1336059019074957,2.595550359778934,0.9452445589611904,0.0002402879283302974,0.001161559460128826,0.0004165053387087047,0.0003598933903178152,-0.00033054518398359687,-4.1301077837903965e-05,0.0007035385988585221,0.0,0.0,0.0,0.0,0.0,0.0,0.0,8.628065155316667e-05,-2.6350769907201865e-06,-2.8340063686002614e-05,0.0002514568964639974,-1.553022113726099e-05,3.9294998677164017e-07,-1.633307677639806e-05,-0.0002402879283302974,-0.001161559460128826,-0.0004165053387087047,-0.0003598933903178152,0.00033054518398359687,4.1301077837903965e-05,-0.0007035385988585221,0.14510458707809448,11.850122451782227,-1.2156097888946533,-21.816438674926758,-0.3262229561805725,-2.5271639823913574,0.32352012395858765,0
25,0.11998295783996582,-0.12130087614059448,-11.802515029907227,1.2433807849884033,21.816438674926758,0.3143211007118225,2.5271639823913574,-0.26217979192733765,0.0,0.0,0.0,0.0,0.0,0.0,0.0,-0.14064735878163084,0.5085747877157928,0.043926716474453904,0.5380141963210339,-0.21559759417962043,0.12709939405454496,-0.30354758446214886,0.17279228945989794,-0.4875209526262785,-0.11144468292556678,-1.9466316432450945,0.13362275439500898,2.595550320530859,0.9452552205167741,0.1728802376190821,-0.48752024683155326,-0.11147110072896137,-1.9463801863486305,0.1336059019074957,2.595550359778934,0.9452445589611904,-0.00025832772075756565,-0.0006452234600638593,-0.000270362662650736,0.0001908334133014508,7.214619279041281e-05,-7.393739970879617e-05,-0.001268031468807167,0.0,0.0,0.0,0.0,0.0,0.0,0.0,8.79481591841702e-05,7.057947252198105e-07,-2.641780339458777e-05,0.0002514568964639974,-1.685248751329138e-05,3.924807501221039e-08,-1.0661555583713067e-05,0.00025832772075756565,0.0006452234600638593,0.000270362662650736,-0.0001908334133014508,-7.214619279041281e-05,7.393739970879617e-05,0.001268031468807167,0.12130087614059448,11.802515029907227,-1.2433807849884033,-21.816438674926758,-0.3143211007118225,-2.5271639823913574,0.26217979192733765,0
26,0.12498736381530762,-0.12130087614059448,-11.802515029907227,1.2433807849884033,21.816438674926758,0.3143211007118225,2.5271639823913574,-0.26217979192733765,0.0,0.0,0.0,0.0,0.0,0.0,0.0,-0.14064735878163084,0.5085747877157928,0.043926716474453904,0.5380141963210339,-0.21559759417962043,0.12709939405454496,-0.30354758446214886,0.17279228945989794,-0.4875209526262785,-0.11144468292556678,-1.9466316432450945,0.13362275439500898,2.595550320530859,0.9452552205167741,0.1728802376190821,-0.48752024683155326,-0.11147110072896137,-1.9463801863486305,0.1336059019074957,2.595550359778934,0.9452445589611904,-0.00025832772075756565,-0.0006452234600638593,-0.000270362662650736,0.0001908334133014508,7.214619279041281e-05,-7.393739970879617e-05,-0.001268031468807167,0.0,0.0,0.0,0.0,0.0,0.0,0.0,8.79481591841702e-05,7.057947252198105e-07,-2.641780339458777e-05,0.0002514568964639974,-1.685248751329138e-05,3.924807501221039e-08,-1.0661555583713067e-05,0.00025832772075756565,0.0006452234600638593,0.000270362662650736,-0.0001908334133014508,-7.214619279041281e-05,7.393739970879617e-05,0.001268031468807167,0.12130087614059448,11.802515029907227,-1.2433807849884033,-21.816438674926758,-0.3143211007118225,-2.5271639823913574,0.26217979192733765,0
27,0.12996888160705566,-0.17287558317184448,-11.826318740844727,1.2433807849884033,21.840242385864258,0.3317161202430725,2.5335726737976074,-0.27591270208358765,0.0,0.0,0.0,0.0,0.0,0.0,0.0,-0.14416037443024637,0.49858397156454404,0.03709237058064328,0.5452146940646158,-0.21533591288301956,0.12787899147844153,-0.30277496382331226,0.17279588249193426,-0.48751715015926117,-0.11144468292541672,-1.9466333136809497,0.13362082161506017,2.5955491368597308,0.9452552406209872,0.1728802376190821,-0.48752024683155326,-0.11147110072896137,-1.9463801863486305,0.1336059019074957,2.595550359778934,0.9452445589611904,0.0007038088657511043,-0.00021691103356712808,-0.00036151872898832914,0.0003634611913467379,-0.00031635082213840897,-0.0002493402471215612,-0.0007961123857594309,0.0,0.0,0.0,0.0,0.0,0.0,0.0,8.435512714785598e-05,-3.096672292091096e-06,-2.641780354464829e-05,0.0002531273323191918,-1.4919707564481355e-05,1.2229192032364722e-06,-1.0681659796785148e-05,-0.0007038088657511043,0.00021691103356712808,0.00036151872898832914,-0.0003634611913467379,0.00031635082213840897,0.0002493402471215612,0.0007961123857594309,0.17287558317184448,11.826318740844727,-1.2433807849884033,-21.840242385864258,-0.3317161202430725,-2.5335726737976074,0.27591270208358765,0
28,0.13498592376708984,-0.17287558317184448,-11.826318740844727,1.2433807849884033,21.840242385864258,0.3317161202430725,2.5335726737976074,-0.27591270208358765,0.0,0.0,0.0,0.0,0.0,0.0,0.0,-0.14416037443024637,0.49858397156454404,0.03709237058064328,0.5452146940646158,-0.21533591288301956,0.12787899147844153,-0.30277496382331226,0.17279588249193426,-0.48751715015926117,-0.11144468292541672,-1.9466333136809497,0.13362082161506017,2.5955491368597308,0.9452552406209872,0.1728802376190821,-0.48752024683155326,-0.11147110072896137,-1.9463801863486305,0.1336059019074957,2.595550359778934,0.9452445589611904,0.0007038088657511043,-0.00021691103356712808,-0.00036151872898832914,0.0003634611913467379,-0.00031635082213840897,-0.0002493402471215612,-0.0007961123857594309,0.0,0.0,0.0,0.0,0.0,0.0,0.0,8.435512714785598e-05,-3.096672292091096e-06,-2.641780354464829e-05,0.0002531273323191918,-1.4919707564481355e-05,1.2229192032364722e-06,-1.0681659796785148e-05,-0.0007038088657511043,0.00021691103356712808,0.00036151872898832914,-0.0003634611913467379,0.00031635082213840897,0.0002493402471215612,0.0007961123857594309,0.17287558317184448,11.826318740844727,-1.2433807849884033,-21.840242385864258,-0.3317161202430725,-2.5335726737976074,0.27591270208358765,0
29,0.13998794555664062,-0.17287558317184448,-11.850122451782227,1.2156097888946533,21.840242385864258,0.3198142647743225,2.5335726737976074,-0.32352012395858765,0.0,0.0,0.0,0.0,0.0,0.0,0.0,-0.14449524206286152,0.5090024758543064,0.03571545349704337,0.5361041000140127,-0.2150787606860338,0.12628032475715695,-0.302763249911373,0.17279590873745274,-0.48751761174253255,-0.11144273408358557,-1.9466333136809497,0.13362214404344558,2.595545016634308,0.9452606505104082,0.1728802376190821,-0.48752024683155326,-0.11147110072896137,-1.9463801863486305,0.1336059019074957,2.595550359778934,0.9452445589611904,0.0006020622674661854,0.0002992602439972797,3.248927654545982e-05,-0.00043319276435109516,-9.941269163344828e-06,-0.0002590778570040628,0.0010456661874678245,0.0,0.0,0.0,0.0,0.0,0.0,0.0,8.432888162937524e-05,-2.6350890207083033e-06,-2.8366645375796362e-05,0.0002531273323191918,-1.624213594988988e-05,5.343144625857832e-06,-1.6091549217778223e-05,-0.0006020622674661854,-0.0002992602439972797,-3.248927654545982e-05,0.00043319276435109516,9.941269163344828e-06,0.0002590778570040628,-0.0010456661874678245,0.17287558317184448,11.850122451782227,-1.2156097888946533,-21.840242385864258,-0.3198142647743225,-2.5335726737976074,0.32352012395858765,0
30,0.14498043060302734,-0.17287558317184448,-11.850122451782227,1.2156097888946533,21.840242385864258,0.3198142647743225,2.5335726737976074,-0.32352012395858765,0.0,0.0,0.0,0.0,0.0,0.0,0.0,-0.14449524206286152,0.5090024758543064,0.03571545349704337,0.5361041000140127,-0.2150787606860338,0.12628032475715695,-0.302763249911373,0.17279590873745274,-0.48751761174253255,-0.11144273408358557,-1.9466333136809497,0.13362214404344558,2.595545016634308,0.9452606505104082,0.1728802376190821,-0.48752024683155326,-0.11147110072896137,-1.9463801863486305,0.1336059019074957,2.595550359778934,0.9452445589611904,0.0006020622674661854,0.0002992602439972797,3.248927654545982e-05,-0.00043319276435109516,-9.941269163344828e-06,-0.0002590778570040628,0.0010456661874678245,0.0,0.0,0.0,0.0,0.0,0.0,0.0,8.432888162937524e-05,-2.6350890207083033e-06,-2.8366645375796362e-05,0.0002531273323191918,-1.624213594988988e-05,5.343144625857832e-06,-1.6091549217778223e-05,-0.0006020622674661854,-0.0002992602439972797,-3.248927654545982e-05,0.00043319276435109516,9.941269163344828e-06,0.0002590778570040628,-0.0010456661874678245,0.17287558317184448,11.850122451782227,-1.2156097888946533,-21.840242385864258,-0.3198142647743225,-2.5335726737976074,0.32352012395858765,0
31,0.14998221397399902,-0.14510458707809448,-11.873926162719727,1.2156097888946533,21.816438674926758,0.3317161202430725,2.5207552909851074,-0.28964561223983765,0.0,0.0,0.0,0.0,0.0,0.0,0.0,-0.14005535085079154,0.509536687155127,0.042833194674809,0.5337610994452093,-0.21503646449584396,0.12684395274960789,-0.3059133668643331,0.17279395697958458,-0.4875159412117152,-0.11144273408358557,-1.9466316432450945,0.13362082161506017,2.5955474944271177,0.9452567676508742,0.1728802376190821,-0.48752024683155326,-0.11147110072896137,-1.9463801863486305,0.1336059019074957,2.595550359778934,0.9452445589611904,0.0001452841260909076,0.0012308807855390758,0.0005484509815909838,0.0005830678369612138,-0.00048325407314868136,0.0002497390681914917,-5.89407570254344e-05,0.0,0.0,0.0,0.0,0.0,0.0,0.0,8.62806394975324e-05,-4.3056198380519994e-06,-2.8366645375796362e-05,0.0002514568964639974,-1.4919707564481355e-05,2.8653518162613523e-06,-1.2208689683768092e-05,-0.0001452841260909076,-0.0012308807855390758,-0.0005484509815909838,-0.0005830678369612138,0.00048325407314868136,-0.0002497390681914917,5.89407570254344e-05,0.14510458707809448,11.873926162719727,-1.2156097888946533,-21.816438674926758,-0.3317161202430725,-2.5207552909851074,0.28964561223983765,0
32,0.15498566627502441,-0.14510458707809448,-11.873926162719727,1.2156097888946533,21.816438674926758,0.3317161202430725,2.5207552909851074,-0.28964561223983765,0.0,0.0,0.0,0.0,0.0,0.0,0.0,-0.14005535085079154,0.509536687155127,0.042833194674809,0.5337610994452093,-0.21503646449584396,0.12684395274960789,-0.3059133668643331,0.17279395697958458,-0.4875159412117152,-0.11144273408358557,-1.9466316432450945,0.13362082161506017,2.5955474944271177,0.9452567676508742,0.1728802376190821,-0.48752024683155326,-0.11147110072896137,-1.9463801863486305,0.1336059019074957,2.595550359778934,0.9452445589611904,0.0001452841260909076,0.0012308807855390758,0.0005484509815909838,0.0005830678369612138,-0.00048325407314868136,0.0002497390681914917,-5.89407570254344e-05,0.0,0.0,0.0,0.0,0.0,0.0,0.0,8.62806394975324e-05,-4.3056198380519994e-06,-2.8366645375796362e-05,0.0002514568964639974,-1.4919707564481355e-05,2.8653518162613523e-06,-1.2208689683768092e-05,-0.0001452841260909076,-0.0012308807855390758,-0.0005484509815909838,-0.0005830678369612138,0.00048325407314868136,-0.0002497390681914917,5.89407570254344e-05,0.14510458707809448,11.873926162719727,-1.2156097888946533,-21.816438674926758,-0.3317161202430725,-2.5207552909851074,0.28964561223983765,0
33,0.1599874496459961,-0.14510458707809448,-11.873926162719727,1.2156097888946533,21.816438674926758,0.3317161202430725,2.5207552909851074,-0.28964561223983765,0.0,0.0,0.0,0.0,0.0,0.0,0.0,-0.14005535085079154,0.509536687155127,0.042833194674809,0.5337610994452093,-0.21503646449584396,0.12684395274960789,-0.3059133668643331,0.17279395697958458,-0.4875159412117152,-0.11144273408358557,-1.9466316432450945,0.13362082161506017,2.5955474944271177,0.9452567676508742,0.1728802376190821,-0.48752024683155326,-0.11147110072896137,-1.9463801863486305,0.1336059019074957,2.595550359778934,0.9452445589611904,0.0001452841260909076,0.0012308807855390758,0.0005484509815909838,0.0005830678369612138,-0.00048325407314868136,0.0002497390681914917,-5.89407570254344e-05,0.0,0.0,0.0,0.0,0.0,0.0,0.0,8.62806394975324e-05,-4.3056198380519994e-06,-2.8366645375796362e-05,0.0002514568964639974,-1.4919707564481355e-05,2.8653518162613523e-06,-1.2208689683768092e-05,-0.0001452841260909076,-0.0012308807855390758,-0.0005484509815909838,-0.0005830678369612138,0.00048325407314868136,-0.0002497390681914917,5.89407570254344e-05,0.14510458707809448,11.873926162719727,-1.2156097888946533,-21.816438674926758,-0.3317161202430725,-2.5207552909851074,0.28964561223983765,0
34,0.16498446464538574,-0.14510458707809448,-11.873926162719727,1.2156097888946533,21.816438674926758,0.3317161202430725,2.5207552909851074,-0.28964561223983765,0.0,0.0,0.0,0.0,0.0,0.0,0.0,-0.14005535085079154,0.509536687155127,0.042833194674809,0.5337610994452093,-0.21503646449584396,0.12684395274960789,-0.3059133668643331,0.17279395697958458,-0.4875159412117152,-0.11144273408358557,-1.9466316432450945,0.13362082161506017,2.5955474944271177,0.9452567676508742,0.1728802376190821,-0.48752024683155326,-0.11147110072896137,-1.9463801863486305,0.1336059019074957,2.595550359778934,0.9452445589611904,0.0001452841260909076,0.0012308807855390758,0.0005484509815909838,0.0005830678369612138,-0.00048325407314868136,0.0002497390681914917,-5.89407570254344e-05,0.0,0.0,0.0,0.0,0.0,0.0,0.0,8.62806394975324e-05,-4.3056198380519994e-06,-2.8366645375796362e-05,0.0002514568964639974,-1.4919707564481355e-05,2.8653518162613523e-06,-1.2208689683768092e-05,-0.0001452841260909076,-0.0012308807855390758,-0.0005484509815909838,-0.0005830678369612138,0.00048325407314868136,-0.0002497390681914917,5.89407570254344e-05,0.14510458707809448,11.873926162719727,-1.2156097888946533,-21.816438674926758,-0.3317161202430725,-2.5207552909851074,0.28964561223983765,0
35,0.1699814796447754,-0.14510458707809448,-11.826318740844727,1.2671844959259033,21.816438674926758,0.3262229561805725,2.5207552909851074,-0.27591270208358765,0.0,0.0,0.0,0.0,0.0,0.0,0.0,-0.14618178879974586,0.5046049344154282,0.03440197838376847,0.5333805440712507,-0.21479549644618887,0.1274798615433111,-0.30660593054411767,0.17279364494775373,-0.4875192821904227,-0.11144714364745603,-1.9466316432450945,0.13362143196662268,2.595547892705833,0.9452552401158638,0.1728802376190821,-0.48752024683155326,-0.11147110072896137,-1.9463801863486305,0.1336059019074957,2.595550359778934,0.9452445589611904,0.0001088351376963367,-9.62005027022914e-05,-0.0009327402572081323,0.00011092287801089318,-0.00035208859621697284,0.00027703844314732213,-0.0008660837427512684,0.0,0.0,0.0,0.0,0.0,0.0,0.0,8.659267132837822e-05,-9.646411305852531e-07,-2.3957081505335265e-05,0.0002514568964639974,-1.5530059126994677e-05,2.467073100920203e-06,-1.0681154673397586e-05,-0.0001088351376963367,9.62005027022914e-05,0.0009327402572081323,-0.00011092287801089318,0.00035208859621697284,-0.00027703844314732213,0.0008660837427512684,0.14510458707809448,11.826318740844727,-1.2671844959259033,-21.816438674926758,-0.3262229561805725,-2.5207552909851074,0.27591270208358765,0
36,0.17498540878295898,-0.14510458707809448,-11.826318740844727,1.2671844959259033,21.816438674926758,0.3262229561805725,2.5207552909851074,-0.27591270208358765,0.0,0.0,0.0,0.0,0.0,0.0,0.0,-0.14618178879974586,0.5046049344154282,0.03440197838376847,0.5333805440712507,-0.21479549644618887,0.1274798615433111,-0.30660593054411767,0.17279364494775373,-0.4875192821904227,-0.11144714364745603,-1.9466316432450945,0.13362143196662268,2.595547892705833,0.9452552401158638,0.1728802376190821,-0.48752024683155326,-0.11147110072896137,-1.9463801863486305,0.1336059019074957,2.595550359778934,0.9452445589611904,0.0001088351376963367,-9.62005027022914e-05,-0.0009327402572081323,0.00011092287801089318,-0.00035208859621697284,0.00027703844314732213,-0.0008660837427512684,0.0,0.0,0.0,0.0,0.0,0.0,0.0,8.659267132837822e-05,-9.646411305852531e-07,-2.3957081505335265e-05,0.0002514568964639974,-1.5530059126994677e-05,2.467073100920203e-06,-1.0681154673397586e-05,-0.0001088351376963367,9.62005027022914e-05,0.0009327402572081323,-0.00011092287801089318,0.00035208859621697284,-0.00027703844314732213,0.0008660837427512684,0.14510458707809448,11.826318740844727,-1.2671844959259033,-21.816438674926758,-0.3262229561805725,-2.5207552909851074,0.27591270208358765,0
37,0.17998409271240234,-0.14510458707809448,-11.802515029907227,1.2671844959259033,21.792634963989258,0.3198142647743225,2.5271639823913574,-0.29605430364608765,0.0,0.0,0.0,0.0,0.0,0.0,0.0,-0.14123263361613572,0.5062777752432573,0.042079590331584434,0.5337779073313411,-0.21564052187959834,0.12770089213508273,-0.30544440616078955,0.17279394714918256,-0.48751861259207624,-0.11144635433779489,-1.946629972809239,0.13362214404344558,2.595550341833868,0.9452574780715837,0.1728802376190821,-0.48752024683155326,-0.11147110072896137,-1.9463801863486305,0.1336059019074957,2.595550359778934,0.9452445589611904,0.00013874267772945033,-4.462062392091607e-05,-0.00024621373235289047,0.0009245026046140269,-0.000115797337876231,-0.0001748093242973286,0.00030805929829111784,0.0,0.0,0.0,0.0,0.0,0.0,0.0,8.629046989955258e-05,-1.6342394770219038e-06,-2.4746391166480253e-05,0.0002497864606085809,-1.624213594988988e-05,1.7945065877711386e-08,-1.2919110393250222e-05,-0.00013874267772945033,4.462062392091607e-05,0.00024621373235289047,-0.0009245026046140269,0.000115797337876231,0.0001748093242973286,-0.00030805929829111784,0.14510458707809448,11.802515029907227,-1.2671844959259033,-21.792634963989258,-0.3198142647743225,-2.5271639823913574,0.29605430364608765,0
38,0.18577313423156738,-0.14510458707809448,-11.802515029907227,1.2671844959259033,21.792634963989258,0.3198142647743225,2.5271639823913574,-0.29605430364608765,0.0,0.0,0.0,0.0,0.0,0.0,0.0,-0.14123263361613572,0.5062777752432573,0.042079590331584434,0.5337779073313411,-0.21564052187959834,0.12770089213508273,-0.30544440616078955,0.17279394714918256,-0.48751861259207624,-0.11144635433779489,-1.946629972809239,0.13362214404344558,2.595550341833868,0.9452574780715837,0.1728802376190821,-0.48752024683155326,-0.11147110072896137,-1.9463801863486305,0.1336059019074957,2.595550359778934,0.9452445589611904,0.00013874267772945033,-4.462062392091607e-05,-0.00024621373235289047,0.0009245026046140269,-0.000115797337876231,-0.0001748093242973286,0.00030805929829111784,0.0,0.0,0.0,0.0,0.0,0.0,0.0,8.629046989955258e-05,-1.6342394770219038e-06,-2.4746391166480253e-05,0.0002497864606085809,-1.624213594988988e-05,1.7945065877711386e-08,-1.2919110393250222e-05,-0.00013874267772945033,4.462062392091607e-05,0.00024621373235289047,-0.0009245026046140269,0.000115797337876231,0.0001748093242973286,-0.00030805929829111784,0.14510458707809448,11.802515029907227,-1.2671844959259033,-21.792634963989258,-0.3198142647743225,-2.5271639823913574,0.29605430364608765,0
39,0.18999481201171875,-0.19667929410934448,-11.826318740844727,1.1918060779571533,21.840242385864258,0.3198142647743225,2.5335726737976074,-0.26858848333358765,0.0,0.0,0.0,0.0,0.0,0.0,0.0,-0.14544429389169775,0.5057164094430612,0.036415502296263974,0.5356208616820438,-0.2157335237515629,0.12762884200608407,-0.3034723375205665,0.17279757917338417,-0.48751925617683367,-0.1114410636837381,-1.9466333136809497,0.13362214404344558,2.595545356175661,0.9452547888534283,0.1728802376190821,-0.48752024683155326,-0.11147110072896137,-1.9463801863486305,0.1336059019074957,2.595550359778934,0.9452445589611904,0.0014574066720673797,0.0006254720724249052,0.0011956679294485158,-0.00029410668436621293,-0.0001202344079590426,-7.343486670447948e-05,-0.0008996765094650429,0.0,0.0,0.0,0.0,0.0,0.0,0.0,8.265844569793623e-05,-9.90654719590367e-07,-3.0037045223266223e-05,0.0002531273323191918,-1.624213594988988e-05,5.003603273046053e-06,-1.022989223786741e-05,-0.0014574066720673797,-0.0006254720724249052,-0.0011956679294485158,0.00029410668436621293,0.0001202344079590426,7.343486670447948e-05,0.0008996765094650429,0.19667929410934448,11.826318740844727,-1.1918060779571533,-21.840242385864258,-0.3198142647743225,-2.5335726737976074,0.26858848333358765,0
40,0.19498896598815918,-0.19667929410934448,-11.826318740844727,1.1918060779571533,21.840242385864258,0.3198142647743225,2.5335726737976074,-0.26858848333358765,0.0,0.0,0.0,0.0,0.0,0.0,0.0,-0.14544429389169775,0.5057164094430612,0.036415502296263974,0.5356208616820438,-0.2157335237515629,0.12762884200608407,-0.3034723375205665,0.17279757917338417,-0.48751925617683367,-0.1114410636837381,-1.9466333136809497,0.13362214404344558,2.595545356175661,0.9452547888534283,0.1728802376190821,-0.48752024683155326,-0.11147110072896137,-1.9463801863486305,0.1336059019074957,2.595550359778934,0.9452445589611904,0.0014574066720673797,0.0006254720724249052,0.0011956679294485158,-0.00029410668436621293,-0.0001202344079590426,-7.343486670447948e-05,-0.0008996765094650429,0.0,0.0,0.0,0.0,0.0,0.0,0.0,8.265844569793623e-05,-9.90654719590367e-07,-3.0037045223266223e-05,0.0002531273323191918,-1.624213594988988e-05,5.003603273046053e-06,-1.022989223786741e-05,-0.0014574066720673797,-0.0006254720724249052,-0.0011956679294485158,0.00029410668436621293,0.0001202344079590426,7.343486670447948e-05,0.0008996765094650429,0.19667929410934448,11.826318740844727,-1.1918060779571533,-21.840242385864258,-0.3198142647743225,-2.5335726737976074,0.26858848333358765,0
41,0.1999824047088623,-0.12130087614059448,-11.774744033813477,1.1918060779571533,21.792634963989258,0.3143211007118225,2.5335726737976074,-0.28964561223983765,0.0,0.0,0.0,0.0,0.0,0.0,0.0,-0.14521690971681536,0.5058903549166451,0.03881052815223754,0.5374650649559126,-0.21618610578356257,0.1277207702454295,-0.3013322018271874,0.1727922107229146,-0.4875229014679628,-0.11144107243228835,-1.946629972809239,0.13362275876928584,2.595549490209942,0.9452568866778165,0.1728802376190821,-0.48752024683155326,-0.11147110072896137,-1.9463801863486305,0.1336059019074957,2.595550359778934,0.9452445589611904,-0.0006762402802943507,-0.0011774028577317222,0.0011150643300221993,0.0013199189220740551,0.0001346077176411627,-0.00027936155529835596,-0.0002802886354798736,0.0,0.0,0.0,0.0,0.0,0.0,0.0,8.802689616752013e-05,2.6546364095270114e-06,-3.002829667302087e-05,0.0002497864606085809,-1.685686179014878e-05,8.695689919235861e-07,-1.2327716626070462e-05,0.0006762402802943507,0.0011774028577317222,-0.0011150643300221993,-0.0013199189220740551,-0.0001346077176411627,0.00027936155529835596,0.0002802886354798736,0.12130087614059448,11.774744033813477,-1.1918060779571533,-21.792634963989258,-0.3143211007118225,-2.5335726737976074,0.28964561223983765,0
42,0.20498204231262207,-0.12130087614059448,-11.774744033813477,1.1918060779571533,21.792634963989258,0.3143211007118225,2.5335726737976074,-0.28964561223983765,0.0,0.0,0.0,0.0,0.0,0.0,0.0,-0.14521690971681536,0.5058903549166451,0.03881052815223754,0.5374650649559126,-0.21618610578356257,0.1277207702454295,-0.3013322018271874,0.1727922107229146,-0.4875229014679628,-0.11144107243228835,-1.946629972809239,0.13362275876928584,2.595549490209942,0.9452568866778165,0.1728802376190821,-0.48752024683155326,-0.11147110072896137,-1.9463801863486305,0.1336059019074957,2.595550359778934,0.9452445589611904,-0.0006762402802943507,-0.0011774028577317222,0.0011150643300221993,0.0013199189220740551,0.0001346077176411627,-0.00027936155529835596,-0.0002802886354798736,0.0,0.0,0.0,0.0,0.0,0.0,0.0,8.802689616752013e-05,2.6546364095270114e-06,-3.002829667302087e-05,0.0002497864606085809,-1.685686179014878e-05,8.695689919235861e-07,-1.2327716626070462e-05,0.0006762402802943507,0.0011774028577317222,-0.0011150643300221993,-0.0013199189220740551,-0.0001346077176411627,0.00027936155529835596,0.0002802886354798736,0.12130087614059448,11.774744033813477,-1.1918060779571533,-21.792634963989258,-0.3143211007118225,-2.5335726737976074,0.28964561223983765,0
43,0.20998692512512207,-0.14510458707809448,-11.826318740844727,1.2156097888946533,21.816438674926758,0.3143211007118225,2.5271639823913574,-0.32352012395858765,0.0,0.0,0.0,0.0,0.0,0.0,0.0,-0.14316710024310467,0.5079530510640179,0.04202130441916332,0.5370755739490384,-0.2164938093684556,0.1273769220024027,-0.3008924772558504,0.17279395989532528,-0.48751928219042323,-0.11144344271663416,-1.9466316432450945,0.13362275439503277,2.595547167620199,0.9452639284876155,0.1728802376190821,-0.48752024683155326,-0.11147110072896137,-1.9463801863486305,0.1336059019074957,2.595550359778934,0.9452445589611904,-0.00014009257313839227,0.00013511889493177676,0.00043285373057312405,0.0005058093448656069,0.0001326418858496283,-5.1329368988872906e-05,0.0015685066435279608,0.0,0.0,0.0,0.0,0.0,0.0,0.0,8.627772375682796e-05,-9.646411300301416e-07,-2.7658012327208548e-05,0.0002514568964639974,-1.685248753707791e-05,3.192158735121353e-06,-1.9369526425117023e-05,0.00014009257313839227,-0.00013511889493177676,-0.00043285373057312405,-0.0005058093448656069,-0.0001326418858496283,5.1329368988872906e-05,-0.0015685066435279608,0.14510458707809448,11.826318740844727,-1.2156097888946533,-21.816438674926758,-0.3143211007118225,-2.5271639823913574,0.32352012395858765,0
44,0.21498847007751465,-0.14510458707809448,-11.826318740844727,1.2156097888946533,21.816438674926758,0.3143211007118225,2.5271639823913574,-0.32352012395858765,0.0,0.0,0.0,0.0,0.0,0.0,0.0,-0.14316710024310467,0.5079530510640179,0.04202130441916332,0.5370755739490384,-0.2164938093684556,0.1273769220024027,-0.3008924772558504,0.17279395989532528,-0.48751928219042323,-0.11144344271663416,-1.9466316432450945,0.13362275439503277,2.595547167620199,0.9452639284876155,0.1728802376190821,-0.48752024683155326,-0.11147110072896137,-1.9463801863486305,0.1336059019074957,2.595550359778934,0.9452445589611904,-0.00014009257313839227,0.00013511889493177676,0.00043285373057312405,0.0005058093448656069,0.0001326418858496283,-5.1329368988872906e-05,0.0015685066435279608,0.0,0.0,0.0,0.0,0.0,0.0,0.0,8.627772375682796e-05,-9.646411300301416e-07,-2.7658012327208548e-05,0.0002514568964639974,-1.685248753707791e-05,3.192158735121353e-06,-1.9369526425117023e-05,0.00014009257313839227,-0.00013511889493177676,-0.00043285373057312405,-0.0005058093448656069,-0.0001326418858496283,5.1329368988872906e-05,-0.0015685066435279608,0.14510458707809448,11.826318740844727,-1.2156097888946533,-21.816438674926758,-0.3143211007118225,-2.5271639823913574,0.32352012395858765,0
45,0.2199876308441162,-0.14510458707809448,-11.826318740844727,1.2156097888946533,21.816438674926758,0.3143211007118225,2.5271639823913574,-0.32352012395858765,0.0,0.0,0.0,0.0,0.0,0.0,0.0,-0.14316710024310467,0.5079530510640179,0.04202130441916332,0.5370755739490384,-0.2164938093684556,0.1273769220024027,-0.3008924772558504,0.17279395989532528,-0.48751928219042323,-0.11144344271663416,-1.9466316432450945,0.13362275439503277,2.595547167620199,0.9452639284876155,0.1728802376190821,-0.48752024683155326,-0.11147110072896137,-1.9463801863486305,0.1336059019074957,2.595550359778934,0.9452445589611904,-0.00014009257313839227,0.00013511889493177676,0.00043285373057312405,0.0005058093448656069,0.0001326418858496283,-5.1329368988872906e-05,0.0015685066435279608,0.0,0.0,0.0,0.0,0.0,0.0,0.0,8.627772375682796e-05,-9.646411300301416e-07,-2.7658012327208548e-05,0.0002514568964639974,-1.685248753707791e-05,3.192158735121353e-06,-1.9369526425117023e-05,0.00014009257313839227,-0.00013511889493177676,-0.00043285373057312405,-0.0005058093448656069,-0.0001326418858496283,5.1329368988872906e-05,-0.0015685066435279608,0.14510458707809448,11.826318740844727,-1.2156097888946533,-21.816438674926758,-0.3143211007118225,-2.5271639823913574,0.32352012395858765,0
46,0.22498154640197754,-0.14510458707809448,-11.826318740844727,1.2433807849884033,21.840242385864258,0.3262229561805725,2.5335726737976074,-0.26217979192733765,0.0,0.0,0.0,0.0,0.0,0.0,0.0,-0.14691624318437574,0.5025390642627906,0.03635078783105671,0.5398393625196213,-0.21614694921571329,0.12744765943913694,-0.30103221697421684,0.17279395989576973,-0.4875192818694309,-0.11144680915243453,-1.9466333136809497,0.13362249491612116,2.595548544277949,0.9452548003852164,0.1728802376190821,-0.48752024683155326,-0.11147110072896137,-1.9463801863486305,0.1336059019074957,2.595550359778934,0.9452445589611904,-0.00033550813259551154,6.378843393171691e-05,-0.00019724310196317428,-0.00030630233974321647,-0.00035480440321143816,-0.0004123789645939157,-0.0010704473981298169,0.0,0.0,0.0,0.0,0.0,0.0,0.0,8.627772331237793e-05,-9.64962122373958e-07,-2.429157652683589e-05,0.0002531273323191918,-1.659300862547064e-05,1.815500985102858e-06,-1.024142402594741e-05,0.00033550813259551154,-6.378843393171691e-05,0.00019724310196317428,0.00030630233974321647,0.00035480440321143816,0.0004123789645939157,0.0010704473981298169,0.14510458707809448,11.826318740844727,-1.2433807849884033,-21.840242385864258,-0.3262229561805725,-2.5335726737976074,0.26217979192733765,0
47,0.2299823760986328,-0.14510458707809448,-11.826318740844727,1.2433807849884033,21.840242385864258,0.3262229561805725,2.5335726737976074,-0.26217979192733765,0.0,0.0,0.0,0.0,0.0,0.0,0.0,-0.14691624318437574,0.5025390642627906,0.03635078783105671,0.5398393625196213,-0.21614694921571329,0.12744765943913694,-0.30103221697421684,0.17279395989576973,-0.4875192818694309,-0.11144680915243453,-1.9466333136809497,0.13362249491612116,2.595548544277949,0.9452548003852164,0.1728802376190821,-0.48752024683155326,-0.11147110072896137,-1.9463801863486305,0.1336059019074957,2.595550359778934,0.9452445589611904,-0.00033550813259551154,6.378843393171691e-05,-0.00019724310196317428,-0.00030630233974321647,-0.00035480440321143816,-0.0004123789645939157,-0.0010704473981298169,0.0,0.0,0.0,0.0,0.0,0.0,0.0,8.627772331237793e-05,-9.64962122373958e-07,-2.429157652683589e-05,0.0002531273323191918,-1.659300862547064e-05,1.815500985102858e-06,-1.024142402594741e-05,0.00033550813259551154,-6.378843393171691e-05,0.00019724310196317428,0.00030630233974321647,0.00035480440321143816,0.0004123789645939157,0.0010704473981298169,0.14510458707809448,11.826318740844727,-1.2433807849884033,-21.840242385864258,-0.3262229561805725,-2.5335726737976074,0.26217979192733765,0
48,0.23498201370239258,-0.19667929410934448,-11.850122451782227,1.2433807849884033,21.792634963989258,0.3198142647743225,2.5335726737976074,-0.30978721380233765,0.0,0.0,0.0,0.0,0.0,0.0,0.0,-0.14871017554673116,0.5160452133904343,0.035824514347069444,0.5305388042244424,-0.21592347308228133,0.1260177176647516,-0.30039303738498946,0.17279757917345612,-0.48751761171890035,-0.11144477053098162,-1.946629972809239,0.13362214404944595,2.5955496069964754,0.945262315979873,0.1728802376190821,-0.48752024683155326,-0.11147110072896137,-1.9463801863486305,0.1336059019074957,2.595550359778934,0.9452445589611904,0.0010857953242951913,0.0008578369113842267,-0.0005501671106665549,0.0003568981294618866,5.436800128203351e-05,-0.0002870264500548909,0.0009075810636446432,0.0,0.0,0.0,0.0,0.0,0.0,0.0,8.265844562599378e-05,-2.6351126529156055e-06,-2.633019797974867e-05,0.0002497864606085809,-1.624214195025675e-05,7.527824585906728e-07,-1.775701868256263e-05,-0.0010857953242951913,-0.0008578369113842267,0.0005501671106665549,-0.0003568981294618866,-5.436800128203351e-05,0.0002870264500548909,-0.0009075810636446432,0.19667929410934448,11.850122451782227,-1.2433807849884033,-21.792634963989258,-0.3198142647743225,-2.5335726737976074,0.30978721380233765,0
49,0.23998069763183594,-0.19667929410934448,-11.850122451782227,1.2433807849884033,21.792634963989258,0.3198142647743225,2.5335726737976074,-0.30978721380233765,0.0,0.0,0.0,0.0,0.0,0.0,0.0,-0.14871017554673116,0.5160452133904343,0.035824514347069444,0.5305388042244424,-0.21592347308228133,0.1260177176647516,-0.30039303738498946,0.17279757917345612,-0.48751761171890035,-0.11144477053098162,-1.946629972809239,0.13362214404944595,2.5955496069964754,0.945262315979873,0.1728802376190821,-0.48752024683155326,-0.11147110072896137,-1.9463801863486305,0.1336059019074957,2.595550359778934,0.9452445589611904,0.0010857953242951913,0.0008578369113842267,-0.0005501671106665549,0.0003568981294618866,5.436800128203351e-05,-0.0002870264500548909,0.0009075810636446432,0.0,0.0,0.0,0.0,0.0,0.0,0.0,8.265844562599378e-05,-2.6351126529156055e-06,-2.633019797974867e-05,0.0002497864606085809,-1.624214195025675e-05,7.527824585906728e-07,-1.775701868256263e-05,-0.0010857953242951913,-0.0008578369113842267,0.0005501671106665549,-0.0003568981294618866,-5.436800128203351e-05,0.0002870264500548909,-0.0009075810636446432,0.19667929410934448,11.850122451782227,-1.2433807849884033,-21.792634963989258,-0.3198142647743225,-2.5335726737976074,0.30978721380233765,0
50,0.2449815273284912,-0.12130087614059448,-11.826318740844727,1.2671844959259033,21.816438674926758,0.3198142647743225,2.5271639823913574,-0.24844686686992645,0.0,0.0,0.0,0.0,0.0,0.0,0.0,-0.15231096625909232,0.49276826327388695,0.03514438934099771,0.5426339456660562,-0.21512979649554842,0.12786668461935377,-0.30022843905708646,0.17279228942391217,-0.48751928122744603,-0.11144644084732194,-1.9466316432450945,0.1336221440434456,2.5955499671586324,0.9452522017840838,0.1728802376190821,-0.48752024683155326,-0.11147110072896137,-1.9463801863486305,0.1336059019074957,2.595550359778934,0.9452445589611904,-0.0010482287630261477,-0.0006412287937078921,-0.000788079248556063,0.0003053785751335433,1.620716273190829e-05,-8.732591402534525e-05,-0.0019795226443998335,0.0,0.0,0.0,0.0,0.0,0.0,0.0,8.794819516994012e-05,-9.65604107228124e-07,-2.4659881639424452e-05,0.0002514568964639974,-1.6242135949917635e-05,3.9262030160358563e-07,-7.642822893338952e-06,0.0010482287630261477,0.0006412287937078921,0.000788079248556063,-0.0003053785751335433,-1.620716273190829e-05,8.732591402534525e-05,0.0019795226443998335,0.12130087614059448,11.826318740844727,-1.2671844959259033,-21.816438674926758,-0.3198142647743225,-2.5271639823913574,0.24844686686992645,0
51,0.24998211860656738,-0.12130087614059448,-11.826318740844727,1.2671844959259033,21.816438674926758,0.3198142647743225,2.5271639823913574,-0.24844686686992645,0.0,0.0,0.0,0.0,0.0,0.0,0.0,-0.15231096625909232,0.49276826327388695,0.03514438934099771,0.5426339456660562,-0.21512979649554842,0.12786668461935377,-0.30022843905708646,0.17279228942391217,-0.48751928122744603,-0.11144644084732194,-1.9466316432450945,0.1336221440434456,2.5955499671586324,0.9452522017840838,0.1728802376190821,-0.48752024683155326,-0.11147110072896137,-1.9463801863486305,0.1336059019074957,2.595550359778934,0.9452445589611904,-0.0010482287630261477,-0.0006412287937078921,-0.000788079248556063,0.0003053785751335433,1.620716273190829e-05,-8.732591402534525e-05,-0.0019795226443998335,0.0,0.0,0.0,0.0,0.0,0.0,0.0,8.794819516994012e-05,-9.65604107228124e-07,-2.4659881639424452e-05,0.0002514568964639974,-1.6242135949917635e-05,3.9262030160358563e-07,-7.642822893338952e-06,0.0010482287630261477,0.0006412287937078921,0.000788079248556063,-0.0003053785751335433,-1.620716273190829e-05,8.732591402534525e-05,0.0019795226443998335,0.12130087614059448,11.826318740844727,-1.2671844959259033,-21.816438674926758,-0.3198142647743225,-2.5271639823913574,0.24844686686992645,0
52,0.25498437881469727,-0.14510458707809448,-11.850122451782227,1.2156097888946533,21.840242385864258,0.3198142647743225,2.5207552909851074,-0.33084434270858765,0.0,0.0,0.0,0.0,0.0,0.0,0.0,-0.15246924501547238,0.5105361393742237,0.035620342613956,0.534014106295018,-0.21504050670432248,0.12585068252580722,-0.30045877532142323,0.17279395957174898,-0.48751761175456254,-0.11144273700026461,-1.9466333136809497,0.13362214404344558,2.595549892539774,0.9452617056745828,0.1728802376190821,-0.48752024683155326,-0.11147110072896137,-1.9463801863486305,0.1336059019074957,2.595550359778934,0.9452445589611904,-0.00025216943032685716,0.0007485813861857334,0.0004952830474293065,2.4813228828049284e-05,-0.00011248925964968389,0.0002616654003466698,0.0013751782403109104,0.0,0.0,0.0,0.0,0.0,0.0,0.0,8.62780473331326e-05,-2.6350769907201865e-06,-2.8363728696759183e-05,0.0002531273323191918,-1.624213594988988e-05,4.6723915980706465e-07,-1.7146713392368618e-05,0.00025216943032685716,-0.0007485813861857334,-0.0004952830474293065,-2.4813228828049284e-05,0.00011248925964968389,-0.0002616654003466698,-0.0013751782403109104,0.14510458707809448,11.850122451782227,-1.2156097888946533,-21.840242385864258,-0.3198142647743225,-2.5207552909851074,0.33084434270858765,0
53,0.2599775791168213,-0.14510458707809448,-11.850122451782227,1.2156097888946533,21.840242385864258,0.3198142647743225,2.5207552909851074,-0.33084434270858765,0.0,0.0,0.0,0.0,0.0,0.0,0.0,-0.15246924501547238,0.5105361393742237,0.035620342613956,0.534014106295018,-0.21504050670432248,0.12585068252580722,-0.30045877532142323,0.17279395957174898,-0.48751761175456254,-0.11144273700026461,-1.9466333136809497,0.13362214404344558,2.595549892539774,0.9452617056745828,0.1728802376190821,-0.48752024683155326,-0.11147110072896137,-1.9463801863486305,0.1336059019074957,2.595550359778934,0.9452445589611904,-0.00025216943032685716,0.0007485813861857334,0.0004952830474293065,2.4813228828049284e-05,-0.00011248925964968389,0.0002616654003466698,0.0013751782403109104,0.0,0.0,0.0,0.0,0.0,0.0,0.0,8.62780473331326e-05,-2.6350769907201865e-06,-2.8363728696759183e-05,0.0002531273323191918,-1.624213594988988e-05,4.6723915980706465e-07,-1.7146713392368618e-05,0.00025216943032685716,-0.0007485813861857334,-0.0004952830474293065,-2.4813228828049284e-05,0.00011248925964968389,-0.0002616654003466698,-0.0013751782403109104,0.14510458707809448,11.850122451782227,-1.2156097888946533,-21.840242385864258,-0.3198142647743225,-2.5207552909851074,0.33084434270858765,0
54,0.26499462127685547,-0.14510458707809448,-11.826318740844727,1.2156097888946533,21.868013381958008,0.3198142647743225,2.5271639823913574,-0.30978721380233765,0.0,0.0,0.0,0.0,0.0,0.0,0.0,-0.14803836822840888,0.5114630815764621,0.04033468883092691,0.5342549383547854,-0.21528375233964814,0.12580003743189247,-0.30078446809061576,0.17279395989576793,-0.48751928219042323,-0.11144274283215758,-1.946635262522781,0.13362214404344558,2.595550228791249,0.9452604528419977,0.1728802376190821,-0.48752024683155326,-0.11147110072896137,-1.9463801863486305,0.1336059019074957,2.595550359778934,0.9452445589611904,0.0004030142091598214,0.00023358002751669793,0.00012725542619274822,-0.000735438726168831,0.00021596801724955094,0.00027600257291504127,0.0003615049652044331,0.0,0.0,0.0,0.0,0.0,0.0,0.0,8.627772331418204e-05,-9.646411300301416e-07,-2.835789680379064e-05,0.00025507617415043704,-1.624213594988988e-05,1.309876851429692e-07,-1.5893880807249516e-05,-0.0004030142091598214,-0.00023358002751669793,-0.00012725542619274822,0.000735438726168831,-0.00021596801724955094,-0.00027600257291504127,-0.0003615049652044331,0.14510458707809448,11.826318740844727,-1.2156097888946533,-21.868013381958008,-0.3198142647743225,-2.5271639823913574,0.30978721380233765,0
55,0.2700173854827881,-0.14510458707809448,-11.826318740844727,1.2156097888946533,21.868013381958008,0.3198142647743225,2.5271639823913574,-0.30978721380233765,0.0,0.0,0.0,0.0,0.0,0.0,0.0,-0.14803836822840888,0.5114630815764621,0.04033468883092691,0.5342549383547854,-0.21528375233964814,0.12580003743189247,-0.30078446809061576,0.17279395989576793,-0.48751928219042323,-0.11144274283215758,-1.946635262522781,0.13362214404344558,2.595550228791249,0.9452604528419977,0.1728802376190821,-0.48752024683155326,-0.11147110072896137,-1.9463801863486305,0.1336059019074957,2.595550359778934,0.9452445589611904,0.0004030142091598214,0.00023358002751669793,0.00012725542619274822,-0.000735438726168831,0.00021596801724955094,0.00027600257291504127,0.0003615049652044331,0.0,0.0,0.0,0.0,0.0,0.0,0.0,8.627772331418204e-05,-9.646411300301416e-07,-2.835789680379064e-05,0.00025507617415043704,-1.624213594988988e-05,1.309876851429692e-07,-1.5893880807249516e-05,-0.0004030142091598214,-0.00023358002751669793,-0.00012725542619274822,0.000735438726168831,-0.00021596801724955094,-0.00027600257291504127,-0.0003615049652044331,0.14510458707809448,11.826318740844727,-1.2156097888946533,-21.868013381958008,-0.3198142647743225,-2.5271639823913574,0.30978721380233765,0
56,0.2749950885772705,-0.17287558317184448,-11.826318740844727,1.2671844959259033,21.840242385864258,0.3198142647743225,2.5271639823913574,-0.28964561223983765,0.0,0.0,0.0,0.0,0.0,0.0,0.0,-0.14921757519692175,0.5087434144915306,0.03646877805755388,0.5337912022092601,-0.21471062071507485,0.12660944261799587,-0.30195244238484864,0.17279590873760087,-0.48751928219042323,-0.11144635627750654,-1.946633543269211,0.13362214550153814,2.5955455957941806,0.9452567660029397,0.1728802376190821,-0.48752024683155326,-0.11147110072896137,-1.9463801863486305,0.1336059019074957,2.595550359778934,0.9452445589611904,0.0004991364442896375,8.435184319846169e-05,-0.0007335063035778728,-0.000810347213554804,-1.4537506283893711e-05,3.096294060221882e-05,-0.00023387612331559235,0.0,0.0,0.0,0.0,0.0,0.0,0.0,8.432888148124373e-05,-9.646411300301416e-07,-2.4744451454825067e-05,0.0002533569205804831,-1.6243594042453235e-05,4.7639847533531565e-06,-1.220704174931253e-05,-0.0004991364442896375,-8.435184319846169e-05,0.0007335063035778728,0.000810347213554804,1.4537506283893711e-05,-3.096294060221882e-05,0.00023387612331559235,0.17287558317184448,11.826318740844727,-1.2671844959259033,-21.840242385864258,-0.3198142647743225,-2.5271639823913574,0.28964561223983765,0
57,0.28000330924987793,-0.17287558317184448,-11.826318740844727,1.2671844959259033,21.840242385864258,0.3198142647743225,2.5271639823913574,-0.28964561223983765,0.0,0.0,0.0,0.0,0.0,0.0,0.0,-0.14921757519692175,0.5087434144915306,0.03646877805755388,0.5337912022092601,-0.21471062071507485,0.12660944261799587,-0.30195244238484864,0.17279590873760087,-0.48751928219042323,-0.11144635627750654,-1.946633543269211,0.13362214550153814,2.5955455957941806,0.9452567660029397,0.1728802376190821,-0.48752024683155326,-0.11147110072896137,-1.9463801863486305,0.1336059019074957,2.595550359778934,0.9452445589611904,0.0004991364442896375,8.435184319846169e-05,-0.0007335063035778728,-0.000810347213554804,-1.4537506283893711e-05,3.096294060221882e-05,-0.00023387612331559235,0.0,0.0,0.0,0.0,0.0,0.0,0.0,8.432888148124373e-05,-9.646411300301416e-07,-2.4744451454825067e-05,0.0002533569205804831,-1.6243594042453235e-05,4.7639847533531565e-06,-1.220704174931253e-05,-0.0004991364442896375,-8.435184319846169e-05,0.0007335063035778728,0.000810347213554804,1.4537506283893711e-05,-3.096294060221882e-05,0.00023387612331559235,0.17287558317184448,11.826318740844727,-1.2671844959259033,-21.840242385864258,-0.3198142647743225,-2.5271639823913574,0.28964561223983765,0
58,0.28499865531921387,-0.12130087614059448,-11.826318740844727,1.2671844959259033,21.840242385864258,0.3143211007118225,2.5335726737976074,-0.31711143255233765,0.0,0.0,0.0,0.0,0.0,0.0,0.0,-0.14857440522547433,0.5061512175453732,0.04078411505184036,0.5334017731446283,-0.21512089740124263,0.1266548246909388,-0.30251598910234456,0.17279218447724795,-0.48751928219042323,-0.11144666863330856,-1.9466333136822458,0.1336227543950163,2.5955485742552793,0.9452609084065039,0.1728802376190821,-0.48752024683155326,-0.11147110072896137,-1.9463801863486305,0.1336059019074957,2.595550359778934,0.9452445589611904,-0.000493564508739907,0.00033224855406030273,-0.0005714778892570256,-0.0005426533921088861,0.00023211227568297425,-0.0001971778643127882,0.001297937794660071,0.0,0.0,0.0,0.0,0.0,0.0,0.0,8.805314183416013e-05,-9.646411300301416e-07,-2.4432095652809904e-05,0.0002531273336152662,-1.6852487520618853e-05,1.7855236547070774e-06,-1.634944531347937e-05,0.000493564508739907,-0.00033224855406030273,0.0005714778892570256,0.0005426533921088861,-0.00023211227568297425,0.0001971778643127882,-0.001297937794660071,0.12130087614059448,11.826318740844727,-1.2671844959259033,-21.840242385864258,-0.3143211007118225,-2.5335726737976074,0.31711143255233765,0
59,0.2899947166442871,-0.12130087614059448,-11.826318740844727,1.2671844959259033,21.840242385864258,0.3143211007118225,2.5335726737976074,-0.31711143255233765,0.0,0.0,0.0,0.0,0.0,0.0,0.0,-0.14857440522547433,0.5061512175453732,0.04078411505184036,0.5334017731446283,-0.21512089740124263,0.1266548246909388,-0.30251598910234456,0.17279218447724795,-0.48751928219042323,-0.11144666863330856,-1.9466333136822458,0.1336227543950163,2.5955485742552793,0.9452609084065039,0.1728802376190821,-0.48752024683155326,-0.11147110072896137,-1.9463801863486305,0.1336059019074957,2.595550359778934,0.9452445589611904,-0.000493564508739907,0.00033224855406030273,-0.0005714778892570256,-0.0005426533921088861,0.00023211227568297425,-0.0001971778643127882,0.001297937794660071,0.0,0.0,0.0,0.0,0.0,0.0,0.0,8.805314183416013e-05,-9.646411300301416e-07,-2.4432095652809904e-05,0.0002531273336152662,-1.6852487520618853e-05,1.7855236547070774e-06,-1.634944531347937e-05,0.000493564508739907,-0.00033224855406030273,0.0005714778892570256,0.0005426533921088861,-0.00023211227568297425,0.0001971778643127882,-0.001297937794660071,0.12130087614059448,11.826318740844727,-1.2671844959259033,-21.840242385864258,-0.3143211007118225,-2.5335726737976074,0.31711143255233765,0
60,0.29498982429504395,-0.09352988004684448,-11.826318740844727,1.2671844959259033,21.868013381958008,0.3262229561805725,2.5207552909851074,-0.26858848333358765,0.0,0.0,0.0,0.0,0.0,0.0,0.0,-0.1469865179707597,0.5041647847877699,0.04601118217083859,0.5341290703062288,-0.21502183749537657,0.12697947548445257,-0.30305181319244434,0.17279010440649104,-0.4875185801801626,-0.11144637960871832,-1.946635262522781,0.13362143196662268,2.5955496192146494,0.9452549090439646,0.1728802376190821,-0.48752024683155326,-0.11147110072896137,-1.9463801863486305,0.1336059019074957,2.595550359778934,0.9452445589611904,-0.0007167307090061203,0.0006895423819980816,-0.0004918979964911248,-0.0009499797845179028,-0.0001930130754800111,0.00017659682836107342,-0.0007434712461285962,0.0,0.0,0.0,0.0,0.0,0.0,0.0,9.013321259107587e-05,-1.6666513906749003e-06,-2.472112024304307e-05,0.00025507617415043704,-1.5530059126994677e-05,7.405642845625948e-07,-1.0350082774168712e-05,0.0007167307090061203,-0.0006895423819980816,0.0004918979964911248,0.0009499797845179028,0.0001930130754800111,-0.00017659682836107342,0.0007434712461285962,0.09352988004684448,11.826318740844727,-1.2671844959259033,-21.868013381958008,-0.3262229561805725,-2.5207552909851074,0.26858848333358765,0
61,0.3000020980834961,-0.09352988004684448,-11.826318740844727,1.2671844959259033,21.868013381958008,0.3262229561805725,2.5207552909851074,-0.26858848333358765,0.0,0.0,0.0,0.0,0.0,0.0,0.0,-0.1469865179707597,0.5041647847877699,0.04601118217083859,0.5341290703062288,-0.21502183749537657,0.12697947548445257,-0.30305181319244434,0.17279010440649104,-0.4875185801801626,-0.11144637960871832,-1.946635262522781,0.13362143196662268,2.5955496192146494,0.9452549090439646,0.1728802376190821,-0.48752024683155326,-0.11147110072896137,-1.9463801863486305,0.1336059019074957,2.595550359778934,0.9452445589611904,-0.0007167307090061203,0.0006895423819980816,-0.0004918979964911248,-0.0009499797845179028,-0.0001930130754800111,0.00017659682836107342,-0.0007434712461285962,0.0,0.0,0.0,0.0,0.0,0.0,0.0,9.013321259107587e-05,-1.6666513906749003e-06,-2.472112024304307e-05,0.00025507617415043704,-1.5530059126994677e-05,7.405642845625948e-07,-1.0350082774168712e-05,0.0007167307090061203,-0.0006895423819980816,0.0004918979964911248,0.0009499797845179028,0.0001930130754800111,-0.00017659682836107342,0.0007434712461285962,0.09352988004684448,11.826318740844727,-1.2671844959259033,-21.868013381958008,-0.3262229561805725,-2.5207552909851074,0.26858848333358765,0
62,0.30499768257141113,-0.12130087614059448,-11.850122451782227,1.2909882068634033,21.816438674926758,0.3198142647743225,2.5271639823913574,-0.31711143255233765,0.0,0.0,0.0,0.0,0.0,0.0,0.0,-0.14433819161619224,0.5082228099315396,0.045096855492318455,0.5320242008869924,-0.21471111993721173,0.12657523474817803,-0.3024247289065897,0.17279228945858105,-0.4875176117506051,-0.11144802476933713,-1.9466316431320405,0.13362214404344558,2.595548927377719,0.9452609038843808,0.1728802376190821,-0.48752024683155326,-0.11147110072896137,-1.9463801863486305,0.1336059019074957,2.595550359778934,0.9452445589611904,-0.00011014531773384352,0.0010563047557754768,-0.0010989929734940014,4.50705176803981e-06,-0.00013968086200384744,-9.306433259228131e-05,0.0015728535999434293,0.0,0.0,0.0,0.0,0.0,0.0,0.0,8.794816050106125e-05,-2.635080948165669e-06,-2.3075959624238584e-05,0.0002514567834099868,-1.624213594988988e-05,1.4324012149735665e-06,-1.6344923190358962e-05,0.00011014531773384352,-0.0010563047557754768,0.0010989929734940014,-4.50705176803981e-06,0.00013968086200384744,9.306433259228131e-05,-0.0015728535999434293,0.12130087614059448,11.850122451782227,-1.2909882068634033,-21.816438674926758,-0.3198142647743225,-2.5271639823913574,0.31711143255233765,0
63,0.30997800827026367,-0.12130087614059448,-11.850122451782227,1.2909882068634033,21.816438674926758,0.3198142647743225,2.5271639823913574,-0.31711143255233765,0.0,0.0,0.0,0.0,0.0,0.0,0.0,-0.14433819161619224,0.5082228099315396,0.045096855492318455,0.5320242008869924,-0.21471111993721173,0.12657523474817803,-0.3024247289065897,0.17279228945858105,-0.4875176117506051,-0.11144802476933713,-1.9466316431320405,0.13362214404344558,2.595548927377719,0.9452609038843808,0.1728802376190821,-0.48752024683155326,-0.11147110072896137,-1.9463801863486305,0.1336059019074957,2.595550359778934,0.9452445589611904,-0.00011014531773384352,0.0010563047557754768,-0.0010989929734940014,4.50705176803981e-06,-0.00013968086200384744,-9.306433259228131e-05,0.0015728535999434293,0.0,0.0,0.0,0.0,0.0,0.0,0.0,8.794816050106125e-05,-2.635080948165669e-06,-2.3075959624238584e-05,0.0002514567834099868,-1.624213594988988e-05,1.4324012149735665e-06,-1.6344923190358962e-05,0.00011014531773384352,-0.0010563047557754768,0.0010989929734940014,-4.50705176803981e-06,0.00013968086200384744,9.306433259228131e-05,-0.0015728535999434293,0.12130087614059448,11.850122451782227,-1.2909882068634033,-21.816438674926758,-0.3198142647743225,-2.5271639823913574,0.31711143255233765,0
64,0.3150002956390381,-0.12130087614059448,-11.802515029907227,1.2433807849884033,21.816438674926758,0.3198142647743225,2.5335726737976074,-0.26858848333358765,0.0,0.0,0.0,0.0,0.0,0.0,0.0,-0.14360124046886963,0.5015891276265017,0.04352813089754682,0.5360182178536337,-0.215056094493064,0.12718257106307643,-0.3018167780145484,0.17279228945991446,-0.4875209526262785,-0.1114446829254222,-1.9466316432450939,0.13362214404344558,2.5955485859024883,0.9452578187971602,0.1728802376190821,-0.48752024683155326,-0.11147110072896137,-1.9463801863486305,0.1336059019074957,2.595550359778934,0.9452445589611904,-0.00020963114401380576,-0.0008198045979523294,4.315055344060527e-06,0.000338359992668785,-1.0765400656649345e-05,-0.00013424839763799643,-0.000545284925137346,0.0,0.0,0.0,0.0,0.0,0.0,0.0,8.794815916765564e-05,7.057947252198105e-07,-2.6417803539166562e-05,0.00025145689646333125,-1.624213594988988e-05,1.7738764457320144e-06,-1.3259835969781086e-05,0.00020963114401380576,0.0008198045979523294,-4.315055344060527e-06,-0.000338359992668785,1.0765400656649345e-05,0.00013424839763799643,0.000545284925137346,0.12130087614059448,11.802515029907227,-1.2433807849884033,-21.816438674926758,-0.3198142647743225,-2.5335726737976074,0.26858848333358765,0
65,0.3200223445892334,-0.12130087614059448,-11.802515029907227,1.2433807849884033,21.816438674926758,0.3198142647743225,2.5335726737976074,-0.26858848333358765,0.0,0.0,0.0,0.0,0.0,0.0,0.0,-0.14360124046886963,0.5015891276265017,0.04352813089754682,0.5360182178536337,-0.215056094493064,0.12718257106307643,-0.3018167780145484,0.17279228945991446,-0.4875209526262785,-0.1114446829254222,-1.9466316432450939,0.13362214404344558,2.5955485859024883,0.9452578187971602,0.1728802376190821,-0.48752024683155326,-0.11147110072896137,-1.9463801863486305,0.1336059019074957,2.595550359778934,0.9452445589611904,-0.00020963114401380576,-0.0008198045979523294,4.315055344060527e-06,0.000338359992668785,-1.0765400656649345e-05,-0.00013424839763799643,-0.000545284925137346,0.0,0.0,0.0,0.0,0.0,0.0,0.0,8.794815916765564e-05,7.057947252198105e-07,-2.6417803539166562e-05,0.00025145689646333125,-1.624213594988988e-05,1.7738764457320144e-06,-1.3259835969781086e-05,0.00020963114401380576,0.0008198045979523294,-4.315055344060527e-06,-0.000338359992668785,1.0765400656649345e-05,0.00013424839763799643,0.000545284925137346,0.12130087614059448,11.802515029907227,-1.2433807849884033,-21.816438674926758,-0.3198142647743225,-2.5335726737976074,0.26858848333358765,0
66,0.3249812126159668,-0.12130087614059448,-11.802515029907227,1.2433807849884033,21.816438674926758,0.3198142647743225,2.5335726737976074,-0.26858848333358765,0.0,0.0,0.0,0.0,0.0,0.0,0.0,-0.14360124046886963,0.5015891276265017,0.04352813089754682,0.5360182178536337,-0.215056094493064,0.12718257106307643,-0.3018167780145484,0.17279228945991446,-0.4875209526262785,-0.1114446829254222,-1.9466316432450939,0.13362214404344558,2.5955485859024883,0.9452578187971602,0.1728802376190821,-0.48752024683155326,-0.11147110072896137,-1.9463801863486305,0.1336059019074957,2.595550359778934,0.9452445589611904,-0.00020963114401380576,-0.0008198045979523294,4.315055344060527e-06,0.000338359992668785,-1.0765400656649345e-05,-0.00013424839763799643,-0.000545284925137346,0.0,0.0,0.0,0.0,0.0,0.0,0.0,8.794815916765564e-05,7.057947252198105e-07,-2.6417803539166562e-05,0.00025145689646333125,-1.624213594988988e-05,1.7738764457320144e-06,-1.3259835969781086e-05,0.00020963114401380576,0.0008198045979523294,-4.315055344060527e-06,-0.000338359992668785,1.0765400656649345e-05,0.00013424839763799643,0.000545284925137346,0.12130087614059448,11.802515029907227,-1.2433807849884033,-21.816438674926758,-0.3198142647743225,-2.5335726737976074,0.26858848333358765,0
67,0.3299894332885742,-0.12130087614059448,-11.802515029907227,1.2433807849884033,21.816438674926758,0.3198142647743225,2.5335726737976074,-0.26858848333358765,0.0,0.0,0.0,0.0,0.0,0.0,0.0,-0.14360124046886963,0.5015891276265017,0.04352813089754682,0.5360182178536337,-0.215056094493064,0.12718257106307643,-0.3018167780145484,0.17279228945991446,-0.4875209526262785,-0.1114446829254222,-1.9466316432450939,0.13362214404344558,2.5955485859024883,0.9452578187971602,0.1728802376190821,-0.48752024683155326,-0.11147110072896137,-1.9463801863486305,0.1336059019074957,2.595550359778934,0.9452445589611904,-0.00020963114401380576,-0.0008198045979523294,4.315055344060527e-06,0.000338359992668785,-1.0765400656649345e-05,-0.00013424839763799643,-0.000545284925137346,0.0,0.0,0.0,0.0,0.0,0.0,0.0,8.794815916765564e-05,7.057947252198105e-07,-2.6417803539166562e-05,0.00025145689646333125,-1.624213594988988e-05,1.7738764457320144e-06,-1.3259835969781086e-05,0.00020963114401380576,0.0008198045979523294,-4.315055344060527e-06,-0.000338359992668785,1.0765400656649345e-05,0.00013424839763799643,0.000545284925137346,0.12130087614059448,11.802515029907227,-1.2433807849884033,-21.816438674926758,-0.3198142647743225,-2.5335726737976074,0.26858848333358765,0
68,0.3350496292114258,-0.14510458707809448,-11.850122451782227,1.1918060779571533,21.792634963989258,0.3198142647743225,2.5271639823913574,-0.28964561223983765,0.0,0.0,0.0,0.0,0.0,0.0,0.0,-0.1454579864666761,0.5089528438990321,0.03989440499739318,0.5329658791545147,-0.21501551280648534,0.1269663595179813,-0.30096763840343593,0.17279395989576973,-0.4875176117545679,-0.1114410636477303,-1.946629972809239,0.13362214404344558,2.595549952778871,0.9452567660139114,0.1728802376190821,-0.48752024683155326,-0.11147110072896137,-1.9463801863486305,0.1336059019074957,2.595550359778934,0.9452445589611904,-0.00025831464253552527,0.0006146902307968668,0.000400854411586724,0.0009914800046667241,-2.738487867728394e-05,0.00015735853456170284,0.00014631923838004534,0.0,0.0,0.0,0.0,0.0,0.0,0.0,8.627772331237793e-05,-2.635076985335605e-06,-3.0037081231060192e-05,0.0002497864606085809,-1.624213594988988e-05,4.0700006298521885e-07,-1.2207052720980549e-05,0.00025831464253552527,-0.0006146902307968668,-0.000400854411586724,-0.0009914800046667241,2.738487867728394e-05,-0.00015735853456170284,-0.00014631923838004534,0.14510458707809448,11.850122451782227,-1.1918060779571533,-21.792634963989258,-0.3198142647743225,-2.5271639823913574,0.28964561223983765,0
69,0.34000325202941895,-0.14510458707809448,-11.850122451782227,1.1918060779571533,21.792634963989258,0.3198142647743225,2.5271639823913574,-0.28964561223983765,0.0,0.0,0.0,0.0,0.0,0.0,0.0,-0.1454579864666761,0.5089528438990321,0.03989440499739318,0.5329658791545147,-0.21501551280648534,0.1269663595179813,-0.30096763840343593,0.17279395989576973,-0.4875176117545679,-0.1114410636477303,-1.946629972809239,0.13362214404344558,2.595549952778871,0.9452567660139114,0.1728802376190821,-0.48752024683155326,-0.11147110072896137,-1.9463801863486305,0.1336059019074957,2.595550359778934,0.9452445589611904,-0.00025831464253552527,0.0006146902307968668,0.000400854411586724,0.0009914800046667241,-2.738487867728394e-05,0.00015735853456170284,0.00014631923838004534,0.0,0.0,0.0,0.0,0.0,0.0,0.0,8.627772331237793e-05,-2.635076985335605e-06,-3.0037081231060192e-05,0.0002497864606085809,-1.624213594988988e-05,4.0700006298521885e-07,-1.2207052720980549e-05,0.00025831464253552527,-0.0006146902307968668,-0.000400854411586724,-0.0009914800046667241,2.738487867728394e-05,-0.00015735853456170284,-0.00014631923838004534,0.14510458707809448,11.850122451782227,-1.1918060779571533,-21.792634963989258,-0.3198142647743225,-2.5271639823913574,0.28964561223983765,0
70,0.34499049186706543,-0.17287558317184448,-11.826318740844727,1.2156097888946533,21.816438674926758,0.3198142647743225,2.5207552909851074,-0.27591270208358765,0.0,0.0,0.0,0.0,0.0,0.0,0.0,-0.14239768433347863,0.509771867983774,0.04457350591007194,0.5302049849681371,-0.21548766388360116,0.12679443743303354,-0.30083566067049816,0.17279590873760087,-0.48751928219042323,-0.11144273408358557,-1.9466316432450945,0.13362214404344558,2.5955499591876636,0.9452553607968638,0.1728802376190821,-0.48752024683155326,-0.11147110072896137,-1.9463801863486305,0.1336059019074957,2.595550359778934,0.9452445589611904,0.0004035419476041972,-0.00018073236715366404,0.0003287316758416701,-4.875528415470245e-05,-7.036264513176107e-05,0.00014418072583334202,-0.0007833426785943535,0.0,0.0,0.0,0.0,0.0,0.0,0.0,8.432888148124373e-05,-9.646411300301416e-07,-2.8366645375796362e-05,0.0002514568964639974,-1.624213594988988e-05,4.0059127037750386e-07,-1.0801835673368565e-05,-0.0004035419476041972,0.00018073236715366404,-0.0003287316758416701,4.875528415470245e-05,7.036264513176107e-05,-0.00014418072583334202,0.0007833426785943535,0.17287558317184448,11.826318740844727,-1.2156097888946533,-21.816438674926758,-0.3198142647743225,-2.5207552909851074,0.27591270208358765,0
71,0.34998059272766113,-0.17287558317184448,-11.826318740844727,1.2156097888946533,21.816438674926758,0.3198142647743225,2.5207552909851074,-0.27591270208358765,0.0,0.0,0.0,0.0,0.0,0.0,0.0,-0.14239768433347863,0.509771867983774,0.04457350591007194,0.5302049849681371,-0.21548766388360116,0.12679443743303354,-0.30083566067049816,0.17279590873760087,-0.48751928219042323,-0.11144273408358557,-1.9466316432450945,0.13362214404344558,2.5955499591876636,0.9452553607968638,0.1728802376190821,-0.48752024683155326,-0.11147110072896137,-1.9463801863486305,0.1336059019074957,2.595550359778934,0.9452445589611904,0.0004035419476041972,-0.00018073236715366404,0.0003287316758416701,-4.875528415470245e-05,-7.036264513176107e-05,0.00014418072583334202,-0.0007833426785943535,0.0,0.0,0.0,0.0,0.0,0.0,0.0,8.432888148124373e-05,-9.646411300301416e-07,-2.8366645375796362e-05,0.0002514568964639974,-1.624213594988988e-05,4.0059127037750386e-07,-1.0801835673368565e-05,-0.0004035419476041972,0.00018073236715366404,-0.0003287316758416701,4.875528415470245e-05,7.036264513176107e-05,-0.00014418072583334202,0.0007833426785943535,0.17287558317184448,11.826318740844727,-1.2156097888946533,-21.816438674926758,-0.3198142647743225,-2.5207552909851074,0.27591270208358765,0
72,0.3549783229827881,-0.12130087614059448,-11.826318740844727,1.1918060779571533,21.768831253051758,0.3198142647743225,2.5207552909851074,-0.30337852239608765,0.0,0.0,0.0,0.0,0.0,0.0,0.0,-0.1457441269800995,0.507633733615123,0.041913557334710166,0.5306417162914643,-0.21535137939424212,0.12706128694696353,-0.30079352069367793,0.17279226321424784,-0.4875192041892832,-0.1114410636477303,-1.946628302373384,0.13362214420545585,2.595547879207113,0.9452584125553574,0.1728802376190821,-0.48752024683155326,-0.11147110072896137,-1.9463801863486305,0.1336059019074957,2.595550359778934,0.9452445589611904,-0.00036427949310083096,5.031116620527966e-05,0.0010672192992689418,0.0013283582237367155,9.428619144052062e-05,0.00036173101175445874,0.0004495667848063638,0.0,0.0,0.0,0.0,0.0,0.0,0.0,8.797440483426788e-05,-1.0426422700771099e-06,-3.0037081231060192e-05,0.00024811602475338645,-1.6242297960156193e-05,2.4805718208398275e-06,-1.3853594166945982e-05,0.00036427949310083096,-5.031116620527966e-05,-0.0010672192992689418,-0.0013283582237367155,-9.428619144052062e-05,-0.00036173101175445874,-0.0004495667848063638,0.12130087614059448,11.826318740844727,-1.1918060779571533,-21.768831253051758,-0.3198142647743225,-2.5207552909851074,0.30337852239608765,0
73,0.3599834442138672,-0.12130087614059448,-11.826318740844727,1.1918060779571533,21.768831253051758,0.3198142647743225,2.5207552909851074,-0.30337852239608765,0.0,0.0,0.0,0.0,0.0,0.0,0.0,-0.1457441269800995,0.507633733615123,0.041913557334710166,0.5306417162914643,-0.21535137939424212,0.12706128694696353,-0.30079352069367793,0.17279226321424784,-0.4875192041892832,-0.1114410636477303,-1.946628302373384,0.13362214420545585,2.595547879207113,0.9452584125553574,0.1728802376190821,-0.48752024683155326,-0.11147110072896137,-1.9463801863486305,0.1336059019074957,2.595550359778934,0.9452445589611904,-0.00036427949310083096,5.031116620527966e-05,0.0010672192992689418,0.0013283582237367155,9.428619144052062e-05,0.00036173101175445874,0.0004495667848063638,0.0,0.0,0.0,0.0,0.0,0.0,0.0,8.797440483426788e-05,-1.0426422700771099e-06,-3.0037081231060192e-05,0.00024811602475338645,-1.6242297960156193e-05,2.4805718208398275e-06,-1.3853594166945982e-05,0.00036427949310083096,-5.031116620527966e-05,-0.0010672192992689418,-0.0013283582237367155,-9.428619144052062e-05,-0.00036173101175445874,-0.0004495667848063638,0.12130087614059448,11.826318740844727,-1.1918060779571533,-21.768831253051758,-0.3198142647743225,-2.5207552909851074,0.30337852239608765,0
74,0.3650050163269043,-0.14510458707809448,-11.850122451782227,1.2671844959259033,21.868013381958008,0.3262229561805725,2.5335726737976074,-0.26217979192733765,0.0,0.0,0.0,0.0,0.0,0.0,0.0,-0.14360521572347165,0.4936730619553532,0.04196458066940839,0.536354994755596,-0.21489425350655803,0.12778221104739765,-0.30124769418491476,0.1727939598956216,-0.4875176117541276,-0.11144706199427096,-1.946635262522781,0.13362143196662357,2.5955461136189237,0.9452537157826996,0.1728802376190821,-0.48752024683155326,-0.11147110072896137,-1.9463801863486305,0.1336059019074957,2.595550359778934,0.9452445589611904,-0.00022583829652264155,0.00022582791999333583,-0.0005479014893050379,-0.0007734762576385659,-0.00030757827699525104,-0.00039386424946754315,-0.0011915299194238396,0.0,0.0,0.0,0.0,0.0,0.0,0.0,8.627772346050944e-05,-2.6350774256500564e-06,-2.4038734690409735e-05,0.00025507617415043704,-1.5530059127882856e-05,4.2461600102683406e-06,-9.15682150914865e-06,0.00022583829652264155,-0.00022582791999333583,0.0005479014893050379,0.0007734762576385659,0.00030757827699525104,0.00039386424946754315,0.0011915299194238396,0.14510458707809448,11.850122451782227,-1.2671844959259033,-21.868013381958008,-0.3262229561805725,-2.5335726737976074,0.26217979192733765,0
75,0.36998772621154785,-0.14510458707809448,-11.850122451782227,1.2671844959259033,21.868013381958008,0.3262229561805725,2.5335726737976074,-0.26217979192733765,0.0,0.0,0.0,0.0,0.0,0.0,0.0,-0.14360521572347165,0.4936730619553532,0.04196458066940839,0.536354994755596,-0.21489425350655803,0.12778221104739765,-0.30124769418491476,0.1727939598956216,-0.4875176117541276,-0.11144706199427096,-1.946635262522781,0.13362143196662357,2.5955461136189237,0.9452537157826996,0.1728802376190821,-0.48752024683155326,-0.11147110072896137,-1.9463801863486305,0.1336059019074957,2.595550359778934,0.9452445589611904,-0.00022583829652264155,0.00022582791999333583,-0.0005479014893050379,-0.0007734762576385659,-0.00030757827699525104,-0.00039386424946754315,-0.0011915299194238396,0.0,0.0,0.0,0.0,0.0,0.0,0.0,8.627772346050944e-05,-2.6350774256500564e-06,-2.4038734690409735e-05,0.00025507617415043704,-1.5530059127882856e-05,4.2461600102683406e-06,-9.15682150914865e-06,0.00022583829652264155,-0.00022582791999333583,0.0005479014893050379,0.0007734762576385659,0.00030757827699525104,0.00039386424946754315,0.0011915299194238396,0.14510458707809448,11.850122451782227,-1.2671844959259033,-21.868013381958008,-0.3262229561805725,-2.5335726737976074,0.26217979192733765,0
76,0.3749845027923584,-0.17287558317184448,-11.850122451782227,1.2156097888946533,21.840242385864258,0.3262229561805725,2.5271639823913574,-0.26858848333358765,0.0,0.0,0.0,0.0,0.0,0.0,0.0,-0.14802289273426356,0.495074269591987,0.03718754005119946,0.5353795690945797,-0.21453487714216107,0.126903479824142,-0.30144831853009646,0.172795830000601,-0.4875175857185221,-0.11144494163976787,-1.9466333136809497,0.13362143196662268,2.5955470062032253,0.9452544309489901,0.1728802376190821,-0.48752024683155326,-0.11147110072896137,-1.9463801863486305,0.1336059019074957,2.595550359778934,0.9452445589611904,0.000871094160996966,0.00010552610264067948,0.0007767564709995644,-0.00017561454571272362,-0.00044809450841900157,-7.972577942767372e-05,-0.0010717376485744115,0.0,0.0,0.0,0.0,0.0,0.0,0.0,8.440761848110823e-05,-2.6611130311549047e-06,-2.615908919349763e-05,0.0002531273323191918,-1.5530059126994677e-05,3.3535757086866624e-06,-9.871987799670023e-06,-0.000871094160996966,-0.00010552610264067948,-0.0007767564709995644,0.00017561454571272362,0.00044809450841900157,7.972577942767372e-05,0.0010717376485744115,0.17287558317184448,11.850122451782227,-1.2156097888946533,-21.840242385864258,-0.3262229561805725,-2.5271639823913574,0.26858848333358765,0
77,0.38002443313598633,-0.17287558317184448,-11.850122451782227,1.2156097888946533,21.840242385864258,0.3262229561805725,2.5271639823913574,-0.26858848333358765,0.0,0.0,0.0,0.0,0.0,0.0,0.0,-0.14802289273426356,0.495074269591987,0.03718754005119946,0.5353795690945797,-0.21453487714216107,0.126903479824142,-0.30144831853009646,0.172795830000601,-0.4875175857185221,-0.11144494163976787,-1.9466333136809497,0.13362143196662268,2.5955470062032253,0.9452544309489901,0.1728802376190821,-0.48752024683155326,-0.11147110072896137,-1.9463801863486305,0.1336059019074957,2.595550359778934,0.9452445589611904,0.000871094160996966,0.00010552610264067948,0.0007767564709995644,-0.00017561454571272362,-0.00044809450841900157,-7.972577942767372e-05,-0.0010717376485744115,0.0,0.0,0.0,0.0,0.0,0.0,0.0,8.440761848110823e-05,-2.6611130311549047e-06,-2.615908919349763e-05,0.0002531273323191918,-1.5530059126994677e-05,3.3535757086866624e-06,-9.871987799670023e-06,-0.000871094160996966,-0.00010552610264067948,-0.0007767564709995644,0.00017561454571272362,0.00044809450841900157,7.972577942767372e-05,0.0010717376485744115,0.17287558317184448,11.850122451782227,-1.2156097888946533,-21.840242385864258,-0.3262229561805725,-2.5271639823913574,0.26858848333358765,0
78,0.38500404357910156,-0.09352988004684448,-11.802515029907227,1.2156097888946533,21.868013381958008,0.3143211007118225,2.5207552909851074,-0.30337852239608765,0.0,0.0,0.0,0.0,0.0,0.0,0.0,-0.14630410381945957,0.5008133879057867,0.04130165997601519,0.533125505648391,-0.21490538928402073,0.1263988364681782,-0.30046658224964756,0.17279033154506274,-0.4875209266257515,-0.11144273712023933,-1.946635262522781,0.1336227543950081,2.595547773515977,0.9452615519163731,0.1728802376190821,-0.48752024683155326,-0.11147110072896137,-1.9463801863486305,0.1336059019074957,2.595550359778934,0.9452445589611904,-0.001131290509358912,-0.0006334149405449313,0.00036586755563855776,-0.0009622854931585655,0.00021315674277217256,0.0003372029315597407,0.000305230375115375,0.0,0.0,0.0,0.0,0.0,0.0,0.0,8.990607401937467e-05,6.797941982661371e-07,-2.8363608722034583e-05,0.00025507617415043704,-1.6852487512403203e-05,2.586262957127161e-06,-1.699295518264865e-05,0.001131290509358912,0.0006334149405449313,-0.00036586755563855776,0.0009622854931585655,-0.00021315674277217256,-0.0003372029315597407,-0.000305230375115375,0.09352988004684448,11.802515029907227,-1.2156097888946533,-21.868013381958008,-0.3143211007118225,-2.5207552909851074,0.30337852239608765,0
79,0.3899872303009033,-0.09352988004684448,-11.802515029907227,1.2156097888946533,21.868013381958008,0.3143211007118225,2.5207552909851074,-0.30337852239608765,0.0,0.0,0.0,0.0,0.0,0.0,0.0,-0.14630410381945957,0.5008133879057867,0.04130165997601519,0.533125505648391,-0.21490538928402073,0.1263988364681782,-0.30046658224964756,0.17279033154506274,-0.4875209266257515,-0.11144273712023933,-1.946635262522781,0.1336227543950081,2.595547773515977,0.9452615519163731,0.1728802376190821,-0.48752024683155326,-0.11147110072896137,-1.9463801863486305,0.1336059019074957,2.595550359778934,0.9452445589611904,-0.001131290509358912,-0.0006334149405449313,0.00036586755563855776,-0.0009622854931585655,0.00021315674277217256,0.0003372029315597407,0.000305230375115375,0.0,0.0,0.0,0.0,0.0,0.0,0.0,8.990607401937467e-05,6.797941982661371e-07,-2.8363608722034583e-05,0.00025507617415043704,-1.6852487512403203e-05,2.586262957127161e-06,-1.699295518264865e-05,0.001131290509358912,0.0006334149405449313,-0.00036586755563855776,0.0009622854931585655,-0.00021315674277217256,-0.0003372029315597407,-0.000305230375115375,0.09352988004684448,11.802515029907227,-1.2156097888946533,-21.868013381958008,-0.3143211007118225,-2.5207552909851074,0.30337852239608765,0
