rezayati/contactInterpretation/dataset/franka_main/labeled_data/link6/b1_8.csv
index,time,tau_J0,tau_J1,tau_J2,tau_J3,tau_J4,tau_J5,tau_J6,tau_J_d0,tau_J_d1,tau_J_d2,tau_J_d3,tau_J_d4,tau_J_d5,tau_J_d6,tau_ext0,tau_ext1,tau_ext2,tau_ext3,tau_ext4,tau_ext5,tau_ext6,q0,q1,q2,q3,q4,q5,q6,q_d0,q_d1,q_d2,q_d3,q_d4,q_d5,q_d6,dq0,dq1,dq2,dq3,dq4,dq5,dq6,dq_d0,dq_d1,dq_d2,dq_d3,dq_d4,dq_d5,dq_d6,e0,e1,e2,e3,e4,e5,e6,de0,de1,de2,de3,de4,de5,de6,etau_J0,etau_J1,etau_J2,etau_J3,etau_J4,etau_J5,etau_J6,label
1,0.0,-0.2998287081718445,-22.819665908813477,0.04922797530889511,14.108003616333008,0.09367901086807251,2.1261630058288574,-0.43979209661483765,0.0,0.0,0.0,0.0,0.0,0.0,0.0,-0.2806288423157405,-0.020483919225930795,-0.04750604276005979,0.2653976454530614,-0.14639390888401516,-0.06315569157652547,-0.4278158631520675,1.6755148681836751,0.05230264434374931,0.029916276123612463,-2.7524853966696217,0.034447825107465004,2.766350778632694,0.7692012090616751,1.6754973547542302,0.052104326824870026,0.029969505109285054,-2.752394845125968,0.0342448039870148,2.7663679543071322,0.7691630533470046,0.0006453616536426785,0.00035175437202054525,-0.0004901249715280404,0.0004600990133088451,-0.0003701634230428519,-0.00010518711699827142,0.0009951538571278807,0.0,0.0,0.0,0.0,0.0,0.0,0.0,-1.751342944489309e-05,-0.00019831751887928323,5.322898567259107e-05,9.055154365356088e-05,-0.00020302112045020304,1.71756744382634e-05,-3.815571467047363e-05,-0.0006453616536426785,-0.00035175437202054525,0.0004901249715280404,-0.0004600990133088451,0.0003701634230428519,0.00010518711699827142,-0.0009951538571278807,0.2998287081718445,22.819665908813477,-0.04922797530889511,-14.108003616333008,-0.09367901086807251,-2.1261630058288574,0.43979209661483765,0
2,0.004201173782348633,-0.2998287081718445,-22.819665908813477,0.04922797530889511,14.108003616333008,0.09367901086807251,2.1261630058288574,-0.43979209661483765,0.0,0.0,0.0,0.0,0.0,0.0,0.0,-0.2806288423157405,-0.020483919225930795,-0.04750604276005979,0.2653976454530614,-0.14639390888401516,-0.06315569157652547,-0.4278158631520675,1.6755148681836751,0.05230264434374931,0.029916276123612463,-2.7524853966696217,0.034447825107465004,2.766350778632694,0.7692012090616751,1.6754973547542302,0.052104326824870026,0.029969505109285054,-2.752394845125968,0.0342448039870148,2.7663679543071322,0.7691630533470046,0.0006453616536426785,0.00035175437202054525,-0.0004901249715280404,0.0004600990133088451,-0.0003701634230428519,-0.00010518711699827142,0.0009951538571278807,0.0,0.0,0.0,0.0,0.0,0.0,0.0,-1.751342944489309e-05,-0.00019831751887928323,5.322898567259107e-05,9.055154365356088e-05,-0.00020302112045020304,1.71756744382634e-05,-3.815571467047363e-05,-0.0006453616536426785,-0.00035175437202054525,0.0004901249715280404,-0.0004600990133088451,0.0003701634230428519,0.00010518711699827142,-0.0009951538571278807,0.2998287081718445,22.819665908813477,-0.04922797530889511,-14.108003616333008,-0.09367901086807251,-2.1261630058288574,0.43979209661483765,0
3,0.009199380874633789,-0.24825400114059448,-22.795862197875977,0.02542426437139511,14.108003616333008,0.08818584680557251,2.1197543144226074,-0.39950889348983765,0.0,0.0,0.0,0.0,0.0,0.0,0.0,-0.27955862316090785,-0.019708341573728562,-0.04870407933516515,0.26345527840706695,-0.1467596617190684,-0.06323649419909028,-0.42747040522486746,1.6755112577362565,0.05230097391992278,0.02991802542642504,-2.7524853966696217,0.03444724957823492,2.766351490709517,0.7691967331502172,1.6754973547542302,0.052104326824870026,0.029969505109285054,-2.752394845125968,0.0342448039870148,2.7663679543071322,0.7691630533470046,-0.000965359191955939,-0.0006818750668400244,0.00039325539193561543,0.00036667947418076227,-1.9985772043374115e-06,0.00017998371865075359,-0.0013226970770395846,0.0,0.0,0.0,0.0,0.0,0.0,0.0,-1.390298202630369e-05,-0.00019664709505275157,5.147968286001517e-05,9.055154365356088e-05,-0.00020244559122011702,1.646359761542371e-05,-3.36798032125607e-05,0.000965359191955939,0.0006818750668400244,-0.00039325539193561543,-0.00036667947418076227,1.9985772043374115e-06,-0.00017998371865075359,0.0013226970770395846,0.24825400114059448,22.795862197875977,-0.02542426437139511,-14.108003616333008,-0.08818584680557251,-2.1197543144226074,0.39950889348983765,0
4,0.014200925827026367,-0.24825400114059448,-22.795862197875977,0.02542426437139511,14.108003616333008,0.08818584680557251,2.1197543144226074,-0.39950889348983765,0.0,0.0,0.0,0.0,0.0,0.0,0.0,-0.27955862316090785,-0.019708341573728562,-0.04870407933516515,0.26345527840706695,-0.1467596617190684,-0.06323649419909028,-0.42747040522486746,1.6755112577362565,0.05230097391992278,0.02991802542642504,-2.7524853966696217,0.03444724957823492,2.766351490709517,0.7691967331502172,1.6754973547542302,0.052104326824870026,0.029969505109285054,-2.752394845125968,0.0342448039870148,2.7663679543071322,0.7691630533470046,-0.000965359191955939,-0.0006818750668400244,0.00039325539193561543,0.00036667947418076227,-1.9985772043374115e-06,0.00017998371865075359,-0.0013226970770395846,0.0,0.0,0.0,0.0,0.0,0.0,0.0,-1.390298202630369e-05,-0.00019664709505275157,5.147968286001517e-05,9.055154365356088e-05,-0.00020244559122011702,1.646359761542371e-05,-3.36798032125607e-05,0.000965359191955939,0.0006818750668400244,-0.00039325539193561543,-0.00036667947418076227,1.9985772043374115e-06,-0.00017998371865075359,0.0013226970770395846,0.24825400114059448,22.795862197875977,-0.02542426437139511,-14.108003616333008,-0.08818584680557251,-2.1197543144226074,0.39950889348983765,0
5,0.01920318603515625,-0.24825400114059448,-22.795862197875977,0.02542426437139511,14.108003616333008,0.08818584680557251,2.1197543144226074,-0.39950889348983765,0.0,0.0,0.0,0.0,0.0,0.0,0.0,-0.27955862316090785,-0.019708341573728562,-0.04870407933516515,0.26345527840706695,-0.1467596617190684,-0.06323649419909028,-0.42747040522486746,1.6755112577362565,0.05230097391992278,0.02991802542642504,-2.7524853966696217,0.03444724957823492,2.766351490709517,0.7691967331502172,1.6754973547542302,0.052104326824870026,0.029969505109285054,-2.752394845125968,0.0342448039870148,2.7663679543071322,0.7691630533470046,-0.000965359191955939,-0.0006818750668400244,0.00039325539193561543,0.00036667947418076227,-1.9985772043374115e-06,0.00017998371865075359,-0.0013226970770395846,0.0,0.0,0.0,0.0,0.0,0.0,0.0,-1.390298202630369e-05,-0.00019664709505275157,5.147968286001517e-05,9.055154365356088e-05,-0.00020244559122011702,1.646359761542371e-05,-3.36798032125607e-05,0.000965359191955939,0.0006818750668400244,-0.00039325539193561543,-0.00036667947418076227,1.9985772043374115e-06,-0.00017998371865075359,0.0013226970770395846,0.24825400114059448,22.795862197875977,-0.02542426437139511,-14.108003616333008,-0.08818584680557251,-2.1197543144226074,0.39950889348983765,0
6,0.024203777313232422,-0.24825400114059448,-22.795862197875977,0.02542426437139511,14.108003616333008,0.08818584680557251,2.1197543144226074,-0.39950889348983765,0.0,0.0,0.0,0.0,0.0,0.0,0.0,-0.27955862316090785,-0.019708341573728562,-0.04870407933516515,0.26345527840706695,-0.1467596617190684,-0.06323649419909028,-0.42747040522486746,1.6755112577362565,0.05230097391992278,0.02991802542642504,-2.7524853966696217,0.03444724957823492,2.766351490709517,0.7691967331502172,1.6754973547542302,0.052104326824870026,0.029969505109285054,-2.752394845125968,0.0342448039870148,2.7663679543071322,0.7691630533470046,-0.000965359191955939,-0.0006818750668400244,0.00039325539193561543,0.00036667947418076227,-1.9985772043374115e-06,0.00017998371865075359,-0.0013226970770395846,0.0,0.0,0.0,0.0,0.0,0.0,0.0,-1.390298202630369e-05,-0.00019664709505275157,5.147968286001517e-05,9.055154365356088e-05,-0.00020244559122011702,1.646359761542371e-05,-3.36798032125607e-05,0.000965359191955939,0.0006818750668400244,-0.00039325539193561543,-0.00036667947418076227,1.9985772043374115e-06,-0.00017998371865075359,0.0013226970770395846,0.24825400114059448,22.795862197875977,-0.02542426437139511,-14.108003616333008,-0.08818584680557251,-2.1197543144226074,0.39950889348983765,0
7,0.029202938079833984,-0.2720577120780945,-22.795862197875977,-0.04995415359735489,14.131807327270508,0.07628399133682251,2.1197543144226074,-0.41965049505233765,0.0,0.0,0.0,0.0,0.0,0.0,0.0,-0.2812645779509067,-0.015457293855894118,-0.05075197596784162,0.260263872322417,-0.1464369347906055,-0.06380727013385319,-0.4277982822479903,1.6755129281721615,0.05230097391992284,0.02992263155730735,-2.752487067105477,0.03444857053956224,2.766351490709517,0.7691989711059464,1.6754973547542302,0.052104326824870026,0.029969505109285054,-2.752394845125968,0.0342448039870148,2.7663679543071322,0.7691630533470046,-0.00036940272317582794,-8.218260005790974e-05,0.0020377554262885813,5.288680102076149e-05,0.0006672771917227765,3.7775682587324333e-05,-0.0006560729514510784,0.0,0.0,0.0,0.0,0.0,0.0,0.0,-1.5573417931236122e-05,-0.00019664709505281402,4.687355197770249e-05,9.222197950897737e-05,-0.00020376655254743942,1.646359761542371e-05,-3.591775894173921e-05,0.00036940272317582794,8.218260005790974e-05,-0.0020377554262885813,-5.288680102076149e-05,-0.0006672771917227765,-3.7775682587324333e-05,0.0006560729514510784,0.2720577120780945,22.795862197875977,0.04995415359735489,-14.131807327270508,-0.07628399133682251,-2.1197543144226074,0.41965049505233765,0
8,0.03420376777648926,-0.2720577120780945,-22.795862197875977,-0.04995415359735489,14.131807327270508,0.07628399133682251,2.1197543144226074,-0.41965049505233765,0.0,0.0,0.0,0.0,0.0,0.0,0.0,-0.2812645779509067,-0.015457293855894118,-0.05075197596784162,0.260263872322417,-0.1464369347906055,-0.06380727013385319,-0.4277982822479903,1.6755129281721615,0.05230097391992284,0.02992263155730735,-2.752487067105477,0.03444857053956224,2.766351490709517,0.7691989711059464,1.6754973547542302,0.052104326824870026,0.029969505109285054,-2.752394845125968,0.0342448039870148,2.7663679543071322,0.7691630533470046,-0.00036940272317582794,-8.218260005790974e-05,0.0020377554262885813,5.288680102076149e-05,0.0006672771917227765,3.7775682587324333e-05,-0.0006560729514510784,0.0,0.0,0.0,0.0,0.0,0.0,0.0,-1.5573417931236122e-05,-0.00019664709505281402,4.687355197770249e-05,9.222197950897737e-05,-0.00020376655254743942,1.646359761542371e-05,-3.591775894173921e-05,0.00036940272317582794,8.218260005790974e-05,-0.0020377554262885813,-5.288680102076149e-05,-0.0006672771917227765,-3.7775682587324333e-05,0.0006560729514510784,0.2720577120780945,22.795862197875977,0.04995415359735489,-14.131807327270508,-0.07628399133682251,-2.1197543144226074,0.41965049505233765,0
9,0.03920388221740723,-0.2998287081718445,-22.819665908813477,0.001620553433895111,14.108003616333008,0.09367901086807251,2.1133456230163574,-0.43979209661483765,0.0,0.0,0.0,0.0,0.0,0.0,0.0,-0.28157078855644346,-0.019052776130046026,-0.052296559730245565,0.2594516701741257,-0.14662342463623526,-0.06361198221008799,-0.4270087561255048,1.6755148770139927,0.052302644355778104,0.029921124408342853,-2.7524853966696217,0.03444663792186868,2.7663522027863396,0.7692012090616754,1.6754973547542302,0.052104326824870026,0.029969505109285054,-2.752394845125968,0.0342448039870148,2.7663679543071322,0.7691630533470046,2.6004820528906183e-05,0.00014287733533990753,0.0009608980973186927,0.0002929277203096674,-0.00020076417949851022,0.000286771624271152,0.0006993834929633597,0.0,0.0,0.0,0.0,0.0,0.0,0.0,-1.752225976248134e-05,-0.00019831753090807785,4.838070094220076e-05,9.055154365356088e-05,-0.0002018339348538803,1.5751520792584017e-05,-3.8155714670806695e-05,-2.6004820528906183e-05,-0.00014287733533990753,-0.0009608980973186927,-0.0002929277203096674,0.00020076417949851022,-0.000286771624271152,-0.0006993834929633597,0.2998287081718445,22.819665908813477,-0.001620553433895111,-14.108003616333008,-0.09367901086807251,-2.1133456230163574,0.43979209661483765,0
10,0.04461550712585449,-0.2998287081718445,-22.819665908813477,0.001620553433895111,14.108003616333008,0.09367901086807251,2.1133456230163574,-0.43979209661483765,0.0,0.0,0.0,0.0,0.0,0.0,0.0,-0.28157078855644346,-0.019052776130046026,-0.052296559730245565,0.2594516701741257,-0.14662342463623526,-0.06361198221008799,-0.4270087561255048,1.6755148770139927,0.052302644355778104,0.029921124408342853,-2.7524853966696217,0.03444663792186868,2.7663522027863396,0.7692012090616754,1.6754973547542302,0.052104326824870026,0.029969505109285054,-2.752394845125968,0.0342448039870148,2.7663679543071322,0.7691630533470046,2.6004820528906183e-05,0.00014287733533990753,0.0009608980973186927,0.0002929277203096674,-0.00020076417949851022,0.000286771624271152,0.0006993834929633597,0.0,0.0,0.0,0.0,0.0,0.0,0.0,-1.752225976248134e-05,-0.00019831753090807785,4.838070094220076e-05,9.055154365356088e-05,-0.0002018339348538803,1.5751520792584017e-05,-3.8155714670806695e-05,-2.6004820528906183e-05,-0.00014287733533990753,-0.0009608980973186927,-0.0002929277203096674,0.00020076417949851022,-0.000286771624271152,-0.0006993834929633597,0.2998287081718445,22.819665908813477,-0.001620553433895111,-14.108003616333008,-0.09367901086807251,-2.1133456230163574,0.43979209661483765,0
11,0.04973149299621582,-0.2720577120780945,-22.847436904907227,0.04922797530889511,14.108003616333008,0.08177715539932251,2.1197543144226074,-0.44711631536483765,0.0,0.0,0.0,0.0,0.0,0.0,0.0,-0.28891296061346916,-0.016481838024708397,-0.05731958787218594,0.25606377219904886,-0.14608897466814647,-0.06372777666326863,-0.425657359812166,1.6755129281721615,0.052302462331558525,0.02991559286558937,-2.7524853966696217,0.034448315056386736,2.766351490709517,0.7692020228637588,1.6754973547542302,0.052104326824870026,0.029969505109285054,-2.752394845125968,0.0342448039870148,2.7663679543071322,0.7691630533470046,-0.000934859101038632,0.000868100766942477,-0.0006677227809741672,0.00010941363233796311,-7.637414786829837e-05,-8.199058437021334e-05,0.000962044080962453,0.0,0.0,0.0,0.0,0.0,0.0,0.0,-1.5573417931236122e-05,-0.00019813550668849877,5.391224369568487e-05,9.055154365356088e-05,-0.00020351106937193525,1.646359761542371e-05,-3.89695167541948e-05,0.000934859101038632,-0.000868100766942477,0.0006677227809741672,-0.00010941363233796311,7.637414786829837e-05,8.199058437021334e-05,-0.000962044080962453,0.2720577120780945,22.847436904907227,-0.04922797530889511,-14.108003616333008,-0.08177715539932251,-2.1197543144226074,0.44711631536483765,0
12,0.054205894470214844,-0.2720577120780945,-22.847436904907227,0.04922797530889511,14.108003616333008,0.08177715539932251,2.1197543144226074,-0.44711631536483765,0.0,0.0,0.0,0.0,0.0,0.0,0.0,-0.28891296061346916,-0.016481838024708397,-0.05731958787218594,0.25606377219904886,-0.14608897466814647,-0.06372777666326863,-0.425657359812166,1.6755129281721615,0.052302462331558525,0.02991559286558937,-2.7524853966696217,0.034448315056386736,2.766351490709517,0.7692020228637588,1.6754973547542302,0.052104326824870026,0.029969505109285054,-2.752394845125968,0.0342448039870148,2.7663679543071322,0.7691630533470046,-0.000934859101038632,0.000868100766942477,-0.0006677227809741672,0.00010941363233796311,-7.637414786829837e-05,-8.199058437021334e-05,0.000962044080962453,0.0,0.0,0.0,0.0,0.0,0.0,0.0,-1.5573417931236122e-05,-0.00019813550668849877,5.391224369568487e-05,9.055154365356088e-05,-0.00020351106937193525,1.646359761542371e-05,-3.89695167541948e-05,0.000934859101038632,-0.000868100766942477,0.0006677227809741672,-0.00010941363233796311,7.637414786829837e-05,8.199058437021334e-05,-0.000962044080962453,0.2720577120780945,22.847436904907227,-0.04922797530889511,-14.108003616333008,-0.08177715539932251,-2.1197543144226074,0.44711631536483765,0
13,0.05921030044555664,-0.2720577120780945,-22.795862197875977,0.001620553433895111,14.131807327270508,0.08177715539932251,2.1325716972351074,-0.44711631536483765,0.0,0.0,0.0,0.0,0.0,0.0,0.0,-0.2865455223783757,-0.02139568705101817,-0.05496741196324841,0.25843076072923865,-0.1471041844824258,-0.06323324074026726,-0.42427800133620563,1.6755129281721615,0.05230026362722967,0.029918910041904154,-2.752487067105477,0.0344479996184808,2.766350066555871,0.7692020228637588,1.6754973547542302,0.052104326824870026,0.029969505109285054,-2.752394845125968,0.0342448039870148,2.7663679543071322,0.7691630533470046,-0.00027608415990994846,-0.000733553217294777,0.0006981961998454962,2.0878171574085677e-05,-4.253243149047789e-05,-0.0004434709545578617,0.0014807586032101231,0.0,0.0,0.0,0.0,0.0,0.0,0.0,-1.5573417931236122e-05,-0.00019593680235964472,5.059506738089997e-05,9.222197950897737e-05,-0.00020319563146600078,1.788775126110309e-05,-3.89695167541948e-05,0.00027608415990994846,0.000733553217294777,-0.0006981961998454962,-2.0878171574085677e-05,4.253243149047789e-05,0.0004434709545578617,-0.0014807586032101231,0.2720577120780945,22.795862197875977,-0.001620553433895111,-14.131807327270508,-0.08177715539932251,-2.1325716972351074,0.44711631536483765,0
14,0.06420564651489258,-0.2720577120780945,-22.795862197875977,0.001620553433895111,14.131807327270508,0.08177715539932251,2.1325716972351074,-0.44711631536483765,0.0,0.0,0.0,0.0,0.0,0.0,0.0,-0.2865455223783757,-0.02139568705101817,-0.05496741196324841,0.25843076072923865,-0.1471041844824258,-0.06323324074026726,-0.42427800133620563,1.6755129281721615,0.05230026362722967,0.029918910041904154,-2.752487067105477,0.0344479996184808,2.766350066555871,0.7692020228637588,1.6754973547542302,0.052104326824870026,0.029969505109285054,-2.752394845125968,0.0342448039870148,2.7663679543071322,0.7691630533470046,-0.00027608415990994846,-0.000733553217294777,0.0006981961998454962,2.0878171574085677e-05,-4.253243149047789e-05,-0.0004434709545578617,0.0014807586032101231,0.0,0.0,0.0,0.0,0.0,0.0,0.0,-1.5573417931236122e-05,-0.00019593680235964472,5.059506738089997e-05,9.222197950897737e-05,-0.00020319563146600078,1.788775126110309e-05,-3.89695167541948e-05,0.00027608415990994846,0.000733553217294777,-0.0006981961998454962,-2.0878171574085677e-05,4.253243149047789e-05,0.0004434709545578617,-0.0014807586032101231,0.2720577120780945,22.795862197875977,-0.001620553433895111,-14.131807327270508,-0.08177715539932251,-2.1325716972351074,0.44711631536483765,0
15,0.06921124458312988,-0.24825400114059448,-22.819665908813477,0.04922797530889511,14.080232620239258,0.09367901086807251,2.1261630058288574,-0.40591758489608765,0.0,0.0,0.0,0.0,0.0,0.0,0.0,-0.28602738724828736,-0.01746842193086592,-0.05480079768920404,0.2555570223500915,-0.14741682686430363,-0.06411538718759675,-0.42325328176098503,1.6755091119690944,0.052302644351768485,0.029915566236842966,-2.7524836597554168,0.0344498316294654,2.766350778632694,0.76919744522704,1.6754973547542302,0.052104326824870026,0.029969505109285054,-2.752394845125968,0.0342448039870148,2.7663679543071322,0.7691630533470046,-0.0007494974846109194,0.0003301101529572305,-0.0004962546079231141,0.001303821048149846,-0.0004472486052391329,-0.0003104147350043156,-0.0005853337830490041,0.0,0.0,0.0,0.0,0.0,0.0,0.0,-1.1757214864127619e-05,-0.00019831752689845883,5.393887244208723e-05,8.881462944865248e-05,-0.00020502764245059618,1.71756744382634e-05,-3.439188003540039e-05,0.0007494974846109194,-0.0003301101529572305,0.0004962546079231141,-0.001303821048149846,0.0004472486052391329,0.0003104147350043156,0.0005853337830490041,0.24825400114059448,22.819665908813477,-0.04922797530889511,-14.080232620239258,-0.09367901086807251,-2.1261630058288574,0.40591758489608765,0
16,0.07420659065246582,-0.24825400114059448,-22.819665908813477,0.04922797530889511,14.080232620239258,0.09367901086807251,2.1261630058288574,-0.40591758489608765,0.0,0.0,0.0,0.0,0.0,0.0,0.0,-0.28602738724828736,-0.01746842193086592,-0.05480079768920404,0.2555570223500915,-0.14741682686430363,-0.06411538718759675,-0.42325328176098503,1.6755091119690944,0.052302644351768485,0.029915566236842966,-2.7524836597554168,0.0344498316294654,2.766350778632694,0.76919744522704,1.6754973547542302,0.052104326824870026,0.029969505109285054,-2.752394845125968,0.0342448039870148,2.7663679543071322,0.7691630533470046,-0.0007494974846109194,0.0003301101529572305,-0.0004962546079231141,0.001303821048149846,-0.0004472486052391329,-0.0003104147350043156,-0.0005853337830490041,0.0,0.0,0.0,0.0,0.0,0.0,0.0,-1.1757214864127619e-05,-0.00019831752689845883,5.393887244208723e-05,8.881462944865248e-05,-0.00020502764245059618,1.71756744382634e-05,-3.439188003540039e-05,0.0007494974846109194,-0.0003301101529572305,0.0004962546079231141,-0.001303821048149846,0.0004472486052391329,0.0003104147350043156,0.0005853337830490041,0.24825400114059448,22.819665908813477,-0.04922797530889511,-14.080232620239258,-0.09367901086807251,-2.1261630058288574,0.40591758489608765,0
17,0.07920622825622559,-0.24825400114059448,-22.847436904907227,0.07303168624639511,14.155611038208008,0.08177715539932251,2.1133456230163574,-0.39218467473983765,0.0,0.0,0.0,0.0,0.0,0.0,0.0,-0.28647667920536135,-0.020433900602400017,-0.054963567544759305,0.25582353573848055,-0.14737760730284188,-0.06413015606051355,-0.4229319458747797,1.6755112488938757,0.052304593197609224,0.02991389580097115,-2.7524887375425284,0.03444832827177672,2.7663522027863396,0.7691955661354241,1.6754973547542302,0.052104326824870026,0.029969505109285054,-2.752394845125968,0.0342448039870148,2.7663679543071322,0.7691630533470046,-0.001309566607319376,0.0006401911121242444,-0.0006328189822457157,-0.000799174435826805,0.00023265227852175413,0.0003199042439362549,-0.001461975712653645,0.0,0.0,0.0,0.0,0.0,0.0,0.0,-1.3894139645476145e-05,-0.00020026637273919817,5.560930831390379e-05,9.38924165603261e-05,-0.00020352428476191897,1.5751520792584017e-05,-3.25127884194254e-05,0.001309566607319376,-0.0006401911121242444,0.0006328189822457157,0.000799174435826805,-0.00023265227852175413,-0.0003199042439362549,0.001461975712653645,0.24825400114059448,22.847436904907227,-0.07303168624639511,-14.155611038208008,-0.08177715539932251,-2.1133456230163574,0.39218467473983765,0
18,0.08420586585998535,-0.24825400114059448,-22.847436904907227,0.07303168624639511,14.155611038208008,0.08177715539932251,2.1133456230163574,-0.39218467473983765,0.0,0.0,0.0,0.0,0.0,0.0,0.0,-0.28647667920536135,-0.020433900602400017,-0.054963567544759305,0.25582353573848055,-0.14737760730284188,-0.06413015606051355,-0.4229319458747797,1.6755112488938757,0.052304593197609224,0.02991389580097115,-2.7524887375425284,0.03444832827177672,2.7663522027863396,0.7691955661354241,1.6754973547542302,0.052104326824870026,0.029969505109285054,-2.752394845125968,0.0342448039870148,2.7663679543071322,0.7691630533470046,-0.001309566607319376,0.0006401911121242444,-0.0006328189822457157,-0.000799174435826805,0.00023265227852175413,0.0003199042439362549,-0.001461975712653645,0.0,0.0,0.0,0.0,0.0,0.0,0.0,-1.3894139645476145e-05,-0.00020026637273919817,5.560930831390379e-05,9.38924165603261e-05,-0.00020352428476191897,1.5751520792584017e-05,-3.25127884194254e-05,0.001309566607319376,-0.0006401911121242444,0.0006328189822457157,0.000799174435826805,-0.00023265227852175413,-0.0003199042439362549,0.001461975712653645,0.24825400114059448,22.847436904907227,-0.07303168624639511,-14.155611038208008,-0.08177715539932251,-2.1133456230163574,0.39218467473983765,0
19,0.08918237686157227,-0.2998287081718445,-22.819665908813477,0.04922797530889511,14.131807327270508,0.08818584680557251,2.1197543144226074,-0.41324180364608765,0.0,0.0,0.0,0.0,0.0,0.0,0.0,-0.2819451253388919,-0.017387874322448104,-0.046644999901119484,0.2547264564654695,-0.14751425008835337,-0.06367348352928479,-0.4216546972766542,1.6755148770139763,0.052302644355778104,0.02991556623682641,-2.7524870671054775,0.03444843100650902,2.7663514953070423,0.7691982590284588,1.6754973547542302,0.052104326824870026,0.029969505109285054,-2.752394845125968,0.0342448039870148,2.7663679543071322,0.7691630533470046,0.0005961295588174105,0.0006337248114487556,-5.0878376514146924e-05,0.0001221131887457675,-0.00012094422033675874,6.27181537669837e-05,-0.00013717320777233532,0.0,0.0,0.0,0.0,0.0,0.0,0.0,-1.752225974605004e-05,-0.00019831753090807785,5.393887245864343e-05,9.222197950942146e-05,-0.00020362701949421663,1.645900008995227e-05,-3.520568145420899e-05,-0.0005961295588174105,-0.0006337248114487556,5.0878376514146924e-05,-0.0001221131887457675,0.00012094422033675874,-6.27181537669837e-05,0.00013717320777233532,0.2998287081718445,22.819665908813477,-0.04922797530889511,-14.131807327270508,-0.08818584680557251,-2.1197543144226074,0.41324180364608765,0
20,0.09420490264892578,-0.2998287081718445,-22.819665908813477,0.04922797530889511,14.131807327270508,0.08818584680557251,2.1197543144226074,-0.41324180364608765,0.0,0.0,0.0,0.0,0.0,0.0,0.0,-0.2819451253388919,-0.017387874322448104,-0.046644999901119484,0.2547264564654695,-0.14751425008835337,-0.06367348352928479,-0.4216546972766542,1.6755148770139763,0.052302644355778104,0.02991556623682641,-2.7524870671054775,0.03444843100650902,2.7663514953070423,0.7691982590284588,1.6754973547542302,0.052104326824870026,0.029969505109285054,-2.752394845125968,0.0342448039870148,2.7663679543071322,0.7691630533470046,0.0005961295588174105,0.0006337248114487556,-5.0878376514146924e-05,0.0001221131887457675,-0.00012094422033675874,6.27181537669837e-05,-0.00013717320777233532,0.0,0.0,0.0,0.0,0.0,0.0,0.0,-1.752225974605004e-05,-0.00019831753090807785,5.393887245864343e-05,9.222197950942146e-05,-0.00020362701949421663,1.645900008995227e-05,-3.520568145420899e-05,-0.0005961295588174105,-0.0006337248114487556,5.0878376514146924e-05,-0.0001221131887457675,0.00012094422033675874,-6.27181537669837e-05,0.00013717320777233532,0.2998287081718445,22.819665908813477,-0.04922797530889511,-14.131807327270508,-0.08818584680557251,-2.1197543144226074,0.41324180364608765,0
21,0.0991976261138916,-0.3236324191093445,-22.819665908813477,0.02542426437139511,14.131807327270508,0.07628399133682251,2.1325716972351074,-0.43338340520858765,0.0,0.0,0.0,0.0,0.0,0.0,0.0,-0.2868673037604363,-0.02140963412985596,-0.051660845559975244,0.25862221304085536,-0.14701474839500636,-0.06289068658709923,-0.4200948760079893,1.6755165473408318,0.052302644355778104,0.02991944614570767,-2.7524870671054775,0.03444857070849408,2.766350066555897,0.7692004969848526,1.6754973547542302,0.052104326824870026,0.029969505109285054,-2.752394845125968,0.0342448039870148,2.7663679543071322,0.7691630533470046,0.0005276636596446819,-0.0001146508526360003,0.00019748178758150948,9.757541850849868e-05,0.000294602302872228,-0.00031894513957535865,3.2957095438175114e-05,0.0,0.0,0.0,0.0,0.0,0.0,0.0,-1.9192586601546324e-05,-0.00019831753090807785,5.005896357738321e-05,9.222197950942146e-05,-0.00020376672147928016,1.7887751235345917e-05,-3.7443637847967004e-05,-0.0005276636596446819,0.0001146508526360003,-0.00019748178758150948,-9.757541850849868e-05,-0.000294602302872228,0.00031894513957535865,-3.2957095438175114e-05,0.3236324191093445,22.819665908813477,-0.02542426437139511,-14.131807327270508,-0.07628399133682251,-2.1325716972351074,0.43338340520858765,0
22,0.10419940948486328,-0.3236324191093445,-22.819665908813477,0.02542426437139511,14.131807327270508,0.07628399133682251,2.1325716972351074,-0.43338340520858765,0.0,0.0,0.0,0.0,0.0,0.0,0.0,-0.2868673037604363,-0.02140963412985596,-0.051660845559975244,0.25862221304085536,-0.14701474839500636,-0.06289068658709923,-0.4200948760079893,1.6755165473408318,0.052302644355778104,0.02991944614570767,-2.7524870671054775,0.03444857070849408,2.766350066555897,0.7692004969848526,1.6754973547542302,0.052104326824870026,0.029969505109285054,-2.752394845125968,0.0342448039870148,2.7663679543071322,0.7691630533470046,0.0005276636596446819,-0.0001146508526360003,0.00019748178758150948,9.757541850849868e-05,0.000294602302872228,-0.00031894513957535865,3.2957095438175114e-05,0.0,0.0,0.0,0.0,0.0,0.0,0.0,-1.9192586601546324e-05,-0.00019831753090807785,5.005896357738321e-05,9.222197950942146e-05,-0.00020376672147928016,1.7887751235345917e-05,-3.7443637847967004e-05,-0.0005276636596446819,0.0001146508526360003,-0.00019748178758150948,-9.757541850849868e-05,-0.000294602302872228,0.00031894513957535865,-3.2957095438175114e-05,0.3236324191093445,22.819665908813477,-0.02542426437139511,-14.131807327270508,-0.07628399133682251,-2.1325716972351074,0.43338340520858765,0
23,0.10920190811157227,-0.2720577120780945,-22.795862197875977,0.04922797530889511,14.179414749145508,0.09367901086807251,2.1197543144226074,-0.43979209661483765,0.0,0.0,0.0,0.0,0.0,0.0,0.0,-0.28617409895230644,-0.019771188138952314,-0.05083365068253086,0.25934382924084354,-0.14738949301041743,-0.06281745798758527,-0.4208264111888096,1.675512928172161,0.05230097391992284,0.029915882073781732,-2.7524910516092365,0.03444999124159428,2.7663514907660436,0.7692012090616754,1.6754973547542302,0.052104326824870026,0.029969505109285054,-2.752394845125968,0.0342448039870148,2.7663679543071322,0.7691630533470046,-0.0005412395288989937,-0.0006957633099696778,-0.0006136339653353245,-0.001112269520326264,-0.00020647612894628101,4.990323605409443e-05,0.0008116707919038113,0.0,0.0,0.0,0.0,0.0,0.0,0.0,-1.5573417930792033e-05,-0.00019664709505281402,5.3623035503321675e-05,9.620648326835735e-05,-0.00020518725457947806,1.6463541088640454e-05,-3.8155714670806695e-05,0.0005412395288989937,0.0006957633099696778,0.0006136339653353245,0.001112269520326264,0.00020647612894628101,-4.990323605409443e-05,-0.0008116707919038113,0.2720577120780945,22.795862197875977,-0.04922797530889511,-14.179414749145508,-0.09367901086807251,-2.1197543144226074,0.43979209661483765,0
24,0.11420154571533203,-0.2720577120780945,-22.795862197875977,0.04922797530889511,14.179414749145508,0.09367901086807251,2.1197543144226074,-0.43979209661483765,0.0,0.0,0.0,0.0,0.0,0.0,0.0,-0.28617409895230644,-0.019771188138952314,-0.05083365068253086,0.25934382924084354,-0.14738949301041743,-0.06281745798758527,-0.4208264111888096,1.675512928172161,0.05230097391992284,0.029915882073781732,-2.7524910516092365,0.03444999124159428,2.7663514907660436,0.7692012090616754,1.6754973547542302,0.052104326824870026,0.029969505109285054,-2.752394845125968,0.0342448039870148,2.7663679543071322,0.7691630533470046,-0.0005412395288989937,-0.0006957633099696778,-0.0006136339653353245,-0.001112269520326264,-0.00020647612894628101,4.990323605409443e-05,0.0008116707919038113,0.0,0.0,0.0,0.0,0.0,0.0,0.0,-1.5573417930792033e-05,-0.00019664709505281402,5.3623035503321675e-05,9.620648326835735e-05,-0.00020518725457947806,1.6463541088640454e-05,-3.8155714670806695e-05,0.0005412395288989937,0.0006957633099696778,0.0006136339653353245,0.001112269520326264,0.00020647612894628101,-4.990323605409443e-05,-0.0008116707919038113,0.2720577120780945,22.795862197875977,-0.04922797530889511,-14.179414749145508,-0.09367901086807251,-2.1197543144226074,0.43979209661483765,0
25,0.11919927597045898,-0.2720577120780945,-22.819665908813477,0.02542426437139511,14.131807327270508,0.08177715539932251,2.1197543144226074,-0.44711631536483765,0.0,0.0,0.0,0.0,0.0,0.0,0.0,-0.29075169363418274,-0.01807405544385258,-0.054945197845095974,0.2601246962774783,-0.14644214738343458,-0.06340402411444646,-0.42086390580255284,1.6755105439863704,0.052302644031000475,0.02991723667446458,-2.7524870671091106,0.034447960206921965,2.7663514907095172,0.7692019836179022,1.6754973547542302,0.052104326824870026,0.029969505109285054,-2.752394845125968,0.0342448039870148,2.7663679543071322,0.7691630533470046,-0.0007235321733682005,1.9113685268957405e-05,-0.00020954901959111216,5.497799886611102e-05,0.0002672454192860267,-1.3339250077611887e-05,0.0016266113546297134,0.0,0.0,0.0,0.0,0.0,0.0,0.0,-1.3189232140220497e-05,-0.00019831720613044945,5.226843482047244e-05,9.222198314251528e-05,-0.00020315621990716487,1.646359761497962e-05,-3.8930270897519215e-05,0.0007235321733682005,-1.9113685268957405e-05,0.00020954901959111216,-5.497799886611102e-05,-0.0002672454192860267,1.3339250077611887e-05,-0.0016266113546297134,0.2720577120780945,22.819665908813477,-0.02542426437139511,-14.131807327270508,-0.08177715539932251,-2.1197543144226074,0.44711631536483765,0
26,0.1242222785949707,-0.2720577120780945,-22.819665908813477,0.02542426437139511,14.131807327270508,0.08177715539932251,2.1197543144226074,-0.44711631536483765,0.0,0.0,0.0,0.0,0.0,0.0,0.0,-0.29075169363418274,-0.01807405544385258,-0.054945197845095974,0.2601246962774783,-0.14644214738343458,-0.06340402411444646,-0.42086390580255284,1.6755105439863704,0.052302644031000475,0.02991723667446458,-2.7524870671091106,0.034447960206921965,2.7663514907095172,0.7692019836179022,1.6754973547542302,0.052104326824870026,0.029969505109285054,-2.752394845125968,0.0342448039870148,2.7663679543071322,0.7691630533470046,-0.0007235321733682005,1.9113685268957405e-05,-0.00020954901959111216,5.497799886611102e-05,0.0002672454192860267,-1.3339250077611887e-05,0.0016266113546297134,0.0,0.0,0.0,0.0,0.0,0.0,0.0,-1.3189232140220497e-05,-0.00019831720613044945,5.226843482047244e-05,9.222198314251528e-05,-0.00020315621990716487,1.646359761497962e-05,-3.8930270897519215e-05,0.0007235321733682005,-1.9113685268957405e-05,0.00020954901959111216,-5.497799886611102e-05,-0.0002672454192860267,1.3339250077611887e-05,-0.0016266113546297134,0.2720577120780945,22.819665908813477,-0.02542426437139511,-14.131807327270508,-0.08177715539932251,-2.1197543144226074,0.44711631536483765,0
27,0.12920522689819336,-0.2720577120780945,-22.819665908813477,0.02542426437139511,14.131807327270508,0.08818584680557251,2.1133456230163574,-0.40591758489608765,0.0,0.0,0.0,0.0,0.0,0.0,0.0,-0.2811683767451459,-0.020350426219643038,-0.04709389059403873,0.2633616223219249,-0.14728889055950042,-0.06399057568600917,-0.4193213817336627,1.6755129281587027,0.05230264435577627,0.029917341947509276,-2.7524870671054775,0.03444843100581651,2.7663522027863396,0.7691974452268185,1.6754973547542302,0.052104326824870026,0.029969505109285054,-2.752394845125968,0.0342448039870148,2.7663679543071322,0.7691630533470046,0.0003361478324836514,-0.0004396396286423257,0.00030089182051218556,0.0003766432661591571,-0.00015864335312827606,0.0002626011555343009,-0.00019611686840378094,0.0,0.0,0.0,0.0,0.0,0.0,0.0,-1.5573404472446484e-05,-0.000198317530906246,5.2163161775777706e-05,9.222197950942146e-05,-0.00020362701880170808,1.5751520792584017e-05,-3.43918798139109e-05,-0.0003361478324836514,0.0004396396286423257,-0.00030089182051218556,-0.0003766432661591571,0.00015864335312827606,-0.0002626011555343009,0.00019611686840378094,0.2720577120780945,22.819665908813477,-0.02542426437139511,-14.131807327270508,-0.08818584680557251,-2.1133456230163574,0.40591758489608765,0
28,0.13420319557189941,-0.2720577120780945,-22.819665908813477,0.02542426437139511,14.131807327270508,0.08818584680557251,2.1133456230163574,-0.40591758489608765,0.0,0.0,0.0,0.0,0.0,0.0,0.0,-0.2811683767451459,-0.020350426219643038,-0.04709389059403873,0.2633616223219249,-0.14728889055950042,-0.06399057568600917,-0.4193213817336627,1.6755129281587027,0.05230264435577627,0.029917341947509276,-2.7524870671054775,0.03444843100581651,2.7663522027863396,0.7691974452268185,1.6754973547542302,0.052104326824870026,0.029969505109285054,-2.752394845125968,0.0342448039870148,2.7663679543071322,0.7691630533470046,0.0003361478324836514,-0.0004396396286423257,0.00030089182051218556,0.0003766432661591571,-0.00015864335312827606,0.0002626011555343009,-0.00019611686840378094,0.0,0.0,0.0,0.0,0.0,0.0,0.0,-1.5573404472446484e-05,-0.000198317530906246,5.2163161775777706e-05,9.222197950942146e-05,-0.00020362701880170808,1.5751520792584017e-05,-3.43918798139109e-05,-0.0003361478324836514,0.0004396396286423257,-0.00030089182051218556,-0.0003766432661591571,0.00015864335312827606,-0.0002626011555343009,0.00019611686840378094,0.2720577120780945,22.819665908813477,-0.02542426437139511,-14.131807327270508,-0.08818584680557251,-2.1133456230163574,0.40591758489608765,0
29,0.13920831680297852,-0.2720577120780945,-22.819665908813477,0.02542426437139511,14.131807327270508,0.08818584680557251,2.1133456230163574,-0.40591758489608765,0.0,0.0,0.0,0.0,0.0,0.0,0.0,-0.2811683767451459,-0.020350426219643038,-0.04709389059403873,0.2633616223219249,-0.14728889055950042,-0.06399057568600917,-0.4193213817336627,1.6755129281587027,0.05230264435577627,0.029917341947509276,-2.7524870671054775,0.03444843100581651,2.7663522027863396,0.7691974452268185,1.6754973547542302,0.052104326824870026,0.029969505109285054,-2.752394845125968,0.0342448039870148,2.7663679543071322,0.7691630533470046,0.0003361478324836514,-0.0004396396286423257,0.00030089182051218556,0.0003766432661591571,-0.00015864335312827606,0.0002626011555343009,-0.00019611686840378094,0.0,0.0,0.0,0.0,0.0,0.0,0.0,-1.5573404472446484e-05,-0.000198317530906246,5.2163161775777706e-05,9.222197950942146e-05,-0.00020362701880170808,1.5751520792584017e-05,-3.43918798139109e-05,-0.0003361478324836514,0.0004396396286423257,-0.00030089182051218556,-0.0003766432661591571,0.00015864335312827606,-0.0002626011555343009,0.00019611686840378094,0.2720577120780945,22.819665908813477,-0.02542426437139511,-14.131807327270508,-0.08818584680557251,-2.1133456230163574,0.40591758489608765,0
30,0.14420104026794434,-0.2720577120780945,-22.819665908813477,0.02542426437139511,14.131807327270508,0.08818584680557251,2.1133456230163574,-0.40591758489608765,0.0,0.0,0.0,0.0,0.0,0.0,0.0,-0.2811683767451459,-0.020350426219643038,-0.04709389059403873,0.2633616223219249,-0.14728889055950042,-0.06399057568600917,-0.4193213817336627,1.6755129281587027,0.05230264435577627,0.029917341947509276,-2.7524870671054775,0.03444843100581651,2.7663522027863396,0.7691974452268185,1.6754973547542302,0.052104326824870026,0.029969505109285054,-2.752394845125968,0.0342448039870148,2.7663679543071322,0.7691630533470046,0.0003361478324836514,-0.0004396396286423257,0.00030089182051218556,0.0003766432661591571,-0.00015864335312827606,0.0002626011555343009,-0.00019611686840378094,0.0,0.0,0.0,0.0,0.0,0.0,0.0,-1.5573404472446484e-05,-0.000198317530906246,5.2163161775777706e-05,9.222197950942146e-05,-0.00020362701880170808,1.5751520792584017e-05,-3.43918798139109e-05,-0.0003361478324836514,0.0004396396286423257,-0.00030089182051218556,-0.0003766432661591571,0.00015864335312827606,-0.0002626011555343009,0.00019611686840378094,0.2720577120780945,22.819665908813477,-0.02542426437139511,-14.131807327270508,-0.08818584680557251,-2.1133456230163574,0.40591758489608765,0
31,0.15000152587890625,-0.2720577120780945,-22.795862197875977,0.04922797530889511,14.131807327270508,0.07628399133682251,2.1261630058288574,-0.42605918645858765,0.0,0.0,0.0,0.0,0.0,0.0,0.0,-0.2823539835991015,-0.014617000726783614,-0.05114517492326793,0.2616495532926059,-0.14729421242035062,-0.06491821196488558,-0.4194032261673822,1.675512901681208,0.05230097391992284,0.02991580297172618,-2.7524870671054775,0.034449043717445525,2.766350778632694,0.7691996831827692,1.6754973547542302,0.052104326824870026,0.029969505109285054,-2.752394845125968,0.0342448039870148,2.7663679543071322,0.7691630533470046,0.00023573384098269138,-0.00018216701733650734,-0.0001022801914646399,0.0002570587586370219,0.0001675231408826564,-0.0001258047870829657,0.0001848602772332856,0.0,0.0,0.0,0.0,0.0,0.0,0.0,-1.5546926977805242e-05,-0.00019664709505281402,5.3702137558873236e-05,9.222197950942146e-05,-0.00020423973043072474,1.71756744382634e-05,-3.66298357645789e-05,-0.00023573384098269138,0.00018216701733650734,0.0001022801914646399,-0.0002570587586370219,-0.0001675231408826564,0.0001258047870829657,-0.0001848602772332856,0.2720577120780945,22.795862197875977,-0.04922797530889511,-14.131807327270508,-0.07628399133682251,-2.1261630058288574,0.42605918645858765,0
32,0.15499353408813477,-0.2720577120780945,-22.795862197875977,0.04922797530889511,14.131807327270508,0.07628399133682251,2.1261630058288574,-0.42605918645858765,0.0,0.0,0.0,0.0,0.0,0.0,0.0,-0.2823539835991015,-0.014617000726783614,-0.05114517492326793,0.2616495532926059,-0.14729421242035062,-0.06491821196488558,-0.4194032261673822,1.675512901681208,0.05230097391992284,0.02991580297172618,-2.7524870671054775,0.034449043717445525,2.766350778632694,0.7691996831827692,1.6754973547542302,0.052104326824870026,0.029969505109285054,-2.752394845125968,0.0342448039870148,2.7663679543071322,0.7691630533470046,0.00023573384098269138,-0.00018216701733650734,-0.0001022801914646399,0.0002570587586370219,0.0001675231408826564,-0.0001258047870829657,0.0001848602772332856,0.0,0.0,0.0,0.0,0.0,0.0,0.0,-1.5546926977805242e-05,-0.00019664709505281402,5.3702137558873236e-05,9.222197950942146e-05,-0.00020423973043072474,1.71756744382634e-05,-3.66298357645789e-05,-0.00023573384098269138,0.00018216701733650734,0.0001022801914646399,-0.0002570587586370219,-0.0001675231408826564,0.0001258047870829657,-0.0001848602772332856,0.2720577120780945,22.795862197875977,-0.04922797530889511,-14.131807327270508,-0.07628399133682251,-2.1261630058288574,0.42605918645858765,0
33,0.15916061401367188,-0.2720577120780945,-22.795862197875977,0.04922797530889511,14.131807327270508,0.07628399133682251,2.1261630058288574,-0.42605918645858765,0.0,0.0,0.0,0.0,0.0,0.0,0.0,-0.2823539835991015,-0.014617000726783614,-0.05114517492326793,0.2616495532926059,-0.14729421242035062,-0.06491821196488558,-0.4194032261673822,1.675512901681208,0.05230097391992284,0.02991580297172618,-2.7524870671054775,0.034449043717445525,2.766350778632694,0.7691996831827692,1.6754973547542302,0.052104326824870026,0.029969505109285054,-2.752394845125968,0.0342448039870148,2.7663679543071322,0.7691630533470046,0.00023573384098269138,-0.00018216701733650734,-0.0001022801914646399,0.0002570587586370219,0.0001675231408826564,-0.0001258047870829657,0.0001848602772332856,0.0,0.0,0.0,0.0,0.0,0.0,0.0,-1.5546926977805242e-05,-0.00019664709505281402,5.3702137558873236e-05,9.222197950942146e-05,-0.00020423973043072474,1.71756744382634e-05,-3.66298357645789e-05,-0.00023573384098269138,0.00018216701733650734,0.0001022801914646399,-0.0002570587586370219,-0.0001675231408826564,0.0001258047870829657,-0.0001848602772332856,0.2720577120780945,22.795862197875977,-0.04922797530889511,-14.131807327270508,-0.07628399133682251,-2.1261630058288574,0.42605918645858765,0
34,0.16424036026000977,-0.2720577120780945,-22.847436904907227,0.001620553433895111,14.131807327270508,0.08818584680557251,2.1133456230163574,-0.43338340520858765,0.0,0.0,0.0,0.0,0.0,0.0,0.0,-0.28220782059860705,-0.017311213576917,-0.05193998142356814,0.2633322210676171,-0.14780911356045418,-0.06396153487423704,-0.41845737694137675,1.6755129281721117,0.052304593197609245,0.029918910030277714,-2.7524870671054775,0.03445048281779348,2.7663522027863396,0.7692004969848526,1.6754973547542302,0.052104326824870026,0.029969505109285054,-2.752394845125968,0.0342448039870148,2.7663679543071322,0.7691630533470046,-0.00025926680932621105,0.0008377125435333774,0.0008049037838777969,5.320000703161862e-05,9.075652107766946e-07,0.0003251200564286806,0.0006231134145579065,0.0,0.0,0.0,0.0,0.0,0.0,0.0,-1.557341788149813e-05,-0.000200266372739219,5.0595079007339366e-05,9.222197950942146e-05,-0.00020567883077868276,1.5751520792584017e-05,-3.7443637847967004e-05,0.00025926680932621105,-0.0008377125435333774,-0.0008049037838777969,-5.320000703161862e-05,-9.075652107766946e-07,-0.0003251200564286806,-0.0006231134145579065,0.2720577120780945,22.847436904907227,-0.001620553433895111,-14.131807327270508,-0.08818584680557251,-2.1133456230163574,0.43338340520858765,0
35,0.1692214012145996,-0.2720577120780945,-22.847436904907227,0.001620553433895111,14.131807327270508,0.08818584680557251,2.1133456230163574,-0.43338340520858765,0.0,0.0,0.0,0.0,0.0,0.0,0.0,-0.28220782059860705,-0.017311213576917,-0.05193998142356814,0.2633322210676171,-0.14780911356045418,-0.06396153487423704,-0.41845737694137675,1.6755129281721117,0.052304593197609245,0.029918910030277714,-2.7524870671054775,0.03445048281779348,2.7663522027863396,0.7692004969848526,1.6754973547542302,0.052104326824870026,0.029969505109285054,-2.752394845125968,0.0342448039870148,2.7663679543071322,0.7691630533470046,-0.00025926680932621105,0.0008377125435333774,0.0008049037838777969,5.320000703161862e-05,9.075652107766946e-07,0.0003251200564286806,0.0006231134145579065,0.0,0.0,0.0,0.0,0.0,0.0,0.0,-1.557341788149813e-05,-0.000200266372739219,5.0595079007339366e-05,9.222197950942146e-05,-0.00020567883077868276,1.5751520792584017e-05,-3.7443637847967004e-05,0.00025926680932621105,-0.0008377125435333774,-0.0008049037838777969,-5.320000703161862e-05,-9.075652107766946e-07,-0.0003251200564286806,-0.0006231134145579065,0.2720577120780945,22.847436904907227,-0.001620553433895111,-14.131807327270508,-0.08818584680557251,-2.1133456230163574,0.43338340520858765,0
36,0.17426538467407227,-0.2720577120780945,-22.795862197875977,0.02542426437139511,14.179414749145508,0.08818584680557251,2.1133456230163574,-0.43338340520858765,0.0,0.0,0.0,0.0,0.0,0.0,0.0,-0.28284166174667436,-0.01668689363628265,-0.05165880259521734,0.26406671652104224,-0.1473417406217349,-0.06366128197585026,-0.4179921414944885,1.6755126897535824,0.05230097294558994,0.029917552172625567,-2.752490407977188,0.034447657067802166,2.7663522027863396,0.7692004969848526,1.6754973547542302,0.052104326824870026,0.029969505109285054,-2.752394845125968,0.0342448039870148,2.7663679543071322,0.7691630533470046,-0.00039581751424419206,-0.00029790568431133275,0.0001656437624788212,-0.0012444431040161495,-0.0002046596406047167,0.00030319596510104696,0.0008267991310014954,0.0,0.0,0.0,0.0,0.0,0.0,0.0,-1.533499935213456e-05,-0.00019664612071991494,5.1952936659487026e-05,9.556285121981034e-05,-0.00020285308078736575,1.5751520792584017e-05,-3.7443637847967004e-05,0.00039581751424419206,0.00029790568431133275,-0.0001656437624788212,0.0012444431040161495,0.0002046596406047167,-0.00030319596510104696,-0.0008267991310014954,0.2720577120780945,22.795862197875977,-0.02542426437139511,-14.179414749145508,-0.08818584680557251,-2.1133456230163574,0.43338340520858765,0
37,0.1792278289794922,-0.2720577120780945,-22.795862197875977,0.02542426437139511,14.179414749145508,0.08818584680557251,2.1133456230163574,-0.43338340520858765,0.0,0.0,0.0,0.0,0.0,0.0,0.0,-0.28284166174667436,-0.01668689363628265,-0.05165880259521734,0.26406671652104224,-0.1473417406217349,-0.06366128197585026,-0.4179921414944885,1.6755126897535824,0.05230097294558994,0.029917552172625567,-2.752490407977188,0.034447657067802166,2.7663522027863396,0.7692004969848526,1.6754973547542302,0.052104326824870026,0.029969505109285054,-2.752394845125968,0.0342448039870148,2.7663679543071322,0.7691630533470046,-0.00039581751424419206,-0.00029790568431133275,0.0001656437624788212,-0.0012444431040161495,-0.0002046596406047167,0.00030319596510104696,0.0008267991310014954,0.0,0.0,0.0,0.0,0.0,0.0,0.0,-1.533499935213456e-05,-0.00019664612071991494,5.1952936659487026e-05,9.556285121981034e-05,-0.00020285308078736575,1.5751520792584017e-05,-3.7443637847967004e-05,0.00039581751424419206,0.00029790568431133275,-0.0001656437624788212,0.0012444431040161495,0.0002046596406047167,-0.00030319596510104696,-0.0008267991310014954,0.2720577120780945,22.795862197875977,-0.02542426437139511,-14.179414749145508,-0.08818584680557251,-2.1133456230163574,0.43338340520858765,0
38,0.1842031478881836,-0.2998287081718445,-22.819665908813477,0.04922797530889511,14.131807327270508,0.09367901086807251,2.1261630058288574,-0.41965049505233765,0.0,0.0,0.0,0.0,0.0,0.0,0.0,-0.2779342333877561,-0.017340276533492495,-0.04714027986429673,0.26361834858959987,-0.14807478777679284,-0.06378672988654549,-0.41849726047899544,1.6755148770135442,0.05230264435577627,0.029915645112393682,-2.7524870671054775,0.034446677190197166,2.766350778632694,0.7691989711059464,1.6754973547542302,0.052104326824870026,0.029969505109285054,-2.752394845125968,0.0342448039870148,2.7663679543071322,0.7691630533470046,0.0004856770133750593,6.181933439971445e-05,-0.00020128498065724265,-0.00011908855810522242,-0.00037926577315977193,-0.00017305181424893642,0.0002098803725359817,0.0,0.0,0.0,0.0,0.0,0.0,0.0,-1.752225931395124e-05,-0.000198317530906246,5.385999689137139e-05,9.222197950942146e-05,-0.000201873203182365,1.71756744382634e-05,-3.591775894173921e-05,-0.0004856770133750593,-6.181933439971445e-05,0.00020128498065724265,0.00011908855810522242,0.00037926577315977193,0.00017305181424893642,-0.0002098803725359817,0.2998287081718445,22.819665908813477,-0.04922797530889511,-14.131807327270508,-0.09367901086807251,-2.1261630058288574,0.41965049505233765,0
39,0.1895155906677246,-0.2998287081718445,-22.819665908813477,0.04922797530889511,14.131807327270508,0.09367901086807251,2.1261630058288574,-0.41965049505233765,0.0,0.0,0.0,0.0,0.0,0.0,0.0,-0.2779342333877561,-0.017340276533492495,-0.04714027986429673,0.26361834858959987,-0.14807478777679284,-0.06378672988654549,-0.41849726047899544,1.6755148770135442,0.05230264435577627,0.029915645112393682,-2.7524870671054775,0.034446677190197166,2.766350778632694,0.7691989711059464,1.6754973547542302,0.052104326824870026,0.029969505109285054,-2.752394845125968,0.0342448039870148,2.7663679543071322,0.7691630533470046,0.0004856770133750593,6.181933439971445e-05,-0.00020128498065724265,-0.00011908855810522242,-0.00037926577315977193,-0.00017305181424893642,0.0002098803725359817,0.0,0.0,0.0,0.0,0.0,0.0,0.0,-1.752225931395124e-05,-0.000198317530906246,5.385999689137139e-05,9.222197950942146e-05,-0.000201873203182365,1.71756744382634e-05,-3.591775894173921e-05,-0.0004856770133750593,-6.181933439971445e-05,0.00020128498065724265,0.00011908855810522242,0.00037926577315977193,0.00017305181424893642,-0.0002098803725359817,0.2998287081718445,22.819665908813477,-0.04922797530889511,-14.131807327270508,-0.09367901086807251,-2.1261630058288574,0.41965049505233765,0
40,0.19420099258422852,-0.24825400114059448,-22.847436904907227,0.001620553433895111,14.131807327270508,0.08818584680557251,2.1197543144226074,-0.41324180364608765,0.0,0.0,0.0,0.0,0.0,0.0,0.0,-0.2825218420780748,-0.01759779160068176,-0.04998551608034414,0.2661741520327927,-0.14739037709959485,-0.0636082186305483,-0.41914933237359886,1.6755112489059887,0.052304593197609245,0.029919172946856188,-2.7524870671054775,0.03444724978810508,2.766351490709517,0.7691982590291234,1.6754973547542302,0.052104326824870026,0.029969505109285054,-2.752394845125968,0.0342448039870148,2.7663679543071322,0.7691630533470046,-0.0010667212186444397,0.0007447383871403519,0.0009032974190874677,0.0003031352024421168,-7.76660270071958e-05,0.00013025131351476136,-0.0003424042106356495,0.0,0.0,0.0,0.0,0.0,0.0,0.0,-1.3894151758453432e-05,-0.000200266372739219,5.033216242886565e-05,9.222197950942146e-05,-0.00020244580109027993,1.646359761542371e-05,-3.5205682118788495e-05,0.0010667212186444397,-0.0007447383871403519,-0.0009032974190874677,-0.0003031352024421168,7.76660270071958e-05,-0.00013025131351476136,0.0003424042106356495,0.24825400114059448,22.847436904907227,-0.001620553433895111,-14.131807327270508,-0.08818584680557251,-2.1197543144226074,0.41324180364608765,0
41,0.199202299118042,-0.24825400114059448,-22.847436904907227,0.001620553433895111,14.131807327270508,0.08818584680557251,2.1197543144226074,-0.41324180364608765,0.0,0.0,0.0,0.0,0.0,0.0,0.0,-0.2825218420780748,-0.01759779160068176,-0.04998551608034414,0.2661741520327927,-0.14739037709959485,-0.0636082186305483,-0.41914933237359886,1.6755112489059887,0.052304593197609245,0.029919172946856188,-2.7524870671054775,0.03444724978810508,2.766351490709517,0.7691982590291234,1.6754973547542302,0.052104326824870026,0.029969505109285054,-2.752394845125968,0.0342448039870148,2.7663679543071322,0.7691630533470046,-0.0010667212186444397,0.0007447383871403519,0.0009032974190874677,0.0003031352024421168,-7.76660270071958e-05,0.00013025131351476136,-0.0003424042106356495,0.0,0.0,0.0,0.0,0.0,0.0,0.0,-1.3894151758453432e-05,-0.000200266372739219,5.033216242886565e-05,9.222197950942146e-05,-0.00020244580109027993,1.646359761542371e-05,-3.5205682118788495e-05,0.0010667212186444397,-0.0007447383871403519,-0.0009032974190874677,-0.0003031352024421168,7.76660270071958e-05,-0.00013025131351476136,0.0003424042106356495,0.24825400114059448,22.847436904907227,-0.001620553433895111,-14.131807327270508,-0.08818584680557251,-2.1197543144226074,0.41324180364608765,0
42,0.20424938201904297,-0.24825400114059448,-22.819665908813477,0.04922797530889511,14.131807327270508,0.08818584680557251,2.1133456230163574,-0.39950889348983765,0.0,0.0,0.0,0.0,0.0,0.0,0.0,-0.2802589969729189,-0.016489149859668425,-0.04624389104747161,0.2602091138372392,-0.14784564539749184,-0.06420472968600861,-0.42034831741281364,1.6755112576272402,0.052302644355778104,0.02991565485095174,-2.7524870671054775,0.03445091654495013,2.7663522027863396,0.7691967331502172,1.6754973547542302,0.052104326824870026,0.029969505109285054,-2.752394845125968,0.0342448039870148,2.7663679543071322,0.7691630533470046,-0.0007726866761561021,-0.0001725731099715984,-5.3970963171893886e-05,-0.0005321409577340781,-6.593196168164896e-05,0.0003882969223210756,-0.001103015374754362,0.0,0.0,0.0,0.0,0.0,0.0,0.0,-1.3902873009952188e-05,-0.00019831753090807785,5.3850258333314194e-05,9.222197950942146e-05,-0.00020611255793533123,1.5751520792584017e-05,-3.36798032125607e-05,0.0007726866761561021,0.0001725731099715984,5.3970963171893886e-05,0.0005321409577340781,6.593196168164896e-05,-0.0003882969223210756,0.001103015374754362,0.24825400114059448,22.819665908813477,-0.04922797530889511,-14.131807327270508,-0.08818584680557251,-2.1133456230163574,0.39950889348983765,0
43,0.20926284790039062,-0.24825400114059448,-22.819665908813477,0.04922797530889511,14.131807327270508,0.08818584680557251,2.1133456230163574,-0.39950889348983765,0.0,0.0,0.0,0.0,0.0,0.0,0.0,-0.2802589969729189,-0.016489149859668425,-0.04624389104747161,0.2602091138372392,-0.14784564539749184,-0.06420472968600861,-0.42034831741281364,1.6755112576272402,0.052302644355778104,0.02991565485095174,-2.7524870671054775,0.03445091654495013,2.7663522027863396,0.7691967331502172,1.6754973547542302,0.052104326824870026,0.029969505109285054,-2.752394845125968,0.0342448039870148,2.7663679543071322,0.7691630533470046,-0.0007726866761561021,-0.0001725731099715984,-5.3970963171893886e-05,-0.0005321409577340781,-6.593196168164896e-05,0.0003882969223210756,-0.001103015374754362,0.0,0.0,0.0,0.0,0.0,0.0,0.0,-1.3902873009952188e-05,-0.00019831753090807785,5.3850258333314194e-05,9.222197950942146e-05,-0.00020611255793533123,1.5751520792584017e-05,-3.36798032125607e-05,0.0007726866761561021,0.0001725731099715984,5.3970963171893886e-05,0.0005321409577340781,6.593196168164896e-05,-0.0003882969223210756,0.001103015374754362,0.24825400114059448,22.819665908813477,-0.04922797530889511,-14.131807327270508,-0.08818584680557251,-2.1133456230163574,0.39950889348983765,0
44,0.21420907974243164,-0.3236324191093445,-22.819665908813477,0.02542426437139511,14.108003616333008,0.08177715539932251,2.1261630058288574,-0.42605918645858765,0.0,0.0,0.0,0.0,0.0,0.0,0.0,-0.28579608443241067,-0.015202438010922685,-0.049820662121186694,0.26012643316183653,-0.14731472357091924,-0.0634944417406696,-0.42204314250152813,1.6755165474498475,0.052302644355778104,0.029917236673181902,-2.752485396669622,0.034447960208699877,2.766350778632694,0.7691996815677133,1.6754973547542302,0.052104326824870026,0.029969505109285054,-2.752394845125968,0.0342448039870148,2.7663679543071322,0.7691630533470046,0.0006279319982721868,0.0004556922520713648,0.0005938406219406705,0.00029853905893875574,0.0001795629776078562,-0.0003011443437186759,0.00020301233113159645,0.0,0.0,0.0,0.0,0.0,0.0,0.0,-1.9192695617231692e-05,-0.00019831753090807785,5.226843610315127e-05,9.055154365400497e-05,-0.00020315622168507602,1.71756744382634e-05,-3.662822070871208e-05,-0.0006279319982721868,-0.0004556922520713648,-0.0005938406219406705,-0.00029853905893875574,-0.0001795629776078562,0.0003011443437186759,-0.00020301233113159645,0.3236324191093445,22.819665908813477,-0.02542426437139511,-14.108003616333008,-0.08177715539932251,-2.1261630058288574,0.42605918645858765,0
45,0.2192389965057373,-0.3236324191093445,-22.819665908813477,0.02542426437139511,14.108003616333008,0.08177715539932251,2.1261630058288574,-0.42605918645858765,0.0,0.0,0.0,0.0,0.0,0.0,0.0,-0.28579608443241067,-0.015202438010922685,-0.049820662121186694,0.26012643316183653,-0.14731472357091924,-0.0634944417406696,-0.42204314250152813,1.6755165474498475,0.052302644355778104,0.029917236673181902,-2.752485396669622,0.034447960208699877,2.766350778632694,0.7691996815677133,1.6754973547542302,0.052104326824870026,0.029969505109285054,-2.752394845125968,0.0342448039870148,2.7663679543071322,0.7691630533470046,0.0006279319982721868,0.0004556922520713648,0.0005938406219406705,0.00029853905893875574,0.0001795629776078562,-0.0003011443437186759,0.00020301233113159645,0.0,0.0,0.0,0.0,0.0,0.0,0.0,-1.9192695617231692e-05,-0.00019831753090807785,5.226843610315127e-05,9.055154365400497e-05,-0.00020315622168507602,1.71756744382634e-05,-3.662822070871208e-05,-0.0006279319982721868,-0.0004556922520713648,-0.0005938406219406705,-0.00029853905893875574,-0.0001795629776078562,0.0003011443437186759,-0.00020301233113159645,0.3236324191093445,22.819665908813477,-0.02542426437139511,-14.108003616333008,-0.08177715539932251,-2.1261630058288574,0.42605918645858765,0
46,0.2242109775543213,-0.2998287081718445,-22.819665908813477,0.02542426437139511,14.131807327270508,0.08818584680557251,2.1325716972351074,-0.44711631536483765,0.0,0.0,0.0,0.0,0.0,0.0,0.0,-0.28833250391892895,-0.017557349917696388,-0.04846296926893305,0.2603445478002756,-0.14690507475680464,-0.06306174870959942,-0.42375115816285386,1.6755148770139927,0.052302644355778104,0.029917245472633004,-2.7524870671054775,0.03445049601426465,2.766350066555871,0.7692020228637497,1.6754973547542302,0.052104326824870026,0.029969505109285054,-2.752394845125968,0.0342448039870148,2.7663679543071322,0.7691630533470046,0.0004431722526692003,0.00039874909030727706,5.960155981355754e-06,-0.00010580061658606904,9.309084310483508e-06,-0.0004833968827063377,0.0007273513949646219,0.0,0.0,0.0,0.0,0.0,0.0,0.0,-1.752225976248134e-05,-0.00019831753090807785,5.225963665204947e-05,9.222197950942146e-05,-0.00020569202724984859,1.788775126110309e-05,-3.896951674509097e-05,-0.0004431722526692003,-0.00039874909030727706,-5.960155981355754e-06,0.00010580061658606904,-9.309084310483508e-06,0.0004833968827063377,-0.0007273513949646219,0.2998287081718445,22.819665908813477,-0.02542426437139511,-14.131807327270508,-0.08818584680557251,-2.1325716972351074,0.44711631536483765,0
47,0.22923851013183594,-0.2998287081718445,-22.819665908813477,0.02542426437139511,14.131807327270508,0.08818584680557251,2.1325716972351074,-0.44711631536483765,0.0,0.0,0.0,0.0,0.0,0.0,0.0,-0.28833250391892895,-0.017557349917696388,-0.04846296926893305,0.2603445478002756,-0.14690507475680464,-0.06306174870959942,-0.42375115816285386,1.6755148770139927,0.052302644355778104,0.029917245472633004,-2.7524870671054775,0.03445049601426465,2.766350066555871,0.7692020228637497,1.6754973547542302,0.052104326824870026,0.029969505109285054,-2.752394845125968,0.0342448039870148,2.7663679543071322,0.7691630533470046,0.0004431722526692003,0.00039874909030727706,5.960155981355754e-06,-0.00010580061658606904,9.309084310483508e-06,-0.0004833968827063377,0.0007273513949646219,0.0,0.0,0.0,0.0,0.0,0.0,0.0,-1.752225976248134e-05,-0.00019831753090807785,5.225963665204947e-05,9.222197950942146e-05,-0.00020569202724984859,1.788775126110309e-05,-3.896951674509097e-05,-0.0004431722526692003,-0.00039874909030727706,-5.960155981355754e-06,0.00010580061658606904,-9.309084310483508e-06,0.0004833968827063377,-0.0007273513949646219,0.2998287081718445,22.819665908813477,-0.02542426437139511,-14.131807327270508,-0.08818584680557251,-2.1325716972351074,0.44711631536483765,0
48,0.23420214653015137,-0.2720577120780945,-22.795862197875977,0.001620553433895111,14.155611038208008,0.07628399133682251,2.1197543144226074,-0.43338340520858765,0.0,0.0,0.0,0.0,0.0,0.0,0.0,-0.28943129043031063,-0.01720959932300981,-0.051224782883724645,0.2597888148276186,-0.14648519092032977,-0.06320721477663636,-0.4246818770924155,1.675512186425471,0.05230097391992284,0.029918942488718805,-2.7524887375413325,0.03445012146420455,2.7663526033295525,0.7692004969848526,1.6754973547542302,0.052104326824870026,0.029969505109285054,-2.752394845125968,0.0342448039870148,2.7663679543071322,0.7691630533470046,-0.0006998865256044942,-0.0006398302577942021,0.0005753064115004388,-0.000649823418377585,0.00022417573071364667,7.145290392859181e-05,0.0002103296306191251,0.0,0.0,0.0,0.0,0.0,0.0,0.0,-1.48316712407226e-05,-0.00019664709505281402,5.056262056624822e-05,9.389241536439386e-05,-0.00020531747718974952,1.5350977579764447e-05,-3.7443637847967004e-05,0.0006998865256044942,0.0006398302577942021,-0.0005753064115004388,0.000649823418377585,-0.00022417573071364667,-7.145290392859181e-05,-0.0002103296306191251,0.2720577120780945,22.795862197875977,-0.001620553433895111,-14.155611038208008,-0.07628399133682251,-2.1197543144226074,0.43338340520858765,0
49,0.23920130729675293,-0.2720577120780945,-22.795862197875977,0.001620553433895111,14.155611038208008,0.07628399133682251,2.1197543144226074,-0.43338340520858765,0.0,0.0,0.0,0.0,0.0,0.0,0.0,-0.28943129043031063,-0.01720959932300981,-0.051224782883724645,0.2597888148276186,-0.14648519092032977,-0.06320721477663636,-0.4246818770924155,1.675512186425471,0.05230097391992284,0.029918942488718805,-2.7524887375413325,0.03445012146420455,2.7663526033295525,0.7692004969848526,1.6754973547542302,0.052104326824870026,0.029969505109285054,-2.752394845125968,0.0342448039870148,2.7663679543071322,0.7691630533470046,-0.0006998865256044942,-0.0006398302577942021,0.0005753064115004388,-0.000649823418377585,0.00022417573071364667,7.145290392859181e-05,0.0002103296306191251,0.0,0.0,0.0,0.0,0.0,0.0,0.0,-1.48316712407226e-05,-0.00019664709505281402,5.056262056624822e-05,9.389241536439386e-05,-0.00020531747718974952,1.5350977579764447e-05,-3.7443637847967004e-05,0.0006998865256044942,0.0006398302577942021,-0.0005753064115004388,0.000649823418377585,-0.00022417573071364667,-7.145290392859181e-05,-0.0002103296306191251,0.2720577120780945,22.795862197875977,-0.001620553433895111,-14.155611038208008,-0.07628399133682251,-2.1197543144226074,0.43338340520858765,0
50,0.24420523643493652,-0.2720577120780945,-22.795862197875977,0.04922797530889511,14.155611038208008,0.08818584680557251,2.1261630058288574,-0.45352500677108765,0.0,0.0,0.0,0.0,0.0,0.0,0.0,-0.2865370789097651,-0.01732546164371704,-0.046986092349096883,0.2604251506014441,-0.14763642070985186,-0.06339773812883537,-0.42420200888606596,1.6755129281679744,0.05230097391992284,0.02991556915832145,-2.752488737832042,0.03445079680386713,2.7663507786389747,0.7692027349405818,1.6754973547542302,0.052104326824870026,0.029969505109285054,-2.752394845125968,0.0342448039870148,2.7663679543071322,0.7691630533470046,-0.0002498144316878386,-0.0004977488034090444,-0.00010569383195229027,-0.0005568185644548427,-0.0002176318574351887,-0.00010150731432407404,0.0016279762466262066,0.0,0.0,0.0,0.0,0.0,0.0,0.0,-1.5573413744141007e-05,-0.00019664709505281402,5.3935950963604484e-05,9.389270607407241e-05,-0.0002059928168523309,1.7175668157509705e-05,-3.968159357714551e-05,0.0002498144316878386,0.0004977488034090444,0.00010569383195229027,0.0005568185644548427,0.0002176318574351887,0.00010150731432407404,-0.0016279762466262066,0.2720577120780945,22.795862197875977,-0.04922797530889511,-14.155611038208008,-0.08818584680557251,-2.1261630058288574,0.45352500677108765,0
51,0.2530045509338379,-0.2998287081718445,-22.795862197875977,0.02542426437139511,14.108003616333008,0.08818584680557251,2.1133456230163574,-0.42605918645858765,0.0,0.0,0.0,0.0,0.0,0.0,0.0,-0.2910611258616281,-0.014856864252277408,-0.0519235115005329,0.25844544397923036,-0.1477916549182706,-0.06381988730920819,-0.42304834420113757,1.6755148495418932,0.05230097294558994,0.029917237105482657,-2.7524853966696234,0.03444725256637985,2.7663522027863396,0.7691996831827692,1.6754973547542302,0.052104326824870026,0.029969505109285054,-2.752394845125968,0.0342448039870148,2.7663679543071322,0.7691630533470046,0.0002087904538537291,-0.0005128045518841208,0.00041554072339485,0.0001479308469721869,-6.538177137294037e-05,0.0004107326074852013,-0.00018860258492262545,0.0,0.0,0.0,0.0,0.0,0.0,0.0,-1.749478766299717e-05,-0.00019664612071991494,5.2268003802397045e-05,9.055154365533724e-05,-0.0002024485793650499,1.5751520792584017e-05,-3.66298357645789e-05,-0.0002087904538537291,0.0005128045518841208,-0.00041554072339485,-0.0001479308469721869,6.538177137294037e-05,-0.0004107326074852013,0.00018860258492262545,0.2998287081718445,22.795862197875977,-0.02542426437139511,-14.108003616333008,-0.08818584680557251,-2.1133456230163574,0.42605918645858765,0
52,0.2541999816894531,-0.2998287081718445,-22.795862197875977,0.02542426437139511,14.108003616333008,0.08818584680557251,2.1133456230163574,-0.42605918645858765,0.0,0.0,0.0,0.0,0.0,0.0,0.0,-0.2910611258616281,-0.014856864252277408,-0.0519235115005329,0.25844544397923036,-0.1477916549182706,-0.06381988730920819,-0.42304834420113757,1.6755148495418932,0.05230097294558994,0.029917237105482657,-2.7524853966696234,0.03444725256637985,2.7663522027863396,0.7691996831827692,1.6754973547542302,0.052104326824870026,0.029969505109285054,-2.752394845125968,0.0342448039870148,2.7663679543071322,0.7691630533470046,0.0002087904538537291,-0.0005128045518841208,0.00041554072339485,0.0001479308469721869,-6.538177137294037e-05,0.0004107326074852013,-0.00018860258492262545,0.0,0.0,0.0,0.0,0.0,0.0,0.0,-1.749478766299717e-05,-0.00019664612071991494,5.2268003802397045e-05,9.055154365533724e-05,-0.0002024485793650499,1.5751520792584017e-05,-3.66298357645789e-05,-0.0002087904538537291,0.0005128045518841208,-0.00041554072339485,-0.0001479308469721869,6.538177137294037e-05,-0.0004107326074852013,0.00018860258492262545,0.2998287081718445,22.795862197875977,-0.02542426437139511,-14.108003616333008,-0.08818584680557251,-2.1133456230163574,0.42605918645858765,0
53,0.25922155380249023,-0.2998287081718445,-22.795862197875977,0.02542426437139511,14.108003616333008,0.08818584680557251,2.1133456230163574,-0.42605918645858765,0.0,0.0,0.0,0.0,0.0,0.0,0.0,-0.2910611258616281,-0.014856864252277408,-0.0519235115005329,0.25844544397923036,-0.1477916549182706,-0.06381988730920819,-0.42304834420113757,1.6755148495418932,0.05230097294558994,0.029917237105482657,-2.7524853966696234,0.03444725256637985,2.7663522027863396,0.7691996831827692,1.6754973547542302,0.052104326824870026,0.029969505109285054,-2.752394845125968,0.0342448039870148,2.7663679543071322,0.7691630533470046,0.0002087904538537291,-0.0005128045518841208,0.00041554072339485,0.0001479308469721869,-6.538177137294037e-05,0.0004107326074852013,-0.00018860258492262545,0.0,0.0,0.0,0.0,0.0,0.0,0.0,-1.749478766299717e-05,-0.00019664612071991494,5.2268003802397045e-05,9.055154365533724e-05,-0.0002024485793650499,1.5751520792584017e-05,-3.66298357645789e-05,-0.0002087904538537291,0.0005128045518841208,-0.00041554072339485,-0.0001479308469721869,6.538177137294037e-05,-0.0004107326074852013,0.00018860258492262545,0.2998287081718445,22.795862197875977,-0.02542426437139511,-14.108003616333008,-0.08818584680557251,-2.1133456230163574,0.42605918645858765,0
54,0.2642366886138916,-0.2998287081718445,-22.795862197875977,0.02542426437139511,14.108003616333008,0.08818584680557251,2.1133456230163574,-0.42605918645858765,0.0,0.0,0.0,0.0,0.0,0.0,0.0,-0.2910611258616281,-0.014856864252277408,-0.0519235115005329,0.25844544397923036,-0.1477916549182706,-0.06381988730920819,-0.42304834420113757,1.6755148495418932,0.05230097294558994,0.029917237105482657,-2.7524853966696234,0.03444725256637985,2.7663522027863396,0.7691996831827692,1.6754973547542302,0.052104326824870026,0.029969505109285054,-2.752394845125968,0.0342448039870148,2.7663679543071322,0.7691630533470046,0.0002087904538537291,-0.0005128045518841208,0.00041554072339485,0.0001479308469721869,-6.538177137294037e-05,0.0004107326074852013,-0.00018860258492262545,0.0,0.0,0.0,0.0,0.0,0.0,0.0,-1.749478766299717e-05,-0.00019664612071991494,5.2268003802397045e-05,9.055154365533724e-05,-0.0002024485793650499,1.5751520792584017e-05,-3.66298357645789e-05,-0.0002087904538537291,0.0005128045518841208,-0.00041554072339485,-0.0001479308469721869,6.538177137294037e-05,-0.0004107326074852013,0.00018860258492262545,0.2998287081718445,22.795862197875977,-0.02542426437139511,-14.108003616333008,-0.08818584680557251,-2.1133456230163574,0.42605918645858765,0
55,0.2692148685455322,-0.2998287081718445,-22.795862197875977,0.02542426437139511,14.108003616333008,0.08818584680557251,2.1133456230163574,-0.42605918645858765,0.0,0.0,0.0,0.0,0.0,0.0,0.0,-0.2910611258616281,-0.014856864252277408,-0.0519235115005329,0.25844544397923036,-0.1477916549182706,-0.06381988730920819,-0.42304834420113757,1.6755148495418932,0.05230097294558994,0.029917237105482657,-2.7524853966696234,0.03444725256637985,2.7663522027863396,0.7691996831827692,1.6754973547542302,0.052104326824870026,0.029969505109285054,-2.752394845125968,0.0342448039870148,2.7663679543071322,0.7691630533470046,0.0002087904538537291,-0.0005128045518841208,0.00041554072339485,0.0001479308469721869,-6.538177137294037e-05,0.0004107326074852013,-0.00018860258492262545,0.0,0.0,0.0,0.0,0.0,0.0,0.0,-1.749478766299717e-05,-0.00019664612071991494,5.2268003802397045e-05,9.055154365533724e-05,-0.0002024485793650499,1.5751520792584017e-05,-3.66298357645789e-05,-0.0002087904538537291,0.0005128045518841208,-0.00041554072339485,-0.0001479308469721869,6.538177137294037e-05,-0.0004107326074852013,0.00018860258492262545,0.2998287081718445,22.795862197875977,-0.02542426437139511,-14.108003616333008,-0.08818584680557251,-2.1133456230163574,0.42605918645858765,0
56,0.2742490768432617,-0.2998287081718445,-22.847436904907227,0.02542426437139511,14.131807327270508,0.08177715539932251,2.1261630058288574,-0.39950889348983765,0.0,0.0,0.0,0.0,0.0,0.0,0.0,-0.28523978837320285,-0.01741918289144519,-0.048846754415226463,0.2600252133857366,-0.14811209480580384,-0.06311572160916565,-0.42305198122912274,1.6755148770138377,0.05230459319760375,0.02991723963004481,-2.7524870671054775,0.03445116720092724,2.766350778632694,0.7691967331502172,1.6754973547542302,0.052104326824870026,0.029969505109285054,-2.752394845125968,0.0342448039870148,2.7663679543071322,0.7691630533470046,0.0008122596882875934,0.0006947941534447335,0.0006053979344551909,-0.0002802271518112873,-2.0559640149430526e-06,-0.0002335952782598133,-0.00012097441936686258,0.0,0.0,0.0,0.0,0.0,0.0,0.0,-1.7522259607494206e-05,-0.00020026637273372339,5.226547924024397e-05,9.222197950942146e-05,-0.00020636321391243745,1.71756744382634e-05,-3.36798032125607e-05,-0.0008122596882875934,-0.0006947941534447335,-0.0006053979344551909,0.0002802271518112873,2.0559640149430526e-06,0.0002335952782598133,0.00012097441936686258,0.2998287081718445,22.847436904907227,-0.02542426437139511,-14.131807327270508,-0.08177715539932251,-2.1261630058288574,0.39950889348983765,0
57,0.27921199798583984,-0.2998287081718445,-22.847436904907227,0.02542426437139511,14.131807327270508,0.08177715539932251,2.1261630058288574,-0.39950889348983765,0.0,0.0,0.0,0.0,0.0,0.0,0.0,-0.28523978837320285,-0.01741918289144519,-0.048846754415226463,0.2600252133857366,-0.14811209480580384,-0.06311572160916565,-0.42305198122912274,1.6755148770138377,0.05230459319760375,0.02991723963004481,-2.7524870671054775,0.03445116720092724,2.766350778632694,0.7691967331502172,1.6754973547542302,0.052104326824870026,0.029969505109285054,-2.752394845125968,0.0342448039870148,2.7663679543071322,0.7691630533470046,0.0008122596882875934,0.0006947941534447335,0.0006053979344551909,-0.0002802271518112873,-2.0559640149430526e-06,-0.0002335952782598133,-0.00012097441936686258,0.0,0.0,0.0,0.0,0.0,0.0,0.0,-1.7522259607494206e-05,-0.00020026637273372339,5.226547924024397e-05,9.222197950942146e-05,-0.00020636321391243745,1.71756744382634e-05,-3.36798032125607e-05,-0.0008122596882875934,-0.0006947941534447335,-0.0006053979344551909,0.0002802271518112873,2.0559640149430526e-06,0.0002335952782598133,0.00012097441936686258,0.2998287081718445,22.847436904907227,-0.02542426437139511,-14.131807327270508,-0.08177715539932251,-2.1261630058288574,0.39950889348983765,0
58,0.2842750549316406,-0.2720577120780945,-22.819665908813477,0.02542426437139511,14.131807327270508,0.08818584680557251,2.1261630058288574,-0.39950889348983765,0.0,0.0,0.0,0.0,0.0,0.0,0.0,-0.2851301117149626,-0.020408251519954554,-0.050385363047433906,0.26170969303892194,-0.14799274521921357,-0.06305014619416426,-0.4219719159630378,1.6755129281721615,0.052302641432779406,0.029917245472649696,-2.7524870671054775,0.034447646808579466,2.766350778632694,0.7691967331502172,1.6754973547542302,0.052104326824870026,0.029969505109285054,-2.752394845125968,0.0342448039870148,2.7663679543071322,0.7691630533470046,-2.8554337494966554e-06,-0.0001225556793021214,0.0001578924256447204,7.33856997463062e-05,-0.00019144678966585957,-0.00013754125192419676,-0.0008721700763970717,0.0,0.0,0.0,0.0,0.0,0.0,0.0,-1.5573417931236122e-05,-0.0001983146079093806,5.225963663535796e-05,9.222197950942146e-05,-0.0002028428215646652,1.71756744382634e-05,-3.36798032125607e-05,2.8554337494966554e-06,0.0001225556793021214,-0.0001578924256447204,-7.33856997463062e-05,0.00019144678966585957,0.00013754125192419676,0.0008721700763970717,0.2720577120780945,22.819665908813477,-0.02542426437139511,-14.131807327270508,-0.08818584680557251,-2.1261630058288574,0.39950889348983765,0
59,0.28928303718566895,-0.2720577120780945,-22.819665908813477,0.02542426437139511,14.131807327270508,0.08818584680557251,2.1261630058288574,-0.39950889348983765,0.0,0.0,0.0,0.0,0.0,0.0,0.0,-0.2851301117149626,-0.020408251519954554,-0.050385363047433906,0.26170969303892194,-0.14799274521921357,-0.06305014619416426,-0.4219719159630378,1.6755129281721615,0.052302641432779406,0.029917245472649696,-2.7524870671054775,0.034447646808579466,2.766350778632694,0.7691967331502172,1.6754973547542302,0.052104326824870026,0.029969505109285054,-2.752394845125968,0.0342448039870148,2.7663679543071322,0.7691630533470046,-2.8554337494966554e-06,-0.0001225556793021214,0.0001578924256447204,7.33856997463062e-05,-0.00019144678966585957,-0.00013754125192419676,-0.0008721700763970717,0.0,0.0,0.0,0.0,0.0,0.0,0.0,-1.5573417931236122e-05,-0.0001983146079093806,5.225963663535796e-05,9.222197950942146e-05,-0.0002028428215646652,1.71756744382634e-05,-3.36798032125607e-05,2.8554337494966554e-06,0.0001225556793021214,-0.0001578924256447204,-7.33856997463062e-05,0.00019144678966585957,0.00013754125192419676,0.0008721700763970717,0.2720577120780945,22.819665908813477,-0.02542426437139511,-14.131807327270508,-0.08818584680557251,-2.1261630058288574,0.39950889348983765,0
60,0.29424357414245605,-0.2998287081718445,-22.772058486938477,0.001620553433895111,14.131807327270508,0.08818584680557251,2.1261630058288574,-0.39218467473983765,0.0,0.0,0.0,0.0,0.0,0.0,0.0,-0.28349260207296517,-0.01780618800526017,-0.04947160256202486,0.25953917845920027,-0.14783759578719274,-0.06380979555888659,-0.4228231892135869,1.6755148770139927,0.05229930348405108,0.02991917002516529,-2.7524870906529912,0.03445044241575634,2.766350778632694,0.7691959193481338,1.6754973547542302,0.052104326824870026,0.029969505109285054,-2.752394845125968,0.0342448039870148,2.7663679543071322,0.7691630533470046,0.00039270915472144484,-0.0007984588206254081,0.0008645826450866666,-0.00028575507948659656,-0.0001225296676672849,-0.00021595640554603618,-0.0013725362334270478,0.0,0.0,0.0,0.0,0.0,0.0,0.0,-1.752225976248134e-05,-0.00019497665918105644,5.033508411976528e-05,9.224552702313815e-05,-0.00020563842874153637,1.71756744382634e-05,-3.2866001129172595e-05,-0.00039270915472144484,0.0007984588206254081,-0.0008645826450866666,0.00028575507948659656,0.0001225296676672849,0.00021595640554603618,0.0013725362334270478,0.2998287081718445,22.772058486938477,-0.001620553433895111,-14.131807327270508,-0.08818584680557251,-2.1261630058288574,0.39218467473983765,0
61,0.2992057800292969,-0.2998287081718445,-22.772058486938477,0.001620553433895111,14.131807327270508,0.08818584680557251,2.1261630058288574,-0.39218467473983765,0.0,0.0,0.0,0.0,0.0,0.0,0.0,-0.28349260207296517,-0.01780618800526017,-0.04947160256202486,0.25953917845920027,-0.14783759578719274,-0.06380979555888659,-0.4228231892135869,1.6755148770139927,0.05229930348405108,0.02991917002516529,-2.7524870906529912,0.03445044241575634,2.766350778632694,0.7691959193481338,1.6754973547542302,0.052104326824870026,0.029969505109285054,-2.752394845125968,0.0342448039870148,2.7663679543071322,0.7691630533470046,0.00039270915472144484,-0.0007984588206254081,0.0008645826450866666,-0.00028575507948659656,-0.0001225296676672849,-0.00021595640554603618,-0.0013725362334270478,0.0,0.0,0.0,0.0,0.0,0.0,0.0,-1.752225976248134e-05,-0.00019497665918105644,5.033508411976528e-05,9.224552702313815e-05,-0.00020563842874153637,1.71756744382634e-05,-3.2866001129172595e-05,-0.00039270915472144484,0.0007984588206254081,-0.0008645826450866666,0.00028575507948659656,0.0001225296676672849,0.00021595640554603618,0.0013725362334270478,0.2998287081718445,22.772058486938477,-0.001620553433895111,-14.131807327270508,-0.08818584680557251,-2.1261630058288574,0.39218467473983765,0
62,0.3042263984680176,-0.2720577120780945,-22.847436904907227,0.02542426437139511,14.155611038208008,0.08177715539932251,2.1325716972351074,-0.44711631536483765,0.0,0.0,0.0,0.0,0.0,0.0,0.0,-0.28543544253082387,-0.020664591936442246,-0.04700547525804163,0.25850861762478367,-0.14803673498372782,-0.0637218523926693,-0.4236979462906869,1.6755129281721615,0.052304356434714726,0.029917236998754215,-2.7524887375414653,0.03444836764751322,2.766350066555871,0.7691988439493709,1.6754973547542302,0.052104326824870026,0.029969505109285054,-2.752394845125968,0.0342448039870148,2.7663679543071322,0.7691630533470046,-0.0008035109608306583,0.0005389433854898604,0.0005858081724382968,-0.001074569494125302,0.00010661099923070428,-0.0003688033973892207,0.0006508156425632901,0.0,0.0,0.0,0.0,0.0,0.0,0.0,-1.5573417931236122e-05,-0.00020002960984469992,5.22681105308391e-05,9.389241549717653e-05,-0.00020356366049841673,1.788775126110309e-05,-3.579060236624798e-05,0.0008035109608306583,-0.0005389433854898604,-0.0005858081724382968,0.001074569494125302,-0.00010661099923070428,0.0003688033973892207,-0.0006508156425632901,0.2720577120780945,22.847436904907227,-0.02542426437139511,-14.155611038208008,-0.08177715539932251,-2.1325716972351074,0.44711631536483765,0
63,0.30921268463134766,-0.2720577120780945,-22.847436904907227,0.02542426437139511,14.155611038208008,0.08177715539932251,2.1325716972351074,-0.44711631536483765,0.0,0.0,0.0,0.0,0.0,0.0,0.0,-0.28543544253082387,-0.020664591936442246,-0.04700547525804163,0.25850861762478367,-0.14803673498372782,-0.0637218523926693,-0.4236979462906869,1.6755129281721615,0.052304356434714726,0.029917236998754215,-2.7524887375414653,0.03444836764751322,2.766350066555871,0.7691988439493709,1.6754973547542302,0.052104326824870026,0.029969505109285054,-2.752394845125968,0.0342448039870148,2.7663679543071322,0.7691630533470046,-0.0008035109608306583,0.0005389433854898604,0.0005858081724382968,-0.001074569494125302,0.00010661099923070428,-0.0003688033973892207,0.0006508156425632901,0.0,0.0,0.0,0.0,0.0,0.0,0.0,-1.5573417931236122e-05,-0.00020002960984469992,5.22681105308391e-05,9.389241549717653e-05,-0.00020356366049841673,1.788775126110309e-05,-3.579060236624798e-05,0.0008035109608306583,-0.0005389433854898604,-0.0005858081724382968,0.001074569494125302,-0.00010661099923070428,0.0003688033973892207,-0.0006508156425632901,0.2720577120780945,22.847436904907227,-0.02542426437139511,-14.155611038208008,-0.08177715539932251,-2.1325716972351074,0.44711631536483765,0
64,0.3142063617706299,-0.2998287081718445,-22.819665908813477,0.02542426437139511,14.131807327270508,0.08177715539932251,2.1133456230163574,-0.41965049505233765,0.0,0.0,0.0,0.0,0.0,0.0,0.0,-0.28969111834394273,-0.01557875760541745,-0.04766455910242881,0.2576915496783659,-0.1477842140613881,-0.06381967947268631,-0.4246372626689162,1.6755148770139927,0.05230264424618236,0.02991726296434138,-2.7524870671054775,0.03444908191192404,2.7663522027863396,0.7691989710880013,1.6754973547542302,0.052104326824870026,0.029969505109285054,-2.752394845125968,0.0342448039870148,2.7663679543071322,0.7691630533470046,0.00022799539705503988,0.0003582493463976934,0.00010329453251608731,-5.721400100746059e-05,0.00011749875006478557,9.90504447986759e-05,-0.00031240741292125893,0.0,0.0,0.0,0.0,0.0,0.0,0.0,-1.752225976248134e-05,-0.00019831742131233565,5.22421449436726e-05,9.222197950942146e-05,-0.00020427792490924218,1.5751520792584017e-05,-3.591774099664935e-05,-0.00022799539705503988,-0.0003582493463976934,-0.00010329453251608731,5.721400100746059e-05,-0.00011749875006478557,-9.90504447986759e-05,0.00031240741292125893,0.2998287081718445,22.819665908813477,-0.02542426437139511,-14.131807327270508,-0.08177715539932251,-2.1133456230163574,0.41965049505233765,0
65,0.3192112445831299,-0.2998287081718445,-22.819665908813477,0.02542426437139511,14.131807327270508,0.08177715539932251,2.1133456230163574,-0.41965049505233765,0.0,0.0,0.0,0.0,0.0,0.0,0.0,-0.28969111834394273,-0.01557875760541745,-0.04766455910242881,0.2576915496783659,-0.1477842140613881,-0.06381967947268631,-0.4246372626689162,1.6755148770139927,0.05230264424618236,0.02991726296434138,-2.7524870671054775,0.03444908191192404,2.7663522027863396,0.7691989710880013,1.6754973547542302,0.052104326824870026,0.029969505109285054,-2.752394845125968,0.0342448039870148,2.7663679543071322,0.7691630533470046,0.00022799539705503988,0.0003582493463976934,0.00010329453251608731,-5.721400100746059e-05,0.00011749875006478557,9.90504447986759e-05,-0.00031240741292125893,0.0,0.0,0.0,0.0,0.0,0.0,0.0,-1.752225976248134e-05,-0.00019831742131233565,5.22421449436726e-05,9.222197950942146e-05,-0.00020427792490924218,1.5751520792584017e-05,-3.591774099664935e-05,-0.00022799539705503988,-0.0003582493463976934,-0.00010329453251608731,5.721400100746059e-05,-0.00011749875006478557,-9.90504447986759e-05,0.00031240741292125893,0.2998287081718445,22.819665908813477,-0.02542426437139511,-14.131807327270508,-0.08177715539932251,-2.1133456230163574,0.41965049505233765,0
66,0.32425642013549805,-0.2998287081718445,-22.819665908813477,0.001620553433895111,14.131807327270508,0.07628399133682251,2.1197543144226074,-0.43338340520858765,0.0,0.0,0.0,0.0,0.0,0.0,0.0,-0.2884401349591357,-0.020329567109634246,-0.044928041113790555,0.2624086642147081,-0.14826173468580953,-0.06348868525696015,-0.424967814146337,1.6755148770139927,0.05230264143277879,0.029918933508539344,-2.7524870671054775,0.034449649754706824,2.766351490709517,0.7692004969848525,1.6754973547542302,0.052104326824870026,0.029969505109285054,-2.752394845125968,0.0342448039870148,2.7663679543071322,0.7691630533470046,8.909640541514463e-05,-4.2115465836683436e-05,0.0011625887476515238,0.00035383715935748215,0.0004846640775315215,0.00011348352656832899,0.0003068751978471326,0.0,0.0,0.0,0.0,0.0,0.0,0.0,-1.752225976248134e-05,-0.00019831460790876304,5.057160074570938e-05,9.222197950942146e-05,-0.00020484576769202317,1.646359761542371e-05,-3.744363784785598e-05,-8.909640541514463e-05,4.2115465836683436e-05,-0.0011625887476515238,-0.00035383715935748215,-0.0004846640775315215,-0.00011348352656832899,-0.0003068751978471326,0.2998287081718445,22.819665908813477,-0.001620553433895111,-14.131807327270508,-0.07628399133682251,-2.1197543144226074,0.43338340520858765,0
67,0.3292410373687744,-0.2998287081718445,-22.819665908813477,0.001620553433895111,14.131807327270508,0.07628399133682251,2.1197543144226074,-0.43338340520858765,0.0,0.0,0.0,0.0,0.0,0.0,0.0,-0.2884401349591357,-0.020329567109634246,-0.044928041113790555,0.2624086642147081,-0.14826173468580953,-0.06348868525696015,-0.424967814146337,1.6755148770139927,0.05230264143277879,0.029918933508539344,-2.7524870671054775,0.034449649754706824,2.766351490709517,0.7692004969848525,1.6754973547542302,0.052104326824870026,0.029969505109285054,-2.752394845125968,0.0342448039870148,2.7663679543071322,0.7691630533470046,8.909640541514463e-05,-4.2115465836683436e-05,0.0011625887476515238,0.00035383715935748215,0.0004846640775315215,0.00011348352656832899,0.0003068751978471326,0.0,0.0,0.0,0.0,0.0,0.0,0.0,-1.752225976248134e-05,-0.00019831460790876304,5.057160074570938e-05,9.222197950942146e-05,-0.00020484576769202317,1.646359761542371e-05,-3.744363784785598e-05,-8.909640541514463e-05,4.2115465836683436e-05,-0.0011625887476515238,-0.00035383715935748215,-0.0004846640775315215,-0.00011348352656832899,-0.0003068751978471326,0.2998287081718445,22.819665908813477,-0.001620553433895111,-14.131807327270508,-0.07628399133682251,-2.1197543144226074,0.43338340520858765,0
68,0.33426618576049805,-0.2720577120780945,-22.795862197875977,0.02542426437139511,14.155611038208008,0.08818584680557251,2.1197543144226074,-0.43979209661483765,0.0,0.0,0.0,0.0,0.0,0.0,0.0,-0.2897216421518555,-0.01805084644225625,-0.045489642265134335,0.2590837378504316,-0.14825866504753016,-0.06433167212567165,-0.4250543645001162,1.6755129281721615,0.0523008949989415,0.029917946583658504,-2.7524887375413325,0.03444736640672553,2.766351490709517,0.7692012090616754,1.6754973547542302,0.052104326824870026,0.029969505109285054,-2.752394845125968,0.0342448039870148,2.7663679543071322,0.7691630533470046,-0.0005393130064744357,-0.00047430841803302714,0.000198903250726832,-0.0009949533949499662,-0.00010790377395166414,-6.538278595415895e-05,0.0007434765021995229,0.0,0.0,0.0,0.0,0.0,0.0,0.0,-1.5573417931236122e-05,-0.00019656817407147364,5.155852562654939e-05,9.389241536439386e-05,-0.00020256241971072786,1.646359761542371e-05,-3.8155714670806695e-05,0.0005393130064744357,0.00047430841803302714,-0.000198903250726832,0.0009949533949499662,0.00010790377395166414,6.538278595415895e-05,-0.0007434765021995229,0.2720577120780945,22.795862197875977,-0.02542426437139511,-14.155611038208008,-0.08818584680557251,-2.1197543144226074,0.43979209661483765,0
69,0.33921122550964355,-0.2720577120780945,-22.795862197875977,0.02542426437139511,14.155611038208008,0.08818584680557251,2.1197543144226074,-0.43979209661483765,0.0,0.0,0.0,0.0,0.0,0.0,0.0,-0.2897216421518555,-0.01805084644225625,-0.045489642265134335,0.2590837378504316,-0.14825866504753016,-0.06433167212567165,-0.4250543645001162,1.6755129281721615,0.0523008949989415,0.029917946583658504,-2.7524887375413325,0.03444736640672553,2.766351490709517,0.7692012090616754,1.6754973547542302,0.052104326824870026,0.029969505109285054,-2.752394845125968,0.0342448039870148,2.7663679543071322,0.7691630533470046,-0.0005393130064744357,-0.00047430841803302714,0.000198903250726832,-0.0009949533949499662,-0.00010790377395166414,-6.538278595415895e-05,0.0007434765021995229,0.0,0.0,0.0,0.0,0.0,0.0,0.0,-1.5573417931236122e-05,-0.00019656817407147364,5.155852562654939e-05,9.389241536439386e-05,-0.00020256241971072786,1.646359761542371e-05,-3.8155714670806695e-05,0.0005393130064744357,0.00047430841803302714,-0.000198903250726832,0.0009949533949499662,0.00010790377395166414,6.538278595415895e-05,-0.0007434765021995229,0.2720577120780945,22.795862197875977,-0.02542426437139511,-14.155611038208008,-0.08818584680557251,-2.1197543144226074,0.43979209661483765,0
70,0.3442041873931885,-0.2998287081718445,-22.819665908813477,0.001620553433895111,14.131807327270508,0.08177715539932251,2.1197543144226074,-0.42605918645858765,0.0,0.0,0.0,0.0,0.0,0.0,0.0,-0.29094663678783955,-0.021621879416184285,-0.04762462921987707,0.2668170978316013,-0.14813188599707805,-0.06368889558920394,-0.42345747681666296,1.6755148770139927,0.05230240759243807,0.029918910033839723,-2.7524870671054775,0.034449157686944724,2.766351491218259,0.7691996831827692,1.6754973547542302,0.052104326824870026,0.029969505109285054,-2.752394845125968,0.0342448039870148,2.7663679543071322,0.7691630533470046,0.0001435645591483394,-0.0003012023194246129,0.0007367568276754638,0.00023217857947835973,9.182338045938491e-05,0.00021685429016456704,0.0004916868265153402,0.0,0.0,0.0,0.0,0.0,0.0,0.0,-1.752225976248134e-05,-0.0001980807675680471,5.059507544533104e-05,9.222197950942146e-05,-0.00020435369992992392,1.6463088873042153e-05,-3.66298357645789e-05,-0.0001435645591483394,0.0003012023194246129,-0.0007367568276754638,-0.00023217857947835973,-9.182338045938491e-05,-0.00021685429016456704,-0.0004916868265153402,0.2998287081718445,22.819665908813477,-0.001620553433895111,-14.131807327270508,-0.08177715539932251,-2.1197543144226074,0.42605918645858765,0
71,0.34920620918273926,-0.2998287081718445,-22.819665908813477,0.001620553433895111,14.131807327270508,0.08177715539932251,2.1197543144226074,-0.42605918645858765,0.0,0.0,0.0,0.0,0.0,0.0,0.0,-0.29094663678783955,-0.021621879416184285,-0.04762462921987707,0.2668170978316013,-0.14813188599707805,-0.06368889558920394,-0.42345747681666296,1.6755148770139927,0.05230240759243807,0.029918910033839723,-2.7524870671054775,0.034449157686944724,2.766351491218259,0.7691996831827692,1.6754973547542302,0.052104326824870026,0.029969505109285054,-2.752394845125968,0.0342448039870148,2.7663679543071322,0.7691630533470046,0.0001435645591483394,-0.0003012023194246129,0.0007367568276754638,0.00023217857947835973,9.182338045938491e-05,0.00021685429016456704,0.0004916868265153402,0.0,0.0,0.0,0.0,0.0,0.0,0.0,-1.752225976248134e-05,-0.0001980807675680471,5.059507544533104e-05,9.222197950942146e-05,-0.00020435369992992392,1.6463088873042153e-05,-3.66298357645789e-05,-0.0001435645591483394,0.0003012023194246129,-0.0007367568276754638,-0.00023217857947835973,-9.182338045938491e-05,-0.00021685429016456704,-0.0004916868265153402,0.2998287081718445,22.819665908813477,-0.001620553433895111,-14.131807327270508,-0.08177715539932251,-2.1197543144226074,0.42605918645858765,0
72,0.3542189598083496,-0.2720577120780945,-22.819665908813477,0.001620553433895111,14.155611038208008,0.09367901086807251,2.1261630058288574,-0.41965049505233765,0.0,0.0,0.0,0.0,0.0,0.0,0.0,-0.29094026286789404,-0.02171591939371038,-0.04915569413103062,0.2682707873114562,-0.14811282143206675,-0.06353709766813627,-0.4212987894598431,1.6755129281721615,0.05230264435444157,0.02991914373347426,-2.7524887375413325,0.0344471109242251,2.7663507786326966,0.7691989711059464,1.6754973547542302,0.052104326824870026,0.029969505109285054,-2.752394845125968,0.0342448039870148,2.7663679543071322,0.7691630533470046,-0.0006062200905488207,-0.0004603727730490483,0.0006207477198140253,-0.0005101100809739601,-0.00023917776727506212,-0.00013717732736144068,0.0005297991604702198,0.0,0.0,0.0,0.0,0.0,0.0,0.0,-1.5573417931236122e-05,-0.0001983175295715428,5.0361375810794445e-05,9.389241536439386e-05,-0.00020230693721030174,1.7175674435598864e-05,-3.591775894173921e-05,0.0006062200905488207,0.0004603727730490483,-0.0006207477198140253,0.0005101100809739601,0.00023917776727506212,0.00013717732736144068,-0.0005297991604702198,0.2720577120780945,22.819665908813477,-0.001620553433895111,-14.155611038208008,-0.09367901086807251,-2.1261630058288574,0.41965049505233765,0
73,0.3592526912689209,-0.2720577120780945,-22.819665908813477,0.001620553433895111,14.155611038208008,0.09367901086807251,2.1261630058288574,-0.41965049505233765,0.0,0.0,0.0,0.0,0.0,0.0,0.0,-0.29094026286789404,-0.02171591939371038,-0.04915569413103062,0.2682707873114562,-0.14811282143206675,-0.06353709766813627,-0.4212987894598431,1.6755129281721615,0.05230264435444157,0.02991914373347426,-2.7524887375413325,0.0344471109242251,2.7663507786326966,0.7691989711059464,1.6754973547542302,0.052104326824870026,0.029969505109285054,-2.752394845125968,0.0342448039870148,2.7663679543071322,0.7691630533470046,-0.0006062200905488207,-0.0004603727730490483,0.0006207477198140253,-0.0005101100809739601,-0.00023917776727506212,-0.00013717732736144068,0.0005297991604702198,0.0,0.0,0.0,0.0,0.0,0.0,0.0,-1.5573417931236122e-05,-0.0001983175295715428,5.0361375810794445e-05,9.389241536439386e-05,-0.00020230693721030174,1.7175674435598864e-05,-3.591775894173921e-05,0.0006062200905488207,0.0004603727730490483,-0.0006207477198140253,0.0005101100809739601,0.00023917776727506212,0.00013717732736144068,-0.0005297991604702198,0.2720577120780945,22.819665908813477,-0.001620553433895111,-14.155611038208008,-0.09367901086807251,-2.1261630058288574,0.41965049505233765,0
74,0.36422181129455566,-0.2720577120780945,-22.795862197875977,0.02542426437139511,14.155611038208008,0.08818584680557251,2.1197543144226074,-0.40591758489608765,0.0,0.0,0.0,0.0,0.0,0.0,0.0,-0.286974115702549,-0.021689167323292027,-0.047692979516571636,0.2678811360730932,-0.14773446654354433,-0.06342046290729533,-0.4194056459999453,1.6755129252287224,0.05230097391992283,0.029917315657187152,-2.7524887375413325,0.03444724860062749,2.766351490709517,0.76919744522704,1.6754973547542302,0.052104326824870026,0.029969505109285054,-2.752394845125968,0.0342448039870148,2.7663679543071322,0.7691630533470046,-0.0006008931798328241,-0.0007887290434419569,0.0004950953377085736,-0.0005029630232762706,-0.00018673334897732156,0.00016954856414400435,-0.0004867894460772851,0.0,0.0,0.0,0.0,0.0,0.0,0.0,-1.557047449218807e-05,-0.00019664709505280709,5.218945209790188e-05,9.389241536439386e-05,-0.00020244461361269145,1.646359761542371e-05,-3.439188003540039e-05,0.0006008931798328241,0.0007887290434419569,-0.0004950953377085736,0.0005029630232762706,0.00018673334897732156,-0.00016954856414400435,0.0004867894460772851,0.2720577120780945,22.795862197875977,-0.02542426437139511,-14.155611038208008,-0.08818584680557251,-2.1197543144226074,0.40591758489608765,0
75,0.36922717094421387,-0.2720577120780945,-22.795862197875977,0.02542426437139511,14.155611038208008,0.08818584680557251,2.1197543144226074,-0.40591758489608765,0.0,0.0,0.0,0.0,0.0,0.0,0.0,-0.286974115702549,-0.021689167323292027,-0.047692979516571636,0.2678811360730932,-0.14773446654354433,-0.06342046290729533,-0.4194056459999453,1.6755129252287224,0.05230097391992283,0.029917315657187152,-2.7524887375413325,0.03444724860062749,2.766351490709517,0.76919744522704,1.6754973547542302,0.052104326824870026,0.029969505109285054,-2.752394845125968,0.0342448039870148,2.7663679543071322,0.7691630533470046,-0.0006008931798328241,-0.0007887290434419569,0.0004950953377085736,-0.0005029630232762706,-0.00018673334897732156,0.00016954856414400435,-0.0004867894460772851,0.0,0.0,0.0,0.0,0.0,0.0,0.0,-1.557047449218807e-05,-0.00019664709505280709,5.218945209790188e-05,9.389241536439386e-05,-0.00020244461361269145,1.646359761542371e-05,-3.439188003540039e-05,0.0006008931798328241,0.0007887290434419569,-0.0004950953377085736,0.0005029630232762706,0.00018673334897732156,-0.00016954856414400435,0.0004867894460772851,0.2720577120780945,22.795862197875977,-0.02542426437139511,-14.155611038208008,-0.08818584680557251,-2.1197543144226074,0.40591758489608765,0
76,0.37422871589660645,-0.2720577120780945,-22.795862197875977,0.04922797530889511,14.108003616333008,0.08818584680557251,2.1261630058288574,-0.41965049505233765,0.0,0.0,0.0,0.0,0.0,0.0,0.0,-0.28838455176105604,-0.015236394685149235,-0.048989569216845066,0.2631568019974783,-0.14710240257902749,-0.06399348474054034,-0.419222793429731,1.675512928172145,0.052300947612934565,0.029916306334818375,-2.752485396669622,0.034447366400636094,2.766350778632694,0.7691989711059464,1.6754973547542302,0.052104326824870026,0.029969505109285054,-2.752394845125968,0.0342448039870148,2.7663679543071322,0.7691630533470046,-0.00043205012357727576,-0.00024204052646572844,-0.0003537725239175683,0.0002571029949407981,-5.6553908289015945e-05,-0.0001298938649028523,-0.00021277699651686197,0.0,0.0,0.0,0.0,0.0,0.0,0.0,-1.557341791480482e-05,-0.00019662078806453875,5.3198774466679116e-05,9.055154365400497e-05,-0.00020256241362129335,1.71756744382634e-05,-3.591775894173921e-05,0.00043205012357727576,0.00024204052646572844,0.0003537725239175683,-0.0002571029949407981,5.6553908289015945e-05,0.0001298938649028523,0.00021277699651686197,0.2720577120780945,22.795862197875977,-0.04922797530889511,-14.108003616333008,-0.08818584680557251,-2.1261630058288574,0.41965049505233765,0
77,0.37925004959106445,-0.2720577120780945,-22.795862197875977,0.04922797530889511,14.108003616333008,0.08818584680557251,2.1261630058288574,-0.41965049505233765,0.0,0.0,0.0,0.0,0.0,0.0,0.0,-0.28838455176105604,-0.015236394685149235,-0.048989569216845066,0.2631568019974783,-0.14710240257902749,-0.06399348474054034,-0.419222793429731,1.675512928172145,0.052300947612934565,0.029916306334818375,-2.752485396669622,0.034447366400636094,2.766350778632694,0.7691989711059464,1.6754973547542302,0.052104326824870026,0.029969505109285054,-2.752394845125968,0.0342448039870148,2.7663679543071322,0.7691630533470046,-0.00043205012357727576,-0.00024204052646572844,-0.0003537725239175683,0.0002571029949407981,-5.6553908289015945e-05,-0.0001298938649028523,-0.00021277699651686197,0.0,0.0,0.0,0.0,0.0,0.0,0.0,-1.557341791480482e-05,-0.00019662078806453875,5.3198774466679116e-05,9.055154365400497e-05,-0.00020256241362129335,1.71756744382634e-05,-3.591775894173921e-05,0.00043205012357727576,0.00024204052646572844,0.0003537725239175683,-0.0002571029949407981,5.6553908289015945e-05,0.0001298938649028523,0.00021277699651686197,0.2720577120780945,22.795862197875977,-0.04922797530889511,-14.108003616333008,-0.08818584680557251,-2.1261630058288574,0.41965049505233765,0
78,0.384218692779541,-0.2720577120780945,-22.795862197875977,0.04922797530889511,14.108003616333008,0.08818584680557251,2.1261630058288574,-0.41965049505233765,0.0,0.0,0.0,0.0,0.0,0.0,0.0,-0.28838455176105604,-0.015236394685149235,-0.048989569216845066,0.2631568019974783,-0.14710240257902749,-0.06399348474054034,-0.419222793429731,1.675512928172145,0.052300947612934565,0.029916306334818375,-2.752485396669622,0.034447366400636094,2.766350778632694,0.7691989711059464,1.6754973547542302,0.052104326824870026,0.029969505109285054,-2.752394845125968,0.0342448039870148,2.7663679543071322,0.7691630533470046,-0.00043205012357727576,-0.00024204052646572844,-0.0003537725239175683,0.0002571029949407981,-5.6553908289015945e-05,-0.0001298938649028523,-0.00021277699651686197,0.0,0.0,0.0,0.0,0.0,0.0,0.0,-1.557341791480482e-05,-0.00019662078806453875,5.3198774466679116e-05,9.055154365400497e-05,-0.00020256241362129335,1.71756744382634e-05,-3.591775894173921e-05,0.00043205012357727576,0.00024204052646572844,0.0003537725239175683,-0.0002571029949407981,5.6553908289015945e-05,0.0001298938649028523,0.00021277699651686197,0.2720577120780945,22.795862197875977,-0.04922797530889511,-14.108003616333008,-0.08818584680557251,-2.1261630058288574,0.41965049505233765,0
79,0.3892092704772949,-0.2720577120780945,-22.795862197875977,0.04922797530889511,14.108003616333008,0.08818584680557251,2.1261630058288574,-0.41965049505233765,0.0,0.0,0.0,0.0,0.0,0.0,0.0,-0.28838455176105604,-0.015236394685149235,-0.048989569216845066,0.2631568019974783,-0.14710240257902749,-0.06399348474054034,-0.419222793429731,1.675512928172145,0.052300947612934565,0.029916306334818375,-2.752485396669622,0.034447366400636094,2.766350778632694,0.7691989711059464,1.6754973547542302,0.052104326824870026,0.029969505109285054,-2.752394845125968,0.0342448039870148,2.7663679543071322,0.7691630533470046,-0.00043205012357727576,-0.00024204052646572844,-0.0003537725239175683,0.0002571029949407981,-5.6553908289015945e-05,-0.0001298938649028523,-0.00021277699651686197,0.0,0.0,0.0,0.0,0.0,0.0,0.0,-1.557341791480482e-05,-0.00019662078806453875,5.3198774466679116e-05,9.055154365400497e-05,-0.00020256241362129335,1.71756744382634e-05,-3.591775894173921e-05,0.00043205012357727576,0.00024204052646572844,0.0003537725239175683,-0.0002571029949407981,5.6553908289015945e-05,0.0001298938649028523,0.00021277699651686197,0.2720577120780945,22.795862197875977,-0.04922797530889511,-14.108003616333008,-0.08818584680557251,-2.1261630058288574,0.41965049505233765,0
