rezayati/contactInterpretation/dataset/franka_main/labeled_data/link6/b2_4.csv
index,time,tau_J0,tau_J1,tau_J2,tau_J3,tau_J4,tau_J5,tau_J6,tau_J_d0,tau_J_d1,tau_J_d2,tau_J_d3,tau_J_d4,tau_J_d5,tau_J_d6,tau_ext0,tau_ext1,tau_ext2,tau_ext3,tau_ext4,tau_ext5,tau_ext6,q0,q1,q2,q3,q4,q5,q6,q_d0,q_d1,q_d2,q_d3,q_d4,q_d5,q_d6,dq0,dq1,dq2,dq3,dq4,dq5,dq6,dq_d0,dq_d1,dq_d2,dq_d3,dq_d4,dq_d5,dq_d6,e0,e1,e2,e3,e4,e5,e6,de0,de1,de2,de3,de4,de5,de6,etau_J0,etau_J1,etau_J2,etau_J3,etau_J4,etau_J5,etau_J6,label
1,0.0,-0.3752071261405945,-19.693445205688477,-0.3713042438030243,20.229524612426758,0.6118674874305725,2.4694857597351074,-0.24112264811992645,0.0,0.0,0.0,0.0,0.0,0.0,0.0,-0.38412508048353067,0.01818988858761744,-0.21534430956887807,0.42307108974993596,0.022133130489530983,0.09972251262980182,-0.2712958906549807,1.2134851039642174,-0.22017918241024015,-0.007512820559836419,-2.6041027086288526,-0.10892468337915776,2.46812132268682,0.8264780522805728,1.2134413937687574,-0.2202432315892585,-0.0075118285948192216,-2.6038483821997875,-0.10888392708698907,2.4681821257803174,0.826474908251239,8.8849683974422e-05,-0.00047873606218269476,-0.0005554599313756805,-0.0006011567458039334,-0.00012182637042020804,4.1829605121346015e-06,-0.0012602130528295633,0.0,0.0,0.0,0.0,0.0,0.0,0.0,-4.371019546001165e-05,-6.40491790183384e-05,9.919650171977615e-07,0.0002543264290650882,4.075629216868104e-05,6.080309349743018e-05,-3.144029333768117e-06,-8.8849683974422e-05,0.00047873606218269476,0.0005554599313756805,0.0006011567458039334,0.00012182637042020804,-4.1829605121346015e-06,0.0012602130528295633,0.3752071261405945,19.693445205688477,0.3713042438030243,-20.229524612426758,-0.6118674874305725,-2.4694857597351074,0.24112264811992645,0
2,0.004980564117431641,-0.3752071261405945,-19.693445205688477,-0.4466826617717743,20.205720901489258,0.6063743233680725,2.4630770683288574,-0.26858848333358765,0.0,0.0,0.0,0.0,0.0,0.0,0.0,-0.3842849222611003,0.01730879986526077,-0.21325522362903,0.42529238608278475,0.022100764132818272,0.09981388280760524,-0.2709540112714923,1.2134851067986243,-0.22017918241024015,-0.0075075308102136055,-2.6041010126483415,-0.10892680838786498,2.468122074007497,0.826481131172823,1.2134413937687574,-0.2202432315892585,-0.0075118285948192216,-2.6038483821997875,-0.10888392708698907,2.4681821257803174,0.826474908251239,0.00014765525179749007,-0.0007487364177765792,0.0007512482978485979,-4.417828002723954e-05,7.043831966967133e-06,0.000277515812057769,-9.820137769228401e-06,0.0,0.0,0.0,0.0,0.0,0.0,0.0,-4.371302986694303e-05,-6.40491790183384e-05,-4.297784605616049e-06,0.0002526304485539477,4.288130087590214e-05,6.005177282020213e-05,-6.22292158392046e-06,-0.00014765525179749007,0.0007487364177765792,-0.0007512482978485979,4.417828002723954e-05,-7.043831966967133e-06,-0.000277515812057769,9.820137769228401e-06,0.3752071261405945,19.693445205688477,0.4466826617717743,-20.205720901489258,-0.6063743233680725,-2.4630770683288574,0.26858848333358765,0
3,0.009975910186767578,-0.3752071261405945,-19.693445205688477,-0.4466826617717743,20.205720901489258,0.6063743233680725,2.4630770683288574,-0.26858848333358765,0.0,0.0,0.0,0.0,0.0,0.0,0.0,-0.3842849222611003,0.01730879986526077,-0.21325522362903,0.42529238608278475,0.022100764132818272,0.09981388280760524,-0.2709540112714923,1.2134851067986243,-0.22017918241024015,-0.0075075308102136055,-2.6041010126483415,-0.10892680838786498,2.468122074007497,0.826481131172823,1.2134413937687574,-0.2202432315892585,-0.0075118285948192216,-2.6038483821997875,-0.10888392708698907,2.4681821257803174,0.826474908251239,0.00014765525179749007,-0.0007487364177765792,0.0007512482978485979,-4.417828002723954e-05,7.043831966967133e-06,0.000277515812057769,-9.820137769228401e-06,0.0,0.0,0.0,0.0,0.0,0.0,0.0,-4.371302986694303e-05,-6.40491790183384e-05,-4.297784605616049e-06,0.0002526304485539477,4.288130087590214e-05,6.005177282020213e-05,-6.22292158392046e-06,-0.00014765525179749007,0.0007487364177765792,-0.0007512482978485979,4.417828002723954e-05,-7.043831966967133e-06,-0.000277515812057769,9.820137769228401e-06,0.3752071261405945,19.693445205688477,0.4466826617717743,-20.205720901489258,-0.6063743233680725,-2.4630770683288574,0.26858848333358765,0
4,0.01497793197631836,-0.3752071261405945,-19.745019912719727,-0.4466826617717743,20.205720901489258,0.6063743233680725,2.4823031425476074,-0.26858848333358765,0.0,0.0,0.0,0.0,0.0,0.0,0.0,-0.37892864587014463,0.02254265865176778,-0.21004985608544044,0.4183611112484761,0.022127622992286138,0.09863245566688304,-0.27044865092853504,1.2134850812888336,-0.22017556313255374,-0.0075075308102134026,-2.6041010126481976,-0.108922540300903,2.468119898531393,0.8264811432858948,1.2134413937687574,-0.2202432315892585,-0.0075118285948192216,-2.6038483821997875,-0.10888392708698907,2.4681821257803174,0.826474908251239,0.00015488243091091574,0.00035181142923977425,0.0009263042019416774,-0.0009224108166841869,7.61432418365445e-05,-0.0004966044689167017,-0.00023589600634638455,0.0,0.0,0.0,0.0,0.0,0.0,0.0,-4.368752007621879e-05,-6.76684567047503e-05,-4.297784605819012e-06,0.00025263044841006277,3.861321391392114e-05,6.222724892435139e-05,-6.235034655799332e-06,-0.00015488243091091574,-0.00035181142923977425,-0.0009263042019416774,0.0009224108166841869,-7.61432418365445e-05,0.0004966044689167017,0.00023589600634638455,0.3752071261405945,19.745019912719727,0.4466826617717743,-20.205720901489258,-0.6063743233680725,-2.4823031425476074,0.26858848333358765,0
5,0.01997685432434082,-0.3752071261405945,-19.745019912719727,-0.4466826617717743,20.205720901489258,0.6063743233680725,2.4823031425476074,-0.26858848333358765,0.0,0.0,0.0,0.0,0.0,0.0,0.0,-0.37892864587014463,0.02254265865176778,-0.21004985608544044,0.4183611112484761,0.022127622992286138,0.09863245566688304,-0.27044865092853504,1.2134850812888336,-0.22017556313255374,-0.0075075308102134026,-2.6041010126481976,-0.108922540300903,2.468119898531393,0.8264811432858948,1.2134413937687574,-0.2202432315892585,-0.0075118285948192216,-2.6038483821997875,-0.10888392708698907,2.4681821257803174,0.826474908251239,0.00015488243091091574,0.00035181142923977425,0.0009263042019416774,-0.0009224108166841869,7.61432418365445e-05,-0.0004966044689167017,-0.00023589600634638455,0.0,0.0,0.0,0.0,0.0,0.0,0.0,-4.368752007621879e-05,-6.76684567047503e-05,-4.297784605819012e-06,0.00025263044841006277,3.861321391392114e-05,6.222724892435139e-05,-6.235034655799332e-06,-0.00015488243091091574,-0.00035181142923977425,-0.0009263042019416774,0.0009224108166841869,-7.61432418365445e-05,0.0004966044689167017,0.00023589600634638455,0.3752071261405945,19.745019912719727,0.4466826617717743,-20.205720901489258,-0.6063743233680725,-2.4823031425476074,0.26858848333358765,0
6,0.024976253509521484,-0.4029781222343445,-19.768823623657227,-0.4228789508342743,20.205720901489258,0.6063743233680725,2.4694857597351074,-0.28964561223983765,0.0,0.0,0.0,0.0,0.0,0.0,0.0,-0.38478291792738273,0.013277735789551968,-0.21630500953102513,0.4257740016130821,0.02250807591614994,0.10039451173774398,-0.2710165701198557,1.2134870556403274,-0.2201738926966985,-0.0075092100137872245,-2.6041010126481976,-0.1089236048819926,2.468121322684818,0.8264834844205031,1.2134413937687574,-0.2202432315892585,-0.0075118285948192216,-2.6038483821997875,-0.10888392708698907,2.4681821257803174,0.826474908251239,1.7755012060413556e-05,0.0008079268945935113,-8.993373231072005e-05,0.00021882560843237687,4.315140097813065e-05,-2.3669091672733596e-05,0.0009291456421800119,0.0,0.0,0.0,0.0,0.0,0.0,0.0,-4.566187157006851e-05,-6.933889256000025e-05,-2.6185810319970595e-06,0.00025263044841006277,3.96777950035232e-05,6.080309549938434e-05,-8.57616926408511e-06,-1.7755012060413556e-05,-0.0008079268945935113,8.993373231072005e-05,-0.00021882560843237687,-4.315140097813065e-05,2.3669091672733596e-05,-0.0009291456421800119,0.4029781222343445,19.768823623657227,0.4228789508342743,-20.205720901489258,-0.6063743233680725,-2.4694857597351074,0.28964561223983765,0
7,0.029984235763549805,-0.4029781222343445,-19.768823623657227,-0.4228789508342743,20.205720901489258,0.6063743233680725,2.4694857597351074,-0.28964561223983765,0.0,0.0,0.0,0.0,0.0,0.0,0.0,-0.38478291792738273,0.013277735789551968,-0.21630500953102513,0.4257740016130821,0.02250807591614994,0.10039451173774398,-0.2710165701198557,1.2134870556403274,-0.2201738926966985,-0.0075092100137872245,-2.6041010126481976,-0.1089236048819926,2.468121322684818,0.8264834844205031,1.2134413937687574,-0.2202432315892585,-0.0075118285948192216,-2.6038483821997875,-0.10888392708698907,2.4681821257803174,0.826474908251239,1.7755012060413556e-05,0.0008079268945935113,-8.993373231072005e-05,0.00021882560843237687,4.315140097813065e-05,-2.3669091672733596e-05,0.0009291456421800119,0.0,0.0,0.0,0.0,0.0,0.0,0.0,-4.566187157006851e-05,-6.933889256000025e-05,-2.6185810319970595e-06,0.00025263044841006277,3.96777950035232e-05,6.080309549938434e-05,-8.57616926408511e-06,-1.7755012060413556e-05,-0.0008079268945935113,8.993373231072005e-05,-0.00021882560843237687,-4.315140097813065e-05,2.3669091672733596e-05,-0.0009291456421800119,0.4029781222343445,19.768823623657227,0.4228789508342743,-20.205720901489258,-0.6063743233680725,-2.4694857597351074,0.28964561223983765,0
8,0.034990549087524414,-0.3514034152030945,-19.693445205688477,-0.3990752398967743,20.181917190551758,0.6118674874305725,2.4630770683288574,-0.28232139348983765,0.0,0.0,0.0,0.0,0.0,0.0,0.0,-0.37948292009614215,0.016912073724448234,-0.21125952486980448,0.41960915719051073,0.021969114063281066,0.10002395438500535,-0.2716027564762581,1.213483436047849,-0.22017918241024015,-0.007510871681973423,-2.604099342212342,-0.10892645916961753,2.468122034761641,0.8264826706184281,1.2134413937687574,-0.2202432315892585,-0.0075118285948192216,-2.6038483821997875,-0.10888392708698907,2.4681821257803174,0.826474908251239,-0.0006408151148267278,-0.00069695045196892,-0.0005285820149732692,0.0006193427210765251,-0.00014842391638997154,0.00041478393722353517,0.0002692099822611038,0.0,0.0,0.0,0.0,0.0,0.0,0.0,-4.2042279091658585e-05,-6.40491790183384e-05,-9.56912845798824e-07,0.0002509600125546463,4.2532082628457535e-05,6.009101867654465e-05,-7.762367189023678e-06,0.0006408151148267278,0.00069695045196892,0.0005285820149732692,-0.0006193427210765251,0.00014842391638997154,-0.00041478393722353517,-0.0002692099822611038,0.3514034152030945,19.693445205688477,0.3990752398967743,-20.181917190551758,-0.6118674874305725,-2.4630770683288574,0.28232139348983765,0
9,0.03998827934265137,-0.3514034152030945,-19.693445205688477,-0.3990752398967743,20.181917190551758,0.6118674874305725,2.4630770683288574,-0.28232139348983765,0.0,0.0,0.0,0.0,0.0,0.0,0.0,-0.37948292009614215,0.016912073724448234,-0.21125952486980448,0.41960915719051073,0.021969114063281066,0.10002395438500535,-0.2716027564762581,1.213483436047849,-0.22017918241024015,-0.007510871681973423,-2.604099342212342,-0.10892645916961753,2.468122034761641,0.8264826706184281,1.2134413937687574,-0.2202432315892585,-0.0075118285948192216,-2.6038483821997875,-0.10888392708698907,2.4681821257803174,0.826474908251239,-0.0006408151148267278,-0.00069695045196892,-0.0005285820149732692,0.0006193427210765251,-0.00014842391638997154,0.00041478393722353517,0.0002692099822611038,0.0,0.0,0.0,0.0,0.0,0.0,0.0,-4.2042279091658585e-05,-6.40491790183384e-05,-9.56912845798824e-07,0.0002509600125546463,4.2532082628457535e-05,6.009101867654465e-05,-7.762367189023678e-06,0.0006408151148267278,0.00069695045196892,0.0005285820149732692,-0.0006193427210765251,0.00014842391638997154,-0.00041478393722353517,-0.0002692099822611038,0.3514034152030945,19.693445205688477,0.3990752398967743,-20.181917190551758,-0.6118674874305725,-2.4630770683288574,0.28232139348983765,0
10,0.04498767852783203,-0.3514034152030945,-19.693445205688477,-0.3990752398967743,20.181917190551758,0.6118674874305725,2.4630770683288574,-0.28232139348983765,0.0,0.0,0.0,0.0,0.0,0.0,0.0,-0.37948292009614215,0.016912073724448234,-0.21125952486980448,0.41960915719051073,0.021969114063281066,0.10002395438500535,-0.2716027564762581,1.213483436047849,-0.22017918241024015,-0.007510871681973423,-2.604099342212342,-0.10892645916961753,2.468122034761641,0.8264826706184281,1.2134413937687574,-0.2202432315892585,-0.0075118285948192216,-2.6038483821997875,-0.10888392708698907,2.4681821257803174,0.826474908251239,-0.0006408151148267278,-0.00069695045196892,-0.0005285820149732692,0.0006193427210765251,-0.00014842391638997154,0.00041478393722353517,0.0002692099822611038,0.0,0.0,0.0,0.0,0.0,0.0,0.0,-4.2042279091658585e-05,-6.40491790183384e-05,-9.56912845798824e-07,0.0002509600125546463,4.2532082628457535e-05,6.009101867654465e-05,-7.762367189023678e-06,0.0006408151148267278,0.00069695045196892,0.0005285820149732692,-0.0006193427210765251,0.00014842391638997154,-0.00041478393722353517,-0.0002692099822611038,0.3514034152030945,19.693445205688477,0.3990752398967743,-20.181917190551758,-0.6118674874305725,-2.4630770683288574,0.28232139348983765,0
11,0.0499880313873291,-0.3514034152030945,-19.693445205688477,-0.3990752398967743,20.181917190551758,0.6118674874305725,2.4630770683288574,-0.28232139348983765,0.0,0.0,0.0,0.0,0.0,0.0,0.0,-0.37948292009614215,0.016912073724448234,-0.21125952486980448,0.41960915719051073,0.021969114063281066,0.10002395438500535,-0.2716027564762581,1.213483436047849,-0.22017918241024015,-0.007510871681973423,-2.604099342212342,-0.10892645916961753,2.468122034761641,0.8264826706184281,1.2134413937687574,-0.2202432315892585,-0.0075118285948192216,-2.6038483821997875,-0.10888392708698907,2.4681821257803174,0.826474908251239,-0.0006408151148267278,-0.00069695045196892,-0.0005285820149732692,0.0006193427210765251,-0.00014842391638997154,0.00041478393722353517,0.0002692099822611038,0.0,0.0,0.0,0.0,0.0,0.0,0.0,-4.2042279091658585e-05,-6.40491790183384e-05,-9.56912845798824e-07,0.0002509600125546463,4.2532082628457535e-05,6.009101867654465e-05,-7.762367189023678e-06,0.0006408151148267278,0.00069695045196892,0.0005285820149732692,-0.0006193427210765251,0.00014842391638997154,-0.00041478393722353517,-0.0002692099822611038,0.3514034152030945,19.693445205688477,0.3990752398967743,-20.181917190551758,-0.6118674874305725,-2.4630770683288574,0.28232139348983765,0
12,0.054985761642456055,-0.4029781222343445,-19.768823623657227,-0.4466826617717743,20.205720901489258,0.5944724678993225,2.4694857597351074,-0.23471395671367645,0.0,0.0,0.0,0.0,0.0,0.0,0.0,-0.3815727961113085,0.014759343468913007,-0.21484642621791913,0.41860446055454886,0.022224594427257036,0.09982578199162598,-0.27200107596000483,1.2134870556404695,-0.2201738926966985,-0.0075075308102134026,-2.6041010126481976,-0.10892548586132884,2.468121322684818,0.8264772500837085,1.2134413937687574,-0.2202432315892585,-0.0075118285948192216,-2.6038483821997875,-0.10888392708698907,2.4681821257803174,0.826474908251239,0.0005609218042612802,0.0012336542224773953,0.0009896422150948855,-0.0006985601829726589,0.0005413959036475475,-2.1891426464517906e-05,-0.0014218399549203581,0.0,0.0,0.0,0.0,0.0,0.0,0.0,-4.566187171217706e-05,-6.933889256000025e-05,-4.297784605819012e-06,0.00025263044841006277,4.1558774339769955e-05,6.080309549938434e-05,-2.341832469499039e-06,-0.0005609218042612802,-0.0012336542224773953,-0.0009896422150948855,0.0006985601829726589,-0.0005413959036475475,2.1891426464517906e-05,0.0014218399549203581,0.4029781222343445,19.768823623657227,0.4466826617717743,-20.205720901489258,-0.5944724678993225,-2.4694857597351074,0.23471395671367645,0
13,0.05998516082763672,-0.4029781222343445,-19.768823623657227,-0.4466826617717743,20.205720901489258,0.5944724678993225,2.4694857597351074,-0.23471395671367645,0.0,0.0,0.0,0.0,0.0,0.0,0.0,-0.3815727961113085,0.014759343468913007,-0.21484642621791913,0.41860446055454886,0.022224594427257036,0.09982578199162598,-0.27200107596000483,1.2134870556404695,-0.2201738926966985,-0.0075075308102134026,-2.6041010126481976,-0.10892548586132884,2.468121322684818,0.8264772500837085,1.2134413937687574,-0.2202432315892585,-0.0075118285948192216,-2.6038483821997875,-0.10888392708698907,2.4681821257803174,0.826474908251239,0.0005609218042612802,0.0012336542224773953,0.0009896422150948855,-0.0006985601829726589,0.0005413959036475475,-2.1891426464517906e-05,-0.0014218399549203581,0.0,0.0,0.0,0.0,0.0,0.0,0.0,-4.566187171217706e-05,-6.933889256000025e-05,-4.297784605819012e-06,0.00025263044841006277,4.1558774339769955e-05,6.080309549938434e-05,-2.341832469499039e-06,-0.0005609218042612802,-0.0012336542224773953,-0.0009896422150948855,0.0006985601829726589,-0.0005413959036475475,2.1891426464517906e-05,0.0014218399549203581,0.4029781222343445,19.768823623657227,0.4466826617717743,-20.205720901489258,-0.5944724678993225,-2.4694857597351074,0.23471395671367645,0
14,0.0649862289428711,-0.4029781222343445,-19.693445205688477,-0.3990752398967743,20.205720901489258,0.6118674874305725,2.4823031425476074,-0.28232139348983765,0.0,0.0,0.0,0.0,0.0,0.0,0.0,-0.3753737165293904,0.018348123050902918,-0.20822417871596352,0.41605839699567665,0.02234224194211253,0.09970048781651779,-0.27158344116915095,1.2134870553255355,-0.22017918241024015,-0.007510871681923929,-2.604101013593005,-0.1089232307561217,2.468119898531172,0.8264826706176895,1.2134413937687574,-0.2202432315892585,-0.0075118285948192216,-2.6038483821997875,-0.10888392708698907,2.4681821257803174,0.826474908251239,0.0009927313222980062,-0.00021684607538970045,0.00015922603708869068,-0.0008789883994930882,-0.0001927077498916662,-0.00031914751157991524,0.0006796936314475933,0.0,0.0,0.0,0.0,0.0,0.0,0.0,-4.5661556778098245e-05,-6.40491790183384e-05,-9.569128952922196e-07,0.00025263139321740624,3.930366913262873e-05,6.222724914550781e-05,-7.762366450503322e-06,-0.0009927313222980062,0.00021684607538970045,-0.00015922603708869068,0.0008789883994930882,0.0001927077498916662,0.00031914751157991524,-0.0006796936314475933,0.4029781222343445,19.693445205688477,0.3990752398967743,-20.205720901489258,-0.6118674874305725,-2.4823031425476074,0.28232139348983765,0
15,0.06994175910949707,-0.4029781222343445,-19.693445205688477,-0.3990752398967743,20.205720901489258,0.6118674874305725,2.4823031425476074,-0.28232139348983765,0.0,0.0,0.0,0.0,0.0,0.0,0.0,-0.3753737165293904,0.018348123050902918,-0.20822417871596352,0.41605839699567665,0.02234224194211253,0.09970048781651779,-0.27158344116915095,1.2134870553255355,-0.22017918241024015,-0.007510871681923929,-2.604101013593005,-0.1089232307561217,2.468119898531172,0.8264826706176895,1.2134413937687574,-0.2202432315892585,-0.0075118285948192216,-2.6038483821997875,-0.10888392708698907,2.4681821257803174,0.826474908251239,0.0009927313222980062,-0.00021684607538970045,0.00015922603708869068,-0.0008789883994930882,-0.0001927077498916662,-0.00031914751157991524,0.0006796936314475933,0.0,0.0,0.0,0.0,0.0,0.0,0.0,-4.5661556778098245e-05,-6.40491790183384e-05,-9.569128952922196e-07,0.00025263139321740624,3.930366913262873e-05,6.222724914550781e-05,-7.762366450503322e-06,-0.0009927313222980062,0.00021684607538970045,-0.00015922603708869068,0.0008789883994930882,0.0001927077498916662,0.00031914751157991524,-0.0006796936314475933,0.4029781222343445,19.693445205688477,0.3990752398967743,-20.205720901489258,-0.6118674874305725,-2.4823031425476074,0.28232139348983765,0
16,0.07498884201049805,-0.3514034152030945,-19.717248916625977,-0.4228789508342743,20.253328323364258,0.6118674874305725,2.4694857597351074,-0.26217979192733765,0.0,0.0,0.0,0.0,0.0,0.0,0.0,-0.3785606218063684,0.014301906603294914,-0.21285841232204525,0.422220698512805,0.022813055536677097,0.10137732768940236,-0.27158339129822506,1.2134834108529764,-0.22017751197438487,-0.007509911431271952,-2.6041043547796567,-0.10892784353481971,2.468121322738653,0.8264802606592531,1.2134413937687574,-0.2202432315892585,-0.0075118285948192216,-2.6038483821997875,-0.10888392708698907,2.4681821257803174,0.826474908251239,-0.0002115831756346963,0.00015734462257911756,0.0002810247381594604,-0.0013065892810330507,-0.00011588820579128852,9.9158232921981e-05,-0.0004494274885881302,0.0,0.0,0.0,0.0,0.0,0.0,0.0,-4.2017084219025946e-05,-6.57196148736161e-05,-1.9171635472691947e-06,0.0002559725798692014,4.391644783063864e-05,6.080304166422579e-05,-5.352408014025478e-06,0.0002115831756346963,-0.00015734462257911756,-0.0002810247381594604,0.0013065892810330507,0.00011588820579128852,-9.9158232921981e-05,0.0004494274885881302,0.3514034152030945,19.717248916625977,0.4228789508342743,-20.253328323364258,-0.6118674874305725,-2.4694857597351074,0.26217979192733765,0
17,0.07998871803283691,-0.3514034152030945,-19.717248916625977,-0.4228789508342743,20.253328323364258,0.6118674874305725,2.4694857597351074,-0.26217979192733765,0.0,0.0,0.0,0.0,0.0,0.0,0.0,-0.3785606218063684,0.014301906603294914,-0.21285841232204525,0.422220698512805,0.022813055536677097,0.10137732768940236,-0.27158339129822506,1.2134834108529764,-0.22017751197438487,-0.007509911431271952,-2.6041043547796567,-0.10892784353481971,2.468121322738653,0.8264802606592531,1.2134413937687574,-0.2202432315892585,-0.0075118285948192216,-2.6038483821997875,-0.10888392708698907,2.4681821257803174,0.826474908251239,-0.0002115831756346963,0.00015734462257911756,0.0002810247381594604,-0.0013065892810330507,-0.00011588820579128852,9.9158232921981e-05,-0.0004494274885881302,0.0,0.0,0.0,0.0,0.0,0.0,0.0,-4.2017084219025946e-05,-6.57196148736161e-05,-1.9171635472691947e-06,0.0002559725798692014,4.391644783063864e-05,6.080304166422579e-05,-5.352408014025478e-06,0.0002115831756346963,-0.00015734462257911756,-0.0002810247381594604,0.0013065892810330507,0.00011588820579128852,-9.9158232921981e-05,0.0004494274885881302,0.3514034152030945,19.717248916625977,0.4228789508342743,-20.253328323364258,-0.6118674874305725,-2.4694857597351074,0.26217979192733765,0
18,0.08498692512512207,-0.3514034152030945,-19.745019912719727,-0.4466826617717743,20.205720901489258,0.6063743233680725,2.4630770683288574,-0.28964561223983765,0.0,0.0,0.0,0.0,0.0,0.0,0.0,-0.37736313666814225,0.021415426759811562,-0.21306512377551684,0.41551263482560796,0.022717899635057874,0.10044511113902081,-0.2713660257281021,1.213483433528218,-0.22017556313255374,-0.007507530814222419,-2.6041030789775497,-0.10892586095414737,2.4681230943997705,0.8264834839350236,1.2134413937687574,-0.2202432315892585,-0.0075118285948192216,-2.6038483821997875,-0.10888392708698907,2.4681821257803174,0.826474908251239,-0.0010390627081833825,0.00039973182728150487,0.000989421561070084,-0.0008406910353974703,0.0001574301077980544,0.00035123362404842004,0.0006089785305516866,0.0,0.0,0.0,0.0,0.0,0.0,0.0,-4.203975946071026e-05,-6.76684567047503e-05,-4.297780596802803e-06,0.0002546967777621312,4.19338671582975e-05,5.903138054685897e-05,-8.575683784539656e-06,0.0010390627081833825,-0.00039973182728150487,-0.000989421561070084,0.0008406910353974703,-0.0001574301077980544,-0.00035123362404842004,-0.0006089785305516866,0.3514034152030945,19.745019912719727,0.4466826617717743,-20.205720901489258,-0.6063743233680725,-2.4630770683288574,0.28964561223983765,0
19,0.08998680114746094,-0.3514034152030945,-19.745019912719727,-0.4466826617717743,20.205720901489258,0.6063743233680725,2.4630770683288574,-0.28964561223983765,0.0,0.0,0.0,0.0,0.0,0.0,0.0,-0.37736313666814225,0.021415426759811562,-0.21306512377551684,0.41551263482560796,0.022717899635057874,0.10044511113902081,-0.2713660257281021,1.213483433528218,-0.22017556313255374,-0.007507530814222419,-2.6041030789775497,-0.10892586095414737,2.4681230943997705,0.8264834839350236,1.2134413937687574,-0.2202432315892585,-0.0075118285948192216,-2.6038483821997875,-0.10888392708698907,2.4681821257803174,0.826474908251239,-0.0010390627081833825,0.00039973182728150487,0.000989421561070084,-0.0008406910353974703,0.0001574301077980544,0.00035123362404842004,0.0006089785305516866,0.0,0.0,0.0,0.0,0.0,0.0,0.0,-4.203975946071026e-05,-6.76684567047503e-05,-4.297780596802803e-06,0.0002546967777621312,4.19338671582975e-05,5.903138054685897e-05,-8.575683784539656e-06,0.0010390627081833825,-0.00039973182728150487,-0.000989421561070084,0.0008406910353974703,-0.0001574301077980544,-0.00035123362404842004,-0.0006089785305516866,0.3514034152030945,19.745019912719727,0.4466826617717743,-20.205720901489258,-0.6063743233680725,-2.4630770683288574,0.28964561223983765,0
20,0.09548091888427734,-0.4029781222343445,-19.745019912719727,-0.4228789508342743,20.205720901489258,0.5944724678993225,2.4758944511413574,-0.26217979192733765,0.0,0.0,0.0,0.0,0.0,0.0,0.0,-0.3786628589196989,0.020398154113930058,-0.2140700968863824,0.4149724521254109,0.02288277856318766,0.10018303009109591,-0.27141475977066476,1.213486979111035,-0.22017556313255374,-0.007509201246068688,-2.6041010127648403,-0.10892158225497187,2.4681206106139766,0.8264803934168395,1.2134413937687574,-0.2202432315892585,-0.0075118285948192216,-2.6038483821997875,-0.10888392708698907,2.4681821257803174,0.826474908251239,0.0002754615402076746,0.00046232282535387724,0.00025061731560734236,-0.0005248521034940757,0.0004724654097823159,-0.00023818627056073065,-0.0004340852557703734,0.0,0.0,0.0,0.0,0.0,0.0,0.0,-4.55853422776098e-05,-6.76684567047503e-05,-2.627348750533498e-06,0.00025263056505275827,3.765516798279189e-05,6.151516634078646e-05,-5.485165600505049e-06,-0.0002754615402076746,-0.00046232282535387724,-0.00025061731560734236,0.0005248521034940757,-0.0004724654097823159,0.00023818627056073065,0.0004340852557703734,0.4029781222343445,19.745019912719727,0.4228789508342743,-20.205720901489258,-0.5944724678993225,-2.4758944511413574,0.26217979192733765,0
21,0.09998726844787598,-0.4029781222343445,-19.745019912719727,-0.4228789508342743,20.205720901489258,0.5944724678993225,2.4758944511413574,-0.26217979192733765,0.0,0.0,0.0,0.0,0.0,0.0,0.0,-0.3786628589196989,0.020398154113930058,-0.2140700968863824,0.4149724521254109,0.02288277856318766,0.10018303009109591,-0.27141475977066476,1.213486979111035,-0.22017556313255374,-0.007509201246068688,-2.6041010127648403,-0.10892158225497187,2.4681206106139766,0.8264803934168395,1.2134413937687574,-0.2202432315892585,-0.0075118285948192216,-2.6038483821997875,-0.10888392708698907,2.4681821257803174,0.826474908251239,0.0002754615402076746,0.00046232282535387724,0.00025061731560734236,-0.0005248521034940757,0.0004724654097823159,-0.00023818627056073065,-0.0004340852557703734,0.0,0.0,0.0,0.0,0.0,0.0,0.0,-4.55853422776098e-05,-6.76684567047503e-05,-2.627348750533498e-06,0.00025263056505275827,3.765516798279189e-05,6.151516634078646e-05,-5.485165600505049e-06,-0.0002754615402076746,-0.00046232282535387724,-0.00025061731560734236,0.0005248521034940757,-0.0004724654097823159,0.00023818627056073065,0.0004340852557703734,0.4029781222343445,19.745019912719727,0.4228789508342743,-20.205720901489258,-0.5944724678993225,-2.4758944511413574,0.26217979192733765,0
22,0.10493254661560059,-0.3752071261405945,-19.717248916625977,-0.3713042438030243,20.181917190551758,0.6063743233680725,2.4694857597351074,-0.29605430364608765,0.0,0.0,0.0,0.0,0.0,0.0,0.0,-0.3766133911412614,0.022114871462279355,-0.21286730592644065,0.4149705129205138,0.0228135760898913,0.09971508860310813,-0.27086207106260396,1.2134851067982084,-0.22017751197438487,-0.00751282052375507,-2.6040993422123426,-0.10892404007245085,2.468121322684818,0.8264830190675783,1.2134413937687574,-0.2202432315892585,-0.0075118285948192216,-2.6038483821997875,-0.10888392708698907,2.4681821257803174,0.826474908251239,0.00018323767417281574,0.00022418216990052666,-0.0010390280972695622,0.00019771182657458823,2.2680256327047678e-05,6.246988685406728e-05,0.001126594721099374,0.0,0.0,0.0,0.0,0.0,0.0,0.0,-4.371302945105349e-05,-6.57196148736161e-05,9.91928935848048e-07,0.00025096001255509037,4.011298546177655e-05,6.080309549938434e-05,-8.110816339224058e-06,-0.00018323767417281574,-0.00022418216990052666,0.0010390280972695622,-0.00019771182657458823,-2.2680256327047678e-05,-6.246988685406728e-05,-0.001126594721099374,0.3752071261405945,19.717248916625977,0.3713042438030243,-20.181917190551758,-0.6063743233680725,-2.4694857597351074,0.29605430364608765,0
23,0.10998392105102539,-0.3752071261405945,-19.717248916625977,-0.3713042438030243,20.181917190551758,0.6063743233680725,2.4694857597351074,-0.29605430364608765,0.0,0.0,0.0,0.0,0.0,0.0,0.0,-0.3766133911412614,0.022114871462279355,-0.21286730592644065,0.4149705129205138,0.0228135760898913,0.09971508860310813,-0.27086207106260396,1.2134851067982084,-0.22017751197438487,-0.00751282052375507,-2.6040993422123426,-0.10892404007245085,2.468121322684818,0.8264830190675783,1.2134413937687574,-0.2202432315892585,-0.0075118285948192216,-2.6038483821997875,-0.10888392708698907,2.4681821257803174,0.826474908251239,0.00018323767417281574,0.00022418216990052666,-0.0010390280972695622,0.00019771182657458823,2.2680256327047678e-05,6.246988685406728e-05,0.001126594721099374,0.0,0.0,0.0,0.0,0.0,0.0,0.0,-4.371302945105349e-05,-6.57196148736161e-05,9.91928935848048e-07,0.00025096001255509037,4.011298546177655e-05,6.080309549938434e-05,-8.110816339224058e-06,-0.00018323767417281574,-0.00022418216990052666,0.0010390280972695622,-0.00019771182657458823,-2.2680256327047678e-05,-6.246988685406728e-05,-0.001126594721099374,0.3752071261405945,19.717248916625977,0.3713042438030243,-20.181917190551758,-0.6063743233680725,-2.4694857597351074,0.29605430364608765,0
24,0.11539483070373535,-0.3752071261405945,-19.745019912719727,-0.3990752398967743,20.205720901489258,0.6118674874305725,2.4630770683288574,-0.28964561223983765,0.0,0.0,0.0,0.0,0.0,0.0,0.0,-0.37409230798674503,0.021760088277807944,-0.21167747243986618,0.4139202455427027,0.022869425183881336,0.09929203804992333,-0.27227025491690066,1.2134851039642174,-0.22017556313255374,-0.007513002237533792,-2.604101013593005,-0.10892641990451524,2.468122034761641,0.8264834844138648,1.2134413937687574,-0.2202432315892585,-0.0075118285948192216,-2.6038483821997875,-0.10888392708698907,2.4681821257803174,0.826474908251239,0.0008038987701744544,0.0005654434230705941,-0.00031109587165767074,-0.0005508800664565267,-1.7578345812614418e-05,0.0001617752957445302,0.0005445351841051659,0.0,0.0,0.0,0.0,0.0,0.0,0.0,-4.371019546001165e-05,-6.76684567047503e-05,1.1736427145700792e-06,0.00025263139321740624,4.249281752616296e-05,6.009101867654465e-05,-8.576162625728578e-06,-0.0008038987701744544,-0.0005654434230705941,0.00031109587165767074,0.0005508800664565267,1.7578345812614418e-05,-0.0001617752957445302,-0.0005445351841051659,0.3752071261405945,19.745019912719727,0.3990752398967743,-20.205720901489258,-0.6118674874305725,-2.4630770683288574,0.28964561223983765,0
25,0.1199793815612793,-0.3752071261405945,-19.745019912719727,-0.3990752398967743,20.205720901489258,0.6118674874305725,2.4630770683288574,-0.28964561223983765,0.0,0.0,0.0,0.0,0.0,0.0,0.0,-0.37409230798674503,0.021760088277807944,-0.21167747243986618,0.4139202455427027,0.022869425183881336,0.09929203804992333,-0.27227025491690066,1.2134851039642174,-0.22017556313255374,-0.007513002237533792,-2.604101013593005,-0.10892641990451524,2.468122034761641,0.8264834844138648,1.2134413937687574,-0.2202432315892585,-0.0075118285948192216,-2.6038483821997875,-0.10888392708698907,2.4681821257803174,0.826474908251239,0.0008038987701744544,0.0005654434230705941,-0.00031109587165767074,-0.0005508800664565267,-1.7578345812614418e-05,0.0001617752957445302,0.0005445351841051659,0.0,0.0,0.0,0.0,0.0,0.0,0.0,-4.371019546001165e-05,-6.76684567047503e-05,1.1736427145700792e-06,0.00025263139321740624,4.249281752616296e-05,6.009101867654465e-05,-8.576162625728578e-06,-0.0008038987701744544,-0.0005654434230705941,0.00031109587165767074,0.0005508800664565267,1.7578345812614418e-05,-0.0001617752957445302,-0.0005445351841051659,0.3752071261405945,19.745019912719727,0.3990752398967743,-20.205720901489258,-0.6118674874305725,-2.4630770683288574,0.28964561223983765,0
26,0.12535619735717773,-0.4029781222343445,-19.717248916625977,-0.4228789508342743,20.154146194458008,0.6118674874305725,2.4630770683288574,-0.27591270208358765,0.0,0.0,0.0,0.0,0.0,0.0,0.0,-0.3750476724667113,0.021553560008618737,-0.21502628522617495,0.4179517855018496,0.0236810023006919,0.09926072405627094,-0.272703052667335,1.2134870556404553,-0.22017751197438487,-0.007509201258095714,-2.6040973933705165,-0.1089264577216992,2.468125567050244,0.8264818391889793,1.2134413937687574,-0.2202432315892585,-0.0075118285948192216,-2.6038483821997875,-0.10888392708698907,2.4681821257803174,0.826474908251239,0.0008604007932597618,0.00023646048529938507,0.0004394936750710179,0.001219972600465453,-0.0002426734932660403,0.0005632125860011825,-0.00018449526432612378,0.0,0.0,0.0,0.0,0.0,0.0,0.0,-4.5661871697966205e-05,-6.57196148736161e-05,-2.6273367235074216e-06,0.0002490111707289522,4.253063471013063e-05,5.655873007315293e-05,-6.9309377402904104e-06,-0.0008604007932597618,-0.00023646048529938507,-0.0004394936750710179,-0.001219972600465453,0.0002426734932660403,-0.0005632125860011825,0.00018449526432612378,0.4029781222343445,19.717248916625977,0.4228789508342743,-20.154146194458008,-0.6118674874305725,-2.4630770683288574,0.27591270208358765,0
27,0.12999796867370605,-0.4029781222343445,-19.717248916625977,-0.4228789508342743,20.154146194458008,0.6118674874305725,2.4630770683288574,-0.27591270208358765,0.0,0.0,0.0,0.0,0.0,0.0,0.0,-0.3750476724667113,0.021553560008618737,-0.21502628522617495,0.4179517855018496,0.0236810023006919,0.09926072405627094,-0.272703052667335,1.2134870556404553,-0.22017751197438487,-0.007509201258095714,-2.6040973933705165,-0.1089264577216992,2.468125567050244,0.8264818391889793,1.2134413937687574,-0.2202432315892585,-0.0075118285948192216,-2.6038483821997875,-0.10888392708698907,2.4681821257803174,0.826474908251239,0.0008604007932597618,0.00023646048529938507,0.0004394936750710179,0.001219972600465453,-0.0002426734932660403,0.0005632125860011825,-0.00018449526432612378,0.0,0.0,0.0,0.0,0.0,0.0,0.0,-4.5661871697966205e-05,-6.57196148736161e-05,-2.6273367235074216e-06,0.0002490111707289522,4.253063471013063e-05,5.655873007315293e-05,-6.9309377402904104e-06,-0.0008604007932597618,-0.00023646048529938507,-0.0004394936750710179,-0.001219972600465453,0.0002426734932660403,-0.0005632125860011825,0.00018449526432612378,0.4029781222343445,19.717248916625977,0.4228789508342743,-20.154146194458008,-0.6118674874305725,-2.4630770683288574,0.27591270208358765,0
28,0.13492536544799805,-0.4029781222343445,-19.717248916625977,-0.4228789508342743,20.154146194458008,0.6118674874305725,2.4630770683288574,-0.27591270208358765,0.0,0.0,0.0,0.0,0.0,0.0,0.0,-0.3750476724667113,0.021553560008618737,-0.21502628522617495,0.4179517855018496,0.0236810023006919,0.09926072405627094,-0.272703052667335,1.2134870556404553,-0.22017751197438487,-0.007509201258095714,-2.6040973933705165,-0.1089264577216992,2.468125567050244,0.8264818391889793,1.2134413937687574,-0.2202432315892585,-0.0075118285948192216,-2.6038483821997875,-0.10888392708698907,2.4681821257803174,0.826474908251239,0.0008604007932597618,0.00023646048529938507,0.0004394936750710179,0.001219972600465453,-0.0002426734932660403,0.0005632125860011825,-0.00018449526432612378,0.0,0.0,0.0,0.0,0.0,0.0,0.0,-4.5661871697966205e-05,-6.57196148736161e-05,-2.6273367235074216e-06,0.0002490111707289522,4.253063471013063e-05,5.655873007315293e-05,-6.9309377402904104e-06,-0.0008604007932597618,-0.00023646048529938507,-0.0004394936750710179,-0.001219972600465453,0.0002426734932660403,-0.0005632125860011825,0.00018449526432612378,0.4029781222343445,19.717248916625977,0.4228789508342743,-20.154146194458008,-0.6118674874305725,-2.4630770683288574,0.27591270208358765,0
29,0.14119267463684082,-0.4267818331718445,-19.693445205688477,-0.3990752398967743,20.181917190551758,0.6118674874305725,2.4694857597351074,-0.30978721380233765,0.0,0.0,0.0,0.0,0.0,0.0,0.0,-0.37566532004357844,0.022213857795621673,-0.2149418405802324,0.4194677612585334,0.023498771414065433,0.09933327485703143,-0.2734911127205914,1.2134887260763267,-0.22017918241024015,-0.007510871681923997,-2.6040993423523133,-0.10892430281996182,2.4681213227047576,0.8264821857263127,1.2134413937687574,-0.2202432315892585,-0.0075118285948192216,-2.6038483821997875,-0.10888392708698907,2.4681821257803174,0.826474908251239,0.0008821685930485741,-0.00047303030572097885,-9.746183486885894e-05,0.0006519482848674577,-0.00022835520584681845,0.00029229953233775725,0.0016024579112674249,0.0,0.0,0.0,0.0,0.0,0.0,0.0,-4.73323075693699e-05,-6.40491790183384e-05,-9.569128952245654e-07,0.00025096015252579207,4.0375732972747214e-05,6.080307555977882e-05,-7.277475073674822e-06,-0.0008821685930485741,0.00047303030572097885,9.746183486885894e-05,-0.0006519482848674577,0.00022835520584681845,-0.00029229953233775725,-0.0016024579112674249,0.4267818331718445,19.693445205688477,0.3990752398967743,-20.181917190551758,-0.6118674874305725,-2.4694857597351074,0.30978721380233765,0
30,0.1449723243713379,-0.4267818331718445,-19.693445205688477,-0.3990752398967743,20.181917190551758,0.6118674874305725,2.4694857597351074,-0.30978721380233765,0.0,0.0,0.0,0.0,0.0,0.0,0.0,-0.37566532004357844,0.022213857795621673,-0.2149418405802324,0.4194677612585334,0.023498771414065433,0.09933327485703143,-0.2734911127205914,1.2134887260763267,-0.22017918241024015,-0.007510871681923997,-2.6040993423523133,-0.10892430281996182,2.4681213227047576,0.8264821857263127,1.2134413937687574,-0.2202432315892585,-0.0075118285948192216,-2.6038483821997875,-0.10888392708698907,2.4681821257803174,0.826474908251239,0.0008821685930485741,-0.00047303030572097885,-9.746183486885894e-05,0.0006519482848674577,-0.00022835520584681845,0.00029229953233775725,0.0016024579112674249,0.0,0.0,0.0,0.0,0.0,0.0,0.0,-4.73323075693699e-05,-6.40491790183384e-05,-9.569128952245654e-07,0.00025096015252579207,4.0375732972747214e-05,6.080307555977882e-05,-7.277475073674822e-06,-0.0008821685930485741,0.00047303030572097885,9.746183486885894e-05,-0.0006519482848674577,0.00022835520584681845,-0.00029229953233775725,-0.0016024579112674249,0.4267818331718445,19.693445205688477,0.3990752398967743,-20.181917190551758,-0.6118674874305725,-2.4694857597351074,0.30978721380233765,0
31,0.14997243881225586,-0.3752071261405945,-19.717248916625977,-0.4228789508342743,20.181917190551758,0.5999656319618225,2.4694857597351074,-0.28232139348983765,0.0,0.0,0.0,0.0,0.0,0.0,0.0,-0.37638688924976427,0.020651578459796878,-0.21235228741273726,0.41987849378807146,0.02292101126690512,0.09950559942354123,-0.2731437523147178,1.2134851067986403,-0.22017751197438487,-0.0075092012460686655,-2.6040993425272783,-0.10892326173832659,2.4681214405838934,0.8264825528742034,1.2134413937687574,-0.2202432315892585,-0.0075118285948192216,-2.6038483821997875,-0.10888392708698907,2.4681821257803174,0.826474908251239,-0.0003623562661974793,-0.00027129254315308497,0.00039673882775892054,0.00028816917108912866,0.0002067536004604842,-9.092063982982063e-06,0.0009800550671855005,0.0,0.0,0.0,0.0,0.0,0.0,0.0,-4.371302988293024e-05,-6.57196148736161e-05,-2.6273487505560494e-06,0.0002509603274907235,3.933465133751368e-05,6.068519642399295e-05,-7.644622964320114e-06,0.0003623562661974793,0.00027129254315308497,-0.00039673882775892054,-0.00028816917108912866,-0.0002067536004604842,9.092063982982063e-06,-0.0009800550671855005,0.3752071261405945,19.717248916625977,0.4228789508342743,-20.181917190551758,-0.5999656319618225,-2.4694857597351074,0.28232139348983765,0
32,0.15499329566955566,-0.3752071261405945,-19.717248916625977,-0.4228789508342743,20.181917190551758,0.5999656319618225,2.4694857597351074,-0.28232139348983765,0.0,0.0,0.0,0.0,0.0,0.0,0.0,-0.37638688924976427,0.020651578459796878,-0.21235228741273726,0.41987849378807146,0.02292101126690512,0.09950559942354123,-0.2731437523147178,1.2134851067986403,-0.22017751197438487,-0.0075092012460686655,-2.6040993425272783,-0.10892326173832659,2.4681214405838934,0.8264825528742034,1.2134413937687574,-0.2202432315892585,-0.0075118285948192216,-2.6038483821997875,-0.10888392708698907,2.4681821257803174,0.826474908251239,-0.0003623562661974793,-0.00027129254315308497,0.00039673882775892054,0.00028816917108912866,0.0002067536004604842,-9.092063982982063e-06,0.0009800550671855005,0.0,0.0,0.0,0.0,0.0,0.0,0.0,-4.371302988293024e-05,-6.57196148736161e-05,-2.6273487505560494e-06,0.0002509603274907235,3.933465133751368e-05,6.068519642399295e-05,-7.644622964320114e-06,0.0003623562661974793,0.00027129254315308497,-0.00039673882775892054,-0.00028816917108912866,-0.0002067536004604842,9.092063982982063e-06,-0.0009800550671855005,0.3752071261405945,19.717248916625977,0.4228789508342743,-20.181917190551758,-0.5999656319618225,-2.4694857597351074,0.28232139348983765,0
33,0.16002726554870605,-0.3752071261405945,-19.717248916625977,-0.4228789508342743,20.181917190551758,0.5999656319618225,2.4694857597351074,-0.28232139348983765,0.0,0.0,0.0,0.0,0.0,0.0,0.0,-0.37638688924976427,0.020651578459796878,-0.21235228741273726,0.41987849378807146,0.02292101126690512,0.09950559942354123,-0.2731437523147178,1.2134851067986403,-0.22017751197438487,-0.0075092012460686655,-2.6040993425272783,-0.10892326173832659,2.4681214405838934,0.8264825528742034,1.2134413937687574,-0.2202432315892585,-0.0075118285948192216,-2.6038483821997875,-0.10888392708698907,2.4681821257803174,0.826474908251239,-0.0003623562661974793,-0.00027129254315308497,0.00039673882775892054,0.00028816917108912866,0.0002067536004604842,-9.092063982982063e-06,0.0009800550671855005,0.0,0.0,0.0,0.0,0.0,0.0,0.0,-4.371302988293024e-05,-6.57196148736161e-05,-2.6273487505560494e-06,0.0002509603274907235,3.933465133751368e-05,6.068519642399295e-05,-7.644622964320114e-06,0.0003623562661974793,0.00027129254315308497,-0.00039673882775892054,-0.00028816917108912866,-0.0002067536004604842,9.092063982982063e-06,-0.0009800550671855005,0.3752071261405945,19.717248916625977,0.4228789508342743,-20.181917190551758,-0.5999656319618225,-2.4694857597351074,0.28232139348983765,0
34,0.1649913787841797,-0.3752071261405945,-19.717248916625977,-0.4228789508342743,20.181917190551758,0.5999656319618225,2.4694857597351074,-0.28232139348983765,0.0,0.0,0.0,0.0,0.0,0.0,0.0,-0.37638688924976427,0.020651578459796878,-0.21235228741273726,0.41987849378807146,0.02292101126690512,0.09950559942354123,-0.2731437523147178,1.2134851067986403,-0.22017751197438487,-0.0075092012460686655,-2.6040993425272783,-0.10892326173832659,2.4681214405838934,0.8264825528742034,1.2134413937687574,-0.2202432315892585,-0.0075118285948192216,-2.6038483821997875,-0.10888392708698907,2.4681821257803174,0.826474908251239,-0.0003623562661974793,-0.00027129254315308497,0.00039673882775892054,0.00028816917108912866,0.0002067536004604842,-9.092063982982063e-06,0.0009800550671855005,0.0,0.0,0.0,0.0,0.0,0.0,0.0,-4.371302988293024e-05,-6.57196148736161e-05,-2.6273487505560494e-06,0.0002509603274907235,3.933465133751368e-05,6.068519642399295e-05,-7.644622964320114e-06,0.0003623562661974793,0.00027129254315308497,-0.00039673882775892054,-0.00028816917108912866,-0.0002067536004604842,9.092063982982063e-06,-0.0009800550671855005,0.3752071261405945,19.717248916625977,0.4228789508342743,-20.181917190551758,-0.5999656319618225,-2.4694857597351074,0.28232139348983765,0
35,0.16998600959777832,-0.3514034152030945,-19.745019912719727,-0.3990752398967743,20.154146194458008,0.6063743233680725,2.4823031425476074,-0.28232139348983765,0.0,0.0,0.0,0.0,0.0,0.0,0.0,-0.37228610342030816,0.020646883038334236,-0.2072982600813362,0.421426444799952,0.021879312549271467,0.09939439229823273,-0.27195984215482594,1.2134834362578064,-0.22017556313255374,-0.007510871681923929,-2.604098082450233,-0.10892572907030912,2.468119898531837,0.8264826299183565,1.2134413937687574,-0.2202432315892585,-0.0075118285948192216,-2.6038483821997875,-0.10888392708698907,2.4681821257803174,0.826474908251239,-0.00034391154346807016,0.0007211321378558341,-2.6191702441072537e-05,0.00103463922222075,9.377172046316849e-05,-0.0002623741013681179,0.0001794041998929095,0.0,0.0,0.0,0.0,0.0,0.0,0.0,-4.20424890490434e-05,-6.76684567047503e-05,-9.569128952922196e-07,0.0002497002504453505,4.180198332004448e-05,6.222724848026218e-05,-7.721667117488451e-06,0.00034391154346807016,-0.0007211321378558341,2.6191702441072537e-05,-0.00103463922222075,-9.377172046316849e-05,0.0002623741013681179,-0.0001794041998929095,0.3514034152030945,19.745019912719727,0.3990752398967743,-20.154146194458008,-0.6063743233680725,-2.4823031425476074,0.28232139348983765,0
36,0.17497611045837402,-0.3514034152030945,-19.745019912719727,-0.3990752398967743,20.154146194458008,0.6063743233680725,2.4823031425476074,-0.28232139348983765,0.0,0.0,0.0,0.0,0.0,0.0,0.0,-0.37228610342030816,0.020646883038334236,-0.2072982600813362,0.421426444799952,0.021879312549271467,0.09939439229823273,-0.27195984215482594,1.2134834362578064,-0.22017556313255374,-0.007510871681923929,-2.604098082450233,-0.10892572907030912,2.468119898531837,0.8264826299183565,1.2134413937687574,-0.2202432315892585,-0.0075118285948192216,-2.6038483821997875,-0.10888392708698907,2.4681821257803174,0.826474908251239,-0.00034391154346807016,0.0007211321378558341,-2.6191702441072537e-05,0.00103463922222075,9.377172046316849e-05,-0.0002623741013681179,0.0001794041998929095,0.0,0.0,0.0,0.0,0.0,0.0,0.0,-4.20424890490434e-05,-6.76684567047503e-05,-9.569128952922196e-07,0.0002497002504453505,4.180198332004448e-05,6.222724848026218e-05,-7.721667117488451e-06,0.00034391154346807016,-0.0007211321378558341,2.6191702441072537e-05,-0.00103463922222075,-9.377172046316849e-05,0.0002623741013681179,-0.0001794041998929095,0.3514034152030945,19.745019912719727,0.3990752398967743,-20.154146194458008,-0.6063743233680725,-2.4823031425476074,0.28232139348983765,0
37,0.1799790859222412,-0.3514034152030945,-19.745019912719727,-0.3236968219280243,20.181917190551758,0.6118674874305725,2.4694857597351074,-0.30337852239608765,0.0,0.0,0.0,0.0,0.0,0.0,0.0,-0.37474139767825215,0.04137826875755049,-0.2081568397865039,0.3854118973562313,0.02126576504154124,0.09492406476957002,-0.2725497785438713,1.2134834363627844,-0.22017556313255374,-0.0075161613954655955,-2.604099342216232,-0.10892421519746824,2.468121324138368,0.8264839501765417,1.2134413937687574,-0.2202432315892585,-0.0075118285948192216,-2.6038483821997875,-0.10888392708698907,2.4681821257803174,0.826474908251239,-0.00045439307413347435,0.00046817907341453296,-0.0015551640388991573,0.0004388364355736671,-0.0002087967868307099,4.999992533988052e-07,0.0015688192201517885,0.0,0.0,0.0,0.0,0.0,0.0,0.0,-4.204259402706967e-05,-6.76684567047503e-05,4.332800646373973e-06,0.00025096001644442367,4.0288110479166916e-05,6.0801641949215224e-05,-9.041925302710752e-06,0.00045439307413347435,-0.00046817907341453296,0.0015551640388991573,-0.0004388364355736671,0.0002087967868307099,-4.999992533988052e-07,-0.0015688192201517885,0.3514034152030945,19.745019912719727,0.3236968219280243,-20.181917190551758,-0.6118674874305725,-2.4694857597351074,0.30337852239608765,0
38,0.1849820613861084,-0.3514034152030945,-19.745019912719727,-0.3236968219280243,20.181917190551758,0.6118674874305725,2.4694857597351074,-0.30337852239608765,0.0,0.0,0.0,0.0,0.0,0.0,0.0,-0.37474139767825215,0.04137826875755049,-0.2081568397865039,0.3854118973562313,0.02126576504154124,0.09492406476957002,-0.2725497785438713,1.2134834363627844,-0.22017556313255374,-0.0075161613954655955,-2.604099342216232,-0.10892421519746824,2.468121324138368,0.8264839501765417,1.2134413937687574,-0.2202432315892585,-0.0075118285948192216,-2.6038483821997875,-0.10888392708698907,2.4681821257803174,0.826474908251239,-0.00045439307413347435,0.00046817907341453296,-0.0015551640388991573,0.0004388364355736671,-0.0002087967868307099,4.999992533988052e-07,0.0015688192201517885,0.0,0.0,0.0,0.0,0.0,0.0,0.0,-4.204259402706967e-05,-6.76684567047503e-05,4.332800646373973e-06,0.00025096001644442367,4.0288110479166916e-05,6.0801641949215224e-05,-9.041925302710752e-06,0.00045439307413347435,-0.00046817907341453296,0.0015551640388991573,-0.0004388364355736671,0.0002087967868307099,-4.999992533988052e-07,-0.0015688192201517885,0.3514034152030945,19.745019912719727,0.3236968219280243,-20.181917190551758,-0.6118674874305725,-2.4694857597351074,0.30337852239608765,0
39,0.18993210792541504,-0.3752071261405945,-19.717248916625977,-0.4228789508342743,20.205720901489258,0.6063743233680725,2.4694857597351074,-0.26858848333358765,0.0,0.0,0.0,0.0,0.0,0.0,0.0,-0.3762361255387587,0.016904857088078033,-0.2070303844129308,0.4232466651309793,0.022682968278625686,0.10078200827332195,-0.2729464329085671,1.2134850982953715,-0.22017751197438487,-0.0075092012460686655,-2.6041030789425497,-0.10892569542577218,2.468121322684826,0.8264807895827605,1.2134413937687574,-0.2202432315892585,-0.0075118285948192216,-2.6038483821997875,-0.10888392708698907,2.4681821257803174,0.826474908251239,0.00013973405071917224,2.6943682997005343e-05,0.0003087835578859194,-0.0003172938945869047,5.520095180102235e-05,0.00010020470548930951,-0.0008108983722318755,0.0,0.0,0.0,0.0,0.0,0.0,0.0,-4.3704526614174455e-05,-6.57196148736161e-05,-2.6273487505560494e-06,0.0002546967427621283,4.176833878311026e-05,6.0803095491390735e-05,-5.881331521462307e-06,-0.00013973405071917224,-2.6943682997005343e-05,-0.0003087835578859194,0.0003172938945869047,-5.520095180102235e-05,-0.00010020470548930951,0.0008108983722318755,0.3752071261405945,19.717248916625977,0.4228789508342743,-20.205720901489258,-0.6063743233680725,-2.4694857597351074,0.26858848333358765,0
40,0.1949753761291504,-0.3752071261405945,-19.717248916625977,-0.4228789508342743,20.205720901489258,0.6063743233680725,2.4694857597351074,-0.26858848333358765,0.0,0.0,0.0,0.0,0.0,0.0,0.0,-0.3762361255387587,0.016904857088078033,-0.2070303844129308,0.4232466651309793,0.022682968278625686,0.10078200827332195,-0.2729464329085671,1.2134850982953715,-0.22017751197438487,-0.0075092012460686655,-2.6041030789425497,-0.10892569542577218,2.468121322684826,0.8264807895827605,1.2134413937687574,-0.2202432315892585,-0.0075118285948192216,-2.6038483821997875,-0.10888392708698907,2.4681821257803174,0.826474908251239,0.00013973405071917224,2.6943682997005343e-05,0.0003087835578859194,-0.0003172938945869047,5.520095180102235e-05,0.00010020470548930951,-0.0008108983722318755,0.0,0.0,0.0,0.0,0.0,0.0,0.0,-4.3704526614174455e-05,-6.57196148736161e-05,-2.6273487505560494e-06,0.0002546967427621283,4.176833878311026e-05,6.0803095491390735e-05,-5.881331521462307e-06,-0.00013973405071917224,-2.6943682997005343e-05,-0.0003087835578859194,0.0003172938945869047,-5.520095180102235e-05,-0.00010020470548930951,0.0008108983722318755,0.3752071261405945,19.717248916625977,0.4228789508342743,-20.205720901489258,-0.6063743233680725,-2.4694857597351074,0.26858848333358765,0
41,0.19998455047607422,-0.4029781222343445,-19.693445205688477,-0.4466826617717743,20.229524612426758,0.6118674874305725,2.4758944511413574,-0.27591270208358765,0.0,0.0,0.0,0.0,0.0,0.0,0.0,-0.37518757936120445,0.012909406225280189,-0.20900636038191017,0.4311762541063926,0.023090973822691114,0.1018412384842789,-0.2735298911060331,1.2134849884008796,-0.22017918241024015,-0.0075075308102134026,-2.6041026831890313,-0.1089242146927253,2.468120610607995,0.8264816038573013,1.2134413937687574,-0.2202432315892585,-0.0075118285948192216,-2.6038483821997875,-0.10888392708698907,2.4681821257803174,0.826474908251239,0.0005728373274002038,-0.0004196026219324453,0.0006396967562038954,-0.0005812982217314299,-0.00019804545619267271,-0.00026080000703377146,0.00023770326555734524,0.0,0.0,0.0,0.0,0.0,0.0,0.0,-4.359463212222359e-05,-6.40491790183384e-05,-4.297784605819012e-06,0.00025430098924372757,4.028760573622503e-05,6.151517232222403e-05,-6.6956060622569424e-06,-0.0005728373274002038,0.0004196026219324453,-0.0006396967562038954,0.0005812982217314299,0.00019804545619267271,0.00026080000703377146,-0.00023770326555734524,0.4029781222343445,19.693445205688477,0.4466826617717743,-20.229524612426758,-0.6118674874305725,-2.4758944511413574,0.27591270208358765,0
42,0.20498156547546387,-0.4029781222343445,-19.693445205688477,-0.4466826617717743,20.229524612426758,0.6118674874305725,2.4758944511413574,-0.27591270208358765,0.0,0.0,0.0,0.0,0.0,0.0,0.0,-0.37518757936120445,0.012909406225280189,-0.20900636038191017,0.4311762541063926,0.023090973822691114,0.1018412384842789,-0.2735298911060331,1.2134849884008796,-0.22017918241024015,-0.0075075308102134026,-2.6041026831890313,-0.1089242146927253,2.468120610607995,0.8264816038573013,1.2134413937687574,-0.2202432315892585,-0.0075118285948192216,-2.6038483821997875,-0.10888392708698907,2.4681821257803174,0.826474908251239,0.0005728373274002038,-0.0004196026219324453,0.0006396967562038954,-0.0005812982217314299,-0.00019804545619267271,-0.00026080000703377146,0.00023770326555734524,0.0,0.0,0.0,0.0,0.0,0.0,0.0,-4.359463212222359e-05,-6.40491790183384e-05,-4.297784605819012e-06,0.00025430098924372757,4.028760573622503e-05,6.151517232222403e-05,-6.6956060622569424e-06,-0.0005728373274002038,0.0004196026219324453,-0.0006396967562038954,0.0005812982217314299,0.00019804545619267271,0.00026080000703377146,-0.00023770326555734524,0.4029781222343445,19.693445205688477,0.4466826617717743,-20.229524612426758,-0.6118674874305725,-2.4758944511413574,0.27591270208358765,0
43,0.20998096466064453,-0.4029781222343445,-19.745019912719727,-0.4466826617717743,20.181917190551758,0.5999656319618225,2.4758944511413574,-0.28232139348983765,0.0,0.0,0.0,0.0,0.0,0.0,0.0,-0.37581829392127086,0.018935021682289742,-0.21050997631755944,0.42928022839770114,0.022690295218280573,0.10109292972061285,-0.27373800064473874,1.2134870556391748,-0.22017556313255374,-0.0075075308102134026,-2.604099367722149,-0.10892178813958753,2.4681209638386497,0.826482631372349,1.2134413937687574,-0.2202432315892585,-0.0075118285948192216,-2.6038483821997875,-0.10888392708698907,2.4681821257803174,0.826474908251239,8.21748604322144e-05,0.001124743975444725,0.00095282426412206,0.0005922856897590068,0.00023304212553221706,-0.0002883404323121305,0.0005160030649262695,0.0,0.0,0.0,0.0,0.0,0.0,0.0,-4.566187041743497e-05,-6.76684567047503e-05,-4.297784605819012e-06,0.00025098552236135774,3.7861052598453515e-05,6.116194166772004e-05,-7.723121109970421e-06,-8.21748604322144e-05,-0.001124743975444725,-0.00095282426412206,-0.0005922856897590068,-0.00023304212553221706,0.0002883404323121305,-0.0005160030649262695,0.4029781222343445,19.745019912719727,0.4466826617717743,-20.181917190551758,-0.5999656319618225,-2.4758944511413574,0.28232139348983765,0
44,0.2149975299835205,-0.4029781222343445,-19.745019912719727,-0.4466826617717743,20.181917190551758,0.5999656319618225,2.4758944511413574,-0.28232139348983765,0.0,0.0,0.0,0.0,0.0,0.0,0.0,-0.37581829392127086,0.018935021682289742,-0.21050997631755944,0.42928022839770114,0.022690295218280573,0.10109292972061285,-0.27373800064473874,1.2134870556391748,-0.22017556313255374,-0.0075075308102134026,-2.604099367722149,-0.10892178813958753,2.4681209638386497,0.826482631372349,1.2134413937687574,-0.2202432315892585,-0.0075118285948192216,-2.6038483821997875,-0.10888392708698907,2.4681821257803174,0.826474908251239,8.21748604322144e-05,0.001124743975444725,0.00095282426412206,0.0005922856897590068,0.00023304212553221706,-0.0002883404323121305,0.0005160030649262695,0.0,0.0,0.0,0.0,0.0,0.0,0.0,-4.566187041743497e-05,-6.76684567047503e-05,-4.297784605819012e-06,0.00025098552236135774,3.7861052598453515e-05,6.116194166772004e-05,-7.723121109970421e-06,-8.21748604322144e-05,-0.001124743975444725,-0.00095282426412206,-0.0005922856897590068,-0.00023304212553221706,0.0002883404323121305,-0.0005160030649262695,0.4029781222343445,19.745019912719727,0.4466826617717743,-20.181917190551758,-0.5999656319618225,-2.4758944511413574,0.28232139348983765,0
45,0.21995115280151367,-0.3752071261405945,-19.717248916625977,-0.3713042438030243,20.181917190551758,0.5944724678993225,2.4694857597351074,-0.28964561223983765,0.0,0.0,0.0,0.0,0.0,0.0,0.0,-0.3778504059628066,0.016785109345174635,-0.20923164920630316,0.4281255481742829,0.021865079948713496,0.10078284604666814,-0.2736111398223511,1.2134851067986403,-0.22017751197438487,-0.00751282052375507,-2.604099342212486,-0.10892170414933083,2.468121322686812,0.8264803053443963,1.2134413937687574,-0.2202432315892585,-0.0075118285948192216,-2.6038483821997875,-0.10888392708698907,2.4681821257803174,0.826474908251239,-0.0007197226877460684,-0.00013571825566082395,-0.0009513801222327418,2.759350297207912e-05,0.00032550668268365156,7.171016727156546e-05,0.0007646560094281372,0.0,0.0,0.0,0.0,0.0,0.0,0.0,-4.371302988293024e-05,-6.57196148736161e-05,9.91928935848048e-07,0.0002509600126985312,3.777706234175948e-05,6.080309350542379e-05,-5.397093157277766e-06,0.0007197226877460684,0.00013571825566082395,0.0009513801222327418,-2.759350297207912e-05,-0.00032550668268365156,-7.171016727156546e-05,-0.0007646560094281372,0.3752071261405945,19.717248916625977,0.3713042438030243,-20.181917190551758,-0.5944724678993225,-2.4694857597351074,0.28964561223983765,0
46,0.2249739170074463,-0.3752071261405945,-19.717248916625977,-0.3713042438030243,20.181917190551758,0.5944724678993225,2.4694857597351074,-0.28964561223983765,0.0,0.0,0.0,0.0,0.0,0.0,0.0,-0.3778504059628066,0.016785109345174635,-0.20923164920630316,0.4281255481742829,0.021865079948713496,0.10078284604666814,-0.2736111398223511,1.2134851067986403,-0.22017751197438487,-0.00751282052375507,-2.604099342212486,-0.10892170414933083,2.468121322686812,0.8264803053443963,1.2134413937687574,-0.2202432315892585,-0.0075118285948192216,-2.6038483821997875,-0.10888392708698907,2.4681821257803174,0.826474908251239,-0.0007197226877460684,-0.00013571825566082395,-0.0009513801222327418,2.759350297207912e-05,0.00032550668268365156,7.171016727156546e-05,0.0007646560094281372,0.0,0.0,0.0,0.0,0.0,0.0,0.0,-4.371302988293024e-05,-6.57196148736161e-05,9.91928935848048e-07,0.0002509600126985312,3.777706234175948e-05,6.080309350542379e-05,-5.397093157277766e-06,0.0007197226877460684,0.00013571825566082395,0.0009513801222327418,-2.759350297207912e-05,-0.00032550668268365156,-7.171016727156546e-05,-0.0007646560094281372,0.3752071261405945,19.717248916625977,0.3713042438030243,-20.181917190551758,-0.5944724678993225,-2.4694857597351074,0.28964561223983765,0
47,0.23180246353149414,-0.3514034152030945,-19.717248916625977,-0.3713042438030243,20.181917190551758,0.6063743233680725,2.4694857597351074,-0.24112264811992645,0.0,0.0,0.0,0.0,0.0,0.0,0.0,-0.3751939318587107,0.021747009469589445,-0.20318218022301676,0.4246098338313461,0.021545269091466857,0.10055180560698615,-0.2734562192459473,1.2134833598333645,-0.22017751197438487,-0.00751282052375507,-2.604099342212342,-0.10892249592776622,2.468121322684818,0.8264780929621076,1.2134413937687574,-0.2202432315892585,-0.0075118285948192216,-2.6038483821997875,-0.10888392708698907,2.4681821257803174,0.826474908251239,-0.00043956105047982983,4.6811397166252546e-05,-0.0004073495073058277,0.0004415988099809854,8.082877234779281e-05,0.0001451722527431272,-0.000535041838721101,0.0,0.0,0.0,0.0,0.0,0.0,0.0,-4.196606460715735e-05,-6.57196148736161e-05,9.91928935848048e-07,0.0002509600125546463,3.8568840777145064e-05,6.080309549938434e-05,-3.1847108685756353e-06,0.00043956105047982983,-4.6811397166252546e-05,0.0004073495073058277,-0.0004415988099809854,-8.082877234779281e-05,-0.0001451722527431272,0.000535041838721101,0.3514034152030945,19.717248916625977,0.3713042438030243,-20.181917190551758,-0.6063743233680725,-2.4694857597351074,0.24112264811992645,0
48,0.23501920700073242,-0.3514034152030945,-19.717248916625977,-0.3713042438030243,20.181917190551758,0.6063743233680725,2.4694857597351074,-0.24112264811992645,0.0,0.0,0.0,0.0,0.0,0.0,0.0,-0.3751939318587107,0.021747009469589445,-0.20318218022301676,0.4246098338313461,0.021545269091466857,0.10055180560698615,-0.2734562192459473,1.2134833598333645,-0.22017751197438487,-0.00751282052375507,-2.604099342212342,-0.10892249592776622,2.468121322684818,0.8264780929621076,1.2134413937687574,-0.2202432315892585,-0.0075118285948192216,-2.6038483821997875,-0.10888392708698907,2.4681821257803174,0.826474908251239,-0.00043956105047982983,4.6811397166252546e-05,-0.0004073495073058277,0.0004415988099809854,8.082877234779281e-05,0.0001451722527431272,-0.000535041838721101,0.0,0.0,0.0,0.0,0.0,0.0,0.0,-4.196606460715735e-05,-6.57196148736161e-05,9.91928935848048e-07,0.0002509600125546463,3.8568840777145064e-05,6.080309549938434e-05,-3.1847108685756353e-06,0.00043956105047982983,-4.6811397166252546e-05,0.0004073495073058277,-0.0004415988099809854,-8.082877234779281e-05,-0.0001451722527431272,0.000535041838721101,0.3514034152030945,19.717248916625977,0.3713042438030243,-20.181917190551758,-0.6063743233680725,-2.4694857597351074,0.24112264811992645,0
49,0.2400202751159668,-0.3752071261405945,-19.717248916625977,-0.3713042438030243,20.205720901489258,0.6063743233680725,2.4694857597351074,-0.27591270208358765,0.0,0.0,0.0,0.0,0.0,0.0,0.0,-0.38059577049537174,0.015311786574913435,-0.2067309528666245,0.427335477980794,0.02222303489360208,0.10075883199048201,-0.2723029400581433,1.2134851066932297,-0.22017751197438487,-0.007514951079364932,-2.6041010126481976,-0.10892586530849672,2.468124501599206,0.8264814745093731,1.2134413937687574,-0.2202432315892585,-0.0075118285948192216,-2.6038483821997875,-0.10888392708698907,2.4681821257803174,0.826474908251239,-3.206317253604261e-05,-0.00044109533401004604,-0.0005166031454772053,1.245103871392824e-05,3.77525677693852e-05,0.00015941517147730893,0.0006340279416553573,0.0,0.0,0.0,0.0,0.0,0.0,0.0,-4.371292447236108e-05,-6.57196148736161e-05,3.1224845457103467e-06,0.00025263044841006277,4.193822150765081e-05,5.762418111121548e-05,-6.566258134110825e-06,3.206317253604261e-05,0.00044109533401004604,0.0005166031454772053,-1.245103871392824e-05,-3.77525677693852e-05,-0.00015941517147730893,-0.0006340279416553573,0.3752071261405945,19.717248916625977,0.3713042438030243,-20.205720901489258,-0.6063743233680725,-2.4694857597351074,0.27591270208358765,0
50,0.24504661560058594,-0.3752071261405945,-19.717248916625977,-0.3713042438030243,20.205720901489258,0.6063743233680725,2.4694857597351074,-0.27591270208358765,0.0,0.0,0.0,0.0,0.0,0.0,0.0,-0.38059577049537174,0.015311786574913435,-0.2067309528666245,0.427335477980794,0.02222303489360208,0.10075883199048201,-0.2723029400581433,1.2134851066932297,-0.22017751197438487,-0.007514951079364932,-2.6041010126481976,-0.10892586530849672,2.468124501599206,0.8264814745093731,1.2134413937687574,-0.2202432315892585,-0.0075118285948192216,-2.6038483821997875,-0.10888392708698907,2.4681821257803174,0.826474908251239,-3.206317253604261e-05,-0.00044109533401004604,-0.0005166031454772053,1.245103871392824e-05,3.77525677693852e-05,0.00015941517147730893,0.0006340279416553573,0.0,0.0,0.0,0.0,0.0,0.0,0.0,-4.371292447236108e-05,-6.57196148736161e-05,3.1224845457103467e-06,0.00025263044841006277,4.193822150765081e-05,5.762418111121548e-05,-6.566258134110825e-06,3.206317253604261e-05,0.00044109533401004604,0.0005166031454772053,-1.245103871392824e-05,-3.77525677693852e-05,-0.00015941517147730893,-0.0006340279416553573,0.3752071261405945,19.717248916625977,0.3713042438030243,-20.205720901489258,-0.6063743233680725,-2.4694857597351074,0.27591270208358765,0
51,0.24998974800109863,-0.3752071261405945,-19.717248916625977,-0.4228789508342743,20.181917190551758,0.6063743233680725,2.4694857597351074,-0.30337852239608765,0.0,0.0,0.0,0.0,0.0,0.0,0.0,-0.38444832451562755,0.01706539215248708,-0.20891465492538985,0.42251416400612235,0.022571325816960405,0.09977174575636552,-0.27037051519748595,1.213485106483704,-0.22017751197438487,-0.007509201258095714,-2.604099342212342,-0.10892609774170545,2.468122382502398,0.8264850057745289,1.2134413937687574,-0.2202432315892585,-0.0075118285948192216,-2.6038483821997875,-0.10888392708698907,2.4681821257803174,0.826474908251239,-0.0004060770593468901,-0.000344029756020572,0.0003069382115822653,4.453878273347543e-05,0.00016450545769038823,0.00011276647191073487,0.0014445817320581954,0.0,0.0,0.0,0.0,0.0,0.0,0.0,-4.371271494663098e-05,-6.57196148736161e-05,-2.6273367235074216e-06,0.0002509600125546463,4.217065471637249e-05,5.974327791946621e-05,-1.0097523289842592e-05,0.0004060770593468901,0.000344029756020572,-0.0003069382115822653,-4.453878273347543e-05,-0.00016450545769038823,-0.00011276647191073487,-0.0014445817320581954,0.3752071261405945,19.717248916625977,0.4228789508342743,-20.181917190551758,-0.6063743233680725,-2.4694857597351074,0.30337852239608765,0
52,0.25497889518737793,-0.3752071261405945,-19.717248916625977,-0.4228789508342743,20.181917190551758,0.6063743233680725,2.4694857597351074,-0.30337852239608765,0.0,0.0,0.0,0.0,0.0,0.0,0.0,-0.38444832451562755,0.01706539215248708,-0.20891465492538985,0.42251416400612235,0.022571325816960405,0.09977174575636552,-0.27037051519748595,1.213485106483704,-0.22017751197438487,-0.007509201258095714,-2.604099342212342,-0.10892609774170545,2.468122382502398,0.8264850057745289,1.2134413937687574,-0.2202432315892585,-0.0075118285948192216,-2.6038483821997875,-0.10888392708698907,2.4681821257803174,0.826474908251239,-0.0004060770593468901,-0.000344029756020572,0.0003069382115822653,4.453878273347543e-05,0.00016450545769038823,0.00011276647191073487,0.0014445817320581954,0.0,0.0,0.0,0.0,0.0,0.0,0.0,-4.371271494663098e-05,-6.57196148736161e-05,-2.6273367235074216e-06,0.0002509600125546463,4.217065471637249e-05,5.974327791946621e-05,-1.0097523289842592e-05,0.0004060770593468901,0.000344029756020572,-0.0003069382115822653,-4.453878273347543e-05,-0.00016450545769038823,-0.00011276647191073487,-0.0014445817320581954,0.3752071261405945,19.717248916625977,0.4228789508342743,-20.181917190551758,-0.6063743233680725,-2.4694857597351074,0.30337852239608765,0
53,0.2599966526031494,-0.3752071261405945,-19.717248916625977,-0.3713042438030243,20.154146194458008,0.6118674874305725,2.4694857597351074,-0.24844686686992645,0.0,0.0,0.0,0.0,0.0,0.0,0.0,-0.38034659540836474,0.014343027177633562,-0.20319750683704682,0.4241995662986861,0.02307906846157579,0.10032672359134127,-0.2705664203822678,1.213485105853831,-0.22017751197438487,-0.007512820523755137,-2.6040973943153185,-0.10892351411676818,2.468121323175317,0.8264753730399578,1.2134413937687574,-0.2202432315892585,-0.0075118285948192216,-2.6038483821997875,-0.10888392708698907,2.4681821257803174,0.826474908251239,-0.00013327749913862977,-3.6792549219833854e-05,-0.0005824718026373089,0.0010210319329905643,-0.00014489854102009962,0.00013813409646540174,-0.0010867125879061952,0.0,0.0,0.0,0.0,0.0,0.0,0.0,-4.371208507358837e-05,-6.57196148736161e-05,9.919289359157021e-07,0.0002490121155309666,3.9587029779103444e-05,6.0802605000187526e-05,-4.6478871873478766e-07,0.00013327749913862977,3.6792549219833854e-05,0.0005824718026373089,-0.0010210319329905643,0.00014489854102009962,-0.00013813409646540174,0.0010867125879061952,0.3752071261405945,19.717248916625977,0.3713042438030243,-20.154146194458008,-0.6118674874305725,-2.4694857597351074,0.24844686686992645,0
54,0.2650156021118164,-0.3752071261405945,-19.717248916625977,-0.3713042438030243,20.154146194458008,0.6118674874305725,2.4694857597351074,-0.24844686686992645,0.0,0.0,0.0,0.0,0.0,0.0,0.0,-0.38034659540836474,0.014343027177633562,-0.20319750683704682,0.4241995662986861,0.02307906846157579,0.10032672359134127,-0.2705664203822678,1.213485105853831,-0.22017751197438487,-0.007512820523755137,-2.6040973943153185,-0.10892351411676818,2.468121323175317,0.8264753730399578,1.2134413937687574,-0.2202432315892585,-0.0075118285948192216,-2.6038483821997875,-0.10888392708698907,2.4681821257803174,0.826474908251239,-0.00013327749913862977,-3.6792549219833854e-05,-0.0005824718026373089,0.0010210319329905643,-0.00014489854102009962,0.00013813409646540174,-0.0010867125879061952,0.0,0.0,0.0,0.0,0.0,0.0,0.0,-4.371208507358837e-05,-6.57196148736161e-05,9.919289359157021e-07,0.0002490121155309666,3.9587029779103444e-05,6.0802605000187526e-05,-4.6478871873478766e-07,0.00013327749913862977,3.6792549219833854e-05,0.0005824718026373089,-0.0010210319329905643,0.00014489854102009962,-0.00013813409646540174,0.0010867125879061952,0.3752071261405945,19.717248916625977,0.3713042438030243,-20.154146194458008,-0.6118674874305725,-2.4694857597351074,0.24844686686992645,0
55,0.269974946975708,-0.3752071261405945,-19.745019912719727,-0.3990752398967743,20.205720901489258,0.5999656319618225,2.4758944511413574,-0.29605430364608765,0.0,0.0,0.0,0.0,0.0,0.0,0.0,-0.3826208329010942,0.016871586797821237,-0.20446076750217249,0.4230294580050198,0.023313616846119097,0.1008732768140255,-0.27079216472601914,1.213485106798635,-0.22017556313255374,-0.007510871681923929,-2.604101012648203,-0.10892302375317217,2.468122023458837,0.826484065657864,1.2134413937687574,-0.2202432315892585,-0.0075118285948192216,-2.6038483821997875,-0.10888392708698907,2.4681821257803174,0.826474908251239,-0.00014429014946435077,0.0007117260847675072,-2.8802514098848724e-05,-8.413946957366783e-05,0.00014980758683390537,4.579584368718138e-06,0.0012752492756182845,0.0,0.0,0.0,0.0,0.0,0.0,0.0,-4.371302987760117e-05,-6.76684567047503e-05,-9.569128952922196e-07,0.00025263044841539184,3.909666618309715e-05,6.010232148057071e-05,-9.157406624993314e-06,0.00014429014946435077,-0.0007117260847675072,2.8802514098848724e-05,8.413946957366783e-05,-0.00014980758683390537,-4.579584368718138e-06,-0.0012752492756182845,0.3752071261405945,19.745019912719727,0.3990752398967743,-20.205720901489258,-0.5999656319618225,-2.4758944511413574,0.29605430364608765,0
56,0.27494382858276367,-0.3752071261405945,-19.745019912719727,-0.3990752398967743,20.205720901489258,0.5999656319618225,2.4758944511413574,-0.29605430364608765,0.0,0.0,0.0,0.0,0.0,0.0,0.0,-0.3826208329010942,0.016871586797821237,-0.20446076750217249,0.4230294580050198,0.023313616846119097,0.1008732768140255,-0.27079216472601914,1.213485106798635,-0.22017556313255374,-0.007510871681923929,-2.604101012648203,-0.10892302375317217,2.468122023458837,0.826484065657864,1.2134413937687574,-0.2202432315892585,-0.0075118285948192216,-2.6038483821997875,-0.10888392708698907,2.4681821257803174,0.826474908251239,-0.00014429014946435077,0.0007117260847675072,-2.8802514098848724e-05,-8.413946957366783e-05,0.00014980758683390537,4.579584368718138e-06,0.0012752492756182845,0.0,0.0,0.0,0.0,0.0,0.0,0.0,-4.371302987760117e-05,-6.76684567047503e-05,-9.569128952922196e-07,0.00025263044841539184,3.909666618309715e-05,6.010232148057071e-05,-9.157406624993314e-06,0.00014429014946435077,-0.0007117260847675072,2.8802514098848724e-05,8.413946957366783e-05,-0.00014980758683390537,-4.579584368718138e-06,-0.0012752492756182845,0.3752071261405945,19.745019912719727,0.3990752398967743,-20.205720901489258,-0.5999656319618225,-2.4758944511413574,0.29605430364608765,0
57,0.2799715995788574,-0.4029781222343445,-19.717248916625977,-0.3713042438030243,20.229524612426758,0.6063743233680725,2.4694857597351074,-0.24112264811992645,0.0,0.0,0.0,0.0,0.0,0.0,0.0,-0.37866293034458026,0.024982805917592735,-0.20298937516101073,0.4164934694741078,0.022873267227844066,0.09996455324963285,-0.2698120252928341,1.21348705270107,-0.22017751197438487,-0.00751282052375507,-2.604102685918476,-0.10892582604793705,2.4681213226927934,0.8264765623909059,1.2134413937687574,-0.2202432315892585,-0.0075118285948192216,-2.6038483821997875,-0.10888392708698907,2.4681821257803174,0.826474908251239,0.000882338843532094,0.00029123435746421624,-0.0006967557588974542,-0.0011909203039343283,-1.935653737125567e-05,-5.680965383659917e-05,-0.0014634741628828279,0.0,0.0,0.0,0.0,0.0,0.0,0.0,-4.565893231256446e-05,-6.57196148736161e-05,9.91928935848048e-07,0.00025430371868839785,4.189896094797252e-05,6.080308752398622e-05,-1.654139666906751e-06,-0.000882338843532094,-0.00029123435746421624,0.0006967557588974542,0.0011909203039343283,1.935653737125567e-05,5.680965383659917e-05,0.0014634741628828279,0.4029781222343445,19.717248916625977,0.3713042438030243,-20.229524612426758,-0.6063743233680725,-2.4694857597351074,0.24112264811992645,0
58,0.28498220443725586,-0.4029781222343445,-19.717248916625977,-0.3713042438030243,20.229524612426758,0.6063743233680725,2.4694857597351074,-0.24112264811992645,0.0,0.0,0.0,0.0,0.0,0.0,0.0,-0.37866293034458026,0.024982805917592735,-0.20298937516101073,0.4164934694741078,0.022873267227844066,0.09996455324963285,-0.2698120252928341,1.21348705270107,-0.22017751197438487,-0.00751282052375507,-2.604102685918476,-0.10892582604793705,2.4681213226927934,0.8264765623909059,1.2134413937687574,-0.2202432315892585,-0.0075118285948192216,-2.6038483821997875,-0.10888392708698907,2.4681821257803174,0.826474908251239,0.000882338843532094,0.00029123435746421624,-0.0006967557588974542,-0.0011909203039343283,-1.935653737125567e-05,-5.680965383659917e-05,-0.0014634741628828279,0.0,0.0,0.0,0.0,0.0,0.0,0.0,-4.565893231256446e-05,-6.57196148736161e-05,9.91928935848048e-07,0.00025430371868839785,4.189896094797252e-05,6.080308752398622e-05,-1.654139666906751e-06,-0.000882338843532094,-0.00029123435746421624,0.0006967557588974542,0.0011909203039343283,1.935653737125567e-05,5.680965383659917e-05,0.0014634741628828279,0.4029781222343445,19.717248916625977,0.3713042438030243,-20.229524612426758,-0.6063743233680725,-2.4694857597351074,0.24112264811992645,0
59,0.2899777889251709,-0.4029781222343445,-19.717248916625977,-0.3713042438030243,20.229524612426758,0.6063743233680725,2.4694857597351074,-0.24112264811992645,0.0,0.0,0.0,0.0,0.0,0.0,0.0,-0.37866293034458026,0.024982805917592735,-0.20298937516101073,0.4164934694741078,0.022873267227844066,0.09996455324963285,-0.2698120252928341,1.21348705270107,-0.22017751197438487,-0.00751282052375507,-2.604102685918476,-0.10892582604793705,2.4681213226927934,0.8264765623909059,1.2134413937687574,-0.2202432315892585,-0.0075118285948192216,-2.6038483821997875,-0.10888392708698907,2.4681821257803174,0.826474908251239,0.000882338843532094,0.00029123435746421624,-0.0006967557588974542,-0.0011909203039343283,-1.935653737125567e-05,-5.680965383659917e-05,-0.0014634741628828279,0.0,0.0,0.0,0.0,0.0,0.0,0.0,-4.565893231256446e-05,-6.57196148736161e-05,9.91928935848048e-07,0.00025430371868839785,4.189896094797252e-05,6.080308752398622e-05,-1.654139666906751e-06,-0.000882338843532094,-0.00029123435746421624,0.0006967557588974542,0.0011909203039343283,1.935653737125567e-05,5.680965383659917e-05,0.0014634741628828279,0.4029781222343445,19.717248916625977,0.3713042438030243,-20.229524612426758,-0.6063743233680725,-2.4694857597351074,0.24112264811992645,0
60,0.2949347496032715,-0.4029781222343445,-19.717248916625977,-0.3713042438030243,20.229524612426758,0.6063743233680725,2.4694857597351074,-0.24112264811992645,0.0,0.0,0.0,0.0,0.0,0.0,0.0,-0.37866293034458026,0.024982805917592735,-0.20298937516101073,0.4164934694741078,0.022873267227844066,0.09996455324963285,-0.2698120252928341,1.21348705270107,-0.22017751197438487,-0.00751282052375507,-2.604102685918476,-0.10892582604793705,2.4681213226927934,0.8264765623909059,1.2134413937687574,-0.2202432315892585,-0.0075118285948192216,-2.6038483821997875,-0.10888392708698907,2.4681821257803174,0.826474908251239,0.000882338843532094,0.00029123435746421624,-0.0006967557588974542,-0.0011909203039343283,-1.935653737125567e-05,-5.680965383659917e-05,-0.0014634741628828279,0.0,0.0,0.0,0.0,0.0,0.0,0.0,-4.565893231256446e-05,-6.57196148736161e-05,9.91928935848048e-07,0.00025430371868839785,4.189896094797252e-05,6.080308752398622e-05,-1.654139666906751e-06,-0.000882338843532094,-0.00029123435746421624,0.0006967557588974542,0.0011909203039343283,1.935653737125567e-05,5.680965383659917e-05,0.0014634741628828279,0.4029781222343445,19.717248916625977,0.3713042438030243,-20.229524612426758,-0.6063743233680725,-2.4694857597351074,0.24112264811992645,0
61,0.30002880096435547,-0.4029781222343445,-19.669641494750977,-0.4228789508342743,20.181917190551758,0.5999656319618225,2.4758944511413574,-0.28964561223983765,0.0,0.0,0.0,0.0,0.0,0.0,0.0,-0.3770434833958158,0.017432268589714327,-0.20099847445377808,0.4230632651957198,0.023100104102124125,0.10006371668362149,-0.2702983524487774,1.213487055640455,-0.2201808528460954,-0.0075092012460686655,-2.604099342212358,-0.10892604818302128,2.468120610607995,0.8264802922540254,1.2134413937687574,-0.2202432315892585,-0.0075118285948192216,-2.6038483821997875,-0.10888392708698907,2.4681821257803174,0.826474908251239,0.0008156806623999096,-0.0015776081396995628,0.0007151493692426862,0.0004505764593149543,0.0002942607610296529,-0.00017760774945481403,0.00035382697711929234,0.0,0.0,0.0,0.0,0.0,0.0,0.0,-4.5661871697522116e-05,-6.237874316308845e-05,-2.6273487505560494e-06,0.0002509600125706335,4.2121096032202154e-05,6.151517232222403e-05,-5.384002786379405e-06,-0.0008156806623999096,0.0015776081396995628,-0.0007151493692426862,-0.0004505764593149543,-0.0002942607610296529,0.00017760774945481403,-0.00035382697711929234,0.4029781222343445,19.669641494750977,0.4228789508342743,-20.181917190551758,-0.5999656319618225,-2.4758944511413574,0.28964561223983765,0
62,0.3049774169921875,-0.4029781222343445,-19.669641494750977,-0.4228789508342743,20.181917190551758,0.5999656319618225,2.4758944511413574,-0.28964561223983765,0.0,0.0,0.0,0.0,0.0,0.0,0.0,-0.3770434833958158,0.017432268589714327,-0.20099847445377808,0.4230632651957198,0.023100104102124125,0.10006371668362149,-0.2702983524487774,1.213487055640455,-0.2201808528460954,-0.0075092012460686655,-2.604099342212358,-0.10892604818302128,2.468120610607995,0.8264802922540254,1.2134413937687574,-0.2202432315892585,-0.0075118285948192216,-2.6038483821997875,-0.10888392708698907,2.4681821257803174,0.826474908251239,0.0008156806623999096,-0.0015776081396995628,0.0007151493692426862,0.0004505764593149543,0.0002942607610296529,-0.00017760774945481403,0.00035382697711929234,0.0,0.0,0.0,0.0,0.0,0.0,0.0,-4.5661871697522116e-05,-6.237874316308845e-05,-2.6273487505560494e-06,0.0002509600125706335,4.2121096032202154e-05,6.151517232222403e-05,-5.384002786379405e-06,-0.0008156806623999096,0.0015776081396995628,-0.0007151493692426862,-0.0004505764593149543,-0.0002942607610296529,0.00017760774945481403,-0.00035382697711929234,0.4029781222343445,19.669641494750977,0.4228789508342743,-20.181917190551758,-0.5999656319618225,-2.4758944511413574,0.28964561223983765,0
63,0.309985876083374,-0.4029781222343445,-19.745019912719727,-0.3990752398967743,20.205720901489258,0.6182761788368225,2.4694857597351074,-0.30978721380233765,0.0,0.0,0.0,0.0,0.0,0.0,0.0,-0.3806982768830062,0.018851548397379982,-0.20514403532137485,0.42236080967995243,0.022669427270657985,0.09999680450385777,-0.2716404868984096,1.2134870301306646,-0.22017556313255374,-0.007510871681923929,-2.6041010126481976,-0.10892527717245232,2.468124501599206,0.8264821466246155,1.2134413937687574,-0.2202432315892585,-0.0075118285948192216,-2.6038483821997875,-0.10888392708698907,2.4681821257803174,0.826474908251239,0.0006442394790249817,0.00043734108521821915,-0.0003936430823825257,-0.0002661104634840546,-0.0003571342079642003,9.80611846696757e-05,0.0011282196010422574,0.0,0.0,0.0,0.0,0.0,0.0,0.0,-4.563636190724196e-05,-6.76684567047503e-05,-9.569128952922196e-07,0.00025263044841006277,4.135008546324315e-05,5.762418111121548e-05,-7.238373376461382e-06,-0.0006442394790249817,-0.00043734108521821915,0.0003936430823825257,0.0002661104634840546,0.0003571342079642003,-9.80611846696757e-05,-0.0011282196010422574,0.4029781222343445,19.745019912719727,0.3990752398967743,-20.205720901489258,-0.6182761788368225,-2.4694857597351074,0.30978721380233765,0
64,0.31499433517456055,-0.4029781222343445,-19.745019912719727,-0.3990752398967743,20.205720901489258,0.6182761788368225,2.4694857597351074,-0.30978721380233765,0.0,0.0,0.0,0.0,0.0,0.0,0.0,-0.3806982768830062,0.018851548397379982,-0.20514403532137485,0.42236080967995243,0.022669427270657985,0.09999680450385777,-0.2716404868984096,1.2134870301306646,-0.22017556313255374,-0.007510871681923929,-2.6041010126481976,-0.10892527717245232,2.468124501599206,0.8264821466246155,1.2134413937687574,-0.2202432315892585,-0.0075118285948192216,-2.6038483821997875,-0.10888392708698907,2.4681821257803174,0.826474908251239,0.0006442394790249817,0.00043734108521821915,-0.0003936430823825257,-0.0002661104634840546,-0.0003571342079642003,9.80611846696757e-05,0.0011282196010422574,0.0,0.0,0.0,0.0,0.0,0.0,0.0,-4.563636190724196e-05,-6.76684567047503e-05,-9.569128952922196e-07,0.00025263044841006277,4.135008546324315e-05,5.762418111121548e-05,-7.238373376461382e-06,-0.0006442394790249817,-0.00043734108521821915,0.0003936430823825257,0.0002661104634840546,0.0003571342079642003,-9.80611846696757e-05,-0.0011282196010422574,0.4029781222343445,19.745019912719727,0.3990752398967743,-20.205720901489258,-0.6182761788368225,-2.4694857597351074,0.30978721380233765,0
65,0.31992244720458984,-0.3752071261405945,-19.768823623657227,-0.3713042438030243,20.205720901489258,0.6063743233680725,2.4630770683288574,-0.27591270208358765,0.0,0.0,0.0,0.0,0.0,0.0,0.0,-0.37698767296111774,0.021612571408629277,-0.2032128547770674,0.41886157828407933,0.022144489925234316,0.09982419373670155,-0.27272867865244366,1.2134851066935177,-0.2201738926966985,-0.007512899433222101,-2.6041010381580043,-0.10892289223246092,2.4681220740792775,0.8264819539992636,1.2134413937687574,-0.2202432315892585,-0.0075118285948192216,-2.6038483821997875,-0.10888392708698907,2.4681821257803174,0.826474908251239,-0.000329833559834405,0.0011209572752371836,-0.001064722795317045,-0.0005884178943292758,2.4218049965834314e-05,0.000402058017487803,0.0006461122246909189,0.0,0.0,0.0,0.0,0.0,0.0,0.0,-4.3712924760352934e-05,-6.933889256000025e-05,1.0708384028798243e-06,0.0002526559582167742,3.896514547184482e-05,6.00517010398427e-05,-7.045748024570031e-06,0.000329833559834405,-0.0011209572752371836,0.001064722795317045,0.0005884178943292758,-2.4218049965834314e-05,-0.000402058017487803,-0.0006461122246909189,0.3752071261405945,19.768823623657227,0.3713042438030243,-20.205720901489258,-0.6063743233680725,-2.4630770683288574,0.27591270208358765,0
66,0.3249194622039795,-0.3752071261405945,-19.768823623657227,-0.3713042438030243,20.205720901489258,0.6063743233680725,2.4630770683288574,-0.27591270208358765,0.0,0.0,0.0,0.0,0.0,0.0,0.0,-0.37698767296111774,0.021612571408629277,-0.2032128547770674,0.41886157828407933,0.022144489925234316,0.09982419373670155,-0.27272867865244366,1.2134851066935177,-0.2201738926966985,-0.007512899433222101,-2.6041010381580043,-0.10892289223246092,2.4681220740792775,0.8264819539992636,1.2134413937687574,-0.2202432315892585,-0.0075118285948192216,-2.6038483821997875,-0.10888392708698907,2.4681821257803174,0.826474908251239,-0.000329833559834405,0.0011209572752371836,-0.001064722795317045,-0.0005884178943292758,2.4218049965834314e-05,0.000402058017487803,0.0006461122246909189,0.0,0.0,0.0,0.0,0.0,0.0,0.0,-4.3712924760352934e-05,-6.933889256000025e-05,1.0708384028798243e-06,0.0002526559582167742,3.896514547184482e-05,6.00517010398427e-05,-7.045748024570031e-06,0.000329833559834405,-0.0011209572752371836,0.001064722795317045,0.0005884178943292758,-2.4218049965834314e-05,-0.000402058017487803,-0.0006461122246909189,0.3752071261405945,19.768823623657227,0.3713042438030243,-20.205720901489258,-0.6063743233680725,-2.4630770683288574,0.27591270208358765,0
67,0.32997846603393555,-0.3236324191093445,-19.717248916625977,-0.4228789508342743,20.181917190551758,0.5999656319618225,2.4758944511413574,-0.30337852239608765,0.0,0.0,0.0,0.0,0.0,0.0,0.0,-0.3796047897451885,0.015553133990099485,-0.20398563951662788,0.4238397765656788,0.022393831232263336,0.10070670329609736,-0.2723842403373544,1.2134814874859605,-0.22017751197438487,-0.007509280155981143,-2.604099342247479,-0.10892225836023273,2.4681206149688677,0.8264850102993919,1.2134413937687574,-0.2202432315892585,-0.0075118285948192216,-2.6038483821997875,-0.10888392708698907,2.4681821257803174,0.826474908251239,-0.0013655675989705052,-0.0001661003909516184,0.00045070270604848225,0.0006039657512329514,0.00024313786841711278,-0.00019179025012729296,0.0014063994675713866,0.0,0.0,0.0,0.0,0.0,0.0,0.0,-4.0093717203149026e-05,-6.57196148736161e-05,-2.5484388380785095e-06,0.00025096004769142866,3.8331273243652486e-05,6.151081144967208e-05,-1.0102048152882404e-05,0.0013655675989705052,0.0001661003909516184,-0.00045070270604848225,-0.0006039657512329514,-0.00024313786841711278,0.00019179025012729296,-0.0014063994675713866,0.3236324191093445,19.717248916625977,0.4228789508342743,-20.181917190551758,-0.5999656319618225,-2.4758944511413574,0.30337852239608765,0
68,0.3349792957305908,-0.3236324191093445,-19.717248916625977,-0.4228789508342743,20.181917190551758,0.5999656319618225,2.4758944511413574,-0.30337852239608765,0.0,0.0,0.0,0.0,0.0,0.0,0.0,-0.3796047897451885,0.015553133990099485,-0.20398563951662788,0.4238397765656788,0.022393831232263336,0.10070670329609736,-0.2723842403373544,1.2134814874859605,-0.22017751197438487,-0.007509280155981143,-2.604099342247479,-0.10892225836023273,2.4681206149688677,0.8264850102993919,1.2134413937687574,-0.2202432315892585,-0.0075118285948192216,-2.6038483821997875,-0.10888392708698907,2.4681821257803174,0.826474908251239,-0.0013655675989705052,-0.0001661003909516184,0.00045070270604848225,0.0006039657512329514,0.00024313786841711278,-0.00019179025012729296,0.0014063994675713866,0.0,0.0,0.0,0.0,0.0,0.0,0.0,-4.0093717203149026e-05,-6.57196148736161e-05,-2.5484388380785095e-06,0.00025096004769142866,3.8331273243652486e-05,6.151081144967208e-05,-1.0102048152882404e-05,0.0013655675989705052,0.0001661003909516184,-0.00045070270604848225,-0.0006039657512329514,-0.00024313786841711278,0.00019179025012729296,-0.0014063994675713866,0.3236324191093445,19.717248916625977,0.4228789508342743,-20.181917190551758,-0.5999656319618225,-2.4758944511413574,0.30337852239608765,0
69,0.3401482105255127,-0.3752071261405945,-19.745019912719727,-0.4228789508342743,20.205720901489258,0.6118674874305725,2.4758944511413574,-0.25485557317733765,0.0,0.0,0.0,0.0,0.0,0.0,0.0,-0.3796898695611009,0.021823445542473424,-0.204167920190302,0.4199388120871443,0.022123441252914183,0.09975859059105024,-0.2718382936621144,1.2134851058538325,-0.22017556313255374,-0.007509201246514114,-2.6041010126481976,-0.10892753994339563,2.4681209652742795,0.8264795796147588,1.2134413937687574,-0.2202432315892585,-0.0075118285948192216,-2.6038483821997875,-0.10888392708698907,2.4681821257803174,0.826474908251239,-0.00022188984586361924,0.0011438163183079485,0.0007554468494218424,-0.00030196146741103013,-0.000257739933808283,-0.00021890294302701448,-0.0008464766883116092,0.0,0.0,0.0,0.0,0.0,0.0,0.0,-4.371208507514268e-05,-6.76684567047503e-05,-2.6273483051076837e-06,0.00025263044841006277,4.361285640655521e-05,6.116050603788281e-05,-4.6713635197814796e-06,0.00022188984586361924,-0.0011438163183079485,-0.0007554468494218424,0.00030196146741103013,0.000257739933808283,0.00021890294302701448,0.0008464766883116092,0.3752071261405945,19.745019912719727,0.4228789508342743,-20.205720901489258,-0.6118674874305725,-2.4758944511413574,0.25485557317733765,0
70,0.3449406623840332,-0.3752071261405945,-19.745019912719727,-0.4228789508342743,20.205720901489258,0.6118674874305725,2.4758944511413574,-0.25485557317733765,0.0,0.0,0.0,0.0,0.0,0.0,0.0,-0.3796898695611009,0.021823445542473424,-0.204167920190302,0.4199388120871443,0.022123441252914183,0.09975859059105024,-0.2718382936621144,1.2134851058538325,-0.22017556313255374,-0.007509201246514114,-2.6041010126481976,-0.10892753994339563,2.4681209652742795,0.8264795796147588,1.2134413937687574,-0.2202432315892585,-0.0075118285948192216,-2.6038483821997875,-0.10888392708698907,2.4681821257803174,0.826474908251239,-0.00022188984586361924,0.0011438163183079485,0.0007554468494218424,-0.00030196146741103013,-0.000257739933808283,-0.00021890294302701448,-0.0008464766883116092,0.0,0.0,0.0,0.0,0.0,0.0,0.0,-4.371208507514268e-05,-6.76684567047503e-05,-2.6273483051076837e-06,0.00025263044841006277,4.361285640655521e-05,6.116050603788281e-05,-4.6713635197814796e-06,0.00022188984586361924,-0.0011438163183079485,-0.0007554468494218424,0.00030196146741103013,0.000257739933808283,0.00021890294302701448,0.0008464766883116092,0.3752071261405945,19.745019912719727,0.4228789508342743,-20.205720901489258,-0.6118674874305725,-2.4758944511413574,0.25485557317733765,0
71,0.34998607635498047,-0.3752071261405945,-19.693445205688477,-0.4228789508342743,20.154146194458008,0.6118674874305725,2.4694857597351074,-0.26858848333358765,0.0,0.0,0.0,0.0,0.0,0.0,0.0,-0.37735072760674104,0.023916827291209072,-0.20126734384584166,0.4189733266456485,0.021779739119677025,0.09972121683355717,-0.27142679292267374,1.213483040504283,-0.22017918241024015,-0.007509201246068667,-2.604097393370511,-0.10892452561267614,2.468124502085725,0.8264778480873423,1.2134413937687574,-0.2202432315892585,-0.0075118285948192216,-2.6038483821997875,-0.10888392708698907,2.4681821257803174,0.826474908251239,6.125466118021956e-05,-0.0001230788986321107,0.0012757640518542962,0.0007610045003664742,-0.000282890015059361,0.00012094221489617057,-0.00026332487237671633,0.0,0.0,0.0,0.0,0.0,0.0,0.0,-4.164673552553566e-05,-6.40491790183384e-05,-2.6273487505543147e-06,0.0002490111707236231,4.059852568706612e-05,5.762369459239025e-05,-2.9398361032217935e-06,-6.125466118021956e-05,0.0001230788986321107,-0.0012757640518542962,-0.0007610045003664742,0.000282890015059361,-0.00012094221489617057,0.00026332487237671633,0.3752071261405945,19.693445205688477,0.4228789508342743,-20.154146194458008,-0.6118674874305725,-2.4694857597351074,0.26858848333358765,0
72,0.35497260093688965,-0.3752071261405945,-19.693445205688477,-0.4228789508342743,20.154146194458008,0.6118674874305725,2.4694857597351074,-0.26858848333358765,0.0,0.0,0.0,0.0,0.0,0.0,0.0,-0.37735072760674104,0.023916827291209072,-0.20126734384584166,0.4189733266456485,0.021779739119677025,0.09972121683355717,-0.27142679292267374,1.213483040504283,-0.22017918241024015,-0.007509201246068667,-2.604097393370511,-0.10892452561267614,2.468124502085725,0.8264778480873423,1.2134413937687574,-0.2202432315892585,-0.0075118285948192216,-2.6038483821997875,-0.10888392708698907,2.4681821257803174,0.826474908251239,6.125466118021956e-05,-0.0001230788986321107,0.0012757640518542962,0.0007610045003664742,-0.000282890015059361,0.00012094221489617057,-0.00026332487237671633,0.0,0.0,0.0,0.0,0.0,0.0,0.0,-4.164673552553566e-05,-6.40491790183384e-05,-2.6273487505543147e-06,0.0002490111707236231,4.059852568706612e-05,5.762369459239025e-05,-2.9398361032217935e-06,-6.125466118021956e-05,0.0001230788986321107,-0.0012757640518542962,-0.0007610045003664742,0.000282890015059361,-0.00012094221489617057,0.00026332487237671633,0.3752071261405945,19.693445205688477,0.4228789508342743,-20.154146194458008,-0.6118674874305725,-2.4694857597351074,0.26858848333358765,0
73,0.3600499629974365,-0.4029781222343445,-19.717248916625977,-0.4228789508342743,20.205720901489258,0.6063743233680725,2.4758944511413574,-0.28232139348983765,0.0,0.0,0.0,0.0,0.0,0.0,0.0,-0.3767800847775979,0.023705676783763997,-0.20335185787154608,0.4242307626539055,0.022164926520197574,0.10070499464361238,-0.2720257147497923,1.2134843005800393,-0.22017751197438487,-0.007509280167562746,-2.6041030789425497,-0.10892570905647324,2.4681241428985925,0.8264826297554478,1.2134413937687574,-0.2202432315892585,-0.0075118285948192216,-2.6038483821997875,-0.10888392708698907,2.4681821257803174,0.826474908251239,0.0007538540071560153,0.00034304933678905547,0.0005399522304929911,0.00023419751458811323,-9.699786443167651e-05,-5.967296882273658e-06,0.0005276954556453844,0.0,0.0,0.0,0.0,0.0,0.0,0.0,-4.290681128193974e-05,-6.57196148736161e-05,-2.5484272564756452e-06,0.0002546967427621283,4.178196948416424e-05,5.798288172487176e-05,-7.72150420880191e-06,-0.0007538540071560153,-0.00034304933678905547,-0.0005399522304929911,-0.00023419751458811323,9.699786443167651e-05,5.967296882273658e-06,-0.0005276954556453844,0.4029781222343445,19.717248916625977,0.4228789508342743,-20.205720901489258,-0.6063743233680725,-2.4758944511413574,0.28232139348983765,0
74,0.3650169372558594,-0.4029781222343445,-19.717248916625977,-0.4228789508342743,20.205720901489258,0.6063743233680725,2.4758944511413574,-0.28232139348983765,0.0,0.0,0.0,0.0,0.0,0.0,0.0,-0.3767800847775979,0.023705676783763997,-0.20335185787154608,0.4242307626539055,0.022164926520197574,0.10070499464361238,-0.2720257147497923,1.2134843005800393,-0.22017751197438487,-0.007509280167562746,-2.6041030789425497,-0.10892570905647324,2.4681241428985925,0.8264826297554478,1.2134413937687574,-0.2202432315892585,-0.0075118285948192216,-2.6038483821997875,-0.10888392708698907,2.4681821257803174,0.826474908251239,0.0007538540071560153,0.00034304933678905547,0.0005399522304929911,0.00023419751458811323,-9.699786443167651e-05,-5.967296882273658e-06,0.0005276954556453844,0.0,0.0,0.0,0.0,0.0,0.0,0.0,-4.290681128193974e-05,-6.57196148736161e-05,-2.5484272564756452e-06,0.0002546967427621283,4.178196948416424e-05,5.798288172487176e-05,-7.72150420880191e-06,-0.0007538540071560153,-0.00034304933678905547,-0.0005399522304929911,-0.00023419751458811323,9.699786443167651e-05,5.967296882273658e-06,-0.0005276954556453844,0.4029781222343445,19.717248916625977,0.4228789508342743,-20.205720901489258,-0.6063743233680725,-2.4758944511413574,0.28232139348983765,0
75,0.36998915672302246,-0.3752071261405945,-19.717248916625977,-0.4704863727092743,20.205720901489258,0.5999656319618225,2.4758944511413574,-0.23471395671367645,0.0,0.0,0.0,0.0,0.0,0.0,0.0,-0.3786925630444547,0.02296975385726484,-0.20745964139508505,0.4269144108290854,0.022455170144562404,0.10100254173787283,-0.2722658438300411,1.213485098279819,-0.22017751197438487,-0.007505860374803653,-2.6041012510663277,-0.10892214511681084,2.4681206106279348,0.8264769884444335,1.2134413937687574,-0.2202432315892585,-0.0075118285948192216,-2.6038483821997875,-0.10888392708698907,2.4681821257803174,0.826474908251239,-0.0004597171487935146,-5.975020763698608e-05,0.0013622368348927558,0.00029205665762686617,0.0002920642125310487,-8.498905420330232e-05,-0.001821998896824791,0.0,0.0,0.0,0.0,0.0,0.0,0.0,-4.370451106172624e-05,-6.57196148736161e-05,-5.968220015568557e-06,0.00025286886654019014,3.82180298217627e-05,6.151515238261851e-05,-2.0801931944758323e-06,0.0004597171487935146,5.975020763698608e-05,-0.0013622368348927558,-0.00029205665762686617,-0.0002920642125310487,8.498905420330232e-05,0.001821998896824791,0.3752071261405945,19.717248916625977,0.4704863727092743,-20.205720901489258,-0.5999656319618225,-2.4758944511413574,0.23471395671367645,0
76,0.37499141693115234,-0.3752071261405945,-19.717248916625977,-0.4704863727092743,20.205720901489258,0.5999656319618225,2.4758944511413574,-0.23471395671367645,0.0,0.0,0.0,0.0,0.0,0.0,0.0,-0.3786925630444547,0.02296975385726484,-0.20745964139508505,0.4269144108290854,0.022455170144562404,0.10100254173787283,-0.2722658438300411,1.213485098279819,-0.22017751197438487,-0.007505860374803653,-2.6041012510663277,-0.10892214511681084,2.4681206106279348,0.8264769884444335,1.2134413937687574,-0.2202432315892585,-0.0075118285948192216,-2.6038483821997875,-0.10888392708698907,2.4681821257803174,0.826474908251239,-0.0004597171487935146,-5.975020763698608e-05,0.0013622368348927558,0.00029205665762686617,0.0002920642125310487,-8.498905420330232e-05,-0.001821998896824791,0.0,0.0,0.0,0.0,0.0,0.0,0.0,-4.370451106172624e-05,-6.57196148736161e-05,-5.968220015568557e-06,0.00025286886654019014,3.82180298217627e-05,6.151515238261851e-05,-2.0801931944758323e-06,0.0004597171487935146,5.975020763698608e-05,-0.0013622368348927558,-0.00029205665762686617,-0.0002920642125310487,8.498905420330232e-05,0.001821998896824791,0.3752071261405945,19.717248916625977,0.4704863727092743,-20.205720901489258,-0.5999656319618225,-2.4758944511413574,0.23471395671367645,0
77,0.3799738883972168,-0.3752071261405945,-19.717248916625977,-0.4704863727092743,20.205720901489258,0.5999656319618225,2.4758944511413574,-0.23471395671367645,0.0,0.0,0.0,0.0,0.0,0.0,0.0,-0.3786925630444547,0.02296975385726484,-0.20745964139508505,0.4269144108290854,0.022455170144562404,0.10100254173787283,-0.2722658438300411,1.213485098279819,-0.22017751197438487,-0.007505860374803653,-2.6041012510663277,-0.10892214511681084,2.4681206106279348,0.8264769884444335,1.2134413937687574,-0.2202432315892585,-0.0075118285948192216,-2.6038483821997875,-0.10888392708698907,2.4681821257803174,0.826474908251239,-0.0004597171487935146,-5.975020763698608e-05,0.0013622368348927558,0.00029205665762686617,0.0002920642125310487,-8.498905420330232e-05,-0.001821998896824791,0.0,0.0,0.0,0.0,0.0,0.0,0.0,-4.370451106172624e-05,-6.57196148736161e-05,-5.968220015568557e-06,0.00025286886654019014,3.82180298217627e-05,6.151515238261851e-05,-2.0801931944758323e-06,0.0004597171487935146,5.975020763698608e-05,-0.0013622368348927558,-0.00029205665762686617,-0.0002920642125310487,8.498905420330232e-05,0.001821998896824791,0.3752071261405945,19.717248916625977,0.4704863727092743,-20.205720901489258,-0.5999656319618225,-2.4758944511413574,0.23471395671367645,0
78,0.3849785327911377,-0.3752071261405945,-19.717248916625977,-0.4704863727092743,20.205720901489258,0.5999656319618225,2.4758944511413574,-0.23471395671367645,0.0,0.0,0.0,0.0,0.0,0.0,0.0,-0.3786925630444547,0.02296975385726484,-0.20745964139508505,0.4269144108290854,0.022455170144562404,0.10100254173787283,-0.2722658438300411,1.213485098279819,-0.22017751197438487,-0.007505860374803653,-2.6041012510663277,-0.10892214511681084,2.4681206106279348,0.8264769884444335,1.2134413937687574,-0.2202432315892585,-0.0075118285948192216,-2.6038483821997875,-0.10888392708698907,2.4681821257803174,0.826474908251239,-0.0004597171487935146,-5.975020763698608e-05,0.0013622368348927558,0.00029205665762686617,0.0002920642125310487,-8.498905420330232e-05,-0.001821998896824791,0.0,0.0,0.0,0.0,0.0,0.0,0.0,-4.370451106172624e-05,-6.57196148736161e-05,-5.968220015568557e-06,0.00025286886654019014,3.82180298217627e-05,6.151515238261851e-05,-2.0801931944758323e-06,0.0004597171487935146,5.975020763698608e-05,-0.0013622368348927558,-0.00029205665762686617,-0.0002920642125310487,8.498905420330232e-05,0.001821998896824791,0.3752071261405945,19.717248916625977,0.4704863727092743,-20.205720901489258,-0.5999656319618225,-2.4758944511413574,0.23471395671367645,0
79,0.3899972438812256,-0.4267818331718445,-19.693445205688477,-0.4228789508342743,20.205720901489258,0.5999656319618225,2.4694857597351074,-0.28964561223983765,0.0,0.0,0.0,0.0,0.0,0.0,0.0,-0.37624142894225915,0.025094008425146662,-0.20502783088396107,0.42320020807759934,0.022199461711633627,0.10018347737937666,-0.27260073756379194,1.2134887260762788,-0.22017918241024015,-0.00750920416864152,-2.604101012649543,-0.1089264117427514,2.4681213270454685,0.8264834844182959,1.2134413937687574,-0.2202432315892585,-0.0075118285948192216,-2.6038483821997875,-0.10888392708698907,2.4681821257803174,0.826474908251239,0.0010552028348392748,-0.0011356524242273004,0.00034713536384682505,-0.0002688012130687843,0.0003096790043822071,4.042057983694163e-06,0.0009165005713878714,0.0,0.0,0.0,0.0,0.0,0.0,0.0,-4.733230752140827e-05,-6.40491790183384e-05,-2.624426177701318e-06,0.0002526304497556531,4.248465576232874e-05,6.079873484887699e-05,-8.576167056850714e-06,-0.0010552028348392748,0.0011356524242273004,-0.00034713536384682505,0.0002688012130687843,-0.0003096790043822071,-4.042057983694163e-06,-0.0009165005713878714,0.4267818331718445,19.693445205688477,0.4228789508342743,-20.205720901489258,-0.5999656319618225,-2.4694857597351074,0.28964561223983765,0
