rezayati/contactInterpretation/dataset/franka_main/labeled_data/link6/b2_5.csv
index,time,tau_J0,tau_J1,tau_J2,tau_J3,tau_J4,tau_J5,tau_J6,tau_J_d0,tau_J_d1,tau_J_d2,tau_J_d3,tau_J_d4,tau_J_d5,tau_J_d6,tau_ext0,tau_ext1,tau_ext2,tau_ext3,tau_ext4,tau_ext5,tau_ext6,q0,q1,q2,q3,q4,q5,q6,q_d0,q_d1,q_d2,q_d3,q_d4,q_d5,q_d6,dq0,dq1,dq2,dq3,dq4,dq5,dq6,dq_d0,dq_d1,dq_d2,dq_d3,dq_d4,dq_d5,dq_d6,e0,e1,e2,e3,e4,e5,e6,de0,de1,de2,de3,de4,de5,de6,etau_J0,etau_J1,etau_J2,etau_J3,etau_J4,etau_J5,etau_J6,label
1,0.0,-0.8076412081718445,-46.34963607788086,-5.663662433624268,19.610628128051758,0.8141990303993225,2.4044833183288574,-0.09097616374492645,0.0,0.0,0.0,0.0,0.0,0.0,0.0,-0.7221420001951778,-0.08334405532928381,-0.4672497408303209,0.46178764990877613,0.2189401231646169,0.1323533629930618,-0.07503819231407441,0.8782160108395167,0.7556616683030888,-0.2822385368096201,-1.669196841025192,0.14133138297001524,2.403408868206872,1.027312254420585,0.878092876070424,0.7554597494309409,-0.2825552651693207,-1.6690993614607135,0.1414185955172306,2.4034451173676383,1.0273381002308042,0.0008267035642676506,-0.0006901710080678702,-0.0002437042501227219,0.0009146739347973381,-0.0001925953300055969,-0.00020186542626690317,0.0012744119749601016,0.0,0.0,0.0,0.0,0.0,0.0,0.0,-0.00012313476909275867,-0.00020191887214793258,-0.0003167283597006465,9.747956447858641e-05,8.721254721535954e-05,3.62491607663884e-05,2.5845810219138343e-05,-0.0008267035642676506,0.0006901710080678702,0.0002437042501227219,-0.0009146739347973381,0.0001925953300055969,0.00020186542626690317,-0.0012744119749601016,0.8076412081718445,46.34963607788086,5.663662433624268,-19.610628128051758,-0.8141990303993225,-2.4044833183288574,0.09097616374492645,0
2,0.004225730895996094,-0.8076412081718445,-46.34963607788086,-5.663662433624268,19.610628128051758,0.8141990303993225,2.4044833183288574,-0.09097616374492645,0.0,0.0,0.0,0.0,0.0,0.0,0.0,-0.7221420001951778,-0.08334405532928381,-0.4672497408303209,0.46178764990877613,0.2189401231646169,0.1323533629930618,-0.07503819231407441,0.8782160108395167,0.7556616683030888,-0.2822385368096201,-1.669196841025192,0.14133138297001524,2.403408868206872,1.027312254420585,0.878092876070424,0.7554597494309409,-0.2825552651693207,-1.6690993614607135,0.1414185955172306,2.4034451173676383,1.0273381002308042,0.0008267035642676506,-0.0006901710080678702,-0.0002437042501227219,0.0009146739347973381,-0.0001925953300055969,-0.00020186542626690317,0.0012744119749601016,0.0,0.0,0.0,0.0,0.0,0.0,0.0,-0.00012313476909275867,-0.00020191887214793258,-0.0003167283597006465,9.747956447858641e-05,8.721254721535954e-05,3.62491607663884e-05,2.5845810219138343e-05,-0.0008267035642676506,0.0006901710080678702,0.0002437042501227219,-0.0009146739347973381,0.0001925953300055969,0.00020186542626690317,-0.0012744119749601016,0.8076412081718445,46.34963607788086,5.663662433624268,-19.610628128051758,-0.8141990303993225,-2.4044833183288574,0.09097616374492645,0
3,0.009222030639648438,-0.7560665011405945,-46.37740707397461,-5.635891437530518,19.634431838989258,0.8022971749305725,2.4108920097351074,-0.04336874559521675,0.0,0.0,0.0,0.0,0.0,0.0,0.0,-0.7127540324448888,-0.0679419950626656,-0.45371033889900675,0.45573846023728265,0.21939060752148185,0.13200220008416585,-0.07345603380121349,0.8782123746402857,0.7556655671627092,-0.28224048565145127,-1.6691954352768545,0.14132950662181673,2.403408156130049,1.0273069647074573,0.878092876070424,0.7554597494309409,-0.2825552651693207,-1.6690993614607135,0.1414185955172306,2.4034451173676383,1.0273381002308042,-0.0006543676791430908,-0.00022492567479130379,-0.0002797635622668029,0.0005615623955643383,0.00019500152259653312,-0.000490294423199239,-0.0015291976081311873,0.0,0.0,0.0,0.0,0.0,0.0,0.0,-0.00011949856986170904,-0.00020581773176830964,-0.0003147795178694568,9.607381614107346e-05,8.908889541386911e-05,3.696123758922809e-05,3.11355233468813e-05,0.0006543676791430908,0.00022492567479130379,0.0002797635622668029,-0.0005615623955643383,-0.00019500152259653312,0.000490294423199239,0.0015291976081311873,0.7560665011405945,46.37740707397461,5.635891437530518,-19.634431838989258,-0.8022971749305725,-2.4108920097351074,0.04336874559521675,0
4,0.014207601547241211,-0.7560665011405945,-46.37740707397461,-5.635891437530518,19.634431838989258,0.8022971749305725,2.4108920097351074,-0.04336874559521675,0.0,0.0,0.0,0.0,0.0,0.0,0.0,-0.7127540324448888,-0.0679419950626656,-0.45371033889900675,0.45573846023728265,0.21939060752148185,0.13200220008416585,-0.07345603380121349,0.8782123746402857,0.7556655671627092,-0.28224048565145127,-1.6691954352768545,0.14132950662181673,2.403408156130049,1.0273069647074573,0.878092876070424,0.7554597494309409,-0.2825552651693207,-1.6690993614607135,0.1414185955172306,2.4034451173676383,1.0273381002308042,-0.0006543676791430908,-0.00022492567479130379,-0.0002797635622668029,0.0005615623955643383,0.00019500152259653312,-0.000490294423199239,-0.0015291976081311873,0.0,0.0,0.0,0.0,0.0,0.0,0.0,-0.00011949856986170904,-0.00020581773176830964,-0.0003147795178694568,9.607381614107346e-05,8.908889541386911e-05,3.696123758922809e-05,3.11355233468813e-05,0.0006543676791430908,0.00022492567479130379,0.0002797635622668029,-0.0005615623955643383,-0.00019500152259653312,0.000490294423199239,0.0015291976081311873,0.7560665011405945,46.37740707397461,5.635891437530518,-19.634431838989258,-0.8022971749305725,-2.4108920097351074,0.04336874559521675,0
5,0.019229888916015625,-0.7560665011405945,-46.42501449584961,-5.663662433624268,19.686006546020508,0.7968040108680725,2.3980746269226074,-0.05710165575146675,0.0,0.0,0.0,0.0,0.0,0.0,0.0,-0.7142093593404768,-0.07257008635527687,-0.4490887446339673,0.4579726406557065,0.2195736053847581,0.1324974605115524,-0.07250325645259528,0.8782116852212711,0.7556684053394174,-0.2822385368096201,-1.669201414521222,0.1413301169673602,2.403409580283695,1.0273084905863636,0.878092876070424,0.7554597494309409,-0.2825552651693207,-1.6690993614607135,0.1414185955172306,2.4034451173676383,1.0273381002308042,5.290611050655082e-06,0.00042942890008165107,-0.006423881439797766,-0.0004885931679495888,0.00023621786408937326,5.186558388058624e-05,-0.0003815905648220429,0.0,0.0,0.0,0.0,0.0,0.0,0.0,-0.00011880915084716559,-0.00020865590847651827,-0.0003167283597006465,0.00010205306050847796,8.847854987040216e-05,3.553708394354871e-05,2.9609644440542482e-05,-5.290611050655082e-06,-0.00042942890008165107,0.006423881439797766,0.0004885931679495888,-0.00023621786408937326,-5.186558388058624e-05,0.0003815905648220429,0.7560665011405945,46.42501449584961,5.663662433624268,-19.686006546020508,-0.7968040108680725,-2.3980746269226074,0.05710165575146675,0
6,0.02422809600830078,-0.7560665011405945,-46.42501449584961,-5.663662433624268,19.686006546020508,0.7968040108680725,2.3980746269226074,-0.05710165575146675,0.0,0.0,0.0,0.0,0.0,0.0,0.0,-0.7142093593404768,-0.07257008635527687,-0.4490887446339673,0.4579726406557065,0.2195736053847581,0.1324974605115524,-0.07250325645259528,0.8782116852212711,0.7556684053394174,-0.2822385368096201,-1.669201414521222,0.1413301169673602,2.403409580283695,1.0273084905863636,0.878092876070424,0.7554597494309409,-0.2825552651693207,-1.6690993614607135,0.1414185955172306,2.4034451173676383,1.0273381002308042,5.290611050655082e-06,0.00042942890008165107,-0.006423881439797766,-0.0004885931679495888,0.00023621786408937326,5.186558388058624e-05,-0.0003815905648220429,0.0,0.0,0.0,0.0,0.0,0.0,0.0,-0.00011880915084716559,-0.00020865590847651827,-0.0003167283597006465,0.00010205306050847796,8.847854987040216e-05,3.553708394354871e-05,2.9609644440542482e-05,-5.290611050655082e-06,-0.00042942890008165107,0.006423881439797766,0.0004885931679495888,-0.00023621786408937326,-5.186558388058624e-05,0.0003815905648220429,0.7560665011405945,46.42501449584961,5.663662433624268,-19.686006546020508,-0.7968040108680725,-2.3980746269226074,0.05710165575146675,0
7,0.02922821044921875,-0.7084590792655945,-46.44881820678711,-5.663662433624268,19.686006546020508,0.7968040108680725,2.3916659355163574,-0.03604452684521675,0.0,0.0,0.0,0.0,0.0,0.0,0.0,-0.659588749461686,-0.0628366431483884,-0.4085115590229203,0.456813654991661,0.2185057486788895,0.131086768814146,-0.0721723173547018,0.8782068045998932,0.7556701018084807,-0.2822385368096201,-1.6691996985821398,0.14133011712987514,2.4034102923605176,1.0273061639873262,0.878092876070424,0.7554597494309409,-0.2825552651693207,-1.6690993614607135,0.1414185955172306,2.4034451173676383,1.0273381002308042,-0.0004065363143133124,0.00046564121131260216,0.0004053690431474789,-0.0008813700928856773,0.00035368929840182654,0.00020250485446588818,-0.001471244522374087,0.0,0.0,0.0,0.0,0.0,0.0,0.0,-0.0001139285294692316,-0.00021035237753985747,-0.0003167283597006465,0.00010033712142631934,8.847838735545621e-05,3.482500712070902e-05,3.1936243477970194e-05,0.0004065363143133124,-0.00046564121131260216,-0.0004053690431474789,0.0008813700928856773,-0.00035368929840182654,-0.00020250485446588818,0.001471244522374087,0.7084590792655945,46.44881820678711,5.663662433624268,-19.686006546020508,-0.7968040108680725,-2.3916659355163574,0.03604452684521675,0
8,0.03423619270324707,-0.7084590792655945,-46.44881820678711,-5.663662433624268,19.686006546020508,0.7968040108680725,2.3916659355163574,-0.03604452684521675,0.0,0.0,0.0,0.0,0.0,0.0,0.0,-0.659588749461686,-0.0628366431483884,-0.4085115590229203,0.456813654991661,0.2185057486788895,0.131086768814146,-0.0721723173547018,0.8782068045998932,0.7556701018084807,-0.2822385368096201,-1.6691996985821398,0.14133011712987514,2.4034102923605176,1.0273061639873262,0.878092876070424,0.7554597494309409,-0.2825552651693207,-1.6690993614607135,0.1414185955172306,2.4034451173676383,1.0273381002308042,-0.0004065363143133124,0.00046564121131260216,0.0004053690431474789,-0.0008813700928856773,0.00035368929840182654,0.00020250485446588818,-0.001471244522374087,0.0,0.0,0.0,0.0,0.0,0.0,0.0,-0.0001139285294692316,-0.00021035237753985747,-0.0003167283597006465,0.00010033712142631934,8.847838735545621e-05,3.482500712070902e-05,3.1936243477970194e-05,0.0004065363143133124,-0.00046564121131260216,-0.0004053690431474789,0.0008813700928856773,-0.00035368929840182654,-0.00020250485446588818,0.001471244522374087,0.7084590792655945,46.44881820678711,5.663662433624268,-19.686006546020508,-0.7968040108680725,-2.3916659355163574,0.03604452684521675,0
9,0.03922677040100098,-0.7084590792655945,-46.40121078491211,-5.612087726593018,19.610628128051758,0.8022971749305725,2.3980746269226074,-0.02963583543896675,0.0,0.0,0.0,0.0,0.0,0.0,0.0,-0.7323701201403064,-0.052751064332921004,-0.4667326315738611,0.44444877067716,0.21967751299831798,0.1299169968103765,-0.0708182928505873,0.878209050689719,0.7556653651551993,-0.2822421560873065,-1.669196848679338,0.1413295066157986,2.403409580283695,1.0273054388286251,0.878092876070424,0.7554597494309409,-0.2825552651693207,-1.6690993614607135,0.1414185955172306,2.4034451173676383,1.0273381002308042,0.00043110587440406043,0.00023899366672344258,-0.0004761620251291202,0.0008238984029041741,0.0001878068495288745,-9.385816629181148e-05,-0.001900617726886372,0.0,0.0,0.0,0.0,0.0,0.0,0.0,-0.00011617461929502859,-0.00020561572425847885,-0.00031310908201420684,9.74872186245701e-05,8.908890143199955e-05,3.553708394354871e-05,3.266140217905722e-05,-0.00043110587440406043,-0.00023899366672344258,0.0004761620251291202,-0.0008238984029041741,-0.0001878068495288745,9.385816629181148e-05,0.001900617726886372,0.7084590792655945,46.40121078491211,5.612087726593018,-19.610628128051758,-0.8022971749305725,-2.3980746269226074,0.02963583543896675,0
10,0.04419088363647461,-0.7084590792655945,-46.40121078491211,-5.612087726593018,19.610628128051758,0.8022971749305725,2.3980746269226074,-0.02963583543896675,0.0,0.0,0.0,0.0,0.0,0.0,0.0,-0.7323701201403064,-0.052751064332921004,-0.4667326315738611,0.44444877067716,0.21967751299831798,0.1299169968103765,-0.0708182928505873,0.878209050689719,0.7556653651551993,-0.2822421560873065,-1.669196848679338,0.1413295066157986,2.403409580283695,1.0273054388286251,0.878092876070424,0.7554597494309409,-0.2825552651693207,-1.6690993614607135,0.1414185955172306,2.4034451173676383,1.0273381002308042,0.00043110587440406043,0.00023899366672344258,-0.0004761620251291202,0.0008238984029041741,0.0001878068495288745,-9.385816629181148e-05,-0.001900617726886372,0.0,0.0,0.0,0.0,0.0,0.0,0.0,-0.00011617461929502859,-0.00020561572425847885,-0.00031310908201420684,9.74872186245701e-05,8.908890143199955e-05,3.553708394354871e-05,3.266140217905722e-05,-0.00043110587440406043,-0.00023899366672344258,0.0004761620251291202,-0.0008238984029041741,-0.0001878068495288745,9.385816629181148e-05,0.001900617726886372,0.7084590792655945,46.40121078491211,5.612087726593018,-19.610628128051758,-0.8022971749305725,-2.3980746269226074,0.02963583543896675,0
11,0.04935312271118164,-0.6568843722343445,-46.40121078491211,-5.612087726593018,19.658235549926758,0.8022971749305725,2.4044833183288574,-0.08365194499492645,0.0,0.0,0.0,0.0,0.0,0.0,0.0,-0.7376440587494822,-0.06302451987678587,-0.4750251682002395,0.4481254880599286,0.2197038873161294,0.13005864705903805,-0.07130390576479233,0.8782032681058807,0.7556653616164043,-0.2822421557602577,-1.6692002159104198,0.14132950661579768,2.403408868206872,1.0273114406185018,0.878092876070424,0.7554597494309409,-0.2825552651693207,-1.6690993614607135,0.1414185955172306,2.4034451173676383,1.0273381002308042,-0.0003012158730394855,0.0005990663754324143,-0.0005075326703533725,-0.0001224021141192757,-0.00026905994512754165,-0.00031038852939950653,0.0009240005265660087,0.0,0.0,0.0,0.0,0.0,0.0,0.0,-0.00011039203545670784,-0.00020561218546344406,-0.0003131094090630393,0.0001008544497063113,8.908890143291548e-05,3.62491607663884e-05,2.6659612302415425e-05,0.0003012158730394855,-0.0005990663754324143,0.0005075326703533725,0.0001224021141192757,0.00026905994512754165,0.00031038852939950653,-0.0009240005265660087,0.6568843722343445,46.40121078491211,5.612087726593018,-19.658235549926758,-0.8022971749305725,-2.4044833183288574,0.08365194499492645,0
12,0.05432438850402832,-0.6568843722343445,-46.40121078491211,-5.612087726593018,19.658235549926758,0.8022971749305725,2.4044833183288574,-0.08365194499492645,0.0,0.0,0.0,0.0,0.0,0.0,0.0,-0.7376440587494822,-0.06302451987678587,-0.4750251682002395,0.4481254880599286,0.2197038873161294,0.13005864705903805,-0.07130390576479233,0.8782032681058807,0.7556653616164043,-0.2822421557602577,-1.6692002159104198,0.14132950661579768,2.403408868206872,1.0273114406185018,0.878092876070424,0.7554597494309409,-0.2825552651693207,-1.6690993614607135,0.1414185955172306,2.4034451173676383,1.0273381002308042,-0.0003012158730394855,0.0005990663754324143,-0.0005075326703533725,-0.0001224021141192757,-0.00026905994512754165,-0.00031038852939950653,0.0009240005265660087,0.0,0.0,0.0,0.0,0.0,0.0,0.0,-0.00011039203545670784,-0.00020561218546344406,-0.0003131094090630393,0.0001008544497063113,8.908890143291548e-05,3.62491607663884e-05,2.6659612302415425e-05,0.0003012158730394855,-0.0005990663754324143,0.0005075326703533725,0.0001224021141192757,0.00026905994512754165,0.00031038852939950653,-0.0009240005265660087,0.6568843722343445,46.40121078491211,5.612087726593018,-19.658235549926758,-0.8022971749305725,-2.4044833183288574,0.08365194499492645,0
13,0.05922675132751465,-0.6568843722343445,-46.37740707397461,-5.564480304718018,19.686006546020508,0.8022971749305725,2.3980746269226074,-0.05710165575146675,0.0,0.0,0.0,0.0,0.0,0.0,0.0,-0.7253718093766988,-0.06980985821428727,-0.4760787558563592,0.45210154017450965,0.21903910439004,0.13042080716628077,-0.07209372430626573,0.8782023296816299,0.7556627591257538,-0.2822454969590152,-1.669201185931664,0.14132950666996932,2.403409580283695,1.0273084905863636,0.878092876070424,0.7554597494309409,-0.2825552651693207,-1.6690993614607135,0.1414185955172306,2.4034451173676383,1.0273381002308042,0.00026295108907573814,-7.88463626400001e-05,-0.0013269774888122804,-0.0008735501370569235,7.129049248930997e-05,-7.183880102125505e-05,-0.0009796151656733345,0.0,0.0,0.0,0.0,0.0,0.0,0.0,-0.00010945361120595631,-0.00020300969481290565,-0.0003097682103055388,0.00010182447095052893,8.908884726127608e-05,3.553708394354871e-05,2.9609644440542482e-05,-0.00026295108907573814,7.88463626400001e-05,0.0013269774888122804,0.0008735501370569235,-7.129049248930997e-05,7.183880102125505e-05,0.0009796151656733345,0.6568843722343445,46.37740707397461,5.564480304718018,-19.686006546020508,-0.8022971749305725,-2.3980746269226074,0.05710165575146675,0
14,0.06422233581542969,-0.6568843722343445,-46.37740707397461,-5.564480304718018,19.686006546020508,0.8022971749305725,2.3980746269226074,-0.05710165575146675,0.0,0.0,0.0,0.0,0.0,0.0,0.0,-0.7253718093766988,-0.06980985821428727,-0.4760787558563592,0.45210154017450965,0.21903910439004,0.13042080716628077,-0.07209372430626573,0.8782023296816299,0.7556627591257538,-0.2822454969590152,-1.669201185931664,0.14132950666996932,2.403409580283695,1.0273084905863636,0.878092876070424,0.7554597494309409,-0.2825552651693207,-1.6690993614607135,0.1414185955172306,2.4034451173676383,1.0273381002308042,0.00026295108907573814,-7.88463626400001e-05,-0.0013269774888122804,-0.0008735501370569235,7.129049248930997e-05,-7.183880102125505e-05,-0.0009796151656733345,0.0,0.0,0.0,0.0,0.0,0.0,0.0,-0.00010945361120595631,-0.00020300969481290565,-0.0003097682103055388,0.00010182447095052893,8.908884726127608e-05,3.553708394354871e-05,2.9609644440542482e-05,-0.00026295108907573814,7.88463626400001e-05,0.0013269774888122804,0.0008735501370569235,-7.129049248930997e-05,7.183880102125505e-05,0.0009796151656733345,0.6568843722343445,46.37740707397461,5.564480304718018,-19.686006546020508,-0.8022971749305725,-2.3980746269226074,0.05710165575146675,0
15,0.0692293643951416,-0.6291133761405945,-46.42501449584961,-5.588284015655518,19.658235549926758,0.7968040108680725,2.4044833183288574,-0.04336874559521675,0.0,0.0,0.0,0.0,0.0,0.0,0.0,-0.7087501607148358,-0.07883008638064413,-0.47021400819835796,0.4595790785233248,0.21929110191058476,0.13164791438082424,-0.07196643297709145,0.8782031476673946,0.7556663307856997,-0.28224382652316177,-1.6691972679234504,0.14133011696736048,2.403408868206872,1.0273069647074573,0.878092876070424,0.7554597494309409,-0.2825552651693207,-1.6690993614607135,0.1414185955172306,2.4034451173676383,1.0273381002308042,-0.000588606702017675,0.00038968380297732275,-0.00013240162144823695,0.00021218308480230587,0.0003965441650785517,-4.35156657862883e-05,-0.0012455305254682597,0.0,0.0,0.0,0.0,0.0,0.0,0.0,-0.00011027159697063471,-0.0002065813547588169,-0.0003114386461589569,9.79064627368853e-05,8.84785498701246e-05,3.62491607663884e-05,3.11355233468813e-05,0.000588606702017675,-0.00038968380297732275,0.00013240162144823695,-0.00021218308480230587,-0.0003965441650785517,4.35156657862883e-05,0.0012455305254682597,0.6291133761405945,46.42501449584961,5.588284015655518,-19.658235549926758,-0.7968040108680725,-2.4044833183288574,0.04336874559521675,0
16,0.07610416412353516,-0.6291133761405945,-46.42501449584961,-5.588284015655518,19.658235549926758,0.7968040108680725,2.4044833183288574,-0.04336874559521675,0.0,0.0,0.0,0.0,0.0,0.0,0.0,-0.7087501607148358,-0.07883008638064413,-0.47021400819835796,0.4595790785233248,0.21929110191058476,0.13164791438082424,-0.07196643297709145,0.8782031476673946,0.7556663307856997,-0.28224382652316177,-1.6691972679234504,0.14133011696736048,2.403408868206872,1.0273069647074573,0.878092876070424,0.7554597494309409,-0.2825552651693207,-1.6690993614607135,0.1414185955172306,2.4034451173676383,1.0273381002308042,-0.000588606702017675,0.00038968380297732275,-0.00013240162144823695,0.00021218308480230587,0.0003965441650785517,-4.35156657862883e-05,-0.0012455305254682597,0.0,0.0,0.0,0.0,0.0,0.0,0.0,-0.00011027159697063471,-0.0002065813547588169,-0.0003114386461589569,9.79064627368853e-05,8.84785498701246e-05,3.62491607663884e-05,3.11355233468813e-05,0.000588606702017675,-0.00038968380297732275,0.00013240162144823695,-0.00021218308480230587,-0.0003965441650785517,4.35156657862883e-05,0.0012455305254682597,0.6291133761405945,46.42501449584961,5.588284015655518,-19.658235549926758,-0.7968040108680725,-2.4044833183288574,0.04336874559521675,0
17,0.07922530174255371,-0.6291133761405945,-46.44881820678711,-5.612087726593018,19.686006546020508,0.8087058663368225,2.4044833183288574,-0.09097616374492645,0.0,0.0,0.0,0.0,0.0,0.0,0.0,-0.6967846194920048,-0.0771293153587121,-0.46248568626620723,0.4589675449815669,0.2191161689099955,0.13236807362290556,-0.07091814092533072,0.8782009891245594,0.7556705428045873,-0.28224207661444684,-1.6692018177733146,0.1413287960016097,2.403408868206872,1.027312254420585,0.878092876070424,0.7554597494309409,-0.2825552651693207,-1.6690993614607135,0.1414185955172306,2.4034451173676383,1.0273381002308042,-0.00016505657934207338,0.0008937503027845751,9.372769432920691e-05,-0.0004906065439905883,-0.0001340812236972352,-0.0002311089396796817,0.0010843763845610867,0.0,0.0,0.0,0.0,0.0,0.0,0.0,-0.00010811305413538363,-0.00021079337364648953,-0.00031318855487388886,0.00010245631260108468,8.97995156209086e-05,3.62491607663884e-05,2.5845810219138343e-05,0.00016505657934207338,-0.0008937503027845751,-9.372769432920691e-05,0.0004906065439905883,0.0001340812236972352,0.0002311089396796817,-0.0010843763845610867,0.6291133761405945,46.44881820678711,5.612087726593018,-19.686006546020508,-0.8087058663368225,-2.4044833183288574,0.09097616374492645,0
18,0.0842432975769043,-0.6291133761405945,-46.44881820678711,-5.612087726593018,19.686006546020508,0.8087058663368225,2.4044833183288574,-0.09097616374492645,0.0,0.0,0.0,0.0,0.0,0.0,0.0,-0.6967846194920048,-0.0771293153587121,-0.46248568626620723,0.4589675449815669,0.2191161689099955,0.13236807362290556,-0.07091814092533072,0.8782009891245594,0.7556705428045873,-0.28224207661444684,-1.6692018177733146,0.1413287960016097,2.403408868206872,1.027312254420585,0.878092876070424,0.7554597494309409,-0.2825552651693207,-1.6690993614607135,0.1414185955172306,2.4034451173676383,1.0273381002308042,-0.00016505657934207338,0.0008937503027845751,9.372769432920691e-05,-0.0004906065439905883,-0.0001340812236972352,-0.0002311089396796817,0.0010843763845610867,0.0,0.0,0.0,0.0,0.0,0.0,0.0,-0.00010811305413538363,-0.00021079337364648953,-0.00031318855487388886,0.00010245631260108468,8.97995156209086e-05,3.62491607663884e-05,2.5845810219138343e-05,0.00016505657934207338,-0.0008937503027845751,-9.372769432920691e-05,0.0004906065439905883,0.0001340812236972352,0.0002311089396796817,-0.0010843763845610867,0.6291133761405945,46.44881820678711,5.612087726593018,-19.686006546020508,-0.8087058663368225,-2.4044833183288574,0.09097616374492645,0
19,0.08923864364624023,-0.6806880831718445,-46.42501449584961,-5.588284015655518,19.686006546020508,0.8022971749305725,2.3916659355163574,-0.04977743700146675,0.0,0.0,0.0,0.0,0.0,0.0,0.0,-0.6976542829243594,-0.06670824657300926,-0.46364189125178906,0.4527717862375477,0.21945338012407167,0.13157589380450743,-0.07029435490325503,0.8782062901113566,0.7556691333855226,-0.2822438265227131,-1.6692020501016653,0.14132950661580593,2.403410292414353,1.0273076767842804,0.878092876070424,0.7554597494309409,-0.2825552651693207,-1.6690993614607135,0.1414185955172306,2.4034451173676383,1.0273381002308042,0.00031756549131439695,0.000658805620014014,-0.0006781913503867029,-0.0006570334859426055,0.00023223474261173477,0.00026620149085002245,-0.0007922625088317621,0.0,0.0,0.0,0.0,0.0,0.0,0.0,-0.00011341404093268004,-0.0002093839545816989,-0.000311438646607598,0.00010268864095186458,8.908890142467207e-05,3.4824953285550464e-05,3.0423446523819564e-05,-0.00031756549131439695,-0.000658805620014014,0.0006781913503867029,0.0006570334859426055,-0.00023223474261173477,-0.00026620149085002245,0.0007922625088317621,0.6806880831718445,46.42501449584961,5.588284015655518,-19.686006546020508,-0.8022971749305725,-2.3916659355163574,0.04977743700146675,0
20,0.09418010711669922,-0.6806880831718445,-46.42501449584961,-5.588284015655518,19.686006546020508,0.8022971749305725,2.3916659355163574,-0.04977743700146675,0.0,0.0,0.0,0.0,0.0,0.0,0.0,-0.6976542829243594,-0.06670824657300926,-0.46364189125178906,0.4527717862375477,0.21945338012407167,0.13157589380450743,-0.07029435490325503,0.8782062901113566,0.7556691333855226,-0.2822438265227131,-1.6692020501016653,0.14132950661580593,2.403410292414353,1.0273076767842804,0.878092876070424,0.7554597494309409,-0.2825552651693207,-1.6690993614607135,0.1414185955172306,2.4034451173676383,1.0273381002308042,0.00031756549131439695,0.000658805620014014,-0.0006781913503867029,-0.0006570334859426055,0.00023223474261173477,0.00026620149085002245,-0.0007922625088317621,0.0,0.0,0.0,0.0,0.0,0.0,0.0,-0.00011341404093268004,-0.0002093839545816989,-0.000311438646607598,0.00010268864095186458,8.908890142467207e-05,3.4824953285550464e-05,3.0423446523819564e-05,-0.00031756549131439695,-0.000658805620014014,0.0006781913503867029,0.0006570334859426055,-0.00023223474261173477,-0.00026620149085002245,0.0007922625088317621,0.6806880831718445,46.42501449584961,5.588284015655518,-19.686006546020508,-0.8022971749305725,-2.3916659355163574,0.04977743700146675,0
21,0.09993815422058105,-0.6806880831718445,-46.42501449584961,-5.588284015655518,19.686006546020508,0.8022971749305725,2.3916659355163574,-0.04977743700146675,0.0,0.0,0.0,0.0,0.0,0.0,0.0,-0.6976542829243594,-0.06670824657300926,-0.46364189125178906,0.4527717862375477,0.21945338012407167,0.13157589380450743,-0.07029435490325503,0.8782062901113566,0.7556691333855226,-0.2822438265227131,-1.6692020501016653,0.14132950661580593,2.403410292414353,1.0273076767842804,0.878092876070424,0.7554597494309409,-0.2825552651693207,-1.6690993614607135,0.1414185955172306,2.4034451173676383,1.0273381002308042,0.00031756549131439695,0.000658805620014014,-0.0006781913503867029,-0.0006570334859426055,0.00023223474261173477,0.00026620149085002245,-0.0007922625088317621,0.0,0.0,0.0,0.0,0.0,0.0,0.0,-0.00011341404093268004,-0.0002093839545816989,-0.000311438646607598,0.00010268864095186458,8.908890142467207e-05,3.4824953285550464e-05,3.0423446523819564e-05,-0.00031756549131439695,-0.000658805620014014,0.0006781913503867029,0.0006570334859426055,-0.00023223474261173477,-0.00026620149085002245,0.0007922625088317621,0.6806880831718445,46.42501449584961,5.588284015655518,-19.686006546020508,-0.8022971749305725,-2.3916659355163574,0.04977743700146675,0
22,0.10423064231872559,-0.6806880831718445,-46.42501449584961,-5.588284015655518,19.686006546020508,0.8022971749305725,2.3916659355163574,-0.04977743700146675,0.0,0.0,0.0,0.0,0.0,0.0,0.0,-0.6976542829243594,-0.06670824657300926,-0.46364189125178906,0.4527717862375477,0.21945338012407167,0.13157589380450743,-0.07029435490325503,0.8782062901113566,0.7556691333855226,-0.2822438265227131,-1.6692020501016653,0.14132950661580593,2.403410292414353,1.0273076767842804,0.878092876070424,0.7554597494309409,-0.2825552651693207,-1.6690993614607135,0.1414185955172306,2.4034451173676383,1.0273381002308042,0.00031756549131439695,0.000658805620014014,-0.0006781913503867029,-0.0006570334859426055,0.00023223474261173477,0.00026620149085002245,-0.0007922625088317621,0.0,0.0,0.0,0.0,0.0,0.0,0.0,-0.00011341404093268004,-0.0002093839545816989,-0.000311438646607598,0.00010268864095186458,8.908890142467207e-05,3.4824953285550464e-05,3.0423446523819564e-05,-0.00031756549131439695,-0.000658805620014014,0.0006781913503867029,0.0006570334859426055,-0.00023223474261173477,-0.00026620149085002245,0.0007922625088317621,0.6806880831718445,46.42501449584961,5.588284015655518,-19.686006546020508,-0.8022971749305725,-2.3916659355163574,0.04977743700146675,0
23,0.1092226505279541,-0.7322627902030945,-46.40121078491211,-5.612087726593018,19.634431838989258,0.7968040108680725,2.3980746269226074,-0.07724325358867645,0.0,0.0,0.0,0.0,0.0,0.0,0.0,-0.7105469544547315,-0.0748218667495786,-0.4712871712177534,0.4545264363834065,0.2206597726532659,0.1319766183396967,-0.07000732769957564,0.8782096683635668,0.7556674629511407,-0.2822421560873065,-1.6691985171298362,0.14133011696736017,2.403409580283695,1.027310728541679,0.878092876070424,0.7554597494309409,-0.2825552651693207,-1.6690993614607135,0.1414185955172306,2.4034451173676383,1.0273381002308042,1.8293639326510134e-05,-0.0001023710811134299,-0.00038075531994292007,0.0006776306464189249,0.00038639399757571915,-1.8934286378153845e-05,0.0005009564619972922,0.0,0.0,0.0,0.0,0.0,0.0,0.0,-0.00011679229314287554,-0.00020771352019988143,-0.00031310908201420684,9.915566912277463e-05,8.847854987042991e-05,3.553708394354871e-05,2.7371689125255116e-05,-1.8293639326510134e-05,0.0001023710811134299,0.00038075531994292007,-0.0006776306464189249,-0.00038639399757571915,1.8934286378153845e-05,-0.0005009564619972922,0.7322627902030945,46.40121078491211,5.612087726593018,-19.634431838989258,-0.7968040108680725,-2.3980746269226074,0.07724325358867645,0
24,0.114227294921875,-0.7322627902030945,-46.40121078491211,-5.612087726593018,19.634431838989258,0.7968040108680725,2.3980746269226074,-0.07724325358867645,0.0,0.0,0.0,0.0,0.0,0.0,0.0,-0.7105469544547315,-0.0748218667495786,-0.4712871712177534,0.4545264363834065,0.2206597726532659,0.1319766183396967,-0.07000732769957564,0.8782096683635668,0.7556674629511407,-0.2822421560873065,-1.6691985171298362,0.14133011696736017,2.403409580283695,1.027310728541679,0.878092876070424,0.7554597494309409,-0.2825552651693207,-1.6690993614607135,0.1414185955172306,2.4034451173676383,1.0273381002308042,1.8293639326510134e-05,-0.0001023710811134299,-0.00038075531994292007,0.0006776306464189249,0.00038639399757571915,-1.8934286378153845e-05,0.0005009564619972922,0.0,0.0,0.0,0.0,0.0,0.0,0.0,-0.00011679229314287554,-0.00020771352019988143,-0.00031310908201420684,9.915566912277463e-05,8.847854987042991e-05,3.553708394354871e-05,2.7371689125255116e-05,-1.8293639326510134e-05,0.0001023710811134299,0.00038075531994292007,-0.0006776306464189249,-0.00038639399757571915,1.8934286378153845e-05,-0.0005009564619972922,0.7322627902030945,46.40121078491211,5.612087726593018,-19.634431838989258,-0.7968040108680725,-2.3980746269226074,0.07724325358867645,0
25,0.11922955513000488,-0.7838374972343445,-46.37740707397461,-5.635891437530518,19.686006546020508,0.8022971749305725,2.3980746269226074,-0.05710165575146675,0.0,0.0,0.0,0.0,0.0,0.0,0.0,-0.7101552794842255,-0.08348908430671194,-0.46669545756201913,0.46157960101973516,0.22031256482655062,0.13272025850817276,-0.07109714144151542,0.8782112242902743,0.7556657718648213,-0.28224048565145127,-1.669200011450942,0.14133306146874983,2.4034095803016395,1.0273084905863636,0.878092876070424,0.7554597494309409,-0.2825552651693207,-1.6690993614607135,0.1414185955172306,2.4034451173676383,1.0273381002308042,0.0005697177124638033,-0.0006498376770173278,-0.00116935224597182,-0.0006559473484480249,5.535869390615739e-05,-4.530411306815876e-05,-0.00020765569379970538,0.0,0.0,0.0,0.0,0.0,0.0,0.0,-0.00011834821985035049,-0.0002060224338804595,-0.0003147795178694568,0.0001006499902285185,8.553404848077317e-05,3.553706599879192e-05,2.9609644440542482e-05,-0.0005697177124638033,0.0006498376770173278,0.00116935224597182,0.0006559473484480249,-5.535869390615739e-05,4.530411306815876e-05,0.00020765569379970538,0.7838374972343445,46.37740707397461,5.635891437530518,-19.686006546020508,-0.8022971749305725,-2.3980746269226074,0.05710165575146675,0
26,0.12418007850646973,-0.7838374972343445,-46.37740707397461,-5.635891437530518,19.686006546020508,0.8022971749305725,2.3980746269226074,-0.05710165575146675,0.0,0.0,0.0,0.0,0.0,0.0,0.0,-0.7101552794842255,-0.08348908430671194,-0.46669545756201913,0.46157960101973516,0.22031256482655062,0.13272025850817276,-0.07109714144151542,0.8782112242902743,0.7556657718648213,-0.28224048565145127,-1.669200011450942,0.14133306146874983,2.4034095803016395,1.0273084905863636,0.878092876070424,0.7554597494309409,-0.2825552651693207,-1.6690993614607135,0.1414185955172306,2.4034451173676383,1.0273381002308042,0.0005697177124638033,-0.0006498376770173278,-0.00116935224597182,-0.0006559473484480249,5.535869390615739e-05,-4.530411306815876e-05,-0.00020765569379970538,0.0,0.0,0.0,0.0,0.0,0.0,0.0,-0.00011834821985035049,-0.0002060224338804595,-0.0003147795178694568,0.0001006499902285185,8.553404848077317e-05,3.553706599879192e-05,2.9609644440542482e-05,-0.0005697177124638033,0.0006498376770173278,0.00116935224597182,0.0006559473484480249,-5.535869390615739e-05,4.530411306815876e-05,0.00020765569379970538,0.7838374972343445,46.37740707397461,5.635891437530518,-19.686006546020508,-0.8022971749305725,-2.3980746269226074,0.05710165575146675,0
27,0.129225492477417,-0.7560665011405945,-46.34963607788086,-5.635891437530518,19.658235549926758,0.8022971749305725,2.3916659355163574,-0.09738485515117645,0.0,0.0,0.0,0.0,0.0,0.0,0.0,-0.7101776792318193,-0.06076848928149785,-0.4624635047138447,0.4539112709593705,0.21914794790538664,0.13086926743380037,-0.07169041240325882,0.8782114448229041,0.7556630635549395,-0.2822404061785916,-1.6691998960810202,0.1413327068811028,2.4034102923605176,1.027312966497408,0.878092876070424,0.7554597494309409,-0.2825552651693207,-1.6690993614607135,0.1414185955172306,2.4034451173676383,1.0273381002308042,-0.0006069872680489363,-0.000345636794541427,-0.0009574167988719509,-0.00021646294665733835,-7.771494913622724e-06,0.0001905082000187871,0.0004104546112509026,0.0,0.0,0.0,0.0,0.0,0.0,0.0,-0.00011856875248017484,-0.00020331412399865467,-0.0003148589907291388,0.00010053462030668037,8.588863612779551e-05,3.482500712070902e-05,2.5133733396076607e-05,0.0006069872680489363,0.000345636794541427,0.0009574167988719509,0.00021646294665733835,7.771494913622724e-06,-0.0001905082000187871,-0.0004104546112509026,0.7560665011405945,46.34963607788086,5.635891437530518,-19.658235549926758,-0.8022971749305725,-2.3916659355163574,0.09738485515117645,0
28,0.1342306137084961,-0.7560665011405945,-46.34963607788086,-5.635891437530518,19.658235549926758,0.8022971749305725,2.3916659355163574,-0.09738485515117645,0.0,0.0,0.0,0.0,0.0,0.0,0.0,-0.7101776792318193,-0.06076848928149785,-0.4624635047138447,0.4539112709593705,0.21914794790538664,0.13086926743380037,-0.07169041240325882,0.8782114448229041,0.7556630635549395,-0.2822404061785916,-1.6691998960810202,0.1413327068811028,2.4034102923605176,1.027312966497408,0.878092876070424,0.7554597494309409,-0.2825552651693207,-1.6690993614607135,0.1414185955172306,2.4034451173676383,1.0273381002308042,-0.0006069872680489363,-0.000345636794541427,-0.0009574167988719509,-0.00021646294665733835,-7.771494913622724e-06,0.0001905082000187871,0.0004104546112509026,0.0,0.0,0.0,0.0,0.0,0.0,0.0,-0.00011856875248017484,-0.00020331412399865467,-0.0003148589907291388,0.00010053462030668037,8.588863612779551e-05,3.482500712070902e-05,2.5133733396076607e-05,0.0006069872680489363,0.000345636794541427,0.0009574167988719509,0.00021646294665733835,7.771494913622724e-06,-0.0001905082000187871,-0.0004104546112509026,0.7560665011405945,46.34963607788086,5.635891437530518,-19.658235549926758,-0.8022971749305725,-2.3916659355163574,0.09738485515117645,0
29,0.13922476768493652,-0.7084590792655945,-46.34963607788086,-5.711269855499268,19.658235549926758,0.8141990303993225,2.3852572441101074,-0.06351034343242645,0.0,0.0,0.0,0.0,0.0,0.0,0.0,-0.7148984161781844,-0.07462910123541362,-0.46440757710242825,0.4632733883902302,0.21882677443270038,0.1320021135973942,-0.07343943060742364,0.8782089782012353,0.7556635923320436,-0.28223519593746094,-1.6691992623434628,0.14132818420547785,2.4034110044373405,1.0273092026627726,0.878092876070424,0.7554597494309409,-0.2825552651693207,-1.6690993614607135,0.1414185955172306,2.4034451173676383,1.0273381002308042,-0.0011454255832693524,-0.0012865223030792904,0.0015027137822864712,-0.0003860067760013258,-0.0004843545028074011,0.00033864687968151064,-0.0006319341822080078,0.0,0.0,0.0,0.0,0.0,0.0,0.0,-0.00011610213081136855,-0.0002038429011027576,-0.00032006923185978753,9.990088274935971e-05,9.041131175274719e-05,3.4112930297869326e-05,2.8897568031593934e-05,0.0011454255832693524,0.0012865223030792904,-0.0015027137822864712,0.0003860067760013258,0.0004843545028074011,-0.00033864687968151064,0.0006319341822080078,0.7084590792655945,46.34963607788086,5.711269855499268,-19.658235549926758,-0.8141990303993225,-2.3852572441101074,0.06351034343242645,0
30,0.14422345161437988,-0.7084590792655945,-46.34963607788086,-5.711269855499268,19.658235549926758,0.8141990303993225,2.3852572441101074,-0.06351034343242645,0.0,0.0,0.0,0.0,0.0,0.0,0.0,-0.7148984161781844,-0.07462910123541362,-0.46440757710242825,0.4632733883902302,0.21882677443270038,0.1320021135973942,-0.07343943060742364,0.8782089782012353,0.7556635923320436,-0.28223519593746094,-1.6691992623434628,0.14132818420547785,2.4034110044373405,1.0273092026627726,0.878092876070424,0.7554597494309409,-0.2825552651693207,-1.6690993614607135,0.1414185955172306,2.4034451173676383,1.0273381002308042,-0.0011454255832693524,-0.0012865223030792904,0.0015027137822864712,-0.0003860067760013258,-0.0004843545028074011,0.00033864687968151064,-0.0006319341822080078,0.0,0.0,0.0,0.0,0.0,0.0,0.0,-0.00011610213081136855,-0.0002038429011027576,-0.00032006923185978753,9.990088274935971e-05,9.041131175274719e-05,3.4112930297869326e-05,2.8897568031593934e-05,0.0011454255832693524,0.0012865223030792904,-0.0015027137822864712,0.0003860067760013258,0.0004843545028074011,-0.00033864687968151064,0.0006319341822080078,0.7084590792655945,46.34963607788086,5.711269855499268,-19.658235549926758,-0.8141990303993225,-2.3852572441101074,0.06351034343242645,0
31,0.14917993545532227,-0.6806880831718445,-46.42501449584961,-5.687466144561768,19.658235549926758,0.7903953194618225,2.4108920097351074,-0.07724325358867645,0.0,0.0,0.0,0.0,0.0,0.0,0.0,-0.7207167084296614,-0.06590569692865764,-0.46575155757447295,0.4575596108484737,0.2186096143529616,0.13100440205580755,-0.07484692908258402,0.8782049542033307,0.7556670068112851,-0.2822368575434471,-1.6691998951066462,0.1413308422078976,2.403408156130049,1.027310728541679,0.878092876070424,0.7554597494309409,-0.2825552651693207,-1.6690993614607135,0.1414185955172306,2.4034451173676383,1.0273381002308042,-0.0012822214000284533,0.0006488204866477217,0.0008824309884799304,-0.0003602436772642475,0.0004738287575982707,-0.0005221945728926505,0.00042906813961325515,0.0,0.0,0.0,0.0,0.0,0.0,0.0,-0.0001120781329067011,-0.0002072573803442168,-0.00031840762587365123,0.00010053364593276548,8.775330933299963e-05,3.696123758922809e-05,2.7371689125255116e-05,0.0012822214000284533,-0.0006488204866477217,-0.0008824309884799304,0.0003602436772642475,-0.0004738287575982707,0.0005221945728926505,-0.00042906813961325515,0.6806880831718445,46.42501449584961,5.687466144561768,-19.658235549926758,-0.7903953194618225,-2.4108920097351074,0.07724325358867645,0
32,0.15422821044921875,-0.6806880831718445,-46.42501449584961,-5.687466144561768,19.658235549926758,0.7903953194618225,2.4108920097351074,-0.07724325358867645,0.0,0.0,0.0,0.0,0.0,0.0,0.0,-0.7207167084296614,-0.06590569692865764,-0.46575155757447295,0.4575596108484737,0.2186096143529616,0.13100440205580755,-0.07484692908258402,0.8782049542033307,0.7556670068112851,-0.2822368575434471,-1.6691998951066462,0.1413308422078976,2.403408156130049,1.027310728541679,0.878092876070424,0.7554597494309409,-0.2825552651693207,-1.6690993614607135,0.1414185955172306,2.4034451173676383,1.0273381002308042,-0.0012822214000284533,0.0006488204866477217,0.0008824309884799304,-0.0003602436772642475,0.0004738287575982707,-0.0005221945728926505,0.00042906813961325515,0.0,0.0,0.0,0.0,0.0,0.0,0.0,-0.0001120781329067011,-0.0002072573803442168,-0.00031840762587365123,0.00010053364593276548,8.775330933299963e-05,3.696123758922809e-05,2.7371689125255116e-05,0.0012822214000284533,-0.0006488204866477217,-0.0008824309884799304,0.0003602436772642475,-0.0004738287575982707,0.0005221945728926505,-0.00042906813961325515,0.6806880831718445,46.42501449584961,5.687466144561768,-19.658235549926758,-0.7903953194618225,-2.4108920097351074,0.07724325358867645,0
33,0.15922331809997559,-0.6291133761405945,-46.40121078491211,-5.635891437530518,19.686006546020508,0.8022971749305725,2.3916659355163574,-0.11844198405742645,0.0,0.0,0.0,0.0,0.0,0.0,0.0,-0.7034863505519034,-0.06954525867707152,-0.45696222466843955,0.45912500872048134,0.21790547280745562,0.1316191405950106,-0.07387112616099177,0.8782034911830423,0.7556672376025092,-0.2822404856514014,-1.6692018924642888,0.14132986203616119,2.4034102923605176,1.0273153061783975,0.878092876070424,0.7554597494309409,-0.2825552651693207,-1.6690993614607135,0.1414185955172306,2.4034451173676383,1.0273381002308042,-0.0007467429404446782,3.909038522688002e-05,0.0002040787405971831,-0.0005477202067319641,0.00018193966138461756,0.0003303108360416374,0.0016337601715256298,0.0,0.0,0.0,0.0,0.0,0.0,0.0,-0.00011061511261833967,-0.00020748817156834853,-0.0003147795179193058,0.00010253100357537903,8.873348106941403e-05,3.482500712070902e-05,2.2794052406682752e-05,0.0007467429404446782,-3.909038522688002e-05,-0.0002040787405971831,0.0005477202067319641,-0.00018193966138461756,-0.0003303108360416374,-0.0016337601715256298,0.6291133761405945,46.40121078491211,5.635891437530518,-19.686006546020508,-0.8022971749305725,-2.3916659355163574,0.11844198405742645,0
34,0.16422486305236816,-0.6291133761405945,-46.40121078491211,-5.635891437530518,19.686006546020508,0.8022971749305725,2.3916659355163574,-0.11844198405742645,0.0,0.0,0.0,0.0,0.0,0.0,0.0,-0.7034863505519034,-0.06954525867707152,-0.45696222466843955,0.45912500872048134,0.21790547280745562,0.1316191405950106,-0.07387112616099177,0.8782034911830423,0.7556672376025092,-0.2822404856514014,-1.6692018924642888,0.14132986203616119,2.4034102923605176,1.0273153061783975,0.878092876070424,0.7554597494309409,-0.2825552651693207,-1.6690993614607135,0.1414185955172306,2.4034451173676383,1.0273381002308042,-0.0007467429404446782,3.909038522688002e-05,0.0002040787405971831,-0.0005477202067319641,0.00018193966138461756,0.0003303108360416374,0.0016337601715256298,0.0,0.0,0.0,0.0,0.0,0.0,0.0,-0.00011061511261833967,-0.00020748817156834853,-0.0003147795179193058,0.00010253100357537903,8.873348106941403e-05,3.482500712070902e-05,2.2794052406682752e-05,0.0007467429404446782,-3.909038522688002e-05,-0.0002040787405971831,0.0005477202067319641,-0.00018193966138461756,-0.0003303108360416374,-0.0016337601715256298,0.6291133761405945,46.40121078491211,5.635891437530518,-19.686006546020508,-0.8022971749305725,-2.3916659355163574,0.11844198405742645,0
35,0.16922616958618164,-0.6568843722343445,-46.42501449584961,-5.612087726593018,19.658235549926758,0.8022971749305725,2.4108920097351074,-0.11111776530742645,0.0,0.0,0.0,0.0,0.0,0.0,0.0,-0.732748068036238,-0.0641404644056681,-0.4815129796804174,0.4511799694882516,0.21853795601999546,0.130968971274973,-0.07488795592138892,0.878203260256758,0.755669133385724,-0.2822421560873065,-1.6691992269134441,0.14132950808043895,2.403408156130049,1.0273144923763142,0.878092876070424,0.7554597494309409,-0.2825552651693207,-1.6690993614607135,0.1414185955172306,2.4034451173676383,1.0273381002308042,-0.0007390482326362365,0.00021399598913464027,2.661107487631467e-06,0.00010395237605967469,0.007196929978838203,-0.0003650123590652305,0.001248481449018413,0.0,0.0,0.0,0.0,0.0,0.0,0.0,-0.0001103841863340227,-0.00020938395478309335,-0.00031310908201420684,9.986545273066305e-05,8.90874367916461e-05,3.696123758922809e-05,2.3607854489959834e-05,0.0007390482326362365,-0.00021399598913464027,-2.661107487631467e-06,-0.00010395237605967469,-0.007196929978838203,0.0003650123590652305,-0.001248481449018413,0.6568843722343445,46.42501449584961,5.612087726593018,-19.658235549926758,-0.8022971749305725,-2.4108920097351074,0.11111776530742645,0
36,0.17452239990234375,-0.6568843722343445,-46.42501449584961,-5.612087726593018,19.658235549926758,0.8022971749305725,2.4108920097351074,-0.11111776530742645,0.0,0.0,0.0,0.0,0.0,0.0,0.0,-0.732748068036238,-0.0641404644056681,-0.4815129796804174,0.4511799694882516,0.21853795601999546,0.130968971274973,-0.07488795592138892,0.878203260256758,0.755669133385724,-0.2822421560873065,-1.6691992269134441,0.14132950808043895,2.403408156130049,1.0273144923763142,0.878092876070424,0.7554597494309409,-0.2825552651693207,-1.6690993614607135,0.1414185955172306,2.4034451173676383,1.0273381002308042,-0.0007390482326362365,0.00021399598913464027,2.661107487631467e-06,0.00010395237605967469,0.007196929978838203,-0.0003650123590652305,0.001248481449018413,0.0,0.0,0.0,0.0,0.0,0.0,0.0,-0.0001103841863340227,-0.00020938395478309335,-0.00031310908201420684,9.986545273066305e-05,8.90874367916461e-05,3.696123758922809e-05,2.3607854489959834e-05,0.0007390482326362365,-0.00021399598913464027,-2.661107487631467e-06,-0.00010395237605967469,-0.007196929978838203,0.0003650123590652305,-0.001248481449018413,0.6568843722343445,46.42501449584961,5.612087726593018,-19.658235549926758,-0.8022971749305725,-2.4108920097351074,0.11111776530742645,0
37,0.17923331260681152,-0.6568843722343445,-46.40121078491211,-5.612087726593018,19.634431838989258,0.7968040108680725,2.3916659355163574,-0.09097616374492645,0.0,0.0,0.0,0.0,0.0,0.0,0.0,-0.7123974941839728,-0.06784277628289752,-0.4676039510743041,0.45408591016220184,0.21814853636584985,0.13194710953632605,-0.0761655989780508,0.8782044777463475,0.7556674715823009,-0.2822421560873065,-1.669198202544016,0.14133153881103477,2.4034102923605176,1.027312254420585,0.878092876070424,0.7554597494309409,-0.2825552651693207,-1.6690993614607135,0.1414185955172306,2.4034451173676383,1.0273381002308042,-0.0004725071933807871,1.3222676441174906e-05,-0.00033507029104585037,0.0006557193240625331,0.00046948798894367065,0.0003236850696966637,0.0004112793176814917,0.0,0.0,0.0,0.0,0.0,0.0,0.0,-0.00011160167592350057,-0.00020772215136000138,-0.00031310908201420684,9.88410833024922e-05,8.705670619582606e-05,3.482500712070902e-05,2.5845810219138343e-05,0.0004725071933807871,-1.3222676441174906e-05,0.00033507029104585037,-0.0006557193240625331,-0.00046948798894367065,-0.0003236850696966637,-0.0004112793176814917,0.6568843722343445,46.40121078491211,5.612087726593018,-19.634431838989258,-0.7968040108680725,-2.3916659355163574,0.09097616374492645,0
38,0.18427801132202148,-0.6568843722343445,-46.40121078491211,-5.612087726593018,19.634431838989258,0.7968040108680725,2.3916659355163574,-0.09097616374492645,0.0,0.0,0.0,0.0,0.0,0.0,0.0,-0.7123974941839728,-0.06784277628289752,-0.4676039510743041,0.45408591016220184,0.21814853636584985,0.13194710953632605,-0.0761655989780508,0.8782044777463475,0.7556674715823009,-0.2822421560873065,-1.669198202544016,0.14133153881103477,2.4034102923605176,1.027312254420585,0.878092876070424,0.7554597494309409,-0.2825552651693207,-1.6690993614607135,0.1414185955172306,2.4034451173676383,1.0273381002308042,-0.0004725071933807871,1.3222676441174906e-05,-0.00033507029104585037,0.0006557193240625331,0.00046948798894367065,0.0003236850696966637,0.0004112793176814917,0.0,0.0,0.0,0.0,0.0,0.0,0.0,-0.00011160167592350057,-0.00020772215136000138,-0.00031310908201420684,9.88410833024922e-05,8.705670619582606e-05,3.482500712070902e-05,2.5845810219138343e-05,0.0004725071933807871,-1.3222676441174906e-05,0.00033507029104585037,-0.0006557193240625331,-0.00046948798894367065,-0.0003236850696966637,-0.0004112793176814917,0.6568843722343445,46.40121078491211,5.612087726593018,-19.634431838989258,-0.7968040108680725,-2.3916659355163574,0.09097616374492645,0
39,0.1891801357269287,-0.7084590792655945,-46.32583236694336,-5.635891437530518,19.686006546020508,0.8022971749305725,2.3980746269226074,-0.04336874559521675,0.0,0.0,0.0,0.0,0.0,0.0,0.0,-0.714268299060991,-0.0680395438333333,-0.46951928783766883,0.4525631926897346,0.21850132778742395,0.1317077275200009,-0.07518141581896987,0.8782058802495569,0.755661869864215,-0.28224048565145127,-1.6691992168415486,0.14133057288469167,2.403409580283695,1.0273069647074573,0.878092876070424,0.7554597494309409,-0.2825552651693207,-1.6690993614607135,0.1414185955172306,2.4034451173676383,1.0273381002308042,0.00026018655337362793,-0.001561686316357674,0.00044498745781932335,-0.00034682353078816137,2.7104350284587635e-05,-0.00020139494025395567,-0.0013472733464333082,0.0,0.0,0.0,0.0,0.0,0.0,0.0,-0.00011300417913295835,-0.00020212043327416662,-0.0003147795178694568,9.985538083512324e-05,8.802263253893106e-05,3.553708394354871e-05,3.11355233468813e-05,-0.00026018655337362793,0.001561686316357674,-0.00044498745781932335,0.00034682353078816137,-2.7104350284587635e-05,0.00020139494025395567,0.0013472733464333082,0.7084590792655945,46.32583236694336,5.635891437530518,-19.686006546020508,-0.8022971749305725,-2.3980746269226074,0.04336874559521675,0
40,0.19417381286621094,-0.7084590792655945,-46.32583236694336,-5.635891437530518,19.686006546020508,0.8022971749305725,2.3980746269226074,-0.04336874559521675,0.0,0.0,0.0,0.0,0.0,0.0,0.0,-0.714268299060991,-0.0680395438333333,-0.46951928783766883,0.4525631926897346,0.21850132778742395,0.1317077275200009,-0.07518141581896987,0.8782058802495569,0.755661869864215,-0.28224048565145127,-1.6691992168415486,0.14133057288469167,2.403409580283695,1.0273069647074573,0.878092876070424,0.7554597494309409,-0.2825552651693207,-1.6690993614607135,0.1414185955172306,2.4034451173676383,1.0273381002308042,0.00026018655337362793,-0.001561686316357674,0.00044498745781932335,-0.00034682353078816137,2.7104350284587635e-05,-0.00020139494025395567,-0.0013472733464333082,0.0,0.0,0.0,0.0,0.0,0.0,0.0,-0.00011300417913295835,-0.00020212043327416662,-0.0003147795178694568,9.985538083512324e-05,8.802263253893106e-05,3.553708394354871e-05,3.11355233468813e-05,-0.00026018655337362793,0.001561686316357674,-0.00044498745781932335,0.00034682353078816137,-2.7104350284587635e-05,0.00020139494025395567,0.0013472733464333082,0.7084590792655945,46.32583236694336,5.635891437530518,-19.686006546020508,-0.8022971749305725,-2.3980746269226074,0.04336874559521675,0
41,0.19922471046447754,-0.7084590792655945,-46.32583236694336,-5.635891437530518,19.686006546020508,0.8022971749305725,2.3980746269226074,-0.04336874559521675,0.0,0.0,0.0,0.0,0.0,0.0,0.0,-0.714268299060991,-0.0680395438333333,-0.46951928783766883,0.4525631926897346,0.21850132778742395,0.1317077275200009,-0.07518141581896987,0.8782058802495569,0.755661869864215,-0.28224048565145127,-1.6691992168415486,0.14133057288469167,2.403409580283695,1.0273069647074573,0.878092876070424,0.7554597494309409,-0.2825552651693207,-1.6690993614607135,0.1414185955172306,2.4034451173676383,1.0273381002308042,0.00026018655337362793,-0.001561686316357674,0.00044498745781932335,-0.00034682353078816137,2.7104350284587635e-05,-0.00020139494025395567,-0.0013472733464333082,0.0,0.0,0.0,0.0,0.0,0.0,0.0,-0.00011300417913295835,-0.00020212043327416662,-0.0003147795178694568,9.985538083512324e-05,8.802263253893106e-05,3.553708394354871e-05,3.11355233468813e-05,-0.00026018655337362793,0.001561686316357674,-0.00044498745781932335,0.00034682353078816137,-2.7104350284587635e-05,0.00020139494025395567,0.0013472733464333082,0.7084590792655945,46.32583236694336,5.635891437530518,-19.686006546020508,-0.8022971749305725,-2.3980746269226074,0.04336874559521675,0
42,0.2042388916015625,-0.7084590792655945,-46.32583236694336,-5.635891437530518,19.686006546020508,0.8022971749305725,2.3980746269226074,-0.04336874559521675,0.0,0.0,0.0,0.0,0.0,0.0,0.0,-0.714268299060991,-0.0680395438333333,-0.46951928783766883,0.4525631926897346,0.21850132778742395,0.1317077275200009,-0.07518141581896987,0.8782058802495569,0.755661869864215,-0.28224048565145127,-1.6691992168415486,0.14133057288469167,2.403409580283695,1.0273069647074573,0.878092876070424,0.7554597494309409,-0.2825552651693207,-1.6690993614607135,0.1414185955172306,2.4034451173676383,1.0273381002308042,0.00026018655337362793,-0.001561686316357674,0.00044498745781932335,-0.00034682353078816137,2.7104350284587635e-05,-0.00020139494025395567,-0.0013472733464333082,0.0,0.0,0.0,0.0,0.0,0.0,0.0,-0.00011300417913295835,-0.00020212043327416662,-0.0003147795178694568,9.985538083512324e-05,8.802263253893106e-05,3.553708394354871e-05,3.11355233468813e-05,-0.00026018655337362793,0.001561686316357674,-0.00044498745781932335,0.00034682353078816137,-2.7104350284587635e-05,0.00020139494025395567,0.0013472733464333082,0.7084590792655945,46.32583236694336,5.635891437530518,-19.686006546020508,-0.8022971749305725,-2.3980746269226074,0.04336874559521675,0
43,0.2092301845550537,-0.6806880831718445,-46.40121078491211,-5.612087726593018,19.658235549926758,0.8022971749305725,2.3916659355163574,-0.09738485515117645,0.0,0.0,0.0,0.0,0.0,0.0,0.0,-0.7082918689970139,-0.08100240435760635,-0.4660716843821259,0.4610254238407033,0.2194864021603736,0.13183078573492968,-0.07495757982110007,0.8782046358945335,0.7556674677654877,-0.2822421560873065,-1.6691999786129492,0.14132951100570884,2.4034102923784624,1.027312966497408,0.878092876070424,0.7554597494309409,-0.2825552651693207,-1.6690993614607135,0.1414185955172306,2.4034451173676383,1.0273381002308042,-0.0009465979462682469,-6.961081420638662e-05,-6.440415317073069e-05,5.4740963061051996e-05,0.00010575083403389061,0.00019071512727155787,0.0010824339247863064,0.0,0.0,0.0,0.0,0.0,0.0,0.0,-0.00011175982410949192,-0.00020771833454680255,-0.00031310908201420684,0.00010061715223574907,8.908451152175867e-05,3.4824989175952226e-05,2.5133733396076607e-05,0.0009465979462682469,6.961081420638662e-05,6.440415317073069e-05,-5.4740963061051996e-05,-0.00010575083403389061,-0.00019071512727155787,-0.0010824339247863064,0.6806880831718445,46.40121078491211,5.612087726593018,-19.658235549926758,-0.8022971749305725,-2.3916659355163574,0.09738485515117645,0
44,0.2141716480255127,-0.6806880831718445,-46.40121078491211,-5.612087726593018,19.658235549926758,0.8022971749305725,2.3916659355163574,-0.09738485515117645,0.0,0.0,0.0,0.0,0.0,0.0,0.0,-0.7082918689970139,-0.08100240435760635,-0.4660716843821259,0.4610254238407033,0.2194864021603736,0.13183078573492968,-0.07495757982110007,0.8782046358945335,0.7556674677654877,-0.2822421560873065,-1.6691999786129492,0.14132951100570884,2.4034102923784624,1.027312966497408,0.878092876070424,0.7554597494309409,-0.2825552651693207,-1.6690993614607135,0.1414185955172306,2.4034451173676383,1.0273381002308042,-0.0009465979462682469,-6.961081420638662e-05,-6.440415317073069e-05,5.4740963061051996e-05,0.00010575083403389061,0.00019071512727155787,0.0010824339247863064,0.0,0.0,0.0,0.0,0.0,0.0,0.0,-0.00011175982410949192,-0.00020771833454680255,-0.00031310908201420684,0.00010061715223574907,8.908451152175867e-05,3.4824989175952226e-05,2.5133733396076607e-05,0.0009465979462682469,6.961081420638662e-05,6.440415317073069e-05,-5.4740963061051996e-05,-0.00010575083403389061,-0.00019071512727155787,-0.0010824339247863064,0.6806880831718445,46.40121078491211,5.612087726593018,-19.658235549926758,-0.8022971749305725,-2.3916659355163574,0.09738485515117645,0
45,0.2192239761352539,-0.6806880831718445,-46.37740707397461,-5.635891437530518,19.709810256958008,0.8087058663368225,2.3916659355163574,-0.05710165575146675,0.0,0.0,0.0,0.0,0.0,0.0,0.0,-0.7079569405590085,-0.0669951335271926,-0.4627059634402104,0.45650000453763434,0.2196978642854509,0.1301472741499342,-0.07469706604717956,0.8782048510967683,0.7556636951513239,-0.28224024723287217,-1.6692007361087746,0.14132879453899952,2.4034102923605176,1.0273084905863636,0.878092876070424,0.7554597494309409,-0.2825552651693207,-1.6690993614607135,0.1414185955172306,2.4034451173676383,1.0273381002308042,-0.0007805059909107298,-0.0003487780593428946,-0.00019788103493609954,-0.0009291566909527814,6.685846616982819e-05,0.00017032054477634904,-0.0006787544756583016,0.0,0.0,0.0,0.0,0.0,0.0,0.0,-0.00011197502634430201,-0.00020394572038306968,-0.00031501793644855836,0.00010137464806114771,8.980097823108046e-05,3.482500712070902e-05,2.9609644440542482e-05,0.0007805059909107298,0.0003487780593428946,0.00019788103493609954,0.0009291566909527814,-6.685846616982819e-05,-0.00017032054477634904,0.0006787544756583016,0.6806880831718445,46.37740707397461,5.635891437530518,-19.709810256958008,-0.8087058663368225,-2.3916659355163574,0.05710165575146675,0
46,0.22422361373901367,-0.6806880831718445,-46.37740707397461,-5.635891437530518,19.709810256958008,0.8087058663368225,2.3916659355163574,-0.05710165575146675,0.0,0.0,0.0,0.0,0.0,0.0,0.0,-0.7079569405590085,-0.0669951335271926,-0.4627059634402104,0.45650000453763434,0.2196978642854509,0.1301472741499342,-0.07469706604717956,0.8782048510967683,0.7556636951513239,-0.28224024723287217,-1.6692007361087746,0.14132879453899952,2.4034102923605176,1.0273084905863636,0.878092876070424,0.7554597494309409,-0.2825552651693207,-1.6690993614607135,0.1414185955172306,2.4034451173676383,1.0273381002308042,-0.0007805059909107298,-0.0003487780593428946,-0.00019788103493609954,-0.0009291566909527814,6.685846616982819e-05,0.00017032054477634904,-0.0006787544756583016,0.0,0.0,0.0,0.0,0.0,0.0,0.0,-0.00011197502634430201,-0.00020394572038306968,-0.00031501793644855836,0.00010137464806114771,8.980097823108046e-05,3.482500712070902e-05,2.9609644440542482e-05,0.0007805059909107298,0.0003487780593428946,0.00019788103493609954,0.0009291566909527814,-6.685846616982819e-05,-0.00017032054477634904,0.0006787544756583016,0.6806880831718445,46.37740707397461,5.635891437530518,-19.709810256958008,-0.8087058663368225,-2.3916659355163574,0.05710165575146675,0
47,0.22922468185424805,-0.7084590792655945,-46.37740707397461,-5.663662433624268,19.658235549926758,0.8022971749305725,2.4044833183288574,-0.07724325358867645,0.0,0.0,0.0,0.0,0.0,0.0,0.0,-0.7058812192756504,-0.07605296984131714,-0.46530591955232964,0.4629118221923918,0.2203306983024555,0.1306652988412495,-0.07477327298548643,0.8782058424244051,0.7556655670360442,-0.2822385368055824,-1.6692001103666598,0.14132950661579768,2.403408868206872,1.027310728541679,0.878092876070424,0.7554597494309409,-0.2825552651693207,-1.6690993614607135,0.1414185955172306,2.4034451173676383,1.0273381002308042,-0.000274152091606637,-0.0007082656432448389,0.0005278873079612217,0.00010370025245906925,0.00012161810694726128,-0.0003608930492165945,0.00048726515044348944,0.0,0.0,0.0,0.0,0.0,0.0,0.0,-0.00011296635398116983,-0.00020581760510329783,-0.0003167283637383056,0.00010074890594635733,8.908890143291548e-05,3.62491607663884e-05,2.7371689125255116e-05,0.000274152091606637,0.0007082656432448389,-0.0005278873079612217,-0.00010370025245906925,-0.00012161810694726128,0.0003608930492165945,-0.00048726515044348944,0.7084590792655945,46.37740707397461,5.663662433624268,-19.658235549926758,-0.8022971749305725,-2.4044833183288574,0.07724325358867645,0
48,0.23422884941101074,-0.7084590792655945,-46.37740707397461,-5.663662433624268,19.658235549926758,0.8022971749305725,2.4044833183288574,-0.07724325358867645,0.0,0.0,0.0,0.0,0.0,0.0,0.0,-0.7058812192756504,-0.07605296984131714,-0.46530591955232964,0.4629118221923918,0.2203306983024555,0.1306652988412495,-0.07477327298548643,0.8782058424244051,0.7556655670360442,-0.2822385368055824,-1.6692001103666598,0.14132950661579768,2.403408868206872,1.027310728541679,0.878092876070424,0.7554597494309409,-0.2825552651693207,-1.6690993614607135,0.1414185955172306,2.4034451173676383,1.0273381002308042,-0.000274152091606637,-0.0007082656432448389,0.0005278873079612217,0.00010370025245906925,0.00012161810694726128,-0.0003608930492165945,0.00048726515044348944,0.0,0.0,0.0,0.0,0.0,0.0,0.0,-0.00011296635398116983,-0.00020581760510329783,-0.0003167283637383056,0.00010074890594635733,8.908890143291548e-05,3.62491607663884e-05,2.7371689125255116e-05,0.000274152091606637,0.0007082656432448389,-0.0005278873079612217,-0.00010370025245906925,-0.00012161810694726128,0.0003608930492165945,-0.00048726515044348944,0.7084590792655945,46.37740707397461,5.663662433624268,-19.658235549926758,-0.8022971749305725,-2.4044833183288574,0.07724325358867645,0
49,0.23922967910766602,-0.7838374972343445,-46.40121078491211,-5.711269855499268,19.686006546020508,0.8022971749305725,2.3916659355163574,-0.04977743700146675,0.0,0.0,0.0,0.0,0.0,0.0,0.0,-0.7286991091467786,-0.07439121505279184,-0.4788036895606548,0.4596922974465535,0.22078158024937852,0.13079801932073545,-0.07526672266226095,0.8782136222713284,0.7556664314477896,-0.2822351959379096,-1.6692020588126195,0.14132950807843261,2.4034102923605176,1.0273076767842804,0.878092876070424,0.7554597494309409,-0.2825552651693207,-1.6690993614607135,0.1414185955172306,2.4034451173676383,1.0273381002308042,0.00023201602545487842,-0.00016515327221127248,0.0010859952381197327,-0.0007381449956505544,-5.264056384758183e-05,0.0002810852785973703,-0.0009742004419338211,0.0,0.0,0.0,0.0,0.0,0.0,0.0,-0.00012074620090440913,-0.0002066820168487027,-0.0003200692314111464,0.00010269735190604479,8.908743879798564e-05,3.482500712070902e-05,3.0423446523819564e-05,-0.00023201602545487842,0.00016515327221127248,-0.0010859952381197327,0.0007381449956505544,5.264056384758183e-05,-0.0002810852785973703,0.0009742004419338211,0.7838374972343445,46.40121078491211,5.711269855499268,-19.686006546020508,-0.8022971749305725,-2.3916659355163574,0.04977743700146675,0
50,0.24418163299560547,-0.7838374972343445,-46.40121078491211,-5.711269855499268,19.686006546020508,0.8022971749305725,2.3916659355163574,-0.04977743700146675,0.0,0.0,0.0,0.0,0.0,0.0,0.0,-0.7286991091467786,-0.07439121505279184,-0.4788036895606548,0.4596922974465535,0.22078158024937852,0.13079801932073545,-0.07526672266226095,0.8782136222713284,0.7556664314477896,-0.2822351959379096,-1.6692020588126195,0.14132950807843261,2.4034102923605176,1.0273076767842804,0.878092876070424,0.7554597494309409,-0.2825552651693207,-1.6690993614607135,0.1414185955172306,2.4034451173676383,1.0273381002308042,0.00023201602545487842,-0.00016515327221127248,0.0010859952381197327,-0.0007381449956505544,-5.264056384758183e-05,0.0002810852785973703,-0.0009742004419338211,0.0,0.0,0.0,0.0,0.0,0.0,0.0,-0.00012074620090440913,-0.0002066820168487027,-0.0003200692314111464,0.00010269735190604479,8.908743879798564e-05,3.482500712070902e-05,3.0423446523819564e-05,-0.00023201602545487842,0.00016515327221127248,-0.0010859952381197327,0.0007381449956505544,5.264056384758183e-05,-0.0002810852785973703,0.0009742004419338211,0.7838374972343445,46.40121078491211,5.711269855499268,-19.686006546020508,-0.8022971749305725,-2.3916659355163574,0.04977743700146675,0
51,0.2492237091064453,-0.7322627902030945,-46.34963607788086,-5.663662433624268,19.634431838989258,0.8022971749305725,2.3980746269226074,-0.07724325358867645,0.0,0.0,0.0,0.0,0.0,0.0,0.0,-0.7231324540090498,-0.05029295385372585,-0.466473457931003,0.449416092453125,0.21945667816365044,0.12934670626663725,-0.07550527083971519,0.8782075507230805,0.7556610413687852,-0.2822385368096201,-1.6691984635302202,0.1413295071033509,2.4034095804452003,1.027310728541679,0.878092876070424,0.7554597494309409,-0.2825552651693207,-1.6690993614607135,0.1414185955172306,2.4034451173676383,1.0273381002308042,-0.0008598485938841157,-0.00034308384325314564,-0.00013938174440568743,0.0002445772058001621,-9.29260304584989e-05,0.00011216325519198463,9.96497413510837e-05,0.0,0.0,0.0,0.0,0.0,0.0,0.0,-0.00011467465265657673,-0.00020129193784435007,-0.0003167283597006465,9.910206950669576e-05,8.908841387969546e-05,3.553692243807305e-05,2.7371689125255116e-05,0.0008598485938841157,0.00034308384325314564,0.00013938174440568743,-0.0002445772058001621,9.29260304584989e-05,-0.00011216325519198463,-9.96497413510837e-05,0.7322627902030945,46.34963607788086,5.663662433624268,-19.634431838989258,-0.8022971749305725,-2.3980746269226074,0.07724325358867645,0
52,0.254227876663208,-0.7322627902030945,-46.34963607788086,-5.663662433624268,19.634431838989258,0.8022971749305725,2.3980746269226074,-0.07724325358867645,0.0,0.0,0.0,0.0,0.0,0.0,0.0,-0.7231324540090498,-0.05029295385372585,-0.466473457931003,0.449416092453125,0.21945667816365044,0.12934670626663725,-0.07550527083971519,0.8782075507230805,0.7556610413687852,-0.2822385368096201,-1.6691984635302202,0.1413295071033509,2.4034095804452003,1.027310728541679,0.878092876070424,0.7554597494309409,-0.2825552651693207,-1.6690993614607135,0.1414185955172306,2.4034451173676383,1.0273381002308042,-0.0008598485938841157,-0.00034308384325314564,-0.00013938174440568743,0.0002445772058001621,-9.29260304584989e-05,0.00011216325519198463,9.96497413510837e-05,0.0,0.0,0.0,0.0,0.0,0.0,0.0,-0.00011467465265657673,-0.00020129193784435007,-0.0003167283597006465,9.910206950669576e-05,8.908841387969546e-05,3.553692243807305e-05,2.7371689125255116e-05,0.0008598485938841157,0.00034308384325314564,0.00013938174440568743,-0.0002445772058001621,9.29260304584989e-05,-0.00011216325519198463,-9.96497413510837e-05,0.7322627902030945,46.34963607788086,5.663662433624268,-19.634431838989258,-0.8022971749305725,-2.3980746269226074,0.07724325358867645,0
53,0.259227991104126,-0.7560665011405945,-46.37740707397461,-5.612087726593018,19.610628128051758,0.8022971749305725,2.3916659355163574,-0.04977743700146675,0.0,0.0,0.0,0.0,0.0,0.0,0.0,-0.7222032761402175,-0.07718689220411006,-0.46498314924616996,0.46363366526214206,0.21948505182636577,0.13204755357249265,-0.07498334905837223,0.8782123099149953,0.755662915122767,-0.2822421560873065,-1.6691937416931213,0.14133057287666623,2.4034102923605176,1.0273076767842804,0.878092876070424,0.7554597494309409,-0.2825552651693207,-1.6690993614607135,0.1414185955172306,2.4034451173676383,1.0273381002308042,-0.00021097782162977436,-0.000560765892759423,-0.0002845214399286153,0.0007695064562727556,0.00017060412387418864,9.383063575767292e-05,-0.0006239982733830567,0.0,0.0,0.0,0.0,0.0,0.0,0.0,-0.00011943384457135942,-0.00020316569182610156,-0.00031310908201420684,9.438023240782023e-05,8.802264056437248e-05,3.482500712070902e-05,3.0423446523819564e-05,0.00021097782162977436,0.000560765892759423,0.0002845214399286153,-0.0007695064562727556,-0.00017060412387418864,-9.383063575767292e-05,0.0006239982733830567,0.7560665011405945,46.37740707397461,5.612087726593018,-19.610628128051758,-0.8022971749305725,-2.3916659355163574,0.04977743700146675,0
54,0.26424670219421387,-0.7560665011405945,-46.37740707397461,-5.612087726593018,19.610628128051758,0.8022971749305725,2.3916659355163574,-0.04977743700146675,0.0,0.0,0.0,0.0,0.0,0.0,0.0,-0.7222032761402175,-0.07718689220411006,-0.46498314924616996,0.46363366526214206,0.21948505182636577,0.13204755357249265,-0.07498334905837223,0.8782123099149953,0.755662915122767,-0.2822421560873065,-1.6691937416931213,0.14133057287666623,2.4034102923605176,1.0273076767842804,0.878092876070424,0.7554597494309409,-0.2825552651693207,-1.6690993614607135,0.1414185955172306,2.4034451173676383,1.0273381002308042,-0.00021097782162977436,-0.000560765892759423,-0.0002845214399286153,0.0007695064562727556,0.00017060412387418864,9.383063575767292e-05,-0.0006239982733830567,0.0,0.0,0.0,0.0,0.0,0.0,0.0,-0.00011943384457135942,-0.00020316569182610156,-0.00031310908201420684,9.438023240782023e-05,8.802264056437248e-05,3.482500712070902e-05,3.0423446523819564e-05,0.00021097782162977436,0.000560765892759423,0.0002845214399286153,-0.0007695064562727556,-0.00017060412387418864,-9.383063575767292e-05,0.0006239982733830567,0.7560665011405945,46.37740707397461,5.612087726593018,-19.610628128051758,-0.8022971749305725,-2.3916659355163574,0.04977743700146675,0
55,0.2692265510559082,-0.7560665011405945,-46.34963607788086,-5.612087726593018,19.686006546020508,0.7968040108680725,2.4044833183288574,-0.03604452684521675,0.0,0.0,0.0,0.0,0.0,0.0,0.0,-0.7385389660633107,-0.07757819454047339,-0.4751176579309814,0.46037741501956597,0.2195265991337225,0.1318226477853904,-0.07359183846153147,0.8782123179876666,0.7556631204614558,-0.2822421560873065,-1.66920183554192,0.1413301564645225,2.403408868206872,1.027306150905374,0.878092876070424,0.7554597494309409,-0.2825552651693207,-1.6690993614607135,0.1414185955172306,2.4034451173676383,1.0273381002308042,0.00040648748621565316,-0.0013550138867247418,-0.0006678068782718521,-0.0009494887146449012,0.0001954310664514277,-0.00025061643312357086,-0.001798543710751831,0.0,0.0,0.0,0.0,0.0,0.0,0.0,-0.00011944191724266862,-0.00020337103051493166,-0.00031310908201420684,0.00010247408120656054,8.843905270811137e-05,3.62491607663884e-05,3.194932543015838e-05,-0.00040648748621565316,0.0013550138867247418,0.0006678068782718521,0.0009494887146449012,-0.0001954310664514277,0.00025061643312357086,0.001798543710751831,0.7560665011405945,46.34963607788086,5.612087726593018,-19.686006546020508,-0.7968040108680725,-2.4044833183288574,0.03604452684521675,0
56,0.2741856575012207,-0.7560665011405945,-46.34963607788086,-5.612087726593018,19.686006546020508,0.7968040108680725,2.4044833183288574,-0.03604452684521675,0.0,0.0,0.0,0.0,0.0,0.0,0.0,-0.7385389660633107,-0.07757819454047339,-0.4751176579309814,0.46037741501956597,0.2195265991337225,0.1318226477853904,-0.07359183846153147,0.8782123179876666,0.7556631204614558,-0.2822421560873065,-1.66920183554192,0.1413301564645225,2.403408868206872,1.027306150905374,0.878092876070424,0.7554597494309409,-0.2825552651693207,-1.6690993614607135,0.1414185955172306,2.4034451173676383,1.0273381002308042,0.00040648748621565316,-0.0013550138867247418,-0.0006678068782718521,-0.0009494887146449012,0.0001954310664514277,-0.00025061643312357086,-0.001798543710751831,0.0,0.0,0.0,0.0,0.0,0.0,0.0,-0.00011944191724266862,-0.00020337103051493166,-0.00031310908201420684,0.00010247408120656054,8.843905270811137e-05,3.62491607663884e-05,3.194932543015838e-05,-0.00040648748621565316,0.0013550138867247418,0.0006678068782718521,0.0009494887146449012,-0.0001954310664514277,0.00025061643312357086,0.001798543710751831,0.7560665011405945,46.34963607788086,5.612087726593018,-19.686006546020508,-0.7968040108680725,-2.4044833183288574,0.03604452684521675,0
57,0.2792232036590576,-0.7560665011405945,-46.34963607788086,-5.612087726593018,19.686006546020508,0.7968040108680725,2.4044833183288574,-0.03604452684521675,0.0,0.0,0.0,0.0,0.0,0.0,0.0,-0.7385389660633107,-0.07757819454047339,-0.4751176579309814,0.46037741501956597,0.2195265991337225,0.1318226477853904,-0.07359183846153147,0.8782123179876666,0.7556631204614558,-0.2822421560873065,-1.66920183554192,0.1413301564645225,2.403408868206872,1.027306150905374,0.878092876070424,0.7554597494309409,-0.2825552651693207,-1.6690993614607135,0.1414185955172306,2.4034451173676383,1.0273381002308042,0.00040648748621565316,-0.0013550138867247418,-0.0006678068782718521,-0.0009494887146449012,0.0001954310664514277,-0.00025061643312357086,-0.001798543710751831,0.0,0.0,0.0,0.0,0.0,0.0,0.0,-0.00011944191724266862,-0.00020337103051493166,-0.00031310908201420684,0.00010247408120656054,8.843905270811137e-05,3.62491607663884e-05,3.194932543015838e-05,-0.00040648748621565316,0.0013550138867247418,0.0006678068782718521,0.0009494887146449012,-0.0001954310664514277,0.00025061643312357086,0.001798543710751831,0.7560665011405945,46.34963607788086,5.612087726593018,-19.686006546020508,-0.7968040108680725,-2.4044833183288574,0.03604452684521675,0
58,0.28423023223876953,-0.7560665011405945,-46.34963607788086,-5.612087726593018,19.686006546020508,0.7968040108680725,2.4044833183288574,-0.03604452684521675,0.0,0.0,0.0,0.0,0.0,0.0,0.0,-0.7385389660633107,-0.07757819454047339,-0.4751176579309814,0.46037741501956597,0.2195265991337225,0.1318226477853904,-0.07359183846153147,0.8782123179876666,0.7556631204614558,-0.2822421560873065,-1.66920183554192,0.1413301564645225,2.403408868206872,1.027306150905374,0.878092876070424,0.7554597494309409,-0.2825552651693207,-1.6690993614607135,0.1414185955172306,2.4034451173676383,1.0273381002308042,0.00040648748621565316,-0.0013550138867247418,-0.0006678068782718521,-0.0009494887146449012,0.0001954310664514277,-0.00025061643312357086,-0.001798543710751831,0.0,0.0,0.0,0.0,0.0,0.0,0.0,-0.00011944191724266862,-0.00020337103051493166,-0.00031310908201420684,0.00010247408120656054,8.843905270811137e-05,3.62491607663884e-05,3.194932543015838e-05,-0.00040648748621565316,0.0013550138867247418,0.0006678068782718521,0.0009494887146449012,-0.0001954310664514277,0.00025061643312357086,0.001798543710751831,0.7560665011405945,46.34963607788086,5.612087726593018,-19.686006546020508,-0.7968040108680725,-2.4044833183288574,0.03604452684521675,0
59,0.28925609588623047,-0.6806880831718445,-46.40121078491211,-5.612087726593018,19.686006546020508,0.8022971749305725,2.4044833183288574,-0.04336874559521675,0.0,0.0,0.0,0.0,0.0,0.0,0.0,-0.7267725881016004,-0.08520232646763086,-0.46650026270748957,0.4634545502981946,0.21887341573449046,0.13246369865697866,-0.07397336830776277,0.8782041683404412,0.7556665327029766,-0.2822421560873065,-1.66920213840121,0.1413296250898963,2.403408868206872,1.0273069647074573,0.878092876070424,0.7554597494309409,-0.2825552651693207,-1.6690993614607135,0.1414185955172306,2.4034451173676383,1.0273381002308042,-0.0007478988379739378,-0.0010040977136767174,-0.00018015481218756508,-0.00045406778588735053,3.716828935797726e-05,-0.00024418918455025693,0.0029697822191840826,0.0,0.0,0.0,0.0,0.0,0.0,0.0,-0.00011129227001727138,-0.00020678327203571545,-0.00031310908201420684,0.0001027769404964296,8.89704273343006e-05,3.62491607663884e-05,3.11355233468813e-05,0.0007478988379739378,0.0010040977136767174,0.00018015481218756508,0.00045406778588735053,-3.716828935797726e-05,0.00024418918455025693,-0.0029697822191840826,0.6806880831718445,46.40121078491211,5.612087726593018,-19.686006546020508,-0.8022971749305725,-2.4044833183288574,0.04336874559521675,0
60,0.294262170791626,-0.6806880831718445,-46.40121078491211,-5.612087726593018,19.686006546020508,0.8022971749305725,2.4044833183288574,-0.04336874559521675,0.0,0.0,0.0,0.0,0.0,0.0,0.0,-0.7267725881016004,-0.08520232646763086,-0.46650026270748957,0.4634545502981946,0.21887341573449046,0.13246369865697866,-0.07397336830776277,0.8782041683404412,0.7556665327029766,-0.2822421560873065,-1.66920213840121,0.1413296250898963,2.403408868206872,1.0273069647074573,0.878092876070424,0.7554597494309409,-0.2825552651693207,-1.6690993614607135,0.1414185955172306,2.4034451173676383,1.0273381002308042,-0.0007478988379739378,-0.0010040977136767174,-0.00018015481218756508,-0.00045406778588735053,3.716828935797726e-05,-0.00024418918455025693,0.0029697822191840826,0.0,0.0,0.0,0.0,0.0,0.0,0.0,-0.00011129227001727138,-0.00020678327203571545,-0.00031310908201420684,0.0001027769404964296,8.89704273343006e-05,3.62491607663884e-05,3.11355233468813e-05,0.0007478988379739378,0.0010040977136767174,0.00018015481218756508,0.00045406778588735053,-3.716828935797726e-05,0.00024418918455025693,-0.0029697822191840826,0.6806880831718445,46.40121078491211,5.612087726593018,-19.686006546020508,-0.8022971749305725,-2.4044833183288574,0.04336874559521675,0
61,0.29922938346862793,-0.7084590792655945,-46.40121078491211,-5.588284015655518,19.634431838989258,0.8022971749305725,2.4044833183288574,-0.04977743700146675,0.0,0.0,0.0,0.0,0.0,0.0,0.0,-0.7207377912544043,-0.07316929648176676,-0.4616423795233457,0.4540423679326754,0.21851907513681462,0.13154228301362023,-0.07477635925628029,0.8782061079719677,0.7556672375630237,-0.28224382652316177,-1.6691984644997098,0.1413295067783154,2.403408868206872,1.0273076767842804,0.878092876070424,0.7554597494309409,-0.2825552651693207,-1.6690993614607135,0.1414185955172306,2.4034451173676383,1.0273381002308042,0.0014333352515842215,-0.0004132399034537725,-0.0008627023185242172,0.0007708508384666729,-0.00010432192047354598,-0.00020932577269237683,-0.0010718109623858013,0.0,0.0,0.0,0.0,0.0,0.0,0.0,-0.00011323190154377549,-0.00020748813208282257,-0.0003114386461589569,9.910303899629547e-05,8.908873891519398e-05,3.62491607663884e-05,3.0423446523819564e-05,-0.0014333352515842215,0.0004132399034537725,0.0008627023185242172,-0.0007708508384666729,0.00010432192047354598,0.00020932577269237683,0.0010718109623858013,0.7084590792655945,46.40121078491211,5.588284015655518,-19.634431838989258,-0.8022971749305725,-2.4044833183288574,0.04977743700146675,0
62,0.30423545837402344,-0.7084590792655945,-46.40121078491211,-5.588284015655518,19.634431838989258,0.8022971749305725,2.4044833183288574,-0.04977743700146675,0.0,0.0,0.0,0.0,0.0,0.0,0.0,-0.7207377912544043,-0.07316929648176676,-0.4616423795233457,0.4540423679326754,0.21851907513681462,0.13154228301362023,-0.07477635925628029,0.8782061079719677,0.7556672375630237,-0.28224382652316177,-1.6691984644997098,0.1413295067783154,2.403408868206872,1.0273076767842804,0.878092876070424,0.7554597494309409,-0.2825552651693207,-1.6690993614607135,0.1414185955172306,2.4034451173676383,1.0273381002308042,0.0014333352515842215,-0.0004132399034537725,-0.0008627023185242172,0.0007708508384666729,-0.00010432192047354598,-0.00020932577269237683,-0.0010718109623858013,0.0,0.0,0.0,0.0,0.0,0.0,0.0,-0.00011323190154377549,-0.00020748813208282257,-0.0003114386461589569,9.910303899629547e-05,8.908873891519398e-05,3.62491607663884e-05,3.0423446523819564e-05,-0.0014333352515842215,0.0004132399034537725,0.0008627023185242172,-0.0007708508384666729,0.00010432192047354598,0.00020932577269237683,0.0010718109623858013,0.7084590792655945,46.40121078491211,5.588284015655518,-19.634431838989258,-0.8022971749305725,-2.4044833183288574,0.04977743700146675,0
63,0.3091914653778076,-0.6291133761405945,-46.42501449584961,-5.635891437530518,19.610628128051758,0.7968040108680725,2.3980746269226074,-0.08365194499492645,0.0,0.0,0.0,0.0,0.0,0.0,0.0,-0.7275045301129623,-0.07689000897005328,-0.4728279293821301,0.454518357702404,0.21829308635610475,0.1315380148205239,-0.07523108624605164,0.8782024991305112,0.7556690541006142,-0.28224048565145127,-1.669194721785405,0.14133011696736109,2.403409580283695,1.0273114406185018,0.878092876070424,0.7554597494309409,-0.2825552651693207,-1.6690993614607135,0.1414185955172306,2.4034451173676383,1.0273381002308042,-0.0011972730766839777,0.00036257376241885845,-6.149266227239441e-05,0.0014516905560230525,0.00014611803286427476,5.442503023765655e-06,-2.303679251607229e-06,0.0,0.0,0.0,0.0,0.0,0.0,0.0,-0.00010962306008721612,-0.00020930466967339356,-0.0003147795178694568,9.536032469159572e-05,8.847854986951398e-05,3.553708394354871e-05,2.6659612302415425e-05,0.0011972730766839777,-0.00036257376241885845,6.149266227239441e-05,-0.0014516905560230525,-0.00014611803286427476,-5.442503023765655e-06,2.303679251607229e-06,0.6291133761405945,46.42501449584961,5.635891437530518,-19.610628128051758,-0.7968040108680725,-2.3980746269226074,0.08365194499492645,0
64,0.3143339157104492,-0.6291133761405945,-46.42501449584961,-5.635891437530518,19.610628128051758,0.7968040108680725,2.3980746269226074,-0.08365194499492645,0.0,0.0,0.0,0.0,0.0,0.0,0.0,-0.7275045301129623,-0.07689000897005328,-0.4728279293821301,0.454518357702404,0.21829308635610475,0.1315380148205239,-0.07523108624605164,0.8782024991305112,0.7556690541006142,-0.28224048565145127,-1.669194721785405,0.14133011696736109,2.403409580283695,1.0273114406185018,0.878092876070424,0.7554597494309409,-0.2825552651693207,-1.6690993614607135,0.1414185955172306,2.4034451173676383,1.0273381002308042,-0.0011972730766839777,0.00036257376241885845,-6.149266227239441e-05,0.0014516905560230525,0.00014611803286427476,5.442503023765655e-06,-2.303679251607229e-06,0.0,0.0,0.0,0.0,0.0,0.0,0.0,-0.00010962306008721612,-0.00020930466967339356,-0.0003147795178694568,9.536032469159572e-05,8.847854986951398e-05,3.553708394354871e-05,2.6659612302415425e-05,0.0011972730766839777,-0.00036257376241885845,6.149266227239441e-05,-0.0014516905560230525,-0.00014611803286427476,-5.442503023765655e-06,2.303679251607229e-06,0.6291133761405945,46.42501449584961,5.635891437530518,-19.610628128051758,-0.7968040108680725,-2.3980746269226074,0.08365194499492645,0
65,0.319230318069458,-0.7084590792655945,-46.37740707397461,-5.588284015655518,19.658235549926758,0.7968040108680725,2.3916659355163574,-0.08365194499492645,0.0,0.0,0.0,0.0,0.0,0.0,0.0,-0.7075936877660747,-0.07347404855647142,-0.46273072624981304,0.4528255141511564,0.2179710185948027,0.13078773602064697,-0.07621465080972124,0.87820584311118,0.7556633744438297,-0.28224382652316177,-1.6691999494626533,0.14133011761742012,2.4034102923605176,1.0273114406185018,0.878092876070424,0.7554597494309409,-0.2825552651693207,-1.6690993614607135,0.1414185955172306,2.4034451173676383,1.0273381002308042,0.00047754884925257273,-0.00039458856911855754,-0.0009735688674368398,-0.0003192806041704826,0.0002640656445947422,-0.00013236591466294612,-0.00036824671841118853,0.0,0.0,0.0,0.0,0.0,0.0,0.0,-0.00011296704075602904,-0.00020362501288884172,-0.0003114386461589569,0.00010058800193979422,8.84778998104796e-05,3.482500712070902e-05,2.6659612302415425e-05,-0.00047754884925257273,0.00039458856911855754,0.0009735688674368398,0.0003192806041704826,-0.0002640656445947422,0.00013236591466294612,0.00036824671841118853,0.7084590792655945,46.37740707397461,5.588284015655518,-19.658235549926758,-0.7968040108680725,-2.3916659355163574,0.08365194499492645,0
66,0.32422375679016113,-0.7084590792655945,-46.37740707397461,-5.588284015655518,19.658235549926758,0.7968040108680725,2.3916659355163574,-0.08365194499492645,0.0,0.0,0.0,0.0,0.0,0.0,0.0,-0.7075936877660747,-0.07347404855647142,-0.46273072624981304,0.4528255141511564,0.2179710185948027,0.13078773602064697,-0.07621465080972124,0.87820584311118,0.7556633744438297,-0.28224382652316177,-1.6691999494626533,0.14133011761742012,2.4034102923605176,1.0273114406185018,0.878092876070424,0.7554597494309409,-0.2825552651693207,-1.6690993614607135,0.1414185955172306,2.4034451173676383,1.0273381002308042,0.00047754884925257273,-0.00039458856911855754,-0.0009735688674368398,-0.0003192806041704826,0.0002640656445947422,-0.00013236591466294612,-0.00036824671841118853,0.0,0.0,0.0,0.0,0.0,0.0,0.0,-0.00011296704075602904,-0.00020362501288884172,-0.0003114386461589569,0.00010058800193979422,8.84778998104796e-05,3.482500712070902e-05,2.6659612302415425e-05,-0.00047754884925257273,0.00039458856911855754,0.0009735688674368398,0.0003192806041704826,-0.0002640656445947422,0.00013236591466294612,0.00036824671841118853,0.7084590792655945,46.37740707397461,5.588284015655518,-19.658235549926758,-0.7968040108680725,-2.3916659355163574,0.08365194499492645,0
67,0.3292264938354492,-0.6806880831718445,-46.40121078491211,-5.663662433624268,19.686006546020508,0.8087058663368225,2.3980746269226074,-0.04977743700146675,0.0,0.0,0.0,0.0,0.0,0.0,0.0,-0.701722529597934,-0.07922780255794112,-0.4600614535185974,0.45828781248124467,0.21785521000175673,0.1304003197496154,-0.07668717481646153,0.8782062804048774,0.7556646260071368,-0.2822385368096201,-1.669201122882418,0.14132879453897843,2.403409580283695,1.0273076767842804,0.878092876070424,0.7554597494309409,-0.2825552651693207,-1.6690993614607135,0.1414185955172306,2.4034451173676383,1.0273381002308042,-0.0005226484098731736,8.802169186816941e-05,0.0010242295826614033,-0.00048214269243926507,-0.00021310964940854894,-4.6386055988285405e-05,-0.0015741083498277233,0.0,0.0,0.0,0.0,0.0,0.0,0.0,-0.00011340433445339304,-0.0002048765761959448,-0.0003167283597006465,0.00010176142170448266,8.98009782521747e-05,3.553708394354871e-05,3.0423446523819564e-05,0.0005226484098731736,-8.802169186816941e-05,-0.0010242295826614033,0.00048214269243926507,0.00021310964940854894,4.6386055988285405e-05,0.0015741083498277233,0.6806880831718445,46.40121078491211,5.663662433624268,-19.686006546020508,-0.8087058663368225,-2.3980746269226074,0.04977743700146675,0
68,0.3342287540435791,-0.6806880831718445,-46.40121078491211,-5.663662433624268,19.686006546020508,0.8087058663368225,2.3980746269226074,-0.04977743700146675,0.0,0.0,0.0,0.0,0.0,0.0,0.0,-0.701722529597934,-0.07922780255794112,-0.4600614535185974,0.45828781248124467,0.21785521000175673,0.1304003197496154,-0.07668717481646153,0.8782062804048774,0.7556646260071368,-0.2822385368096201,-1.669201122882418,0.14132879453897843,2.403409580283695,1.0273076767842804,0.878092876070424,0.7554597494309409,-0.2825552651693207,-1.6690993614607135,0.1414185955172306,2.4034451173676383,1.0273381002308042,-0.0005226484098731736,8.802169186816941e-05,0.0010242295826614033,-0.00048214269243926507,-0.00021310964940854894,-4.6386055988285405e-05,-0.0015741083498277233,0.0,0.0,0.0,0.0,0.0,0.0,0.0,-0.00011340433445339304,-0.0002048765761959448,-0.0003167283597006465,0.00010176142170448266,8.98009782521747e-05,3.553708394354871e-05,3.0423446523819564e-05,0.0005226484098731736,-8.802169186816941e-05,-0.0010242295826614033,0.00048214269243926507,0.00021310964940854894,4.6386055988285405e-05,0.0015741083498277233,0.6806880831718445,46.40121078491211,5.663662433624268,-19.686006546020508,-0.8087058663368225,-2.3980746269226074,0.04977743700146675,0
69,0.33922839164733887,-0.7322627902030945,-46.34963607788086,-5.663662433624268,19.634431838989258,0.8087058663368225,2.3916659355163574,-0.06991903483867645,0.0,0.0,0.0,0.0,0.0,0.0,0.0,-0.711345755443003,-0.07708177148049439,-0.4687229015133802,0.46163783193801594,0.21777406617469644,0.13220942839935249,-0.07694332547840321,0.8782099232072089,0.7556631503139724,-0.2822385368096201,-1.6691982957488996,0.14133203281272094,2.4034102923605176,1.0273099147395954,0.878092876070424,0.7554597494309409,-0.2825552651693207,-1.6690993614607135,0.1414185955172306,2.4034451173676383,1.0273381002308042,0.00020471682300922297,-0.0006540183772733201,0.00031865239152800793,0.0007996921252054403,-0.000305421823273063,-0.002711660610799038,-7.37114288488139e-05,0.0,0.0,0.0,0.0,0.0,0.0,0.0,-0.00011704713678495349,-0.0002034008830315015,-0.0003167283597006465,9.893428818608108e-05,8.65627045096573e-05,3.482500712070902e-05,2.8185491208754243e-05,-0.00020471682300922297,0.0006540183772733201,-0.00031865239152800793,-0.0007996921252054403,0.000305421823273063,0.002711660610799038,7.37114288488139e-05,0.7322627902030945,46.34963607788086,5.663662433624268,-19.634431838989258,-0.8087058663368225,-2.3916659355163574,0.06991903483867645,0
70,0.34423065185546875,-0.7322627902030945,-46.34963607788086,-5.663662433624268,19.634431838989258,0.8087058663368225,2.3916659355163574,-0.06991903483867645,0.0,0.0,0.0,0.0,0.0,0.0,0.0,-0.711345755443003,-0.07708177148049439,-0.4687229015133802,0.46163783193801594,0.21777406617469644,0.13220942839935249,-0.07694332547840321,0.8782099232072089,0.7556631503139724,-0.2822385368096201,-1.6691982957488996,0.14133203281272094,2.4034102923605176,1.0273099147395954,0.878092876070424,0.7554597494309409,-0.2825552651693207,-1.6690993614607135,0.1414185955172306,2.4034451173676383,1.0273381002308042,0.00020471682300922297,-0.0006540183772733201,0.00031865239152800793,0.0007996921252054403,-0.000305421823273063,-0.002711660610799038,-7.37114288488139e-05,0.0,0.0,0.0,0.0,0.0,0.0,0.0,-0.00011704713678495349,-0.0002034008830315015,-0.0003167283597006465,9.893428818608108e-05,8.65627045096573e-05,3.482500712070902e-05,2.8185491208754243e-05,-0.00020471682300922297,0.0006540183772733201,-0.00031865239152800793,-0.0007996921252054403,0.000305421823273063,0.002711660610799038,7.37114288488139e-05,0.7322627902030945,46.34963607788086,5.663662433624268,-19.634431838989258,-0.8087058663368225,-2.3916659355163574,0.06991903483867645,0
71,0.34922266006469727,-0.7084590792655945,-46.42501449584961,-5.635891437530518,19.658235549926758,0.7968040108680725,2.3980746269226074,-0.06351034343242645,0.0,0.0,0.0,0.0,0.0,0.0,0.0,-0.7156298517797353,-0.08036510920775175,-0.46978806409279844,0.46161737662133306,0.21772022115678233,0.1315063853477331,-0.07767952877252379,0.8782082353561015,0.755669106411799,-0.28224048565145127,-1.669200111287044,0.14133331580480357,2.4034095933656467,1.0273092026627726,0.878092876070424,0.7554597494309409,-0.2825552651693207,-1.6690993614607135,0.1414185955172306,2.4034451173676383,1.0273381002308042,-0.0012928347422387452,0.00037359587251587086,-0.00019984734465122134,-0.00018622005568368552,0.00025442861376867885,-5.90671155649729e-05,-0.0004970829006695859,0.0,0.0,0.0,0.0,0.0,0.0,0.0,-0.00011535928567751874,-0.00020935698085811083,-0.0003147795178694568,0.00010074982633057061,8.52797124270277e-05,3.5524001991582566e-05,2.8897568031593934e-05,0.0012928347422387452,-0.00037359587251587086,0.00019984734465122134,0.00018622005568368552,-0.00025442861376867885,5.90671155649729e-05,0.0004970829006695859,0.7084590792655945,46.42501449584961,5.635891437530518,-19.658235549926758,-0.7968040108680725,-2.3980746269226074,0.06351034343242645,0
72,0.35422539710998535,-0.7084590792655945,-46.42501449584961,-5.635891437530518,19.658235549926758,0.7968040108680725,2.3980746269226074,-0.06351034343242645,0.0,0.0,0.0,0.0,0.0,0.0,0.0,-0.7156298517797353,-0.08036510920775175,-0.46978806409279844,0.46161737662133306,0.21772022115678233,0.1315063853477331,-0.07767952877252379,0.8782082353561015,0.755669106411799,-0.28224048565145127,-1.669200111287044,0.14133331580480357,2.4034095933656467,1.0273092026627726,0.878092876070424,0.7554597494309409,-0.2825552651693207,-1.6690993614607135,0.1414185955172306,2.4034451173676383,1.0273381002308042,-0.0012928347422387452,0.00037359587251587086,-0.00019984734465122134,-0.00018622005568368552,0.00025442861376867885,-5.90671155649729e-05,-0.0004970829006695859,0.0,0.0,0.0,0.0,0.0,0.0,0.0,-0.00011535928567751874,-0.00020935698085811083,-0.0003147795178694568,0.00010074982633057061,8.52797124270277e-05,3.5524001991582566e-05,2.8897568031593934e-05,0.0012928347422387452,-0.00037359587251587086,0.00019984734465122134,0.00018622005568368552,-0.00025442861376867885,5.90671155649729e-05,0.0004970829006695859,0.7084590792655945,46.42501449584961,5.635891437530518,-19.658235549926758,-0.7968040108680725,-2.3980746269226074,0.06351034343242645,0
73,0.359224796295166,-0.7084590792655945,-46.42501449584961,-5.635891437530518,19.658235549926758,0.7968040108680725,2.3980746269226074,-0.06351034343242645,0.0,0.0,0.0,0.0,0.0,0.0,0.0,-0.7156298517797353,-0.08036510920775175,-0.46978806409279844,0.46161737662133306,0.21772022115678233,0.1315063853477331,-0.07767952877252379,0.8782082353561015,0.755669106411799,-0.28224048565145127,-1.669200111287044,0.14133331580480357,2.4034095933656467,1.0273092026627726,0.878092876070424,0.7554597494309409,-0.2825552651693207,-1.6690993614607135,0.1414185955172306,2.4034451173676383,1.0273381002308042,-0.0012928347422387452,0.00037359587251587086,-0.00019984734465122134,-0.00018622005568368552,0.00025442861376867885,-5.90671155649729e-05,-0.0004970829006695859,0.0,0.0,0.0,0.0,0.0,0.0,0.0,-0.00011535928567751874,-0.00020935698085811083,-0.0003147795178694568,0.00010074982633057061,8.52797124270277e-05,3.5524001991582566e-05,2.8897568031593934e-05,0.0012928347422387452,-0.00037359587251587086,0.00019984734465122134,0.00018622005568368552,-0.00025442861376867885,5.90671155649729e-05,0.0004970829006695859,0.7084590792655945,46.42501449584961,5.635891437530518,-19.658235549926758,-0.7968040108680725,-2.3980746269226074,0.06351034343242645,0
74,0.36423420906066895,-0.7084590792655945,-46.37740707397461,-5.687466144561768,19.686006546020508,0.8087058663368225,2.3916659355163574,-0.07724325358867645,0.0,0.0,0.0,0.0,0.0,0.0,0.0,-0.7190026461546789,-0.07000325607968433,-0.466425075129685,0.45328705580761575,0.21811482009615982,0.13069513830589585,-0.07757842511237335,0.8782066753090894,0.7556648641697369,-0.2822368663737648,-1.6691990399462282,0.1413323531357909,2.403410331606399,1.027310728541679,0.878092876070424,0.7554597494309409,-0.2825552651693207,-1.6690993614607135,0.1414185955172306,2.4034451173676383,1.0273381002308042,-0.0009135834300458056,-0.0008989197474202042,0.0007884618946803617,-0.0005484843736819996,-9.51546583679902e-05,0.00031147075641609523,-0.0002143639936022656,0.0,0.0,0.0,0.0,0.0,0.0,0.0,-0.00011379923866539077,-0.0002051147387960306,-0.00031839879555589645,9.967848551473146e-05,8.624238143969953e-05,3.4785761239497504e-05,2.7371689125255116e-05,0.0009135834300458056,0.0008989197474202042,-0.0007884618946803617,0.0005484843736819996,9.51546583679902e-05,-0.00031147075641609523,0.0002143639936022656,0.7084590792655945,46.37740707397461,5.687466144561768,-19.686006546020508,-0.8087058663368225,-2.3916659355163574,0.07724325358867645,0
75,0.3692300319671631,-0.7084590792655945,-46.37740707397461,-5.687466144561768,19.686006546020508,0.8087058663368225,2.3916659355163574,-0.07724325358867645,0.0,0.0,0.0,0.0,0.0,0.0,0.0,-0.7190026461546789,-0.07000325607968433,-0.466425075129685,0.45328705580761575,0.21811482009615982,0.13069513830589585,-0.07757842511237335,0.8782066753090894,0.7556648641697369,-0.2822368663737648,-1.6691990399462282,0.1413323531357909,2.403410331606399,1.027310728541679,0.878092876070424,0.7554597494309409,-0.2825552651693207,-1.6690993614607135,0.1414185955172306,2.4034451173676383,1.0273381002308042,-0.0009135834300458056,-0.0008989197474202042,0.0007884618946803617,-0.0005484843736819996,-9.51546583679902e-05,0.00031147075641609523,-0.0002143639936022656,0.0,0.0,0.0,0.0,0.0,0.0,0.0,-0.00011379923866539077,-0.0002051147387960306,-0.00031839879555589645,9.967848551473146e-05,8.624238143969953e-05,3.4785761239497504e-05,2.7371689125255116e-05,0.0009135834300458056,0.0008989197474202042,-0.0007884618946803617,0.0005484843736819996,9.51546583679902e-05,-0.00031147075641609523,0.0002143639936022656,0.7084590792655945,46.37740707397461,5.687466144561768,-19.686006546020508,-0.8087058663368225,-2.3916659355163574,0.07724325358867645,0
76,0.3742232322692871,-0.7322627902030945,-46.42501449584961,-5.663662433624268,19.658235549926758,0.7968040108680725,2.4044833183288574,-0.04336874559521675,0.0,0.0,0.0,0.0,0.0,0.0,0.0,-0.722835986615696,-0.07430914368247218,-0.47046736113098525,0.45384114462663594,0.21870174436933376,0.13137363201295923,-0.07756343888592468,0.8782096714071955,0.7556691419415513,-0.2822385368096201,-1.6692001819888693,0.141330121429525,2.403408868207093,1.0273069647074573,0.878092876070424,0.7554597494309409,-0.2825552651693207,-1.6690993614607135,0.1414185955172306,2.4034451173676383,1.0273381002308042,0.00013570777552064978,5.652043323471911e-05,4.8746710099525124e-05,-0.00012760645732631627,0.0003264527614279258,-0.0002864764498522209,-0.0013858882279363398,0.0,0.0,0.0,0.0,0.0,0.0,0.0,-0.00011679533677155796,-0.00020939251061047326,-0.0003167283597006465,0.00010082052815585385,8.847408770559784e-05,3.624916054523197e-05,3.11355233468813e-05,-0.00013570777552064978,-5.652043323471911e-05,-4.8746710099525124e-05,0.00012760645732631627,-0.0003264527614279258,0.0002864764498522209,0.0013858882279363398,0.7322627902030945,46.42501449584961,5.663662433624268,-19.658235549926758,-0.7968040108680725,-2.4044833183288574,0.04336874559521675,0
77,0.3793332576751709,-0.7322627902030945,-46.42501449584961,-5.663662433624268,19.658235549926758,0.7968040108680725,2.4044833183288574,-0.04336874559521675,0.0,0.0,0.0,0.0,0.0,0.0,0.0,-0.722835986615696,-0.07430914368247218,-0.47046736113098525,0.45384114462663594,0.21870174436933376,0.13137363201295923,-0.07756343888592468,0.8782096714071955,0.7556691419415513,-0.2822385368096201,-1.6692001819888693,0.141330121429525,2.403408868207093,1.0273069647074573,0.878092876070424,0.7554597494309409,-0.2825552651693207,-1.6690993614607135,0.1414185955172306,2.4034451173676383,1.0273381002308042,0.00013570777552064978,5.652043323471911e-05,4.8746710099525124e-05,-0.00012760645732631627,0.0003264527614279258,-0.0002864764498522209,-0.0013858882279363398,0.0,0.0,0.0,0.0,0.0,0.0,0.0,-0.00011679533677155796,-0.00020939251061047326,-0.0003167283597006465,0.00010082052815585385,8.847408770559784e-05,3.624916054523197e-05,3.11355233468813e-05,-0.00013570777552064978,-5.652043323471911e-05,-4.8746710099525124e-05,0.00012760645732631627,-0.0003264527614279258,0.0002864764498522209,0.0013858882279363398,0.7322627902030945,46.42501449584961,5.663662433624268,-19.658235549926758,-0.7968040108680725,-2.4044833183288574,0.04336874559521675,0
78,0.38500046730041504,-0.6806880831718445,-46.40121078491211,-5.663662433624268,19.634431838989258,0.8022971749305725,2.3980746269226074,-0.09738485515117645,0.0,0.0,0.0,0.0,0.0,0.0,0.0,-0.7157943176359053,-0.06879548668305052,-0.4660720825530593,0.4509209634122952,0.21859134380095457,0.1311579815643457,-0.07682935487262492,0.8782070995652997,0.7556674687290512,-0.2822385368096201,-1.6691963183084961,0.14132950661582286,2.403409580283695,1.027312966497408,0.878092876070424,0.7554597494309409,-0.2825552651693207,-1.6690993614607135,0.1414185955172306,2.4034451173676383,1.0273381002308042,-0.000983839905765206,-1.8573641448158143e-05,0.0005273781956124013,0.0002085704000145785,4.0395840817044e-05,1.4038284335846372e-05,0.0006080570956966685,0.0,0.0,0.0,0.0,0.0,0.0,0.0,-0.00011422349487577588,-0.00020771929811036483,-0.0003167283597006465,9.695684778265878e-05,8.908890140774117e-05,3.553708394354871e-05,2.5133733396076607e-05,0.000983839905765206,1.8573641448158143e-05,-0.0005273781956124013,-0.0002085704000145785,-4.0395840817044e-05,-1.4038284335846372e-05,-0.0006080570956966685,0.6806880831718445,46.40121078491211,5.663662433624268,-19.634431838989258,-0.8022971749305725,-2.3980746269226074,0.09738485515117645,0
79,0.3892202377319336,-0.6806880831718445,-46.40121078491211,-5.663662433624268,19.634431838989258,0.8022971749305725,2.3980746269226074,-0.09738485515117645,0.0,0.0,0.0,0.0,0.0,0.0,0.0,-0.7157943176359053,-0.06879548668305052,-0.4660720825530593,0.4509209634122952,0.21859134380095457,0.1311579815643457,-0.07682935487262492,0.8782070995652997,0.7556674687290512,-0.2822385368096201,-1.6691963183084961,0.14132950661582286,2.403409580283695,1.027312966497408,0.878092876070424,0.7554597494309409,-0.2825552651693207,-1.6690993614607135,0.1414185955172306,2.4034451173676383,1.0273381002308042,-0.000983839905765206,-1.8573641448158143e-05,0.0005273781956124013,0.0002085704000145785,4.0395840817044e-05,1.4038284335846372e-05,0.0006080570956966685,0.0,0.0,0.0,0.0,0.0,0.0,0.0,-0.00011422349487577588,-0.00020771929811036483,-0.0003167283597006465,9.695684778265878e-05,8.908890140774117e-05,3.553708394354871e-05,2.5133733396076607e-05,0.000983839905765206,1.8573641448158143e-05,-0.0005273781956124013,-0.0002085704000145785,-4.0395840817044e-05,-1.4038284335846372e-05,-0.0006080570956966685,0.6806880831718445,46.40121078491211,5.663662433624268,-19.634431838989258,-0.8022971749305725,-2.3980746269226074,0.09738485515117645,0
80,0.3941802978515625,-0.6806880831718445,-46.40121078491211,-5.663662433624268,19.634431838989258,0.8022971749305725,2.3980746269226074,-0.09738485515117645,0.0,0.0,0.0,0.0,0.0,0.0,0.0,-0.7157943176359053,-0.06879548668305052,-0.4660720825530593,0.4509209634122952,0.21859134380095457,0.1311579815643457,-0.07682935487262492,0.8782070995652997,0.7556674687290512,-0.2822385368096201,-1.6691963183084961,0.14132950661582286,2.403409580283695,1.027312966497408,0.878092876070424,0.7554597494309409,-0.2825552651693207,-1.6690993614607135,0.1414185955172306,2.4034451173676383,1.0273381002308042,-0.000983839905765206,-1.8573641448158143e-05,0.0005273781956124013,0.0002085704000145785,4.0395840817044e-05,1.4038284335846372e-05,0.0006080570956966685,0.0,0.0,0.0,0.0,0.0,0.0,0.0,-0.00011422349487577588,-0.00020771929811036483,-0.0003167283597006465,9.695684778265878e-05,8.908890140774117e-05,3.553708394354871e-05,2.5133733396076607e-05,0.000983839905765206,1.8573641448158143e-05,-0.0005273781956124013,-0.0002085704000145785,-4.0395840817044e-05,-1.4038284335846372e-05,-0.0006080570956966685,0.6806880831718445,46.40121078491211,5.663662433624268,-19.634431838989258,-0.8022971749305725,-2.3980746269226074,0.09738485515117645,0
