rezayati/contactInterpretation/dataset/franka_main/labeled_data/link6/b2_6.csv
index,time,tau_J0,tau_J1,tau_J2,tau_J3,tau_J4,tau_J5,tau_J6,tau_J_d0,tau_J_d1,tau_J_d2,tau_J_d3,tau_J_d4,tau_J_d5,tau_J_d6,tau_ext0,tau_ext1,tau_ext2,tau_ext3,tau_ext4,tau_ext5,tau_ext6,q0,q1,q2,q3,q4,q5,q6,q_d0,q_d1,q_d2,q_d3,q_d4,q_d5,q_d6,dq0,dq1,dq2,dq3,dq4,dq5,dq6,dq_d0,dq_d1,dq_d2,dq_d3,dq_d4,dq_d5,dq_d6,e0,e1,e2,e3,e4,e5,e6,de0,de1,de2,de3,de4,de5,de6,etau_J0,etau_J1,etau_J2,etau_J3,etau_J4,etau_J5,etau_J6,label
1,0.0,-0.04592245817184448,-18.106531143188477,0.9934418201446533,18.245882034301758,0.5047507882118225,2.2689852714538574,-0.19351522624492645,0.0,0.0,0.0,0.0,0.0,0.0,0.0,-0.04040839755580677,0.5505167107670418,0.16224935704818005,0.6458522586391781,0.07415746593392684,0.08396999668168288,-0.21417293305680526,-0.6092460711755251,-0.05762792061514663,-0.6666259543435614,-2.5947691091017875,-0.05559901998487627,2.50790252064805,0.8763176245667172,-0.6090851748156966,-0.05753196718556838,-0.666603097082616,-2.5945565370258534,-0.05562143941554,2.507976027223799,0.8763108487046415,0.0006189591683841257,-0.00034684910932123743,-0.00022023924159892473,0.00031874912601447816,-0.00010194799182270112,0.0001521241549238247,-0.0003571468757508619,0.0,0.0,0.0,0.0,0.0,0.0,0.0,0.0001608963598285218,9.595342957824382e-05,2.2857260945419178e-05,0.0002125720759340588,-2.241943066372959e-05,7.350657574889397e-05,-6.775862075758532e-06,-0.0006189591683841257,0.00034684910932123743,0.00022023924159892473,-0.00031874912601447816,0.00010194799182270112,-0.0001521241549238247,0.0003571468757508619,0.04592245817184448,18.106531143188477,-0.9934418201446533,-18.245882034301758,-0.5047507882118225,-2.2689852714538574,0.19351522624492645,0
2,0.0049970149993896484,-0.04592245817184448,-18.106531143188477,0.9934418201446533,18.245882034301758,0.5047507882118225,2.2689852714538574,-0.19351522624492645,0.0,0.0,0.0,0.0,0.0,0.0,0.0,-0.04040839755580677,0.5505167107670418,0.16224935704818005,0.6458522586391781,0.07415746593392684,0.08396999668168288,-0.21417293305680526,-0.6092460711755251,-0.05762792061514663,-0.6666259543435614,-2.5947691091017875,-0.05559901998487627,2.50790252064805,0.8763176245667172,-0.6090851748156966,-0.05753196718556838,-0.666603097082616,-2.5945565370258534,-0.05562143941554,2.507976027223799,0.8763108487046415,0.0006189591683841257,-0.00034684910932123743,-0.00022023924159892473,0.00031874912601447816,-0.00010194799182270112,0.0001521241549238247,-0.0003571468757508619,0.0,0.0,0.0,0.0,0.0,0.0,0.0,0.0001608963598285218,9.595342957824382e-05,2.2857260945419178e-05,0.0002125720759340588,-2.241943066372959e-05,7.350657574889397e-05,-6.775862075758532e-06,-0.0006189591683841257,0.00034684910932123743,0.00022023924159892473,-0.00031874912601447816,0.00010194799182270112,-0.0001521241549238247,0.0003571468757508619,0.04592245817184448,18.106531143188477,-0.9934418201446533,-18.245882034301758,-0.5047507882118225,-2.2689852714538574,0.19351522624492645,0
3,0.009997844696044922,0.005652248859405518,-18.078760147094727,1.0172455310821533,18.222078323364258,0.5047507882118225,2.2689852714538574,-0.23471395671367645,0.0,0.0,0.0,0.0,0.0,0.0,0.0,-0.03979417797593976,0.5482153613085469,0.16165486651071662,0.6485727811601828,0.07524332920647946,0.0857632988318602,-0.21340779949881972,-0.6092496904532114,-0.05763193070834844,-0.6666276247794167,-2.5947674386282595,-0.055595913635198356,2.5079020366696527,0.876322241933585,-0.6090851748156966,-0.05753196718556838,-0.666603097082616,-2.5945565370258534,-0.05562143941554,2.507976027223799,0.8763108487046415,-8.578763755835895e-05,-0.00028291567729025015,-0.0013985868180709732,0.0015218460671287866,-0.00019499163889731398,2.514412956427848e-06,0.00036866724858553056,0.0,0.0,0.0,0.0,0.0,0.0,0.0,0.00016451563751485043,9.996352278005688e-05,2.452769680072464e-05,0.00021090160240611056,-2.5525780341643933e-05,7.399055414625266e-05,-1.1393228943501477e-05,8.578763755835895e-05,0.00028291567729025015,0.0013985868180709732,-0.0015218460671287866,0.00019499163889731398,-2.514412956427848e-06,-0.00036866724858553056,-0.005652248859405518,18.078760147094727,-1.0172455310821533,-18.222078323364258,-0.5047507882118225,-2.2689852714538574,0.23471395671367645,0
4,0.014996528625488281,0.005652248859405518,-18.078760147094727,1.0172455310821533,18.222078323364258,0.5047507882118225,2.2689852714538574,-0.23471395671367645,0.0,0.0,0.0,0.0,0.0,0.0,0.0,-0.03979417797593976,0.5482153613085469,0.16165486651071662,0.6485727811601828,0.07524332920647946,0.0857632988318602,-0.21340779949881972,-0.6092496904532114,-0.05763193070834844,-0.6666276247794167,-2.5947674386282595,-0.055595913635198356,2.5079020366696527,0.876322241933585,-0.6090851748156966,-0.05753196718556838,-0.666603097082616,-2.5945565370258534,-0.05562143941554,2.507976027223799,0.8763108487046415,-8.578763755835895e-05,-0.00028291567729025015,-0.0013985868180709732,0.0015218460671287866,-0.00019499163889731398,2.514412956427848e-06,0.00036866724858553056,0.0,0.0,0.0,0.0,0.0,0.0,0.0,0.00016451563751485043,9.996352278005688e-05,2.452769680072464e-05,0.00021090160240611056,-2.5525780341643933e-05,7.399055414625266e-05,-1.1393228943501477e-05,8.578763755835895e-05,0.00028291567729025015,0.0013985868180709732,-0.0015218460671287866,0.00019499163889731398,-2.514412956427848e-06,-0.00036866724858553056,-0.005652248859405518,18.078760147094727,-1.0172455310821533,-18.222078323364258,-0.5047507882118225,-2.2689852714538574,0.23471395671367645,0
5,0.02042222023010254,0.005652248859405518,-18.078760147094727,1.0172455310821533,18.269685745239258,0.4983420968055725,2.2689852714538574,-0.16604940593242645,0.0,0.0,0.0,0.0,0.0,0.0,0.0,-0.03489529165629224,0.5461329539548772,0.15850358419707772,0.6504246042376389,0.07592307054994689,0.0858595375242762,-0.21301253493257302,-0.6092496904532114,-0.05762981677845687,-0.6666254790122048,-2.5947707764475143,-0.055595069416150875,2.5079025211836696,0.876314612539278,-0.6090851748156966,-0.05753196718556838,-0.666603097082616,-2.5945565370258534,-0.05562143941554,2.507976027223799,0.8763108487046415,-0.0006883683785618908,-0.0002433593491165286,-0.0008585582736229701,0.00020103868467300724,6.464145376730889e-05,-0.0002797100852283263,-0.0015668561015498485,0.0,0.0,0.0,0.0,0.0,0.0,0.0,0.00016451563751485043,9.784959288848538e-05,2.238192958881058e-05,0.00021423942166087784,-2.636999938912532e-05,7.350604012934525e-05,-3.7638346365165276e-06,0.0006883683785618908,0.0002433593491165286,0.0008585582736229701,-0.00020103868467300724,-6.464145376730889e-05,0.0002797100852283263,0.0015668561015498485,-0.005652248859405518,18.078760147094727,-1.0172455310821533,-18.269685745239258,-0.4983420968055725,-2.2689852714538574,0.16604940593242645,0
6,0.02499699592590332,0.005652248859405518,-18.078760147094727,1.0172455310821533,18.269685745239258,0.4983420968055725,2.2689852714538574,-0.16604940593242645,0.0,0.0,0.0,0.0,0.0,0.0,0.0,-0.03489529165629224,0.5461329539548772,0.15850358419707772,0.6504246042376389,0.07592307054994689,0.0858595375242762,-0.21301253493257302,-0.6092496904532114,-0.05762981677845687,-0.6666254790122048,-2.5947707764475143,-0.055595069416150875,2.5079025211836696,0.876314612539278,-0.6090851748156966,-0.05753196718556838,-0.666603097082616,-2.5945565370258534,-0.05562143941554,2.507976027223799,0.8763108487046415,-0.0006883683785618908,-0.0002433593491165286,-0.0008585582736229701,0.00020103868467300724,6.464145376730889e-05,-0.0002797100852283263,-0.0015668561015498485,0.0,0.0,0.0,0.0,0.0,0.0,0.0,0.00016451563751485043,9.784959288848538e-05,2.238192958881058e-05,0.00021423942166087784,-2.636999938912532e-05,7.350604012934525e-05,-3.7638346365165276e-06,0.0006883683785618908,0.0002433593491165286,0.0008585582736229701,-0.00020103868467300724,-6.464145376730889e-05,0.0002797100852283263,0.0015668561015498485,-0.005652248859405518,18.078760147094727,-1.0172455310821533,-18.269685745239258,-0.4983420968055725,-2.2689852714538574,0.16604940593242645,0
7,0.029993772506713867,0.005652248859405518,-18.078760147094727,1.0172455310821533,18.269685745239258,0.4983420968055725,2.2689852714538574,-0.16604940593242645,0.0,0.0,0.0,0.0,0.0,0.0,0.0,-0.03489529165629224,0.5461329539548772,0.15850358419707772,0.6504246042376389,0.07592307054994689,0.0858595375242762,-0.21301253493257302,-0.6092496904532114,-0.05762981677845687,-0.6666254790122048,-2.5947707764475143,-0.055595069416150875,2.5079025211836696,0.876314612539278,-0.6090851748156966,-0.05753196718556838,-0.666603097082616,-2.5945565370258534,-0.05562143941554,2.507976027223799,0.8763108487046415,-0.0006883683785618908,-0.0002433593491165286,-0.0008585582736229701,0.00020103868467300724,6.464145376730889e-05,-0.0002797100852283263,-0.0015668561015498485,0.0,0.0,0.0,0.0,0.0,0.0,0.0,0.00016451563751485043,9.784959288848538e-05,2.238192958881058e-05,0.00021423942166087784,-2.636999938912532e-05,7.350604012934525e-05,-3.7638346365165276e-06,0.0006883683785618908,0.0002433593491165286,0.0008585582736229701,-0.00020103868467300724,-6.464145376730889e-05,0.0002797100852283263,0.0015668561015498485,-0.005652248859405518,18.078760147094727,-1.0172455310821533,-18.269685745239258,-0.4983420968055725,-2.2689852714538574,0.16604940593242645,0
8,0.03540658950805664,0.005652248859405518,-18.078760147094727,1.0172455310821533,18.269685745239258,0.4983420968055725,2.2689852714538574,-0.16604940593242645,0.0,0.0,0.0,0.0,0.0,0.0,0.0,-0.03489529165629224,0.5461329539548772,0.15850358419707772,0.6504246042376389,0.07592307054994689,0.0858595375242762,-0.21301253493257302,-0.6092496904532114,-0.05762981677845687,-0.6666254790122048,-2.5947707764475143,-0.055595069416150875,2.5079025211836696,0.876314612539278,-0.6090851748156966,-0.05753196718556838,-0.666603097082616,-2.5945565370258534,-0.05562143941554,2.507976027223799,0.8763108487046415,-0.0006883683785618908,-0.0002433593491165286,-0.0008585582736229701,0.00020103868467300724,6.464145376730889e-05,-0.0002797100852283263,-0.0015668561015498485,0.0,0.0,0.0,0.0,0.0,0.0,0.0,0.00016451563751485043,9.784959288848538e-05,2.238192958881058e-05,0.00021423942166087784,-2.636999938912532e-05,7.350604012934525e-05,-3.7638346365165276e-06,0.0006883683785618908,0.0002433593491165286,0.0008585582736229701,-0.00020103868467300724,-6.464145376730889e-05,0.0002797100852283263,0.0015668561015498485,-0.005652248859405518,18.078760147094727,-1.0172455310821533,-18.269685745239258,-0.4983420968055725,-2.2689852714538574,0.16604940593242645,0
9,0.04001617431640625,-0.018151462078094482,-18.054956436157227,0.9418671131134033,18.297456741333008,0.4928489327430725,2.2625765800476074,-0.24112264811992645,0.0,0.0,0.0,0.0,0.0,0.0,0.0,-0.030109907294565787,0.5574127657916377,0.16111716432435802,0.6454750120554228,0.07541619511926652,0.08390841653564457,-0.21135849810025048,-0.6092480200173562,-0.05763240758610472,-0.6666222555809024,-2.594773723442282,-0.05559458631308178,2.5079020166416717,0.8763229147647756,-0.6090851748156966,-0.05753196718556838,-0.666603097082616,-2.5945565370258534,-0.05562143941554,2.507976027223799,0.8763108487046415,-5.069621589033253e-06,-0.00043546511009599293,0.0015580049345644274,-0.0005938345645327626,0.0001857405532753332,9.724599548758876e-05,0.0006372255287885019,0.0,0.0,0.0,0.0,0.0,0.0,0.0,0.000162845201659656,0.00010044040053633352,1.9158498286375725e-05,0.00021718641642864966,-2.6853102458222755e-05,7.401058212730405e-05,-1.2066060134152679e-05,5.069621589033253e-06,0.00043546511009599293,-0.0015580049345644274,0.0005938345645327626,-0.0001857405532753332,-9.724599548758876e-05,-0.0006372255287885019,0.018151462078094482,18.054956436157227,-0.9418671131134033,-18.297456741333008,-0.4928489327430725,-2.2625765800476074,0.24112264811992645,0
10,0.045012712478637695,-0.018151462078094482,-18.054956436157227,0.9418671131134033,18.297456741333008,0.4928489327430725,2.2625765800476074,-0.24112264811992645,0.0,0.0,0.0,0.0,0.0,0.0,0.0,-0.030109907294565787,0.5574127657916377,0.16111716432435802,0.6454750120554228,0.07541619511926652,0.08390841653564457,-0.21135849810025048,-0.6092480200173562,-0.05763240758610472,-0.6666222555809024,-2.594773723442282,-0.05559458631308178,2.5079020166416717,0.8763229147647756,-0.6090851748156966,-0.05753196718556838,-0.666603097082616,-2.5945565370258534,-0.05562143941554,2.507976027223799,0.8763108487046415,-5.069621589033253e-06,-0.00043546511009599293,0.0015580049345644274,-0.0005938345645327626,0.0001857405532753332,9.724599548758876e-05,0.0006372255287885019,0.0,0.0,0.0,0.0,0.0,0.0,0.0,0.000162845201659656,0.00010044040053633352,1.9158498286375725e-05,0.00021718641642864966,-2.6853102458222755e-05,7.401058212730405e-05,-1.2066060134152679e-05,5.069621589033253e-06,0.00043546511009599293,-0.0015580049345644274,0.0005938345645327626,-0.0001857405532753332,-9.724599548758876e-05,-0.0006372255287885019,0.018151462078094482,18.054956436157227,-0.9418671131134033,-18.297456741333008,-0.4928489327430725,-2.2625765800476074,0.24112264811992645,0
11,0.0500025749206543,-0.04592245817184448,-18.130334854125977,0.9934418201446533,18.269685745239258,0.4983420968055725,2.2753939628601074,-0.22830526530742645,0.0,0.0,0.0,0.0,0.0,0.0,0.0,-0.02766758282526441,0.5603522526650557,0.16507075458693113,0.6457876355896295,0.0748964974972526,0.08345902107507451,-0.2137814402916402,-0.6092460711755251,-0.05762905030467547,-0.6666259543431128,-2.594773001693203,-0.05559546042719588,2.5079016899115936,0.8763214121191949,-0.6090851748156966,-0.05753196718556838,-0.666603097082616,-2.5945565370258534,-0.05562143941554,2.507976027223799,0.8763108487046415,0.0005796359816490924,0.0009167399210944081,-0.0003339750528505899,-7.46315797727976e-05,9.51849023426611e-05,-0.0002974052406096218,0.000618685563197164,0.0,0.0,0.0,0.0,0.0,0.0,0.0,0.0001608963598285218,9.708311910709005e-05,2.2857260496778053e-05,0.00021646466734948078,-2.597898834411777e-05,7.433731220540807e-05,-1.0563414553410588e-05,-0.0005796359816490924,-0.0009167399210944081,0.0003339750528505899,7.46315797727976e-05,-9.51849023426611e-05,0.0002974052406096218,-0.000618685563197164,0.04592245817184448,18.130334854125977,-0.9934418201446533,-18.269685745239258,-0.4983420968055725,-2.2753939628601074,0.22830526530742645,0
12,0.05500030517578125,-0.04592245817184448,-18.130334854125977,0.9934418201446533,18.269685745239258,0.4983420968055725,2.2753939628601074,-0.22830526530742645,0.0,0.0,0.0,0.0,0.0,0.0,0.0,-0.02766758282526441,0.5603522526650557,0.16507075458693113,0.6457876355896295,0.0748964974972526,0.08345902107507451,-0.2137814402916402,-0.6092460711755251,-0.05762905030467547,-0.6666259543431128,-2.594773001693203,-0.05559546042719588,2.5079016899115936,0.8763214121191949,-0.6090851748156966,-0.05753196718556838,-0.666603097082616,-2.5945565370258534,-0.05562143941554,2.507976027223799,0.8763108487046415,0.0005796359816490924,0.0009167399210944081,-0.0003339750528505899,-7.46315797727976e-05,9.51849023426611e-05,-0.0002974052406096218,0.000618685563197164,0.0,0.0,0.0,0.0,0.0,0.0,0.0,0.0001608963598285218,9.708311910709005e-05,2.2857260496778053e-05,0.00021646466734948078,-2.597898834411777e-05,7.433731220540807e-05,-1.0563414553410588e-05,-0.0005796359816490924,-0.0009167399210944081,0.0003339750528505899,7.46315797727976e-05,-9.51849023426611e-05,0.0002974052406096218,-0.000618685563197164,0.04592245817184448,18.130334854125977,-0.9934418201446533,-18.269685745239258,-0.4983420968055725,-2.2753939628601074,0.22830526530742645,0
13,0.06009697914123535,-0.09352988004684448,-18.130334854125977,0.9696381092071533,18.269685745239258,0.4983420968055725,2.2753939628601074,-0.18710653483867645,0.0,0.0,0.0,0.0,0.0,0.0,0.0,-0.025885749891042486,0.5545564701310016,0.16731791278516112,0.6516047381542928,0.07512939729859698,0.0851692017540578,-0.21347948293235008,-0.6092427303038145,-0.05762651585919466,-0.6666242839077061,-2.5947707764600585,-0.05559838228574008,2.5079017960269567,0.8763169128122408,-0.6090851748156966,-0.05753196718556838,-0.666603097082616,-2.5945565370258534,-0.05562143941554,2.507976027223799,0.8763108487046415,0.0015106422590518947,0.00014875238685307612,0.0003484089765038713,0.00046173583693852804,4.06226451939624e-05,-0.00015334075549107147,-0.0004941572477025278,0.0,0.0,0.0,0.0,0.0,0.0,0.0,0.00015755548811791087,9.454867362627961e-05,2.1186825090113715e-05,0.00021423943420506575,-2.305712979992075e-05,7.423119684224488e-05,-6.064107599290658e-06,-0.0015106422590518947,-0.00014875238685307612,-0.0003484089765038713,-0.00046173583693852804,-4.06226451939624e-05,0.00015334075549107147,0.0004941572477025278,0.09352988004684448,18.130334854125977,-0.9696381092071533,-18.269685745239258,-0.4983420968055725,-2.2753939628601074,0.18710653483867645,0
14,0.06499433517456055,-0.09352988004684448,-18.130334854125977,0.9696381092071533,18.269685745239258,0.4983420968055725,2.2753939628601074,-0.18710653483867645,0.0,0.0,0.0,0.0,0.0,0.0,0.0,-0.025885749891042486,0.5545564701310016,0.16731791278516112,0.6516047381542928,0.07512939729859698,0.0851692017540578,-0.21347948293235008,-0.6092427303038145,-0.05762651585919466,-0.6666242839077061,-2.5947707764600585,-0.05559838228574008,2.5079017960269567,0.8763169128122408,-0.6090851748156966,-0.05753196718556838,-0.666603097082616,-2.5945565370258534,-0.05562143941554,2.507976027223799,0.8763108487046415,0.0015106422590518947,0.00014875238685307612,0.0003484089765038713,0.00046173583693852804,4.06226451939624e-05,-0.00015334075549107147,-0.0004941572477025278,0.0,0.0,0.0,0.0,0.0,0.0,0.0,0.00015755548811791087,9.454867362627961e-05,2.1186825090113715e-05,0.00021423943420506575,-2.305712979992075e-05,7.423119684224488e-05,-6.064107599290658e-06,-0.0015106422590518947,-0.00014875238685307612,-0.0003484089765038713,-0.00046173583693852804,-4.06226451939624e-05,0.00015334075549107147,0.0004941572477025278,0.09352988004684448,18.130334854125977,-0.9696381092071533,-18.269685745239258,-0.4983420968055725,-2.2753939628601074,0.18710653483867645,0
15,0.06999516487121582,-0.06972616910934448,-18.130334854125977,0.9696381092071533,18.321260452270508,0.5102439522743225,2.2753939628601074,-0.24844686686992645,0.0,0.0,0.0,0.0,0.0,0.0,0.0,-0.039218854900365446,0.5512299116200174,0.15818919901835654,0.6466568917181545,0.07572408122004556,0.08495851594119701,-0.2123246605814105,-0.6092444007396698,-0.057629012121862,-0.6666242044348465,-2.594774423197283,-0.05559690085944899,2.507901691371938,0.8763237678124931,-0.6090851748156966,-0.05753196718556838,-0.666603097082616,-2.5945565370258534,-0.05562143941554,2.507976027223799,0.8763108487046415,-2.1970269889821742e-05,-0.0003767962244793495,-0.0006356596925688061,-0.0009967234671611703,-0.00047605423405118735,-0.0001238629568081516,0.001152758975565297,0.0,0.0,0.0,0.0,0.0,0.0,0.0,0.00015922592397321633,9.704493629361655e-05,2.110735223048721e-05,0.00021788617142970423,-2.4538556091011077e-05,7.433585186111813e-05,-1.2919107851616651e-05,2.1970269889821742e-05,0.0003767962244793495,0.0006356596925688061,0.0009967234671611703,0.00047605423405118735,0.0001238629568081516,-0.001152758975565297,0.06972616910934448,18.130334854125977,-0.9696381092071533,-18.321260452270508,-0.5102439522743225,-2.2753939628601074,0.24844686686992645,0
16,0.07499551773071289,-0.06972616910934448,-18.130334854125977,0.9696381092071533,18.321260452270508,0.5102439522743225,2.2753939628601074,-0.24844686686992645,0.0,0.0,0.0,0.0,0.0,0.0,0.0,-0.039218854900365446,0.5512299116200174,0.15818919901835654,0.6466568917181545,0.07572408122004556,0.08495851594119701,-0.2123246605814105,-0.6092444007396698,-0.057629012121862,-0.6666242044348465,-2.594774423197283,-0.05559690085944899,2.507901691371938,0.8763237678124931,-0.6090851748156966,-0.05753196718556838,-0.666603097082616,-2.5945565370258534,-0.05562143941554,2.507976027223799,0.8763108487046415,-2.1970269889821742e-05,-0.0003767962244793495,-0.0006356596925688061,-0.0009967234671611703,-0.00047605423405118735,-0.0001238629568081516,0.001152758975565297,0.0,0.0,0.0,0.0,0.0,0.0,0.0,0.00015922592397321633,9.704493629361655e-05,2.110735223048721e-05,0.00021788617142970423,-2.4538556091011077e-05,7.433585186111813e-05,-1.2919107851616651e-05,2.1970269889821742e-05,0.0003767962244793495,0.0006356596925688061,0.0009967234671611703,0.00047605423405118735,0.0001238629568081516,-0.001152758975565297,0.06972616910934448,18.130334854125977,-0.9696381092071533,-18.321260452270508,-0.5102439522743225,-2.2753939628601074,0.24844686686992645,0
17,0.07999539375305176,-0.018151462078094482,-18.130334854125977,0.9934418201446533,18.245882034301758,0.4983420968055725,2.2552523612976074,-0.21457235515117645,0.0,0.0,0.0,0.0,0.0,0.0,0.0,-0.03693857882559461,0.5500620162053089,0.16538217078633063,0.6471556889077709,0.07563948677706407,0.08590022510922243,-0.21265191712339718,-0.6092480200173562,-0.05762838065997553,-0.6666259543431129,-2.5947691884280957,-0.05559553892409248,2.5079008623360575,0.8763199996174293,-0.6090851748156966,-0.05753196718556838,-0.666603097082616,-2.5945565370258534,-0.05562143941554,2.507976027223799,0.8763108487046415,-0.0011078004868210335,0.0004911205841992316,-0.00045460704443974636,0.0009131351061693185,8.633658488646108e-05,0.0006265028726458972,0.0003684337732027133,0.0,0.0,0.0,0.0,0.0,0.0,0.0,0.000162845201659656,9.641347440714904e-05,2.2857260496889076e-05,0.00021265140224224766,-2.5900491447516938e-05,7.516488774150787e-05,-9.150912787858623e-06,0.0011078004868210335,-0.0004911205841992316,0.00045460704443974636,-0.0009131351061693185,-8.633658488646108e-05,-0.0006265028726458972,-0.0003684337732027133,0.018151462078094482,18.130334854125977,-0.9934418201446533,-18.245882034301758,-0.4983420968055725,-2.2552523612976074,0.21457235515117645,0
18,0.08499598503112793,-0.018151462078094482,-18.130334854125977,0.9934418201446533,18.245882034301758,0.4983420968055725,2.2552523612976074,-0.21457235515117645,0.0,0.0,0.0,0.0,0.0,0.0,0.0,-0.03693857882559461,0.5500620162053089,0.16538217078633063,0.6471556889077709,0.07563948677706407,0.08590022510922243,-0.21265191712339718,-0.6092480200173562,-0.05762838065997553,-0.6666259543431129,-2.5947691884280957,-0.05559553892409248,2.5079008623360575,0.8763199996174293,-0.6090851748156966,-0.05753196718556838,-0.666603097082616,-2.5945565370258534,-0.05562143941554,2.507976027223799,0.8763108487046415,-0.0011078004868210335,0.0004911205841992316,-0.00045460704443974636,0.0009131351061693185,8.633658488646108e-05,0.0006265028726458972,0.0003684337732027133,0.0,0.0,0.0,0.0,0.0,0.0,0.0,0.000162845201659656,9.641347440714904e-05,2.2857260496889076e-05,0.00021265140224224766,-2.5900491447516938e-05,7.516488774150787e-05,-9.150912787858623e-06,0.0011078004868210335,-0.0004911205841992316,0.00045460704443974636,-0.0009131351061693185,-8.633658488646108e-05,-0.0006265028726458972,-0.0003684337732027133,0.018151462078094482,18.130334854125977,-0.9934418201446533,-18.245882034301758,-0.4983420968055725,-2.2552523612976074,0.21457235515117645,0
19,0.08999419212341309,-0.04592245817184448,-18.106531143188477,0.9180634021759033,18.245882034301758,0.4983420968055725,2.2689852714538574,-0.17978231608867645,0.0,0.0,0.0,0.0,0.0,0.0,0.0,-0.04164901441272767,0.5488630505996617,0.1648444098442816,0.6442759917707523,0.07522342853740348,0.0855035230655218,-0.2105668174699721,-0.6092460711755251,-0.05762863080359026,-0.6666206646300198,-2.5947692159005054,-0.05559523615843791,2.5079025080864743,0.8763161384181597,-0.6090851748156966,-0.05753196718556838,-0.666603097082616,-2.5945565370258534,-0.05562143941554,2.507976027223799,0.8763108487046415,0.000536057017055969,-0.0001792377639207579,0.0014016447309879527,0.00036543571432968216,-4.406837886982295e-05,-0.00012165308611338298,-0.0011409003874367734,0.0,0.0,0.0,0.0,0.0,0.0,0.0,0.0001608963598285218,9.666361802187357e-05,1.7567547403785078e-05,0.00021267887465192814,-2.6203257102092037e-05,7.351913732467352e-05,-5.289713518208394e-06,-0.000536057017055969,0.0001792377639207579,-0.0014016447309879527,-0.00036543571432968216,4.406837886982295e-05,0.00012165308611338298,0.0011409003874367734,0.04592245817184448,18.106531143188477,-0.9180634021759033,-18.245882034301758,-0.4983420968055725,-2.2689852714538574,0.17978231608867645,0
20,0.09500622749328613,-0.04592245817184448,-18.106531143188477,0.9180634021759033,18.245882034301758,0.4983420968055725,2.2689852714538574,-0.17978231608867645,0.0,0.0,0.0,0.0,0.0,0.0,0.0,-0.04164901441272767,0.5488630505996617,0.1648444098442816,0.6442759917707523,0.07522342853740348,0.0855035230655218,-0.2105668174699721,-0.6092460711755251,-0.05762863080359026,-0.6666206646300198,-2.5947692159005054,-0.05559523615843791,2.5079025080864743,0.8763161384181597,-0.6090851748156966,-0.05753196718556838,-0.666603097082616,-2.5945565370258534,-0.05562143941554,2.507976027223799,0.8763108487046415,0.000536057017055969,-0.0001792377639207579,0.0014016447309879527,0.00036543571432968216,-4.406837886982295e-05,-0.00012165308611338298,-0.0011409003874367734,0.0,0.0,0.0,0.0,0.0,0.0,0.0,0.0001608963598285218,9.666361802187357e-05,1.7567547403785078e-05,0.00021267887465192814,-2.6203257102092037e-05,7.351913732467352e-05,-5.289713518208394e-06,-0.000536057017055969,0.0001792377639207579,-0.0014016447309879527,-0.00036543571432968216,4.406837886982295e-05,0.00012165308611338298,0.0011409003874367734,0.04592245817184448,18.106531143188477,-0.9180634021759033,-18.245882034301758,-0.4983420968055725,-2.2689852714538574,0.17978231608867645,0
21,0.10000324249267578,-0.04592245817184448,-18.106531143188477,1.0172455310821533,18.297456741333008,0.4928489327430725,2.2753939628601074,-0.22830526530742645,0.0,0.0,0.0,0.0,0.0,0.0,0.0,-0.042477773430469386,0.5509742106607657,0.1628664177990186,0.6462664371868583,0.07499900748983507,0.08572317852732339,-0.21094563432536292,-0.6092460711755251,-0.057627852953141406,-0.6666276247794167,-2.5947749505677042,-0.05559446052741863,2.5078985119730333,0.8763215298569863,-0.6090851748156966,-0.05753196718556838,-0.666603097082616,-2.5945565370258534,-0.05562143941554,2.507976027223799,0.8763108487046415,0.0003886030541151986,0.0004962507469992653,-0.0008147434208912916,-0.000857452742033862,0.0002755694600295565,-0.00023385732773338082,9.966459212838757e-05,0.0,0.0,0.0,0.0,0.0,0.0,0.0,0.0001608963598285218,9.588576757302292e-05,2.452769680072464e-05,0.00021841354185081485,-2.6978888121372002e-05,7.751525076571397e-05,-1.0681152344815814e-05,-0.0003886030541151986,-0.0004962507469992653,0.0008147434208912916,0.000857452742033862,-0.0002755694600295565,0.00023385732773338082,-9.966459212838757e-05,0.04592245817184448,18.106531143188477,-1.0172455310821533,-18.297456741333008,-0.4928489327430725,-2.2753939628601074,0.22830526530742645,0
22,0.10500764846801758,-0.04592245817184448,-18.106531143188477,1.0172455310821533,18.297456741333008,0.4928489327430725,2.2753939628601074,-0.22830526530742645,0.0,0.0,0.0,0.0,0.0,0.0,0.0,-0.042477773430469386,0.5509742106607657,0.1628664177990186,0.6462664371868583,0.07499900748983507,0.08572317852732339,-0.21094563432536292,-0.6092460711755251,-0.057627852953141406,-0.6666276247794167,-2.5947749505677042,-0.05559446052741863,2.5078985119730333,0.8763215298569863,-0.6090851748156966,-0.05753196718556838,-0.666603097082616,-2.5945565370258534,-0.05562143941554,2.507976027223799,0.8763108487046415,0.0003886030541151986,0.0004962507469992653,-0.0008147434208912916,-0.000857452742033862,0.0002755694600295565,-0.00023385732773338082,9.966459212838757e-05,0.0,0.0,0.0,0.0,0.0,0.0,0.0,0.0001608963598285218,9.588576757302292e-05,2.452769680072464e-05,0.00021841354185081485,-2.6978888121372002e-05,7.751525076571397e-05,-1.0681152344815814e-05,-0.0003886030541151986,-0.0004962507469992653,0.0008147434208912916,0.000857452742033862,-0.0002755694600295565,0.00023385732773338082,-9.966459212838757e-05,0.04592245817184448,18.106531143188477,-1.0172455310821533,-18.297456741333008,-0.4928489327430725,-2.2753939628601074,0.22830526530742645,0
23,0.11000180244445801,-0.04592245817184448,-18.106531143188477,0.9418671131134033,18.269685745239258,0.4983420968055725,2.2625765800476074,-0.22830526530742645,0.0,0.0,0.0,0.0,0.0,0.0,0.0,-0.04358337102296713,0.5542218860035791,0.16115737461731564,0.6459310638828205,0.07504085144137322,0.08555075229456581,-0.21274393805674555,-0.6092460711755251,-0.05763068641708073,-0.6666223340847286,-2.5947708043843742,-0.05559519715219751,2.507903193998758,0.8763215298569863,-0.6090851748156966,-0.05753196718556838,-0.666603097082616,-2.5945565370258534,-0.05562143941554,2.507976027223799,0.8763108487046415,0.00014993571263643675,0.0006825588187846648,0.00130182672326125,1.773158958376089e-05,1.3129439750690293e-05,-9.774846110680964e-06,0.0008211457856962942,0.0,0.0,0.0,0.0,0.0,0.0,0.0,0.0001608963598285218,9.871923151234807e-05,1.923700211259316e-05,0.00021426735852081435,-2.6242263342489414e-05,7.283322504081369e-05,-1.0681152344815814e-05,-0.00014993571263643675,-0.0006825588187846648,-0.00130182672326125,-1.773158958376089e-05,-1.3129439750690293e-05,9.774846110680964e-06,-0.0008211457856962942,0.04592245817184448,18.106531143188477,-0.9418671131134033,-18.269685745239258,-0.4983420968055725,-2.2625765800476074,0.22830526530742645,0
24,0.11610889434814453,-0.04592245817184448,-18.106531143188477,0.9418671131134033,18.269685745239258,0.4983420968055725,2.2625765800476074,-0.22830526530742645,0.0,0.0,0.0,0.0,0.0,0.0,0.0,-0.04358337102296713,0.5542218860035791,0.16115737461731564,0.6459310638828205,0.07504085144137322,0.08555075229456581,-0.21274393805674555,-0.6092460711755251,-0.05763068641708073,-0.6666223340847286,-2.5947708043843742,-0.05559519715219751,2.507903193998758,0.8763215298569863,-0.6090851748156966,-0.05753196718556838,-0.666603097082616,-2.5945565370258534,-0.05562143941554,2.507976027223799,0.8763108487046415,0.00014993571263643675,0.0006825588187846648,0.00130182672326125,1.773158958376089e-05,1.3129439750690293e-05,-9.774846110680964e-06,0.0008211457856962942,0.0,0.0,0.0,0.0,0.0,0.0,0.0,0.0001608963598285218,9.871923151234807e-05,1.923700211259316e-05,0.00021426735852081435,-2.6242263342489414e-05,7.283322504081369e-05,-1.0681152344815814e-05,-0.00014993571263643675,-0.0006825588187846648,-0.00130182672326125,-1.773158958376089e-05,-1.3129439750690293e-05,9.774846110680964e-06,-0.0008211457856962942,0.04592245817184448,18.106531143188477,-0.9418671131134033,-18.269685745239258,-0.4983420968055725,-2.2625765800476074,0.22830526530742645,0
25,0.1199948787689209,-0.04592245817184448,-18.078760147094727,0.9934418201446533,18.269685745239258,0.4983420968055725,2.2753939628601074,-0.18710653483867645,0.0,0.0,0.0,0.0,0.0,0.0,0.0,-0.038283543381577016,0.5536007696765723,0.16557473454075583,0.6487119800449449,0.07502168036321506,0.08546920742884477,-0.21275039051251443,-0.6092460711755251,-0.0576320301059172,-0.666625954343556,-2.5947707764476546,-0.055598263810824146,2.5079017684099534,0.8763169522202676,-0.6090851748156966,-0.05753196718556838,-0.666603097082616,-2.5945565370258534,-0.05562143941554,2.507976027223799,0.8763108487046415,0.0007294469349846579,-0.0007813384031293893,-0.00012502400090740127,0.00020924954057828022,6.165081871097307e-05,-0.00019850100991303178,-0.0016886616906463291,0.0,0.0,0.0,0.0,0.0,0.0,0.0,0.0001608963598285218,0.00010006292034881598,2.2857260939979085e-05,0.00021423942180121003,-2.317560471585406e-05,7.425881384559574e-05,-6.1035156261324275e-06,-0.0007294469349846579,0.0007813384031293893,0.00012502400090740127,-0.00020924954057828022,-6.165081871097307e-05,0.00019850100991303178,0.0016886616906463291,0.04592245817184448,18.078760147094727,-0.9934418201446533,-18.269685745239258,-0.4983420968055725,-2.2753939628601074,0.18710653483867645,0
26,0.12499713897705078,-0.04592245817184448,-18.078760147094727,0.9934418201446533,18.269685745239258,0.4983420968055725,2.2753939628601074,-0.18710653483867645,0.0,0.0,0.0,0.0,0.0,0.0,0.0,-0.038283543381577016,0.5536007696765723,0.16557473454075583,0.6487119800449449,0.07502168036321506,0.08546920742884477,-0.21275039051251443,-0.6092460711755251,-0.0576320301059172,-0.666625954343556,-2.5947707764476546,-0.055598263810824146,2.5079017684099534,0.8763169522202676,-0.6090851748156966,-0.05753196718556838,-0.666603097082616,-2.5945565370258534,-0.05562143941554,2.507976027223799,0.8763108487046415,0.0007294469349846579,-0.0007813384031293893,-0.00012502400090740127,0.00020924954057828022,6.165081871097307e-05,-0.00019850100991303178,-0.0016886616906463291,0.0,0.0,0.0,0.0,0.0,0.0,0.0,0.0001608963598285218,0.00010006292034881598,2.2857260939979085e-05,0.00021423942180121003,-2.317560471585406e-05,7.425881384559574e-05,-6.1035156261324275e-06,-0.0007294469349846579,0.0007813384031293893,0.00012502400090740127,-0.00020924954057828022,-6.165081871097307e-05,0.00019850100991303178,0.0016886616906463291,0.04592245817184448,18.078760147094727,-0.9934418201446533,-18.269685745239258,-0.4983420968055725,-2.2753939628601074,0.18710653483867645,0
27,0.12999916076660156,-0.04592245817184448,-18.130334854125977,0.9934418201446533,18.269685745239258,0.4928489327430725,2.2753939628601074,-0.23471395671367645,0.0,0.0,0.0,0.0,0.0,0.0,0.0,-0.03573599967131826,0.5545786859662669,0.1680690349509706,0.6485369159463514,0.075337018107188,0.08535828147531047,-0.21505861268719503,-0.6092460711755251,-0.057626885019494416,-0.6666259543435614,-2.594770776447497,-0.05559767249082718,2.5079007494712227,0.8763222419338093,-0.6090851748156966,-0.05753196718556838,-0.666603097082616,-2.5945565370258534,-0.05562143941554,2.507976027223799,0.8763108487046415,0.00024036505060148457,-3.043475734112634e-07,-4.830138200850702e-05,0.00025344452661399267,0.0001993155156019863,-0.0004986823549266865,0.0009479391405172564,0.0,0.0,0.0,0.0,0.0,0.0,0.0,0.0001608963598285218,9.491783392603231e-05,2.2857260945419178e-05,0.00021423942164355836,-2.3766924712821658e-05,7.52777525763193e-05,-1.1393229167766528e-05,-0.00024036505060148457,3.043475734112634e-07,4.830138200850702e-05,-0.00025344452661399267,-0.0001993155156019863,0.0004986823549266865,-0.0009479391405172564,0.04592245817184448,18.130334854125977,-0.9934418201446533,-18.269685745239258,-0.4928489327430725,-2.2753939628601074,0.23471395671367645,0
28,0.13499832153320312,-0.04592245817184448,-18.130334854125977,0.9934418201446533,18.269685745239258,0.4928489327430725,2.2753939628601074,-0.23471395671367645,0.0,0.0,0.0,0.0,0.0,0.0,0.0,-0.03573599967131826,0.5545786859662669,0.1680690349509706,0.6485369159463514,0.075337018107188,0.08535828147531047,-0.21505861268719503,-0.6092460711755251,-0.057626885019494416,-0.6666259543435614,-2.594770776447497,-0.05559767249082718,2.5079007494712227,0.8763222419338093,-0.6090851748156966,-0.05753196718556838,-0.666603097082616,-2.5945565370258534,-0.05562143941554,2.507976027223799,0.8763108487046415,0.00024036505060148457,-3.043475734112634e-07,-4.830138200850702e-05,0.00025344452661399267,0.0001993155156019863,-0.0004986823549266865,0.0009479391405172564,0.0,0.0,0.0,0.0,0.0,0.0,0.0,0.0001608963598285218,9.491783392603231e-05,2.2857260945419178e-05,0.00021423942164355836,-2.3766924712821658e-05,7.52777525763193e-05,-1.1393229167766528e-05,-0.00024036505060148457,3.043475734112634e-07,4.830138200850702e-05,-0.00025344452661399267,-0.0001993155156019863,0.0004986823549266865,-0.0009479391405172564,0.04592245817184448,18.130334854125977,-0.9934418201446533,-18.269685745239258,-0.4928489327430725,-2.2753939628601074,0.23471395671367645,0
29,0.1399986743927002,-0.06972616910934448,-18.106531143188477,0.9934418201446533,18.245882034301758,0.4983420968055725,2.2753939628601074,-0.19351522624492645,0.0,0.0,0.0,0.0,0.0,0.0,0.0,-0.03267825297119715,0.5516134669740645,0.17240142980321307,0.6467441894696957,0.07491941080570239,0.0849890965543965,-0.21469318155854433,-0.6092444007396698,-0.057631010873901836,-0.6666259543435614,-2.5947691060116416,-0.05559613276914259,2.5079007363835184,0.8763176642970906,-0.6090851748156966,-0.05753196718556838,-0.666603097082616,-2.5945565370258534,-0.05562143941554,2.507976027223799,0.8763108487046415,0.0010350326669797318,-0.0005348160751857812,0.00011593559769890337,0.0005804495607946934,-0.0002252626745009985,-0.00033717186153057365,-0.0006761146055289524,0.0,0.0,0.0,0.0,0.0,0.0,0.0,0.00015922592397321633,9.904368833345278e-05,2.2857260945419178e-05,0.00021256898578814187,-2.5306646397410537e-05,7.529084028057298e-05,-6.815592449083141e-06,-0.0010350326669797318,0.0005348160751857812,-0.00011593559769890337,-0.0005804495607946934,0.0002252626745009985,0.00033717186153057365,0.0006761146055289524,0.06972616910934448,18.106531143188477,-0.9934418201446533,-18.245882034301758,-0.4983420968055725,-2.2753939628601074,0.19351522624492645,0
30,0.14508986473083496,-0.06972616910934448,-18.106531143188477,0.9934418201446533,18.245882034301758,0.4983420968055725,2.2753939628601074,-0.19351522624492645,0.0,0.0,0.0,0.0,0.0,0.0,0.0,-0.03267825297119715,0.5516134669740645,0.17240142980321307,0.6467441894696957,0.07491941080570239,0.0849890965543965,-0.21469318155854433,-0.6092444007396698,-0.057631010873901836,-0.6666259543435614,-2.5947691060116416,-0.05559613276914259,2.5079007363835184,0.8763176642970906,-0.6090851748156966,-0.05753196718556838,-0.666603097082616,-2.5945565370258534,-0.05562143941554,2.507976027223799,0.8763108487046415,0.0010350326669797318,-0.0005348160751857812,0.00011593559769890337,0.0005804495607946934,-0.0002252626745009985,-0.00033717186153057365,-0.0006761146055289524,0.0,0.0,0.0,0.0,0.0,0.0,0.0,0.00015922592397321633,9.904368833345278e-05,2.2857260945419178e-05,0.00021256898578814187,-2.5306646397410537e-05,7.529084028057298e-05,-6.815592449083141e-06,-0.0010350326669797318,0.0005348160751857812,-0.00011593559769890337,-0.0005804495607946934,0.0002252626745009985,0.00033717186153057365,0.0006761146055289524,0.06972616910934448,18.106531143188477,-0.9934418201446533,-18.245882034301758,-0.4983420968055725,-2.2753939628601074,0.19351522624492645,0
31,0.15010690689086914,0.005652248859405518,-18.106531143188477,0.9696381092071533,18.297456741333008,0.4928489327430725,2.2625765800476074,-0.21457235515117645,0.0,0.0,0.0,0.0,0.0,0.0,0.0,-0.03885966322748804,0.5491949977388202,0.16678807912803736,0.6446445273169563,0.07460064128159467,0.08488578179683219,-0.21485028176418425,-0.6092496933421425,-0.05762811311346108,-0.6666242839077061,-2.5947749505293993,-0.055594454681940284,2.5079032318036214,0.8763210243703529,-0.6090851748156966,-0.05753196718556838,-0.666603097082616,-2.5945565370258534,-0.05562143941554,2.507976027223799,0.8763108487046415,-0.0013448880736875457,-0.0004148738828483745,-7.721568826006396e-06,-0.0005205488105727555,0.00025962509885955757,8.015376153574651e-05,0.0001741440853153952,0.0,0.0,0.0,0.0,0.0,0.0,0.0,0.00016451852644594478,9.614592789269905e-05,2.1186825090113715e-05,0.00021841350354590006,-2.6984733599716426e-05,7.279542017757379e-05,-1.017566571137607e-05,0.0013448880736875457,0.0004148738828483745,7.721568826006396e-06,0.0005205488105727555,-0.00025962509885955757,-8.015376153574651e-05,-0.0001741440853153952,-0.005652248859405518,18.106531143188477,-0.9696381092071533,-18.297456741333008,-0.4928489327430725,-2.2625765800476074,0.21457235515117645,0
32,0.154998779296875,0.005652248859405518,-18.106531143188477,0.9696381092071533,18.297456741333008,0.4928489327430725,2.2625765800476074,-0.21457235515117645,0.0,0.0,0.0,0.0,0.0,0.0,0.0,-0.03885966322748804,0.5491949977388202,0.16678807912803736,0.6446445273169563,0.07460064128159467,0.08488578179683219,-0.21485028176418425,-0.6092496933421425,-0.05762811311346108,-0.6666242839077061,-2.5947749505293993,-0.055594454681940284,2.5079032318036214,0.8763210243703529,-0.6090851748156966,-0.05753196718556838,-0.666603097082616,-2.5945565370258534,-0.05562143941554,2.507976027223799,0.8763108487046415,-0.0013448880736875457,-0.0004148738828483745,-7.721568826006396e-06,-0.0005205488105727555,0.00025962509885955757,8.015376153574651e-05,0.0001741440853153952,0.0,0.0,0.0,0.0,0.0,0.0,0.0,0.00016451852644594478,9.614592789269905e-05,2.1186825090113715e-05,0.00021841350354590006,-2.6984733599716426e-05,7.279542017757379e-05,-1.017566571137607e-05,0.0013448880736875457,0.0004148738828483745,7.721568826006396e-06,0.0005205488105727555,-0.00025962509885955757,-8.015376153574651e-05,-0.0001741440853153952,-0.005652248859405518,18.106531143188477,-0.9696381092071533,-18.297456741333008,-0.4928489327430725,-2.2625765800476074,0.21457235515117645,0
33,0.16000652313232422,-0.06972616910934448,-18.106531143188477,0.9418671131134033,18.297456741333008,0.4983420968055725,2.2753939628601074,-0.23471395671367645,0.0,0.0,0.0,0.0,0.0,0.0,0.0,-0.040875422486859415,0.5467891088560467,0.1614318405720712,0.6453683855727342,0.07502341205864355,0.08446883132392428,-0.2137962209745291,-0.6092444007396861,-0.05762882739137752,-0.666622335065875,-2.5947727253018895,-0.05559827843642768,2.5078985124037803,0.8763222419395694,-0.6090851748156966,-0.05753196718556838,-0.666603097082616,-2.5945565370258534,-0.05562143941554,2.507976027223799,0.8763108487046415,4.792275887745324e-05,-0.00035006334034747423,0.00035841694755369454,-0.0004623664367983286,0.00020675812280382372,-0.00024933952080005,0.0012297543190839676,0.0,0.0,0.0,0.0,0.0,0.0,0.0,0.0001592259239895366,9.686020580913779e-05,1.923798325897952e-05,0.00021618827603608892,-2.3160979112320235e-05,7.751482001872034e-05,-1.1393234927936646e-05,-4.792275887745324e-05,0.00035006334034747423,-0.00035841694755369454,0.0004623664367983286,-0.00020675812280382372,0.00024933952080005,-0.0012297543190839676,0.06972616910934448,18.106531143188477,-0.9418671131134033,-18.297456741333008,-0.4983420968055725,-2.2753939628601074,0.23471395671367645,0
34,0.1650102138519287,-0.06972616910934448,-18.106531143188477,0.9418671131134033,18.297456741333008,0.4983420968055725,2.2753939628601074,-0.23471395671367645,0.0,0.0,0.0,0.0,0.0,0.0,0.0,-0.040875422486859415,0.5467891088560467,0.1614318405720712,0.6453683855727342,0.07502341205864355,0.08446883132392428,-0.2137962209745291,-0.6092444007396861,-0.05762882739137752,-0.666622335065875,-2.5947727253018895,-0.05559827843642768,2.5078985124037803,0.8763222419395694,-0.6090851748156966,-0.05753196718556838,-0.666603097082616,-2.5945565370258534,-0.05562143941554,2.507976027223799,0.8763108487046415,4.792275887745324e-05,-0.00035006334034747423,0.00035841694755369454,-0.0004623664367983286,0.00020675812280382372,-0.00024933952080005,0.0012297543190839676,0.0,0.0,0.0,0.0,0.0,0.0,0.0,0.0001592259239895366,9.686020580913779e-05,1.923798325897952e-05,0.00021618827603608892,-2.3160979112320235e-05,7.751482001872034e-05,-1.1393234927936646e-05,-4.792275887745324e-05,0.00035006334034747423,-0.00035841694755369454,0.0004623664367983286,-0.00020675812280382372,0.00024933952080005,-0.0012297543190839676,0.06972616910934448,18.106531143188477,-0.9418671131134033,-18.297456741333008,-0.4983420968055725,-2.2753939628601074,0.23471395671367645,0
35,0.17000317573547363,-0.06972616910934448,-18.106531143188477,0.9418671131134033,18.297456741333008,0.4983420968055725,2.2753939628601074,-0.23471395671367645,0.0,0.0,0.0,0.0,0.0,0.0,0.0,-0.040875422486859415,0.5467891088560467,0.1614318405720712,0.6453683855727342,0.07502341205864355,0.08446883132392428,-0.2137962209745291,-0.6092444007396861,-0.05762882739137752,-0.666622335065875,-2.5947727253018895,-0.05559827843642768,2.5078985124037803,0.8763222419395694,-0.6090851748156966,-0.05753196718556838,-0.666603097082616,-2.5945565370258534,-0.05562143941554,2.507976027223799,0.8763108487046415,4.792275887745324e-05,-0.00035006334034747423,0.00035841694755369454,-0.0004623664367983286,0.00020675812280382372,-0.00024933952080005,0.0012297543190839676,0.0,0.0,0.0,0.0,0.0,0.0,0.0,0.0001592259239895366,9.686020580913779e-05,1.923798325897952e-05,0.00021618827603608892,-2.3160979112320235e-05,7.751482001872034e-05,-1.1393234927936646e-05,-4.792275887745324e-05,0.00035006334034747423,-0.00035841694755369454,0.0004623664367983286,-0.00020675812280382372,0.00024933952080005,-0.0012297543190839676,0.06972616910934448,18.106531143188477,-0.9418671131134033,-18.297456741333008,-0.4983420968055725,-2.2753939628601074,0.23471395671367645,0
36,0.1750032901763916,-0.06972616910934448,-18.106531143188477,0.9418671131134033,18.297456741333008,0.4983420968055725,2.2753939628601074,-0.23471395671367645,0.0,0.0,0.0,0.0,0.0,0.0,0.0,-0.040875422486859415,0.5467891088560467,0.1614318405720712,0.6453683855727342,0.07502341205864355,0.08446883132392428,-0.2137962209745291,-0.6092444007396861,-0.05762882739137752,-0.666622335065875,-2.5947727253018895,-0.05559827843642768,2.5078985124037803,0.8763222419395694,-0.6090851748156966,-0.05753196718556838,-0.666603097082616,-2.5945565370258534,-0.05562143941554,2.507976027223799,0.8763108487046415,4.792275887745324e-05,-0.00035006334034747423,0.00035841694755369454,-0.0004623664367983286,0.00020675812280382372,-0.00024933952080005,0.0012297543190839676,0.0,0.0,0.0,0.0,0.0,0.0,0.0,0.0001592259239895366,9.686020580913779e-05,1.923798325897952e-05,0.00021618827603608892,-2.3160979112320235e-05,7.751482001872034e-05,-1.1393234927936646e-05,-4.792275887745324e-05,0.00035006334034747423,-0.00035841694755369454,0.0004623664367983286,-0.00020675812280382372,0.00024933952080005,-0.0012297543190839676,0.06972616910934448,18.106531143188477,-0.9418671131134033,-18.297456741333008,-0.4983420968055725,-2.2753939628601074,0.23471395671367645,0
37,0.17999672889709473,-0.04592245817184448,-18.106531143188477,1.0172455310821533,18.245882034301758,0.4928489327430725,2.2625765800476074,-0.18710653483867645,0.0,0.0,0.0,0.0,0.0,0.0,0.0,-0.03470812022483447,0.5537750388743322,0.16695726952413623,0.640623578549853,0.07486547610368748,0.08426811440379131,-0.213781117861765,-0.6092460711755251,-0.057627876699104776,-0.6666276247794167,-2.594769106049326,-0.05559457755538718,2.5079031024250953,0.8763158911285881,-0.6090851748156966,-0.05753196718556838,-0.666603097082616,-2.5945565370258534,-0.05562143941554,2.507976027223799,0.8763108487046415,1.6711757174405836e-05,0.0005777298854804868,-0.0007854834310676434,0.00046233738449380377,5.77702402529287e-05,0.00021824881507275404,-0.001512947444267146,0.0,0.0,0.0,0.0,0.0,0.0,0.0,0.0001608963598285218,9.590951353639215e-05,2.452769680072464e-05,0.00021256902347266404,-2.686186015282005e-05,7.292479870368851e-05,-5.042423946610697e-06,-1.6711757174405836e-05,-0.0005777298854804868,0.0007854834310676434,-0.00046233738449380377,-5.77702402529287e-05,-0.00021824881507275404,0.001512947444267146,0.04592245817184448,18.106531143188477,-1.0172455310821533,-18.245882034301758,-0.4928489327430725,-2.2625765800476074,0.18710653483867645,0
38,0.18499994277954102,-0.04592245817184448,-18.106531143188477,1.0172455310821533,18.245882034301758,0.4928489327430725,2.2625765800476074,-0.18710653483867645,0.0,0.0,0.0,0.0,0.0,0.0,0.0,-0.03470812022483447,0.5537750388743322,0.16695726952413623,0.640623578549853,0.07486547610368748,0.08426811440379131,-0.213781117861765,-0.6092460711755251,-0.057627876699104776,-0.6666276247794167,-2.594769106049326,-0.05559457755538718,2.5079031024250953,0.8763158911285881,-0.6090851748156966,-0.05753196718556838,-0.666603097082616,-2.5945565370258534,-0.05562143941554,2.507976027223799,0.8763108487046415,1.6711757174405836e-05,0.0005777298854804868,-0.0007854834310676434,0.00046233738449380377,5.77702402529287e-05,0.00021824881507275404,-0.001512947444267146,0.0,0.0,0.0,0.0,0.0,0.0,0.0,0.0001608963598285218,9.590951353639215e-05,2.452769680072464e-05,0.00021256902347266404,-2.686186015282005e-05,7.292479870368851e-05,-5.042423946610697e-06,-1.6711757174405836e-05,-0.0005777298854804868,0.0007854834310676434,-0.00046233738449380377,-5.77702402529287e-05,-0.00021824881507275404,0.001512947444267146,0.04592245817184448,18.106531143188477,-1.0172455310821533,-18.245882034301758,-0.4928489327430725,-2.2625765800476074,0.18710653483867645,0
39,0.1901566982269287,0.005652248859405518,-18.078760147094727,0.9934418201446533,18.297456741333008,0.5047507882118225,2.2753939628601074,-0.23471395671367645,0.0,0.0,0.0,0.0,0.0,0.0,0.0,-0.04492682381649828,0.542871636533654,0.15935617897773055,0.6516951946943901,0.07483946524257717,0.08595885186392863,-0.21418123382070325,-0.6092496904532114,-0.05763073729464453,-0.6666259539801739,-2.5947734700884744,-0.055599451243948765,2.507901454442583,0.8763222419278194,-0.6090851748156966,-0.05753196718556838,-0.666603097082616,-2.5945565370258534,-0.05562143941554,2.507976027223799,0.8763108487046415,-0.001129121651618899,-0.0009707191837645861,-0.0006990868789189365,-0.0002609437719592238,-0.00024607647050538966,-0.00022180965489590894,0.0014536830938783965,0.0,0.0,0.0,0.0,0.0,0.0,0.0,0.00016451563751485043,9.877010907614892e-05,2.28568975578769e-05,0.0002169330626209387,-2.198817159123484e-05,7.457278121592026e-05,-1.1393223177891265e-05,0.001129121651618899,0.0009707191837645861,0.0006990868789189365,0.0002609437719592238,0.00024607647050538966,0.00022180965489590894,-0.0014536830938783965,-0.005652248859405518,18.078760147094727,-0.9934418201446533,-18.297456741333008,-0.5047507882118225,-2.2753939628601074,0.23471395671367645,0
40,0.19499707221984863,0.005652248859405518,-18.078760147094727,0.9934418201446533,18.297456741333008,0.5047507882118225,2.2753939628601074,-0.23471395671367645,0.0,0.0,0.0,0.0,0.0,0.0,0.0,-0.04492682381649828,0.542871636533654,0.15935617897773055,0.6516951946943901,0.07483946524257717,0.08595885186392863,-0.21418123382070325,-0.6092496904532114,-0.05763073729464453,-0.6666259539801739,-2.5947734700884744,-0.055599451243948765,2.507901454442583,0.8763222419278194,-0.6090851748156966,-0.05753196718556838,-0.666603097082616,-2.5945565370258534,-0.05562143941554,2.507976027223799,0.8763108487046415,-0.001129121651618899,-0.0009707191837645861,-0.0006990868789189365,-0.0002609437719592238,-0.00024607647050538966,-0.00022180965489590894,0.0014536830938783965,0.0,0.0,0.0,0.0,0.0,0.0,0.0,0.00016451563751485043,9.877010907614892e-05,2.28568975578769e-05,0.0002169330626209387,-2.198817159123484e-05,7.457278121592026e-05,-1.1393223177891265e-05,0.001129121651618899,0.0009707191837645861,0.0006990868789189365,0.0002609437719592238,0.00024607647050538966,0.00022180965489590894,-0.0014536830938783965,-0.005652248859405518,18.078760147094727,-0.9934418201446533,-18.297456741333008,-0.5047507882118225,-2.2753939628601074,0.23471395671367645,0
41,0.1999952793121338,0.005652248859405518,-18.078760147094727,0.9934418201446533,18.297456741333008,0.5047507882118225,2.2753939628601074,-0.23471395671367645,0.0,0.0,0.0,0.0,0.0,0.0,0.0,-0.04492682381649828,0.542871636533654,0.15935617897773055,0.6516951946943901,0.07483946524257717,0.08595885186392863,-0.21418123382070325,-0.6092496904532114,-0.05763073729464453,-0.6666259539801739,-2.5947734700884744,-0.055599451243948765,2.507901454442583,0.8763222419278194,-0.6090851748156966,-0.05753196718556838,-0.666603097082616,-2.5945565370258534,-0.05562143941554,2.507976027223799,0.8763108487046415,-0.001129121651618899,-0.0009707191837645861,-0.0006990868789189365,-0.0002609437719592238,-0.00024607647050538966,-0.00022180965489590894,0.0014536830938783965,0.0,0.0,0.0,0.0,0.0,0.0,0.0,0.00016451563751485043,9.877010907614892e-05,2.28568975578769e-05,0.0002169330626209387,-2.198817159123484e-05,7.457278121592026e-05,-1.1393223177891265e-05,0.001129121651618899,0.0009707191837645861,0.0006990868789189365,0.0002609437719592238,0.00024607647050538966,0.00022180965489590894,-0.0014536830938783965,-0.005652248859405518,18.078760147094727,-0.9934418201446533,-18.297456741333008,-0.5047507882118225,-2.2753939628601074,0.23471395671367645,0
42,0.2050025463104248,-0.018151462078094482,-18.078760147094727,1.0172455310821533,18.269685745239258,0.4983420968055725,2.2753939628601074,-0.24844686686992645,0.0,0.0,0.0,0.0,0.0,0.0,0.0,-0.04049411615508674,0.5561833801164453,0.16194687272634842,0.6434402676205436,0.07444565276060969,0.08463026018515507,-0.21254647261712642,-0.6092480200173562,-0.05762980028023353,-0.6666276247794147,-2.5947708680253667,-0.05559839763482965,2.507901651908812,0.8763237678127155,-0.6090851748156966,-0.05753196718556838,-0.666603097082616,-2.5945565370258534,-0.05562143941554,2.507976027223799,0.8763108487046415,-0.0003473572225059229,-8.021932091037607e-05,-0.0008164302708180489,-0.00015964656027392672,-3.133878662054701e-05,-0.00016907215142736767,0.001112545495633937,0.0,0.0,0.0,0.0,0.0,0.0,0.0,0.000162845201659656,9.783309466514928e-05,2.452769679872624e-05,0.00021433099951329027,-2.3041780710351956e-05,7.43753149867743e-05,-1.2919108073994323e-05,0.0003473572225059229,8.021932091037607e-05,0.0008164302708180489,0.00015964656027392672,3.133878662054701e-05,0.00016907215142736767,-0.001112545495633937,0.018151462078094482,18.078760147094727,-1.0172455310821533,-18.269685745239258,-0.4983420968055725,-2.2753939628601074,0.24844686686992645,0
43,0.20999836921691895,-0.018151462078094482,-18.078760147094727,1.0172455310821533,18.269685745239258,0.4983420968055725,2.2753939628601074,-0.24844686686992645,0.0,0.0,0.0,0.0,0.0,0.0,0.0,-0.04049411615508674,0.5561833801164453,0.16194687272634842,0.6434402676205436,0.07444565276060969,0.08463026018515507,-0.21254647261712642,-0.6092480200173562,-0.05762980028023353,-0.6666276247794147,-2.5947708680253667,-0.05559839763482965,2.507901651908812,0.8763237678127155,-0.6090851748156966,-0.05753196718556838,-0.666603097082616,-2.5945565370258534,-0.05562143941554,2.507976027223799,0.8763108487046415,-0.0003473572225059229,-8.021932091037607e-05,-0.0008164302708180489,-0.00015964656027392672,-3.133878662054701e-05,-0.00016907215142736767,0.001112545495633937,0.0,0.0,0.0,0.0,0.0,0.0,0.0,0.000162845201659656,9.783309466514928e-05,2.452769679872624e-05,0.00021433099951329027,-2.3041780710351956e-05,7.43753149867743e-05,-1.2919108073994323e-05,0.0003473572225059229,8.021932091037607e-05,0.0008164302708180489,0.00015964656027392672,3.133878662054701e-05,0.00016907215142736767,-0.001112545495633937,0.018151462078094482,18.078760147094727,-1.0172455310821533,-18.269685745239258,-0.4983420968055725,-2.2753939628601074,0.24844686686992645,0
44,0.2149968147277832,0.005652248859405518,-18.154138565063477,0.9934418201446533,18.245882034301758,0.4928489327430725,2.2625765800476074,-0.17337362468242645,0.0,0.0,0.0,0.0,0.0,0.0,0.0,-0.033672305618950495,0.5497016547636475,0.16956834223730188,0.6503972334140076,0.07421634662908734,0.08617369341596771,-0.2125060399357131,-0.6092496904532114,-0.05762532575326145,-0.6666259543435614,-2.5947691060121585,-0.05559446785843993,2.507900040781483,0.8763154262875262,-0.6090851748156966,-0.05753196718556838,-0.666603097082616,-2.5945565370258534,-0.05562143941554,2.507976027223799,0.8763108487046415,-0.0004427825656376596,0.0008945318888735091,0.00043205788158301114,0.0006353384040844771,0.0002553436668513713,9.748857590595476e-05,-0.0015901810983203807,0.0,0.0,0.0,0.0,0.0,0.0,0.0,0.00016451563751485043,9.335856769306788e-05,2.2857260945419178e-05,0.0002125689863050617,-2.69715571000681e-05,7.598644231610052e-05,-4.577582884746079e-06,0.0004427825656376596,-0.0008945318888735091,-0.00043205788158301114,-0.0006353384040844771,-0.0002553436668513713,-9.748857590595476e-05,0.0015901810983203807,-0.005652248859405518,18.154138565063477,-0.9934418201446533,-18.245882034301758,-0.4928489327430725,-2.2625765800476074,0.17337362468242645,0
45,0.2199993133544922,0.005652248859405518,-18.154138565063477,0.9934418201446533,18.245882034301758,0.4928489327430725,2.2625765800476074,-0.17337362468242645,0.0,0.0,0.0,0.0,0.0,0.0,0.0,-0.033672305618950495,0.5497016547636475,0.16956834223730188,0.6503972334140076,0.07421634662908734,0.08617369341596771,-0.2125060399357131,-0.6092496904532114,-0.05762532575326145,-0.6666259543435614,-2.5947691060121585,-0.05559446785843993,2.507900040781483,0.8763154262875262,-0.6090851748156966,-0.05753196718556838,-0.666603097082616,-2.5945565370258534,-0.05562143941554,2.507976027223799,0.8763108487046415,-0.0004427825656376596,0.0008945318888735091,0.00043205788158301114,0.0006353384040844771,0.0002553436668513713,9.748857590595476e-05,-0.0015901810983203807,0.0,0.0,0.0,0.0,0.0,0.0,0.0,0.00016451563751485043,9.335856769306788e-05,2.2857260945419178e-05,0.0002125689863050617,-2.69715571000681e-05,7.598644231610052e-05,-4.577582884746079e-06,0.0004427825656376596,-0.0008945318888735091,-0.00043205788158301114,-0.0006353384040844771,-0.0002553436668513713,-9.748857590595476e-05,0.0015901810983203807,-0.005652248859405518,18.154138565063477,-0.9934418201446533,-18.245882034301758,-0.4928489327430725,-2.2625765800476074,0.17337362468242645,0
46,0.22501492500305176,-0.04592245817184448,-18.106531143188477,1.0410492420196533,18.269685745239258,0.4983420968055725,2.2625765800476074,-0.22098104655742645,0.0,0.0,0.0,0.0,0.0,0.0,0.0,-0.03166801394216193,0.557343494411822,0.1687438720128261,0.6448464365248611,0.07412584487549292,0.08471545530069599,-0.2115548067674763,-0.6092460711755251,-0.057628797118009424,-0.6666292952152719,-2.5947730016875683,-0.0555951835009795,2.5079031150231192,0.8763205983173329,-0.6090851748156966,-0.05753196718556838,-0.666603097082616,-2.5945565370258534,-0.05562143941554,2.507976027223799,0.8763108487046415,0.0008219563987575608,0.00011413238926608217,-0.00064693389528466,0.00020356536863599261,0.00018193122813887824,0.00012290773216898243,0.0005732207404091792,0.0,0.0,0.0,0.0,0.0,0.0,0.0,0.0001608963598285218,9.682993244104071e-05,2.6198132655919082e-05,0.00021646466171487688,-2.6255914560499582e-05,7.291220067973114e-05,-9.749612691400955e-06,-0.0008219563987575608,-0.00011413238926608217,0.00064693389528466,-0.00020356536863599261,-0.00018193122813887824,-0.00012290773216898243,-0.0005732207404091792,0.04592245817184448,18.106531143188477,-1.0410492420196533,-18.269685745239258,-0.4983420968055725,-2.2625765800476074,0.22098104655742645,0
47,0.23000240325927734,-0.04592245817184448,-18.106531143188477,1.0410492420196533,18.269685745239258,0.4983420968055725,2.2625765800476074,-0.22098104655742645,0.0,0.0,0.0,0.0,0.0,0.0,0.0,-0.03166801394216193,0.557343494411822,0.1687438720128261,0.6448464365248611,0.07412584487549292,0.08471545530069599,-0.2115548067674763,-0.6092460711755251,-0.057628797118009424,-0.6666292952152719,-2.5947730016875683,-0.0555951835009795,2.5079031150231192,0.8763205983173329,-0.6090851748156966,-0.05753196718556838,-0.666603097082616,-2.5945565370258534,-0.05562143941554,2.507976027223799,0.8763108487046415,0.0008219563987575608,0.00011413238926608217,-0.00064693389528466,0.00020356536863599261,0.00018193122813887824,0.00012290773216898243,0.0005732207404091792,0.0,0.0,0.0,0.0,0.0,0.0,0.0,0.0001608963598285218,9.682993244104071e-05,2.6198132655919082e-05,0.00021646466171487688,-2.6255914560499582e-05,7.291220067973114e-05,-9.749612691400955e-06,-0.0008219563987575608,-0.00011413238926608217,0.00064693389528466,-0.00020356536863599261,-0.00018193122813887824,-0.00012290773216898243,-0.0005732207404091792,0.04592245817184448,18.106531143188477,-1.0410492420196533,-18.269685745239258,-0.4983420968055725,-2.2625765800476074,0.22098104655742645,0
48,0.23510336875915527,-0.04592245817184448,-18.130334854125977,0.9934418201446533,18.297456741333008,0.5047507882118225,2.2818026542663574,-0.22098104655742645,0.0,0.0,0.0,0.0,0.0,0.0,0.0,-0.0307473428099846,0.5530259603099134,0.16644543193578357,0.6462204279847218,0.07467597801939674,0.08472280573226891,-0.21275626879483195,-0.6092460711755251,-0.057626206912633884,-0.6666259543435614,-2.594772973003002,-0.055595777159138715,2.507897563397608,0.8763207158927329,-0.6090851748156966,-0.05753196718556838,-0.666603097082616,-2.5945565370258534,-0.05562143941554,2.507976027223799,0.8763108487046415,0.00018395449451007154,0.0005316670997694293,-1.7779546836480994e-05,-0.0005599795939853583,-0.00013492577823479414,-0.0004428942709152875,0.00023051136715319576,0.0,0.0,0.0,0.0,0.0,0.0,0.0,0.0001608963598285218,9.423972706550099e-05,2.2857260945419178e-05,0.00021643597714859908,-2.5662256401284833e-05,7.846382619103309e-05,-9.867188091372547e-06,-0.00018395449451007154,-0.0005316670997694293,1.7779546836480994e-05,0.0005599795939853583,0.00013492577823479414,0.0004428942709152875,-0.00023051136715319576,0.04592245817184448,18.130334854125977,-0.9934418201446533,-18.297456741333008,-0.5047507882118225,-2.2818026542663574,0.22098104655742645,0
49,0.24009346961975098,-0.04592245817184448,-18.130334854125977,0.9934418201446533,18.297456741333008,0.5047507882118225,2.2818026542663574,-0.22098104655742645,0.0,0.0,0.0,0.0,0.0,0.0,0.0,-0.0307473428099846,0.5530259603099134,0.16644543193578357,0.6462204279847218,0.07467597801939674,0.08472280573226891,-0.21275626879483195,-0.6092460711755251,-0.057626206912633884,-0.6666259543435614,-2.594772973003002,-0.055595777159138715,2.507897563397608,0.8763207158927329,-0.6090851748156966,-0.05753196718556838,-0.666603097082616,-2.5945565370258534,-0.05562143941554,2.507976027223799,0.8763108487046415,0.00018395449451007154,0.0005316670997694293,-1.7779546836480994e-05,-0.0005599795939853583,-0.00013492577823479414,-0.0004428942709152875,0.00023051136715319576,0.0,0.0,0.0,0.0,0.0,0.0,0.0,0.0001608963598285218,9.423972706550099e-05,2.2857260945419178e-05,0.00021643597714859908,-2.5662256401284833e-05,7.846382619103309e-05,-9.867188091372547e-06,-0.00018395449451007154,-0.0005316670997694293,1.7779546836480994e-05,0.0005599795939853583,0.00013492577823479414,0.0004428942709152875,-0.00023051136715319576,0.04592245817184448,18.130334854125977,-0.9934418201446533,-18.297456741333008,-0.5047507882118225,-2.2818026542663574,0.22098104655742645,0
50,0.24499964714050293,-0.06972616910934448,-18.130334854125977,0.9934418201446533,18.269685745239258,0.5047507882118225,2.2818026542663574,-0.18710653483867645,0.0,0.0,0.0,0.0,0.0,0.0,0.0,-0.027305248127447446,0.5507562509829453,0.17067901216790535,0.6457285540194504,0.07446589066314312,0.08530288048522665,-0.21202988832914954,-0.6092444007396698,-0.05762833676307317,-0.6666259543435614,-2.5947707764488954,-0.05559577759184355,2.507899983593323,0.8763169522202667,-0.6090851748156966,-0.05753196718556838,-0.666603097082616,-2.5945565370258534,-0.05562143941554,2.507976027223799,0.8763108487046415,0.0007593472023466315,0.0001598626333436314,-0.000292968181850533,6.654620311224084e-05,-0.0003202602101545719,-0.0004932800498765452,-0.0008079311433296302,0.0,0.0,0.0,0.0,0.0,0.0,0.0,0.00015922592397321633,9.636957750478597e-05,2.2857260945419178e-05,0.00021423942304199528,-2.5661823696447594e-05,7.604363047608587e-05,-6.103515625244249e-06,-0.0007593472023466315,-0.0001598626333436314,0.000292968181850533,-6.654620311224084e-05,0.0003202602101545719,0.0004932800498765452,0.0008079311433296302,0.06972616910934448,18.130334854125977,-0.9934418201446533,-18.269685745239258,-0.5047507882118225,-2.2818026542663574,0.18710653483867645,0
51,0.24999427795410156,-0.06972616910934448,-18.130334854125977,0.9934418201446533,18.269685745239258,0.5047507882118225,2.2818026542663574,-0.18710653483867645,0.0,0.0,0.0,0.0,0.0,0.0,0.0,-0.027305248127447446,0.5507562509829453,0.17067901216790535,0.6457285540194504,0.07446589066314312,0.08530288048522665,-0.21202988832914954,-0.6092444007396698,-0.05762833676307317,-0.6666259543435614,-2.5947707764488954,-0.05559577759184355,2.507899983593323,0.8763169522202667,-0.6090851748156966,-0.05753196718556838,-0.666603097082616,-2.5945565370258534,-0.05562143941554,2.507976027223799,0.8763108487046415,0.0007593472023466315,0.0001598626333436314,-0.000292968181850533,6.654620311224084e-05,-0.0003202602101545719,-0.0004932800498765452,-0.0008079311433296302,0.0,0.0,0.0,0.0,0.0,0.0,0.0,0.00015922592397321633,9.636957750478597e-05,2.2857260945419178e-05,0.00021423942304199528,-2.5661823696447594e-05,7.604363047608587e-05,-6.103515625244249e-06,-0.0007593472023466315,-0.0001598626333436314,0.000292968181850533,-6.654620311224084e-05,0.0003202602101545719,0.0004932800498765452,0.0008079311433296302,0.06972616910934448,18.130334854125977,-0.9934418201446533,-18.269685745239258,-0.5047507882118225,-2.2818026542663574,0.18710653483867645,0
52,0.25499629974365234,-0.09352988004684448,-18.078760147094727,0.9696381092071533,18.269685745239258,0.4983420968055725,2.2625765800476074,-0.24112264811992645,0.0,0.0,0.0,0.0,0.0,0.0,0.0,-0.037521488903872954,0.5490265282840938,0.1636743264692848,0.6469505911750134,0.07440177354088537,0.08530172356268294,-0.21112982940668804,-0.6092427303038145,-0.05763203825761022,-0.6666242839077061,-2.594770776447497,-0.05559506508164976,2.5079021736188127,0.8763229540106322,-0.6090851748156966,-0.05753196718556838,-0.666603097082616,-2.5945565370258534,-0.05562143941554,2.507976027223799,0.8763108487046415,0.0005592477624187807,-0.0008820047919668927,-0.0002385532841698577,0.0002514552627488416,1.3284001203173323e-06,3.615598113806802e-05,0.001584733663992231,0.0,0.0,0.0,0.0,0.0,0.0,0.0,0.00015755548811791087,0.00010007107204183796,2.1186825090113715e-05,0.00021423942164355836,-2.6374333890237522e-05,7.385360498624038e-05,-1.2105305990717241e-05,-0.0005592477624187807,0.0008820047919668927,0.0002385532841698577,-0.0002514552627488416,-1.3284001203173323e-06,-3.615598113806802e-05,-0.001584733663992231,0.09352988004684448,18.078760147094727,-0.9696381092071533,-18.269685745239258,-0.4983420968055725,-2.2625765800476074,0.24112264811992645,0
53,0.25999927520751953,-0.09352988004684448,-18.078760147094727,0.9696381092071533,18.269685745239258,0.4983420968055725,2.2625765800476074,-0.24112264811992645,0.0,0.0,0.0,0.0,0.0,0.0,0.0,-0.037521488903872954,0.5490265282840938,0.1636743264692848,0.6469505911750134,0.07440177354088537,0.08530172356268294,-0.21112982940668804,-0.6092427303038145,-0.05763203825761022,-0.6666242839077061,-2.594770776447497,-0.05559506508164976,2.5079021736188127,0.8763229540106322,-0.6090851748156966,-0.05753196718556838,-0.666603097082616,-2.5945565370258534,-0.05562143941554,2.507976027223799,0.8763108487046415,0.0005592477624187807,-0.0008820047919668927,-0.0002385532841698577,0.0002514552627488416,1.3284001203173323e-06,3.615598113806802e-05,0.001584733663992231,0.0,0.0,0.0,0.0,0.0,0.0,0.0,0.00015755548811791087,0.00010007107204183796,2.1186825090113715e-05,0.00021423942164355836,-2.6374333890237522e-05,7.385360498624038e-05,-1.2105305990717241e-05,-0.0005592477624187807,0.0008820047919668927,0.0002385532841698577,-0.0002514552627488416,-1.3284001203173323e-06,-3.615598113806802e-05,-0.001584733663992231,0.09352988004684448,18.078760147094727,-0.9696381092071533,-18.269685745239258,-0.4983420968055725,-2.2625765800476074,0.24112264811992645,0
54,0.2649986743927002,-0.04592245817184448,-18.078760147094727,0.9934418201446533,18.245882034301758,0.5102439522743225,2.2689852714538574,-0.22098104655742645,0.0,0.0,0.0,0.0,0.0,0.0,0.0,-0.037829819494109705,0.5547753380811593,0.1669227998537246,0.6439333459135478,0.07376003130192285,0.08388670814611231,-0.21043365999958585,-0.6092460711755251,-0.057629873063149165,-0.6666259543435614,-2.59477157850061,-0.05559638761837668,2.5078993422540714,0.876320716054903,-0.6090851748156966,-0.05753196718556838,-0.666603097082616,-2.5945565370258534,-0.05562143941554,2.507976027223799,0.8763108487046415,-0.00037401348426006605,-0.00045909751241034386,-0.0007820837708128295,0.00038100007055205833,-0.0004213127281526029,-0.00011980534438386682,0.0007108165649467838,0.0,0.0,0.0,0.0,0.0,0.0,0.0,0.0001608963598285218,9.790587758078118e-05,2.2857260945419178e-05,0.00021504147475637225,-2.5051797163319622e-05,7.668496972756955e-05,-9.867350261538732e-06,0.00037401348426006605,0.00045909751241034386,0.0007820837708128295,-0.00038100007055205833,0.0004213127281526029,0.00011980534438386682,-0.0007108165649467838,0.04592245817184448,18.078760147094727,-0.9934418201446533,-18.245882034301758,-0.5102439522743225,-2.2689852714538574,0.22098104655742645,0
55,0.2700197696685791,-0.04592245817184448,-18.078760147094727,0.9934418201446533,18.245882034301758,0.5102439522743225,2.2689852714538574,-0.22098104655742645,0.0,0.0,0.0,0.0,0.0,0.0,0.0,-0.037829819494109705,0.5547753380811593,0.1669227998537246,0.6439333459135478,0.07376003130192285,0.08388670814611231,-0.21043365999958585,-0.6092460711755251,-0.057629873063149165,-0.6666259543435614,-2.59477157850061,-0.05559638761837668,2.5078993422540714,0.876320716054903,-0.6090851748156966,-0.05753196718556838,-0.666603097082616,-2.5945565370258534,-0.05562143941554,2.507976027223799,0.8763108487046415,-0.00037401348426006605,-0.00045909751241034386,-0.0007820837708128295,0.00038100007055205833,-0.0004213127281526029,-0.00011980534438386682,0.0007108165649467838,0.0,0.0,0.0,0.0,0.0,0.0,0.0,0.0001608963598285218,9.790587758078118e-05,2.2857260945419178e-05,0.00021504147475637225,-2.5051797163319622e-05,7.668496972756955e-05,-9.867350261538732e-06,0.00037401348426006605,0.00045909751241034386,0.0007820837708128295,-0.00038100007055205833,0.0004213127281526029,0.00011980534438386682,-0.0007108165649467838,0.04592245817184448,18.078760147094727,-0.9934418201446533,-18.245882034301758,-0.5102439522743225,-2.2689852714538574,0.22098104655742645,0
56,0.2750279903411865,-0.04592245817184448,-18.106531143188477,0.9696381092071533,18.222078323364258,0.4983420968055725,2.2625765800476074,-0.19351522624492645,0.0,0.0,0.0,0.0,0.0,0.0,0.0,-0.04231502667262053,0.5514426623434251,0.16475080889161375,0.6465997696785876,0.07392516107980683,0.08411818576897771,-0.2105237293852987,-0.6092460711755251,-0.05762787149756422,-0.6666242839077061,-2.594767435589744,-0.05559518788881081,2.5079032274310813,0.8763166046589612,-0.6090851748156966,-0.05753196718556838,-0.666603097082616,-2.5945565370258534,-0.05562143941554,2.507976027223799,0.8763108487046415,-0.00018018712321643895,-0.00012256859205950717,-9.460169969209158e-05,0.0011194368153778782,0.00012603973465647958,0.00034589815772419804,-0.0010040871699862346,0.0,0.0,0.0,0.0,0.0,0.0,0.0,0.0001608963598285218,9.590431199583971e-05,2.1186825090113715e-05,0.00021089856389044925,-2.6251526729192953e-05,7.279979271768156e-05,-5.755954319730527e-06,0.00018018712321643895,0.00012256859205950717,9.460169969209158e-05,-0.0011194368153778782,-0.00012603973465647958,-0.00034589815772419804,0.0010040871699862346,0.04592245817184448,18.106531143188477,-0.9696381092071533,-18.222078323364258,-0.4983420968055725,-2.2625765800476074,0.19351522624492645,0
57,0.2800002098083496,-0.04592245817184448,-18.106531143188477,0.9696381092071533,18.222078323364258,0.4983420968055725,2.2625765800476074,-0.19351522624492645,0.0,0.0,0.0,0.0,0.0,0.0,0.0,-0.04231502667262053,0.5514426623434251,0.16475080889161375,0.6465997696785876,0.07392516107980683,0.08411818576897771,-0.2105237293852987,-0.6092460711755251,-0.05762787149756422,-0.6666242839077061,-2.594767435589744,-0.05559518788881081,2.5079032274310813,0.8763166046589612,-0.6090851748156966,-0.05753196718556838,-0.666603097082616,-2.5945565370258534,-0.05562143941554,2.507976027223799,0.8763108487046415,-0.00018018712321643895,-0.00012256859205950717,-9.460169969209158e-05,0.0011194368153778782,0.00012603973465647958,0.00034589815772419804,-0.0010040871699862346,0.0,0.0,0.0,0.0,0.0,0.0,0.0,0.0001608963598285218,9.590431199583971e-05,2.1186825090113715e-05,0.00021089856389044925,-2.6251526729192953e-05,7.279979271768156e-05,-5.755954319730527e-06,0.00018018712321643895,0.00012256859205950717,9.460169969209158e-05,-0.0011194368153778782,-0.00012603973465647958,-0.00034589815772419804,0.0010040871699862346,0.04592245817184448,18.106531143188477,-0.9696381092071533,-18.222078323364258,-0.4983420968055725,-2.2625765800476074,0.19351522624492645,0
58,0.2850010395050049,-0.06972616910934448,-18.154138565063477,0.9934418201446533,18.321260452270508,0.4983420968055725,2.2689852714538574,-0.19351522624492645,0.0,0.0,0.0,0.0,0.0,0.0,0.0,-0.04365460727523588,0.549263694247839,0.16288340432900358,0.6466194503872471,0.07420909925460119,0.08461846636222108,-0.21148873742073057,-0.6092444007396698,-0.057624527666812385,-0.6666258748707018,-2.5947746433132424,-0.05559510452069926,2.5079014483047186,0.8763176642791456,-0.6090851748156966,-0.05753196718556838,-0.666603097082616,-2.5945565370258534,-0.05562143941554,2.507976027223799,0.8763108487046415,0.0010102430454887162,0.0007220440180293085,-0.0007064887112435697,-0.0013162089104560644,-8.932204939159456e-05,-0.00011060087532848436,-0.000653778858806762,0.0,0.0,0.0,0.0,0.0,0.0,0.0,0.00015922592397321633,9.256048124400146e-05,2.2777788085792672e-05,0.00021810628738894167,-2.6334894840739087e-05,7.457891908035919e-05,-6.815574504104305e-06,-0.0010102430454887162,-0.0007220440180293085,0.0007064887112435697,0.0013162089104560644,8.932204939159456e-05,0.00011060087532848436,0.000653778858806762,0.06972616910934448,18.154138565063477,-0.9934418201446533,-18.321260452270508,-0.4983420968055725,-2.2689852714538574,0.19351522624492645,0
59,0.2900111675262451,-0.06972616910934448,-18.154138565063477,0.9934418201446533,18.321260452270508,0.4983420968055725,2.2689852714538574,-0.19351522624492645,0.0,0.0,0.0,0.0,0.0,0.0,0.0,-0.04365460727523588,0.549263694247839,0.16288340432900358,0.6466194503872471,0.07420909925460119,0.08461846636222108,-0.21148873742073057,-0.6092444007396698,-0.057624527666812385,-0.6666258748707018,-2.5947746433132424,-0.05559510452069926,2.5079014483047186,0.8763176642791456,-0.6090851748156966,-0.05753196718556838,-0.666603097082616,-2.5945565370258534,-0.05562143941554,2.507976027223799,0.8763108487046415,0.0010102430454887162,0.0007220440180293085,-0.0007064887112435697,-0.0013162089104560644,-8.932204939159456e-05,-0.00011060087532848436,-0.000653778858806762,0.0,0.0,0.0,0.0,0.0,0.0,0.0,0.00015922592397321633,9.256048124400146e-05,2.2777788085792672e-05,0.00021810628738894167,-2.6334894840739087e-05,7.457891908035919e-05,-6.815574504104305e-06,-0.0010102430454887162,-0.0007220440180293085,0.0007064887112435697,0.0013162089104560644,8.932204939159456e-05,0.00011060087532848436,0.000653778858806762,0.06972616910934448,18.154138565063477,-0.9934418201446533,-18.321260452270508,-0.4983420968055725,-2.2689852714538574,0.19351522624492645,0
60,0.2949955463409424,-0.018151462078094482,-18.154138565063477,0.9934418201446533,18.297456741333008,0.5102439522743225,2.2753939628601074,-0.25485557317733765,0.0,0.0,0.0,0.0,0.0,0.0,0.0,-0.037321590722121954,0.5508445216415594,0.164267945050414,0.6434512221769544,0.07462935006097018,0.0844536915314055,-0.2119071979357775,-0.6092480200173562,-0.05762522334004167,-0.666625954343412,-2.5947727385547856,-0.05559638897274168,2.50790141212684,0.8763244797296885,-0.6090851748156966,-0.05753196718556838,-0.666603097082616,-2.5945565370258534,-0.05562143941554,2.507976027223799,0.8763108487046415,-0.00018993427891181902,0.0008116489910259909,-0.0001057065297191713,-0.0008212099052648175,-0.000374224290524657,-0.00012674123186893365,0.0010914139138306627,0.0,0.0,0.0,0.0,0.0,0.0,0.0,0.000162845201659656,9.325615447328822e-05,2.285726079598316e-05,0.0002162015289322028,-2.505044279831753e-05,7.461509695882995e-05,-1.3631025047033951e-05,0.00018993427891181902,-0.0008116489910259909,0.0001057065297191713,0.0008212099052648175,0.000374224290524657,0.00012674123186893365,-0.0010914139138306627,0.018151462078094482,18.154138565063477,-0.9934418201446533,-18.297456741333008,-0.5102439522743225,-2.2753939628601074,0.25485557317733765,0
61,0.3000037670135498,-0.018151462078094482,-18.154138565063477,0.9934418201446533,18.297456741333008,0.5102439522743225,2.2753939628601074,-0.25485557317733765,0.0,0.0,0.0,0.0,0.0,0.0,0.0,-0.037321590722121954,0.5508445216415594,0.164267945050414,0.6434512221769544,0.07462935006097018,0.0844536915314055,-0.2119071979357775,-0.6092480200173562,-0.05762522334004167,-0.666625954343412,-2.5947727385547856,-0.05559638897274168,2.50790141212684,0.8763244797296885,-0.6090851748156966,-0.05753196718556838,-0.666603097082616,-2.5945565370258534,-0.05562143941554,2.507976027223799,0.8763108487046415,-0.00018993427891181902,0.0008116489910259909,-0.0001057065297191713,-0.0008212099052648175,-0.000374224290524657,-0.00012674123186893365,0.0010914139138306627,0.0,0.0,0.0,0.0,0.0,0.0,0.0,0.000162845201659656,9.325615447328822e-05,2.285726079598316e-05,0.0002162015289322028,-2.505044279831753e-05,7.461509695882995e-05,-1.3631025047033951e-05,0.00018993427891181902,-0.0008116489910259909,0.0001057065297191713,0.0008212099052648175,0.000374224290524657,0.00012674123186893365,-0.0010914139138306627,0.018151462078094482,18.154138565063477,-0.9934418201446533,-18.297456741333008,-0.5102439522743225,-2.2753939628601074,0.25485557317733765,0
62,0.30499887466430664,-0.018151462078094482,-18.154138565063477,0.9934418201446533,18.297456741333008,0.5102439522743225,2.2753939628601074,-0.25485557317733765,0.0,0.0,0.0,0.0,0.0,0.0,0.0,-0.037321590722121954,0.5508445216415594,0.164267945050414,0.6434512221769544,0.07462935006097018,0.0844536915314055,-0.2119071979357775,-0.6092480200173562,-0.05762522334004167,-0.666625954343412,-2.5947727385547856,-0.05559638897274168,2.50790141212684,0.8763244797296885,-0.6090851748156966,-0.05753196718556838,-0.666603097082616,-2.5945565370258534,-0.05562143941554,2.507976027223799,0.8763108487046415,-0.00018993427891181902,0.0008116489910259909,-0.0001057065297191713,-0.0008212099052648175,-0.000374224290524657,-0.00012674123186893365,0.0010914139138306627,0.0,0.0,0.0,0.0,0.0,0.0,0.0,0.000162845201659656,9.325615447328822e-05,2.285726079598316e-05,0.0002162015289322028,-2.505044279831753e-05,7.461509695882995e-05,-1.3631025047033951e-05,0.00018993427891181902,-0.0008116489910259909,0.0001057065297191713,0.0008212099052648175,0.000374224290524657,0.00012674123186893365,-0.0010914139138306627,0.018151462078094482,18.154138565063477,-0.9934418201446533,-18.297456741333008,-0.5102439522743225,-2.2753939628601074,0.25485557317733765,0
63,0.3100101947784424,-0.018151462078094482,-18.154138565063477,0.9934418201446533,18.297456741333008,0.5102439522743225,2.2753939628601074,-0.25485557317733765,0.0,0.0,0.0,0.0,0.0,0.0,0.0,-0.037321590722121954,0.5508445216415594,0.164267945050414,0.6434512221769544,0.07462935006097018,0.0844536915314055,-0.2119071979357775,-0.6092480200173562,-0.05762522334004167,-0.666625954343412,-2.5947727385547856,-0.05559638897274168,2.50790141212684,0.8763244797296885,-0.6090851748156966,-0.05753196718556838,-0.666603097082616,-2.5945565370258534,-0.05562143941554,2.507976027223799,0.8763108487046415,-0.00018993427891181902,0.0008116489910259909,-0.0001057065297191713,-0.0008212099052648175,-0.000374224290524657,-0.00012674123186893365,0.0010914139138306627,0.0,0.0,0.0,0.0,0.0,0.0,0.0,0.000162845201659656,9.325615447328822e-05,2.285726079598316e-05,0.0002162015289322028,-2.505044279831753e-05,7.461509695882995e-05,-1.3631025047033951e-05,0.00018993427891181902,-0.0008116489910259909,0.0001057065297191713,0.0008212099052648175,0.000374224290524657,0.00012674123186893365,-0.0010914139138306627,0.018151462078094482,18.154138565063477,-0.9934418201446533,-18.297456741333008,-0.5102439522743225,-2.2753939628601074,0.25485557317733765,0
64,0.31500911712646484,-0.018151462078094482,-18.130334854125977,0.9180634021759033,18.297456741333008,0.5047507882118225,2.2625765800476074,-0.22830526530742645,0.0,0.0,0.0,0.0,0.0,0.0,0.0,-0.03685789717686284,0.545120607945732,0.1629959218311268,0.6497071111556982,0.07530004002484221,0.08557862220701816,-0.2135105160560683,-0.6092480200173562,-0.05762620590906202,-0.6666206646300198,-2.594772734446919,-0.05559577872947388,2.5079000150962596,0.8763204702188543,-0.6090851748156966,-0.05753196718556838,-0.666603097082616,-2.5945565370258534,-0.05562143941554,2.507976027223799,0.8763108487046415,0.0003230196089494289,6.81071830236455e-05,0.001731984197272077,-0.00026468807220463996,-0.00029865882003730237,0.00010377733913119408,0.0010132412772619634,0.0,0.0,0.0,0.0,0.0,0.0,0.0,0.000162845201659656,9.423872349363649e-05,1.7567547403785078e-05,0.00021619742106571138,-2.5660686066117377e-05,7.601212753938213e-05,-9.621514212798665e-06,-0.0003230196089494289,-6.81071830236455e-05,-0.001731984197272077,0.00026468807220463996,0.00029865882003730237,-0.00010377733913119408,-0.0010132412772619634,0.018151462078094482,18.130334854125977,-0.9180634021759033,-18.297456741333008,-0.5047507882118225,-2.2625765800476074,0.22830526530742645,0
65,0.3199961185455322,-0.018151462078094482,-18.130334854125977,0.9180634021759033,18.297456741333008,0.5047507882118225,2.2625765800476074,-0.22830526530742645,0.0,0.0,0.0,0.0,0.0,0.0,0.0,-0.03685789717686284,0.545120607945732,0.1629959218311268,0.6497071111556982,0.07530004002484221,0.08557862220701816,-0.2135105160560683,-0.6092480200173562,-0.05762620590906202,-0.6666206646300198,-2.594772734446919,-0.05559577872947388,2.5079000150962596,0.8763204702188543,-0.6090851748156966,-0.05753196718556838,-0.666603097082616,-2.5945565370258534,-0.05562143941554,2.507976027223799,0.8763108487046415,0.0003230196089494289,6.81071830236455e-05,0.001731984197272077,-0.00026468807220463996,-0.00029865882003730237,0.00010377733913119408,0.0010132412772619634,0.0,0.0,0.0,0.0,0.0,0.0,0.0,0.000162845201659656,9.423872349363649e-05,1.7567547403785078e-05,0.00021619742106571138,-2.5660686066117377e-05,7.601212753938213e-05,-9.621514212798665e-06,-0.0003230196089494289,-6.81071830236455e-05,-0.001731984197272077,0.00026468807220463996,0.00029865882003730237,-0.00010377733913119408,-0.0010132412772619634,0.018151462078094482,18.130334854125977,-0.9180634021759033,-18.297456741333008,-0.5047507882118225,-2.2625765800476074,0.22830526530742645,0
66,0.32501649856567383,-0.04592245817184448,-18.106531143188477,1.0172455310821533,18.297456741333008,0.5047507882118225,2.2689852714538574,-0.22098104655742645,0.0,0.0,0.0,0.0,0.0,0.0,0.0,-0.02894668712101695,0.5507550669984929,0.16795332757898435,0.6429432440291919,0.07511232131209851,0.08407998646816295,-0.21161241691436272,-0.6092460711755251,-0.05762879805166272,-0.6666276218359776,-2.594772728341801,-0.055599134339022235,2.507902519565293,0.8763207160529092,-0.6090851748156966,-0.05753196718556838,-0.666603097082616,-2.5945565370258534,-0.05562143941554,2.507976027223799,0.8763108487046415,0.0007511600432296179,0.0003673622464201856,-0.00017017836082844673,-0.0010315655298007906,-0.00026109688176040844,-4.369683037469488e-05,3.4505341451254724e-05,0.0,0.0,0.0,0.0,0.0,0.0,0.0,0.0001608963598285218,9.683086609433428e-05,2.4524753361565566e-05,0.0002161913159475226,-2.2305076517764588e-05,7.350765850588914e-05,-9.867348267689202e-06,-0.0007511600432296179,-0.0003673622464201856,0.00017017836082844673,0.0010315655298007906,0.00026109688176040844,4.369683037469488e-05,-3.4505341451254724e-05,0.04592245817184448,18.106531143188477,-1.0172455310821533,-18.297456741333008,-0.5047507882118225,-2.2689852714538574,0.22098104655742645,0
67,0.33000898361206055,-0.04592245817184448,-18.106531143188477,1.0172455310821533,18.297456741333008,0.5047507882118225,2.2689852714538574,-0.22098104655742645,0.0,0.0,0.0,0.0,0.0,0.0,0.0,-0.02894668712101695,0.5507550669984929,0.16795332757898435,0.6429432440291919,0.07511232131209851,0.08407998646816295,-0.21161241691436272,-0.6092460711755251,-0.05762879805166272,-0.6666276218359776,-2.594772728341801,-0.055599134339022235,2.507902519565293,0.8763207160529092,-0.6090851748156966,-0.05753196718556838,-0.666603097082616,-2.5945565370258534,-0.05562143941554,2.507976027223799,0.8763108487046415,0.0007511600432296179,0.0003673622464201856,-0.00017017836082844673,-0.0010315655298007906,-0.00026109688176040844,-4.369683037469488e-05,3.4505341451254724e-05,0.0,0.0,0.0,0.0,0.0,0.0,0.0,0.0001608963598285218,9.683086609433428e-05,2.4524753361565566e-05,0.0002161913159475226,-2.2305076517764588e-05,7.350765850588914e-05,-9.867348267689202e-06,-0.0007511600432296179,-0.0003673622464201856,0.00017017836082844673,0.0010315655298007906,0.00026109688176040844,4.369683037469488e-05,-3.4505341451254724e-05,0.04592245817184448,18.106531143188477,-1.0172455310821533,-18.297456741333008,-0.5047507882118225,-2.2689852714538574,0.22098104655742645,0
68,0.3350231647491455,-0.04592245817184448,-18.106531143188477,0.9934418201446533,18.297456741333008,0.4983420968055725,2.2625765800476074,-0.24112264811992645,0.0,0.0,0.0,0.0,0.0,0.0,0.0,-0.031598110629708465,0.5488299658121619,0.1688394729748388,0.6463608892867072,0.07578022600415843,0.08463600227099774,-0.21355759615544606,-0.6092460711755251,-0.05762786756907902,-0.6666259543435449,-2.5947749505294166,-0.05559826431657496,2.5079032289025673,0.8763229540106322,-0.6090851748156966,-0.05753196718556838,-0.666603097082616,-2.5945565370258534,-0.05562143941554,2.507976027223799,0.8763108487046415,0.00014176810110142952,0.00027172879784056884,0.00025654667416926514,-0.0005006180426653861,7.386844755555238e-05,3.0169683101210402e-05,0.0011344334086648995,0.0,0.0,0.0,0.0,0.0,0.0,0.0,0.0001608963598285218,9.59003835106359e-05,2.2857260928876855e-05,0.00021841350356321954,-2.3175098965037833e-05,7.279832123163743e-05,-1.2105305990717241e-05,-0.00014176810110142952,-0.00027172879784056884,-0.00025654667416926514,0.0005006180426653861,-7.386844755555238e-05,-3.0169683101210402e-05,-0.0011344334086648995,0.04592245817184448,18.106531143188477,-0.9934418201446533,-18.297456741333008,-0.4983420968055725,-2.2625765800476074,0.24112264811992645,0
69,0.3399956226348877,-0.04592245817184448,-18.106531143188477,0.9934418201446533,18.297456741333008,0.4983420968055725,2.2625765800476074,-0.24112264811992645,0.0,0.0,0.0,0.0,0.0,0.0,0.0,-0.031598110629708465,0.5488299658121619,0.1688394729748388,0.6463608892867072,0.07578022600415843,0.08463600227099774,-0.21355759615544606,-0.6092460711755251,-0.05762786756907902,-0.6666259543435449,-2.5947749505294166,-0.05559826431657496,2.5079032289025673,0.8763229540106322,-0.6090851748156966,-0.05753196718556838,-0.666603097082616,-2.5945565370258534,-0.05562143941554,2.507976027223799,0.8763108487046415,0.00014176810110142952,0.00027172879784056884,0.00025654667416926514,-0.0005006180426653861,7.386844755555238e-05,3.0169683101210402e-05,0.0011344334086648995,0.0,0.0,0.0,0.0,0.0,0.0,0.0,0.0001608963598285218,9.59003835106359e-05,2.2857260928876855e-05,0.00021841350356321954,-2.3175098965037833e-05,7.279832123163743e-05,-1.2105305990717241e-05,-0.00014176810110142952,-0.00027172879784056884,-0.00025654667416926514,0.0005006180426653861,-7.386844755555238e-05,-3.0169683101210402e-05,-0.0011344334086648995,0.04592245817184448,18.106531143188477,-0.9934418201446533,-18.297456741333008,-0.4983420968055725,-2.2625765800476074,0.24112264811992645,0
70,0.3450124263763428,-0.04592245817184448,-18.078760147094727,0.9934418201446533,18.269685745239258,0.5047507882118225,2.2625765800476074,-0.20083944499492645,0.0,0.0,0.0,0.0,0.0,0.0,0.0,-0.031428314684870964,0.5475742439149995,0.1715259459765219,0.6500594530787649,0.07582547171426415,0.08498064339415098,-0.21376770052519903,-0.6092460712111909,-0.057631921084908985,-0.6666259543435614,-2.5947732489406525,-0.05559696189878734,2.507900002003077,0.8763184780991738,-0.6090851748156966,-0.05753196718556838,-0.666603097082616,-2.5945565370258534,-0.05562143941554,2.507976027223799,0.8763108487046415,0.00033301194827670057,-0.00046901304199114245,-0.0004174193759128682,0.0003058629137447145,-0.00019142678448295523,0.00012424335779954342,-0.0004993371091920447,0.0,0.0,0.0,0.0,0.0,0.0,0.0,0.00016089639549432544,9.995389934060184e-05,2.2857260945419178e-05,0.0002167119147991059,-2.447751675265647e-05,7.60252207219203e-05,-7.629394532360223e-06,-0.00033301194827670057,0.00046901304199114245,0.0004174193759128682,-0.0003058629137447145,0.00019142678448295523,-0.00012424335779954342,0.0004993371091920447,0.04592245817184448,18.078760147094727,-0.9934418201446533,-18.269685745239258,-0.5047507882118225,-2.2625765800476074,0.20083944499492645,0
71,0.34999847412109375,-0.04592245817184448,-18.078760147094727,0.9934418201446533,18.269685745239258,0.5047507882118225,2.2625765800476074,-0.20083944499492645,0.0,0.0,0.0,0.0,0.0,0.0,0.0,-0.031428314684870964,0.5475742439149995,0.1715259459765219,0.6500594530787649,0.07582547171426415,0.08498064339415098,-0.21376770052519903,-0.6092460712111909,-0.057631921084908985,-0.6666259543435614,-2.5947732489406525,-0.05559696189878734,2.507900002003077,0.8763184780991738,-0.6090851748156966,-0.05753196718556838,-0.666603097082616,-2.5945565370258534,-0.05562143941554,2.507976027223799,0.8763108487046415,0.00033301194827670057,-0.00046901304199114245,-0.0004174193759128682,0.0003058629137447145,-0.00019142678448295523,0.00012424335779954342,-0.0004993371091920447,0.0,0.0,0.0,0.0,0.0,0.0,0.0,0.00016089639549432544,9.995389934060184e-05,2.2857260945419178e-05,0.0002167119147991059,-2.447751675265647e-05,7.60252207219203e-05,-7.629394532360223e-06,-0.00033301194827670057,0.00046901304199114245,0.0004174193759128682,-0.0003058629137447145,0.00019142678448295523,-0.00012424335779954342,0.0004993371091920447,0.04592245817184448,18.078760147094727,-0.9934418201446533,-18.269685745239258,-0.5047507882118225,-2.2625765800476074,0.20083944499492645,0
72,0.3549923896789551,-0.09352988004684448,-18.106531143188477,0.9418671131134033,18.269685745239258,0.4983420968055725,2.2689852714538574,-0.20724813640117645,0.0,0.0,0.0,0.0,0.0,0.0,0.0,-0.03452196316885444,0.5491658328767406,0.16772915706487648,0.6474603923420857,0.07547828557102945,0.084236825238791,-0.2135425488872675,-0.6092427303038147,-0.05763092243412423,-0.666622335065875,-2.5947715456802443,-0.05559542045445277,2.507902521168164,0.8763191901759968,-0.6090851748156966,-0.05753196718556838,-0.666603097082616,-2.5945565370258534,-0.05562143941554,2.507976027223799,0.8763108487046415,0.0007183069536362138,-0.00014318330500369235,0.0009615744108043097,1.5958091758158474e-05,-9.635381234479012e-07,-8.962290822468696e-05,-0.00023287008141478947,0.0,0.0,0.0,0.0,0.0,0.0,0.0,0.00015755548811813291,9.895524855584731e-05,1.923798325897952e-05,0.00021500865439083583,-2.6018961087233283e-05,7.35060556351641e-05,-8.341471355310937e-06,-0.0007183069536362138,0.00014318330500369235,-0.0009615744108043097,-1.5958091758158474e-05,9.635381234479012e-07,8.962290822468696e-05,0.00023287008141478947,0.09352988004684448,18.106531143188477,-0.9418671131134033,-18.269685745239258,-0.4983420968055725,-2.2689852714538574,0.20724813640117645,0
73,0.36000514030456543,-0.09352988004684448,-18.106531143188477,0.9418671131134033,18.269685745239258,0.4983420968055725,2.2689852714538574,-0.20724813640117645,0.0,0.0,0.0,0.0,0.0,0.0,0.0,-0.03452196316885444,0.5491658328767406,0.16772915706487648,0.6474603923420857,0.07547828557102945,0.084236825238791,-0.2135425488872675,-0.6092427303038147,-0.05763092243412423,-0.666622335065875,-2.5947715456802443,-0.05559542045445277,2.507902521168164,0.8763191901759968,-0.6090851748156966,-0.05753196718556838,-0.666603097082616,-2.5945565370258534,-0.05562143941554,2.507976027223799,0.8763108487046415,0.0007183069536362138,-0.00014318330500369235,0.0009615744108043097,1.5958091758158474e-05,-9.635381234479012e-07,-8.962290822468696e-05,-0.00023287008141478947,0.0,0.0,0.0,0.0,0.0,0.0,0.0,0.00015755548811813291,9.895524855584731e-05,1.923798325897952e-05,0.00021500865439083583,-2.6018961087233283e-05,7.35060556351641e-05,-8.341471355310937e-06,-0.0007183069536362138,0.00014318330500369235,-0.0009615744108043097,-1.5958091758158474e-05,9.635381234479012e-07,8.962290822468696e-05,0.00023287008141478947,0.09352988004684448,18.106531143188477,-0.9418671131134033,-18.269685745239258,-0.4983420968055725,-2.2689852714538574,0.20724813640117645,0
74,0.3650045394897461,-0.018151462078094482,-18.154138565063477,0.9934418201446533,18.321260452270508,0.4983420968055725,2.2625765800476074,-0.17337362468242645,0.0,0.0,0.0,0.0,0.0,0.0,0.0,-0.03605861555054549,0.5447025118195831,0.1650081750010729,0.6517135360286637,0.07562995709575104,0.08562429336404898,-0.21285302914157808,-0.6092480200173562,-0.05762671439990165,-0.6666259543435614,-2.5947753847222184,-0.05559522299271713,2.507900048516693,0.8763154263413614,-0.6090851748156966,-0.05753196718556838,-0.666603097082616,-2.5945565370258534,-0.05562143941554,2.507976027223799,0.8763108487046415,-0.0008358298248145225,0.0005712547533501161,-0.0006619028862982478,-0.0009671478818644557,4.464410592288329e-05,0.0003130423817947438,-0.001089782553093923,0.0,0.0,0.0,0.0,0.0,0.0,0.0,0.000162845201659656,9.47472143332656e-05,2.2857260945419178e-05,0.00021884769636493218,-2.6216422822869512e-05,7.597870710585042e-05,-4.577636719904632e-06,0.0008358298248145225,-0.0005712547533501161,0.0006619028862982478,0.0009671478818644557,-4.464410592288329e-05,-0.0003130423817947438,0.001089782553093923,0.018151462078094482,18.154138565063477,-0.9934418201446533,-18.321260452270508,-0.4983420968055725,-2.2625765800476074,0.17337362468242645,0
75,0.3699977397918701,-0.018151462078094482,-18.154138565063477,0.9934418201446533,18.321260452270508,0.4983420968055725,2.2625765800476074,-0.17337362468242645,0.0,0.0,0.0,0.0,0.0,0.0,0.0,-0.03605861555054549,0.5447025118195831,0.1650081750010729,0.6517135360286637,0.07562995709575104,0.08562429336404898,-0.21285302914157808,-0.6092480200173562,-0.05762671439990165,-0.6666259543435614,-2.5947753847222184,-0.05559522299271713,2.507900048516693,0.8763154263413614,-0.6090851748156966,-0.05753196718556838,-0.666603097082616,-2.5945565370258534,-0.05562143941554,2.507976027223799,0.8763108487046415,-0.0008358298248145225,0.0005712547533501161,-0.0006619028862982478,-0.0009671478818644557,4.464410592288329e-05,0.0003130423817947438,-0.001089782553093923,0.0,0.0,0.0,0.0,0.0,0.0,0.0,0.000162845201659656,9.47472143332656e-05,2.2857260945419178e-05,0.00021884769636493218,-2.6216422822869512e-05,7.597870710585042e-05,-4.577636719904632e-06,0.0008358298248145225,-0.0005712547533501161,0.0006619028862982478,0.0009671478818644557,-4.464410592288329e-05,-0.0003130423817947438,0.001089782553093923,0.018151462078094482,18.154138565063477,-0.9934418201446533,-18.321260452270508,-0.4983420968055725,-2.2625765800476074,0.17337362468242645,0
76,0.37499427795410156,-0.018151462078094482,-18.177942276000977,0.9934418201446533,18.269685745239258,0.4864402413368225,2.2689852714538574,-0.20724813640117645,0.0,0.0,0.0,0.0,0.0,0.0,0.0,-0.0341626888863661,0.5456437518518049,0.165604407080664,0.6505210847818125,0.07520018943472535,0.08556883202207968,-0.21147711687075946,-0.6092480200173562,-0.05762499603691265,-0.6666259543435614,-2.5947708039363455,-0.0555941025724741,2.507902403233395,0.8763191901759968,-0.6090851748156966,-0.05753196718556838,-0.666603097082616,-2.5945565370258534,-0.05562143941554,2.507976027223799,0.8763108487046415,-0.0005729237062351722,0.0012417782624721838,8.807050448105219e-05,0.0004865173816653565,0.0005149873003050861,2.7929160955475974e-05,-0.0007094102328723366,0.0,0.0,0.0,0.0,0.0,0.0,0.0,0.000162845201659656,9.302885134426786e-05,2.2857260945419178e-05,0.00021426691049208912,-2.7336843065897676e-05,7.362399040378165e-05,-8.341471355310937e-06,0.0005729237062351722,-0.0012417782624721838,-8.807050448105219e-05,-0.0004865173816653565,-0.0005149873003050861,-2.7929160955475974e-05,0.0007094102328723366,0.018151462078094482,18.177942276000977,-0.9934418201446533,-18.269685745239258,-0.4864402413368225,-2.2689852714538574,0.20724813640117645,0
77,0.37999629974365234,-0.018151462078094482,-18.177942276000977,0.9934418201446533,18.269685745239258,0.4864402413368225,2.2689852714538574,-0.20724813640117645,0.0,0.0,0.0,0.0,0.0,0.0,0.0,-0.0341626888863661,0.5456437518518049,0.165604407080664,0.6505210847818125,0.07520018943472535,0.08556883202207968,-0.21147711687075946,-0.6092480200173562,-0.05762499603691265,-0.6666259543435614,-2.5947708039363455,-0.0555941025724741,2.507902403233395,0.8763191901759968,-0.6090851748156966,-0.05753196718556838,-0.666603097082616,-2.5945565370258534,-0.05562143941554,2.507976027223799,0.8763108487046415,-0.0005729237062351722,0.0012417782624721838,8.807050448105219e-05,0.0004865173816653565,0.0005149873003050861,2.7929160955475974e-05,-0.0007094102328723366,0.0,0.0,0.0,0.0,0.0,0.0,0.0,0.000162845201659656,9.302885134426786e-05,2.2857260945419178e-05,0.00021426691049208912,-2.7336843065897676e-05,7.362399040378165e-05,-8.341471355310937e-06,0.0005729237062351722,-0.0012417782624721838,-8.807050448105219e-05,-0.0004865173816653565,-0.0005149873003050861,-2.7929160955475974e-05,0.0007094102328723366,0.018151462078094482,18.177942276000977,-0.9934418201446533,-18.269685745239258,-0.4864402413368225,-2.2689852714538574,0.20724813640117645,0
78,0.3849928379058838,-0.04592245817184448,-18.106531143188477,0.9696381092071533,18.321260452270508,0.5047507882118225,2.2689852714538574,-0.22830526530742645,0.0,0.0,0.0,0.0,0.0,0.0,0.0,-0.03641840226442675,0.5445454407117089,0.16519148814653936,0.6494162959599408,0.07505800996667582,0.08521129759132338,-0.21461840368770224,-0.6092460711755251,-0.05763095558957561,-0.6666242839077061,-2.594774404995656,-0.05559700725318488,2.507901448466101,0.8763215298569863,-0.6090851748156966,-0.05753196718556838,-0.666603097082616,-2.5945565370258534,-0.05562143941554,2.507976027223799,0.8763108487046415,0.0006869056051824515,-0.00015549851368621152,0.0005766769551073088,-0.0007402786493104323,-0.00013090917518307997,0.00013275932651604452,0.00019052344574450392,0.0,0.0,0.0,0.0,0.0,0.0,0.0,0.0001608963598285218,9.898840400722475e-05,2.1186825090113715e-05,0.00021786796980238776,-2.4432162355120246e-05,7.457875769789624e-05,-1.0681152344815814e-05,-0.0006869056051824515,0.00015549851368621152,-0.0005766769551073088,0.0007402786493104323,0.00013090917518307997,-0.00013275932651604452,-0.00019052344574450392,0.04592245817184448,18.106531143188477,-0.9696381092071533,-18.321260452270508,-0.5047507882118225,-2.2689852714538574,0.22830526530742645,0
79,0.3900330066680908,-0.04592245817184448,-18.106531143188477,0.9696381092071533,18.321260452270508,0.5047507882118225,2.2689852714538574,-0.22830526530742645,0.0,0.0,0.0,0.0,0.0,0.0,0.0,-0.03641840226442675,0.5445454407117089,0.16519148814653936,0.6494162959599408,0.07505800996667582,0.08521129759132338,-0.21461840368770224,-0.6092460711755251,-0.05763095558957561,-0.6666242839077061,-2.594774404995656,-0.05559700725318488,2.507901448466101,0.8763215298569863,-0.6090851748156966,-0.05753196718556838,-0.666603097082616,-2.5945565370258534,-0.05562143941554,2.507976027223799,0.8763108487046415,0.0006869056051824515,-0.00015549851368621152,0.0005766769551073088,-0.0007402786493104323,-0.00013090917518307997,0.00013275932651604452,0.00019052344574450392,0.0,0.0,0.0,0.0,0.0,0.0,0.0,0.0001608963598285218,9.898840400722475e-05,2.1186825090113715e-05,0.00021786796980238776,-2.4432162355120246e-05,7.457875769789624e-05,-1.0681152344815814e-05,-0.0006869056051824515,0.00015549851368621152,-0.0005766769551073088,0.0007402786493104323,0.00013090917518307997,-0.00013275932651604452,-0.00019052344574450392,0.04592245817184448,18.106531143188477,-0.9696381092071533,-18.321260452270508,-0.5047507882118225,-2.2689852714538574,0.22830526530742645,0
