rezayati/contactInterpretation/dataset/franka_main/labeled_data/link6/b2_7.csv
index,time,tau_J0,tau_J1,tau_J2,tau_J3,tau_J4,tau_J5,tau_J6,tau_J_d0,tau_J_d1,tau_J_d2,tau_J_d3,tau_J_d4,tau_J_d5,tau_J_d6,tau_ext0,tau_ext1,tau_ext2,tau_ext3,tau_ext4,tau_ext5,tau_ext6,q0,q1,q2,q3,q4,q5,q6,q_d0,q_d1,q_d2,q_d3,q_d4,q_d5,q_d6,dq0,dq1,dq2,dq3,dq4,dq5,dq6,dq_d0,dq_d1,dq_d2,dq_d3,dq_d4,dq_d5,dq_d6,e0,e1,e2,e3,e4,e5,e6,de0,de1,de2,de3,de4,de5,de6,etau_J0,etau_J1,etau_J2,etau_J3,etau_J4,etau_J5,etau_J6,label
1,0.0,-0.17287558317184448,-11.873926162719727,1.1918060779571533,21.840242385864258,0.2841086983680725,2.5271639823913574,-0.34457725286483765,0.0,0.0,0.0,0.0,0.0,0.0,0.0,-0.1483846650406202,0.5030822173896561,0.02658954968326423,0.52880234004349,-0.25063883371762763,0.1268443032059466,-0.31444912922685464,0.17285344255299775,-0.48746490907284207,-0.11142189330385441,-1.9466461893030604,0.13363569277524948,2.595545591407352,0.9452639556578706,0.1728802376190821,-0.48752024683155326,-0.11147110072896137,-1.9463801863486305,0.1336059019074957,2.595550359778934,0.9452445589611904,-0.0002313351717513558,-8.986995026245799e-05,0.0004660118495614818,-0.0007478631905977364,0.00026340461480211277,0.00011651132093794332,0.0016669941924536526,0.0,0.0,0.0,0.0,0.0,0.0,0.0,2.6795066084356334e-05,-5.533775871119362e-05,-4.920742510695908e-05,0.0002660029544299114,-2.9790867753787253e-05,4.76837158203125e-06,-1.939669668016286e-05,0.0002313351717513558,8.986995026245799e-05,-0.0004660118495614818,0.0007478631905977364,-0.00026340461480211277,-0.00011651132093794332,-0.0016669941924536526,0.17287558317184448,11.873926162719727,-1.1918060779571533,-21.840242385864258,-0.2841086983680725,-2.5271639823913574,0.34457725286483765,0
2,0.004996776580810547,-0.14510458707809448,-11.826318740844727,1.2433807849884033,21.816438674926758,0.2786155343055725,2.5271639823913574,-0.26858848333358765,0.0,0.0,0.0,0.0,0.0,0.0,0.0,-0.14676699107406396,0.5191550720454978,0.03389084733298861,0.5168875248386853,-0.25107968720169416,0.1255550360863261,-0.31492900708837435,0.17285149327914162,-0.4874681712079728,-0.11142551258154082,-1.9466464370811238,0.133636303126812,2.595545591407352,0.9452558791272228,0.1728802376190821,-0.48752024683155326,-0.11147110072896137,-1.9463801863486305,0.1336059019074957,2.595550359778934,0.9452445589611904,0.0003209231475177058,-0.0002124519496979204,0.00012209217895537325,0.00019667534024372886,0.00013151825518880112,0.00022010680419116185,-0.0016029548107944999,0.0,0.0,0.0,0.0,0.0,0.0,0.0,2.8744339940489638e-05,-5.2075623580449815e-05,-4.5588147420547176e-05,0.00026625073249331166,-3.0401219316300576e-05,4.76837158203125e-06,-1.1320166032335877e-05,-0.0003209231475177058,0.0002124519496979204,-0.00012209217895537325,-0.00019667534024372886,-0.00013151825518880112,-0.00022010680419116185,0.0016029548107944999,0.14510458707809448,11.826318740844727,-1.2433807849884033,-21.816438674926758,-0.2786155343055725,-2.5271639823913574,0.26858848333358765,0
3,0.009999752044677734,-0.14510458707809448,-11.826318740844727,1.2433807849884033,21.816438674926758,0.2786155343055725,2.5271639823913574,-0.26858848333358765,0.0,0.0,0.0,0.0,0.0,0.0,0.0,-0.14676699107406396,0.5191550720454978,0.03389084733298861,0.5168875248386853,-0.25107968720169416,0.1255550360863261,-0.31492900708837435,0.17285149327914162,-0.4874681712079728,-0.11142551258154082,-1.9466464370811238,0.133636303126812,2.595545591407352,0.9452558791272228,0.1728802376190821,-0.48752024683155326,-0.11147110072896137,-1.9463801863486305,0.1336059019074957,2.595550359778934,0.9452445589611904,0.0003209231475177058,-0.0002124519496979204,0.00012209217895537325,0.00019667534024372886,0.00013151825518880112,0.00022010680419116185,-0.0016029548107944999,0.0,0.0,0.0,0.0,0.0,0.0,0.0,2.8744339940489638e-05,-5.2075623580449815e-05,-4.5588147420547176e-05,0.00026625073249331166,-3.0401219316300576e-05,4.76837158203125e-06,-1.1320166032335877e-05,-0.0003209231475177058,0.0002124519496979204,-0.00012209217895537325,-0.00019667534024372886,-0.00013151825518880112,-0.00022010680419116185,0.0016029548107944999,0.14510458707809448,11.826318740844727,-1.2433807849884033,-21.816438674926758,-0.2786155343055725,-2.5271639823913574,0.26858848333358765,0
4,0.014997005462646484,-0.12130087614059448,-11.774744033813477,1.2671844959259033,21.816438674926758,0.2905173897743225,2.5079379081726074,-0.29605430364608765,0.0,0.0,0.0,0.0,0.0,0.0,0.0,-0.14698426737049278,0.5447992857269494,0.02656239632873162,0.503158440499999,-0.25097473054081554,0.1234590368067774,-0.314907433027367,0.17284983159183945,-0.4874725875758309,-0.11142718301739607,-1.9466466665711974,0.13363498086043685,2.595547727637821,0.9452607498760336,0.1728802376190821,-0.48752024683155326,-0.11147110072896137,-1.9463801863486305,0.1336059019074957,2.595550359778934,0.9452445589611904,0.0003343454860153438,0.0007949724067763093,-0.0008024999486536181,-0.0006241384994852435,-0.0002989140206226206,0.0003494282163705858,-0.0006075789741470999,0.0,0.0,0.0,0.0,0.0,0.0,0.0,3.040602724266317e-05,-4.76592557223654e-05,-4.3917711565297224e-05,0.0002664802225669227,-2.9078952941158365e-05,2.632141113068087e-06,-1.61909148431727e-05,-0.0003343454860153438,-0.0007949724067763093,0.0008024999486536181,0.0006241384994852435,0.0002989140206226206,-0.0003494282163705858,0.0006075789741470999,0.12130087614059448,11.774744033813477,-1.2671844959259033,-21.816438674926758,-0.2905173897743225,-2.5079379081726074,0.29605430364608765,0
5,0.019996166229248047,-0.12130087614059448,-11.774744033813477,1.2671844959259033,21.816438674926758,0.2905173897743225,2.5079379081726074,-0.29605430364608765,0.0,0.0,0.0,0.0,0.0,0.0,0.0,-0.14698426737049278,0.5447992857269494,0.02656239632873162,0.503158440499999,-0.25097473054081554,0.1234590368067774,-0.314907433027367,0.17284983159183945,-0.4874725875758309,-0.11142718301739607,-1.9466466665711974,0.13363498086043685,2.595547727637821,0.9452607498760336,0.1728802376190821,-0.48752024683155326,-0.11147110072896137,-1.9463801863486305,0.1336059019074957,2.595550359778934,0.9452445589611904,0.0003343454860153438,0.0007949724067763093,-0.0008024999486536181,-0.0006241384994852435,-0.0002989140206226206,0.0003494282163705858,-0.0006075789741470999,0.0,0.0,0.0,0.0,0.0,0.0,0.0,3.040602724266317e-05,-4.76592557223654e-05,-4.3917711565297224e-05,0.0002664802225669227,-2.9078952941158365e-05,2.632141113068087e-06,-1.61909148431727e-05,-0.0003343454860153438,-0.0007949724067763093,0.0008024999486536181,0.0006241384994852435,0.0002989140206226206,-0.0003494282163705858,0.0006075789741470999,0.12130087614059448,11.774744033813477,-1.2671844959259033,-21.816438674926758,-0.2905173897743225,-2.5079379081726074,0.29605430364608765,0
6,0.025413990020751953,-0.12130087614059448,-11.774744033813477,1.2671844959259033,21.816438674926758,0.2905173897743225,2.5079379081726074,-0.29605430364608765,0.0,0.0,0.0,0.0,0.0,0.0,0.0,-0.14698426737049278,0.5447992857269494,0.02656239632873162,0.503158440499999,-0.25097473054081554,0.1234590368067774,-0.314907433027367,0.17284983159183945,-0.4874725875758309,-0.11142718301739607,-1.9466466665711974,0.13363498086043685,2.595547727637821,0.9452607498760336,0.1728802376190821,-0.48752024683155326,-0.11147110072896137,-1.9463801863486305,0.1336059019074957,2.595550359778934,0.9452445589611904,0.0003343454860153438,0.0007949724067763093,-0.0008024999486536181,-0.0006241384994852435,-0.0002989140206226206,0.0003494282163705858,-0.0006075789741470999,0.0,0.0,0.0,0.0,0.0,0.0,0.0,3.040602724266317e-05,-4.76592557223654e-05,-4.3917711565297224e-05,0.0002664802225669227,-2.9078952941158365e-05,2.632141113068087e-06,-1.61909148431727e-05,-0.0003343454860153438,-0.0007949724067763093,0.0008024999486536181,0.0006241384994852435,0.0002989140206226206,-0.0003494282163705858,0.0006075789741470999,0.12130087614059448,11.774744033813477,-1.2671844959259033,-21.816438674926758,-0.2905173897743225,-2.5079379081726074,0.29605430364608765,0
7,0.030001163482666016,-0.12130087614059448,-11.774744033813477,1.2671844959259033,21.816438674926758,0.2905173897743225,2.5079379081726074,-0.29605430364608765,0.0,0.0,0.0,0.0,0.0,0.0,0.0,-0.14698426737049278,0.5447992857269494,0.02656239632873162,0.503158440499999,-0.25097473054081554,0.1234590368067774,-0.314907433027367,0.17284983159183945,-0.4874725875758309,-0.11142718301739607,-1.9466466665711974,0.13363498086043685,2.595547727637821,0.9452607498760336,0.1728802376190821,-0.48752024683155326,-0.11147110072896137,-1.9463801863486305,0.1336059019074957,2.595550359778934,0.9452445589611904,0.0003343454860153438,0.0007949724067763093,-0.0008024999486536181,-0.0006241384994852435,-0.0002989140206226206,0.0003494282163705858,-0.0006075789741470999,0.0,0.0,0.0,0.0,0.0,0.0,0.0,3.040602724266317e-05,-4.76592557223654e-05,-4.3917711565297224e-05,0.0002664802225669227,-2.9078952941158365e-05,2.632141113068087e-06,-1.61909148431727e-05,-0.0003343454860153438,-0.0007949724067763093,0.0008024999486536181,0.0006241384994852435,0.0002989140206226206,-0.0003494282163705858,0.0006075789741470999,0.12130087614059448,11.774744033813477,-1.2671844959259033,-21.816438674926758,-0.2905173897743225,-2.5079379081726074,0.29605430364608765,0
8,0.035437583923339844,-0.14510458707809448,-11.750940322875977,1.1680023670196533,21.816438674926758,0.2905173897743225,2.5207552909851074,-0.32352012395858765,0.0,0.0,0.0,0.0,0.0,0.0,0.0,-0.15180716541851733,0.5199810636383729,0.013811491107969679,0.5216040601852577,-0.2496203408981747,0.12497354427013829,-0.31479833981641053,0.17285149327918858,-0.4874744175423158,-0.11142022286799914,-1.9466453130628425,0.13363498069842747,2.595546303484175,0.945264995045205,0.1728802376190821,-0.48752024683155326,-0.11147110072896137,-1.9463801863486305,0.1336059019074957,2.595550359778934,0.9452445589611904,-0.0004898165795472902,-4.8037910416288345e-05,0.0011070807867931917,-0.0003402240956694959,-0.00015800726511503842,8.97396334779042e-05,0.0004613350668380807,0.0,0.0,0.0,0.0,0.0,0.0,0.0,2.8744339893527204e-05,-4.582928923746454e-05,-5.087786096222291e-05,0.00026512671421197176,-2.907879093178023e-05,4.056294759191559e-06,-2.043608401458563e-05,0.0004898165795472902,4.8037910416288345e-05,-0.0011070807867931917,0.0003402240956694959,0.00015800726511503842,-8.97396334779042e-05,-0.0004613350668380807,0.14510458707809448,11.750940322875977,-1.1680023670196533,-21.816438674926758,-0.2905173897743225,-2.5207552909851074,0.32352012395858765,0
9,0.0400388240814209,-0.14510458707809448,-11.750940322875977,1.1680023670196533,21.816438674926758,0.2905173897743225,2.5207552909851074,-0.32352012395858765,0.0,0.0,0.0,0.0,0.0,0.0,0.0,-0.15180716541851733,0.5199810636383729,0.013811491107969679,0.5216040601852577,-0.2496203408981747,0.12497354427013829,-0.31479833981641053,0.17285149327918858,-0.4874744175423158,-0.11142022286799914,-1.9466453130628425,0.13363498069842747,2.595546303484175,0.945264995045205,0.1728802376190821,-0.48752024683155326,-0.11147110072896137,-1.9463801863486305,0.1336059019074957,2.595550359778934,0.9452445589611904,-0.0004898165795472902,-4.8037910416288345e-05,0.0011070807867931917,-0.0003402240956694959,-0.00015800726511503842,8.97396334779042e-05,0.0004613350668380807,0.0,0.0,0.0,0.0,0.0,0.0,0.0,2.8744339893527204e-05,-4.582928923746454e-05,-5.087786096222291e-05,0.00026512671421197176,-2.907879093178023e-05,4.056294759191559e-06,-2.043608401458563e-05,0.0004898165795472902,4.8037910416288345e-05,-0.0011070807867931917,0.0003402240956694959,0.00015800726511503842,-8.97396334779042e-05,-0.0004613350668380807,0.14510458707809448,11.750940322875977,-1.1680023670196533,-21.816438674926758,-0.2905173897743225,-2.5207552909851074,0.32352012395858765,0
10,0.04502725601196289,-0.22445029020309448,-11.873926162719727,1.1680023670196533,21.840242385864258,0.2841086983680725,2.5399813652038574,-0.32352012395858765,0.0,0.0,0.0,0.0,0.0,0.0,0.0,-0.15930709890992253,0.5035367540944878,0.00789562130304716,0.5347780503474678,-0.2486934127143333,0.12708009732364145,-0.3154998204914643,0.17285706139865675,-0.4874651744510693,-0.11142022286799914,-1.946645950198526,0.1336357058980828,2.5955441672537063,0.9452637927115171,0.1728802376190821,-0.48752024683155326,-0.11147110072896137,-1.9463801863486305,0.1336059019074957,2.595550359778934,0.9452445589611904,0.0004003312017332633,0.0016067583486970621,-0.00030834692357954046,-0.0006328538939443666,3.825679450386865e-05,-0.0003132744909310356,0.0005985916026365051,0.0,0.0,0.0,0.0,0.0,0.0,0.0,2.3176220425358274e-05,-5.507238048396701e-05,-5.087786096222291e-05,0.00026576384989551727,-2.9803990587107254e-05,6.192525227710632e-06,-1.923375032664154e-05,-0.0004003312017332633,-0.0016067583486970621,0.00030834692357954046,0.0006328538939443666,-3.825679450386865e-05,0.0003132744909310356,-0.0005985916026365051,0.22445029020309448,11.873926162719727,-1.1680023670196533,-21.840242385864258,-0.2841086983680725,-2.5399813652038574,0.32352012395858765,0
11,0.0499575138092041,-0.22445029020309448,-11.873926162719727,1.1680023670196533,21.840242385864258,0.2841086983680725,2.5399813652038574,-0.32352012395858765,0.0,0.0,0.0,0.0,0.0,0.0,0.0,-0.15930709890992253,0.5035367540944878,0.00789562130304716,0.5347780503474678,-0.2486934127143333,0.12708009732364145,-0.3154998204914643,0.17285706139865675,-0.4874651744510693,-0.11142022286799914,-1.946645950198526,0.1336357058980828,2.5955441672537063,0.9452637927115171,0.1728802376190821,-0.48752024683155326,-0.11147110072896137,-1.9463801863486305,0.1336059019074957,2.595550359778934,0.9452445589611904,0.0004003312017332633,0.0016067583486970621,-0.00030834692357954046,-0.0006328538939443666,3.825679450386865e-05,-0.0003132744909310356,0.0005985916026365051,0.0,0.0,0.0,0.0,0.0,0.0,0.0,2.3176220425358274e-05,-5.507238048396701e-05,-5.087786096222291e-05,0.00026576384989551727,-2.9803990587107254e-05,6.192525227710632e-06,-1.923375032664154e-05,-0.0004003312017332633,-0.0016067583486970621,0.00030834692357954046,0.0006328538939443666,-3.825679450386865e-05,0.0003132744909310356,-0.0005985916026365051,0.22445029020309448,11.873926162719727,-1.1680023670196533,-21.840242385864258,-0.2841086983680725,-2.5399813652038574,0.32352012395858765,0
12,0.05500197410583496,-0.19667929410934448,-11.901697158813477,1.1918060779571533,21.792634963989258,0.2841086983680725,2.5335726737976074,-0.26858848333358765,0.0,0.0,0.0,0.0,0.0,0.0,0.0,-0.15376393843859976,0.5023152189833073,0.02270129774668394,0.5328145991475759,-0.24949038073974755,0.12718924112584423,-0.3158735034928159,0.1728551125568256,-0.487462881603936,-0.11142189333994082,-1.9466447812520988,0.13363569277532356,2.595544879330529,0.9452544309674004,0.1728802376190821,-0.48752024683155326,-0.11147110072896137,-1.9463801863486305,0.1336059019074957,2.595550359778934,0.9452445589611904,0.000959445676706664,4.6572423763359764e-05,-5.879786290244805e-06,0.0005786708811259595,0.00012103832681416966,-0.00021429798146913113,-0.0015317211068549262,0.0,0.0,0.0,0.0,0.0,0.0,0.0,2.5125062256520225e-05,-5.736522761723428e-05,-4.920738902054744e-05,0.00026459490346830705,-2.9790867827866885e-05,5.480448404870941e-06,-9.87200620994333e-06,-0.000959445676706664,-4.6572423763359764e-05,5.879786290244805e-06,-0.0005786708811259595,-0.00012103832681416966,0.00021429798146913113,0.0015317211068549262,0.19667929410934448,11.901697158813477,-1.1918060779571533,-21.792634963989258,-0.2841086983680725,-2.5335726737976074,0.26858848333358765,0
13,0.05995345115661621,-0.19667929410934448,-11.901697158813477,1.1918060779571533,21.792634963989258,0.2841086983680725,2.5335726737976074,-0.26858848333358765,0.0,0.0,0.0,0.0,0.0,0.0,0.0,-0.15376393843859976,0.5023152189833073,0.02270129774668394,0.5328145991475759,-0.24949038073974755,0.12718924112584423,-0.3158735034928159,0.1728551125568256,-0.487462881603936,-0.11142189333994082,-1.9466447812520988,0.13363569277532356,2.595544879330529,0.9452544309674004,0.1728802376190821,-0.48752024683155326,-0.11147110072896137,-1.9463801863486305,0.1336059019074957,2.595550359778934,0.9452445589611904,0.000959445676706664,4.6572423763359764e-05,-5.879786290244805e-06,0.0005786708811259595,0.00012103832681416966,-0.00021429798146913113,-0.0015317211068549262,0.0,0.0,0.0,0.0,0.0,0.0,0.0,2.5125062256520225e-05,-5.736522761723428e-05,-4.920738902054744e-05,0.00026459490346830705,-2.9790867827866885e-05,5.480448404870941e-06,-9.87200620994333e-06,-0.000959445676706664,-4.6572423763359764e-05,5.879786290244805e-06,-0.0005786708811259595,-0.00012103832681416966,0.00021429798146913113,0.0015317211068549262,0.19667929410934448,11.901697158813477,-1.1918060779571533,-21.792634963989258,-0.2841086983680725,-2.5335726737976074,0.26858848333358765,0
14,0.06499838829040527,-0.12130087614059448,-11.850122451782227,1.1918060779571533,21.868013381958008,0.2841086983680725,2.5335726737976074,-0.30337852239608765,0.0,0.0,0.0,0.0,0.0,0.0,0.0,-0.1540560446954549,0.5179061363690086,0.020696027675098625,0.5185036875895551,-0.24953683454806866,0.12570252413553484,-0.315106496596224,0.17284982284328393,-0.4874665008796805,-0.11142189330385462,-1.9466489328480585,0.13363569277524948,2.595544879330529,0.9452593794926648,0.1728802376190821,-0.48752024683155326,-0.11147110072896137,-1.9463801863486305,0.1336059019074957,2.595550359778934,0.9452445589611904,-0.0006405208608806646,-0.0005087669035024643,0.00034050302845781784,-0.0008851058578083978,-1.1612997338517114e-05,-0.0002504403983206557,-0.00018005108609637133,0.0,0.0,0.0,0.0,0.0,0.0,0.0,3.041477579818208e-05,-5.374595187274123e-05,-4.920742510675091e-05,0.00026874649942798534,-2.9790867753787253e-05,5.480448404870941e-06,-1.4820531474390997e-05,0.0006405208608806646,0.0005087669035024643,-0.00034050302845781784,0.0008851058578083978,1.1612997338517114e-05,0.0002504403983206557,0.00018005108609637133,0.12130087614059448,11.850122451782227,-1.1918060779571533,-21.868013381958008,-0.2841086983680725,-2.5335726737976074,0.30337852239608765,0
15,0.07000088691711426,-0.12130087614059448,-11.850122451782227,1.1918060779571533,21.868013381958008,0.2841086983680725,2.5335726737976074,-0.30337852239608765,0.0,0.0,0.0,0.0,0.0,0.0,0.0,-0.1540560446954549,0.5179061363690086,0.020696027675098625,0.5185036875895551,-0.24953683454806866,0.12570252413553484,-0.315106496596224,0.17284982284328393,-0.4874665008796805,-0.11142189330385462,-1.9466489328480585,0.13363569277524948,2.595544879330529,0.9452593794926648,0.1728802376190821,-0.48752024683155326,-0.11147110072896137,-1.9463801863486305,0.1336059019074957,2.595550359778934,0.9452445589611904,-0.0006405208608806646,-0.0005087669035024643,0.00034050302845781784,-0.0008851058578083978,-1.1612997338517114e-05,-0.0002504403983206557,-0.00018005108609637133,0.0,0.0,0.0,0.0,0.0,0.0,0.0,3.041477579818208e-05,-5.374595187274123e-05,-4.920742510675091e-05,0.00026874649942798534,-2.9790867753787253e-05,5.480448404870941e-06,-1.4820531474390997e-05,0.0006405208608806646,0.0005087669035024643,-0.00034050302845781784,0.0008851058578083978,1.1612997338517114e-05,0.0002504403983206557,0.00018005108609637133,0.12130087614059448,11.850122451782227,-1.1918060779571533,-21.868013381958008,-0.2841086983680725,-2.5335726737976074,0.30337852239608765,0
16,0.07499933242797852,-0.14510458707809448,-11.727136611938477,1.2433807849884033,21.840242385864258,0.2841086983680725,2.5271639823913574,-0.30978721380233765,0.0,0.0,0.0,0.0,0.0,0.0,0.0,-0.14888912730865825,0.5251110257291646,0.022683093629217263,0.512462873152434,-0.24963682610036295,0.12474913624312835,-0.3150308375181446,0.1728514932791392,-0.4874751313689262,-0.11142551258154083,-1.9466459773760267,0.13363569277524948,2.595545591461187,0.945259379404565,0.1728802376190821,-0.48752024683155326,-0.11147110072896137,-1.9463801863486305,0.1336059019074957,2.595550359778934,0.9452445589611904,0.0006627062121188732,-0.0016987296242016788,1.966691243581149e-05,-0.0004193054997032891,0.00019739942570476494,-7.46907212397334e-05,-0.00046586973313370066,0.0,0.0,0.0,0.0,0.0,0.0,0.0,2.8744339942904373e-05,-4.5115462627087766e-05,-4.55881474205333e-05,0.00026579102739621163,-2.9790867753787253e-05,4.768317746872697e-06,-1.4820443374530257e-05,-0.0006627062121188732,0.0016987296242016788,-1.966691243581149e-05,0.0004193054997032891,-0.00019739942570476494,7.46907212397334e-05,0.00046586973313370066,0.14510458707809448,11.727136611938477,-1.2433807849884033,-21.840242385864258,-0.2841086983680725,-2.5271639823913574,0.30978721380233765,0
17,0.07999801635742188,-0.14510458707809448,-11.727136611938477,1.2433807849884033,21.840242385864258,0.2841086983680725,2.5271639823913574,-0.30978721380233765,0.0,0.0,0.0,0.0,0.0,0.0,0.0,-0.14888912730865825,0.5251110257291646,0.022683093629217263,0.512462873152434,-0.24963682610036295,0.12474913624312835,-0.3150308375181446,0.1728514932791392,-0.4874751313689262,-0.11142551258154083,-1.9466459773760267,0.13363569277524948,2.595545591461187,0.945259379404565,0.1728802376190821,-0.48752024683155326,-0.11147110072896137,-1.9463801863486305,0.1336059019074957,2.595550359778934,0.9452445589611904,0.0006627062121188732,-0.0016987296242016788,1.966691243581149e-05,-0.0004193054997032891,0.00019739942570476494,-7.46907212397334e-05,-0.00046586973313370066,0.0,0.0,0.0,0.0,0.0,0.0,0.0,2.8744339942904373e-05,-4.5115462627087766e-05,-4.55881474205333e-05,0.00026579102739621163,-2.9790867753787253e-05,4.768317746872697e-06,-1.4820443374530257e-05,-0.0006627062121188732,0.0016987296242016788,-1.966691243581149e-05,0.0004193054997032891,-0.00019739942570476494,7.46907212397334e-05,0.00046586973313370066,0.14510458707809448,11.727136611938477,-1.2433807849884033,-21.840242385864258,-0.2841086983680725,-2.5271639823913574,0.30978721380233765,0
18,0.08499717712402344,-0.17287558317184448,-11.750940322875977,1.2156097888946533,21.840242385864258,0.2786155343055725,2.5207552909851074,-0.32352012395858765,0.0,0.0,0.0,0.0,0.0,0.0,0.0,-0.1554307261391022,0.5115668829306916,0.008489977277135527,0.5220073887092815,-0.24819798359303535,0.1261141406363356,-0.3163523168610377,0.17285344212097034,-0.48747558718008993,-0.11142356373970969,-1.9466460294476735,0.1336373660763105,2.595546303484175,0.9452605298315155,0.1728802376190821,-0.48752024683155326,-0.11147110072896137,-1.9463801863486305,0.1336059019074957,2.595550359778934,0.9452445589611904,0.0007878794279145145,-0.000806916586836686,0.00041091260604479463,-0.001171569914247758,0.00019923223927217513,7.441331812371333e-05,0.0004723226053819973,0.0,0.0,0.0,0.0,0.0,0.0,0.0,2.6795498111770177e-05,-4.4659651463330174e-05,-4.753698925168137e-05,0.00026584309904298387,-3.1464168814804294e-05,4.056294759191559e-06,-1.5970870325121567e-05,-0.0007878794279145145,0.000806916586836686,-0.00041091260604479463,0.001171569914247758,-0.00019923223927217513,-7.441331812371333e-05,-0.0004723226053819973,0.17287558317184448,11.750940322875977,-1.2156097888946533,-21.840242385864258,-0.2786155343055725,-2.5207552909851074,0.32352012395858765,0
19,0.0899965763092041,-0.17287558317184448,-11.750940322875977,1.2156097888946533,21.840242385864258,0.2786155343055725,2.5207552909851074,-0.32352012395858765,0.0,0.0,0.0,0.0,0.0,0.0,0.0,-0.1554307261391022,0.5115668829306916,0.008489977277135527,0.5220073887092815,-0.24819798359303535,0.1261141406363356,-0.3163523168610377,0.17285344212097034,-0.48747558718008993,-0.11142356373970969,-1.9466460294476735,0.1336373660763105,2.595546303484175,0.9452605298315155,0.1728802376190821,-0.48752024683155326,-0.11147110072896137,-1.9463801863486305,0.1336059019074957,2.595550359778934,0.9452445589611904,0.0007878794279145145,-0.000806916586836686,0.00041091260604479463,-0.001171569914247758,0.00019923223927217513,7.441331812371333e-05,0.0004723226053819973,0.0,0.0,0.0,0.0,0.0,0.0,0.0,2.6795498111770177e-05,-4.4659651463330174e-05,-4.753698925168137e-05,0.00026584309904298387,-3.1464168814804294e-05,4.056294759191559e-06,-1.5970870325121567e-05,-0.0007878794279145145,0.000806916586836686,-0.00041091260604479463,0.001171569914247758,-0.00019923223927217513,-7.441331812371333e-05,-0.0004723226053819973,0.17287558317184448,11.750940322875977,-1.2156097888946533,-21.840242385864258,-0.2786155343055725,-2.5207552909851074,0.32352012395858765,0
20,0.09499597549438477,-0.22445029020309448,-11.802515029907227,1.1918060779571533,21.840242385864258,0.2786155343055725,2.5271639823913574,-0.33084434270858765,0.0,0.0,0.0,0.0,0.0,0.0,0.0,-0.15866843153312468,0.4991442147748,0.00486281666841745,0.5337127841887577,-0.2481659549575397,0.127866834643021,-0.3169574737076272,0.17285706139865675,-0.4874699466380529,-0.11142189330385442,-1.9466466752966807,0.13363630313281238,2.595545591407352,0.9452624357201181,0.1728802376190821,-0.48752024683155326,-0.11147110072896137,-1.9463801863486305,0.1336059019074957,2.595550359778934,0.9452445589611904,0.001171463500918793,0.00028067096322783686,6.717491337150409e-05,-0.0005080075876352047,0.0003113828067506129,-9.296741533869312e-05,0.0005259679016240716,0.0,0.0,0.0,0.0,0.0,0.0,0.0,2.3176220425358274e-05,-5.0300193500385504e-05,-4.92074251069452e-05,0.00026648894805014756,-3.0401225316695202e-05,4.76837158203125e-06,-1.7876758927726222e-05,-0.001171463500918793,-0.00028067096322783686,-6.717491337150409e-05,0.0005080075876352047,-0.0003113828067506129,9.296741533869312e-05,-0.0005259679016240716,0.22445029020309448,11.802515029907227,-1.1918060779571533,-21.840242385864258,-0.2786155343055725,-2.5271639823913574,0.33084434270858765,0
21,0.10000491142272949,-0.22445029020309448,-11.802515029907227,1.1918060779571533,21.840242385864258,0.2786155343055725,2.5271639823913574,-0.33084434270858765,0.0,0.0,0.0,0.0,0.0,0.0,0.0,-0.15866843153312468,0.4991442147748,0.00486281666841745,0.5337127841887577,-0.2481659549575397,0.127866834643021,-0.3169574737076272,0.17285706139865675,-0.4874699466380529,-0.11142189330385442,-1.9466466752966807,0.13363630313281238,2.595545591407352,0.9452624357201181,0.1728802376190821,-0.48752024683155326,-0.11147110072896137,-1.9463801863486305,0.1336059019074957,2.595550359778934,0.9452445589611904,0.001171463500918793,0.00028067096322783686,6.717491337150409e-05,-0.0005080075876352047,0.0003113828067506129,-9.296741533869312e-05,0.0005259679016240716,0.0,0.0,0.0,0.0,0.0,0.0,0.0,2.3176220425358274e-05,-5.0300193500385504e-05,-4.92074251069452e-05,0.00026648894805014756,-3.0401225316695202e-05,4.76837158203125e-06,-1.7876758927726222e-05,-0.001171463500918793,-0.00028067096322783686,-6.717491337150409e-05,0.0005080075876352047,-0.0003113828067506129,9.296741533869312e-05,-0.0005259679016240716,0.22445029020309448,11.802515029907227,-1.1918060779571533,-21.840242385864258,-0.2786155343055725,-2.5271639823913574,0.33084434270858765,0
22,0.1049957275390625,-0.12130087614059448,-11.826318740844727,1.1918060779571533,21.792634963989258,0.2841086983680725,2.5271639823913574,-0.30978721380233765,0.0,0.0,0.0,0.0,0.0,0.0,0.0,-0.15872124996663434,0.500886521607571,0.012172836770618783,0.5341242032800677,-0.2488208625789309,0.12760637751368242,-0.317993340733987,0.17284982284328393,-0.48746818416894405,-0.11142189330385442,-1.9466427003536597,0.1336356927752495,2.595545591407352,0.9452593808985723,0.1728802376190821,-0.48752024683155326,-0.11147110072896137,-1.9463801863486305,0.1336059019074957,2.595550359778934,0.9452445589611904,-0.0014594213322236757,-0.00021220401298561092,-0.0003594269449249072,0.0008073878801091418,-7.183827822492963e-05,-0.00015996930232906322,-0.0004041796323902545,0.0,0.0,0.0,0.0,0.0,0.0,0.0,3.041477579818208e-05,-5.206266260920911e-05,-4.92074251069452e-05,0.00026251400502919076,-2.979086775381501e-05,4.76837158203125e-06,-1.4821937381892525e-05,0.0014594213322236757,0.00021220401298561092,0.0003594269449249072,-0.0008073878801091418,7.183827822492963e-05,0.00015996930232906322,0.0004041796323902545,0.12130087614059448,11.826318740844727,-1.1918060779571533,-21.792634963989258,-0.2841086983680725,-2.5271639823913574,0.30978721380233765,0
23,0.11001396179199219,-0.12130087614059448,-11.826318740844727,1.1918060779571533,21.792634963989258,0.2841086983680725,2.5271639823913574,-0.30978721380233765,0.0,0.0,0.0,0.0,0.0,0.0,0.0,-0.15872124996663434,0.500886521607571,0.012172836770618783,0.5341242032800677,-0.2488208625789309,0.12760637751368242,-0.317993340733987,0.17284982284328393,-0.48746818416894405,-0.11142189330385442,-1.9466427003536597,0.1336356927752495,2.595545591407352,0.9452593808985723,0.1728802376190821,-0.48752024683155326,-0.11147110072896137,-1.9463801863486305,0.1336059019074957,2.595550359778934,0.9452445589611904,-0.0014594213322236757,-0.00021220401298561092,-0.0003594269449249072,0.0008073878801091418,-7.183827822492963e-05,-0.00015996930232906322,-0.0004041796323902545,0.0,0.0,0.0,0.0,0.0,0.0,0.0,3.041477579818208e-05,-5.206266260920911e-05,-4.92074251069452e-05,0.00026251400502919076,-2.979086775381501e-05,4.76837158203125e-06,-1.4821937381892525e-05,0.0014594213322236757,0.00021220401298561092,0.0003594269449249072,-0.0008073878801091418,7.183827822492963e-05,0.00015996930232906322,0.0004041796323902545,0.12130087614059448,11.826318740844727,-1.1918060779571533,-21.792634963989258,-0.2841086983680725,-2.5271639823913574,0.30978721380233765,0
24,0.11504602432250977,-0.09352988004684448,-11.873926162719727,1.2156097888946533,21.840242385864258,0.2841086983680725,2.5271639823913574,-0.27591270208358765,0.0,0.0,0.0,0.0,0.0,0.0,0.0,-0.14335790001528081,0.5153741690063213,0.03547635712161424,0.5259687467006868,-0.2503746735536485,0.12549583748903473,-0.3191006096824234,0.17284787691763795,-0.48746514531989277,-0.11142356373970969,-1.9466462681936618,0.13363569277524948,2.595545591407352,0.9452554057163859,0.1728802376190821,-0.48752024683155326,-0.11147110072896137,-1.9463801863486305,0.1336059019074957,2.595550359778934,0.9452445589611904,-0.0004510642046206706,0.0006487212575005961,0.000837437035236854,-0.0002736121294436981,4.2130443554502906e-06,1.656079254962498e-05,-0.0016404087374462773,0.0,0.0,0.0,0.0,0.0,0.0,0.0,3.236070144416181e-05,-5.5101511660493596e-05,-4.753698925168137e-05,0.0002660818450312963,-2.9790867753787253e-05,4.76837158203125e-06,-1.0846755195470514e-05,0.0004510642046206706,-0.0006487212575005961,-0.000837437035236854,0.0002736121294436981,-4.2130443554502906e-06,-1.656079254962498e-05,0.0016404087374462773,0.09352988004684448,11.873926162719727,-1.2156097888946533,-21.840242385864258,-0.2841086983680725,-2.5271639823913574,0.27591270208358765,0
25,0.12000179290771484,-0.09352988004684448,-11.873926162719727,1.2156097888946533,21.840242385864258,0.2841086983680725,2.5271639823913574,-0.27591270208358765,0.0,0.0,0.0,0.0,0.0,0.0,0.0,-0.14335790001528081,0.5153741690063213,0.03547635712161424,0.5259687467006868,-0.2503746735536485,0.12549583748903473,-0.3191006096824234,0.17284787691763795,-0.48746514531989277,-0.11142356373970969,-1.9466462681936618,0.13363569277524948,2.595545591407352,0.9452554057163859,0.1728802376190821,-0.48752024683155326,-0.11147110072896137,-1.9463801863486305,0.1336059019074957,2.595550359778934,0.9452445589611904,-0.0004510642046206706,0.0006487212575005961,0.000837437035236854,-0.0002736121294436981,4.2130443554502906e-06,1.656079254962498e-05,-0.0016404087374462773,0.0,0.0,0.0,0.0,0.0,0.0,0.0,3.236070144416181e-05,-5.5101511660493596e-05,-4.753698925168137e-05,0.0002660818450312963,-2.9790867753787253e-05,4.76837158203125e-06,-1.0846755195470514e-05,0.0004510642046206706,-0.0006487212575005961,-0.000837437035236854,0.0002736121294436981,-4.2130443554502906e-06,-1.656079254962498e-05,0.0016404087374462773,0.09352988004684448,11.873926162719727,-1.2156097888946533,-21.840242385864258,-0.2841086983680725,-2.5271639823913574,0.27591270208358765,0
26,0.1252124309539795,-0.09352988004684448,-11.802515029907227,1.2433807849884033,21.816438674926758,0.2722068428993225,2.5271639823913574,-0.35098594427108765,0.0,0.0,0.0,0.0,0.0,0.0,0.0,-0.1487862239402323,0.5286020218592724,0.020044836460072574,0.5172071350726474,-0.2502248465692632,0.12383941159703199,-0.3187433824100897,0.17284787400146925,-0.48747015965335555,-0.11142551258154083,-1.94664651448312,0.13363701520363488,2.595548776135941,0.9452637037590417,0.1728802376190821,-0.48752024683155326,-0.11147110072896137,-1.9463801863486305,0.1336059019074957,2.595550359778934,0.9452445589611904,-0.00021041672142004347,-0.0002317494362556273,0.00017137199421024603,8.201487713306688e-05,0.00020097945370903332,-7.02496668961373e-05,0.0018349820495903568,0.0,0.0,0.0,0.0,0.0,0.0,0.0,3.236361761285722e-05,-5.00871781977108e-05,-4.55881474205333e-05,0.00026632813448945747,-3.111329613919578e-05,1.5836429931859186e-06,-1.9144797851256e-05,0.00021041672142004347,0.0002317494362556273,-0.00017137199421024603,-8.201487713306688e-05,-0.00020097945370903332,7.02496668961373e-05,-0.0018349820495903568,0.09352988004684448,11.802515029907227,-1.2433807849884033,-21.816438674926758,-0.2722068428993225,-2.5271639823913574,0.35098594427108765,0
27,0.13000035285949707,-0.09352988004684448,-11.802515029907227,1.2433807849884033,21.816438674926758,0.2722068428993225,2.5271639823913574,-0.35098594427108765,0.0,0.0,0.0,0.0,0.0,0.0,0.0,-0.1487862239402323,0.5286020218592724,0.020044836460072574,0.5172071350726474,-0.2502248465692632,0.12383941159703199,-0.3187433824100897,0.17284787400146925,-0.48747015965335555,-0.11142551258154083,-1.94664651448312,0.13363701520363488,2.595548776135941,0.9452637037590417,0.1728802376190821,-0.48752024683155326,-0.11147110072896137,-1.9463801863486305,0.1336059019074957,2.595550359778934,0.9452445589611904,-0.00021041672142004347,-0.0002317494362556273,0.00017137199421024603,8.201487713306688e-05,0.00020097945370903332,-7.02496668961373e-05,0.0018349820495903568,0.0,0.0,0.0,0.0,0.0,0.0,0.0,3.236361761285722e-05,-5.00871781977108e-05,-4.55881474205333e-05,0.00026632813448945747,-3.111329613919578e-05,1.5836429931859186e-06,-1.9144797851256e-05,0.00021041672142004347,0.0002317494362556273,-0.00017137199421024603,-8.201487713306688e-05,-0.00020097945370903332,7.02496668961373e-05,-0.0018349820495903568,0.09352988004684448,11.802515029907227,-1.2433807849884033,-21.816438674926758,-0.2722068428993225,-2.5271639823913574,0.35098594427108765,0
28,0.13499999046325684,-0.17287558317184448,-11.774744033813477,1.2156097888946533,21.768831253051758,0.2722068428993225,2.5335726737976074,-0.30337852239608765,0.0,0.0,0.0,0.0,0.0,0.0,0.0,-0.1520748733437595,0.5328817448737421,0.009753713102852743,0.5149583628472268,-0.2504255165286031,0.12390127147720995,-0.3189987533435765,0.17285415075396932,-0.4874717992715677,-0.11142356373970969,-1.9466409506714992,0.13363701520363488,2.5955448793485068,0.945258466246551,0.1728802376190821,-0.48752024683155326,-0.11147110072896137,-1.9463801863486305,0.1336059019074957,2.595550359778934,0.9452445589611904,0.00047825839517662787,0.00041164111028186266,-0.00022086990309342882,0.0006903411370827771,0.0003530458929448322,-0.0006019373729212248,-0.00016564295783446208,0.0,0.0,0.0,0.0,0.0,0.0,0.0,2.6086865112795454e-05,-4.8447559985564936e-05,-4.753698925168137e-05,0.00026076432286870066,-3.111329613919578e-05,5.480430427251548e-06,-1.3907285360548194e-05,-0.00047825839517662787,-0.00041164111028186266,0.00022086990309342882,-0.0006903411370827771,-0.0003530458929448322,0.0006019373729212248,0.00016564295783446208,0.17287558317184448,11.774744033813477,-1.2156097888946533,-21.768831253051758,-0.2722068428993225,-2.5335726737976074,0.30337852239608765,0
29,0.14001083374023438,-0.17287558317184448,-11.774744033813477,1.2156097888946533,21.768831253051758,0.2722068428993225,2.5335726737976074,-0.30337852239608765,0.0,0.0,0.0,0.0,0.0,0.0,0.0,-0.1520748733437595,0.5328817448737421,0.009753713102852743,0.5149583628472268,-0.2504255165286031,0.12390127147720995,-0.3189987533435765,0.17285415075396932,-0.4874717992715677,-0.11142356373970969,-1.9466409506714992,0.13363701520363488,2.5955448793485068,0.945258466246551,0.1728802376190821,-0.48752024683155326,-0.11147110072896137,-1.9463801863486305,0.1336059019074957,2.595550359778934,0.9452445589611904,0.00047825839517662787,0.00041164111028186266,-0.00022086990309342882,0.0006903411370827771,0.0003530458929448322,-0.0006019373729212248,-0.00016564295783446208,0.0,0.0,0.0,0.0,0.0,0.0,0.0,2.6086865112795454e-05,-4.8447559985564936e-05,-4.753698925168137e-05,0.00026076432286870066,-3.111329613919578e-05,5.480430427251548e-06,-1.3907285360548194e-05,-0.00047825839517662787,-0.00041164111028186266,0.00022086990309342882,-0.0006903411370827771,-0.0003530458929448322,0.0006019373729212248,0.00016564295783446208,0.17287558317184448,11.774744033813477,-1.2156097888946533,-21.768831253051758,-0.2722068428993225,-2.5335726737976074,0.30337852239608765,0
30,0.14522647857666016,-0.17287558317184448,-11.774744033813477,1.1680023670196533,21.816438674926758,0.2841086983680725,2.5207552909851074,-0.28232139348983765,0.0,0.0,0.0,0.0,0.0,0.0,0.0,-0.15470650466946959,0.515195181628668,0.010071130146194514,0.527382229247643,-0.25088395812039116,0.12550533395329014,-0.3194166871737836,0.17285344212497059,-0.4874717995578404,-0.11142022286799916,-1.9466443691865831,0.13363569277524948,2.5955463078448253,0.9452560869458448,0.1728802376190821,-0.48752024683155326,-0.11147110072896137,-1.9463801863486305,0.1336059019074957,2.595550359778934,0.9452445589611904,1.532499924336449e-05,-0.00026555633711575167,5.029975899797711e-05,-0.000287384170466688,-0.0001290219993746897,-3.237955803862142e-05,-0.0011388086445422636,0.0,0.0,0.0,0.0,0.0,0.0,0.0,2.6795494111525597e-05,-4.844727371283719e-05,-5.087786096220903e-05,0.0002641828379525979,-2.9790867753787253e-05,4.0519341086842076e-06,-1.1527984654424728e-05,-1.532499924336449e-05,0.00026555633711575167,-5.029975899797711e-05,0.000287384170466688,0.0001290219993746897,3.237955803862142e-05,0.0011388086445422636,0.17287558317184448,11.774744033813477,-1.1680023670196533,-21.816438674926758,-0.2841086983680725,-2.5207552909851074,0.28232139348983765,0
31,0.14999628067016602,-0.17287558317184448,-11.774744033813477,1.1680023670196533,21.816438674926758,0.2841086983680725,2.5207552909851074,-0.28232139348983765,0.0,0.0,0.0,0.0,0.0,0.0,0.0,-0.15470650466946959,0.515195181628668,0.010071130146194514,0.527382229247643,-0.25088395812039116,0.12550533395329014,-0.3194166871737836,0.17285344212497059,-0.4874717995578404,-0.11142022286799916,-1.9466443691865831,0.13363569277524948,2.5955463078448253,0.9452560869458448,0.1728802376190821,-0.48752024683155326,-0.11147110072896137,-1.9463801863486305,0.1336059019074957,2.595550359778934,0.9452445589611904,1.532499924336449e-05,-0.00026555633711575167,5.029975899797711e-05,-0.000287384170466688,-0.0001290219993746897,-3.237955803862142e-05,-0.0011388086445422636,0.0,0.0,0.0,0.0,0.0,0.0,0.0,2.6795494111525597e-05,-4.844727371283719e-05,-5.087786096220903e-05,0.0002641828379525979,-2.9790867753787253e-05,4.0519341086842076e-06,-1.1527984654424728e-05,-1.532499924336449e-05,0.00026555633711575167,-5.029975899797711e-05,0.000287384170466688,0.0001290219993746897,3.237955803862142e-05,0.0011388086445422636,0.17287558317184448,11.774744033813477,-1.1680023670196533,-21.816438674926758,-0.2841086983680725,-2.5207552909851074,0.28232139348983765,0
32,0.15641331672668457,-0.17287558317184448,-11.774744033813477,1.1680023670196533,21.816438674926758,0.2841086983680725,2.5207552909851074,-0.28232139348983765,0.0,0.0,0.0,0.0,0.0,0.0,0.0,-0.15470650466946959,0.515195181628668,0.010071130146194514,0.527382229247643,-0.25088395812039116,0.12550533395329014,-0.3194166871737836,0.17285344212497059,-0.4874717995578404,-0.11142022286799916,-1.9466443691865831,0.13363569277524948,2.5955463078448253,0.9452560869458448,0.1728802376190821,-0.48752024683155326,-0.11147110072896137,-1.9463801863486305,0.1336059019074957,2.595550359778934,0.9452445589611904,1.532499924336449e-05,-0.00026555633711575167,5.029975899797711e-05,-0.000287384170466688,-0.0001290219993746897,-3.237955803862142e-05,-0.0011388086445422636,0.0,0.0,0.0,0.0,0.0,0.0,0.0,2.6795494111525597e-05,-4.844727371283719e-05,-5.087786096220903e-05,0.0002641828379525979,-2.9790867753787253e-05,4.0519341086842076e-06,-1.1527984654424728e-05,-1.532499924336449e-05,0.00026555633711575167,-5.029975899797711e-05,0.000287384170466688,0.0001290219993746897,3.237955803862142e-05,0.0011388086445422636,0.17287558317184448,11.774744033813477,-1.1680023670196533,-21.816438674926758,-0.2841086983680725,-2.5207552909851074,0.28232139348983765,0
33,0.15999674797058105,-0.17287558317184448,-11.774744033813477,1.1680023670196533,21.816438674926758,0.2841086983680725,2.5207552909851074,-0.28232139348983765,0.0,0.0,0.0,0.0,0.0,0.0,0.0,-0.15470650466946959,0.515195181628668,0.010071130146194514,0.527382229247643,-0.25088395812039116,0.12550533395329014,-0.3194166871737836,0.17285344212497059,-0.4874717995578404,-0.11142022286799916,-1.9466443691865831,0.13363569277524948,2.5955463078448253,0.9452560869458448,0.1728802376190821,-0.48752024683155326,-0.11147110072896137,-1.9463801863486305,0.1336059019074957,2.595550359778934,0.9452445589611904,1.532499924336449e-05,-0.00026555633711575167,5.029975899797711e-05,-0.000287384170466688,-0.0001290219993746897,-3.237955803862142e-05,-0.0011388086445422636,0.0,0.0,0.0,0.0,0.0,0.0,0.0,2.6795494111525597e-05,-4.844727371283719e-05,-5.087786096220903e-05,0.0002641828379525979,-2.9790867753787253e-05,4.0519341086842076e-06,-1.1527984654424728e-05,-1.532499924336449e-05,0.00026555633711575167,-5.029975899797711e-05,0.000287384170466688,0.0001290219993746897,3.237955803862142e-05,0.0011388086445422636,0.17287558317184448,11.774744033813477,-1.1680023670196533,-21.816438674926758,-0.2841086983680725,-2.5207552909851074,0.28232139348983765,0
34,0.16499900817871094,-0.14510458707809448,-11.802515029907227,1.1680023670196533,21.840242385864258,0.2841086983680725,2.5335726737976074,-0.30978721380233765,0.0,0.0,0.0,0.0,0.0,0.0,0.0,-0.15461609931223666,0.5012704449655708,0.011980594513806436,0.5356796533652256,-0.2515805467301531,0.12618868231794886,-0.3179027192857552,0.1728514932791392,-0.4874699233326222,-0.11142022286799916,-1.946645950302214,0.13363569277524948,2.5955448793305536,0.9452633484675809,0.1728802376190821,-0.48752024683155326,-0.11147110072896137,-1.9463801863486305,0.1336059019074957,2.595550359778934,0.9452445589611904,-0.0007703360045321737,-0.0008802673013159696,0.00015789652254784517,-0.00022540978985968524,-9.939760230045876e-05,-0.0002914484593919444,-0.00013227680285541842,0.0,0.0,0.0,0.0,0.0,0.0,0.0,2.8744339942904373e-05,-5.03234989310819e-05,-5.087786096220903e-05,0.0002657639535834644,-2.9790867753787253e-05,5.480448380446035e-06,-1.878950639044863e-05,0.0007703360045321737,0.0008802673013159696,-0.00015789652254784517,0.00022540978985968524,9.939760230045876e-05,0.0002914484593919444,0.00013227680285541842,0.14510458707809448,11.802515029907227,-1.1680023670196533,-21.840242385864258,-0.2841086983680725,-2.5335726737976074,0.30978721380233765,0
35,0.17000603675842285,-0.14510458707809448,-11.802515029907227,1.1680023670196533,21.840242385864258,0.2841086983680725,2.5335726737976074,-0.30978721380233765,0.0,0.0,0.0,0.0,0.0,0.0,0.0,-0.15461609931223666,0.5012704449655708,0.011980594513806436,0.5356796533652256,-0.2515805467301531,0.12618868231794886,-0.3179027192857552,0.1728514932791392,-0.4874699233326222,-0.11142022286799916,-1.946645950302214,0.13363569277524948,2.5955448793305536,0.9452633484675809,0.1728802376190821,-0.48752024683155326,-0.11147110072896137,-1.9463801863486305,0.1336059019074957,2.595550359778934,0.9452445589611904,-0.0007703360045321737,-0.0008802673013159696,0.00015789652254784517,-0.00022540978985968524,-9.939760230045876e-05,-0.0002914484593919444,-0.00013227680285541842,0.0,0.0,0.0,0.0,0.0,0.0,0.0,2.8744339942904373e-05,-5.03234989310819e-05,-5.087786096220903e-05,0.0002657639535834644,-2.9790867753787253e-05,5.480448380446035e-06,-1.878950639044863e-05,0.0007703360045321737,0.0008802673013159696,-0.00015789652254784517,0.00022540978985968524,9.939760230045876e-05,0.0002914484593919444,0.00013227680285541842,0.14510458707809448,11.802515029907227,-1.1680023670196533,-21.840242385864258,-0.2841086983680725,-2.5335726737976074,0.30978721380233765,0
36,0.17533111572265625,-0.12130087614059448,-11.873926162719727,1.2433807849884033,21.768831253051758,0.2841086983680725,2.5271639823913574,-0.31711143255233765,0.0,0.0,0.0,0.0,0.0,0.0,0.0,-0.1518255787209106,0.5133704542439961,0.017107603707602264,0.5264043997925154,-0.25217125233621857,0.12511513359097942,-0.31678847787100084,0.17284982284328393,-0.4874648653305011,-0.11142551258154083,-1.9466411803561625,0.13363569277524948,2.595545591407352,0.9452598227433948,0.1728802376190821,-0.48752024683155326,-0.11147110072896137,-1.9463801863486305,0.1336059019074957,2.595550359778934,0.9452445589611904,-0.0007702345589119033,0.0004634278503022743,-0.000890720096473808,0.0014799156377414563,-0.00020027791265828947,0.00012330319156259045,0.00015236360097882468,0.0,0.0,0.0,0.0,0.0,0.0,0.0,3.041477579818208e-05,-5.5381501052165216e-05,-4.55881474205333e-05,0.0002609940075319894,-2.9790867753787253e-05,4.76837158203125e-06,-1.5263782204399945e-05,0.0007702345589119033,-0.0004634278503022743,0.000890720096473808,-0.0014799156377414563,0.00020027791265828947,-0.00012330319156259045,-0.00015236360097882468,0.12130087614059448,11.873926162719727,-1.2433807849884033,-21.768831253051758,-0.2841086983680725,-2.5271639823913574,0.31711143255233765,0
37,0.18000054359436035,-0.12130087614059448,-11.873926162719727,1.2433807849884033,21.768831253051758,0.2841086983680725,2.5271639823913574,-0.31711143255233765,0.0,0.0,0.0,0.0,0.0,0.0,0.0,-0.1518255787209106,0.5133704542439961,0.017107603707602264,0.5264043997925154,-0.25217125233621857,0.12511513359097942,-0.31678847787100084,0.17284982284328393,-0.4874648653305011,-0.11142551258154083,-1.9466411803561625,0.13363569277524948,2.595545591407352,0.9452598227433948,0.1728802376190821,-0.48752024683155326,-0.11147110072896137,-1.9463801863486305,0.1336059019074957,2.595550359778934,0.9452445589611904,-0.0007702345589119033,0.0004634278503022743,-0.000890720096473808,0.0014799156377414563,-0.00020027791265828947,0.00012330319156259045,0.00015236360097882468,0.0,0.0,0.0,0.0,0.0,0.0,0.0,3.041477579818208e-05,-5.5381501052165216e-05,-4.55881474205333e-05,0.0002609940075319894,-2.9790867753787253e-05,4.76837158203125e-06,-1.5263782204399945e-05,0.0007702345589119033,-0.0004634278503022743,0.000890720096473808,-0.0014799156377414563,0.00020027791265828947,-0.00012330319156259045,-0.00015236360097882468,0.12130087614059448,11.873926162719727,-1.2433807849884033,-21.768831253051758,-0.2841086983680725,-2.5271639823913574,0.31711143255233765,0
38,0.1849985122680664,-0.12130087614059448,-11.850122451782227,1.1918060779571533,21.816438674926758,0.2786155343055725,2.5143465995788574,-0.32352012395858765,0.0,0.0,0.0,0.0,0.0,0.0,0.0,-0.1507572066275471,0.5210343962775517,0.013731613171197619,0.5167087210429282,-0.25229268273540906,0.1244822277463179,-0.3156801039936461,0.17284984908895054,-0.48746650080787285,-0.11142189330385442,-1.946646769907805,0.133636303126812,2.5955470155609977,0.9452637898721042,0.1728802376190821,-0.48752024683155326,-0.11147110072896137,-1.9463801863486305,0.1336059019074957,2.595550359778934,0.9452445589611904,0.00025485701789384997,0.00014223863295691745,0.0007473472026353851,-0.00033239155793425335,0.00017605221016409153,0.0003129558546810545,0.0007392864132310927,0.0,0.0,0.0,0.0,0.0,0.0,0.0,3.0388530131569835e-05,-5.374602368041215e-05,-4.92074251069452e-05,0.0002665835591744159,-3.0401219316300576e-05,3.3442179363518676e-06,-1.923091091382556e-05,-0.00025485701789384997,-0.00014223863295691745,-0.0007473472026353851,0.00033239155793425335,-0.00017605221016409153,-0.0003129558546810545,-0.0007392864132310927,0.12130087614059448,11.850122451782227,-1.1918060779571533,-21.816438674926758,-0.2786155343055725,-2.5143465995788574,0.32352012395858765,0
39,0.1900029182434082,-0.12130087614059448,-11.850122451782227,1.1918060779571533,21.816438674926758,0.2786155343055725,2.5143465995788574,-0.32352012395858765,0.0,0.0,0.0,0.0,0.0,0.0,0.0,-0.1507572066275471,0.5210343962775517,0.013731613171197619,0.5167087210429282,-0.25229268273540906,0.1244822277463179,-0.3156801039936461,0.17284984908895054,-0.48746650080787285,-0.11142189330385442,-1.946646769907805,0.133636303126812,2.5955470155609977,0.9452637898721042,0.1728802376190821,-0.48752024683155326,-0.11147110072896137,-1.9463801863486305,0.1336059019074957,2.595550359778934,0.9452445589611904,0.00025485701789384997,0.00014223863295691745,0.0007473472026353851,-0.00033239155793425335,0.00017605221016409153,0.0003129558546810545,0.0007392864132310927,0.0,0.0,0.0,0.0,0.0,0.0,0.0,3.0388530131569835e-05,-5.374602368041215e-05,-4.92074251069452e-05,0.0002665835591744159,-3.0401219316300576e-05,3.3442179363518676e-06,-1.923091091382556e-05,-0.00025485701789384997,-0.00014223863295691745,-0.0007473472026353851,0.00033239155793425335,-0.00017605221016409153,-0.0003129558546810545,-0.0007392864132310927,0.12130087614059448,11.850122451782227,-1.1918060779571533,-21.816438674926758,-0.2786155343055725,-2.5143465995788574,0.32352012395858765,0
40,0.19499969482421875,-0.12130087614059448,-11.727136611938477,1.2156097888946533,21.816438674926758,0.2905173897743225,2.5207552909851074,-0.27591270208358765,0.0,0.0,0.0,0.0,0.0,0.0,0.0,-0.1500336121768823,0.5208238401880247,0.006887485146546379,0.5148759515031262,-0.25149219504094095,0.1244047445866344,-0.31571193514003554,0.17284982284343206,-0.48747516635114757,-0.11142356471404258,-1.9466472238642405,0.13363499382125987,2.595546303484175,0.9452552447694678,0.1728802376190821,-0.48752024683155326,-0.11147110072896137,-1.9463801863486305,0.1336059019074957,2.595550359778934,0.9452445589611904,-0.00029954449026169507,-0.0016757882387881935,0.00016270501270830717,-0.00046359525405375126,-0.0002955328791606841,2.6490150625088952e-05,-0.0015524291025113479,0.0,0.0,0.0,0.0,0.0,0.0,0.0,3.0414775650050574e-05,-4.508048040569035e-05,-4.753601491878923e-05,0.00026703751560996913,-2.9091913764184296e-05,4.056294759191559e-06,-1.0685808277344222e-05,0.00029954449026169507,0.0016757882387881935,-0.00016270501270830717,0.00046359525405375126,0.0002955328791606841,-2.6490150625088952e-05,0.0015524291025113479,0.12130087614059448,11.727136611938477,-1.2156097888946533,-21.816438674926758,-0.2905173897743225,-2.5207552909851074,0.27591270208358765,0
41,0.20000410079956055,-0.12130087614059448,-11.727136611938477,1.2156097888946533,21.816438674926758,0.2905173897743225,2.5207552909851074,-0.27591270208358765,0.0,0.0,0.0,0.0,0.0,0.0,0.0,-0.1500336121768823,0.5208238401880247,0.006887485146546379,0.5148759515031262,-0.25149219504094095,0.1244047445866344,-0.31571193514003554,0.17284982284343206,-0.48747516635114757,-0.11142356471404258,-1.9466472238642405,0.13363499382125987,2.595546303484175,0.9452552447694678,0.1728802376190821,-0.48752024683155326,-0.11147110072896137,-1.9463801863486305,0.1336059019074957,2.595550359778934,0.9452445589611904,-0.00029954449026169507,-0.0016757882387881935,0.00016270501270830717,-0.00046359525405375126,-0.0002955328791606841,2.6490150625088952e-05,-0.0015524291025113479,0.0,0.0,0.0,0.0,0.0,0.0,0.0,3.0414775650050574e-05,-4.508048040569035e-05,-4.753601491878923e-05,0.00026703751560996913,-2.9091913764184296e-05,4.056294759191559e-06,-1.0685808277344222e-05,0.00029954449026169507,0.0016757882387881935,-0.00016270501270830717,0.00046359525405375126,0.0002955328791606841,-2.6490150625088952e-05,0.0015524291025113479,0.12130087614059448,11.727136611938477,-1.2156097888946533,-21.816438674926758,-0.2905173897743225,-2.5207552909851074,0.27591270208358765,0
42,0.20499825477600098,-0.19667929410934448,-11.826318740844727,1.1680023670196533,21.816438674926758,0.2905173897743225,2.5335726737976074,-0.32352012395858765,0.0,0.0,0.0,0.0,0.0,0.0,0.0,-0.1494406878358884,0.5139886740509638,0.007773558362531919,0.5202871618730002,-0.2504077219986856,0.12519379270122757,-0.31651302582846835,0.1728551125568256,-0.48746820620194803,-0.11142022286800465,-1.9466471684138613,0.13363498069850063,2.595544879330529,0.9452606505104316,0.1728802376190821,-0.48752024683155326,-0.11147110072896137,-1.9463801863486305,0.1336059019074957,2.595550359778934,0.9452445589611904,0.0009404332827989134,0.001122144586065101,0.0007704925650929826,-0.0003891561969740829,-0.0002731525190138125,-0.00043156972472402295,0.0002849713460894794,0.0,0.0,0.0,0.0,0.0,0.0,0.0,2.5125062256520225e-05,-5.204062960523226e-05,-5.087786095671343e-05,0.00026698206523079193,-2.9078791004943927e-05,5.480448404870941e-06,-1.609154924120393e-05,-0.0009404332827989134,-0.001122144586065101,-0.0007704925650929826,0.0003891561969740829,0.0002731525190138125,0.00043156972472402295,-0.0002849713460894794,0.19667929410934448,11.826318740844727,-1.1680023670196533,-21.816438674926758,-0.2905173897743225,-2.5335726737976074,0.32352012395858765,0
43,0.20999836921691895,-0.19667929410934448,-11.826318740844727,1.1680023670196533,21.816438674926758,0.2905173897743225,2.5335726737976074,-0.32352012395858765,0.0,0.0,0.0,0.0,0.0,0.0,0.0,-0.1494406878358884,0.5139886740509638,0.007773558362531919,0.5202871618730002,-0.2504077219986856,0.12519379270122757,-0.31651302582846835,0.1728551125568256,-0.48746820620194803,-0.11142022286800465,-1.9466471684138613,0.13363498069850063,2.595544879330529,0.9452606505104316,0.1728802376190821,-0.48752024683155326,-0.11147110072896137,-1.9463801863486305,0.1336059019074957,2.595550359778934,0.9452445589611904,0.0009404332827989134,0.001122144586065101,0.0007704925650929826,-0.0003891561969740829,-0.0002731525190138125,-0.00043156972472402295,0.0002849713460894794,0.0,0.0,0.0,0.0,0.0,0.0,0.0,2.5125062256520225e-05,-5.204062960523226e-05,-5.087786095671343e-05,0.00026698206523079193,-2.9078791004943927e-05,5.480448404870941e-06,-1.609154924120393e-05,-0.0009404332827989134,-0.001122144586065101,-0.0007704925650929826,0.0003891561969740829,0.0002731525190138125,0.00043156972472402295,-0.0002849713460894794,0.19667929410934448,11.826318740844727,-1.1680023670196533,-21.816438674926758,-0.2905173897743225,-2.5335726737976074,0.32352012395858765,0
44,0.2149951457977295,-0.22445029020309448,-11.826318740844727,1.1918060779571533,21.816438674926758,0.2786155343055725,2.5399813652038574,-0.33725303411483765,0.0,0.0,0.0,0.0,0.0,0.0,0.0,-0.1151991510310006,0.5163293990859833,0.06839956134203312,0.5229889839701817,-0.2526066291172416,0.12462499587864419,-0.31718950566065307,0.17285706139865675,-0.48746817153174643,-0.1114219020728505,-1.9466464256857112,0.133636303126812,2.5955441687072565,0.9452631423898769,0.1728802376190821,-0.48752024683155326,-0.11147110072896137,-1.9463801863486305,0.1336059019074957,2.595550359778934,0.9452445589611904,0.0007376853606961582,0.0005534560610133476,-0.0020083370266462115,-6.668764560993663e-05,3.594279523836677e-05,-0.0007410798640990687,0.0008916097198340785,0.0,0.0,0.0,0.0,0.0,0.0,0.0,2.3176220425358274e-05,-5.207529980683079e-05,-4.9198656110860384e-05,0.00026623933708069814,-3.0401219316300576e-05,6.191071677541515e-06,-1.8583428686436143e-05,-0.0007376853606961582,-0.0005534560610133476,0.0020083370266462115,6.668764560993663e-05,-3.594279523836677e-05,0.0007410798640990687,-0.0008916097198340785,0.22445029020309448,11.826318740844727,-1.1918060779571533,-21.816438674926758,-0.2786155343055725,-2.5399813652038574,0.33725303411483765,0
45,0.21999597549438477,-0.22445029020309448,-11.826318740844727,1.1918060779571533,21.816438674926758,0.2786155343055725,2.5399813652038574,-0.33725303411483765,0.0,0.0,0.0,0.0,0.0,0.0,0.0,-0.1151991510310006,0.5163293990859833,0.06839956134203312,0.5229889839701817,-0.2526066291172416,0.12462499587864419,-0.31718950566065307,0.17285706139865675,-0.48746817153174643,-0.1114219020728505,-1.9466464256857112,0.133636303126812,2.5955441687072565,0.9452631423898769,0.1728802376190821,-0.48752024683155326,-0.11147110072896137,-1.9463801863486305,0.1336059019074957,2.595550359778934,0.9452445589611904,0.0007376853606961582,0.0005534560610133476,-0.0020083370266462115,-6.668764560993663e-05,3.594279523836677e-05,-0.0007410798640990687,0.0008916097198340785,0.0,0.0,0.0,0.0,0.0,0.0,0.0,2.3176220425358274e-05,-5.207529980683079e-05,-4.9198656110860384e-05,0.00026623933708069814,-3.0401219316300576e-05,6.191071677541515e-06,-1.8583428686436143e-05,-0.0007376853606961582,-0.0005534560610133476,0.0020083370266462115,6.668764560993663e-05,-3.594279523836677e-05,0.0007410798640990687,-0.0008916097198340785,0.22445029020309448,11.826318740844727,-1.1918060779571533,-21.816438674926758,-0.2786155343055725,-2.5399813652038574,0.33725303411483765,0
46,0.22499537467956543,-0.17287558317184448,-11.873926162719727,1.2156097888946533,21.868013381958008,0.2667136788368225,2.5271639823913574,-0.25485557317733765,0.0,0.0,0.0,0.0,0.0,0.0,0.0,-0.14185986300713507,0.5097312688290446,0.033889241156915495,0.528299361303003,-0.25174557924125185,0.12600109261834186,-0.3182265724797013,0.17285344309303205,-0.4874648303358196,-0.11142356373975917,-1.9466500544436203,0.1336376255551974,2.59554559140736,0.9452533032076594,0.1728802376190821,-0.48752024683155326,-0.11147110072896137,-1.9463801863486305,0.1336059019074957,2.595550359778934,0.9452445589611904,0.00030183008951202605,0.0011446275443905743,6.20715091287023e-06,-0.0008115377982786222,0.0004382171172024049,-8.14728383710392e-05,-0.0023577779559462424,0.0,0.0,0.0,0.0,0.0,0.0,0.0,2.6794526050061274e-05,-5.541649573365115e-05,-4.753698920219318e-05,0.00026986809498974473,-3.17236477017091e-05,4.768371574037644e-06,-8.744246469016836e-06,-0.00030183008951202605,-0.0011446275443905743,-6.20715091287023e-06,0.0008115377982786222,-0.0004382171172024049,8.14728383710392e-05,0.0023577779559462424,0.17287558317184448,11.873926162719727,-1.2156097888946533,-21.868013381958008,-0.2667136788368225,-2.5271639823913574,0.25485557317733765,0
47,0.2300102710723877,-0.17287558317184448,-11.873926162719727,1.2156097888946533,21.868013381958008,0.2667136788368225,2.5271639823913574,-0.25485557317733765,0.0,0.0,0.0,0.0,0.0,0.0,0.0,-0.14185986300713507,0.5097312688290446,0.033889241156915495,0.528299361303003,-0.25174557924125185,0.12600109261834186,-0.3182265724797013,0.17285344309303205,-0.4874648303358196,-0.11142356373975917,-1.9466500544436203,0.1336376255551974,2.59554559140736,0.9452533032076594,0.1728802376190821,-0.48752024683155326,-0.11147110072896137,-1.9463801863486305,0.1336059019074957,2.595550359778934,0.9452445589611904,0.00030183008951202605,0.0011446275443905743,6.20715091287023e-06,-0.0008115377982786222,0.0004382171172024049,-8.14728383710392e-05,-0.0023577779559462424,0.0,0.0,0.0,0.0,0.0,0.0,0.0,2.6794526050061274e-05,-5.541649573365115e-05,-4.753698920219318e-05,0.00026986809498974473,-3.17236477017091e-05,4.768371574037644e-06,-8.744246469016836e-06,-0.00030183008951202605,-0.0011446275443905743,-6.20715091287023e-06,0.0008115377982786222,-0.0004382171172024049,8.14728383710392e-05,0.0023577779559462424,0.17287558317184448,11.873926162719727,-1.2156097888946533,-21.868013381958008,-0.2667136788368225,-2.5271639823913574,0.25485557317733765,0
48,0.23500514030456543,-0.09352988004684448,-11.826318740844727,1.2156097888946533,21.816438674926758,0.2786155343055725,2.5271639823913574,-0.28964561223983765,0.0,0.0,0.0,0.0,0.0,0.0,0.0,-0.15615687638387915,0.5160209620205592,0.011376538863164995,0.5247803732234774,-0.25191293252653096,0.12529950311234517,-0.3179919694775444,0.17284787400145826,-0.48747030005871284,-0.11142356373970969,-1.9466453136066175,0.133636303126812,2.595545591407352,0.9452567659970343,0.1728802376190821,-0.48752024683155326,-0.11147110072896137,-1.9463801863486305,0.1336059019074957,2.595550359778934,0.9452445589611904,-0.0006438110702817135,-3.008207810597656e-05,0.000814405591462908,0.000425486964680589,0.00011054187222387637,8.902287366263065e-05,-0.0003851828275174054,0.0,0.0,0.0,0.0,0.0,0.0,0.0,3.236361762384843e-05,-4.99467728404257e-05,-4.753698925168137e-05,0.00026512725798699677,-3.0401219316300576e-05,4.76837158203125e-06,-1.220703584392524e-05,0.0006438110702817135,3.008207810597656e-05,-0.000814405591462908,-0.000425486964680589,-0.00011054187222387637,-8.902287366263065e-05,0.0003851828275174054,0.09352988004684448,11.826318740844727,-1.2156097888946533,-21.816438674926758,-0.2786155343055725,-2.5271639823913574,0.28964561223983765,0
49,0.2403888702392578,-0.09352988004684448,-11.826318740844727,1.2156097888946533,21.816438674926758,0.2786155343055725,2.5271639823913574,-0.28964561223983765,0.0,0.0,0.0,0.0,0.0,0.0,0.0,-0.15615687638387915,0.5160209620205592,0.011376538863164995,0.5247803732234774,-0.25191293252653096,0.12529950311234517,-0.3179919694775444,0.17284787400145826,-0.48747030005871284,-0.11142356373970969,-1.9466453136066175,0.133636303126812,2.595545591407352,0.9452567659970343,0.1728802376190821,-0.48752024683155326,-0.11147110072896137,-1.9463801863486305,0.1336059019074957,2.595550359778934,0.9452445589611904,-0.0006438110702817135,-3.008207810597656e-05,0.000814405591462908,0.000425486964680589,0.00011054187222387637,8.902287366263065e-05,-0.0003851828275174054,0.0,0.0,0.0,0.0,0.0,0.0,0.0,3.236361762384843e-05,-4.99467728404257e-05,-4.753698925168137e-05,0.00026512725798699677,-3.0401219316300576e-05,4.76837158203125e-06,-1.220703584392524e-05,0.0006438110702817135,3.008207810597656e-05,-0.000814405591462908,-0.000425486964680589,-0.00011054187222387637,-8.902287366263065e-05,0.0003851828275174054,0.09352988004684448,11.826318740844727,-1.2156097888946533,-21.816438674926758,-0.2786155343055725,-2.5271639823913574,0.28964561223983765,0
50,0.24499917030334473,-0.09352988004684448,-11.802515029907227,1.2433807849884033,21.868013381958008,0.2786155343055725,2.5079379081726074,-0.31711143255233765,0.0,0.0,0.0,0.0,0.0,0.0,0.0,-0.15800836682331543,0.5223846599549065,0.0026593468154064645,0.5195799384450699,-0.2514933707556744,0.1245599019641704,-0.31716287805521515,0.1728478740014528,-0.48746984176340785,-0.11142551258154083,-1.9466503918063547,0.133636303126812,2.595547727637821,0.9452641622689034,0.1728802376190821,-0.48752024683155326,-0.11147110072896137,-1.9463801863486305,0.1336059019074957,2.595550359778934,0.9452445589611904,-0.0005420199277586446,-0.0004484923375351692,-0.00042870604414373315,-0.0016629849284577134,5.417198832920726e-05,0.0005162776568812473,0.0005775354917042449,0.0,0.0,0.0,0.0,0.0,0.0,0.0,3.236361762931628e-05,-5.040506814540935e-05,-4.55881474205333e-05,0.0002702054577241597,-3.0401219316300576e-05,2.632141113068087e-06,-1.9603307713000895e-05,0.0005420199277586446,0.0004484923375351692,0.00042870604414373315,0.0016629849284577134,-5.417198832920726e-05,-0.0005162776568812473,-0.0005775354917042449,0.09352988004684448,11.802515029907227,-1.2433807849884033,-21.868013381958008,-0.2786155343055725,-2.5079379081726074,0.31711143255233765,0
51,0.2500338554382324,-0.09352988004684448,-11.802515029907227,1.2433807849884033,21.868013381958008,0.2786155343055725,2.5079379081726074,-0.31711143255233765,0.0,0.0,0.0,0.0,0.0,0.0,0.0,-0.15800836682331543,0.5223846599549065,0.0026593468154064645,0.5195799384450699,-0.2514933707556744,0.1245599019641704,-0.31716287805521515,0.1728478740014528,-0.48746984176340785,-0.11142551258154083,-1.9466503918063547,0.133636303126812,2.595547727637821,0.9452641622689034,0.1728802376190821,-0.48752024683155326,-0.11147110072896137,-1.9463801863486305,0.1336059019074957,2.595550359778934,0.9452445589611904,-0.0005420199277586446,-0.0004484923375351692,-0.00042870604414373315,-0.0016629849284577134,5.417198832920726e-05,0.0005162776568812473,0.0005775354917042449,0.0,0.0,0.0,0.0,0.0,0.0,0.0,3.236361762931628e-05,-5.040506814540935e-05,-4.55881474205333e-05,0.0002702054577241597,-3.0401219316300576e-05,2.632141113068087e-06,-1.9603307713000895e-05,0.0005420199277586446,0.0004484923375351692,0.00042870604414373315,0.0016629849284577134,-5.417198832920726e-05,-0.0005162776568812473,-0.0005775354917042449,0.09352988004684448,11.802515029907227,-1.2433807849884033,-21.868013381958008,-0.2786155343055725,-2.5079379081726074,0.31711143255233765,0
52,0.2500338554382324,-0.09352988004684448,-11.802515029907227,1.2433807849884033,21.868013381958008,0.2786155343055725,2.5079379081726074,-0.31711143255233765,0.0,0.0,0.0,0.0,0.0,0.0,0.0,-0.15800836682331543,0.5223846599549065,0.0026593468154064645,0.5195799384450699,-0.2514933707556744,0.1245599019641704,-0.31716287805521515,0.1728478740014528,-0.48746984176340785,-0.11142551258154083,-1.9466503918063547,0.133636303126812,2.595547727637821,0.9452641622689034,0.1728802376190821,-0.48752024683155326,-0.11147110072896137,-1.9463801863486305,0.1336059019074957,2.595550359778934,0.9452445589611904,-0.0005420199277586446,-0.0004484923375351692,-0.00042870604414373315,-0.0016629849284577134,5.417198832920726e-05,0.0005162776568812473,0.0005775354917042449,0.0,0.0,0.0,0.0,0.0,0.0,0.0,3.236361762931628e-05,-5.040506814540935e-05,-4.55881474205333e-05,0.0002702054577241597,-3.0401219316300576e-05,2.632141113068087e-06,-1.9603307713000895e-05,0.0005420199277586446,0.0004484923375351692,0.00042870604414373315,0.0016629849284577134,-5.417198832920726e-05,-0.0005162776568812473,-0.0005775354917042449,0.09352988004684448,11.802515029907227,-1.2433807849884033,-21.868013381958008,-0.2786155343055725,-2.5079379081726074,0.31711143255233765,0
53,0.26000261306762695,-0.17287558317184448,-11.774744033813477,1.1680023670196533,21.792634963989258,0.2841086983680725,2.5207552909851074,-0.27591270208358765,0.0,0.0,0.0,0.0,0.0,0.0,0.0,-0.15772769388645755,0.526053515301082,-0.001796862719657917,0.5209630857318704,-0.25124724149431554,0.12445520011486114,-0.3190338975462275,0.17285344212097034,-0.4874739951212123,-0.11142022286799916,-1.946642876860977,0.13363462651438182,2.5955463078448253,0.9452553628079072,0.1728802376190821,-0.48752024683155326,-0.11147110072896137,-1.9463801863486305,0.1336059019074957,2.595550359778934,0.9452445589611904,0.0006465505814594353,0.0003453656986801222,0.0004624107499735423,0.0005822041543977958,-5.336567894493292e-05,0.00010841865019994626,-0.0012659750347505656,0.0,0.0,0.0,0.0,0.0,0.0,0.0,2.6795498111770177e-05,-4.625171034094988e-05,-5.087786096220903e-05,0.0002626905123463974,-2.872460688613243e-05,4.0519341086842076e-06,-1.080384671681145e-05,-0.0006465505814594353,-0.0003453656986801222,-0.0004624107499735423,-0.0005822041543977958,5.336567894493292e-05,-0.00010841865019994626,0.0012659750347505656,0.17287558317184448,11.774744033813477,-1.1680023670196533,-21.792634963989258,-0.2841086983680725,-2.5207552909851074,0.27591270208358765,0
54,0.26500773429870605,-0.17287558317184448,-11.774744033813477,1.1680023670196533,21.792634963989258,0.2841086983680725,2.5207552909851074,-0.27591270208358765,0.0,0.0,0.0,0.0,0.0,0.0,0.0,-0.15772769388645755,0.526053515301082,-0.001796862719657917,0.5209630857318704,-0.25124724149431554,0.12445520011486114,-0.3190338975462275,0.17285344212097034,-0.4874739951212123,-0.11142022286799916,-1.946642876860977,0.13363462651438182,2.5955463078448253,0.9452553628079072,0.1728802376190821,-0.48752024683155326,-0.11147110072896137,-1.9463801863486305,0.1336059019074957,2.595550359778934,0.9452445589611904,0.0006465505814594353,0.0003453656986801222,0.0004624107499735423,0.0005822041543977958,-5.336567894493292e-05,0.00010841865019994626,-0.0012659750347505656,0.0,0.0,0.0,0.0,0.0,0.0,0.0,2.6795498111770177e-05,-4.625171034094988e-05,-5.087786096220903e-05,0.0002626905123463974,-2.872460688613243e-05,4.0519341086842076e-06,-1.080384671681145e-05,-0.0006465505814594353,-0.0003453656986801222,-0.0004624107499735423,-0.0005822041543977958,5.336567894493292e-05,-0.00010841865019994626,0.0012659750347505656,0.17287558317184448,11.774744033813477,-1.1680023670196533,-21.792634963989258,-0.2841086983680725,-2.5207552909851074,0.27591270208358765,0
55,0.2699930667877197,-0.17287558317184448,-11.774744033813477,1.1680023670196533,21.792634963989258,0.2841086983680725,2.5207552909851074,-0.27591270208358765,0.0,0.0,0.0,0.0,0.0,0.0,0.0,-0.15772769388645755,0.526053515301082,-0.001796862719657917,0.5209630857318704,-0.25124724149431554,0.12445520011486114,-0.3190338975462275,0.17285344212097034,-0.4874739951212123,-0.11142022286799916,-1.946642876860977,0.13363462651438182,2.5955463078448253,0.9452553628079072,0.1728802376190821,-0.48752024683155326,-0.11147110072896137,-1.9463801863486305,0.1336059019074957,2.595550359778934,0.9452445589611904,0.0006465505814594353,0.0003453656986801222,0.0004624107499735423,0.0005822041543977958,-5.336567894493292e-05,0.00010841865019994626,-0.0012659750347505656,0.0,0.0,0.0,0.0,0.0,0.0,0.0,2.6795498111770177e-05,-4.625171034094988e-05,-5.087786096220903e-05,0.0002626905123463974,-2.872460688613243e-05,4.0519341086842076e-06,-1.080384671681145e-05,-0.0006465505814594353,-0.0003453656986801222,-0.0004624107499735423,-0.0005822041543977958,5.336567894493292e-05,-0.00010841865019994626,0.0012659750347505656,0.17287558317184448,11.774744033813477,-1.1680023670196533,-21.792634963989258,-0.2841086983680725,-2.5207552909851074,0.27591270208358765,0
56,0.2750058174133301,-0.17287558317184448,-11.774744033813477,1.1680023670196533,21.792634963989258,0.2841086983680725,2.5207552909851074,-0.27591270208358765,0.0,0.0,0.0,0.0,0.0,0.0,0.0,-0.15772769388645755,0.526053515301082,-0.001796862719657917,0.5209630857318704,-0.25124724149431554,0.12445520011486114,-0.3190338975462275,0.17285344212097034,-0.4874739951212123,-0.11142022286799916,-1.946642876860977,0.13363462651438182,2.5955463078448253,0.9452553628079072,0.1728802376190821,-0.48752024683155326,-0.11147110072896137,-1.9463801863486305,0.1336059019074957,2.595550359778934,0.9452445589611904,0.0006465505814594353,0.0003453656986801222,0.0004624107499735423,0.0005822041543977958,-5.336567894493292e-05,0.00010841865019994626,-0.0012659750347505656,0.0,0.0,0.0,0.0,0.0,0.0,0.0,2.6795498111770177e-05,-4.625171034094988e-05,-5.087786096220903e-05,0.0002626905123463974,-2.872460688613243e-05,4.0519341086842076e-06,-1.080384671681145e-05,-0.0006465505814594353,-0.0003453656986801222,-0.0004624107499735423,-0.0005822041543977958,5.336567894493292e-05,-0.00010841865019994626,0.0012659750347505656,0.17287558317184448,11.774744033813477,-1.1680023670196533,-21.792634963989258,-0.2841086983680725,-2.5207552909851074,0.27591270208358765,0
57,0.2799952030181885,-0.19667929410934448,-11.802515029907227,1.1918060779571533,21.816438674926758,0.2905173897743225,2.5271639823913574,-0.26858848333358765,0.0,0.0,0.0,0.0,0.0,0.0,0.0,-0.15691999503061732,0.5046995177902187,0.00033118741822270564,0.5349872021035466,-0.2513045150018494,0.12616192001140616,-0.31970753025746534,0.17285582118982457,-0.4874698717897424,-0.11142189330385442,-1.946644385431451,0.13363498069240748,2.5955455914073764,0.9452544263144637,0.1728802376190821,-0.48752024683155326,-0.11147110072896137,-1.9463801863486305,0.1336059019074957,2.595550359778934,0.9452445589611904,0.0006477156465404658,-0.0003094428088206234,-0.0005176797370554847,-0.0001037281551499373,-0.005651806733330595,-4.6006118147198425e-05,-0.001449992497050898,0.0,0.0,0.0,0.0,0.0,0.0,0.0,2.4416429257545502e-05,-5.0375041810879484e-05,-4.92074251069452e-05,0.0002641990828204932,-2.9078784911790168e-05,4.7683715576063435e-06,-9.867353273240731e-06,-0.0006477156465404658,0.0003094428088206234,0.0005176797370554847,0.0001037281551499373,0.005651806733330595,4.6006118147198425e-05,0.001449992497050898,0.19667929410934448,11.802515029907227,-1.1918060779571533,-21.816438674926758,-0.2905173897743225,-2.5271639823913574,0.26858848333358765,0
58,0.28499555587768555,-0.19667929410934448,-11.802515029907227,1.1918060779571533,21.816438674926758,0.2905173897743225,2.5271639823913574,-0.26858848333358765,0.0,0.0,0.0,0.0,0.0,0.0,0.0,-0.15691999503061732,0.5046995177902187,0.00033118741822270564,0.5349872021035466,-0.2513045150018494,0.12616192001140616,-0.31970753025746534,0.17285582118982457,-0.4874698717897424,-0.11142189330385442,-1.946644385431451,0.13363498069240748,2.5955455914073764,0.9452544263144637,0.1728802376190821,-0.48752024683155326,-0.11147110072896137,-1.9463801863486305,0.1336059019074957,2.595550359778934,0.9452445589611904,0.0006477156465404658,-0.0003094428088206234,-0.0005176797370554847,-0.0001037281551499373,-0.005651806733330595,-4.6006118147198425e-05,-0.001449992497050898,0.0,0.0,0.0,0.0,0.0,0.0,0.0,2.4416429257545502e-05,-5.0375041810879484e-05,-4.92074251069452e-05,0.0002641990828204932,-2.9078784911790168e-05,4.7683715576063435e-06,-9.867353273240731e-06,-0.0006477156465404658,0.0003094428088206234,0.0005176797370554847,0.0001037281551499373,0.005651806733330595,4.6006118147198425e-05,0.001449992497050898,0.19667929410934448,11.802515029907227,-1.1918060779571533,-21.816438674926758,-0.2905173897743225,-2.5271639823913574,0.26858848333358765,0
59,0.29003453254699707,-0.17287558317184448,-11.802515029907227,1.2671844959259033,21.868013381958008,0.2722068428993225,2.5207552909851074,-0.28232139348983765,0.0,0.0,0.0,0.0,0.0,0.0,0.0,-0.15651916461327017,0.5051760749123587,0.0025068486854386055,0.5373981321686193,-0.2518961455207962,0.12689059351888177,-0.31829835436752313,0.1728534508708593,-0.4874698679011077,-0.11142718301739608,-1.9466481636172053,0.13363701520363488,2.595546303484175,0.945259257318295,0.1728802376190821,-0.48752024683155326,-0.11147110072896137,-1.9463801863486305,0.1336059019074957,2.595550359778934,0.9452445589611904,-0.00021071757382459198,-0.0009033512100606658,-0.0019658813754599245,-0.0006164964996834957,-4.694864127592765e-05,0.0003878728700255264,-0.0005551876504453294,0.0,0.0,0.0,0.0,0.0,0.0,0.0,2.6786748222817902e-05,-5.037893044557151e-05,-4.3917711565283346e-05,0.00026797726857474835,-3.111329613919578e-05,4.056294759191559e-06,-1.469835710454781e-05,0.00021071757382459198,0.0009033512100606658,0.0019658813754599245,0.0006164964996834957,4.694864127592765e-05,-0.0003878728700255264,0.0005551876504453294,0.17287558317184448,11.802515029907227,-1.2671844959259033,-21.868013381958008,-0.2722068428993225,-2.5207552909851074,0.28232139348983765,0
60,0.2950456142425537,-0.17287558317184448,-11.802515029907227,1.2671844959259033,21.868013381958008,0.2722068428993225,2.5207552909851074,-0.28232139348983765,0.0,0.0,0.0,0.0,0.0,0.0,0.0,-0.15651916461327017,0.5051760749123587,0.0025068486854386055,0.5373981321686193,-0.2518961455207962,0.12689059351888177,-0.31829835436752313,0.1728534508708593,-0.4874698679011077,-0.11142718301739608,-1.9466481636172053,0.13363701520363488,2.595546303484175,0.945259257318295,0.1728802376190821,-0.48752024683155326,-0.11147110072896137,-1.9463801863486305,0.1336059019074957,2.595550359778934,0.9452445589611904,-0.00021071757382459198,-0.0009033512100606658,-0.0019658813754599245,-0.0006164964996834957,-4.694864127592765e-05,0.0003878728700255264,-0.0005551876504453294,0.0,0.0,0.0,0.0,0.0,0.0,0.0,2.6786748222817902e-05,-5.037893044557151e-05,-4.3917711565283346e-05,0.00026797726857474835,-3.111329613919578e-05,4.056294759191559e-06,-1.469835710454781e-05,0.00021071757382459198,0.0009033512100606658,0.0019658813754599245,0.0006164964996834957,4.694864127592765e-05,-0.0003878728700255264,0.0005551876504453294,0.17287558317184448,11.802515029907227,-1.2671844959259033,-21.868013381958008,-0.2722068428993225,-2.5207552909851074,0.28232139348983765,0
61,0.300034761428833,-0.06972616910934448,-11.826318740844727,1.2433807849884033,21.768831253051758,0.2841086983680725,2.5207552909851074,-0.30978721380233765,0.0,0.0,0.0,0.0,0.0,0.0,0.0,-0.1508586049499118,0.5165492412771447,0.01175280946694577,0.5291868156242067,-0.2534017165655558,0.12602902960428483,-0.31782453613445677,0.172846203565614,-0.4874681741237629,-0.11142551258154083,-1.9466431946623635,0.13363569277524948,2.595546303484175,0.9452591427371105,0.1728802376190821,-0.48752024683155326,-0.11147110072896137,-1.9463801863486305,0.1336059019074957,2.595550359778934,0.9452445589611904,-0.0014821366368999599,-0.0003989910964651579,-0.0005594070420581461,0.0012631080496908619,-0.00012446141475568788,0.000166115373261781,0.0004986079203164817,0.0,0.0,0.0,0.0,0.0,0.0,0.0,3.403405346810717e-05,-5.2072707790340456e-05,-4.55881474205333e-05,0.00026300831373293754,-2.9790867753787253e-05,4.056294759191559e-06,-1.4583775920118391e-05,0.0014821366368999599,0.0003989910964651579,0.0005594070420581461,-0.0012631080496908619,0.00012446141475568788,-0.000166115373261781,-0.0004986079203164817,0.06972616910934448,11.826318740844727,-1.2433807849884033,-21.768831253051758,-0.2841086983680725,-2.5207552909851074,0.30978721380233765,0
62,0.30504560470581055,-0.06972616910934448,-11.826318740844727,1.2433807849884033,21.768831253051758,0.2841086983680725,2.5207552909851074,-0.30978721380233765,0.0,0.0,0.0,0.0,0.0,0.0,0.0,-0.1508586049499118,0.5165492412771447,0.01175280946694577,0.5291868156242067,-0.2534017165655558,0.12602902960428483,-0.31782453613445677,0.172846203565614,-0.4874681741237629,-0.11142551258154083,-1.9466431946623635,0.13363569277524948,2.595546303484175,0.9452591427371105,0.1728802376190821,-0.48752024683155326,-0.11147110072896137,-1.9463801863486305,0.1336059019074957,2.595550359778934,0.9452445589611904,-0.0014821366368999599,-0.0003989910964651579,-0.0005594070420581461,0.0012631080496908619,-0.00012446141475568788,0.000166115373261781,0.0004986079203164817,0.0,0.0,0.0,0.0,0.0,0.0,0.0,3.403405346810717e-05,-5.2072707790340456e-05,-4.55881474205333e-05,0.00026300831373293754,-2.9790867753787253e-05,4.056294759191559e-06,-1.4583775920118391e-05,0.0014821366368999599,0.0003989910964651579,0.0005594070420581461,-0.0012631080496908619,0.00012446141475568788,-0.000166115373261781,-0.0004986079203164817,0.06972616910934448,11.826318740844727,-1.2433807849884033,-21.768831253051758,-0.2841086983680725,-2.5207552909851074,0.30978721380233765,0
63,0.3100314140319824,-0.09352988004684448,-11.802515029907227,1.1918060779571533,21.840242385864258,0.2722068428993225,2.5207552909851074,-0.26217979192733765,0.0,0.0,0.0,0.0,0.0,0.0,0.0,-0.14743043862267907,0.5201378088988641,0.01116825360239037,0.5253294148624815,-0.25316306488372375,0.12562398755885051,-0.3165619443660431,0.1728478740014528,-0.48746986788906665,-0.11142189330385442,-1.9466466655701804,0.13363701081573007,2.595546303484175,0.945253875145744,0.1728802376190821,-0.48752024683155326,-0.11147110072896137,-1.9463801863486305,0.1336059019074957,2.595550359778934,0.9452445589611904,-0.0004032182665940615,-0.0003861178998108773,0.0011048510358327359,-0.0005327228971491055,0.0005168294831361549,0.00022320062608556572,-0.001498157196012964,0.0,0.0,0.0,0.0,0.0,0.0,0.0,3.236361762931628e-05,-5.037894248660635e-05,-4.92074251069452e-05,0.0002664792215498757,-3.110890823437851e-05,4.056294759191559e-06,-9.316184553576079e-06,0.0004032182665940615,0.0003861178998108773,-0.0011048510358327359,0.0005327228971491055,-0.0005168294831361549,-0.00022320062608556572,0.001498157196012964,0.09352988004684448,11.802515029907227,-1.1918060779571533,-21.840242385864258,-0.2722068428993225,-2.5207552909851074,0.26217979192733765,0
64,0.3150453567504883,-0.09352988004684448,-11.802515029907227,1.1918060779571533,21.840242385864258,0.2722068428993225,2.5207552909851074,-0.26217979192733765,0.0,0.0,0.0,0.0,0.0,0.0,0.0,-0.14743043862267907,0.5201378088988641,0.01116825360239037,0.5253294148624815,-0.25316306488372375,0.12562398755885051,-0.3165619443660431,0.1728478740014528,-0.48746986788906665,-0.11142189330385442,-1.9466466655701804,0.13363701081573007,2.595546303484175,0.945253875145744,0.1728802376190821,-0.48752024683155326,-0.11147110072896137,-1.9463801863486305,0.1336059019074957,2.595550359778934,0.9452445589611904,-0.0004032182665940615,-0.0003861178998108773,0.0011048510358327359,-0.0005327228971491055,0.0005168294831361549,0.00022320062608556572,-0.001498157196012964,0.0,0.0,0.0,0.0,0.0,0.0,0.0,3.236361762931628e-05,-5.037894248660635e-05,-4.92074251069452e-05,0.0002664792215498757,-3.110890823437851e-05,4.056294759191559e-06,-9.316184553576079e-06,0.0004032182665940615,0.0003861178998108773,-0.0011048510358327359,0.0005327228971491055,-0.0005168294831361549,-0.00022320062608556572,0.001498157196012964,0.09352988004684448,11.802515029907227,-1.1918060779571533,-21.840242385864258,-0.2722068428993225,-2.5207552909851074,0.26217979192733765,0
65,0.32000732421875,-0.12130087614059448,-11.850122451782227,1.2156097888946533,21.840242385864258,0.2786155343055725,2.5207552909851074,-0.32352012395858765,0.0,0.0,0.0,0.0,0.0,0.0,0.0,-0.1497338480678741,0.5069579889229772,0.0026566153701648412,0.5330875561762096,-0.2515374451578312,0.12647340628457351,-0.31565989536416694,0.17284982284328393,-0.48746650952037673,-0.11142356373970969,-1.9466470226987804,0.13363630307261556,2.595546303484175,0.9452639103884504,0.1728802376190821,-0.48752024683155326,-0.11147110072896137,-1.9463801863486305,0.1336059019074957,2.595550359778934,0.9452445589611904,-0.0004430118996635537,0.001113335754226498,-0.0002814793134637508,-0.0003360177318629268,-0.00025359591427237256,6.762712340971475e-05,0.000871827011959364,0.0,0.0,0.0,0.0,0.0,0.0,0.0,3.041477579818208e-05,-5.3737311176527136e-05,-4.753698925168137e-05,0.0002668363501499016,-3.040116511987545e-05,4.056294759191559e-06,-1.9351427259950427e-05,0.0004430118996635537,-0.001113335754226498,0.0002814793134637508,0.0003360177318629268,0.00025359591427237256,-6.762712340971475e-05,-0.000871827011959364,0.12130087614059448,11.850122451782227,-1.2156097888946533,-21.840242385864258,-0.2786155343055725,-2.5207552909851074,0.32352012395858765,0
66,0.32500720024108887,-0.12130087614059448,-11.850122451782227,1.2156097888946533,21.840242385864258,0.2786155343055725,2.5207552909851074,-0.32352012395858765,0.0,0.0,0.0,0.0,0.0,0.0,0.0,-0.1497338480678741,0.5069579889229772,0.0026566153701648412,0.5330875561762096,-0.2515374451578312,0.12647340628457351,-0.31565989536416694,0.17284982284328393,-0.48746650952037673,-0.11142356373970969,-1.9466470226987804,0.13363630307261556,2.595546303484175,0.9452639103884504,0.1728802376190821,-0.48752024683155326,-0.11147110072896137,-1.9463801863486305,0.1336059019074957,2.595550359778934,0.9452445589611904,-0.0004430118996635537,0.001113335754226498,-0.0002814793134637508,-0.0003360177318629268,-0.00025359591427237256,6.762712340971475e-05,0.000871827011959364,0.0,0.0,0.0,0.0,0.0,0.0,0.0,3.041477579818208e-05,-5.3737311176527136e-05,-4.753698925168137e-05,0.0002668363501499016,-3.040116511987545e-05,4.056294759191559e-06,-1.9351427259950427e-05,0.0004430118996635537,-0.001113335754226498,0.0002814793134637508,0.0003360177318629268,0.00025359591427237256,-6.762712340971475e-05,-0.000871827011959364,0.12130087614059448,11.850122451782227,-1.2156097888946533,-21.840242385864258,-0.2786155343055725,-2.5207552909851074,0.32352012395858765,0
67,0.3299999237060547,-0.17287558317184448,-11.826318740844727,1.2156097888946533,21.816438674926758,0.2786155343055725,2.5271639823913574,-0.31711143255233765,0.0,0.0,0.0,0.0,0.0,0.0,0.0,-0.14810931271187136,0.5261793440281951,0.01080949230035918,0.5218327955303238,-0.2520998670186662,0.12440031380940444,-0.31595191346489243,0.17285344212097034,-0.4874692035371318,-0.11142348463477988,-1.9466464370858285,0.13363630312681168,2.595545591407352,0.9452599920886697,0.1728802376190821,-0.48752024683155326,-0.11147110072896137,-1.9463801863486305,0.1336059019074957,2.595550359778934,0.9452445589611904,-0.00021426522614746105,0.0009343030278215398,-0.00045904619967584195,-0.0004535663001950061,0.0003222503982761029,-1.916388562363125e-05,0.0009082759274749166,0.0,0.0,0.0,0.0,0.0,0.0,0.0,2.6795498111770177e-05,-5.104329442146005e-05,-4.761609418148238e-05,0.00026625073719799275,-3.0401219315995265e-05,4.76837158203125e-06,-1.5433127479314024e-05,0.00021426522614746105,-0.0009343030278215398,0.00045904619967584195,0.0004535663001950061,-0.0003222503982761029,1.916388562363125e-05,-0.0009082759274749166,0.17287558317184448,11.826318740844727,-1.2156097888946533,-21.816438674926758,-0.2786155343055725,-2.5271639823913574,0.31711143255233765,0
68,0.3350050449371338,-0.17287558317184448,-11.826318740844727,1.2156097888946533,21.816438674926758,0.2786155343055725,2.5271639823913574,-0.31711143255233765,0.0,0.0,0.0,0.0,0.0,0.0,0.0,-0.14810931271187136,0.5261793440281951,0.01080949230035918,0.5218327955303238,-0.2520998670186662,0.12440031380940444,-0.31595191346489243,0.17285344212097034,-0.4874692035371318,-0.11142348463477988,-1.9466464370858285,0.13363630312681168,2.595545591407352,0.9452599920886697,0.1728802376190821,-0.48752024683155326,-0.11147110072896137,-1.9463801863486305,0.1336059019074957,2.595550359778934,0.9452445589611904,-0.00021426522614746105,0.0009343030278215398,-0.00045904619967584195,-0.0004535663001950061,0.0003222503982761029,-1.916388562363125e-05,0.0009082759274749166,0.0,0.0,0.0,0.0,0.0,0.0,0.0,2.6795498111770177e-05,-5.104329442146005e-05,-4.761609418148238e-05,0.00026625073719799275,-3.0401219315995265e-05,4.76837158203125e-06,-1.5433127479314024e-05,0.00021426522614746105,-0.0009343030278215398,0.00045904619967584195,0.0004535663001950061,-0.0003222503982761029,1.916388562363125e-05,-0.0009082759274749166,0.17287558317184448,11.826318740844727,-1.2156097888946533,-21.816438674926758,-0.2786155343055725,-2.5271639823913574,0.31711143255233765,0
69,0.3400259017944336,-0.14510458707809448,-11.774744033813477,1.2156097888946533,21.792634963989258,0.2841086983680725,2.5271639823913574,-0.33084434270858765,0.0,0.0,0.0,0.0,0.0,0.0,0.0,-0.14742363137953754,0.5137128324223796,0.02335535961942372,0.528715338737415,-0.2516021104765148,0.12566634198849488,-0.31612658999161514,0.1728514932791392,-0.48747202680616375,-0.11142356373956083,-1.9466455499419786,0.13363569277524948,2.595545591407352,0.9452613436318076,0.1728802376190821,-0.48752024683155326,-0.11147110072896137,-1.9463801863486305,0.1336059019074957,2.595550359778934,0.9452445589611904,-0.0002582324458057085,-0.0009846121390440468,0.00011271552644783343,0.0007366208777192821,1.9327748699797326e-05,-0.00013798302737077472,0.0010942000885274458,0.0,0.0,0.0,0.0,0.0,0.0,0.0,2.8744339942904373e-05,-4.8220025389511534e-05,-4.7536989400534524e-05,0.0002653635933480558,-2.9790867753787253e-05,4.76837158203125e-06,-1.678467061716482e-05,0.0002582324458057085,0.0009846121390440468,-0.00011271552644783343,-0.0007366208777192821,-1.9327748699797326e-05,0.00013798302737077472,-0.0010942000885274458,0.14510458707809448,11.774744033813477,-1.2156097888946533,-21.792634963989258,-0.2841086983680725,-2.5271639823913574,0.33084434270858765,0
70,0.34502172470092773,-0.14510458707809448,-11.774744033813477,1.2156097888946533,21.792634963989258,0.2841086983680725,2.5271639823913574,-0.33084434270858765,0.0,0.0,0.0,0.0,0.0,0.0,0.0,-0.14742363137953754,0.5137128324223796,0.02335535961942372,0.528715338737415,-0.2516021104765148,0.12566634198849488,-0.31612658999161514,0.1728514932791392,-0.48747202680616375,-0.11142356373956083,-1.9466455499419786,0.13363569277524948,2.595545591407352,0.9452613436318076,0.1728802376190821,-0.48752024683155326,-0.11147110072896137,-1.9463801863486305,0.1336059019074957,2.595550359778934,0.9452445589611904,-0.0002582324458057085,-0.0009846121390440468,0.00011271552644783343,0.0007366208777192821,1.9327748699797326e-05,-0.00013798302737077472,0.0010942000885274458,0.0,0.0,0.0,0.0,0.0,0.0,0.0,2.8744339942904373e-05,-4.8220025389511534e-05,-4.7536989400534524e-05,0.0002653635933480558,-2.9790867753787253e-05,4.76837158203125e-06,-1.678467061716482e-05,0.0002582324458057085,0.0009846121390440468,-0.00011271552644783343,-0.0007366208777192821,-1.9327748699797326e-05,0.00013798302737077472,-0.0010942000885274458,0.14510458707809448,11.774744033813477,-1.2156097888946533,-21.792634963989258,-0.2841086983680725,-2.5271639823913574,0.33084434270858765,0
71,0.3500244617462158,-0.17287558317184448,-11.802515029907227,1.2433807849884033,21.792634963989258,0.2786155343055725,2.5271639823913574,-0.33084434270858765,0.0,0.0,0.0,0.0,0.0,0.0,0.0,-0.15019216001317123,0.5115896619509551,0.021179909550568657,0.5302472714308393,-0.25084888192745103,0.1256487271280036,-0.3158233285757486,0.17285344212097034,-0.4874699203817175,-0.11142551258154082,-1.9466433281908564,0.133636303126812,2.595545591407352,0.9452617062263178,0.1728802376190821,-0.48752024683155326,-0.11147110072896137,-1.9463801863486305,0.1336059019074957,2.595550359778934,0.9452445589611904,0.0005030808097982208,-0.0006393261356184308,-0.0005619540174337777,0.0009144423165191123,0.00021561542803312514,6.980660900502638e-05,0.000981081186451095,0.0,0.0,0.0,0.0,0.0,0.0,0.0,2.6795498111770177e-05,-5.032644983576917e-05,-4.5588147420547176e-05,0.0002631418422258669,-3.0401219316300576e-05,4.76837158203125e-06,-1.7147265127359645e-05,-0.0005030808097982208,0.0006393261356184308,0.0005619540174337777,-0.0009144423165191123,-0.00021561542803312514,-6.980660900502638e-05,-0.000981081186451095,0.17287558317184448,11.802515029907227,-1.2433807849884033,-21.792634963989258,-0.2786155343055725,-2.5271639823913574,0.33084434270858765,0
72,0.3550281524658203,-0.17287558317184448,-11.802515029907227,1.2433807849884033,21.792634963989258,0.2786155343055725,2.5271639823913574,-0.33084434270858765,0.0,0.0,0.0,0.0,0.0,0.0,0.0,-0.15019216001317123,0.5115896619509551,0.021179909550568657,0.5302472714308393,-0.25084888192745103,0.1256487271280036,-0.3158233285757486,0.17285344212097034,-0.4874699203817175,-0.11142551258154082,-1.9466433281908564,0.133636303126812,2.595545591407352,0.9452617062263178,0.1728802376190821,-0.48752024683155326,-0.11147110072896137,-1.9463801863486305,0.1336059019074957,2.595550359778934,0.9452445589611904,0.0005030808097982208,-0.0006393261356184308,-0.0005619540174337777,0.0009144423165191123,0.00021561542803312514,6.980660900502638e-05,0.000981081186451095,0.0,0.0,0.0,0.0,0.0,0.0,0.0,2.6795498111770177e-05,-5.032644983576917e-05,-4.5588147420547176e-05,0.0002631418422258669,-3.0401219316300576e-05,4.76837158203125e-06,-1.7147265127359645e-05,-0.0005030808097982208,0.0006393261356184308,0.0005619540174337777,-0.0009144423165191123,-0.00021561542803312514,-6.980660900502638e-05,-0.000981081186451095,0.17287558317184448,11.802515029907227,-1.2433807849884033,-21.792634963989258,-0.2786155343055725,-2.5271639823913574,0.33084434270858765,0
73,0.36001157760620117,-0.09352988004684448,-11.826318740844727,1.2156097888946533,21.768831253051758,0.2786155343055725,2.5143465995788574,-0.30337852239608765,0.0,0.0,0.0,0.0,0.0,0.0,0.0,-0.14769912152641304,0.5275954497019649,0.019684110000302086,0.5225154780884508,-0.2509327870212122,0.12431020279604559,-0.31622971578628595,0.1728478740014528,-0.48747030596353225,-0.11142356373970967,-1.9466418933266154,0.133636303126812,2.5955470155609977,0.9452584125567229,0.1728802376190821,-0.48752024683155326,-0.11147110072896137,-1.9463801863486305,0.1336059019074957,2.595550359778934,0.9452445589611904,-0.0006214510955169549,0.00017596846280120774,6.852246453407374e-05,0.001183096584548567,7.1371004758784e-05,0.0003852707167669048,-0.00015129683757782048,0.0,0.0,0.0,0.0,0.0,0.0,0.0,3.236361762931628e-05,-4.9940868021014495e-05,-4.753698925169525e-05,0.00026170697798488796,-3.0401219316300576e-05,3.3442179363518676e-06,-1.3853595532520302e-05,0.0006214510955169549,-0.00017596846280120774,-6.852246453407374e-05,-0.001183096584548567,-7.1371004758784e-05,-0.0003852707167669048,0.00015129683757782048,0.09352988004684448,11.826318740844727,-1.2156097888946533,-21.768831253051758,-0.2786155343055725,-2.5143465995788574,0.30337852239608765,0
74,0.3649942874908447,-0.09352988004684448,-11.826318740844727,1.2156097888946533,21.768831253051758,0.2786155343055725,2.5143465995788574,-0.30337852239608765,0.0,0.0,0.0,0.0,0.0,0.0,0.0,-0.14769912152641304,0.5275954497019649,0.019684110000302086,0.5225154780884508,-0.2509327870212122,0.12431020279604559,-0.31622971578628595,0.1728478740014528,-0.48747030596353225,-0.11142356373970967,-1.9466418933266154,0.133636303126812,2.5955470155609977,0.9452584125567229,0.1728802376190821,-0.48752024683155326,-0.11147110072896137,-1.9463801863486305,0.1336059019074957,2.595550359778934,0.9452445589611904,-0.0006214510955169549,0.00017596846280120774,6.852246453407374e-05,0.001183096584548567,7.1371004758784e-05,0.0003852707167669048,-0.00015129683757782048,0.0,0.0,0.0,0.0,0.0,0.0,0.0,3.236361762931628e-05,-4.9940868021014495e-05,-4.753698925169525e-05,0.00026170697798488796,-3.0401219316300576e-05,3.3442179363518676e-06,-1.3853595532520302e-05,0.0006214510955169549,-0.00017596846280120774,-6.852246453407374e-05,-0.001183096584548567,-7.1371004758784e-05,-0.0003852707167669048,0.00015129683757782048,0.09352988004684448,11.826318740844727,-1.2156097888946533,-21.768831253051758,-0.2786155343055725,-2.5143465995788574,0.30337852239608765,0
75,0.37000179290771484,-0.09352988004684448,-11.826318740844727,1.2156097888946533,21.768831253051758,0.2786155343055725,2.5143465995788574,-0.30337852239608765,0.0,0.0,0.0,0.0,0.0,0.0,0.0,-0.14769912152641304,0.5275954497019649,0.019684110000302086,0.5225154780884508,-0.2509327870212122,0.12431020279604559,-0.31622971578628595,0.1728478740014528,-0.48747030596353225,-0.11142356373970967,-1.9466418933266154,0.133636303126812,2.5955470155609977,0.9452584125567229,0.1728802376190821,-0.48752024683155326,-0.11147110072896137,-1.9463801863486305,0.1336059019074957,2.595550359778934,0.9452445589611904,-0.0006214510955169549,0.00017596846280120774,6.852246453407374e-05,0.001183096584548567,7.1371004758784e-05,0.0003852707167669048,-0.00015129683757782048,0.0,0.0,0.0,0.0,0.0,0.0,0.0,3.236361762931628e-05,-4.9940868021014495e-05,-4.753698925169525e-05,0.00026170697798488796,-3.0401219316300576e-05,3.3442179363518676e-06,-1.3853595532520302e-05,0.0006214510955169549,-0.00017596846280120774,-6.852246453407374e-05,-0.001183096584548567,-7.1371004758784e-05,-0.0003852707167669048,0.00015129683757782048,0.09352988004684448,11.826318740844727,-1.2156097888946533,-21.768831253051758,-0.2786155343055725,-2.5143465995788574,0.30337852239608765,0
76,0.37500691413879395,-0.09352988004684448,-11.826318740844727,1.2156097888946533,21.768831253051758,0.2786155343055725,2.5143465995788574,-0.30337852239608765,0.0,0.0,0.0,0.0,0.0,0.0,0.0,-0.14769912152641304,0.5275954497019649,0.019684110000302086,0.5225154780884508,-0.2509327870212122,0.12431020279604559,-0.31622971578628595,0.1728478740014528,-0.48747030596353225,-0.11142356373970967,-1.9466418933266154,0.133636303126812,2.5955470155609977,0.9452584125567229,0.1728802376190821,-0.48752024683155326,-0.11147110072896137,-1.9463801863486305,0.1336059019074957,2.595550359778934,0.9452445589611904,-0.0006214510955169549,0.00017596846280120774,6.852246453407374e-05,0.001183096584548567,7.1371004758784e-05,0.0003852707167669048,-0.00015129683757782048,0.0,0.0,0.0,0.0,0.0,0.0,0.0,3.236361762931628e-05,-4.9940868021014495e-05,-4.753698925169525e-05,0.00026170697798488796,-3.0401219316300576e-05,3.3442179363518676e-06,-1.3853595532520302e-05,0.0006214510955169549,-0.00017596846280120774,-6.852246453407374e-05,-0.001183096584548567,-7.1371004758784e-05,-0.0003852707167669048,0.00015129683757782048,0.09352988004684448,11.826318740844727,-1.2156097888946533,-21.768831253051758,-0.2786155343055725,-2.5143465995788574,0.30337852239608765,0
77,0.3800692558288574,-0.14510458707809448,-11.802515029907227,1.1918060779571533,21.840242385864258,0.2722068428993225,2.5271639823913574,-0.27591270208358765,0.0,0.0,0.0,0.0,0.0,0.0,0.0,-0.14758228847660496,0.5188537082645034,0.016186105053580854,0.5280869184577806,-0.2507378747478192,0.12479022953334648,-0.31591376705084145,0.1728514932791392,-0.48747011286065617,-0.11142189330385441,-1.9466469136838613,0.13363701520363488,2.595545591407352,0.9452552803987199,0.1728802376190821,-0.48752024683155326,-0.11147110072896137,-1.9463801863486305,0.1336059019074957,2.595550359778934,0.9452445589611904,-0.00011345844038234006,-0.00017880763106583786,0.00017363155803053933,-0.0003065722857925446,0.00025606017954282165,-0.000107381818146787,-0.0011833791174177557,0.0,0.0,0.0,0.0,0.0,0.0,0.0,2.8744339942904373e-05,-5.0133970897092706e-05,-4.920742510695908e-05,0.0002667273352308097,-3.111329613919578e-05,4.76837158203125e-06,-1.072143752944843e-05,0.00011345844038234006,0.00017880763106583786,-0.00017363155803053933,0.0003065722857925446,-0.00025606017954282165,0.000107381818146787,0.0011833791174177557,0.14510458707809448,11.802515029907227,-1.1918060779571533,-21.840242385864258,-0.2722068428993225,-2.5271639823913574,0.27591270208358765,0
78,0.38510751724243164,-0.14510458707809448,-11.802515029907227,1.1918060779571533,21.840242385864258,0.2722068428993225,2.5271639823913574,-0.27591270208358765,0.0,0.0,0.0,0.0,0.0,0.0,0.0,-0.14758228847660496,0.5188537082645034,0.016186105053580854,0.5280869184577806,-0.2507378747478192,0.12479022953334648,-0.31591376705084145,0.1728514932791392,-0.48747011286065617,-0.11142189330385441,-1.9466469136838613,0.13363701520363488,2.595545591407352,0.9452552803987199,0.1728802376190821,-0.48752024683155326,-0.11147110072896137,-1.9463801863486305,0.1336059019074957,2.595550359778934,0.9452445589611904,-0.00011345844038234006,-0.00017880763106583786,0.00017363155803053933,-0.0003065722857925446,0.00025606017954282165,-0.000107381818146787,-0.0011833791174177557,0.0,0.0,0.0,0.0,0.0,0.0,0.0,2.8744339942904373e-05,-5.0133970897092706e-05,-4.920742510695908e-05,0.0002667273352308097,-3.111329613919578e-05,4.76837158203125e-06,-1.072143752944843e-05,0.00011345844038234006,0.00017880763106583786,-0.00017363155803053933,0.0003065722857925446,-0.00025606017954282165,0.000107381818146787,0.0011833791174177557,0.14510458707809448,11.802515029907227,-1.1918060779571533,-21.840242385864258,-0.2722068428993225,-2.5271639823913574,0.27591270208358765,0
79,0.39006924629211426,-0.19667929410934448,-11.826318740844727,1.1680023670196533,21.840242385864258,0.2841086983680725,2.5399813652038574,-0.29605430364608765,0.0,0.0,0.0,0.0,0.0,0.0,0.0,-0.15036313113096353,0.5250608870205009,0.010019101951679758,0.5270477479454998,-0.2509674711543938,0.1244180316958745,-0.3152403067075699,0.1728551125568256,-0.4874682091194667,-0.11142022286799914,-1.9466459503071483,0.13363569277524948,2.5955452268918355,0.9452586848819028,0.1728802376190821,-0.48752024683155326,-0.11147110072896137,-1.9463801863486305,0.1336059019074957,2.595550359778934,0.9452445589611904,0.0005934357758091012,0.0011263754145031618,0.0001620569651319419,-0.00021778614750959414,-0.00010980819450718173,-0.000451716547711035,-0.0004929067517911956,0.0,0.0,0.0,0.0,0.0,0.0,0.0,2.5125062256520225e-05,-5.203771208656116e-05,-5.087786096222291e-05,0.0002657639585177396,-2.9790867753787253e-05,5.132887098469041e-06,-1.4125920712371176e-05,-0.0005934357758091012,-0.0011263754145031618,-0.0001620569651319419,0.00021778614750959414,0.00010980819450718173,0.000451716547711035,0.0004929067517911956,0.19667929410934448,11.826318740844727,-1.1680023670196533,-21.840242385864258,-0.2841086983680725,-2.5399813652038574,0.29605430364608765,0
