rezayati/contactInterpretation/dataset/franka_main/labeled_data/link6/b2_8.csv
index,time,tau_J0,tau_J1,tau_J2,tau_J3,tau_J4,tau_J5,tau_J6,tau_J_d0,tau_J_d1,tau_J_d2,tau_J_d3,tau_J_d4,tau_J_d5,tau_J_d6,tau_ext0,tau_ext1,tau_ext2,tau_ext3,tau_ext4,tau_ext5,tau_ext6,q0,q1,q2,q3,q4,q5,q6,q_d0,q_d1,q_d2,q_d3,q_d4,q_d5,q_d6,dq0,dq1,dq2,dq3,dq4,dq5,dq6,dq_d0,dq_d1,dq_d2,dq_d3,dq_d4,dq_d5,dq_d6,e0,e1,e2,e3,e4,e5,e6,de0,de1,de2,de3,de4,de5,de6,etau_J0,etau_J1,etau_J2,etau_J3,etau_J4,etau_J5,etau_J6,label
1,0.0,-0.2998287081718445,-22.847436904907227,0.04922797530889511,14.080232620239258,0.02226787805557251,2.1517977714538574,-0.39950889348983765,0.0,0.0,0.0,0.0,0.0,0.0,0.0,-0.27441281353520836,-0.00886946322217395,-0.03404189192624292,0.23240579958478816,-0.22945398925249813,-0.03524011844222513,-0.42098752407769324,1.675511658363175,0.05231418210685227,0.029919471286718548,-2.7527004087024722,0.03445936305324237,2.766343161953823,0.7691967331502172,1.6754973547542302,0.052104326824870026,0.029969505109285054,-2.752394845125968,0.0342448039870148,2.7663679543071322,0.7691630533470046,0.000697410287431846,0.001275979252281788,0.0001910181383486846,6.138777254033105e-05,-0.0008683998578772494,-2.990594039265321e-05,-0.0008728938127502611,0.0,0.0,0.0,0.0,0.0,0.0,0.0,-1.4303608944832291e-05,-0.00020985528198224496,5.00338225665059e-05,0.0003055635765041309,-0.00021455906622756815,2.479235330943297e-05,-3.36798032125607e-05,-0.000697410287431846,-0.001275979252281788,-0.0001910181383486846,-6.138777254033105e-05,0.0008683998578772494,2.990594039265321e-05,0.0008728938127502611,0.2998287081718445,22.847436904907227,-0.04922797530889511,-14.080232620239258,-0.02226787805557251,-2.1517977714538574,0.39950889348983765,0
2,0.004986763000488281,-0.2998287081718445,-22.795862197875977,0.04922797530889511,14.131807327270508,0.00487285852432251,2.1453890800476074,-0.37845176458358765,0.0,0.0,0.0,0.0,0.0,0.0,0.0,-0.27470275980983655,-0.012429076831972722,-0.03402654878688437,0.2346768099208941,-0.22916200605239456,-0.034331289193322005,-0.41976706383033296,1.675511658363175,0.05231056281715115,0.029920891868097127,-2.752704027915556,0.03446449461579323,2.766343874030643,0.7691943876550266,1.6754973547542302,0.052104326824870026,0.029969505109285054,-2.752394845125968,0.0342448039870148,2.7663679543071322,0.7691630533470046,0.00025900486742041107,-0.0002793751679494632,0.00016155074728657528,-0.0010008536987853832,4.11348408658061e-05,0.00014560534469879307,-0.0019482458222512711,0.0,0.0,0.0,0.0,0.0,0.0,0.0,-1.4303608944832291e-05,-0.00020623599228112438,4.8613241187926703e-05,0.00030918278958802503,-0.0002196906287784267,2.4080276489257812e-05,-3.1334308021935264e-05,-0.00025900486742041107,0.0002793751679494632,-0.00016155074728657528,0.0010008536987853832,-4.11348408658061e-05,-0.00014560534469879307,0.0019482458222512711,0.2998287081718445,22.795862197875977,-0.04922797530889511,-14.131807327270508,-0.00487285852432251,-2.1453890800476074,0.37845176458358765,0
3,0.009983301162719727,-0.2998287081718445,-22.795862197875977,0.04922797530889511,14.131807327270508,0.00487285852432251,2.1453890800476074,-0.37845176458358765,0.0,0.0,0.0,0.0,0.0,0.0,0.0,-0.27470275980983655,-0.012429076831972722,-0.03402654878688437,0.2346768099208941,-0.22916200605239456,-0.034331289193322005,-0.41976706383033296,1.675511658363175,0.05231056281715115,0.029920891868097127,-2.752704027915556,0.03446449461579323,2.766343874030643,0.7691943876550266,1.6754973547542302,0.052104326824870026,0.029969505109285054,-2.752394845125968,0.0342448039870148,2.7663679543071322,0.7691630533470046,0.00025900486742041107,-0.0002793751679494632,0.00016155074728657528,-0.0010008536987853832,4.11348408658061e-05,0.00014560534469879307,-0.0019482458222512711,0.0,0.0,0.0,0.0,0.0,0.0,0.0,-1.4303608944832291e-05,-0.00020623599228112438,4.8613241187926703e-05,0.00030918278958802503,-0.0002196906287784267,2.4080276489257812e-05,-3.1334308021935264e-05,-0.00025900486742041107,0.0002793751679494632,-0.00016155074728657528,0.0010008536987853832,-4.11348408658061e-05,-0.00014560534469879307,0.0019482458222512711,0.2998287081718445,22.795862197875977,-0.04922797530889511,-14.131807327270508,-0.00487285852432251,-2.1453890800476074,0.37845176458358765,0
4,0.014981508255004883,-0.2998287081718445,-22.819665908813477,0.04922797530889511,14.080232620239258,0.00487285852432251,2.1517977714538574,-0.43338340520858765,0.0,0.0,0.0,0.0,0.0,0.0,0.0,-0.277990233872926,-0.013630297479941779,-0.03268520937366898,0.2326897317806648,-0.2287238590770719,-0.03507088333904058,-0.41975246174757586,1.675511658363175,0.05231223325300635,0.02991883960625284,-2.7527004087347726,0.034461295851247506,2.7663431624383366,0.7692005013999786,1.6754973547542302,0.052104326824870026,0.029969505109285054,-2.752394845125968,0.0342448039870148,2.7663679543071322,0.7691630533470046,0.00038107654990066623,0.00011528209614041933,-0.00019710754938816348,0.00015135476373929208,-0.00010085614986088202,-0.00011770158057817446,0.00018004937013991337,0.0,0.0,0.0,0.0,0.0,0.0,0.0,-1.4303608944832291e-05,-0.00020790642813632576,5.0665503032214926e-05,0.0003055636088045155,-0.00021649186423270544,2.4791868795670524e-05,-3.744805297400955e-05,-0.00038107654990066623,-0.00011528209614041933,0.00019710754938816348,-0.00015135476373929208,0.00010085614986088202,0.00011770158057817446,-0.00018004937013991337,0.2998287081718445,22.819665908813477,-0.04922797530889511,-14.080232620239258,-0.00487285852432251,-2.1517977714538574,0.43338340520858765,0
5,0.019983530044555664,-0.2998287081718445,-22.819665908813477,0.04922797530889511,14.080232620239258,0.00487285852432251,2.1517977714538574,-0.43338340520858765,0.0,0.0,0.0,0.0,0.0,0.0,0.0,-0.277990233872926,-0.013630297479941779,-0.03268520937366898,0.2326897317806648,-0.2287238590770719,-0.03507088333904058,-0.41975246174757586,1.675511658363175,0.05231223325300635,0.02991883960625284,-2.7527004087347726,0.034461295851247506,2.7663431624383366,0.7692005013999786,1.6754973547542302,0.052104326824870026,0.029969505109285054,-2.752394845125968,0.0342448039870148,2.7663679543071322,0.7691630533470046,0.00038107654990066623,0.00011528209614041933,-0.00019710754938816348,0.00015135476373929208,-0.00010085614986088202,-0.00011770158057817446,0.00018004937013991337,0.0,0.0,0.0,0.0,0.0,0.0,0.0,-1.4303608944832291e-05,-0.00020790642813632576,5.0665503032214926e-05,0.0003055636088045155,-0.00021649186423270544,2.4791868795670524e-05,-3.744805297400955e-05,-0.00038107654990066623,-0.00011528209614041933,0.00019710754938816348,-0.00015135476373929208,0.00010085614986088202,0.00011770158057817446,-0.00018004937013991337,0.2998287081718445,22.819665908813477,-0.04922797530889511,-14.080232620239258,-0.00487285852432251,-2.1517977714538574,0.43338340520858765,0
6,0.024983882904052734,-0.2998287081718445,-22.795862197875977,0.04922797530889511,14.131807327270508,-0.00702899694442749,2.1389803886413574,-0.44711631536483765,0.0,0.0,0.0,0.0,0.0,0.0,0.0,-0.2775586198702797,-0.012908890562086361,-0.03310862449544857,0.23132621652812188,-0.22956433533519813,-0.03463989821390235,-0.42109471022700695,1.675511658363175,0.05231056281715109,0.029918760998480554,-2.7527040280124595,0.034462618911635774,2.7663445861074685,0.7692020228637837,1.6754973547542302,0.052104326824870026,0.029969505109285054,-2.752394845125968,0.0342448039870148,2.7663679543071322,0.7691630533470046,0.0003115186355867526,-0.0003147211120027981,-0.0005789212895629031,-0.0009495770787077644,0.0013331626536467148,0.0005943298378265818,0.000618562002498835,0.0,0.0,0.0,0.0,0.0,0.0,0.0,-1.4303608944832291e-05,-0.00020623599228106193,5.074411080449939e-05,0.00030918288649139924,-0.00021781492462097374,2.3368199663753586e-05,-3.8969516779063795e-05,-0.0003115186355867526,0.0003147211120027981,0.0005789212895629031,0.0009495770787077644,-0.0013331626536467148,-0.0005943298378265818,-0.000618562002498835,0.2998287081718445,22.795862197875977,-0.04922797530889511,-14.131807327270508,0.00702899694442749,-2.1389803886413574,0.44711631536483765,0
7,0.02998971939086914,-0.2998287081718445,-22.795862197875977,0.04922797530889511,14.131807327270508,-0.00702899694442749,2.1389803886413574,-0.44711631536483765,0.0,0.0,0.0,0.0,0.0,0.0,0.0,-0.2775586198702797,-0.012908890562086361,-0.03310862449544857,0.23132621652812188,-0.22956433533519813,-0.03463989821390235,-0.42109471022700695,1.675511658363175,0.05231056281715109,0.029918760998480554,-2.7527040280124595,0.034462618911635774,2.7663445861074685,0.7692020228637837,1.6754973547542302,0.052104326824870026,0.029969505109285054,-2.752394845125968,0.0342448039870148,2.7663679543071322,0.7691630533470046,0.0003115186355867526,-0.0003147211120027981,-0.0005789212895629031,-0.0009495770787077644,0.0013331626536467148,0.0005943298378265818,0.000618562002498835,0.0,0.0,0.0,0.0,0.0,0.0,0.0,-1.4303608944832291e-05,-0.00020623599228106193,5.074411080449939e-05,0.00030918288649139924,-0.00021781492462097374,2.3368199663753586e-05,-3.8969516779063795e-05,-0.0003115186355867526,0.0003147211120027981,0.0005789212895629031,0.0009495770787077644,-0.0013331626536467148,-0.0005943298378265818,-0.000618562002498835,0.2998287081718445,22.795862197875977,-0.04922797530889511,-14.131807327270508,0.00702899694442749,-2.1389803886413574,0.44711631536483765,0
8,0.03498435020446777,-0.2720577120780945,-22.819665908813477,0.04922797530889511,14.108003616333008,-0.00702899694442749,2.1517977714538574,-0.43979209661483765,0.0,0.0,0.0,0.0,0.0,0.0,0.0,-0.2803211547193386,-0.014983254883378146,-0.03643782980262582,0.23641217619988236,-0.2289530174828218,-0.03400212620077046,-0.4220402978664544,1.6755097095213438,0.05231223325300635,0.029918786980246234,-2.752702357576604,0.03446261826157692,2.7663431620076553,0.7692012090616754,1.6754973547542302,0.052104326824870026,0.029969505109285054,-2.752394845125968,0.0342448039870148,2.7663679543071322,0.7691630533470046,1.5010532064194175e-05,0.00027894908224371825,1.631159237880504e-05,2.8034120742866097e-05,-0.005019526027573429,-0.00019441733314497328,0.00033034549960870115,0.0,0.0,0.0,0.0,0.0,0.0,0.0,-1.2354767113587073e-05,-0.00020790642813632576,5.0718129038819504e-05,0.00030751245063598276,-0.00021781427456211977,2.479229947693895e-05,-3.8155714670806695e-05,-1.5010532064194175e-05,-0.00027894908224371825,-1.631159237880504e-05,-2.8034120742866097e-05,0.005019526027573429,0.00019441733314497328,-0.00033034549960870115,0.2720577120780945,22.819665908813477,-0.04922797530889511,-14.108003616333008,0.00702899694442749,-2.1517977714538574,0.43979209661483765,0
9,0.03998446464538574,-0.2720577120780945,-22.819665908813477,0.04922797530889511,14.108003616333008,-0.00702899694442749,2.1517977714538574,-0.43979209661483765,0.0,0.0,0.0,0.0,0.0,0.0,0.0,-0.2803211547193386,-0.014983254883378146,-0.03643782980262582,0.23641217619988236,-0.2289530174828218,-0.03400212620077046,-0.4220402978664544,1.6755097095213438,0.05231223325300635,0.029918786980246234,-2.752702357576604,0.03446261826157692,2.7663431620076553,0.7692012090616754,1.6754973547542302,0.052104326824870026,0.029969505109285054,-2.752394845125968,0.0342448039870148,2.7663679543071322,0.7691630533470046,1.5010532064194175e-05,0.00027894908224371825,1.631159237880504e-05,2.8034120742866097e-05,-0.005019526027573429,-0.00019441733314497328,0.00033034549960870115,0.0,0.0,0.0,0.0,0.0,0.0,0.0,-1.2354767113587073e-05,-0.00020790642813632576,5.0718129038819504e-05,0.00030751245063598276,-0.00021781427456211977,2.479229947693895e-05,-3.8155714670806695e-05,-1.5010532064194175e-05,-0.00027894908224371825,-1.631159237880504e-05,-2.8034120742866097e-05,0.005019526027573429,0.00019441733314497328,-0.00033034549960870115,0.2720577120780945,22.819665908813477,-0.04922797530889511,-14.108003616333008,0.00702899694442749,-2.1517977714538574,0.43979209661483765,0
10,0.04498410224914551,-0.24825400114059448,-22.795862197875977,0.02542426437139511,14.080232620239258,0.01036602258682251,2.1453890800476074,-0.46725791692733765,0.0,0.0,0.0,0.0,0.0,0.0,0.0,-0.28878587349827434,-0.013165605684508941,-0.043745621923350464,0.23647613651789576,-0.22838612687926071,-0.03461274691045543,-0.42275073582211414,1.6755080390854886,0.05231056281715109,0.029920431145347513,-2.752700408734773,0.034460685481627784,2.766343874030643,0.769204260819488,1.6754973547542302,0.052104326824870026,0.029969505109285054,-2.752394845125968,0.0342448039870148,2.7663679543071322,0.7691630533470046,-0.0010962082344259415,-0.00045804570786675894,0.0001598138512031619,0.0006752001039957659,-0.0003050895991093263,0.0002274658193530675,0.0014033693751465395,0.0,0.0,0.0,0.0,0.0,0.0,0.0,-1.0684331258392632e-05,-0.00020623599228106193,4.907396393754107e-05,0.0003055636088049596,-0.00021588149461298362,2.4080276489257812e-05,-4.120747248337331e-05,0.0010962082344259415,0.00045804570786675894,-0.0001598138512031619,-0.0006752001039957659,0.0003050895991093263,-0.0002274658193530675,-0.0014033693751465395,0.24825400114059448,22.795862197875977,-0.02542426437139511,-14.080232620239258,-0.01036602258682251,-2.1453890800476074,0.46725791692733765,0
11,0.049993276596069336,-0.24825400114059448,-22.795862197875977,0.02542426437139511,14.080232620239258,0.01036602258682251,2.1453890800476074,-0.46725791692733765,0.0,0.0,0.0,0.0,0.0,0.0,0.0,-0.28878587349827434,-0.013165605684508941,-0.043745621923350464,0.23647613651789576,-0.22838612687926071,-0.03461274691045543,-0.42275073582211414,1.6755080390854886,0.05231056281715109,0.029920431145347513,-2.752700408734773,0.034460685481627784,2.766343874030643,0.769204260819488,1.6754973547542302,0.052104326824870026,0.029969505109285054,-2.752394845125968,0.0342448039870148,2.7663679543071322,0.7691630533470046,-0.0010962082344259415,-0.00045804570786675894,0.0001598138512031619,0.0006752001039957659,-0.0003050895991093263,0.0002274658193530675,0.0014033693751465395,0.0,0.0,0.0,0.0,0.0,0.0,0.0,-1.0684331258392632e-05,-0.00020623599228106193,4.907396393754107e-05,0.0003055636088049596,-0.00021588149461298362,2.4080276489257812e-05,-4.120747248337331e-05,0.0010962082344259415,0.00045804570786675894,-0.0001598138512031619,-0.0006752001039957659,0.0003050895991093263,-0.0002274658193530675,-0.0014033693751465395,0.24825400114059448,22.795862197875977,-0.02542426437139511,-14.080232620239258,-0.01036602258682251,-2.1453890800476074,0.46725791692733765,0
12,0.05501723289489746,-0.2720577120780945,-22.795862197875977,0.07303168624639511,14.108003616333008,0.00487285852432251,2.1453890800476074,-0.39950889348983765,0.0,0.0,0.0,0.0,0.0,0.0,0.0,-0.28098771714453347,-0.013432515927388002,-0.03497515083798681,0.2373736446072729,-0.22858669044938457,-0.03471870783843954,-0.42371228797920124,1.6755097095213438,0.05231056281715109,0.02991780150041862,-2.752702357576604,0.034461295833190284,2.766343874030643,0.7691967331502172,1.6754973547542302,0.052104326824870026,0.029969505109285054,-2.752394845125968,0.0342448039870148,2.7663679543071322,0.7691630533470046,8.384026642679935e-05,-0.00019646114623349503,-0.000757167467431421,-0.00016694228724761225,4.414612751275464e-07,0.0002893649797226381,-0.0012436337374793522,0.0,0.0,0.0,0.0,0.0,0.0,0.0,-1.2354767113587073e-05,-0.00020623599228106193,5.170360886643313e-05,0.00030751245063598276,-0.00021649184617548306,2.4080276489257812e-05,-3.36798032125607e-05,-8.384026642679935e-05,0.00019646114623349503,0.000757167467431421,0.00016694228724761225,-4.414612751275464e-07,-0.0002893649797226381,0.0012436337374793522,0.2720577120780945,22.795862197875977,-0.07303168624639511,-14.108003616333008,-0.00487285852432251,-2.1453890800476074,0.39950889348983765,0
13,0.06003546714782715,-0.2720577120780945,-22.795862197875977,0.07303168624639511,14.108003616333008,0.00487285852432251,2.1453890800476074,-0.39950889348983765,0.0,0.0,0.0,0.0,0.0,0.0,0.0,-0.28098771714453347,-0.013432515927388002,-0.03497515083798681,0.2373736446072729,-0.22858669044938457,-0.03471870783843954,-0.42371228797920124,1.6755097095213438,0.05231056281715109,0.02991780150041862,-2.752702357576604,0.034461295833190284,2.766343874030643,0.7691967331502172,1.6754973547542302,0.052104326824870026,0.029969505109285054,-2.752394845125968,0.0342448039870148,2.7663679543071322,0.7691630533470046,8.384026642679935e-05,-0.00019646114623349503,-0.000757167467431421,-0.00016694228724761225,4.414612751275464e-07,0.0002893649797226381,-0.0012436337374793522,0.0,0.0,0.0,0.0,0.0,0.0,0.0,-1.2354767113587073e-05,-0.00020623599228106193,5.170360886643313e-05,0.00030751245063598276,-0.00021649184617548306,2.4080276489257812e-05,-3.36798032125607e-05,-8.384026642679935e-05,0.00019646114623349503,0.000757167467431421,0.00016694228724761225,-4.414612751275464e-07,-0.0002893649797226381,0.0012436337374793522,0.2720577120780945,22.795862197875977,-0.07303168624639511,-14.108003616333008,-0.00487285852432251,-2.1453890800476074,0.39950889348983765,0
14,0.06494450569152832,-0.2720577120780945,-22.847436904907227,0.04922797530889511,14.108003616333008,-0.0015358328819274902,2.1655306816101074,-0.39950889348983765,0.0,0.0,0.0,0.0,0.0,0.0,0.0,-0.28179023408763093,-0.010399430685065818,-0.03518658038864024,0.23313658339048057,-0.22837868900810393,-0.03571822975595855,-0.42284728667634724,1.6755097095213438,0.05231418209483749,0.029918760677272442,-2.7527022869340625,0.0344620079100132,2.766341636074914,0.7691967331502172,1.6754973547542302,0.052104326824870026,0.029969505109285054,-2.752394845125968,0.0342448039870148,2.7663679543071322,0.7691630533470046,-0.0003558946054452869,0.0010409900662240081,0.0001393486007071167,-0.0004112322428935283,0.0003505894879135657,-0.0005228068158343125,-0.001044269346624222,0.0,0.0,0.0,0.0,0.0,0.0,0.0,-1.2354767113587073e-05,-0.0002098552699674669,5.0744432012611584e-05,0.0003074418080943886,-0.00021720392299839908,2.631823221843632e-05,-3.36798032125607e-05,0.0003558946054452869,-0.0010409900662240081,-0.0001393486007071167,0.0004112322428935283,-0.0003505894879135657,0.0005228068158343125,0.001044269346624222,0.2720577120780945,22.847436904907227,-0.04922797530889511,-14.108003616333008,0.0015358328819274902,-2.1655306816101074,0.39950889348983765,0
15,0.07024645805358887,-0.2720577120780945,-22.847436904907227,0.04922797530889511,14.108003616333008,-0.0015358328819274902,2.1655306816101074,-0.39950889348983765,0.0,0.0,0.0,0.0,0.0,0.0,0.0,-0.28179023408763093,-0.010399430685065818,-0.03518658038864024,0.23313658339048057,-0.22837868900810393,-0.03571822975595855,-0.42284728667634724,1.6755097095213438,0.05231418209483749,0.029918760677272442,-2.7527022869340625,0.0344620079100132,2.766341636074914,0.7691967331502172,1.6754973547542302,0.052104326824870026,0.029969505109285054,-2.752394845125968,0.0342448039870148,2.7663679543071322,0.7691630533470046,-0.0003558946054452869,0.0010409900662240081,0.0001393486007071167,-0.0004112322428935283,0.0003505894879135657,-0.0005228068158343125,-0.001044269346624222,0.0,0.0,0.0,0.0,0.0,0.0,0.0,-1.2354767113587073e-05,-0.0002098552699674669,5.0744432012611584e-05,0.0003074418080943886,-0.00021720392299839908,2.631823221843632e-05,-3.36798032125607e-05,0.0003558946054452869,-0.0010409900662240081,-0.0001393486007071167,0.0004112322428935283,-0.0003505894879135657,0.0005228068158343125,0.001044269346624222,0.2720577120780945,22.847436904907227,-0.04922797530889511,-14.108003616333008,0.0015358328819274902,-2.1655306816101074,0.39950889348983765,0
16,0.07498860359191895,-0.3236324191093445,-22.795862197875977,0.02542426437139511,14.056428909301758,0.00487285852432251,2.1655306816101074,-0.43979209661483765,0.0,0.0,0.0,0.0,0.0,0.0,0.0,-0.2824293961316894,-0.013506484544365765,-0.03524605952639615,0.23390627159021388,-0.22834819649742336,-0.03481955356462354,-0.42110222692625715,1.6755133287990303,0.05231056281715109,0.02992043110911263,-2.7526987382985193,0.034461295833190284,2.766341636074914,0.7692012090616754,1.6754973547542302,0.052104326824870026,0.029969505109285054,-2.752394845125968,0.0342448039870148,2.7663679543071322,0.7691630533470046,0.0011327833696290752,-0.0002701067856511847,0.0005767353620586487,0.0008677076744683401,-6.49496345943125e-05,-0.0006560615136824074,0.000582338932308508,0.0,0.0,0.0,0.0,0.0,0.0,0.0,-1.5974044800026732e-05,-0.00020623599228106193,4.907400017242422e-05,0.0003038931725511951,-0.00021649184617548306,2.631823221843632e-05,-3.8155714670806695e-05,-0.0011327833696290752,0.0002701067856511847,-0.0005767353620586487,-0.0008677076744683401,6.49496345943125e-05,0.0006560615136824074,-0.000582338932308508,0.3236324191093445,22.795862197875977,-0.02542426437139511,-14.056428909301758,-0.00487285852432251,-2.1655306816101074,0.43979209661483765,0
17,0.07999086380004883,-0.3236324191093445,-22.795862197875977,0.02542426437139511,14.056428909301758,0.00487285852432251,2.1655306816101074,-0.43979209661483765,0.0,0.0,0.0,0.0,0.0,0.0,0.0,-0.2824293961316894,-0.013506484544365765,-0.03524605952639615,0.23390627159021388,-0.22834819649742336,-0.03481955356462354,-0.42110222692625715,1.6755133287990303,0.05231056281715109,0.02992043110911263,-2.7526987382985193,0.034461295833190284,2.766341636074914,0.7692012090616754,1.6754973547542302,0.052104326824870026,0.029969505109285054,-2.752394845125968,0.0342448039870148,2.7663679543071322,0.7691630533470046,0.0011327833696290752,-0.0002701067856511847,0.0005767353620586487,0.0008677076744683401,-6.49496345943125e-05,-0.0006560615136824074,0.000582338932308508,0.0,0.0,0.0,0.0,0.0,0.0,0.0,-1.5974044800026732e-05,-0.00020623599228106193,4.907400017242422e-05,0.0003038931725511951,-0.00021649184617548306,2.631823221843632e-05,-3.8155714670806695e-05,-0.0011327833696290752,0.0002701067856511847,-0.0005767353620586487,-0.0008677076744683401,6.49496345943125e-05,0.0006560615136824074,-0.000582338932308508,0.3236324191093445,22.795862197875977,-0.02542426437139511,-14.056428909301758,-0.00487285852432251,-2.1655306816101074,0.43979209661483765,0
18,0.08500337600708008,-0.3236324191093445,-22.795862197875977,0.02542426437139511,14.056428909301758,0.00487285852432251,2.1655306816101074,-0.43979209661483765,0.0,0.0,0.0,0.0,0.0,0.0,0.0,-0.2824293961316894,-0.013506484544365765,-0.03524605952639615,0.23390627159021388,-0.22834819649742336,-0.03481955356462354,-0.42110222692625715,1.6755133287990303,0.05231056281715109,0.02992043110911263,-2.7526987382985193,0.034461295833190284,2.766341636074914,0.7692012090616754,1.6754973547542302,0.052104326824870026,0.029969505109285054,-2.752394845125968,0.0342448039870148,2.7663679543071322,0.7691630533470046,0.0011327833696290752,-0.0002701067856511847,0.0005767353620586487,0.0008677076744683401,-6.49496345943125e-05,-0.0006560615136824074,0.000582338932308508,0.0,0.0,0.0,0.0,0.0,0.0,0.0,-1.5974044800026732e-05,-0.00020623599228106193,4.907400017242422e-05,0.0003038931725511951,-0.00021649184617548306,2.631823221843632e-05,-3.8155714670806695e-05,-0.0011327833696290752,0.0002701067856511847,-0.0005767353620586487,-0.0008677076744683401,6.49496345943125e-05,0.0006560615136824074,-0.000582338932308508,0.3236324191093445,22.795862197875977,-0.02542426437139511,-14.056428909301758,-0.00487285852432251,-2.1655306816101074,0.43979209661483765,0
19,0.09003043174743652,-0.3236324191093445,-22.795862197875977,0.02542426437139511,14.056428909301758,0.00487285852432251,2.1655306816101074,-0.43979209661483765,0.0,0.0,0.0,0.0,0.0,0.0,0.0,-0.2824293961316894,-0.013506484544365765,-0.03524605952639615,0.23390627159021388,-0.22834819649742336,-0.03481955356462354,-0.42110222692625715,1.6755133287990303,0.05231056281715109,0.02992043110911263,-2.7526987382985193,0.034461295833190284,2.766341636074914,0.7692012090616754,1.6754973547542302,0.052104326824870026,0.029969505109285054,-2.752394845125968,0.0342448039870148,2.7663679543071322,0.7691630533470046,0.0011327833696290752,-0.0002701067856511847,0.0005767353620586487,0.0008677076744683401,-6.49496345943125e-05,-0.0006560615136824074,0.000582338932308508,0.0,0.0,0.0,0.0,0.0,0.0,0.0,-1.5974044800026732e-05,-0.00020623599228106193,4.907400017242422e-05,0.0003038931725511951,-0.00021649184617548306,2.631823221843632e-05,-3.8155714670806695e-05,-0.0011327833696290752,0.0002701067856511847,-0.0005767353620586487,-0.0008677076744683401,6.49496345943125e-05,0.0006560615136824074,-0.000582338932308508,0.3236324191093445,22.795862197875977,-0.02542426437139511,-14.056428909301758,-0.00487285852432251,-2.1655306816101074,0.43979209661483765,0
20,0.0950167179107666,-0.2720577120780945,-22.819665908813477,0.04922797530889511,14.108003616333008,0.01036602258682251,2.1453890800476074,-0.42605918645858765,0.0,0.0,0.0,0.0,0.0,0.0,0.0,-0.28728820878781913,-0.014487623004909517,-0.03887154082356207,0.23294030866650292,-0.2280062555849495,-0.03469252908190736,-0.4209623399593501,1.6755097095213438,0.05231223325300635,0.02991876067325734,-2.7527017217937266,0.034460685481627784,2.766343874030643,0.7691996831827692,1.6754973547542302,0.052104326824870026,0.029969505109285054,-2.752394845125968,0.0342448039870148,2.7663679543071322,0.7691630533470046,-0.0003767881097597921,0.00015729862247845065,-0.0003827626954516694,-0.00031997898652349734,-0.00040373311266106226,-2.9476072007117574e-05,0.000343801052701227,0.0,0.0,0.0,0.0,0.0,0.0,0.0,-1.2354767113587073e-05,-0.00020790642813632576,5.0744436027712336e-05,0.0003068766677585266,-0.00021588149461298362,2.4080276489257812e-05,-3.66298357645789e-05,0.0003767881097597921,-0.00015729862247845065,0.0003827626954516694,0.00031997898652349734,0.00040373311266106226,2.9476072007117574e-05,-0.000343801052701227,0.2720577120780945,22.819665908813477,-0.04922797530889511,-14.108003616333008,-0.01036602258682251,-2.1453890800476074,0.42605918645858765,0
21,0.10000419616699219,-0.2720577120780945,-22.819665908813477,0.04922797530889511,14.108003616333008,0.01036602258682251,2.1453890800476074,-0.42605918645858765,0.0,0.0,0.0,0.0,0.0,0.0,0.0,-0.28728820878781913,-0.014487623004909517,-0.03887154082356207,0.23294030866650292,-0.2280062555849495,-0.03469252908190736,-0.4209623399593501,1.6755097095213438,0.05231223325300635,0.02991876067325734,-2.7527017217937266,0.034460685481627784,2.766343874030643,0.7691996831827692,1.6754973547542302,0.052104326824870026,0.029969505109285054,-2.752394845125968,0.0342448039870148,2.7663679543071322,0.7691630533470046,-0.0003767881097597921,0.00015729862247845065,-0.0003827626954516694,-0.00031997898652349734,-0.00040373311266106226,-2.9476072007117574e-05,0.000343801052701227,0.0,0.0,0.0,0.0,0.0,0.0,0.0,-1.2354767113587073e-05,-0.00020790642813632576,5.0744436027712336e-05,0.0003068766677585266,-0.00021588149461298362,2.4080276489257812e-05,-3.66298357645789e-05,0.0003767881097597921,-0.00015729862247845065,0.0003827626954516694,0.00031997898652349734,0.00040373311266106226,2.9476072007117574e-05,-0.000343801052701227,0.2720577120780945,22.819665908813477,-0.04922797530889511,-14.108003616333008,-0.01036602258682251,-2.1453890800476074,0.42605918645858765,0
22,0.10498499870300293,-0.2720577120780945,-22.772058486938477,0.07303168624639511,14.080232620239258,-0.00702899694442749,2.1389803886413574,-0.42605918645858765,0.0,0.0,0.0,0.0,0.0,0.0,0.0,-0.28509727507981286,-0.012705547104007838,-0.03618662258129783,0.23210137820551516,-0.2284422354092277,-0.03543010784706131,-0.42212179155084384,1.6755097095213438,0.052308892381295824,0.02991709034566129,-2.7527004061171865,0.0344626182615757,2.766344586107466,0.7691996788221185,1.6754973547542302,0.052104326824870026,0.029969505109285054,-2.752394845125968,0.0342448039870148,2.7663679543071322,0.7691630533470046,-0.00029106342337645953,-0.0008725210160172988,-0.0005417765330282323,0.00025084589191811996,0.0004945836844077441,0.0004198081154586196,0.00012792012775787056,0.0,0.0,0.0,0.0,0.0,0.0,0.0,-1.2354767113587073e-05,-0.0002045655564257981,5.241476362376207e-05,0.00030556099121836766,-0.00021781427456089852,2.336819966641812e-05,-3.6625475113849504e-05,0.00029106342337645953,0.0008725210160172988,0.0005417765330282323,-0.00025084589191811996,-0.0004945836844077441,-0.0004198081154586196,-0.00012792012775787056,0.2720577120780945,22.772058486938477,-0.07303168624639511,-14.080232620239258,0.00702899694442749,-2.1389803886413574,0.42605918645858765,0
23,0.1100003719329834,-0.2720577120780945,-22.772058486938477,0.07303168624639511,14.080232620239258,-0.00702899694442749,2.1389803886413574,-0.42605918645858765,0.0,0.0,0.0,0.0,0.0,0.0,0.0,-0.28509727507981286,-0.012705547104007838,-0.03618662258129783,0.23210137820551516,-0.2284422354092277,-0.03543010784706131,-0.42212179155084384,1.6755097095213438,0.052308892381295824,0.02991709034566129,-2.7527004061171865,0.0344626182615757,2.766344586107466,0.7691996788221185,1.6754973547542302,0.052104326824870026,0.029969505109285054,-2.752394845125968,0.0342448039870148,2.7663679543071322,0.7691630533470046,-0.00029106342337645953,-0.0008725210160172988,-0.0005417765330282323,0.00025084589191811996,0.0004945836844077441,0.0004198081154586196,0.00012792012775787056,0.0,0.0,0.0,0.0,0.0,0.0,0.0,-1.2354767113587073e-05,-0.0002045655564257981,5.241476362376207e-05,0.00030556099121836766,-0.00021781427456089852,2.336819966641812e-05,-3.6625475113849504e-05,0.00029106342337645953,0.0008725210160172988,0.0005417765330282323,-0.00025084589191811996,-0.0004945836844077441,-0.0004198081154586196,-0.00012792012775787056,0.2720577120780945,22.772058486938477,-0.07303168624639511,-14.080232620239258,0.00702899694442749,-2.1389803886413574,0.42605918645858765,0
24,0.11498570442199707,-0.24825400114059448,-22.819665908813477,0.001620553433895111,14.080232620239258,-0.0015358328819274902,2.1453890800476074,-0.41965049505233765,0.0,0.0,0.0,0.0,0.0,0.0,0.0,-0.28574869034369865,-0.010605496177801226,-0.03773587360233957,0.23000680364958853,-0.22829357570997066,-0.03595143202810143,-0.42376556183203323,1.6755080390854886,0.05231223325300635,0.029922101978005326,-2.7527004087347584,0.0344620079100132,2.766343887112595,0.7691989711059217,1.6754973547542302,0.052104326824870026,0.029969505109285054,-2.752394845125968,0.0342448039870148,2.7663679543071322,0.7691630533470046,-0.000592388657951239,0.00033530232781687255,0.0009761875669619726,-0.0002412307015877384,3.4288731210388246e-05,0.00024455583286550674,-0.0004303775665050177,0.0,0.0,0.0,0.0,0.0,0.0,0.0,-1.0684331258392632e-05,-0.00020790642813632576,4.740313127972809e-05,0.00030556360879030464,-0.00021720392299839908,2.406719453729167e-05,-3.591775891709226e-05,0.000592388657951239,-0.00033530232781687255,-0.0009761875669619726,0.0002412307015877384,-3.4288731210388246e-05,-0.00024455583286550674,0.0004303775665050177,0.24825400114059448,22.819665908813477,-0.001620553433895111,-14.080232620239258,0.0015358328819274902,-2.1453890800476074,0.41965049505233765,0
25,0.11998796463012695,-0.24825400114059448,-22.819665908813477,0.001620553433895111,14.080232620239258,-0.0015358328819274902,2.1453890800476074,-0.41965049505233765,0.0,0.0,0.0,0.0,0.0,0.0,0.0,-0.28574869034369865,-0.010605496177801226,-0.03773587360233957,0.23000680364958853,-0.22829357570997066,-0.03595143202810143,-0.42376556183203323,1.6755080390854886,0.05231223325300635,0.029922101978005326,-2.7527004087347584,0.0344620079100132,2.766343887112595,0.7691989711059217,1.6754973547542302,0.052104326824870026,0.029969505109285054,-2.752394845125968,0.0342448039870148,2.7663679543071322,0.7691630533470046,-0.000592388657951239,0.00033530232781687255,0.0009761875669619726,-0.0002412307015877384,3.4288731210388246e-05,0.00024455583286550674,-0.0004303775665050177,0.0,0.0,0.0,0.0,0.0,0.0,0.0,-1.0684331258392632e-05,-0.00020790642813632576,4.740313127972809e-05,0.00030556360879030464,-0.00021720392299839908,2.406719453729167e-05,-3.591775891709226e-05,0.000592388657951239,-0.00033530232781687255,-0.0009761875669619726,0.0002412307015877384,-3.4288731210388246e-05,-0.00024455583286550674,0.0004303775665050177,0.24825400114059448,22.819665908813477,-0.001620553433895111,-14.080232620239258,0.0015358328819274902,-2.1453890800476074,0.41965049505233765,0
26,0.12499165534973145,-0.2998287081718445,-22.795862197875977,0.04922797530889511,14.155611038208008,-0.00702899694442749,2.1517977714538574,-0.39950889348983765,0.0,0.0,0.0,0.0,0.0,0.0,0.0,-0.28000924429781704,-0.0110393810662804,-0.03736294095218461,0.2324330777521076,-0.22952060636611735,-0.035301429724307345,-0.4247528350813385,1.675511658363175,0.05231056281715109,0.02991949726893164,-2.7527056984483145,0.0344626182615757,2.766343161953894,0.7691967331502172,1.6754973547542302,0.052104326824870026,0.029969505109285054,-2.752394845125968,0.0342448039870148,2.7663679543071322,0.7691630533470046,0.0006900550679924986,1.0826095800086447e-05,0.0002823554248757274,-0.0015117433843855588,0.000199457427106805,-0.00014324493808825787,-0.0008382456417049012,0.0,0.0,0.0,0.0,0.0,0.0,0.0,-1.4303608944832291e-05,-0.00020623599228106193,5.0007840353413074e-05,0.00031085332234637164,-0.00021781427456089852,2.4792353238378695e-05,-3.36798032125607e-05,-0.0006900550679924986,-1.0826095800086447e-05,-0.0002823554248757274,0.0015117433843855588,-0.000199457427106805,0.00014324493808825787,0.0008382456417049012,0.2998287081718445,22.795862197875977,-0.04922797530889511,-14.155611038208008,0.00702899694442749,-2.1517977714538574,0.39950889348983765,0
27,0.12998652458190918,-0.2998287081718445,-22.795862197875977,0.04922797530889511,14.155611038208008,-0.00702899694442749,2.1517977714538574,-0.39950889348983765,0.0,0.0,0.0,0.0,0.0,0.0,0.0,-0.28000924429781704,-0.0110393810662804,-0.03736294095218461,0.2324330777521076,-0.22952060636611735,-0.035301429724307345,-0.4247528350813385,1.675511658363175,0.05231056281715109,0.02991949726893164,-2.7527056984483145,0.0344626182615757,2.766343161953894,0.7691967331502172,1.6754973547542302,0.052104326824870026,0.029969505109285054,-2.752394845125968,0.0342448039870148,2.7663679543071322,0.7691630533470046,0.0006900550679924986,1.0826095800086447e-05,0.0002823554248757274,-0.0015117433843855588,0.000199457427106805,-0.00014324493808825787,-0.0008382456417049012,0.0,0.0,0.0,0.0,0.0,0.0,0.0,-1.4303608944832291e-05,-0.00020623599228106193,5.0007840353413074e-05,0.00031085332234637164,-0.00021781427456089852,2.4792353238378695e-05,-3.36798032125607e-05,-0.0006900550679924986,-1.0826095800086447e-05,-0.0002823554248757274,0.0015117433843855588,-0.000199457427106805,0.00014324493808825787,0.0008382456417049012,0.2998287081718445,22.795862197875977,-0.04922797530889511,-14.155611038208008,0.00702899694442749,-2.1517977714538574,0.39950889348983765,0
28,0.13503241539001465,-0.2998287081718445,-22.819665908813477,0.04922797530889511,14.080232620239258,-0.0015358328819274902,2.1453890800476074,-0.39950889348983765,0.0,0.0,0.0,0.0,0.0,0.0,0.0,-0.28045928883682386,-0.010589235689669336,-0.03779243641831724,0.2301826485876225,-0.23032034631328616,-0.035522086647103976,-0.4243698454363755,1.675511658363175,0.05231223325300635,0.029919558656059955,-2.7526997729518956,0.0344620079100132,2.766343874030643,0.7691967331502172,1.6754973547542302,0.052104326824870026,0.029969505109285054,-2.752394845125968,0.0342448039870148,2.7663679543071322,0.7691630533470046,0.0004954392628672795,0.00025979597517589165,0.00041055487582967494,0.00017405480097846353,2.493221743201846e-05,-2.611187896961141e-05,-0.0012644822574892085,0.0,0.0,0.0,0.0,0.0,0.0,0.0,-1.4303608944832291e-05,-0.00020790642813632576,4.994645322509844e-05,0.00030492782592750345,-0.00021720392299839908,2.4080276489257812e-05,-3.36798032125607e-05,-0.0004954392628672795,-0.00025979597517589165,-0.00041055487582967494,-0.00017405480097846353,-2.493221743201846e-05,2.611187896961141e-05,0.0012644822574892085,0.2998287081718445,22.819665908813477,-0.04922797530889511,-14.080232620239258,0.0015358328819274902,-2.1453890800476074,0.39950889348983765,0
29,0.13999295234680176,-0.2998287081718445,-22.819665908813477,0.04922797530889511,14.080232620239258,-0.0015358328819274902,2.1453890800476074,-0.39950889348983765,0.0,0.0,0.0,0.0,0.0,0.0,0.0,-0.28045928883682386,-0.010589235689669336,-0.03779243641831724,0.2301826485876225,-0.23032034631328616,-0.035522086647103976,-0.4243698454363755,1.675511658363175,0.05231223325300635,0.029919558656059955,-2.7526997729518956,0.0344620079100132,2.766343874030643,0.7691967331502172,1.6754973547542302,0.052104326824870026,0.029969505109285054,-2.752394845125968,0.0342448039870148,2.7663679543071322,0.7691630533470046,0.0004954392628672795,0.00025979597517589165,0.00041055487582967494,0.00017405480097846353,2.493221743201846e-05,-2.611187896961141e-05,-0.0012644822574892085,0.0,0.0,0.0,0.0,0.0,0.0,0.0,-1.4303608944832291e-05,-0.00020790642813632576,4.994645322509844e-05,0.00030492782592750345,-0.00021720392299839908,2.4080276489257812e-05,-3.36798032125607e-05,-0.0004954392628672795,-0.00025979597517589165,-0.00041055487582967494,-0.00017405480097846353,-2.493221743201846e-05,2.611187896961141e-05,0.0012644822574892085,0.2998287081718445,22.819665908813477,-0.04922797530889511,-14.080232620239258,0.0015358328819274902,-2.1453890800476074,0.39950889348983765,0
30,0.14500069618225098,-0.22445029020309448,-22.819665908813477,0.02542426437139511,14.155611038208008,-0.0015358328819274902,2.1517977714538574,-0.39950889348983765,0.0,0.0,0.0,0.0,0.0,0.0,0.0,-0.28129906348909833,-0.01044286800440623,-0.03605381803391365,0.22853322510564628,-0.23040929380943248,-0.03567698902088766,-0.4237234083842431,1.6755063686496332,0.05231223325300635,0.02992043111361724,-2.752705695828335,0.0344620079100132,2.76634316195382,0.7691967331502172,1.6754973547542302,0.052104326824870026,0.029969505109285054,-2.752394845125968,0.0342448039870148,2.7663679543071322,0.7691630533470046,-0.0009269315287651552,0.00012613599753417523,0.00027122860480525214,-0.0019285611868392878,0.0003634923330229139,-0.00015103640428955527,-8.42093786372474e-05,0.0,0.0,0.0,0.0,0.0,0.0,0.0,-9.013895402976146e-06,-0.00020790642813632576,4.907399566781226e-05,0.00031085070236702705,-0.00021720392299839908,2.4792353312097504e-05,-3.36798032125607e-05,0.0009269315287651552,-0.00012613599753417523,-0.00027122860480525214,0.0019285611868392878,-0.0003634923330229139,0.00015103640428955527,8.42093786372474e-05,0.22445029020309448,22.819665908813477,-0.02542426437139511,-14.155611038208008,0.0015358328819274902,-2.1517977714538574,0.39950889348983765,0
31,0.14999723434448242,-0.22445029020309448,-22.819665908813477,0.02542426437139511,14.155611038208008,-0.0015358328819274902,2.1517977714538574,-0.39950889348983765,0.0,0.0,0.0,0.0,0.0,0.0,0.0,-0.28129906348909833,-0.01044286800440623,-0.03605381803391365,0.22853322510564628,-0.23040929380943248,-0.03567698902088766,-0.4237234083842431,1.6755063686496332,0.05231223325300635,0.02992043111361724,-2.752705695828335,0.0344620079100132,2.76634316195382,0.7691967331502172,1.6754973547542302,0.052104326824870026,0.029969505109285054,-2.752394845125968,0.0342448039870148,2.7663679543071322,0.7691630533470046,-0.0009269315287651552,0.00012613599753417523,0.00027122860480525214,-0.0019285611868392878,0.0003634923330229139,-0.00015103640428955527,-8.42093786372474e-05,0.0,0.0,0.0,0.0,0.0,0.0,0.0,-9.013895402976146e-06,-0.00020790642813632576,4.907399566781226e-05,0.00031085070236702705,-0.00021720392299839908,2.4792353312097504e-05,-3.36798032125607e-05,0.0009269315287651552,-0.00012613599753417523,-0.00027122860480525214,0.0019285611868392878,-0.0003634923330229139,0.00015103640428955527,8.42093786372474e-05,0.22445029020309448,22.819665908813477,-0.02542426437139511,-14.155611038208008,0.0015358328819274902,-2.1517977714538574,0.39950889348983765,0
32,0.15499234199523926,-0.3236324191093445,-22.819665908813477,0.07303168624639511,14.080232620239258,0.00487285852432251,2.1655306816101074,-0.43338340520858765,0.0,0.0,0.0,0.0,0.0,0.0,0.0,-0.278000007340817,-0.015217588731530307,-0.03689133079048081,0.23095356314598633,-0.22952911755759056,-0.03494534409558999,-0.42058575031620044,1.6755133287990303,0.05231223325300635,0.029919221103452825,-2.7527004087347584,0.034461295833190284,2.766341636074914,0.7692004969848526,1.6754973547542302,0.052104326824870026,0.029969505109285054,-2.752394845125968,0.0342448039870148,2.7663679543071322,0.7691630533470046,0.0007817617229829464,1.4270024546285688e-05,-0.0002619697621310395,0.00010667017262406686,5.013481700643457e-05,-0.0005633393772485775,0.0004623605607933717,0.0,0.0,0.0,0.0,0.0,0.0,0.0,-1.5974044800026732e-05,-0.00020790642813632576,5.0284005832228196e-05,0.00030556360879030464,-0.00021649184617548306,2.631823221843632e-05,-3.7443637847967004e-05,-0.0007817617229829464,-1.4270024546285688e-05,0.0002619697621310395,-0.00010667017262406686,-5.013481700643457e-05,0.0005633393772485775,-0.0004623605607933717,0.3236324191093445,22.819665908813477,-0.07303168624639511,-14.080232620239258,-0.00487285852432251,-2.1655306816101074,0.43338340520858765,0
33,0.1599886417388916,-0.3236324191093445,-22.819665908813477,0.07303168624639511,14.080232620239258,0.00487285852432251,2.1655306816101074,-0.43338340520858765,0.0,0.0,0.0,0.0,0.0,0.0,0.0,-0.278000007340817,-0.015217588731530307,-0.03689133079048081,0.23095356314598633,-0.22952911755759056,-0.03494534409558999,-0.42058575031620044,1.6755133287990303,0.05231223325300635,0.029919221103452825,-2.7527004087347584,0.034461295833190284,2.766341636074914,0.7692004969848526,1.6754973547542302,0.052104326824870026,0.029969505109285054,-2.752394845125968,0.0342448039870148,2.7663679543071322,0.7691630533470046,0.0007817617229829464,1.4270024546285688e-05,-0.0002619697621310395,0.00010667017262406686,5.013481700643457e-05,-0.0005633393772485775,0.0004623605607933717,0.0,0.0,0.0,0.0,0.0,0.0,0.0,-1.5974044800026732e-05,-0.00020790642813632576,5.0284005832228196e-05,0.00030556360879030464,-0.00021649184617548306,2.631823221843632e-05,-3.7443637847967004e-05,-0.0007817617229829464,-1.4270024546285688e-05,0.0002619697621310395,-0.00010667017262406686,-5.013481700643457e-05,0.0005633393772485775,-0.0004623605607933717,0.3236324191093445,22.819665908813477,-0.07303168624639511,-14.080232620239258,-0.00487285852432251,-2.1655306816101074,0.43338340520858765,0
34,0.1649942398071289,-0.2998287081718445,-22.795862197875977,0.02542426437139511,14.108003616333008,0.00487285852432251,2.1517977714538574,-0.45352500677108765,0.0,0.0,0.0,0.0,0.0,0.0,0.0,-0.2776257009974957,-0.015265452655729298,-0.035055145285599866,0.22835958966694894,-0.22895962321542626,-0.03482996652808415,-0.4197691982184809,1.675511658363175,0.05231056281715109,0.029920434044140104,-2.752702354960214,0.034461295833190284,2.7663442215919494,0.7692027349405818,1.6754973547542302,0.052104326824870026,0.029969505109285054,-2.752394845125968,0.0342448039870148,2.7663679543071322,0.7691630533470046,0.0004341317187525606,-0.0005417669733473226,0.0009644732654172306,-0.0008388126971978747,2.6089739447911407e-05,-9.399224085770389e-05,0.0009914338465568417,0.0,0.0,0.0,0.0,0.0,0.0,0.0,-1.4303608944832291e-05,-0.00020623599228106193,4.907106514494969e-05,0.00030750983424576717,-0.00021649184617548306,2.3732715182855912e-05,-3.968159357714551e-05,-0.0004341317187525606,0.0005417669733473226,-0.0009644732654172306,0.0008388126971978747,-2.6089739447911407e-05,9.399224085770389e-05,-0.0009914338465568417,0.2998287081718445,22.795862197875977,-0.02542426437139511,-14.108003616333008,-0.00487285852432251,-2.1517977714538574,0.45352500677108765,0
35,0.16998720169067383,-0.2998287081718445,-22.795862197875977,0.02542426437139511,14.108003616333008,0.00487285852432251,2.1517977714538574,-0.45352500677108765,0.0,0.0,0.0,0.0,0.0,0.0,0.0,-0.2776257009974957,-0.015265452655729298,-0.035055145285599866,0.22835958966694894,-0.22895962321542626,-0.03482996652808415,-0.4197691982184809,1.675511658363175,0.05231056281715109,0.029920434044140104,-2.752702354960214,0.034461295833190284,2.7663442215919494,0.7692027349405818,1.6754973547542302,0.052104326824870026,0.029969505109285054,-2.752394845125968,0.0342448039870148,2.7663679543071322,0.7691630533470046,0.0004341317187525606,-0.0005417669733473226,0.0009644732654172306,-0.0008388126971978747,2.6089739447911407e-05,-9.399224085770389e-05,0.0009914338465568417,0.0,0.0,0.0,0.0,0.0,0.0,0.0,-1.4303608944832291e-05,-0.00020623599228106193,4.907106514494969e-05,0.00030750983424576717,-0.00021649184617548306,2.3732715182855912e-05,-3.968159357714551e-05,-0.0004341317187525606,0.0005417669733473226,-0.0009644732654172306,0.0008388126971978747,-2.6089739447911407e-05,9.399224085770389e-05,-0.0009914338465568417,0.2998287081718445,22.795862197875977,-0.02542426437139511,-14.108003616333008,-0.00487285852432251,-2.1517977714538574,0.45352500677108765,0
36,0.1750044822692871,-0.2720577120780945,-22.819665908813477,0.02542426437139511,14.108003616333008,0.00487285852432251,2.1582064628601074,-0.45352500677108765,0.0,0.0,0.0,0.0,0.0,0.0,0.0,-0.2821101330161628,-0.01229181134112867,-0.03595078122399981,0.22525167938100507,-0.2288491472013802,-0.03566646448601913,-0.4210554142595187,1.6755097095213438,0.05231223325300635,0.029920431109129172,-2.7527023575765894,0.034461295833190284,2.7663424498829787,0.7692027349405818,1.6754973547542302,0.052104326824870026,0.029969505109285054,-2.752394845125968,0.0342448039870148,2.7663679543071322,0.7691630533470046,-4.053253537920087e-05,0.000518336856816316,0.00025356797583182193,-0.0007275067700617621,-0.00012391956960865747,-0.00046305405713784265,-0.002983208132051644,0.0,0.0,0.0,0.0,0.0,0.0,0.0,-1.2354767113587073e-05,-0.00020790642813632576,4.90740001558819e-05,0.0003075124506213278,-0.00021649184617548306,2.5504424153499627e-05,-3.968159357714551e-05,4.053253537920087e-05,-0.000518336856816316,-0.00025356797583182193,0.0007275067700617621,0.00012391956960865747,0.00046305405713784265,0.002983208132051644,0.2720577120780945,22.819665908813477,-0.02542426437139511,-14.108003616333008,-0.00487285852432251,-2.1582064628601074,0.45352500677108765,0
37,0.17998576164245605,-0.2720577120780945,-22.819665908813477,0.02542426437139511,14.108003616333008,0.00487285852432251,2.1582064628601074,-0.45352500677108765,0.0,0.0,0.0,0.0,0.0,0.0,0.0,-0.2821101330161628,-0.01229181134112867,-0.03595078122399981,0.22525167938100507,-0.2288491472013802,-0.03566646448601913,-0.4210554142595187,1.6755097095213438,0.05231223325300635,0.029920431109129172,-2.7527023575765894,0.034461295833190284,2.7663424498829787,0.7692027349405818,1.6754973547542302,0.052104326824870026,0.029969505109285054,-2.752394845125968,0.0342448039870148,2.7663679543071322,0.7691630533470046,-4.053253537920087e-05,0.000518336856816316,0.00025356797583182193,-0.0007275067700617621,-0.00012391956960865747,-0.00046305405713784265,-0.002983208132051644,0.0,0.0,0.0,0.0,0.0,0.0,0.0,-1.2354767113587073e-05,-0.00020790642813632576,4.90740001558819e-05,0.0003075124506213278,-0.00021649184617548306,2.5504424153499627e-05,-3.968159357714551e-05,4.053253537920087e-05,-0.000518336856816316,-0.00025356797583182193,0.0007275067700617621,0.00012391956960865747,0.00046305405713784265,0.002983208132051644,0.2720577120780945,22.819665908813477,-0.02542426437139511,-14.108003616333008,-0.00487285852432251,-2.1582064628601074,0.45352500677108765,0
38,0.18499064445495605,-0.3236324191093445,-22.819665908813477,0.04922797530889511,14.108003616333008,-0.0015358328819274902,2.1582064628601074,-0.45352500677108765,0.0,0.0,0.0,0.0,0.0,0.0,0.0,-0.2809822438494819,-0.01409928856788371,-0.035004550042419286,0.22878600557690246,-0.22964145160834104,-0.035369651231130395,-0.423185672903613,1.6755133287990303,0.05231223325300635,0.029918786980245624,-2.752702357576604,0.0344620079100132,2.7663424498769973,0.7692027349405818,1.6754973547542302,0.052104326824870026,0.029969505109285054,-2.752394845125968,0.0342448039870148,2.7663679543071322,0.7691630533470046,0.0007064651019026173,0.00031238099257661906,3.6708544023078046e-05,-0.00030913669970821677,0.00024714354900069935,-0.00034211936333188665,0.0009569836831986476,0.0,0.0,0.0,0.0,0.0,0.0,0.0,-1.5974044800026732e-05,-0.00020790642813632576,5.0718129039430127e-05,0.00030751245063598276,-0.00021720392299839908,2.5504430134937195e-05,-3.968159357714551e-05,-0.0007064651019026173,-0.00031238099257661906,-3.6708544023078046e-05,0.00030913669970821677,-0.00024714354900069935,0.00034211936333188665,-0.0009569836831986476,0.3236324191093445,22.819665908813477,-0.04922797530889511,-14.108003616333008,0.0015358328819274902,-2.1582064628601074,0.45352500677108765,0
39,0.1899862289428711,-0.3236324191093445,-22.819665908813477,0.04922797530889511,14.108003616333008,-0.0015358328819274902,2.1582064628601074,-0.45352500677108765,0.0,0.0,0.0,0.0,0.0,0.0,0.0,-0.2809822438494819,-0.01409928856788371,-0.035004550042419286,0.22878600557690246,-0.22964145160834104,-0.035369651231130395,-0.423185672903613,1.6755133287990303,0.05231223325300635,0.029918786980245624,-2.752702357576604,0.0344620079100132,2.7663424498769973,0.7692027349405818,1.6754973547542302,0.052104326824870026,0.029969505109285054,-2.752394845125968,0.0342448039870148,2.7663679543071322,0.7691630533470046,0.0007064651019026173,0.00031238099257661906,3.6708544023078046e-05,-0.00030913669970821677,0.00024714354900069935,-0.00034211936333188665,0.0009569836831986476,0.0,0.0,0.0,0.0,0.0,0.0,0.0,-1.5974044800026732e-05,-0.00020790642813632576,5.0718129039430127e-05,0.00030751245063598276,-0.00021720392299839908,2.5504430134937195e-05,-3.968159357714551e-05,-0.0007064651019026173,-0.00031238099257661906,-3.6708544023078046e-05,0.00030913669970821677,-0.00024714354900069935,0.00034211936333188665,-0.0009569836831986476,0.3236324191093445,22.819665908813477,-0.04922797530889511,-14.108003616333008,0.0015358328819274902,-2.1582064628601074,0.45352500677108765,0
40,0.1949906349182129,-0.2720577120780945,-22.847436904907227,0.07303168624639511,14.108003616333008,-0.0015358328819274902,2.1517977714538574,-0.46084922552108765,0.0,0.0,0.0,0.0,0.0,0.0,0.0,-0.2820450246748394,-0.01654211905701678,-0.03502906491918829,0.22970629275184468,-0.22936653176497826,-0.03471009785726162,-0.4247304093219035,1.6755097095213438,0.05231418209483749,0.029917090237550584,-2.7527022869340625,0.0344620079100132,2.76634316195382,0.769203548742665,1.6754973547542302,0.052104326824870026,0.029969505109285054,-2.752394845125968,0.0342448039870148,2.7663679543071322,0.7691630533470046,-0.00041280239441702355,0.00063186720829386,-0.0005584243699527047,-0.00028866396825870725,0.0003268084315513699,4.960316083500122e-05,0.0015301296916775638,0.0,0.0,0.0,0.0,0.0,0.0,0.0,-1.2354767113587073e-05,-0.0002098552699674669,5.241487173446996e-05,0.0003074418080943886,-0.00021720392299839908,2.4792353312097504e-05,-4.0495395660422595e-05,0.00041280239441702355,-0.00063186720829386,0.0005584243699527047,0.00028866396825870725,-0.0003268084315513699,-4.960316083500122e-05,-0.0015301296916775638,0.2720577120780945,22.847436904907227,-0.07303168624639511,-14.108003616333008,0.0015358328819274902,-2.1517977714538574,0.46084922552108765,0
41,0.1999826431274414,-0.2720577120780945,-22.847436904907227,0.07303168624639511,14.108003616333008,-0.0015358328819274902,2.1517977714538574,-0.46084922552108765,0.0,0.0,0.0,0.0,0.0,0.0,0.0,-0.2820450246748394,-0.01654211905701678,-0.03502906491918829,0.22970629275184468,-0.22936653176497826,-0.03471009785726162,-0.4247304093219035,1.6755097095213438,0.05231418209483749,0.029917090237550584,-2.7527022869340625,0.0344620079100132,2.76634316195382,0.769203548742665,1.6754973547542302,0.052104326824870026,0.029969505109285054,-2.752394845125968,0.0342448039870148,2.7663679543071322,0.7691630533470046,-0.00041280239441702355,0.00063186720829386,-0.0005584243699527047,-0.00028866396825870725,0.0003268084315513699,4.960316083500122e-05,0.0015301296916775638,0.0,0.0,0.0,0.0,0.0,0.0,0.0,-1.2354767113587073e-05,-0.0002098552699674669,5.241487173446996e-05,0.0003074418080943886,-0.00021720392299839908,2.4792353312097504e-05,-4.0495395660422595e-05,0.00041280239441702355,-0.00063186720829386,0.0005584243699527047,0.00028866396825870725,-0.0003268084315513699,-4.960316083500122e-05,-0.0015301296916775638,0.2720577120780945,22.847436904907227,-0.07303168624639511,-14.108003616333008,0.0015358328819274902,-2.1517977714538574,0.46084922552108765,0
42,0.205003023147583,-0.2720577120780945,-22.847436904907227,0.07303168624639511,14.108003616333008,-0.0015358328819274902,2.1517977714538574,-0.46084922552108765,0.0,0.0,0.0,0.0,0.0,0.0,0.0,-0.2820450246748394,-0.01654211905701678,-0.03502906491918829,0.22970629275184468,-0.22936653176497826,-0.03471009785726162,-0.4247304093219035,1.6755097095213438,0.05231418209483749,0.029917090237550584,-2.7527022869340625,0.0344620079100132,2.76634316195382,0.769203548742665,1.6754973547542302,0.052104326824870026,0.029969505109285054,-2.752394845125968,0.0342448039870148,2.7663679543071322,0.7691630533470046,-0.00041280239441702355,0.00063186720829386,-0.0005584243699527047,-0.00028866396825870725,0.0003268084315513699,4.960316083500122e-05,0.0015301296916775638,0.0,0.0,0.0,0.0,0.0,0.0,0.0,-1.2354767113587073e-05,-0.0002098552699674669,5.241487173446996e-05,0.0003074418080943886,-0.00021720392299839908,2.4792353312097504e-05,-4.0495395660422595e-05,0.00041280239441702355,-0.00063186720829386,0.0005584243699527047,0.00028866396825870725,-0.0003268084315513699,-4.960316083500122e-05,-0.0015301296916775638,0.2720577120780945,22.847436904907227,-0.07303168624639511,-14.108003616333008,0.0015358328819274902,-2.1517977714538574,0.46084922552108765,0
43,0.20999407768249512,-0.2720577120780945,-22.847436904907227,0.07303168624639511,14.108003616333008,-0.0015358328819274902,2.1517977714538574,-0.46084922552108765,0.0,0.0,0.0,0.0,0.0,0.0,0.0,-0.2820450246748394,-0.01654211905701678,-0.03502906491918829,0.22970629275184468,-0.22936653176497826,-0.03471009785726162,-0.4247304093219035,1.6755097095213438,0.05231418209483749,0.029917090237550584,-2.7527022869340625,0.0344620079100132,2.76634316195382,0.769203548742665,1.6754973547542302,0.052104326824870026,0.029969505109285054,-2.752394845125968,0.0342448039870148,2.7663679543071322,0.7691630533470046,-0.00041280239441702355,0.00063186720829386,-0.0005584243699527047,-0.00028866396825870725,0.0003268084315513699,4.960316083500122e-05,0.0015301296916775638,0.0,0.0,0.0,0.0,0.0,0.0,0.0,-1.2354767113587073e-05,-0.0002098552699674669,5.241487173446996e-05,0.0003074418080943886,-0.00021720392299839908,2.4792353312097504e-05,-4.0495395660422595e-05,0.00041280239441702355,-0.00063186720829386,0.0005584243699527047,0.00028866396825870725,-0.0003268084315513699,-4.960316083500122e-05,-0.0015301296916775638,0.2720577120780945,22.847436904907227,-0.07303168624639511,-14.108003616333008,0.0015358328819274902,-2.1517977714538574,0.46084922552108765,0
44,0.21502137184143066,-0.2720577120780945,-22.819665908813477,0.04922797530889511,14.131807327270508,0.02226787805557251,2.1517977714538574,-0.44711631536483765,0.0,0.0,0.0,0.0,0.0,0.0,0.0,-0.284688807567314,-0.015942360166637283,-0.03776488410776021,0.22672974315347091,-0.2284315564571058,-0.03478278080566833,-0.42379415542640764,1.6755097095213438,0.05231223325300635,0.029918839594222185,-2.7527040253956705,0.03445936305324237,2.76634316195382,0.7692020228637588,1.6754973547542302,0.052104326824870026,0.029969505109285054,-2.752394845125968,0.0342448039870148,2.7663679543071322,0.7691630533470046,-0.0004453308138415464,-0.0002416584069391406,7.90946286824606e-05,-0.0010056471686364003,-0.0005910073438458213,-0.0001379813868466556,0.0015068801338642753,0.0,0.0,0.0,0.0,0.0,0.0,0.0,-1.2354767113587073e-05,-0.00020790642813632576,5.0665515062869176e-05,0.00030918026970239154,-0.00021455906622756815,2.4792353312097504e-05,-3.89695167541948e-05,0.0004453308138415464,0.0002416584069391406,-7.90946286824606e-05,0.0010056471686364003,0.0005910073438458213,0.0001379813868466556,-0.0015068801338642753,0.2720577120780945,22.819665908813477,-0.04922797530889511,-14.131807327270508,-0.02226787805557251,-2.1517977714538574,0.44711631536483765,0
45,0.22004222869873047,-0.2720577120780945,-22.819665908813477,0.04922797530889511,14.131807327270508,0.02226787805557251,2.1517977714538574,-0.44711631536483765,0.0,0.0,0.0,0.0,0.0,0.0,0.0,-0.284688807567314,-0.015942360166637283,-0.03776488410776021,0.22672974315347091,-0.2284315564571058,-0.03478278080566833,-0.42379415542640764,1.6755097095213438,0.05231223325300635,0.029918839594222185,-2.7527040253956705,0.03445936305324237,2.76634316195382,0.7692020228637588,1.6754973547542302,0.052104326824870026,0.029969505109285054,-2.752394845125968,0.0342448039870148,2.7663679543071322,0.7691630533470046,-0.0004453308138415464,-0.0002416584069391406,7.90946286824606e-05,-0.0010056471686364003,-0.0005910073438458213,-0.0001379813868466556,0.0015068801338642753,0.0,0.0,0.0,0.0,0.0,0.0,0.0,-1.2354767113587073e-05,-0.00020790642813632576,5.0665515062869176e-05,0.00030918026970239154,-0.00021455906622756815,2.4792353312097504e-05,-3.89695167541948e-05,0.0004453308138415464,0.0002416584069391406,-7.90946286824606e-05,0.0010056471686364003,0.0005910073438458213,0.0001379813868466556,-0.0015068801338642753,0.2720577120780945,22.819665908813477,-0.04922797530889511,-14.131807327270508,-0.02226787805557251,-2.1517977714538574,0.44711631536483765,0
46,0.2250046730041504,-0.24825400114059448,-22.795862197875977,0.10080268234014511,14.108003616333008,0.00487285852432251,2.1582064628601074,-0.44711631536483765,0.0,0.0,0.0,0.0,0.0,0.0,0.0,-0.28154939417655744,-0.012777125434387405,-0.03414886878383725,0.2273171818593523,-0.2277314337385605,-0.034507321848867,-0.4219777285640894,1.6755080390854886,0.05231056281715109,0.02991514431901515,-2.7527023575765894,0.034461295833190284,2.7663424498769973,0.7692020228637588,1.6754973547542302,0.052104326824870026,0.029969505109285054,-2.752394845125968,0.0342448039870148,2.7663679543071322,0.7691630533470046,-0.000631035827735926,3.881926880988648e-05,-0.0008769915806837595,6.848493518375527e-05,-4.608611303887916e-05,-0.00024610633155039484,0.0014299635253866997,0.0,0.0,0.0,0.0,0.0,0.0,0.0,-1.0684331258392632e-05,-0.00020623599228106193,5.4360790269904896e-05,0.0003075124506213278,-0.00021649184617548306,2.5504430134937195e-05,-3.89695167541948e-05,0.000631035827735926,-3.881926880988648e-05,0.0008769915806837595,-6.848493518375527e-05,4.608611303887916e-05,0.00024610633155039484,-0.0014299635253866997,0.24825400114059448,22.795862197875977,-0.10080268234014511,-14.108003616333008,-0.00487285852432251,-2.1582064628601074,0.44711631536483765,0
47,0.2299821376800537,-0.24825400114059448,-22.795862197875977,0.10080268234014511,14.108003616333008,0.00487285852432251,2.1582064628601074,-0.44711631536483765,0.0,0.0,0.0,0.0,0.0,0.0,0.0,-0.28154939417655744,-0.012777125434387405,-0.03414886878383725,0.2273171818593523,-0.2277314337385605,-0.034507321848867,-0.4219777285640894,1.6755080390854886,0.05231056281715109,0.02991514431901515,-2.7527023575765894,0.034461295833190284,2.7663424498769973,0.7692020228637588,1.6754973547542302,0.052104326824870026,0.029969505109285054,-2.752394845125968,0.0342448039870148,2.7663679543071322,0.7691630533470046,-0.000631035827735926,3.881926880988648e-05,-0.0008769915806837595,6.848493518375527e-05,-4.608611303887916e-05,-0.00024610633155039484,0.0014299635253866997,0.0,0.0,0.0,0.0,0.0,0.0,0.0,-1.0684331258392632e-05,-0.00020623599228106193,5.4360790269904896e-05,0.0003075124506213278,-0.00021649184617548306,2.5504430134937195e-05,-3.89695167541948e-05,0.000631035827735926,-3.881926880988648e-05,0.0008769915806837595,-6.848493518375527e-05,4.608611303887916e-05,0.00024610633155039484,-0.0014299635253866997,0.24825400114059448,22.795862197875977,-0.10080268234014511,-14.108003616333008,-0.00487285852432251,-2.1582064628601074,0.44711631536483765,0
48,0.234999418258667,-0.3236324191093445,-22.748254776000977,0.07303168624639511,14.080232620239258,-0.0015358328819274902,2.1453890800476074,-0.43338340520858765,0.0,0.0,0.0,0.0,0.0,0.0,0.0,-0.2867906343776083,-0.013562830312518875,-0.039003875048150165,0.2288074631115049,-0.22627550526581505,-0.03401781918403625,-0.420352903758983,1.6755133287990303,0.05230722194544056,0.029917327000313108,-2.752700408734773,0.0344620079100132,2.766343875484193,0.7692004969848526,1.6754973547542302,0.052104326824870026,0.029969505109285054,-2.752394845125968,0.0342448039870148,2.7663679543071322,0.7691630533470046,0.0013367437822203953,-0.0010970409661128356,-0.0006865220919990919,0.0004775851902821004,0.00025696997616137375,0.00019763702335322383,0.0005576678908417465,0.0,0.0,0.0,0.0,0.0,0.0,0.0,-1.5974044800026732e-05,-0.00020289512057053427,5.2178108971946e-05,0.0003055636088049596,-0.00021720392299839908,2.4078822939088695e-05,-3.7443637847967004e-05,-0.0013367437822203953,0.0010970409661128356,0.0006865220919990919,-0.0004775851902821004,-0.00025696997616137375,-0.00019763702335322383,-0.0005576678908417465,0.3236324191093445,22.748254776000977,-0.07303168624639511,-14.080232620239258,0.0015358328819274902,-2.1453890800476074,0.43338340520858765,0
49,0.23998284339904785,-0.3236324191093445,-22.748254776000977,0.07303168624639511,14.080232620239258,-0.0015358328819274902,2.1453890800476074,-0.43338340520858765,0.0,0.0,0.0,0.0,0.0,0.0,0.0,-0.2867906343776083,-0.013562830312518875,-0.039003875048150165,0.2288074631115049,-0.22627550526581505,-0.03401781918403625,-0.420352903758983,1.6755133287990303,0.05230722194544056,0.029917327000313108,-2.752700408734773,0.0344620079100132,2.766343875484193,0.7692004969848526,1.6754973547542302,0.052104326824870026,0.029969505109285054,-2.752394845125968,0.0342448039870148,2.7663679543071322,0.7691630533470046,0.0013367437822203953,-0.0010970409661128356,-0.0006865220919990919,0.0004775851902821004,0.00025696997616137375,0.00019763702335322383,0.0005576678908417465,0.0,0.0,0.0,0.0,0.0,0.0,0.0,-1.5974044800026732e-05,-0.00020289512057053427,5.2178108971946e-05,0.0003055636088049596,-0.00021720392299839908,2.4078822939088695e-05,-3.7443637847967004e-05,-0.0013367437822203953,0.0010970409661128356,0.0006865220919990919,-0.0004775851902821004,-0.00025696997616137375,-0.00019763702335322383,-0.0005576678908417465,0.3236324191093445,22.748254776000977,-0.07303168624639511,-14.080232620239258,0.0015358328819274902,-2.1453890800476074,0.43338340520858765,0
50,0.24500799179077148,-0.2720577120780945,-22.819665908813477,0.04922797530889511,14.108003616333008,0.01036602258682251,2.1389803886413574,-0.42605918645858765,0.0,0.0,0.0,0.0,0.0,0.0,0.0,-0.2844361808334415,-0.009894498878873965,-0.037912508191436725,0.23047713696284655,-0.2265596661269693,-0.03421251170951819,-0.421547989026106,1.6755097095213438,0.052312942713847635,0.029918760674593876,-2.752702357576604,0.034460685481627784,2.766344586107474,0.7691996831827692,1.6754973547542302,0.052104326824870026,0.029969505109285054,-2.752394845125968,0.0342448039870148,2.7663679543071322,0.7691630533470046,-0.0004936877592685159,0.0006536545319859591,0.00017328701157773405,-0.0005701891886831823,-7.567563650362082e-05,0.0003248693894884634,-9.095345018035508e-05,0.0,0.0,0.0,0.0,0.0,0.0,0.0,-1.2354767113587073e-05,-0.00020861588897760908,5.074443469117729e-05,0.00030751245063598276,-0.00021588149461298362,2.3368199658424516e-05,-3.66298357645789e-05,0.0004936877592685159,-0.0006536545319859591,-0.00017328701157773405,0.0005701891886831823,7.567563650362082e-05,-0.0003248693894884634,9.095345018035508e-05,0.2720577120780945,22.819665908813477,-0.04922797530889511,-14.108003616333008,-0.01036602258682251,-2.1389803886413574,0.42605918645858765,0
51,0.24998259544372559,-0.2720577120780945,-22.819665908813477,0.04922797530889511,14.108003616333008,0.01036602258682251,2.1389803886413574,-0.42605918645858765,0.0,0.0,0.0,0.0,0.0,0.0,0.0,-0.2844361808334415,-0.009894498878873965,-0.037912508191436725,0.23047713696284655,-0.2265596661269693,-0.03421251170951819,-0.421547989026106,1.6755097095213438,0.052312942713847635,0.029918760674593876,-2.752702357576604,0.034460685481627784,2.766344586107474,0.7691996831827692,1.6754973547542302,0.052104326824870026,0.029969505109285054,-2.752394845125968,0.0342448039870148,2.7663679543071322,0.7691630533470046,-0.0004936877592685159,0.0006536545319859591,0.00017328701157773405,-0.0005701891886831823,-7.567563650362082e-05,0.0003248693894884634,-9.095345018035508e-05,0.0,0.0,0.0,0.0,0.0,0.0,0.0,-1.2354767113587073e-05,-0.00020861588897760908,5.074443469117729e-05,0.00030751245063598276,-0.00021588149461298362,2.3368199658424516e-05,-3.66298357645789e-05,0.0004936877592685159,-0.0006536545319859591,-0.00017328701157773405,0.0005701891886831823,7.567563650362082e-05,-0.0003248693894884634,9.095345018035508e-05,0.2720577120780945,22.819665908813477,-0.04922797530889511,-14.108003616333008,-0.01036602258682251,-2.1389803886413574,0.42605918645858765,0
52,0.25501179695129395,-0.2720577120780945,-22.772058486938477,0.02542426437139511,14.131807327270508,0.00487285852432251,2.1517977714538574,-0.39218467473983765,0.0,0.0,0.0,0.0,0.0,0.0,0.0,-0.28286122747854714,-0.012441309110968983,-0.03578335593903204,0.23316501255006297,-0.22649797307215158,-0.03395758271712189,-0.42439046160464106,1.6755097095213438,0.052308892385300745,0.029920431109112612,-2.7527040280124595,0.034461295833190284,2.7663463408682083,0.7691959193481338,1.6754973547542302,0.052104326824870026,0.029969505109285054,-2.752394845125968,0.0342448039870148,2.7663679543071322,0.7691630533470046,0.00012305132043266193,-0.0008515604860359393,0.0001296338131647617,-0.0007688950557093944,6.46174208254242e-05,5.087468050772263e-05,-0.0013239611156184105,0.0,0.0,0.0,0.0,0.0,0.0,0.0,-1.2354767113587073e-05,-0.0002045655604307195,4.907400017244157e-05,0.00030918288649139924,-0.00021649184617548306,2.161343892392864e-05,-3.2866001129172595e-05,-0.00012305132043266193,0.0008515604860359393,-0.0001296338131647617,0.0007688950557093944,-6.46174208254242e-05,-5.087468050772263e-05,0.0013239611156184105,0.2720577120780945,22.772058486938477,-0.02542426437139511,-14.131807327270508,-0.00487285852432251,-2.1517977714538574,0.39218467473983765,0
53,0.25998544692993164,-0.2720577120780945,-22.772058486938477,0.02542426437139511,14.131807327270508,0.00487285852432251,2.1517977714538574,-0.39218467473983765,0.0,0.0,0.0,0.0,0.0,0.0,0.0,-0.28286122747854714,-0.012441309110968983,-0.03578335593903204,0.23316501255006297,-0.22649797307215158,-0.03395758271712189,-0.42439046160464106,1.6755097095213438,0.052308892385300745,0.029920431109112612,-2.7527040280124595,0.034461295833190284,2.7663463408682083,0.7691959193481338,1.6754973547542302,0.052104326824870026,0.029969505109285054,-2.752394845125968,0.0342448039870148,2.7663679543071322,0.7691630533470046,0.00012305132043266193,-0.0008515604860359393,0.0001296338131647617,-0.0007688950557093944,6.46174208254242e-05,5.087468050772263e-05,-0.0013239611156184105,0.0,0.0,0.0,0.0,0.0,0.0,0.0,-1.2354767113587073e-05,-0.0002045655604307195,4.907400017244157e-05,0.00030918288649139924,-0.00021649184617548306,2.161343892392864e-05,-3.2866001129172595e-05,-0.00012305132043266193,0.0008515604860359393,-0.0001296338131647617,0.0007688950557093944,-6.46174208254242e-05,-5.087468050772263e-05,0.0013239611156184105,0.2720577120780945,22.772058486938477,-0.02542426437139511,-14.131807327270508,-0.00487285852432251,-2.1517977714538574,0.39218467473983765,0
54,0.265002965927124,-0.24825400114059448,-22.819665908813477,0.02542426437139511,14.080232620239258,0.01036602258682251,2.1453890800476074,-0.39950889348983765,0.0,0.0,0.0,0.0,0.0,0.0,0.0,-0.2816214920779356,-0.013380606998269833,-0.039602679572349156,0.23330803037038286,-0.2265315820804005,-0.034139121026779774,-0.4256491048490707,1.6755080390854886,0.05231223325300637,0.029920431109112605,-2.752700408734773,0.034460685481627784,2.7663438740485877,0.7691967331502172,1.6754973547542302,0.052104326824870026,0.029969505109285054,-2.752394845125968,0.0342448039870148,2.7663679543071322,0.7691630533470046,-0.00040721168681142125,-2.578417519206137e-05,0.0003483121383375677,0.00027444061856564037,-0.00028277004971073667,0.0001075602734290626,-0.0009557236330322069,0.0,0.0,0.0,0.0,0.0,0.0,0.0,-1.0684331258392632e-05,-0.00020790642813634658,4.9074000172448506e-05,0.0003055636088049596,-0.00021588149461298362,2.408025854450102e-05,-3.36798032125607e-05,0.00040721168681142125,2.578417519206137e-05,-0.0003483121383375677,-0.00027444061856564037,0.00028277004971073667,-0.0001075602734290626,0.0009557236330322069,0.24825400114059448,22.819665908813477,-0.02542426437139511,-14.080232620239258,-0.01036602258682251,-2.1453890800476074,0.39950889348983765,0
55,0.2700338363647461,-0.24825400114059448,-22.819665908813477,0.02542426437139511,14.080232620239258,0.01036602258682251,2.1453890800476074,-0.39950889348983765,0.0,0.0,0.0,0.0,0.0,0.0,0.0,-0.2816214920779356,-0.013380606998269833,-0.039602679572349156,0.23330803037038286,-0.2265315820804005,-0.034139121026779774,-0.4256491048490707,1.6755080390854886,0.05231223325300637,0.029920431109112605,-2.752700408734773,0.034460685481627784,2.7663438740485877,0.7691967331502172,1.6754973547542302,0.052104326824870026,0.029969505109285054,-2.752394845125968,0.0342448039870148,2.7663679543071322,0.7691630533470046,-0.00040721168681142125,-2.578417519206137e-05,0.0003483121383375677,0.00027444061856564037,-0.00028277004971073667,0.0001075602734290626,-0.0009557236330322069,0.0,0.0,0.0,0.0,0.0,0.0,0.0,-1.0684331258392632e-05,-0.00020790642813634658,4.9074000172448506e-05,0.0003055636088049596,-0.00021588149461298362,2.408025854450102e-05,-3.36798032125607e-05,0.00040721168681142125,2.578417519206137e-05,-0.0003483121383375677,-0.00027444061856564037,0.00028277004971073667,-0.0001075602734290626,0.0009557236330322069,0.24825400114059448,22.819665908813477,-0.02542426437139511,-14.080232620239258,-0.01036602258682251,-2.1453890800476074,0.39950889348983765,0
56,0.27500367164611816,-0.3514034152030945,-22.772058486938477,0.07303168624639511,14.080232620239258,0.00487285852432251,2.1517977714538574,-0.38577598333358765,0.0,0.0,0.0,0.0,0.0,0.0,0.0,-0.28301785535849217,-0.009360548140137872,-0.045136680123175676,0.22968377258096012,-0.22630206804073624,-0.035115029766641034,-0.42461242532834487,1.6755152776408613,0.05230889335449313,0.029917327000296607,-2.752700408734773,0.034461295833190284,2.76634316195382,0.7691952072713109,1.6754973547542302,0.052104326824870026,0.029969505109285054,-2.752394845125968,0.0342448039870148,2.7663679543071322,0.7691630533470046,0.0014745464454389851,-0.0007534355496554076,-0.0007187659711000524,5.2735102723080715e-05,0.00010863573945158492,-0.0002575605047033478,-0.001440242334245137,0.0,0.0,0.0,0.0,0.0,0.0,0.0,-1.7922886631049906e-05,-0.00020456652962310556,5.2178108988446686e-05,0.0003055636088049596,-0.00021649184617548306,2.4792353312097504e-05,-3.215392430622188e-05,-0.0014745464454389851,0.0007534355496554076,0.0007187659711000524,-5.2735102723080715e-05,-0.00010863573945158492,0.0002575605047033478,0.001440242334245137,0.3514034152030945,22.772058486938477,-0.07303168624639511,-14.080232620239258,-0.00487285852432251,-2.1517977714538574,0.38577598333358765,0
57,0.28002285957336426,-0.3514034152030945,-22.772058486938477,0.07303168624639511,14.080232620239258,0.00487285852432251,2.1517977714538574,-0.38577598333358765,0.0,0.0,0.0,0.0,0.0,0.0,0.0,-0.28301785535849217,-0.009360548140137872,-0.045136680123175676,0.22968377258096012,-0.22630206804073624,-0.035115029766641034,-0.42461242532834487,1.6755152776408613,0.05230889335449313,0.029917327000296607,-2.752700408734773,0.034461295833190284,2.76634316195382,0.7691952072713109,1.6754973547542302,0.052104326824870026,0.029969505109285054,-2.752394845125968,0.0342448039870148,2.7663679543071322,0.7691630533470046,0.0014745464454389851,-0.0007534355496554076,-0.0007187659711000524,5.2735102723080715e-05,0.00010863573945158492,-0.0002575605047033478,-0.001440242334245137,0.0,0.0,0.0,0.0,0.0,0.0,0.0,-1.7922886631049906e-05,-0.00020456652962310556,5.2178108988446686e-05,0.0003055636088049596,-0.00021649184617548306,2.4792353312097504e-05,-3.215392430622188e-05,-0.0014745464454389851,0.0007534355496554076,0.0007187659711000524,-5.2735102723080715e-05,-0.00010863573945158492,0.0002575605047033478,0.001440242334245137,0.3514034152030945,22.772058486938477,-0.07303168624639511,-14.080232620239258,-0.00487285852432251,-2.1517977714538574,0.38577598333358765,0
58,0.2850518226623535,-0.2998287081718445,-22.847436904907227,0.04922797530889511,14.108003616333008,0.00487285852432251,2.1517977714538574,-0.39218467473983765,0.0,0.0,0.0,0.0,0.0,0.0,0.0,-0.28099574192940135,-0.013698556252894633,-0.03836829144329932,0.231948662704173,-0.2265100285820788,-0.03484871190186558,-0.4235195921783081,1.675511658363175,0.05231418209484298,0.029918760999371508,-2.752702357576604,0.034461295833190284,2.76634316195382,0.7691991379989517,1.6754973547542302,0.052104326824870026,0.029969505109285054,-2.752394845125968,0.0342448039870148,2.7663679543071322,0.7691630533470046,0.0003558659206291693,0.000837266685472022,-0.00012251227145763133,-0.0004180687727665905,0.00011233043554941288,9.226130393077745e-06,-0.0016073827535419125,0.0,0.0,0.0,0.0,0.0,0.0,0.0,-1.4303608944832291e-05,-0.00020985526997295556,5.0744109913545415e-05,0.00030751245063598276,-0.00021649184617548306,2.4792353312097504e-05,-3.608465194704369e-05,-0.0003558659206291693,-0.000837266685472022,0.00012251227145763133,0.0004180687727665905,-0.00011233043554941288,-9.226130393077745e-06,0.0016073827535419125,0.2998287081718445,22.847436904907227,-0.04922797530889511,-14.108003616333008,-0.00487285852432251,-2.1517977714538574,0.39218467473983765,0
59,0.28998351097106934,-0.2998287081718445,-22.847436904907227,0.04922797530889511,14.108003616333008,0.00487285852432251,2.1517977714538574,-0.39218467473983765,0.0,0.0,0.0,0.0,0.0,0.0,0.0,-0.28099574192940135,-0.013698556252894633,-0.03836829144329932,0.231948662704173,-0.2265100285820788,-0.03484871190186558,-0.4235195921783081,1.675511658363175,0.05231418209484298,0.029918760999371508,-2.752702357576604,0.034461295833190284,2.76634316195382,0.7691991379989517,1.6754973547542302,0.052104326824870026,0.029969505109285054,-2.752394845125968,0.0342448039870148,2.7663679543071322,0.7691630533470046,0.0003558659206291693,0.000837266685472022,-0.00012251227145763133,-0.0004180687727665905,0.00011233043554941288,9.226130393077745e-06,-0.0016073827535419125,0.0,0.0,0.0,0.0,0.0,0.0,0.0,-1.4303608944832291e-05,-0.00020985526997295556,5.0744109913545415e-05,0.00030751245063598276,-0.00021649184617548306,2.4792353312097504e-05,-3.608465194704369e-05,-0.0003558659206291693,-0.000837266685472022,0.00012251227145763133,0.0004180687727665905,-0.00011233043554941288,-9.226130393077745e-06,0.0016073827535419125,0.2998287081718445,22.847436904907227,-0.04922797530889511,-14.108003616333008,-0.00487285852432251,-2.1517977714538574,0.39218467473983765,0
60,0.29500722885131836,-0.2998287081718445,-22.819665908813477,0.04922797530889511,14.108003616333008,-0.00702899694442749,2.1453890800476074,-0.42605918645858765,0.0,0.0,0.0,0.0,0.0,0.0,0.0,-0.2846253299983505,-0.015081844759223854,-0.04018695782416267,0.23156551278838874,-0.22598642456636142,-0.03461893857419282,-0.4232291992511096,1.675511658363175,0.05231226050253111,0.029918761647592083,-2.752702357576604,0.03446368452244335,2.766343874030643,0.7691996832009386,1.6754973547542302,0.052104326824870026,0.029969505109285054,-2.752394845125968,0.0342448039870148,2.7663679543071322,0.7691630533470046,0.0004109081034142565,-0.00016647109362505003,-0.0004506359060036399,-0.000363375665212062,0.00043863682288300225,5.632611085910301e-05,-0.0002801427829467081,0.0,0.0,0.0,0.0,0.0,0.0,0.0,-1.4303608944832291e-05,-0.0002079336776610874,5.0743461692970976e-05,0.00030751245063598276,-0.0002188805354285464,2.4080276489257812e-05,-3.662985393393381e-05,-0.0004109081034142565,0.00016647109362505003,0.0004506359060036399,0.000363375665212062,-0.00043863682288300225,-5.632611085910301e-05,0.0002801427829467081,0.2998287081718445,22.819665908813477,-0.04922797530889511,-14.108003616333008,0.00702899694442749,-2.1453890800476074,0.42605918645858765,0
61,0.3000342845916748,-0.2998287081718445,-22.819665908813477,0.04922797530889511,14.108003616333008,-0.00702899694442749,2.1453890800476074,-0.42605918645858765,0.0,0.0,0.0,0.0,0.0,0.0,0.0,-0.2846253299983505,-0.015081844759223854,-0.04018695782416267,0.23156551278838874,-0.22598642456636142,-0.03461893857419282,-0.4232291992511096,1.675511658363175,0.05231226050253111,0.029918761647592083,-2.752702357576604,0.03446368452244335,2.766343874030643,0.7691996832009386,1.6754973547542302,0.052104326824870026,0.029969505109285054,-2.752394845125968,0.0342448039870148,2.7663679543071322,0.7691630533470046,0.0004109081034142565,-0.00016647109362505003,-0.0004506359060036399,-0.000363375665212062,0.00043863682288300225,5.632611085910301e-05,-0.0002801427829467081,0.0,0.0,0.0,0.0,0.0,0.0,0.0,-1.4303608944832291e-05,-0.0002079336776610874,5.0743461692970976e-05,0.00030751245063598276,-0.0002188805354285464,2.4080276489257812e-05,-3.662985393393381e-05,-0.0004109081034142565,0.00016647109362505003,0.0004506359060036399,0.000363375665212062,-0.00043863682288300225,-5.632611085910301e-05,0.0002801427829467081,0.2998287081718445,22.819665908813477,-0.04922797530889511,-14.108003616333008,0.00702899694442749,-2.1453890800476074,0.42605918645858765,0
62,0.30501532554626465,-0.2720577120780945,-22.795862197875977,0.02542426437139511,14.080232620239258,0.01677471399307251,2.1582064628601074,-0.42605918645858765,0.0,0.0,0.0,0.0,0.0,0.0,0.0,-0.28223614529976476,-0.009664162917119152,-0.03837730810890427,0.22644420944928192,-0.22670859748717054,-0.03579245268381778,-0.4244349304759155,1.6755097095213438,0.05231056281730491,0.029920431109118104,-2.752700408734773,0.03445997487345888,2.7663424891228536,0.769200040810638,1.6754973547542302,0.052104326824870026,0.029969505109285054,-2.752394845125968,0.0342448039870148,2.7663679543071322,0.7691630533470046,-0.00030885637724952766,0.0002498944758593628,0.0010190916451330966,-0.00014632796143785887,-0.00043486552479788553,-5.234446509562052e-05,-0.0003138060763694598,0.0,0.0,0.0,0.0,0.0,0.0,0.0,-1.2354767113587073e-05,-0.00020623599243488333,4.907400016694943e-05,0.0003055636088049596,-0.0002151708864440785,2.5465184278594677e-05,-3.6987463633342266e-05,0.00030885637724952766,-0.0002498944758593628,-0.0010190916451330966,0.00014632796143785887,0.00043486552479788553,5.234446509562052e-05,0.0003138060763694598,0.2720577120780945,22.795862197875977,-0.02542426437139511,-14.080232620239258,-0.01677471399307251,-2.1582064628601074,0.42605918645858765,0
63,0.3099856376647949,-0.2720577120780945,-22.795862197875977,0.02542426437139511,14.080232620239258,0.01677471399307251,2.1582064628601074,-0.42605918645858765,0.0,0.0,0.0,0.0,0.0,0.0,0.0,-0.28223614529976476,-0.009664162917119152,-0.03837730810890427,0.22644420944928192,-0.22670859748717054,-0.03579245268381778,-0.4244349304759155,1.6755097095213438,0.05231056281730491,0.029920431109118104,-2.752700408734773,0.03445997487345888,2.7663424891228536,0.769200040810638,1.6754973547542302,0.052104326824870026,0.029969505109285054,-2.752394845125968,0.0342448039870148,2.7663679543071322,0.7691630533470046,-0.00030885637724952766,0.0002498944758593628,0.0010190916451330966,-0.00014632796143785887,-0.00043486552479788553,-5.234446509562052e-05,-0.0003138060763694598,0.0,0.0,0.0,0.0,0.0,0.0,0.0,-1.2354767113587073e-05,-0.00020623599243488333,4.907400016694943e-05,0.0003055636088049596,-0.0002151708864440785,2.5465184278594677e-05,-3.6987463633342266e-05,0.00030885637724952766,-0.0002498944758593628,-0.0010190916451330966,0.00014632796143785887,0.00043486552479788553,5.234446509562052e-05,0.0003138060763694598,0.2720577120780945,22.795862197875977,-0.02542426437139511,-14.080232620239258,-0.01677471399307251,-2.1582064628601074,0.42605918645858765,0
64,0.31498289108276367,-0.2998287081718445,-22.847436904907227,0.04922797530889511,14.080232620239258,0.01036602258682251,2.1517977714538574,-0.43338340520858765,0.0,0.0,0.0,0.0,0.0,0.0,0.0,-0.28792233197530087,-0.015616552321215551,-0.042036508582298474,0.2315776371780183,-0.22624013130883291,-0.033847880023886015,-0.4256650356471624,1.675511658363175,0.0523141830680348,0.029918769478339838,-2.752700408734773,0.034460685481636076,2.7663431619540413,0.7692004969868714,1.6754973547542302,0.052104326824870026,0.029969505109285054,-2.752394845125968,0.0342448039870148,2.7663679543071322,0.7691630533470046,-0.0001125822710256271,0.0011265225218704815,-0.0004921392539305242,0.0002280430889416788,-0.00025976299509108627,-1.8082787123448313e-05,0.00024233546587909988,0.0,0.0,0.0,0.0,0.0,0.0,0.0,-1.4303608944832291e-05,-0.00020985624316477436,5.073563094521588e-05,0.0003055636088049596,-0.0002158814946212756,2.4792353090941077e-05,-3.744363986679655e-05,0.0001125822710256271,-0.0011265225218704815,0.0004921392539305242,-0.0002280430889416788,0.00025976299509108627,1.8082787123448313e-05,-0.00024233546587909988,0.2998287081718445,22.847436904907227,-0.04922797530889511,-14.080232620239258,-0.01036602258682251,-2.1517977714538574,0.43338340520858765,0
65,0.31998372077941895,-0.2998287081718445,-22.847436904907227,0.04922797530889511,14.080232620239258,0.01036602258682251,2.1517977714538574,-0.43338340520858765,0.0,0.0,0.0,0.0,0.0,0.0,0.0,-0.28792233197530087,-0.015616552321215551,-0.042036508582298474,0.2315776371780183,-0.22624013130883291,-0.033847880023886015,-0.4256650356471624,1.675511658363175,0.0523141830680348,0.029918769478339838,-2.752700408734773,0.034460685481636076,2.7663431619540413,0.7692004969868714,1.6754973547542302,0.052104326824870026,0.029969505109285054,-2.752394845125968,0.0342448039870148,2.7663679543071322,0.7691630533470046,-0.0001125822710256271,0.0011265225218704815,-0.0004921392539305242,0.0002280430889416788,-0.00025976299509108627,-1.8082787123448313e-05,0.00024233546587909988,0.0,0.0,0.0,0.0,0.0,0.0,0.0,-1.4303608944832291e-05,-0.00020985624316477436,5.073563094521588e-05,0.0003055636088049596,-0.0002158814946212756,2.4792353090941077e-05,-3.744363986679655e-05,0.0001125822710256271,-0.0011265225218704815,0.0004921392539305242,-0.0002280430889416788,0.00025976299509108627,1.8082787123448313e-05,-0.00024233546587909988,0.2998287081718445,22.847436904907227,-0.04922797530889511,-14.080232620239258,-0.01036602258682251,-2.1517977714538574,0.43338340520858765,0
66,0.3249821662902832,-0.3514034152030945,-22.795862197875977,0.02542426437139511,14.080232620239258,-0.00702899694442749,2.1582064628601074,-0.43338340520858765,0.0,0.0,0.0,0.0,0.0,0.0,0.0,-0.28201048746857243,-0.009808070952076562,-0.03534691762548746,0.22510334482443253,-0.22669860680164278,-0.03455664989599443,-0.42621866365685174,1.6755152776408613,0.052310562817156576,0.029920431145248713,-2.752700408734773,0.034462619724210636,2.766342454237648,0.7692004577389959,1.6754973547542302,0.052104326824870026,0.029969505109285054,-2.752394845125968,0.0342448039870148,2.7663679543071322,0.7691630533470046,0.0015531573380942645,-0.00018902556038732208,0.0007335107901228048,-0.00021657487894883958,0.0005917273302349256,-9.010320645958149e-05,0.000647633572897236,0.0,0.0,0.0,0.0,0.0,0.0,0.0,-1.7922886631049906e-05,-0.0002062359922865506,4.907396403634051e-05,0.0003055636088049596,-0.0002178157371958353,2.5500069484429844e-05,-3.740439199129142e-05,-0.0015531573380942645,0.00018902556038732208,-0.0007335107901228048,0.00021657487894883958,-0.0005917273302349256,9.010320645958149e-05,-0.000647633572897236,0.3514034152030945,22.795862197875977,-0.02542426437139511,-14.080232620239258,0.00702899694442749,-2.1582064628601074,0.43338340520858765,0
67,0.3299825191497803,-0.3514034152030945,-22.795862197875977,0.02542426437139511,14.080232620239258,-0.00702899694442749,2.1582064628601074,-0.43338340520858765,0.0,0.0,0.0,0.0,0.0,0.0,0.0,-0.28201048746857243,-0.009808070952076562,-0.03534691762548746,0.22510334482443253,-0.22669860680164278,-0.03455664989599443,-0.42621866365685174,1.6755152776408613,0.052310562817156576,0.029920431145248713,-2.752700408734773,0.034462619724210636,2.766342454237648,0.7692004577389959,1.6754973547542302,0.052104326824870026,0.029969505109285054,-2.752394845125968,0.0342448039870148,2.7663679543071322,0.7691630533470046,0.0015531573380942645,-0.00018902556038732208,0.0007335107901228048,-0.00021657487894883958,0.0005917273302349256,-9.010320645958149e-05,0.000647633572897236,0.0,0.0,0.0,0.0,0.0,0.0,0.0,-1.7922886631049906e-05,-0.0002062359922865506,4.907396403634051e-05,0.0003055636088049596,-0.0002178157371958353,2.5500069484429844e-05,-3.740439199129142e-05,-0.0015531573380942645,0.00018902556038732208,-0.0007335107901228048,0.00021657487894883958,-0.0005917273302349256,9.010320645958149e-05,-0.000647633572897236,0.3514034152030945,22.795862197875977,-0.02542426437139511,-14.080232620239258,0.00702899694442749,-2.1582064628601074,0.43338340520858765,0
68,0.33498167991638184,-0.3514034152030945,-22.795862197875977,0.02542426437139511,14.080232620239258,-0.00702899694442749,2.1582064628601074,-0.43338340520858765,0.0,0.0,0.0,0.0,0.0,0.0,0.0,-0.28201048746857243,-0.009808070952076562,-0.03534691762548746,0.22510334482443253,-0.22669860680164278,-0.03455664989599443,-0.42621866365685174,1.6755152776408613,0.052310562817156576,0.029920431145248713,-2.752700408734773,0.034462619724210636,2.766342454237648,0.7692004577389959,1.6754973547542302,0.052104326824870026,0.029969505109285054,-2.752394845125968,0.0342448039870148,2.7663679543071322,0.7691630533470046,0.0015531573380942645,-0.00018902556038732208,0.0007335107901228048,-0.00021657487894883958,0.0005917273302349256,-9.010320645958149e-05,0.000647633572897236,0.0,0.0,0.0,0.0,0.0,0.0,0.0,-1.7922886631049906e-05,-0.0002062359922865506,4.907396403634051e-05,0.0003055636088049596,-0.0002178157371958353,2.5500069484429844e-05,-3.740439199129142e-05,-0.0015531573380942645,0.00018902556038732208,-0.0007335107901228048,0.00021657487894883958,-0.0005917273302349256,9.010320645958149e-05,-0.000647633572897236,0.3514034152030945,22.795862197875977,-0.02542426437139511,-14.080232620239258,0.00702899694442749,-2.1582064628601074,0.43338340520858765,0
69,0.3400092124938965,-0.3514034152030945,-22.795862197875977,0.02542426437139511,14.080232620239258,-0.00702899694442749,2.1582064628601074,-0.43338340520858765,0.0,0.0,0.0,0.0,0.0,0.0,0.0,-0.28201048746857243,-0.009808070952076562,-0.03534691762548746,0.22510334482443253,-0.22669860680164278,-0.03455664989599443,-0.42621866365685174,1.6755152776408613,0.052310562817156576,0.029920431145248713,-2.752700408734773,0.034462619724210636,2.766342454237648,0.7692004577389959,1.6754973547542302,0.052104326824870026,0.029969505109285054,-2.752394845125968,0.0342448039870148,2.7663679543071322,0.7691630533470046,0.0015531573380942645,-0.00018902556038732208,0.0007335107901228048,-0.00021657487894883958,0.0005917273302349256,-9.010320645958149e-05,0.000647633572897236,0.0,0.0,0.0,0.0,0.0,0.0,0.0,-1.7922886631049906e-05,-0.0002062359922865506,4.907396403634051e-05,0.0003055636088049596,-0.0002178157371958353,2.5500069484429844e-05,-3.740439199129142e-05,-0.0015531573380942645,0.00018902556038732208,-0.0007335107901228048,0.00021657487894883958,-0.0005917273302349256,9.010320645958149e-05,-0.000647633572897236,0.3514034152030945,22.795862197875977,-0.02542426437139511,-14.080232620239258,0.00702899694442749,-2.1582064628601074,0.43338340520858765,0
70,0.34500670433044434,-0.2998287081718445,-22.847436904907227,0.04922797530889511,14.108003616333008,0.01036602258682251,2.1517977714538574,-0.39950889348983765,0.0,0.0,0.0,0.0,0.0,0.0,0.0,-0.2866129673570341,-0.018631618662424163,-0.03917843029692457,0.23226767902543916,-0.2258598524318992,-0.03259845344438106,-0.4251877776944937,1.675511658363175,0.052316336753688804,0.029918786980245825,-2.752702357576604,0.03446068548163604,2.766344221591974,0.7691967331499957,1.6754973547542302,0.052104326824870026,0.029969505109285054,-2.752394845125968,0.0342448039870148,2.7663679543071322,0.7691630533470046,0.00012719554268313295,0.0003562360215576859,-0.00037275156279396605,-0.00012422186868433596,-0.00022740557747309744,-2.319422139761311e-05,-0.000490418472179286,0.0,0.0,0.0,0.0,0.0,0.0,0.0,-1.4303608944832291e-05,-0.00021200992881877795,5.07181290392289e-05,0.00030751245063598276,-0.0002158814946212409,2.3732715158431006e-05,-3.3679802991071206e-05,-0.00012719554268313295,-0.0003562360215576859,0.00037275156279396605,0.00012422186868433596,0.00022740557747309744,2.319422139761311e-05,0.000490418472179286,0.2998287081718445,22.847436904907227,-0.04922797530889511,-14.108003616333008,-0.01036602258682251,-2.1517977714538574,0.39950889348983765,0
71,0.3500063419342041,-0.2998287081718445,-22.847436904907227,0.04922797530889511,14.108003616333008,0.01036602258682251,2.1517977714538574,-0.39950889348983765,0.0,0.0,0.0,0.0,0.0,0.0,0.0,-0.2866129673570341,-0.018631618662424163,-0.03917843029692457,0.23226767902543916,-0.2258598524318992,-0.03259845344438106,-0.4251877776944937,1.675511658363175,0.052316336753688804,0.029918786980245825,-2.752702357576604,0.03446068548163604,2.766344221591974,0.7691967331499957,1.6754973547542302,0.052104326824870026,0.029969505109285054,-2.752394845125968,0.0342448039870148,2.7663679543071322,0.7691630533470046,0.00012719554268313295,0.0003562360215576859,-0.00037275156279396605,-0.00012422186868433596,-0.00022740557747309744,-2.319422139761311e-05,-0.000490418472179286,0.0,0.0,0.0,0.0,0.0,0.0,0.0,-1.4303608944832291e-05,-0.00021200992881877795,5.07181290392289e-05,0.00030751245063598276,-0.0002158814946212409,2.3732715158431006e-05,-3.3679802991071206e-05,-0.00012719554268313295,-0.0003562360215576859,0.00037275156279396605,0.00012422186868433596,0.00022740557747309744,2.319422139761311e-05,0.000490418472179286,0.2998287081718445,22.847436904907227,-0.04922797530889511,-14.108003616333008,-0.01036602258682251,-2.1517977714538574,0.39950889348983765,0
72,0.3550100326538086,-0.2720577120780945,-22.847436904907227,0.04922797530889511,14.080232620239258,0.01036602258682251,2.1453890800476074,-0.39950889348983765,0.0,0.0,0.0,0.0,0.0,0.0,0.0,-0.28240812843123697,-0.009123967840169493,-0.0352841543778927,0.22589014673581845,-0.22638959351701732,-0.034289191958192425,-0.4226249687477515,1.6755097095213438,0.052314182107000604,0.02991876099818348,-2.752700408734773,0.034460685481627784,2.7663438783972754,0.7691963799375074,1.6754973547542302,0.052104326824870026,0.029969505109285054,-2.752394845125968,0.0342448039870148,2.7663679543071322,0.7691630533470046,-0.00022989089544499285,0.0009405763448004112,0.0003139274684908388,0.00032851707691605074,-0.000172360066752814,0.0001873591316695114,-0.00038229329188989373,0.0,0.0,0.0,0.0,0.0,0.0,0.0,-1.2354767113587073e-05,-0.0002098552821305777,5.074411110157426e-05,0.0003055636088049596,-0.00021588149461298362,2.4075909856868805e-05,-3.33265905028135e-05,0.00022989089544499285,-0.0009405763448004112,-0.0003139274684908388,-0.00032851707691605074,0.000172360066752814,-0.0001873591316695114,0.00038229329188989373,0.2720577120780945,22.847436904907227,-0.04922797530889511,-14.080232620239258,-0.01036602258682251,-2.1453890800476074,0.39950889348983765,0
73,0.35999560356140137,-0.2720577120780945,-22.847436904907227,0.04922797530889511,14.080232620239258,0.01036602258682251,2.1453890800476074,-0.39950889348983765,0.0,0.0,0.0,0.0,0.0,0.0,0.0,-0.28240812843123697,-0.009123967840169493,-0.0352841543778927,0.22589014673581845,-0.22638959351701732,-0.034289191958192425,-0.4226249687477515,1.6755097095213438,0.052314182107000604,0.02991876099818348,-2.752700408734773,0.034460685481627784,2.7663438783972754,0.7691963799375074,1.6754973547542302,0.052104326824870026,0.029969505109285054,-2.752394845125968,0.0342448039870148,2.7663679543071322,0.7691630533470046,-0.00022989089544499285,0.0009405763448004112,0.0003139274684908388,0.00032851707691605074,-0.000172360066752814,0.0001873591316695114,-0.00038229329188989373,0.0,0.0,0.0,0.0,0.0,0.0,0.0,-1.2354767113587073e-05,-0.0002098552821305777,5.074411110157426e-05,0.0003055636088049596,-0.00021588149461298362,2.4075909856868805e-05,-3.33265905028135e-05,0.00022989089544499285,-0.0009405763448004112,-0.0003139274684908388,-0.00032851707691605074,0.000172360066752814,-0.0001873591316695114,0.00038229329188989373,0.2720577120780945,22.847436904907227,-0.04922797530889511,-14.080232620239258,-0.01036602258682251,-2.1453890800476074,0.39950889348983765,0
74,0.36498475074768066,-0.2720577120780945,-22.795862197875977,0.04922797530889511,14.131807327270508,0.00487285852432251,2.1517977714538574,-0.39218467473983765,0.0,0.0,0.0,0.0,0.0,0.0,0.0,-0.2871293995860831,-0.015078203008355181,-0.03988976624954779,0.23019108072024316,-0.2262187991551889,-0.03397998096874161,-0.4212712550310507,1.6755097095213438,0.05231056281715115,0.029918760673259177,-2.7527040280124595,0.034461295833190284,2.7663431619538446,0.76919591934614,1.6754973547542302,0.052104326824870026,0.029969505109285054,-2.752394845125968,0.0342448039870148,2.7663679543071322,0.7691630533470046,-0.0004061937563489907,-0.0006483078827978778,-0.0001795040914584868,-0.0007823621326673365,7.271049304190534e-05,-0.00016270974695543113,-0.0011790152066449339,0.0,0.0,0.0,0.0,0.0,0.0,0.0,-1.2354767113587073e-05,-0.00020623599228112438,5.0744436025877e-05,0.00030918288649139924,-0.00021649184617548306,2.4792353287672597e-05,-3.2865999135323065e-05,0.0004061937563489907,0.0006483078827978778,0.0001795040914584868,0.0007823621326673365,-7.271049304190534e-05,0.00016270974695543113,0.0011790152066449339,0.2720577120780945,22.795862197875977,-0.04922797530889511,-14.131807327270508,-0.00487285852432251,-2.1517977714538574,0.39218467473983765,0
75,0.3699939250946045,-0.2720577120780945,-22.795862197875977,0.04922797530889511,14.131807327270508,0.00487285852432251,2.1517977714538574,-0.39218467473983765,0.0,0.0,0.0,0.0,0.0,0.0,0.0,-0.2871293995860831,-0.015078203008355181,-0.03988976624954779,0.23019108072024316,-0.2262187991551889,-0.03397998096874161,-0.4212712550310507,1.6755097095213438,0.05231056281715115,0.029918760673259177,-2.7527040280124595,0.034461295833190284,2.7663431619538446,0.76919591934614,1.6754973547542302,0.052104326824870026,0.029969505109285054,-2.752394845125968,0.0342448039870148,2.7663679543071322,0.7691630533470046,-0.0004061937563489907,-0.0006483078827978778,-0.0001795040914584868,-0.0007823621326673365,7.271049304190534e-05,-0.00016270974695543113,-0.0011790152066449339,0.0,0.0,0.0,0.0,0.0,0.0,0.0,-1.2354767113587073e-05,-0.00020623599228112438,5.0744436025877e-05,0.00030918288649139924,-0.00021649184617548306,2.4792353287672597e-05,-3.2865999135323065e-05,0.0004061937563489907,0.0006483078827978778,0.0001795040914584868,0.0007823621326673365,-7.271049304190534e-05,0.00016270974695543113,0.0011790152066449339,0.2720577120780945,22.795862197875977,-0.04922797530889511,-14.131807327270508,-0.00487285852432251,-2.1517977714538574,0.39218467473983765,0
76,0.37500882148742676,-0.2720577120780945,-22.819665908813477,0.04922797530889511,14.080232620239258,0.01677471399307251,2.1453890800476074,-0.38577598333358765,0.0,0.0,0.0,0.0,0.0,0.0,0.0,-0.2841528679637436,-0.01645911207921696,-0.037192599575499856,0.23070711932616766,-0.22651136996369928,-0.03383694985353333,-0.42204655271725566,1.6755097095213438,0.05231223325300635,0.029918997436151867,-2.752700408734773,0.03445997340480487,2.766343874030643,0.7691952072713109,1.6754973547542302,0.052104326824870026,0.029969505109285054,-2.752394845125968,0.0342448039870148,2.7663679543071322,0.7691630533470046,0.00019126802214615242,0.00018906614765697678,-0.00029180153224309476,0.0004490306566594232,-0.0002875707507253285,4.5772387756565776e-05,-0.0018926333703875435,0.0,0.0,0.0,0.0,0.0,0.0,0.0,-1.2354767113587073e-05,-0.00020790642813632576,5.0507673133186326e-05,0.0003055636088049596,-0.0002151694177900676,2.4080276489257812e-05,-3.215392430622188e-05,-0.00019126802214615242,-0.00018906614765697678,0.00029180153224309476,-0.0004490306566594232,0.0002875707507253285,-4.5772387756565776e-05,0.0018926333703875435,0.2720577120780945,22.819665908813477,-0.04922797530889511,-14.080232620239258,-0.01677471399307251,-2.1453890800476074,0.38577598333358765,0
77,0.3800027370452881,-0.2720577120780945,-22.819665908813477,0.04922797530889511,14.080232620239258,0.01677471399307251,2.1453890800476074,-0.38577598333358765,0.0,0.0,0.0,0.0,0.0,0.0,0.0,-0.2841528679637436,-0.01645911207921696,-0.037192599575499856,0.23070711932616766,-0.22651136996369928,-0.03383694985353333,-0.42204655271725566,1.6755097095213438,0.05231223325300635,0.029918997436151867,-2.752700408734773,0.03445997340480487,2.766343874030643,0.7691952072713109,1.6754973547542302,0.052104326824870026,0.029969505109285054,-2.752394845125968,0.0342448039870148,2.7663679543071322,0.7691630533470046,0.00019126802214615242,0.00018906614765697678,-0.00029180153224309476,0.0004490306566594232,-0.0002875707507253285,4.5772387756565776e-05,-0.0018926333703875435,0.0,0.0,0.0,0.0,0.0,0.0,0.0,-1.2354767113587073e-05,-0.00020790642813632576,5.0507673133186326e-05,0.0003055636088049596,-0.0002151694177900676,2.4080276489257812e-05,-3.215392430622188e-05,-0.00019126802214615242,-0.00018906614765697678,0.00029180153224309476,-0.0004490306566594232,0.0002875707507253285,-4.5772387756565776e-05,0.0018926333703875435,0.2720577120780945,22.819665908813477,-0.04922797530889511,-14.080232620239258,-0.01677471399307251,-2.1453890800476074,0.38577598333358765,0
78,0.38502955436706543,-0.2720577120780945,-22.795862197875977,0.07303168624639511,14.080232620239258,0.01036602258682251,2.1582064628601074,-0.44711631536483765,0.0,0.0,0.0,0.0,0.0,0.0,0.0,-0.28624583569883455,-0.015021061224083318,-0.042685576552861454,0.22885228919061906,-0.2255867775862329,-0.03474807897517891,-0.42342941186420224,1.6755097095213438,0.05231056281715109,0.02991716919578986,-2.752700408734773,0.03446068499483986,2.7663424498769973,0.7692020228637588,1.6754973547542302,0.052104326824870026,0.029969505109285054,-2.752394845125968,0.0342448039870148,2.7663679543071322,0.7691630533470046,-0.0006793692353073624,-0.0002909760235613732,-0.0008625097817691532,0.00022783965283851572,-0.00028946886166771133,-0.00022150267032746562,0.00044113003667092435,0.0,0.0,0.0,0.0,0.0,0.0,0.0,-1.2354767113587073e-05,-0.00020623599228106193,5.233591349519326e-05,0.0003055636088049596,-0.00021588100782506114,2.5504430134937195e-05,-3.89695167541948e-05,0.0006793692353073624,0.0002909760235613732,0.0008625097817691532,-0.00022783965283851572,0.00028946886166771133,0.00022150267032746562,-0.00044113003667092435,0.2720577120780945,22.795862197875977,-0.07303168624639511,-14.080232620239258,-0.01036602258682251,-2.1582064628601074,0.44711631536483765,0
79,0.38999152183532715,-0.2720577120780945,-22.795862197875977,0.07303168624639511,14.080232620239258,0.01036602258682251,2.1582064628601074,-0.44711631536483765,0.0,0.0,0.0,0.0,0.0,0.0,0.0,-0.28624583569883455,-0.015021061224083318,-0.042685576552861454,0.22885228919061906,-0.2255867775862329,-0.03474807897517891,-0.42342941186420224,1.6755097095213438,0.05231056281715109,0.02991716919578986,-2.752700408734773,0.03446068499483986,2.7663424498769973,0.7692020228637588,1.6754973547542302,0.052104326824870026,0.029969505109285054,-2.752394845125968,0.0342448039870148,2.7663679543071322,0.7691630533470046,-0.0006793692353073624,-0.0002909760235613732,-0.0008625097817691532,0.00022783965283851572,-0.00028946886166771133,-0.00022150267032746562,0.00044113003667092435,0.0,0.0,0.0,0.0,0.0,0.0,0.0,-1.2354767113587073e-05,-0.00020623599228106193,5.233591349519326e-05,0.0003055636088049596,-0.00021588100782506114,2.5504430134937195e-05,-3.89695167541948e-05,0.0006793692353073624,0.0002909760235613732,0.0008625097817691532,-0.00022783965283851572,0.00028946886166771133,0.00022150267032746562,-0.00044113003667092435,0.2720577120780945,22.795862197875977,-0.07303168624639511,-14.080232620239258,-0.01036602258682251,-2.1582064628601074,0.44711631536483765,0
