rezayati/contactInterpretation/dataset/franka_main/labeled_data/link6/b3_3.csv
index,time,tau_J0,tau_J1,tau_J2,tau_J3,tau_J4,tau_J5,tau_J6,tau_J_d0,tau_J_d1,tau_J_d2,tau_J_d3,tau_J_d4,tau_J_d5,tau_J_d6,tau_ext0,tau_ext1,tau_ext2,tau_ext3,tau_ext4,tau_ext5,tau_ext6,q0,q1,q2,q3,q4,q5,q6,q_d0,q_d1,q_d2,q_d3,q_d4,q_d5,q_d6,dq0,dq1,dq2,dq3,dq4,dq5,dq6,dq_d0,dq_d1,dq_d2,dq_d3,dq_d4,dq_d5,dq_d6,e0,e1,e2,e3,e4,e5,e6,de0,de1,de2,de3,de4,de5,de6,etau_J0,etau_J1,etau_J2,etau_J3,etau_J4,etau_J5,etau_J6,label
1,0.0,-0.6806880831718445,-34.28908920288086,-4.072781085968018,19.412263870239258,0.3619285225868225,1.822208046913147,-0.07724325358867645,0.0,0.0,0.0,0.0,0.0,0.0,0.0,-0.6782647978739839,-0.2405581219991466,-0.5135534447142803,0.38508069108486676,0.3025171986747173,-0.09241668214286355,-0.10717489661958196,1.0546053307189172,0.32381052568668045,-0.3923302243550619,-2.1532093784311765,0.8647495301552459,2.4658683821664606,0.5444855219924386,1.0544104758940245,0.3238615046091247,-0.39250456234122666,-2.153291787532338,0.8647539153680389,2.46587817577521,0.5445020185570556,0.00018651324317283706,-0.0010003845520510188,1.0219455262861233e-05,-4.3662376128176236e-05,-0.0003026307773007239,7.2195943728474e-05,-0.001480901303108405,0.0,0.0,0.0,0.0,0.0,0.0,0.0,-0.00019485482489267625,5.097892244426694e-05,-0.00017433798616478535,-8.240910116130706e-05,4.385212793001081e-06,9.793608749308902e-06,1.649656461699678e-05,-0.00018651324317283706,0.0010003845520510188,-1.0219455262861233e-05,4.3662376128176236e-05,0.0003026307773007239,-7.2195943728474e-05,0.001480901303108405,0.6806880831718445,34.28908920288086,4.072781085968018,-19.412263870239258,-0.3619285225868225,-1.822208046913147,0.07724325358867645,0
2,0.004997730255126953,-0.6806880831718445,-34.28908920288086,-4.072781085968018,19.412263870239258,0.3619285225868225,1.822208046913147,-0.07724325358867645,0.0,0.0,0.0,0.0,0.0,0.0,0.0,-0.6782647978739839,-0.2405581219991466,-0.5135534447142803,0.38508069108486676,0.3025171986747173,-0.09241668214286355,-0.10717489661958196,1.0546053307189172,0.32381052568668045,-0.3923302243550619,-2.1532093784311765,0.8647495301552459,2.4658683821664606,0.5444855219924386,1.0544104758940245,0.3238615046091247,-0.39250456234122666,-2.153291787532338,0.8647539153680389,2.46587817577521,0.5445020185570556,0.00018651324317283706,-0.0010003845520510188,1.0219455262861233e-05,-4.3662376128176236e-05,-0.0003026307773007239,7.2195943728474e-05,-0.001480901303108405,0.0,0.0,0.0,0.0,0.0,0.0,0.0,-0.00019485482489267625,5.097892244426694e-05,-0.00017433798616478535,-8.240910116130706e-05,4.385212793001081e-06,9.793608749308902e-06,1.649656461699678e-05,-0.00018651324317283706,0.0010003845520510188,-1.0219455262861233e-05,4.3662376128176236e-05,0.0003026307773007239,-7.2195943728474e-05,0.001480901303108405,0.6806880831718445,34.28908920288086,4.072781085968018,-19.412263870239258,-0.3619285225868225,-1.822208046913147,0.07724325358867645,0
3,0.00999593734741211,-0.6806880831718445,-34.28908920288086,-4.072781085968018,19.412263870239258,0.3619285225868225,1.822208046913147,-0.07724325358867645,0.0,0.0,0.0,0.0,0.0,0.0,0.0,-0.6782647978739839,-0.2405581219991466,-0.5135534447142803,0.38508069108486676,0.3025171986747173,-0.09241668214286355,-0.10717489661958196,1.0546053307189172,0.32381052568668045,-0.3923302243550619,-2.1532093784311765,0.8647495301552459,2.4658683821664606,0.5444855219924386,1.0544104758940245,0.3238615046091247,-0.39250456234122666,-2.153291787532338,0.8647539153680389,2.46587817577521,0.5445020185570556,0.00018651324317283706,-0.0010003845520510188,1.0219455262861233e-05,-4.3662376128176236e-05,-0.0003026307773007239,7.2195943728474e-05,-0.001480901303108405,0.0,0.0,0.0,0.0,0.0,0.0,0.0,-0.00019485482489267625,5.097892244426694e-05,-0.00017433798616478535,-8.240910116130706e-05,4.385212793001081e-06,9.793608749308902e-06,1.649656461699678e-05,-0.00018651324317283706,0.0010003845520510188,-1.0219455262861233e-05,4.3662376128176236e-05,0.0003026307773007239,-7.2195943728474e-05,0.001480901303108405,0.6806880831718445,34.28908920288086,4.072781085968018,-19.412263870239258,-0.3619285225868225,-1.822208046913147,0.07724325358867645,0
4,0.014997482299804688,-0.7084590792655945,-34.31289291381836,-4.096584796905518,19.436067581176758,0.3555198311805725,1.815799355506897,-0.09097616374492645,0.0,0.0,0.0,0.0,0.0,0.0,0.0,-0.6756716881907933,-0.23737337504512218,-0.5116283812497258,0.3807087458102013,0.302004453280915,-0.09173797632440749,-0.1084858465369644,1.0546072783010119,0.32381219521867954,-0.39232855391920657,-2.15321286103678,0.8647516723799494,2.465868075304331,0.5444870349509694,1.0544104758940245,0.3238615046091247,-0.39250456234122666,-2.153291787532338,0.8647539153680389,2.46587817577521,0.5445020185570556,0.000440904185866144,-0.0008660890491875517,0.00015743315335700636,-0.0005625124756275563,-1.6913015265543406e-05,0.00019681084476302213,-0.0010580194737281243,0.0,0.0,0.0,0.0,0.0,0.0,0.0,-0.00019680240698738416,4.930939044517357e-05,-0.00017600842202009082,-7.89264955578517e-05,2.2429880894847543e-06,1.0100470878793288e-05,1.4983606086205192e-05,-0.000440904185866144,0.0008660890491875517,-0.00015743315335700636,0.0005625124756275563,1.6913015265543406e-05,-0.00019681084476302213,0.0010580194737281243,0.7084590792655945,34.31289291381836,4.096584796905518,-19.436067581176758,-0.3555198311805725,-1.815799355506897,0.09097616374492645,0
5,0.019993305206298828,-0.7084590792655945,-34.31289291381836,-4.096584796905518,19.436067581176758,0.3555198311805725,1.815799355506897,-0.09097616374492645,0.0,0.0,0.0,0.0,0.0,0.0,0.0,-0.6756716881907933,-0.23737337504512218,-0.5116283812497258,0.3807087458102013,0.302004453280915,-0.09173797632440749,-0.1084858465369644,1.0546072783010119,0.32381219521867954,-0.39232855391920657,-2.15321286103678,0.8647516723799494,2.465868075304331,0.5444870349509694,1.0544104758940245,0.3238615046091247,-0.39250456234122666,-2.153291787532338,0.8647539153680389,2.46587817577521,0.5445020185570556,0.000440904185866144,-0.0008660890491875517,0.00015743315335700636,-0.0005625124756275563,-1.6913015265543406e-05,0.00019681084476302213,-0.0010580194737281243,0.0,0.0,0.0,0.0,0.0,0.0,0.0,-0.00019680240698738416,4.930939044517357e-05,-0.00017600842202009082,-7.89264955578517e-05,2.2429880894847543e-06,1.0100470878793288e-05,1.4983606086205192e-05,-0.000440904185866144,0.0008660890491875517,-0.00015743315335700636,0.0005625124756275563,1.6913015265543406e-05,-0.00019681084476302213,0.0010580194737281243,0.7084590792655945,34.31289291381836,4.096584796905518,-19.436067581176758,-0.3555198311805725,-1.815799355506897,0.09097616374492645,0
6,0.024997234344482422,-0.6291133761405945,-34.28908920288086,-4.048977375030518,19.412263870239258,0.3500266671180725,1.809390664100647,-0.06991903483867645,0.0,0.0,0.0,0.0,0.0,0.0,0.0,-0.647304047050966,-0.22365540196129882,-0.48571087427272425,0.373175042785555,0.30081752113523785,-0.09412123711112584,-0.10944610606097929,1.0546017101814873,0.3238113596771211,-0.3923318947909171,-2.153208468721388,0.8647519141820489,2.465868434150729,0.5444846952699087,1.0544104758940245,0.3238615046091247,-0.39250456234122666,-2.153291787532338,0.8647539153680389,2.46587817577521,0.5445020185570556,-0.0003940528180398318,-0.0005318306461781009,-0.0003436684024904705,-8.862449727372691e-05,4.871137242257417e-05,7.992788610211154e-05,-0.001565607337690479,0.0,0.0,0.0,0.0,0.0,0.0,0.0,-0.0001912342874628159,5.014493200361514e-05,-0.0001726675503095354,-8.331881094969518e-05,2.0011859900304074e-06,9.741624480863464e-06,1.7323287146875366e-05,0.0003940528180398318,0.0005318306461781009,0.0003436684024904705,8.862449727372691e-05,-4.871137242257417e-05,-7.992788610211154e-05,0.001565607337690479,0.6291133761405945,34.28908920288086,4.048977375030518,-19.412263870239258,-0.3500266671180725,-1.809390664100647,0.06991903483867645,0
7,0.02999258041381836,-0.6291133761405945,-34.28908920288086,-4.048977375030518,19.412263870239258,0.3500266671180725,1.809390664100647,-0.06991903483867645,0.0,0.0,0.0,0.0,0.0,0.0,0.0,-0.647304047050966,-0.22365540196129882,-0.48571087427272425,0.373175042785555,0.30081752113523785,-0.09412123711112584,-0.10944610606097929,1.0546017101814873,0.3238113596771211,-0.3923318947909171,-2.153208468721388,0.8647519141820489,2.465868434150729,0.5444846952699087,1.0544104758940245,0.3238615046091247,-0.39250456234122666,-2.153291787532338,0.8647539153680389,2.46587817577521,0.5445020185570556,-0.0003940528180398318,-0.0005318306461781009,-0.0003436684024904705,-8.862449727372691e-05,4.871137242257417e-05,7.992788610211154e-05,-0.001565607337690479,0.0,0.0,0.0,0.0,0.0,0.0,0.0,-0.0001912342874628159,5.014493200361514e-05,-0.0001726675503095354,-8.331881094969518e-05,2.0011859900304074e-06,9.741624480863464e-06,1.7323287146875366e-05,0.0003940528180398318,0.0005318306461781009,0.0003436684024904705,8.862449727372691e-05,-4.871137242257417e-05,-7.992788610211154e-05,0.001565607337690479,0.6291133761405945,34.28908920288086,4.048977375030518,-19.412263870239258,-0.3500266671180725,-1.809390664100647,0.06991903483867645,0
8,0.03499722480773926,-0.6568843722343445,-34.28908920288086,-4.025173664093018,19.388460159301758,0.3500266671180725,1.802981972694397,-0.13217489421367645,0.0,0.0,0.0,0.0,0.0,0.0,0.0,-0.6510095045953963,-0.2316508597398018,-0.4905114998020164,0.3754491860681385,0.3010198423307559,-0.09293821872783879,-0.10809162093609077,1.0546036618577412,0.32381144652649346,-0.3923335652267724,-2.153208830450214,0.8647480790003989,2.4658694858890797,0.5444926720642383,1.0544104758940245,0.3238615046091247,-0.39250456234122666,-2.153291787532338,0.8647539153680389,2.46587817577521,0.5445020185570556,0.001124453115844294,-0.00022608889905879678,0.00024697060524403973,0.0003341327096738836,6.723558841704509e-05,0.00014291053769200797,0.0011562106337264255,0.0,0.0,0.0,0.0,0.0,0.0,0.0,-0.00019318596371675767,5.0058082631254663e-05,-0.00017099711445428545,-8.295708212369135e-05,5.836367640066342e-06,8.689886130230917e-06,9.346492817252638e-06,-0.001124453115844294,0.00022608889905879678,-0.00024697060524403973,-0.0003341327096738836,-6.723558841704509e-05,-0.00014291053769200797,-0.0011562106337264255,0.6568843722343445,34.28908920288086,4.025173664093018,-19.388460159301758,-0.3500266671180725,-1.802981972694397,0.13217489421367645,0
9,0.040000200271606445,-0.6568843722343445,-34.28908920288086,-4.025173664093018,19.388460159301758,0.3500266671180725,1.802981972694397,-0.13217489421367645,0.0,0.0,0.0,0.0,0.0,0.0,0.0,-0.6510095045953963,-0.2316508597398018,-0.4905114998020164,0.3754491860681385,0.3010198423307559,-0.09293821872783879,-0.10809162093609077,1.0546036618577412,0.32381144652649346,-0.3923335652267724,-2.153208830450214,0.8647480790003989,2.4658694858890797,0.5444926720642383,1.0544104758940245,0.3238615046091247,-0.39250456234122666,-2.153291787532338,0.8647539153680389,2.46587817577521,0.5445020185570556,0.001124453115844294,-0.00022608889905879678,0.00024697060524403973,0.0003341327096738836,6.723558841704509e-05,0.00014291053769200797,0.0011562106337264255,0.0,0.0,0.0,0.0,0.0,0.0,0.0,-0.00019318596371675767,5.0058082631254663e-05,-0.00017099711445428545,-8.295708212369135e-05,5.836367640066342e-06,8.689886130230917e-06,9.346492817252638e-06,-0.001124453115844294,0.00022608889905879678,-0.00024697060524403973,-0.0003341327096738836,-6.723558841704509e-05,-0.00014291053769200797,-0.0011562106337264255,0.6568843722343445,34.28908920288086,4.025173664093018,-19.388460159301758,-0.3500266671180725,-1.802981972694397,0.13217489421367645,0
10,0.0449986457824707,-0.6291133761405945,-34.33669662475586,-4.025173664093018,19.388460159301758,0.3555198311805725,1.802981972694397,-0.07724325358867645,0.0,0.0,0.0,0.0,0.0,0.0,0.0,-0.6688780435524657,-0.23503424521920077,-0.5043526599834919,0.3779685072316479,0.30159807295281893,-0.09183391838930687,-0.10626735816675338,1.0546017101815033,0.3238137550607098,-0.3923335652267724,-2.1532067644823982,0.8647472202475595,2.465870559036443,0.544485548162322,1.0544104758940245,0.3238615046091247,-0.39250456234122666,-2.153291787532338,0.8647539153680389,2.46587817577521,0.5445020185570556,-0.00043410747060945715,0.001312823653485174,-0.0005175457102581998,0.0006701343517798272,5.432653372314014e-05,3.470211981695464e-05,-0.001369152986524326,0.0,0.0,0.0,0.0,0.0,0.0,0.0,-0.0001912342874788031,4.7749548414910414e-05,-0.00017099711445428545,-8.50230499396254e-05,6.695120479460748e-06,7.616738766813569e-06,1.6470394733625326e-05,0.00043410747060945715,-0.001312823653485174,0.0005175457102581998,-0.0006701343517798272,-5.432653372314014e-05,-3.470211981695464e-05,0.001369152986524326,0.6291133761405945,34.33669662475586,4.025173664093018,-19.388460159301758,-0.3555198311805725,-1.802981972694397,0.07724325358867645,0
11,0.050013065338134766,-0.6291133761405945,-34.33669662475586,-4.025173664093018,19.388460159301758,0.3555198311805725,1.802981972694397,-0.07724325358867645,0.0,0.0,0.0,0.0,0.0,0.0,0.0,-0.6688780435524657,-0.23503424521920077,-0.5043526599834919,0.3779685072316479,0.30159807295281893,-0.09183391838930687,-0.10626735816675338,1.0546017101815033,0.3238137550607098,-0.3923335652267724,-2.1532067644823982,0.8647472202475595,2.465870559036443,0.544485548162322,1.0544104758940245,0.3238615046091247,-0.39250456234122666,-2.153291787532338,0.8647539153680389,2.46587817577521,0.5445020185570556,-0.00043410747060945715,0.001312823653485174,-0.0005175457102581998,0.0006701343517798272,5.432653372314014e-05,3.470211981695464e-05,-0.001369152986524326,0.0,0.0,0.0,0.0,0.0,0.0,0.0,-0.0001912342874788031,4.7749548414910414e-05,-0.00017099711445428545,-8.50230499396254e-05,6.695120479460748e-06,7.616738766813569e-06,1.6470394733625326e-05,0.00043410747060945715,-0.001312823653485174,0.0005175457102581998,-0.0006701343517798272,-5.432653372314014e-05,-3.470211981695464e-05,0.001369152986524326,0.6291133761405945,34.33669662475586,4.025173664093018,-19.388460159301758,-0.3555198311805725,-1.802981972694397,0.07724325358867645,0
12,0.05500960350036621,-0.6291133761405945,-34.33669662475586,-4.025173664093018,19.388460159301758,0.3555198311805725,1.802981972694397,-0.07724325358867645,0.0,0.0,0.0,0.0,0.0,0.0,0.0,-0.6688780435524657,-0.23503424521920077,-0.5043526599834919,0.3779685072316479,0.30159807295281893,-0.09183391838930687,-0.10626735816675338,1.0546017101815033,0.3238137550607098,-0.3923335652267724,-2.1532067644823982,0.8647472202475595,2.465870559036443,0.544485548162322,1.0544104758940245,0.3238615046091247,-0.39250456234122666,-2.153291787532338,0.8647539153680389,2.46587817577521,0.5445020185570556,-0.00043410747060945715,0.001312823653485174,-0.0005175457102581998,0.0006701343517798272,5.432653372314014e-05,3.470211981695464e-05,-0.001369152986524326,0.0,0.0,0.0,0.0,0.0,0.0,0.0,-0.0001912342874788031,4.7749548414910414e-05,-0.00017099711445428545,-8.50230499396254e-05,6.695120479460748e-06,7.616738766813569e-06,1.6470394733625326e-05,0.00043410747060945715,-0.001312823653485174,0.0005175457102581998,-0.0006701343517798272,-5.432653372314014e-05,-3.470211981695464e-05,0.001369152986524326,0.6291133761405945,34.33669662475586,4.025173664093018,-19.388460159301758,-0.3555198311805725,-1.802981972694397,0.07724325358867645,0
13,0.05999565124511719,-0.6291133761405945,-34.31289291381836,-4.048977375030518,19.412263870239258,0.3619285225868225,1.809390664100647,-0.10470907390117645,0.0,0.0,0.0,0.0,0.0,0.0,0.0,-0.6566404886395322,-0.23252670800433284,-0.4928196961746541,0.37913216200448757,0.30152345103944883,-0.09419129927128184,-0.10576566121297865,1.0546017102864658,0.32381516195044097,-0.3923318947909171,-2.1532094294391277,0.8647464694618296,2.465869847019513,0.5444885606685178,1.0544104758940245,0.3238615046091247,-0.39250456234122666,-2.153291787532338,0.8647539153680389,2.46587817577521,0.5445020185570556,-0.00029554181319773096,0.0005916503718267626,0.0002632708632431017,-0.0004264176515182806,-0.00021409424833452592,-3.561527088772719e-05,2.2984216696645574e-05,0.0,0.0,0.0,0.0,0.0,0.0,0.0,-0.00019123439244128626,4.63426586837512e-05,-0.0001726675503095354,-8.23580932101109e-05,7.445906209269104e-06,8.328755697117884e-06,1.3457888537793394e-05,0.00029554181319773096,-0.0005916503718267626,-0.0002632708632431017,0.0004264176515182806,0.00021409424833452592,3.561527088772719e-05,-2.2984216696645574e-05,0.6291133761405945,34.31289291381836,4.048977375030518,-19.412263870239258,-0.3619285225868225,-1.809390664100647,0.10470907390117645,0
14,0.06499528884887695,-0.6291133761405945,-34.31289291381836,-4.048977375030518,19.412263870239258,0.3619285225868225,1.809390664100647,-0.10470907390117645,0.0,0.0,0.0,0.0,0.0,0.0,0.0,-0.6566404886395322,-0.23252670800433284,-0.4928196961746541,0.37913216200448757,0.30152345103944883,-0.09419129927128184,-0.10576566121297865,1.0546017102864658,0.32381516195044097,-0.3923318947909171,-2.1532094294391277,0.8647464694618296,2.465869847019513,0.5444885606685178,1.0544104758940245,0.3238615046091247,-0.39250456234122666,-2.153291787532338,0.8647539153680389,2.46587817577521,0.5445020185570556,-0.00029554181319773096,0.0005916503718267626,0.0002632708632431017,-0.0004264176515182806,-0.00021409424833452592,-3.561527088772719e-05,2.2984216696645574e-05,0.0,0.0,0.0,0.0,0.0,0.0,0.0,-0.00019123439244128626,4.63426586837512e-05,-0.0001726675503095354,-8.23580932101109e-05,7.445906209269104e-06,8.328755697117884e-06,1.3457888537793394e-05,0.00029554181319773096,-0.0005916503718267626,-0.0002632708632431017,0.0004264176515182806,0.00021409424833452592,3.561527088772719e-05,-2.2984216696645574e-05,0.6291133761405945,34.31289291381836,4.048977375030518,-19.412263870239258,-0.3619285225868225,-1.809390664100647,0.10470907390117645,0
15,0.06999444961547852,-0.7084590792655945,-34.28908920288086,-4.096584796905518,19.388460159301758,0.3555198311805725,1.815799355506897,-0.07724325358867645,0.0,0.0,0.0,0.0,0.0,0.0,0.0,-0.6773204132085365,-0.2352457394208743,-0.5131366282779138,0.3779462512943131,0.30248398375795377,-0.0927304404336097,-0.10620865335346613,1.0546072783010065,0.3238126507333433,-0.39232855391920657,-2.153208830432005,0.8647503792964771,2.465868742484124,0.5444855132711345,1.0544104758940245,0.3238615046091247,-0.39250456234122666,-2.153291787532338,0.8647539153680389,2.46587817577521,0.5445020185570556,0.0005657605710583358,-0.0006987748191428336,-9.437518060969636e-05,0.00013685076378655225,9.496159047318803e-05,3.798350306977625e-05,-0.0012024123090236946,0.0,0.0,0.0,0.0,0.0,0.0,0.0,-0.0001968024069820551,4.885387578140721e-05,-0.00017600842202009082,-8.295710033268122e-05,3.5360715617827054e-06,9.43329108604729e-06,1.6505285921120105e-05,-0.0005657605710583358,0.0006987748191428336,9.437518060969636e-05,-0.00013685076378655225,-9.496159047318803e-05,-3.798350306977625e-05,0.0012024123090236946,0.7084590792655945,34.28908920288086,4.096584796905518,-19.388460159301758,-0.3555198311805725,-1.815799355506897,0.07724325358867645,0
16,0.07499909400939941,-0.7084590792655945,-34.28908920288086,-4.096584796905518,19.388460159301758,0.3555198311805725,1.815799355506897,-0.07724325358867645,0.0,0.0,0.0,0.0,0.0,0.0,0.0,-0.6773204132085365,-0.2352457394208743,-0.5131366282779138,0.3779462512943131,0.30248398375795377,-0.0927304404336097,-0.10620865335346613,1.0546072783010065,0.3238126507333433,-0.39232855391920657,-2.153208830432005,0.8647503792964771,2.465868742484124,0.5444855132711345,1.0544104758940245,0.3238615046091247,-0.39250456234122666,-2.153291787532338,0.8647539153680389,2.46587817577521,0.5445020185570556,0.0005657605710583358,-0.0006987748191428336,-9.437518060969636e-05,0.00013685076378655225,9.496159047318803e-05,3.798350306977625e-05,-0.0012024123090236946,0.0,0.0,0.0,0.0,0.0,0.0,0.0,-0.0001968024069820551,4.885387578140721e-05,-0.00017600842202009082,-8.295710033268122e-05,3.5360715617827054e-06,9.43329108604729e-06,1.6505285921120105e-05,-0.0005657605710583358,0.0006987748191428336,9.437518060969636e-05,-0.00013685076378655225,-9.496159047318803e-05,-3.798350306977625e-05,0.0012024123090236946,0.7084590792655945,34.28908920288086,4.096584796905518,-19.388460159301758,-0.3555198311805725,-1.815799355506897,0.07724325358867645,0
17,0.0799553394317627,-0.7322627902030945,-34.33669662475586,-4.072781085968018,19.436067581176758,0.3619285225868225,1.815799355506897,-0.11111776530742645,0.0,0.0,0.0,0.0,0.0,0.0,0.0,-0.6547828605450055,-0.2316990078690878,-0.4955352954638446,0.37780862457711245,0.30173974976843565,-0.0934449656551894,-0.10669913689485455,1.0546089515712829,0.32381407875563356,-0.3923302243550619,-2.153210108775634,0.8647506484241397,2.465868781729242,0.5444892727630724,1.0544104758940245,0.3238615046091247,-0.39250456234122666,-2.153291787532338,0.8647539153680389,2.46587817577521,0.5445020185570556,0.0008157344991926826,0.0005067453830444542,-4.863005145253705e-05,-0.0005492098687103925,-0.00027244596259206683,0.00012147716213770839,0.00025069178634853825,0.0,0.0,0.0,0.0,0.0,0.0,0.0,-0.00019847567725839177,4.742585349115647e-05,-0.00017433798616478535,-8.16787567039512e-05,3.266943899182806e-06,9.39404596778104e-06,1.274579398324871e-05,-0.0008157344991926826,-0.0005067453830444542,4.863005145253705e-05,0.0005492098687103925,0.00027244596259206683,-0.00012147716213770839,-0.00025069178634853825,0.7322627902030945,34.33669662475586,4.072781085968018,-19.436067581176758,-0.3619285225868225,-1.815799355506897,0.11111776530742645,0
18,0.0849924087524414,-0.7322627902030945,-34.33669662475586,-4.072781085968018,19.436067581176758,0.3619285225868225,1.815799355506897,-0.11111776530742645,0.0,0.0,0.0,0.0,0.0,0.0,0.0,-0.6547828605450055,-0.2316990078690878,-0.4955352954638446,0.37780862457711245,0.30173974976843565,-0.0934449656551894,-0.10669913689485455,1.0546089515712829,0.32381407875563356,-0.3923302243550619,-2.153210108775634,0.8647506484241397,2.465868781729242,0.5444892727630724,1.0544104758940245,0.3238615046091247,-0.39250456234122666,-2.153291787532338,0.8647539153680389,2.46587817577521,0.5445020185570556,0.0008157344991926826,0.0005067453830444542,-4.863005145253705e-05,-0.0005492098687103925,-0.00027244596259206683,0.00012147716213770839,0.00025069178634853825,0.0,0.0,0.0,0.0,0.0,0.0,0.0,-0.00019847567725839177,4.742585349115647e-05,-0.00017433798616478535,-8.16787567039512e-05,3.266943899182806e-06,9.39404596778104e-06,1.274579398324871e-05,-0.0008157344991926826,-0.0005067453830444542,4.863005145253705e-05,0.0005492098687103925,0.00027244596259206683,-0.00012147716213770839,-0.00025069178634853825,0.7322627902030945,34.33669662475586,4.072781085968018,-19.436067581176758,-0.3619285225868225,-1.815799355506897,0.11111776530742645,0
19,0.0899965763092041,-0.6568843722343445,-34.31289291381836,-4.072781085968018,19.436067581176758,0.3555198311805725,1.796573281288147,-0.08365194499492645,0.0,0.0,0.0,0.0,0.0,0.0,0.0,-0.6496878911150589,-0.22389965805421172,-0.4859507986118978,0.3729420821136874,0.3012863771263939,-0.09378045775553247,-0.10651632835484667,1.0546036599681419,0.32381219846008313,-0.3923302243550619,-2.1532101078269594,0.8647481229242319,2.465868051395865,0.5444862209873067,1.0544104758940245,0.3238615046091247,-0.39250456234122666,-2.153291787532338,0.8647539153680389,2.46587817577521,0.5445020185570556,0.00013515479859435627,0.00029434006031454576,0.0002937751722626373,-0.0005041977184236401,6.606996045372973e-05,0.0005537506221671109,-0.0008252110718278574,0.0,0.0,0.0,0.0,0.0,0.0,0.0,-0.0001931840741173918,4.930614904158359e-05,-0.00017433798616478535,-8.16797053784235e-05,5.792443807051129e-06,1.0124379345111123e-05,1.5797569748898788e-05,-0.00013515479859435627,-0.00029434006031454576,-0.0002937751722626373,0.0005041977184236401,-6.606996045372973e-05,-0.0005537506221671109,0.0008252110718278574,0.6568843722343445,34.31289291381836,4.072781085968018,-19.436067581176758,-0.3555198311805725,-1.796573281288147,0.08365194499492645,0
20,0.09494495391845703,-0.6568843722343445,-34.31289291381836,-4.072781085968018,19.436067581176758,0.3555198311805725,1.796573281288147,-0.08365194499492645,0.0,0.0,0.0,0.0,0.0,0.0,0.0,-0.6496878911150589,-0.22389965805421172,-0.4859507986118978,0.3729420821136874,0.3012863771263939,-0.09378045775553247,-0.10651632835484667,1.0546036599681419,0.32381219846008313,-0.3923302243550619,-2.1532101078269594,0.8647481229242319,2.465868051395865,0.5444862209873067,1.0544104758940245,0.3238615046091247,-0.39250456234122666,-2.153291787532338,0.8647539153680389,2.46587817577521,0.5445020185570556,0.00013515479859435627,0.00029434006031454576,0.0002937751722626373,-0.0005041977184236401,6.606996045372973e-05,0.0005537506221671109,-0.0008252110718278574,0.0,0.0,0.0,0.0,0.0,0.0,0.0,-0.0001931840741173918,4.930614904158359e-05,-0.00017433798616478535,-8.16797053784235e-05,5.792443807051129e-06,1.0124379345111123e-05,1.5797569748898788e-05,-0.00013515479859435627,-0.00029434006031454576,-0.0002937751722626373,0.0005041977184236401,-6.606996045372973e-05,-0.0005537506221671109,0.0008252110718278574,0.6568843722343445,34.31289291381836,4.072781085968018,-19.436067581176758,-0.3555198311805725,-1.796573281288147,0.08365194499492645,0
21,0.09999489784240723,-0.6568843722343445,-34.28908920288086,-4.072781085968018,19.412263870239258,0.3436179757118225,1.802981972694397,-0.12485067546367645,0.0,0.0,0.0,0.0,0.0,0.0,0.0,-0.676162451083169,-0.23297894856394086,-0.5080376832816546,0.37460246131954694,0.30253866524211287,-0.09258573383414839,-0.10686931164337775,1.0546036621726789,0.3238106601509929,-0.3923302243187231,-2.1532091331194545,0.8647499292728591,2.4658705575828925,0.5444939789919637,1.0544104758940245,0.3238615046091247,-0.39250456234122666,-2.153291787532338,0.8647539153680389,2.46587817577521,0.5445020185570556,-0.0007239105217754224,-0.0005300314954133392,0.00015056133560809861,-0.00019715318029137573,0.00044212492176233997,0.0001621240310963114,0.0005883486378442475,0.0,0.0,0.0,0.0,0.0,0.0,0.0,-0.0001931862786543892,5.0844458131804604e-05,-0.00017433802250355068,-8.265441288335396e-05,3.9860951798198485e-06,7.618192317426775e-06,8.039565091877421e-06,0.0007239105217754224,0.0005300314954133392,-0.00015056133560809861,0.00019715318029137573,-0.00044212492176233997,-0.0001621240310963114,-0.0005883486378442475,0.6568843722343445,34.28908920288086,4.072781085968018,-19.412263870239258,-0.3436179757118225,-1.802981972694397,0.12485067546367645,0
22,0.1050114631652832,-0.6568843722343445,-34.28908920288086,-4.072781085968018,19.412263870239258,0.3436179757118225,1.802981972694397,-0.12485067546367645,0.0,0.0,0.0,0.0,0.0,0.0,0.0,-0.676162451083169,-0.23297894856394086,-0.5080376832816546,0.37460246131954694,0.30253866524211287,-0.09258573383414839,-0.10686931164337775,1.0546036621726789,0.3238106601509929,-0.3923302243187231,-2.1532091331194545,0.8647499292728591,2.4658705575828925,0.5444939789919637,1.0544104758940245,0.3238615046091247,-0.39250456234122666,-2.153291787532338,0.8647539153680389,2.46587817577521,0.5445020185570556,-0.0007239105217754224,-0.0005300314954133392,0.00015056133560809861,-0.00019715318029137573,0.00044212492176233997,0.0001621240310963114,0.0005883486378442475,0.0,0.0,0.0,0.0,0.0,0.0,0.0,-0.0001931862786543892,5.0844458131804604e-05,-0.00017433802250355068,-8.265441288335396e-05,3.9860951798198485e-06,7.618192317426775e-06,8.039565091877421e-06,0.0007239105217754224,0.0005300314954133392,-0.00015056133560809861,0.00019715318029137573,-0.00044212492176233997,-0.0001621240310963114,-0.0005883486378442475,0.6568843722343445,34.28908920288086,4.072781085968018,-19.412263870239258,-0.3436179757118225,-1.802981972694397,0.12485067546367645,0
23,0.10999131202697754,-0.6806880831718445,-34.28908920288086,-4.072781085968018,19.436067581176758,0.3436179757118225,1.809390664100647,-0.07724325358867645,0.0,0.0,0.0,0.0,0.0,0.0,0.0,-0.6668168729319521,-0.2344772506253042,-0.4998913514771892,0.3776033483522146,0.30214921317810045,-0.0937490037518638,-0.10685266810160131,1.0546053578034211,0.32381324875255846,-0.3923302240280129,-2.1532101049964587,0.8647519612710429,2.465869729281935,0.5444888055803949,1.0544104758940245,0.3238615046091247,-0.39250456234122666,-2.153291787532338,0.8647539153680389,2.46587817577521,0.5445020185570556,-1.6354493793448953e-05,-2.2073258558465667e-05,0.00016917052983920846,-0.00032845120688913365,0.0005239971259887534,0.0002803105183010546,-0.0008190196338166959,0.0,0.0,0.0,0.0,0.0,0.0,0.0,-0.00019488190939664918,4.8255856566259414e-05,-0.00017433831321378435,-8.16825358791462e-05,1.9540969959930266e-06,8.446493275027223e-06,1.3212976660681441e-05,1.6354493793448953e-05,2.2073258558465667e-05,-0.00016917052983920846,0.00032845120688913365,-0.0005239971259887534,-0.0002803105183010546,0.0008190196338166959,0.6806880831718445,34.28908920288086,4.072781085968018,-19.436067581176758,-0.3436179757118225,-1.809390664100647,0.07724325358867645,0
24,0.11499452590942383,-0.6806880831718445,-34.28908920288086,-4.072781085968018,19.436067581176758,0.3436179757118225,1.809390664100647,-0.07724325358867645,0.0,0.0,0.0,0.0,0.0,0.0,0.0,-0.6668168729319521,-0.2344772506253042,-0.4998913514771892,0.3776033483522146,0.30214921317810045,-0.0937490037518638,-0.10685266810160131,1.0546053578034211,0.32381324875255846,-0.3923302240280129,-2.1532101049964587,0.8647519612710429,2.465869729281935,0.5444888055803949,1.0544104758940245,0.3238615046091247,-0.39250456234122666,-2.153291787532338,0.8647539153680389,2.46587817577521,0.5445020185570556,-1.6354493793448953e-05,-2.2073258558465667e-05,0.00016917052983920846,-0.00032845120688913365,0.0005239971259887534,0.0002803105183010546,-0.0008190196338166959,0.0,0.0,0.0,0.0,0.0,0.0,0.0,-0.00019488190939664918,4.8255856566259414e-05,-0.00017433831321378435,-8.16825358791462e-05,1.9540969959930266e-06,8.446493275027223e-06,1.3212976660681441e-05,1.6354493793448953e-05,2.2073258558465667e-05,-0.00016917052983920846,0.00032845120688913365,-0.0005239971259887534,-0.0002803105183010546,0.0008190196338166959,0.6806880831718445,34.28908920288086,4.072781085968018,-19.436067581176758,-0.3436179757118225,-1.809390664100647,0.07724325358867645,0
25,0.11999201774597168,-0.6806880831718445,-34.28908920288086,-4.072781085968018,19.436067581176758,0.3436179757118225,1.809390664100647,-0.07724325358867645,0.0,0.0,0.0,0.0,0.0,0.0,0.0,-0.6668168729319521,-0.2344772506253042,-0.4998913514771892,0.3776033483522146,0.30214921317810045,-0.0937490037518638,-0.10685266810160131,1.0546053578034211,0.32381324875255846,-0.3923302240280129,-2.1532101049964587,0.8647519612710429,2.465869729281935,0.5444888055803949,1.0544104758940245,0.3238615046091247,-0.39250456234122666,-2.153291787532338,0.8647539153680389,2.46587817577521,0.5445020185570556,-1.6354493793448953e-05,-2.2073258558465667e-05,0.00016917052983920846,-0.00032845120688913365,0.0005239971259887534,0.0002803105183010546,-0.0008190196338166959,0.0,0.0,0.0,0.0,0.0,0.0,0.0,-0.00019488190939664918,4.8255856566259414e-05,-0.00017433831321378435,-8.16825358791462e-05,1.9540969959930266e-06,8.446493275027223e-06,1.3212976660681441e-05,1.6354493793448953e-05,2.2073258558465667e-05,-0.00016917052983920846,0.00032845120688913365,-0.0005239971259887534,-0.0002803105183010546,0.0008190196338166959,0.6806880831718445,34.28908920288086,4.072781085968018,-19.436067581176758,-0.3436179757118225,-1.809390664100647,0.07724325358867645,0
26,0.12499356269836426,-0.6806880831718445,-34.28908920288086,-4.072781085968018,19.436067581176758,0.3436179757118225,1.809390664100647,-0.07724325358867645,0.0,0.0,0.0,0.0,0.0,0.0,0.0,-0.6668168729319521,-0.2344772506253042,-0.4998913514771892,0.3776033483522146,0.30214921317810045,-0.0937490037518638,-0.10685266810160131,1.0546053578034211,0.32381324875255846,-0.3923302240280129,-2.1532101049964587,0.8647519612710429,2.465869729281935,0.5444888055803949,1.0544104758940245,0.3238615046091247,-0.39250456234122666,-2.153291787532338,0.8647539153680389,2.46587817577521,0.5445020185570556,-1.6354493793448953e-05,-2.2073258558465667e-05,0.00016917052983920846,-0.00032845120688913365,0.0005239971259887534,0.0002803105183010546,-0.0008190196338166959,0.0,0.0,0.0,0.0,0.0,0.0,0.0,-0.00019488190939664918,4.8255856566259414e-05,-0.00017433831321378435,-8.16825358791462e-05,1.9540969959930266e-06,8.446493275027223e-06,1.3212976660681441e-05,1.6354493793448953e-05,2.2073258558465667e-05,-0.00016917052983920846,0.00032845120688913365,-0.0005239971259887534,-0.0002803105183010546,0.0008190196338166959,0.6806880831718445,34.28908920288086,4.072781085968018,-19.436067581176758,-0.3436179757118225,-1.809390664100647,0.07724325358867645,0
27,0.12999701499938965,-0.6568843722343445,-34.31289291381836,-4.048977375030518,19.412263870239258,0.3500266671180725,1.815799355506897,-0.13217489421367645,0.0,0.0,0.0,0.0,0.0,0.0,0.0,-0.6635845089089262,-0.23726878682127267,-0.4970213721968733,0.3795175336097343,0.30225956655798386,-0.09352538096496461,-0.10721719994079101,1.054603659338734,0.32381210778053493,-0.3923318947909116,-2.1532093529097054,0.8647488646161298,2.4658691349406965,0.5444958553951063,1.0544104758940245,0.3238615046091247,-0.39250456234122666,-2.153291787532338,0.8647539153680389,2.46587817577521,0.5445020185570556,-0.0002941778032138298,0.00019042637177574782,0.00015504350990372997,-6.303760460757839e-05,0.00035120827954647103,-0.00012992336329149186,0.0009944479786812442,0.0,0.0,0.0,0.0,0.0,0.0,0.0,-0.00019318344470953264,4.939682858978722e-05,-0.00017266755031508652,-8.24346226324657e-05,5.0507519091524955e-06,9.040834513474039e-06,6.163161949346296e-06,0.0002941778032138298,-0.00019042637177574782,-0.00015504350990372997,6.303760460757839e-05,-0.00035120827954647103,0.00012992336329149186,-0.0009944479786812442,0.6568843722343445,34.31289291381836,4.048977375030518,-19.412263870239258,-0.3500266671180725,-1.815799355506897,0.13217489421367645,0
28,0.13500022888183594,-0.6568843722343445,-34.31289291381836,-4.048977375030518,19.412263870239258,0.3500266671180725,1.815799355506897,-0.13217489421367645,0.0,0.0,0.0,0.0,0.0,0.0,0.0,-0.6635845089089262,-0.23726878682127267,-0.4970213721968733,0.3795175336097343,0.30225956655798386,-0.09352538096496461,-0.10721719994079101,1.054603659338734,0.32381210778053493,-0.3923318947909116,-2.1532093529097054,0.8647488646161298,2.4658691349406965,0.5444958553951063,1.0544104758940245,0.3238615046091247,-0.39250456234122666,-2.153291787532338,0.8647539153680389,2.46587817577521,0.5445020185570556,-0.0002941778032138298,0.00019042637177574782,0.00015504350990372997,-6.303760460757839e-05,0.00035120827954647103,-0.00012992336329149186,0.0009944479786812442,0.0,0.0,0.0,0.0,0.0,0.0,0.0,-0.00019318344470953264,4.939682858978722e-05,-0.00017266755031508652,-8.24346226324657e-05,5.0507519091524955e-06,9.040834513474039e-06,6.163161949346296e-06,0.0002941778032138298,-0.00019042637177574782,-0.00015504350990372997,6.303760460757839e-05,-0.00035120827954647103,0.00012992336329149186,-0.0009944479786812442,0.6568843722343445,34.31289291381836,4.048977375030518,-19.412263870239258,-0.3500266671180725,-1.815799355506897,0.13217489421367645,0
29,0.13994956016540527,-0.6291133761405945,-34.28908920288086,-4.072781085968018,19.388460159301758,0.3555198311805725,1.815799355506897,-0.06351034343242645,0.0,0.0,0.0,0.0,0.0,0.0,0.0,-0.6653359843790451,-0.22976992924444764,-0.4963233325994198,0.37504586284290004,0.30233994870499104,-0.09360710931344206,-0.10814605220869294,1.0546017130509036,0.3238104122750819,-0.39233022337391543,-2.1532067669919486,0.8647506535870277,2.4658691348888553,0.5444839849776284,1.0544104758940245,0.3238615046091247,-0.39250456234122666,-2.153291787532338,0.8647539153680389,2.46587817577521,0.5445020185570556,-0.0006364967848724468,-0.0003126436987458997,0.0004943464696937024,0.0006674232016876875,-2.5878886419381746e-05,-6.64419909779109e-05,-0.001675511887956124,0.0,0.0,0.0,0.0,0.0,0.0,0.0,-0.00019123715687907605,5.109233404282376e-05,-0.00017433896731122722,-8.502054038928009e-05,3.261781011176801e-06,9.04088635467204e-06,1.8033579427201296e-05,0.0006364967848724468,0.0003126436987458997,-0.0004943464696937024,-0.0006674232016876875,2.5878886419381746e-05,6.64419909779109e-05,0.001675511887956124,0.6291133761405945,34.28908920288086,4.072781085968018,-19.388460159301758,-0.3555198311805725,-1.815799355506897,0.06351034343242645,0
30,0.14503073692321777,-0.6291133761405945,-34.28908920288086,-4.072781085968018,19.388460159301758,0.3555198311805725,1.815799355506897,-0.06351034343242645,0.0,0.0,0.0,0.0,0.0,0.0,0.0,-0.6653359843790451,-0.22976992924444764,-0.4963233325994198,0.37504586284290004,0.30233994870499104,-0.09360710931344206,-0.10814605220869294,1.0546017130509036,0.3238104122750819,-0.39233022337391543,-2.1532067669919486,0.8647506535870277,2.4658691348888553,0.5444839849776284,1.0544104758940245,0.3238615046091247,-0.39250456234122666,-2.153291787532338,0.8647539153680389,2.46587817577521,0.5445020185570556,-0.0006364967848724468,-0.0003126436987458997,0.0004943464696937024,0.0006674232016876875,-2.5878886419381746e-05,-6.64419909779109e-05,-0.001675511887956124,0.0,0.0,0.0,0.0,0.0,0.0,0.0,-0.00019123715687907605,5.109233404282376e-05,-0.00017433896731122722,-8.502054038928009e-05,3.261781011176801e-06,9.04088635467204e-06,1.8033579427201296e-05,0.0006364967848724468,0.0003126436987458997,-0.0004943464696937024,-0.0006674232016876875,2.5878886419381746e-05,6.64419909779109e-05,0.001675511887956124,0.6291133761405945,34.28908920288086,4.072781085968018,-19.388460159301758,-0.3555198311805725,-1.815799355506897,0.06351034343242645,0
31,0.14999032020568848,-0.6291133761405945,-34.26528549194336,-4.025173664093018,19.388460159301758,0.3555198311805725,1.802981972694397,-0.07724325358867645,0.0,0.0,0.0,0.0,0.0,0.0,0.0,-0.6551591060786167,-0.228735114234649,-0.4885841123424312,0.37747918565573946,0.3021895733058237,-0.09372997759292043,-0.10790935764764868,1.0546017101819245,0.3238094880227635,-0.3923335652266228,-2.1532067754589344,0.8647481247392644,2.4658705590963286,0.5444858664841408,1.0544104758940245,0.3238615046091247,-0.39250456234122666,-2.153291787532338,0.8647539153680389,2.46587817577521,0.5445020185570556,0.00012105114588301224,-0.0004737901223092601,-0.0004025848980230856,0.00125105356763157,-8.067205958606846e-05,0.00028132659946039553,-0.0014570164978715925,0.0,0.0,0.0,0.0,0.0,0.0,0.0,-0.00019123428790002173,5.2016586361225414e-05,-0.0001709971146038325,-8.501207340350092e-05,5.7906287744824425e-06,7.616678881383621e-06,1.615207291483234e-05,-0.00012105114588301224,0.0004737901223092601,0.0004025848980230856,-0.00125105356763157,8.067205958606846e-05,-0.00028132659946039553,0.0014570164978715925,0.6291133761405945,34.26528549194336,4.025173664093018,-19.388460159301758,-0.3555198311805725,-1.802981972694397,0.07724325358867645,0
32,0.15503215789794922,-0.6291133761405945,-34.26528549194336,-4.025173664093018,19.388460159301758,0.3555198311805725,1.802981972694397,-0.07724325358867645,0.0,0.0,0.0,0.0,0.0,0.0,0.0,-0.6551591060786167,-0.228735114234649,-0.4885841123424312,0.37747918565573946,0.3021895733058237,-0.09372997759292043,-0.10790935764764868,1.0546017101819245,0.3238094880227635,-0.3923335652266228,-2.1532067754589344,0.8647481247392644,2.4658705590963286,0.5444858664841408,1.0544104758940245,0.3238615046091247,-0.39250456234122666,-2.153291787532338,0.8647539153680389,2.46587817577521,0.5445020185570556,0.00012105114588301224,-0.0004737901223092601,-0.0004025848980230856,0.00125105356763157,-8.067205958606846e-05,0.00028132659946039553,-0.0014570164978715925,0.0,0.0,0.0,0.0,0.0,0.0,0.0,-0.00019123428790002173,5.2016586361225414e-05,-0.0001709971146038325,-8.501207340350092e-05,5.7906287744824425e-06,7.616678881383621e-06,1.615207291483234e-05,-0.00012105114588301224,0.0004737901223092601,0.0004025848980230856,-0.00125105356763157,8.067205958606846e-05,-0.00028132659946039553,0.0014570164978715925,0.6291133761405945,34.26528549194336,4.025173664093018,-19.388460159301758,-0.3555198311805725,-1.802981972694397,0.07724325358867645,0
33,0.1600022315979004,-0.7322627902030945,-34.31289291381836,-4.025173664093018,19.436067581176758,0.3500266671180725,1.796573281288147,-0.08365194499492645,0.0,0.0,0.0,0.0,0.0,0.0,0.0,-0.664064948678026,-0.232659354066131,-0.49908222594628837,0.37826330538542685,0.30247713784987,-0.09283658848361555,-0.1063629402451619,1.05460894873686,0.32381287848188867,-0.3923335652267724,-2.153210130502329,0.864751329783439,2.465871253240058,0.5444876730842267,1.0544104758940245,0.3238615046091247,-0.39250456234122666,-2.153291787532338,0.8647539153680389,2.46587817577521,0.5445020185570556,0.0022801792591115935,0.0003257920898915635,-0.0002173348186231819,-0.0007226059990602605,0.000203790563232244,0.00041486484831497206,-0.0009587462355875946,0.0,0.0,0.0,0.0,0.0,0.0,0.0,-0.00019847284283547317,4.8626127236051087e-05,-0.00017099711445428545,-8.16570300088415e-05,2.5855845998679072e-06,6.922535151776543e-06,1.4345472828858341e-05,-0.0022801792591115935,-0.0003257920898915635,0.0002173348186231819,0.0007226059990602605,-0.000203790563232244,-0.00041486484831497206,0.0009587462355875946,0.7322627902030945,34.31289291381836,4.025173664093018,-19.436067581176758,-0.3500266671180725,-1.796573281288147,0.08365194499492645,0
34,0.16499853134155273,-0.7322627902030945,-34.31289291381836,-4.025173664093018,19.436067581176758,0.3500266671180725,1.796573281288147,-0.08365194499492645,0.0,0.0,0.0,0.0,0.0,0.0,0.0,-0.664064948678026,-0.232659354066131,-0.49908222594628837,0.37826330538542685,0.30247713784987,-0.09283658848361555,-0.1063629402451619,1.05460894873686,0.32381287848188867,-0.3923335652267724,-2.153210130502329,0.864751329783439,2.465871253240058,0.5444876730842267,1.0544104758940245,0.3238615046091247,-0.39250456234122666,-2.153291787532338,0.8647539153680389,2.46587817577521,0.5445020185570556,0.0022801792591115935,0.0003257920898915635,-0.0002173348186231819,-0.0007226059990602605,0.000203790563232244,0.00041486484831497206,-0.0009587462355875946,0.0,0.0,0.0,0.0,0.0,0.0,0.0,-0.00019847284283547317,4.8626127236051087e-05,-0.00017099711445428545,-8.16570300088415e-05,2.5855845998679072e-06,6.922535151776543e-06,1.4345472828858341e-05,-0.0022801792591115935,-0.0003257920898915635,0.0002173348186231819,0.0007226059990602605,-0.000203790563232244,-0.00041486484831497206,0.0009587462355875946,0.7322627902030945,34.31289291381836,4.025173664093018,-19.436067581176758,-0.3500266671180725,-1.796573281288147,0.08365194499492645,0
35,0.17040324211120605,-0.6568843722343445,-34.31289291381836,-4.096584796905518,19.412263870239258,0.3555198311805725,1.802981972694397,-0.11844198405742645,0.0,0.0,0.0,0.0,0.0,0.0,0.0,-0.6714031508156262,-0.22737277246439205,-0.5024089921769298,0.37201463216122693,0.3028045111522136,-0.09424771440176077,-0.10662235454704273,1.0546036590233183,0.32381421638787816,-0.39232855391920657,-2.1532084345567077,0.8647471814908103,2.4658705460143504,0.5444900865499349,1.0544104758940245,0.3238615046091247,-0.39250456234122666,-2.153291787532338,0.8647539153680389,2.46587817577521,0.5445020185570556,-0.0008138509771880263,0.0003011388728027809,0.0010349889966518627,-0.0003210543427490803,-6.446370837414357e-05,0.00012596433704139274,0.0002633062178537573,0.0,0.0,0.0,0.0,0.0,0.0,0.0,-0.00019318312929383907,4.7288221246555295e-05,-0.00017600842202009082,-8.335297563011324e-05,6.733877228604079e-06,7.629760859551027e-06,1.1932007120685206e-05,0.0008138509771880263,-0.0003011388728027809,-0.0010349889966518627,0.0003210543427490803,6.446370837414357e-05,-0.00012596433704139274,-0.0002633062178537573,0.6568843722343445,34.31289291381836,4.096584796905518,-19.412263870239258,-0.3555198311805725,-1.802981972694397,0.11844198405742645,0
36,0.17499709129333496,-0.6568843722343445,-34.31289291381836,-4.096584796905518,19.412263870239258,0.3555198311805725,1.802981972694397,-0.11844198405742645,0.0,0.0,0.0,0.0,0.0,0.0,0.0,-0.6714031508156262,-0.22737277246439205,-0.5024089921769298,0.37201463216122693,0.3028045111522136,-0.09424771440176077,-0.10662235454704273,1.0546036590233183,0.32381421638787816,-0.39232855391920657,-2.1532084345567077,0.8647471814908103,2.4658705460143504,0.5444900865499349,1.0544104758940245,0.3238615046091247,-0.39250456234122666,-2.153291787532338,0.8647539153680389,2.46587817577521,0.5445020185570556,-0.0008138509771880263,0.0003011388728027809,0.0010349889966518627,-0.0003210543427490803,-6.446370837414357e-05,0.00012596433704139274,0.0002633062178537573,0.0,0.0,0.0,0.0,0.0,0.0,0.0,-0.00019318312929383907,4.7288221246555295e-05,-0.00017600842202009082,-8.335297563011324e-05,6.733877228604079e-06,7.629760859551027e-06,1.1932007120685206e-05,0.0008138509771880263,-0.0003011388728027809,-0.0010349889966518627,0.0003210543427490803,6.446370837414357e-05,-0.00012596433704139274,-0.0002633062178537573,0.6568843722343445,34.31289291381836,4.096584796905518,-19.412263870239258,-0.3555198311805725,-1.802981972694397,0.11844198405742645,0
37,0.1799933910369873,-0.7084590792655945,-34.26528549194336,-4.096584796905518,19.412263870239258,0.3500266671180725,1.815799355506897,-0.11111776530742645,0.0,0.0,0.0,0.0,0.0,0.0,0.0,-0.6582707868553004,-0.2390466082366479,-0.4916273601041753,0.3809064690179387,0.3021450388242871,-0.0943637144867747,-0.10833390094247189,1.0546072783010048,0.3238090151085813,-0.39232855391920657,-2.1532085110860804,0.8647491444454177,2.4658691330045497,0.5444893904826891,1.0544104758940245,0.3238615046091247,-0.39250456234122666,-2.153291787532338,0.8647539153680389,2.46587817577521,0.5445020185570556,0.0009235348259742803,-0.0012911824598134073,0.00020940373476628461,0.0003660912329415974,0.00028272014499692677,0.0001107879471217192,-7.173945666535707e-05,0.0,0.0,0.0,0.0,0.0,0.0,0.0,-0.00019680240698027873,5.2489500543428935e-05,-0.00017600842202009082,-8.327644625749642e-05,4.770922621188944e-06,9.042770660272481e-06,1.2628074366527464e-05,-0.0009235348259742803,0.0012911824598134073,-0.00020940373476628461,-0.0003660912329415974,-0.00028272014499692677,-0.0001107879471217192,7.173945666535707e-05,0.7084590792655945,34.26528549194336,4.096584796905518,-19.412263870239258,-0.3500266671180725,-1.815799355506897,0.11111776530742645,0
38,0.1849961280822754,-0.7084590792655945,-34.26528549194336,-4.096584796905518,19.412263870239258,0.3500266671180725,1.815799355506897,-0.11111776530742645,0.0,0.0,0.0,0.0,0.0,0.0,0.0,-0.6582707868553004,-0.2390466082366479,-0.4916273601041753,0.3809064690179387,0.3021450388242871,-0.0943637144867747,-0.10833390094247189,1.0546072783010048,0.3238090151085813,-0.39232855391920657,-2.1532085110860804,0.8647491444454177,2.4658691330045497,0.5444893904826891,1.0544104758940245,0.3238615046091247,-0.39250456234122666,-2.153291787532338,0.8647539153680389,2.46587817577521,0.5445020185570556,0.0009235348259742803,-0.0012911824598134073,0.00020940373476628461,0.0003660912329415974,0.00028272014499692677,0.0001107879471217192,-7.173945666535707e-05,0.0,0.0,0.0,0.0,0.0,0.0,0.0,-0.00019680240698027873,5.2489500543428935e-05,-0.00017600842202009082,-8.327644625749642e-05,4.770922621188944e-06,9.042770660272481e-06,1.2628074366527464e-05,-0.0009235348259742803,0.0012911824598134073,-0.00020940373476628461,-0.0003660912329415974,-0.00028272014499692677,-0.0001107879471217192,7.173945666535707e-05,0.7084590792655945,34.26528549194336,4.096584796905518,-19.412263870239258,-0.3500266671180725,-1.815799355506897,0.11111776530742645,0
39,0.18999695777893066,-0.6806880831718445,-34.28908920288086,-4.072781085968018,19.412263870239258,0.3500266671180725,1.828616738319397,-0.09738485515117645,0.0,0.0,0.0,0.0,0.0,0.0,0.0,-0.6638833651109378,-0.23655312088469013,-0.5015617344176192,0.3795490448498707,0.3022586769056874,-0.093429276708338,-0.10896575379331248,1.0546053294591737,0.3238104470187885,-0.3923302155247441,-2.1532105773808645,0.8647513821129041,2.465867710627528,0.5444877468668775,1.0544104758940245,0.3238615046091247,-0.39250456234122666,-2.153291787532338,0.8647539153680389,2.46587817577521,0.5445020185570556,0.00011191382674107149,-0.0005776045860054404,-0.0009601854175235917,0.00026493417859475415,0.0001437051744847709,-0.0006081812398634851,-0.0004794601487157125,0.0,0.0,0.0,0.0,0.0,0.0,0.0,-0.00019485356514925556,5.105759033618984e-05,-0.00017434681648254013,-8.12101514733321e-05,2.5332551347734267e-06,1.0465147681770759e-05,1.427169017809149e-05,-0.00011191382674107149,0.0005776045860054404,0.0009601854175235917,-0.00026493417859475415,-0.0001437051744847709,0.0006081812398634851,0.0004794601487157125,0.6806880831718445,34.28908920288086,4.072781085968018,-19.412263870239258,-0.3500266671180725,-1.828616738319397,0.09738485515117645,0
40,0.1950087547302246,-0.6806880831718445,-34.28908920288086,-4.072781085968018,19.412263870239258,0.3500266671180725,1.828616738319397,-0.09738485515117645,0.0,0.0,0.0,0.0,0.0,0.0,0.0,-0.6638833651109378,-0.23655312088469013,-0.5015617344176192,0.3795490448498707,0.3022586769056874,-0.093429276708338,-0.10896575379331248,1.0546053294591737,0.3238104470187885,-0.3923302155247441,-2.1532105773808645,0.8647513821129041,2.465867710627528,0.5444877468668775,1.0544104758940245,0.3238615046091247,-0.39250456234122666,-2.153291787532338,0.8647539153680389,2.46587817577521,0.5445020185570556,0.00011191382674107149,-0.0005776045860054404,-0.0009601854175235917,0.00026493417859475415,0.0001437051744847709,-0.0006081812398634851,-0.0004794601487157125,0.0,0.0,0.0,0.0,0.0,0.0,0.0,-0.00019485356514925556,5.105759033618984e-05,-0.00017434681648254013,-8.12101514733321e-05,2.5332551347734267e-06,1.0465147681770759e-05,1.427169017809149e-05,-0.00011191382674107149,0.0005776045860054404,0.0009601854175235917,-0.00026493417859475415,-0.0001437051744847709,0.0006081812398634851,0.0004794601487157125,0.6806880831718445,34.28908920288086,4.072781085968018,-19.412263870239258,-0.3500266671180725,-1.828616738319397,0.09738485515117645,0
41,0.19999909400939941,-0.6291133761405945,-34.31289291381836,-4.048977375030518,19.388460159301758,0.3500266671180725,1.815799355506897,-0.11844198405742645,0.0,0.0,0.0,0.0,0.0,0.0,0.0,-0.6547740785645009,-0.23051857324922453,-0.4952068536433101,0.3748722827984647,0.3020091109180901,-0.09513067245053054,-0.10923638435656607,1.0546037849791083,0.3238149256674863,-0.3923318947909005,-2.153206766994253,0.8647480704934369,2.46586913494269,0.5444900909078533,1.0544104758940245,0.3238615046091247,-0.39250456234122666,-2.153291787532338,0.8647539153680389,2.46587817577521,0.5445020185570556,-0.0011358875842762835,0.0001691398469562792,0.00019732561178584205,-5.683737696421847e-05,0.00024168477055269314,-0.00017098624509802044,5.6429119327561034e-05,0.0,0.0,0.0,0.0,0.0,0.0,0.0,-0.00019330908508385924,4.657894163839771e-05,-0.00017266755032613323,-8.502053808490118e-05,5.844874601979022e-06,9.040832519957576e-06,1.1927649202325696e-05,0.0011358875842762835,-0.0001691398469562792,-0.00019732561178584205,5.683737696421847e-05,-0.00024168477055269314,0.00017098624509802044,-5.6429119327561034e-05,0.6291133761405945,34.31289291381836,4.048977375030518,-19.388460159301758,-0.3500266671180725,-1.815799355506897,0.11844198405742645,0
42,0.20507121086120605,-0.6291133761405945,-34.31289291381836,-4.048977375030518,19.388460159301758,0.3500266671180725,1.815799355506897,-0.11844198405742645,0.0,0.0,0.0,0.0,0.0,0.0,0.0,-0.6547740785645009,-0.23051857324922453,-0.4952068536433101,0.3748722827984647,0.3020091109180901,-0.09513067245053054,-0.10923638435656607,1.0546037849791083,0.3238149256674863,-0.3923318947909005,-2.153206766994253,0.8647480704934369,2.46586913494269,0.5444900909078533,1.0544104758940245,0.3238615046091247,-0.39250456234122666,-2.153291787532338,0.8647539153680389,2.46587817577521,0.5445020185570556,-0.0011358875842762835,0.0001691398469562792,0.00019732561178584205,-5.683737696421847e-05,0.00024168477055269314,-0.00017098624509802044,5.6429119327561034e-05,0.0,0.0,0.0,0.0,0.0,0.0,0.0,-0.00019330908508385924,4.657894163839771e-05,-0.00017266755032613323,-8.502053808490118e-05,5.844874601979022e-06,9.040832519957576e-06,1.1927649202325696e-05,0.0011358875842762835,-0.0001691398469562792,-0.00019732561178584205,5.683737696421847e-05,-0.00024168477055269314,0.00017098624509802044,-5.6429119327561034e-05,0.6291133761405945,34.31289291381836,4.048977375030518,-19.388460159301758,-0.3500266671180725,-1.815799355506897,0.11844198405742645,0
43,0.21039032936096191,-0.6568843722343445,-34.28908920288086,-4.025173664093018,19.412263870239258,0.3500266671180725,1.815799355506897,-0.09097616374492645,0.0,0.0,0.0,0.0,0.0,0.0,0.0,-0.6521752501317981,-0.23154077060058154,-0.48907289177638913,0.3750361941658155,0.3021837367382012,-0.09483684306667549,-0.11104889646061729,1.0546036590350305,0.32381328181730645,-0.3923335652267724,-2.1532105009560065,0.864751912545011,2.4658690956968337,0.5444873894556745,1.0544104758940245,0.3238615046091247,-0.39250456234122666,-2.153291787532338,0.8647539153680389,2.46587817577521,0.5445020185570556,0.0008534269528950333,1.0715582629713951e-05,3.0050147807958268e-05,-0.00012810837308991713,0.00012679251013511048,-6.748573677812024e-05,-0.0011478455486302365,0.0,0.0,0.0,0.0,0.0,0.0,0.0,-0.00019318314100602585,4.822279181826428e-05,-0.00017099711445428545,-8.128657633132974e-05,2.0028230278690273e-06,9.080078376300094e-06,1.462910138105844e-05,-0.0008534269528950333,-1.0715582629713951e-05,-3.0050147807958268e-05,0.00012810837308991713,-0.00012679251013511048,6.748573677812024e-05,0.0011478455486302365,0.6568843722343445,34.28908920288086,4.025173664093018,-19.412263870239258,-0.3500266671180725,-1.815799355506897,0.09097616374492645,0
44,0.21498608589172363,-0.6568843722343445,-34.28908920288086,-4.025173664093018,19.412263870239258,0.3500266671180725,1.815799355506897,-0.09097616374492645,0.0,0.0,0.0,0.0,0.0,0.0,0.0,-0.6521752501317981,-0.23154077060058154,-0.48907289177638913,0.3750361941658155,0.3021837367382012,-0.09483684306667549,-0.11104889646061729,1.0546036590350305,0.32381328181730645,-0.3923335652267724,-2.1532105009560065,0.864751912545011,2.4658690956968337,0.5444873894556745,1.0544104758940245,0.3238615046091247,-0.39250456234122666,-2.153291787532338,0.8647539153680389,2.46587817577521,0.5445020185570556,0.0008534269528950333,1.0715582629713951e-05,3.0050147807958268e-05,-0.00012810837308991713,0.00012679251013511048,-6.748573677812024e-05,-0.0011478455486302365,0.0,0.0,0.0,0.0,0.0,0.0,0.0,-0.00019318314100602585,4.822279181826428e-05,-0.00017099711445428545,-8.128657633132974e-05,2.0028230278690273e-06,9.080078376300094e-06,1.462910138105844e-05,-0.0008534269528950333,-1.0715582629713951e-05,-3.0050147807958268e-05,0.00012810837308991713,-0.00012679251013511048,6.748573677812024e-05,0.0011478455486302365,0.6568843722343445,34.28908920288086,4.025173664093018,-19.412263870239258,-0.3500266671180725,-1.815799355506897,0.09097616374492645,0
45,0.22001051902770996,-0.6568843722343445,-34.28908920288086,-4.025173664093018,19.412263870239258,0.3500266671180725,1.815799355506897,-0.09097616374492645,0.0,0.0,0.0,0.0,0.0,0.0,0.0,-0.6521752501317981,-0.23154077060058154,-0.48907289177638913,0.3750361941658155,0.3021837367382012,-0.09483684306667549,-0.11104889646061729,1.0546036590350305,0.32381328181730645,-0.3923335652267724,-2.1532105009560065,0.864751912545011,2.4658690956968337,0.5444873894556745,1.0544104758940245,0.3238615046091247,-0.39250456234122666,-2.153291787532338,0.8647539153680389,2.46587817577521,0.5445020185570556,0.0008534269528950333,1.0715582629713951e-05,3.0050147807958268e-05,-0.00012810837308991713,0.00012679251013511048,-6.748573677812024e-05,-0.0011478455486302365,0.0,0.0,0.0,0.0,0.0,0.0,0.0,-0.00019318314100602585,4.822279181826428e-05,-0.00017099711445428545,-8.128657633132974e-05,2.0028230278690273e-06,9.080078376300094e-06,1.462910138105844e-05,-0.0008534269528950333,-1.0715582629713951e-05,-3.0050147807958268e-05,0.00012810837308991713,-0.00012679251013511048,6.748573677812024e-05,0.0011478455486302365,0.6568843722343445,34.28908920288086,4.025173664093018,-19.412263870239258,-0.3500266671180725,-1.815799355506897,0.09097616374492645,0
46,0.22504496574401855,-0.6568843722343445,-34.28908920288086,-4.025173664093018,19.412263870239258,0.3500266671180725,1.815799355506897,-0.09097616374492645,0.0,0.0,0.0,0.0,0.0,0.0,0.0,-0.6521752501317981,-0.23154077060058154,-0.48907289177638913,0.3750361941658155,0.3021837367382012,-0.09483684306667549,-0.11104889646061729,1.0546036590350305,0.32381328181730645,-0.3923335652267724,-2.1532105009560065,0.864751912545011,2.4658690956968337,0.5444873894556745,1.0544104758940245,0.3238615046091247,-0.39250456234122666,-2.153291787532338,0.8647539153680389,2.46587817577521,0.5445020185570556,0.0008534269528950333,1.0715582629713951e-05,3.0050147807958268e-05,-0.00012810837308991713,0.00012679251013511048,-6.748573677812024e-05,-0.0011478455486302365,0.0,0.0,0.0,0.0,0.0,0.0,0.0,-0.00019318314100602585,4.822279181826428e-05,-0.00017099711445428545,-8.128657633132974e-05,2.0028230278690273e-06,9.080078376300094e-06,1.462910138105844e-05,-0.0008534269528950333,-1.0715582629713951e-05,-3.0050147807958268e-05,0.00012810837308991713,-0.00012679251013511048,6.748573677812024e-05,0.0011478455486302365,0.6568843722343445,34.28908920288086,4.025173664093018,-19.412263870239258,-0.3500266671180725,-1.815799355506897,0.09097616374492645,0
47,0.23006343841552734,-0.6568843722343445,-34.26528549194336,-4.096584796905518,19.388460159301758,0.3500266671180725,1.815799355506897,-0.08365194499492645,0.0,0.0,0.0,0.0,0.0,0.0,0.0,-0.6668177224886455,-0.2351578783611482,-0.5018043958716801,0.3720223499179818,0.3025566224771251,-0.09338729215190673,-0.11183281671273779,1.0546036590233183,0.3238109483995012,-0.39232855391920657,-2.1532067641324697,0.8647476785363386,2.4658659167283887,0.5444893999036967,1.0544104758940245,0.3238615046091247,-0.39250456234122666,-2.153291787532338,0.8647539153680389,2.46587817577521,0.5445020185570556,0.00042173042991292876,-0.0008649247717491725,0.0008674705902168532,0.00014277386445001971,0.00026509981197981317,-0.00024863054758556647,-0.0014879239074531024,0.0,0.0,0.0,0.0,0.0,0.0,0.0,-0.00019318312929383907,5.055620962352014e-05,-0.00017600842202009082,-8.502339986815599e-05,6.2368317003125284e-06,1.2259046821228026e-05,1.2618653358886789e-05,-0.00042173042991292876,0.0008649247717491725,-0.0008674705902168532,-0.00014277386445001971,-0.00026509981197981317,0.00024863054758556647,0.0014879239074531024,0.6568843722343445,34.26528549194336,4.096584796905518,-19.388460159301758,-0.3500266671180725,-1.815799355506897,0.08365194499492645,0
48,0.2350599765777588,-0.6568843722343445,-34.26528549194336,-4.096584796905518,19.388460159301758,0.3500266671180725,1.815799355506897,-0.08365194499492645,0.0,0.0,0.0,0.0,0.0,0.0,0.0,-0.6668177224886455,-0.2351578783611482,-0.5018043958716801,0.3720223499179818,0.3025566224771251,-0.09338729215190673,-0.11183281671273779,1.0546036590233183,0.3238109483995012,-0.39232855391920657,-2.1532067641324697,0.8647476785363386,2.4658659167283887,0.5444893999036967,1.0544104758940245,0.3238615046091247,-0.39250456234122666,-2.153291787532338,0.8647539153680389,2.46587817577521,0.5445020185570556,0.00042173042991292876,-0.0008649247717491725,0.0008674705902168532,0.00014277386445001971,0.00026509981197981317,-0.00024863054758556647,-0.0014879239074531024,0.0,0.0,0.0,0.0,0.0,0.0,0.0,-0.00019318312929383907,5.055620962352014e-05,-0.00017600842202009082,-8.502339986815599e-05,6.2368317003125284e-06,1.2259046821228026e-05,1.2618653358886789e-05,-0.00042173042991292876,0.0008649247717491725,-0.0008674705902168532,-0.00014277386445001971,-0.00026509981197981317,0.00024863054758556647,0.0014879239074531024,0.6568843722343445,34.26528549194336,4.096584796905518,-19.388460159301758,-0.3500266671180725,-1.815799355506897,0.08365194499492645,0
49,0.2399914264678955,-0.6806880831718445,-34.31289291381836,-4.072781085968018,19.412263870239258,0.3619285225868225,1.809390664100647,-0.09738485515117645,0.0,0.0,0.0,0.0,0.0,0.0,0.0,-0.6613415722218879,-0.241842650715613,-0.4977376882682853,0.37702930595721507,0.30215248213616325,-0.09338206755989303,-0.11266695596208987,1.0546053294591737,0.323814296171599,-0.3923302243550619,-2.15320843455666,0.8647500014444892,2.465869846798117,0.5444877468721946,1.0544104758940245,0.3238615046091247,-0.39250456234122666,-2.153291787532338,0.8647539153680389,2.46587817577521,0.5445020185570556,0.0002511278765146672,0.00018806247587254,0.0002380570641065523,0.00013069954954377685,-0.0003381165406483964,6.229297835146159e-05,-0.00044574808333994046,0.0,0.0,0.0,0.0,0.0,0.0,0.0,-0.00019485356514925556,4.720843752570314e-05,-0.00017433798616478535,-8.335297567807487e-05,3.913923549703213e-06,8.328977092908474e-06,1.427168486101138e-05,-0.0002511278765146672,-0.00018806247587254,-0.0002380570641065523,-0.00013069954954377685,0.0003381165406483964,-6.229297835146159e-05,0.00044574808333994046,0.6806880831718445,34.31289291381836,4.072781085968018,-19.412263870239258,-0.3619285225868225,-1.809390664100647,0.09738485515117645,0
50,0.24494481086730957,-0.6806880831718445,-34.31289291381836,-4.072781085968018,19.412263870239258,0.3619285225868225,1.809390664100647,-0.09738485515117645,0.0,0.0,0.0,0.0,0.0,0.0,0.0,-0.6613415722218879,-0.241842650715613,-0.4977376882682853,0.37702930595721507,0.30215248213616325,-0.09338206755989303,-0.11266695596208987,1.0546053294591737,0.323814296171599,-0.3923302243550619,-2.15320843455666,0.8647500014444892,2.465869846798117,0.5444877468721946,1.0544104758940245,0.3238615046091247,-0.39250456234122666,-2.153291787532338,0.8647539153680389,2.46587817577521,0.5445020185570556,0.0002511278765146672,0.00018806247587254,0.0002380570641065523,0.00013069954954377685,-0.0003381165406483964,6.229297835146159e-05,-0.00044574808333994046,0.0,0.0,0.0,0.0,0.0,0.0,0.0,-0.00019485356514925556,4.720843752570314e-05,-0.00017433798616478535,-8.335297567807487e-05,3.913923549703213e-06,8.328977092908474e-06,1.427168486101138e-05,-0.0002511278765146672,-0.00018806247587254,-0.0002380570641065523,-0.00013069954954377685,0.0003381165406483964,-6.229297835146159e-05,0.00044574808333994046,0.6806880831718445,34.31289291381836,4.072781085968018,-19.412263870239258,-0.3619285225868225,-1.809390664100647,0.09738485515117645,0
51,0.24999475479125977,-0.6568843722343445,-34.33669662475586,-4.072781085968018,19.412263870239258,0.3555198311805725,1.815799355506897,-0.06991903483867645,0.0,0.0,0.0,0.0,0.0,0.0,0.0,-0.658718709377576,-0.23981390723121573,-0.49489277972632423,0.3760052890084384,0.3016729878729197,-0.09395190086853314,-0.1116722088527044,1.0546036590233183,0.3238159917814003,-0.3923302243550619,-2.1532084430599285,0.8647482600926547,2.4658691344581722,0.5444846951084005,1.0544104758940245,0.3238615046091247,-0.39250456234122666,-2.153291787532338,0.8647539153680389,2.46587817577521,0.5445020185570556,-0.0004535959417774091,0.0004470749492667559,0.0003585489437931658,0.00026151501586048147,0.0001689246841842039,-0.00012893507597370145,-0.0014782737183207603,0.0,0.0,0.0,0.0,0.0,0.0,0.0,-0.00019318312929383907,4.551282772441434e-05,-0.00017433798616478535,-8.334447240931908e-05,5.6552753842087355e-06,9.041317037716823e-06,1.7323448655126583e-05,0.0004535959417774091,-0.0004470749492667559,-0.0003585489437931658,-0.00026151501586048147,-0.0001689246841842039,0.00012893507597370145,0.0014782737183207603,0.6568843722343445,34.33669662475586,4.072781085968018,-19.412263870239258,-0.3555198311805725,-1.815799355506897,0.06991903483867645,0
52,0.25499606132507324,-0.6568843722343445,-34.33669662475586,-4.072781085968018,19.412263870239258,0.3555198311805725,1.815799355506897,-0.06991903483867645,0.0,0.0,0.0,0.0,0.0,0.0,0.0,-0.658718709377576,-0.23981390723121573,-0.49489277972632423,0.3760052890084384,0.3016729878729197,-0.09395190086853314,-0.1116722088527044,1.0546036590233183,0.3238159917814003,-0.3923302243550619,-2.1532084430599285,0.8647482600926547,2.4658691344581722,0.5444846951084005,1.0544104758940245,0.3238615046091247,-0.39250456234122666,-2.153291787532338,0.8647539153680389,2.46587817577521,0.5445020185570556,-0.0004535959417774091,0.0004470749492667559,0.0003585489437931658,0.00026151501586048147,0.0001689246841842039,-0.00012893507597370145,-0.0014782737183207603,0.0,0.0,0.0,0.0,0.0,0.0,0.0,-0.00019318312929383907,4.551282772441434e-05,-0.00017433798616478535,-8.334447240931908e-05,5.6552753842087355e-06,9.041317037716823e-06,1.7323448655126583e-05,0.0004535959417774091,-0.0004470749492667559,-0.0003585489437931658,-0.00026151501586048147,-0.0001689246841842039,0.00012893507597370145,0.0014782737183207603,0.6568843722343445,34.33669662475586,4.072781085968018,-19.412263870239258,-0.3555198311805725,-1.815799355506897,0.06991903483867645,0
53,0.2600855827331543,-0.6568843722343445,-34.31289291381836,-4.048977375030518,19.412263870239258,0.3619285225868225,1.809390664100647,-0.11111776530742645,0.0,0.0,0.0,0.0,0.0,0.0,0.0,-0.6543470264098746,-0.23186216261632447,-0.49025619802043635,0.372477914611157,0.30213782153655533,-0.09394819924010707,-0.10985597323244922,1.0546036590233183,0.32381453437121455,-0.3923318947909171,-2.1532084345567077,0.8647475727123363,2.4658698426588597,0.5444892727451192,1.0544104758940245,0.3238615046091247,-0.39250456234122666,-2.153291787532338,0.8647539153680389,2.46587817577521,0.5445020185570556,0.00045638022426414295,0.0002455117985348083,8.215676284374286e-05,3.51596591938848e-05,-0.0001950723846412932,0.00013140449912701755,0.0003779301954887392,0.0,0.0,0.0,0.0,0.0,0.0,0.0,-0.00019318312929383907,4.6970237910171075e-05,-0.0001726675503095354,-8.335297563011324e-05,6.342655702651356e-06,8.333116350289771e-06,1.2745811936443197e-05,-0.00045638022426414295,-0.0002455117985348083,-8.215676284374286e-05,-3.51596591938848e-05,0.0001950723846412932,-0.00013140449912701755,-0.0003779301954887392,0.6568843722343445,34.31289291381836,4.048977375030518,-19.412263870239258,-0.3619285225868225,-1.809390664100647,0.11111776530742645,0
54,0.26494264602661133,-0.6568843722343445,-34.31289291381836,-4.048977375030518,19.412263870239258,0.3619285225868225,1.809390664100647,-0.11111776530742645,0.0,0.0,0.0,0.0,0.0,0.0,0.0,-0.6543470264098746,-0.23186216261632447,-0.49025619802043635,0.372477914611157,0.30213782153655533,-0.09394819924010707,-0.10985597323244922,1.0546036590233183,0.32381453437121455,-0.3923318947909171,-2.1532084345567077,0.8647475727123363,2.4658698426588597,0.5444892727451192,1.0544104758940245,0.3238615046091247,-0.39250456234122666,-2.153291787532338,0.8647539153680389,2.46587817577521,0.5445020185570556,0.00045638022426414295,0.0002455117985348083,8.215676284374286e-05,3.51596591938848e-05,-0.0001950723846412932,0.00013140449912701755,0.0003779301954887392,0.0,0.0,0.0,0.0,0.0,0.0,0.0,-0.00019318312929383907,4.6970237910171075e-05,-0.0001726675503095354,-8.335297563011324e-05,6.342655702651356e-06,8.333116350289771e-06,1.2745811936443197e-05,-0.00045638022426414295,-0.0002455117985348083,-8.215676284374286e-05,-3.51596591938848e-05,0.0001950723846412932,-0.00013140449912701755,-0.0003779301954887392,0.6568843722343445,34.31289291381836,4.048977375030518,-19.412263870239258,-0.3619285225868225,-1.809390664100647,0.11111776530742645,0
55,0.2700331211090088,-0.6053096652030945,-34.28908920288086,-4.025173664093018,19.388460159301758,0.3619285225868225,1.809390664100647,-0.14590780436992645,0.0,0.0,0.0,0.0,0.0,0.0,0.0,-0.6544917768120453,-0.23657422449012647,-0.4925726847044107,0.37550388143849006,0.3027067840251309,-0.09326429343174025,-0.10999178786404627,1.0546000397456319,0.32381257509021977,-0.3923335652267724,-2.1532067641557977,0.864746509951905,2.4658694938067787,0.544493138305015,1.0544104758940245,0.3238615046091247,-0.39250456234122666,-2.153291787532338,0.8647539153680389,2.46587817577521,0.5445020185570556,-0.000739578853335633,-0.0003765168266684592,-0.0001226233250534654,0.0007628793025157228,-0.00024120367875823443,1.3783257977447425e-05,0.001057840458690655,0.0,0.0,0.0,0.0,0.0,0.0,0.0,-0.00018956385160739941,4.89295189049499e-05,-0.00017099711445428545,-8.50233765401498e-05,7.405416133865472e-06,8.681968431289988e-06,8.880252040599501e-06,0.000739578853335633,0.0003765168266684592,0.0001226233250534654,-0.0007628793025157228,0.00024120367875823443,-1.3783257977447425e-05,-0.001057840458690655,0.6053096652030945,34.28908920288086,4.025173664093018,-19.388460159301758,-0.3619285225868225,-1.809390664100647,0.14590780436992645,0
56,0.2749958038330078,-0.6053096652030945,-34.28908920288086,-4.025173664093018,19.388460159301758,0.3619285225868225,1.809390664100647,-0.14590780436992645,0.0,0.0,0.0,0.0,0.0,0.0,0.0,-0.6544917768120453,-0.23657422449012647,-0.4925726847044107,0.37550388143849006,0.3027067840251309,-0.09326429343174025,-0.10999178786404627,1.0546000397456319,0.32381257509021977,-0.3923335652267724,-2.1532067641557977,0.864746509951905,2.4658694938067787,0.544493138305015,1.0544104758940245,0.3238615046091247,-0.39250456234122666,-2.153291787532338,0.8647539153680389,2.46587817577521,0.5445020185570556,-0.000739578853335633,-0.0003765168266684592,-0.0001226233250534654,0.0007628793025157228,-0.00024120367875823443,1.3783257977447425e-05,0.001057840458690655,0.0,0.0,0.0,0.0,0.0,0.0,0.0,-0.00018956385160739941,4.89295189049499e-05,-0.00017099711445428545,-8.50233765401498e-05,7.405416133865472e-06,8.681968431289988e-06,8.880252040599501e-06,0.000739578853335633,0.0003765168266684592,0.0001226233250534654,-0.0007628793025157228,0.00024120367875823443,-1.3783257977447425e-05,-0.001057840458690655,0.6053096652030945,34.28908920288086,4.025173664093018,-19.388460159301758,-0.3619285225868225,-1.809390664100647,0.14590780436992645,0
57,0.2800018787384033,-0.6806880831718445,-34.31289291381836,-4.096584796905518,19.436067581176758,0.3619285225868225,1.815799355506897,-0.05710165575146675,0.0,0.0,0.0,0.0,0.0,0.0,0.0,-0.6664925729050576,-0.23926775822434493,-0.5044397456113526,0.3773393884523847,0.3033820647558594,-0.0924720374143283,-0.11148853135180266,1.0546073957535258,0.3238128167377149,-0.39232855391920657,-2.153210106252259,0.8647507252954543,2.4658691349406965,0.5444832709551686,1.0544104758940245,0.3238615046091247,-0.39250456234122666,-2.153291787532338,0.8647539153680389,2.46587817577521,0.5445020185570556,0.0005478294731631729,-1.1755201089482671e-05,0.0010557225936207364,-0.0003459901274897946,-0.0002149141563632122,-0.00018233076242474297,-0.002117059177963564,0.0,0.0,0.0,0.0,0.0,0.0,0.0,-0.00019691985950132107,4.868787140982489e-05,-0.00017600842202009082,-8.16812800787936e-05,3.1900725846467637e-06,9.040834513474039e-06,1.8747601887025844e-05,-0.0005478294731631729,1.1755201089482671e-05,-0.0010557225936207364,0.0003459901274897946,0.0002149141563632122,0.00018233076242474297,0.002117059177963564,0.6806880831718445,34.31289291381836,4.096584796905518,-19.436067581176758,-0.3619285225868225,-1.815799355506897,0.05710165575146675,0
58,0.28504347801208496,-0.6806880831718445,-34.31289291381836,-4.096584796905518,19.436067581176758,0.3619285225868225,1.815799355506897,-0.05710165575146675,0.0,0.0,0.0,0.0,0.0,0.0,0.0,-0.6664925729050576,-0.23926775822434493,-0.5044397456113526,0.3773393884523847,0.3033820647558594,-0.0924720374143283,-0.11148853135180266,1.0546073957535258,0.3238128167377149,-0.39232855391920657,-2.153210106252259,0.8647507252954543,2.4658691349406965,0.5444832709551686,1.0544104758940245,0.3238615046091247,-0.39250456234122666,-2.153291787532338,0.8647539153680389,2.46587817577521,0.5445020185570556,0.0005478294731631729,-1.1755201089482671e-05,0.0010557225936207364,-0.0003459901274897946,-0.0002149141563632122,-0.00018233076242474297,-0.002117059177963564,0.0,0.0,0.0,0.0,0.0,0.0,0.0,-0.00019691985950132107,4.868787140982489e-05,-0.00017600842202009082,-8.16812800787936e-05,3.1900725846467637e-06,9.040834513474039e-06,1.8747601887025844e-05,-0.0005478294731631729,1.1755201089482671e-05,-0.0010557225936207364,0.0003459901274897946,0.0002149141563632122,0.00018233076242474297,0.002117059177963564,0.6806880831718445,34.31289291381836,4.096584796905518,-19.436067581176758,-0.3619285225868225,-1.815799355506897,0.05710165575146675,0
59,0.2899932861328125,-0.7084590792655945,-34.28908920288086,-4.072781085968018,19.360689163208008,0.3436179757118225,1.809390664100647,-0.07724325358867645,0.0,0.0,0.0,0.0,0.0,0.0,0.0,-0.658719823489437,-0.23093726515513244,-0.4973570983369252,0.375200260598456,0.3032404255686376,-0.09405491222054164,-0.10953784437017508,1.0546072820918997,0.32381261882330137,-0.3923302243550619,-2.1532048156289094,0.864748386037933,2.465869493645298,0.5444855481563403,1.0544104758940245,0.3238615046091247,-0.39250456234122666,-2.153291787532338,0.8647539153680389,2.46587817577521,0.5445020185570556,0.0006670744091475173,0.00019264876735759773,0.00013542258797754947,0.0012184563175063026,0.00034205544847174603,-6.107282831100983e-05,-0.0010307289390760655,0.0,0.0,0.0,0.0,0.0,0.0,0.0,-0.00019680619787521003,4.888578582334935e-05,-0.00017433798616478535,-8.697190342843442e-05,5.529330105891184e-06,8.682129911896652e-06,1.647040071528494e-05,-0.0006670744091475173,-0.00019264876735759773,-0.00013542258797754947,-0.0012184563175063026,-0.00034205544847174603,6.107282831100983e-05,0.0010307289390760655,0.7084590792655945,34.28908920288086,4.072781085968018,-19.360689163208008,-0.3436179757118225,-1.809390664100647,0.07724325358867645,0
60,0.294954776763916,-0.7084590792655945,-34.28908920288086,-4.072781085968018,19.360689163208008,0.3436179757118225,1.809390664100647,-0.07724325358867645,0.0,0.0,0.0,0.0,0.0,0.0,0.0,-0.658719823489437,-0.23093726515513244,-0.4973570983369252,0.375200260598456,0.3032404255686376,-0.09405491222054164,-0.10953784437017508,1.0546072820918997,0.32381261882330137,-0.3923302243550619,-2.1532048156289094,0.864748386037933,2.465869493645298,0.5444855481563403,1.0544104758940245,0.3238615046091247,-0.39250456234122666,-2.153291787532338,0.8647539153680389,2.46587817577521,0.5445020185570556,0.0006670744091475173,0.00019264876735759773,0.00013542258797754947,0.0012184563175063026,0.00034205544847174603,-6.107282831100983e-05,-0.0010307289390760655,0.0,0.0,0.0,0.0,0.0,0.0,0.0,-0.00019680619787521003,4.888578582334935e-05,-0.00017433798616478535,-8.697190342843442e-05,5.529330105891184e-06,8.682129911896652e-06,1.647040071528494e-05,-0.0006670744091475173,-0.00019264876735759773,-0.00013542258797754947,-0.0012184563175063026,-0.00034205544847174603,6.107282831100983e-05,0.0010307289390760655,0.7084590792655945,34.28908920288086,4.072781085968018,-19.360689163208008,-0.3436179757118225,-1.809390664100647,0.07724325358867645,0
61,0.29999685287475586,-0.7084590792655945,-34.28908920288086,-4.096584796905518,19.436067581176758,0.3555198311805725,1.809390664100647,-0.10470907390117645,0.0,0.0,0.0,0.0,0.0,0.0,0.0,-0.6608941113690202,-0.2331188986369384,-0.49856385321832863,0.38012743805425564,0.3027422257299111,-0.09389656780293958,-0.10769221076598029,1.054607278301026,0.3238104491898391,-0.3923285538828678,-2.1532103356305647,0.864748637510598,2.4658694938048087,0.5444885611530346,1.0544104758940245,0.3238615046091247,-0.39250456234122666,-2.153291787532338,0.8647539153680389,2.46587817577521,0.5445020185570556,0.00027127103786425596,-8.355125115203096e-05,0.00046749451870246693,-0.0006651003290873388,0.00010849700188603563,0.00019829293210120157,0.00024861218229193903,0.0,0.0,0.0,0.0,0.0,0.0,0.0,-0.00019680240700159501,5.105541928562829e-05,-0.00017600845835885615,-8.145190177311079e-05,5.277857440866285e-06,8.681970401269723e-06,1.3457404021033348e-05,-0.00027127103786425596,8.355125115203096e-05,-0.00046749451870246693,0.0006651003290873388,-0.00010849700188603563,-0.00019829293210120157,-0.00024861218229193903,0.7084590792655945,34.28908920288086,4.096584796905518,-19.436067581176758,-0.3555198311805725,-1.809390664100647,0.10470907390117645,0
62,0.30501365661621094,-0.7084590792655945,-34.28908920288086,-4.096584796905518,19.436067581176758,0.3555198311805725,1.809390664100647,-0.10470907390117645,0.0,0.0,0.0,0.0,0.0,0.0,0.0,-0.6608941113690202,-0.2331188986369384,-0.49856385321832863,0.38012743805425564,0.3027422257299111,-0.09389656780293958,-0.10769221076598029,1.054607278301026,0.3238104491898391,-0.3923285538828678,-2.1532103356305647,0.864748637510598,2.4658694938048087,0.5444885611530346,1.0544104758940245,0.3238615046091247,-0.39250456234122666,-2.153291787532338,0.8647539153680389,2.46587817577521,0.5445020185570556,0.00027127103786425596,-8.355125115203096e-05,0.00046749451870246693,-0.0006651003290873388,0.00010849700188603563,0.00019829293210120157,0.00024861218229193903,0.0,0.0,0.0,0.0,0.0,0.0,0.0,-0.00019680240700159501,5.105541928562829e-05,-0.00017600845835885615,-8.145190177311079e-05,5.277857440866285e-06,8.681970401269723e-06,1.3457404021033348e-05,-0.00027127103786425596,8.355125115203096e-05,-0.00046749451870246693,0.0006651003290873388,-0.00010849700188603563,-0.00019829293210120157,-0.00024861218229193903,0.7084590792655945,34.28908920288086,4.096584796905518,-19.436067581176758,-0.3555198311805725,-1.809390664100647,0.10470907390117645,0
63,0.31019115447998047,-0.6806880831718445,-34.33669662475586,-4.048977375030518,19.388460159301758,0.3500266671180725,1.802981972694397,-0.09097616374492645,0.0,0.0,0.0,0.0,0.0,0.0,0.0,-0.6605081698018778,-0.23035039990821754,-0.497480891435115,0.3792745195594512,0.3023402195659141,-0.0941548379953854,-0.10743524588351933,1.0546073957535258,0.3238140233801187,-0.39233188596059915,-2.15320676695653,0.8647519294559083,2.465869486374261,0.5444873880021024,1.0544104758940245,0.3238615046091247,-0.39250456234122666,-2.153291787532338,0.8647539153680389,2.46587817577521,0.5445020185570556,0.00017814435996842565,0.000872974885848646,-0.0005403179589682133,0.0004854347947016656,0.0003120668774362894,0.00040078488354184386,-0.0008384530181965724,0.0,0.0,0.0,0.0,0.0,0.0,0.0,-0.00019691985950132107,4.748122900599672e-05,-0.00017267638062751223,-8.50205758080591e-05,1.985912130630929e-06,8.68940094900239e-06,1.4630554953209973e-05,-0.00017814435996842565,-0.000872974885848646,0.0005403179589682133,-0.0004854347947016656,-0.0003120668774362894,-0.00040078488354184386,0.0008384530181965724,0.6806880831718445,34.33669662475586,4.048977375030518,-19.388460159301758,-0.3500266671180725,-1.802981972694397,0.09097616374492645,0
64,0.3150038719177246,-0.6806880831718445,-34.33669662475586,-4.048977375030518,19.388460159301758,0.3500266671180725,1.802981972694397,-0.09097616374492645,0.0,0.0,0.0,0.0,0.0,0.0,0.0,-0.6605081698018778,-0.23035039990821754,-0.497480891435115,0.3792745195594512,0.3023402195659141,-0.0941548379953854,-0.10743524588351933,1.0546073957535258,0.3238140233801187,-0.39233188596059915,-2.15320676695653,0.8647519294559083,2.465869486374261,0.5444873880021024,1.0544104758940245,0.3238615046091247,-0.39250456234122666,-2.153291787532338,0.8647539153680389,2.46587817577521,0.5445020185570556,0.00017814435996842565,0.000872974885848646,-0.0005403179589682133,0.0004854347947016656,0.0003120668774362894,0.00040078488354184386,-0.0008384530181965724,0.0,0.0,0.0,0.0,0.0,0.0,0.0,-0.00019691985950132107,4.748122900599672e-05,-0.00017267638062751223,-8.50205758080591e-05,1.985912130630929e-06,8.68940094900239e-06,1.4630554953209973e-05,-0.00017814435996842565,-0.000872974885848646,0.0005403179589682133,-0.0004854347947016656,-0.0003120668774362894,-0.00040078488354184386,0.0008384530181965724,0.6806880831718445,34.33669662475586,4.048977375030518,-19.388460159301758,-0.3500266671180725,-1.802981972694397,0.09097616374492645,0
65,0.3200209140777588,-0.6291133761405945,-34.36446762084961,-4.025173664093018,19.436067581176758,0.3500266671180725,1.796573281288147,-0.09738485515117645,0.0,0.0,0.0,0.0,0.0,0.0,0.0,-0.6535918651184445,-0.23358274135952928,-0.49087366727306236,0.38074698589261347,0.30194974841572153,-0.09455579534392011,-0.10746854162442074,1.0546017101931515,0.3238178654394884,-0.3923335652267225,-2.153210105027524,0.8647487725214174,2.4658680922527156,0.5444881044415673,1.0544104758940245,0.3238615046091247,-0.39250456234122666,-2.153291787532338,0.8647539153680389,2.46587817577521,0.5445020185570556,-0.0006740140371988216,0.0009928562866978947,0.00016047136612162548,-0.0006213659252310136,0.0002035301889337783,0.0005228565176307433,-0.0006646491875466063,0.0,0.0,0.0,0.0,0.0,0.0,0.0,-0.00019123429912704104,4.363916963634473e-05,-0.00017099711450413446,-8.16825048137737e-05,5.142846621564168e-06,1.0083522494319652e-05,1.391411548834487e-05,0.0006740140371988216,-0.0009928562866978947,-0.00016047136612162548,0.0006213659252310136,-0.0002035301889337783,-0.0005228565176307433,0.0006646491875466063,0.6291133761405945,34.36446762084961,4.025173664093018,-19.436067581176758,-0.3500266671180725,-1.796573281288147,0.09738485515117645,0
66,0.32499217987060547,-0.6291133761405945,-34.36446762084961,-4.025173664093018,19.436067581176758,0.3500266671180725,1.796573281288147,-0.09738485515117645,0.0,0.0,0.0,0.0,0.0,0.0,0.0,-0.6535918651184445,-0.23358274135952928,-0.49087366727306236,0.38074698589261347,0.30194974841572153,-0.09455579534392011,-0.10746854162442074,1.0546017101931515,0.3238178654394884,-0.3923335652267225,-2.153210105027524,0.8647487725214174,2.4658680922527156,0.5444881044415673,1.0544104758940245,0.3238615046091247,-0.39250456234122666,-2.153291787532338,0.8647539153680389,2.46587817577521,0.5445020185570556,-0.0006740140371988216,0.0009928562866978947,0.00016047136612162548,-0.0006213659252310136,0.0002035301889337783,0.0005228565176307433,-0.0006646491875466063,0.0,0.0,0.0,0.0,0.0,0.0,0.0,-0.00019123429912704104,4.363916963634473e-05,-0.00017099711450413446,-8.16825048137737e-05,5.142846621564168e-06,1.0083522494319652e-05,1.391411548834487e-05,0.0006740140371988216,-0.0009928562866978947,-0.00016047136612162548,0.0006213659252310136,-0.0002035301889337783,-0.0005228565176307433,0.0006646491875466063,0.6291133761405945,34.36446762084961,4.025173664093018,-19.436067581176758,-0.3500266671180725,-1.796573281288147,0.09738485515117645,0
67,0.32999348640441895,-0.6568843722343445,-34.31289291381836,-3.9974029064178467,19.412263870239258,0.3500266671180725,1.809390664100647,-0.09097616374492645,0.0,0.0,0.0,0.0,0.0,0.0,0.0,-0.6648729578439135,-0.22981253043754676,-0.49822737842252535,0.3755553118502591,0.3022909133852651,-0.09399228053207243,-0.10792240817304556,1.0546036590233183,0.32381526035689107,-0.3923355140518724,-2.1532084440047368,0.8647520827758584,2.4658697291024927,0.5444873895115037,1.0544104758940245,0.3238615046091247,-0.39250456234122666,-2.153291787532338,0.8647539153680389,2.46587817577521,0.5445020185570556,0.0004440816985551828,0.00027445591299140253,-0.0009132923597746593,-0.00010405451379922625,0.00026283955701549494,0.0001795066317094316,-0.0006590605871562626,0.0,0.0,0.0,0.0,0.0,0.0,0.0,-0.00019318312929383907,4.624425223365147e-05,-0.00016904828935426774,-8.334352760108743e-05,1.832592180561754e-06,8.446672717266068e-06,1.4629045551939335e-05,-0.0004440816985551828,-0.00027445591299140253,0.0009132923597746593,0.00010405451379922625,-0.00026283955701549494,-0.0001795066317094316,0.0006590605871562626,0.6568843722343445,34.31289291381836,3.9974029064178467,-19.412263870239258,-0.3500266671180725,-1.809390664100647,0.09097616374492645,0
68,0.33499598503112793,-0.6568843722343445,-34.31289291381836,-3.9974029064178467,19.412263870239258,0.3500266671180725,1.809390664100647,-0.09097616374492645,0.0,0.0,0.0,0.0,0.0,0.0,0.0,-0.6648729578439135,-0.22981253043754676,-0.49822737842252535,0.3755553118502591,0.3022909133852651,-0.09399228053207243,-0.10792240817304556,1.0546036590233183,0.32381526035689107,-0.3923355140518724,-2.1532084440047368,0.8647520827758584,2.4658697291024927,0.5444873895115037,1.0544104758940245,0.3238615046091247,-0.39250456234122666,-2.153291787532338,0.8647539153680389,2.46587817577521,0.5445020185570556,0.0004440816985551828,0.00027445591299140253,-0.0009132923597746593,-0.00010405451379922625,0.00026283955701549494,0.0001795066317094316,-0.0006590605871562626,0.0,0.0,0.0,0.0,0.0,0.0,0.0,-0.00019318312929383907,4.624425223365147e-05,-0.00016904828935426774,-8.334352760108743e-05,1.832592180561754e-06,8.446672717266068e-06,1.4629045551939335e-05,-0.0004440816985551828,-0.00027445591299140253,0.0009132923597746593,0.00010405451379922625,-0.00026283955701549494,-0.0001795066317094316,0.0006590605871562626,0.6568843722343445,34.31289291381836,3.9974029064178467,-19.412263870239258,-0.3500266671180725,-1.809390664100647,0.09097616374492645,0
69,0.3399980068206787,-0.6568843722343445,-34.31289291381836,-3.9974029064178467,19.412263870239258,0.3500266671180725,1.809390664100647,-0.09097616374492645,0.0,0.0,0.0,0.0,0.0,0.0,0.0,-0.6648729578439135,-0.22981253043754676,-0.49822737842252535,0.3755553118502591,0.3022909133852651,-0.09399228053207243,-0.10792240817304556,1.0546036590233183,0.32381526035689107,-0.3923355140518724,-2.1532084440047368,0.8647520827758584,2.4658697291024927,0.5444873895115037,1.0544104758940245,0.3238615046091247,-0.39250456234122666,-2.153291787532338,0.8647539153680389,2.46587817577521,0.5445020185570556,0.0004440816985551828,0.00027445591299140253,-0.0009132923597746593,-0.00010405451379922625,0.00026283955701549494,0.0001795066317094316,-0.0006590605871562626,0.0,0.0,0.0,0.0,0.0,0.0,0.0,-0.00019318312929383907,4.624425223365147e-05,-0.00016904828935426774,-8.334352760108743e-05,1.832592180561754e-06,8.446672717266068e-06,1.4629045551939335e-05,-0.0004440816985551828,-0.00027445591299140253,0.0009132923597746593,0.00010405451379922625,-0.00026283955701549494,-0.0001795066317094316,0.0006590605871562626,0.6568843722343445,34.31289291381836,3.9974029064178467,-19.412263870239258,-0.3500266671180725,-1.809390664100647,0.09097616374492645,0
70,0.34500837326049805,-0.6568843722343445,-34.31289291381836,-3.9974029064178467,19.412263870239258,0.3500266671180725,1.809390664100647,-0.09097616374492645,0.0,0.0,0.0,0.0,0.0,0.0,0.0,-0.6648729578439135,-0.22981253043754676,-0.49822737842252535,0.3755553118502591,0.3022909133852651,-0.09399228053207243,-0.10792240817304556,1.0546036590233183,0.32381526035689107,-0.3923355140518724,-2.1532084440047368,0.8647520827758584,2.4658697291024927,0.5444873895115037,1.0544104758940245,0.3238615046091247,-0.39250456234122666,-2.153291787532338,0.8647539153680389,2.46587817577521,0.5445020185570556,0.0004440816985551828,0.00027445591299140253,-0.0009132923597746593,-0.00010405451379922625,0.00026283955701549494,0.0001795066317094316,-0.0006590605871562626,0.0,0.0,0.0,0.0,0.0,0.0,0.0,-0.00019318312929383907,4.624425223365147e-05,-0.00016904828935426774,-8.334352760108743e-05,1.832592180561754e-06,8.446672717266068e-06,1.4629045551939335e-05,-0.0004440816985551828,-0.00027445591299140253,0.0009132923597746593,0.00010405451379922625,-0.00026283955701549494,-0.0001795066317094316,0.0006590605871562626,0.6568843722343445,34.31289291381836,3.9974029064178467,-19.412263870239258,-0.3500266671180725,-1.809390664100647,0.09097616374492645,0
71,0.34999704360961914,-0.6568843722343445,-34.28908920288086,-4.072781085968018,19.388460159301758,0.3555198311805725,1.815799355506897,-0.12485067546367645,0.0,0.0,0.0,0.0,0.0,0.0,0.0,-0.6667061167062953,-0.23464754987754682,-0.5013600701037471,0.37832935655918803,0.3024302487209624,-0.09288775778481122,-0.10696658460493211,1.0546036590233183,0.3238135118738045,-0.3923302243550619,-2.153206764120858,0.8647506090341363,2.4658691305813742,0.5444911518387376,1.0544104758940245,0.3238615046091247,-0.39250456234122666,-2.153291787532338,0.8647539153680389,2.46587817577521,0.5445020185570556,-1.3630984624818307e-05,-0.0005946108311105818,0.000380108708694035,0.0008372257503124953,3.290732051956982e-05,-0.00014173733064488063,0.001120156414783719,0.0,0.0,0.0,0.0,0.0,0.0,0.0,-0.00019318312929383907,4.799273532019033e-05,-0.00017433798616478535,-8.502341147975656e-05,3.3063339026639937e-06,9.045193835710563e-06,1.0866718317958934e-05,1.3630984624818307e-05,0.0005946108311105818,-0.000380108708694035,-0.0008372257503124953,-3.290732051956982e-05,0.00014173733064488063,-0.001120156414783719,0.6568843722343445,34.28908920288086,4.072781085968018,-19.388460159301758,-0.3555198311805725,-1.815799355506897,0.12485067546367645,0
72,0.3549940586090088,-0.6568843722343445,-34.28908920288086,-4.072781085968018,19.388460159301758,0.3555198311805725,1.815799355506897,-0.12485067546367645,0.0,0.0,0.0,0.0,0.0,0.0,0.0,-0.6667061167062953,-0.23464754987754682,-0.5013600701037471,0.37832935655918803,0.3024302487209624,-0.09288775778481122,-0.10696658460493211,1.0546036590233183,0.3238135118738045,-0.3923302243550619,-2.153206764120858,0.8647506090341363,2.4658691305813742,0.5444911518387376,1.0544104758940245,0.3238615046091247,-0.39250456234122666,-2.153291787532338,0.8647539153680389,2.46587817577521,0.5445020185570556,-1.3630984624818307e-05,-0.0005946108311105818,0.000380108708694035,0.0008372257503124953,3.290732051956982e-05,-0.00014173733064488063,0.001120156414783719,0.0,0.0,0.0,0.0,0.0,0.0,0.0,-0.00019318312929383907,4.799273532019033e-05,-0.00017433798616478535,-8.502341147975656e-05,3.3063339026639937e-06,9.045193835710563e-06,1.0866718317958934e-05,1.3630984624818307e-05,0.0005946108311105818,-0.000380108708694035,-0.0008372257503124953,-3.290732051956982e-05,0.00014173733064488063,-0.001120156414783719,0.6568843722343445,34.28908920288086,4.072781085968018,-19.388460159301758,-0.3555198311805725,-1.815799355506897,0.12485067546367645,0
73,0.35995912551879883,-0.6806880831718445,-34.26528549194336,-3.9974029064178467,19.412263870239258,0.3500266671180725,1.815799355506897,-0.07724325358867645,0.0,0.0,0.0,0.0,0.0,0.0,0.0,-0.6496114689261951,-0.23023859056712317,-0.48655001614911697,0.37898499319150375,0.3018204735547312,-0.09373429773363859,-0.1069172509819624,1.0546053294591737,0.32381086771967654,-0.3923355140518724,-2.1532105037904135,0.8647487767703893,2.465869017205096,0.5444855224789465,1.0544104758940245,0.3238615046091247,-0.39250456234122666,-2.153291787532338,0.8647539153680389,2.46587817577521,0.5445020185570556,0.0010266710164359941,-0.0009356391703523285,-0.0011431954690596874,0.00022164849490592854,0.00016755034888178507,2.5064202506814678e-05,-0.0013759720213078219,0.0,0.0,0.0,0.0,0.0,0.0,0.0,-0.00019485356514925556,5.063688944817457e-05,-0.00016904828935426774,-8.128374192439836e-05,5.138597649612109e-06,9.158570113854125e-06,1.6496078109051737e-05,-0.0010266710164359941,0.0009356391703523285,0.0011431954690596874,-0.00022164849490592854,-0.00016755034888178507,-2.5064202506814678e-05,0.0013759720213078219,0.6806880831718445,34.26528549194336,3.9974029064178467,-19.412263870239258,-0.3500266671180725,-1.815799355506897,0.07724325358867645,0
74,0.3649923801422119,-0.6806880831718445,-34.26528549194336,-3.9974029064178467,19.412263870239258,0.3500266671180725,1.815799355506897,-0.07724325358867645,0.0,0.0,0.0,0.0,0.0,0.0,0.0,-0.6496114689261951,-0.23023859056712317,-0.48655001614911697,0.37898499319150375,0.3018204735547312,-0.09373429773363859,-0.1069172509819624,1.0546053294591737,0.32381086771967654,-0.3923355140518724,-2.1532105037904135,0.8647487767703893,2.465869017205096,0.5444855224789465,1.0544104758940245,0.3238615046091247,-0.39250456234122666,-2.153291787532338,0.8647539153680389,2.46587817577521,0.5445020185570556,0.0010266710164359941,-0.0009356391703523285,-0.0011431954690596874,0.00022164849490592854,0.00016755034888178507,2.5064202506814678e-05,-0.0013759720213078219,0.0,0.0,0.0,0.0,0.0,0.0,0.0,-0.00019485356514925556,5.063688944817457e-05,-0.00016904828935426774,-8.128374192439836e-05,5.138597649612109e-06,9.158570113854125e-06,1.6496078109051737e-05,-0.0010266710164359941,0.0009356391703523285,0.0011431954690596874,-0.00022164849490592854,-0.00016755034888178507,-2.5064202506814678e-05,0.0013759720213078219,0.6806880831718445,34.26528549194336,3.9974029064178467,-19.412263870239258,-0.3500266671180725,-1.815799355506897,0.07724325358867645,0
75,0.3699924945831299,-0.7084590792655945,-34.28908920288086,-4.048977375030518,19.412263870239258,0.3500266671180725,1.815799355506897,-0.08365194499492645,0.0,0.0,0.0,0.0,0.0,0.0,0.0,-0.6610148951637876,-0.2284856640515246,-0.49559587770071545,0.3761920266254566,0.3023272968543395,-0.09244544471275255,-0.10689206467749274,1.0546072792458123,0.32381121042172284,-0.3923318947909171,-2.1532091246978466,0.8647480266708385,2.4658690167199393,0.5444862258325507,1.0544104758940245,0.3238615046091247,-0.39250456234122666,-2.153291787532338,0.8647539153680389,2.46587817577521,0.5445020185570556,0.0010292620228826506,-0.0003842503105387793,5.272186190335617e-05,-0.00020376160594050304,0.0003687657600466203,-0.0001614225422908858,-0.0010604528213688873,0.0,0.0,0.0,0.0,0.0,0.0,0.0,-0.00019680335178784425,5.0294187401878077e-05,-0.0001726675503095354,-8.266283449120948e-05,5.888697200417958e-06,9.159055270657745e-06,1.579272450491498e-05,-0.0010292620228826506,0.0003842503105387793,-5.272186190335617e-05,0.00020376160594050304,-0.0003687657600466203,0.0001614225422908858,0.0010604528213688873,0.7084590792655945,34.28908920288086,4.048977375030518,-19.412263870239258,-0.3500266671180725,-1.815799355506897,0.08365194499492645,0
76,0.37499403953552246,-0.7084590792655945,-34.28908920288086,-4.048977375030518,19.412263870239258,0.3500266671180725,1.815799355506897,-0.08365194499492645,0.0,0.0,0.0,0.0,0.0,0.0,0.0,-0.6610148951637876,-0.2284856640515246,-0.49559587770071545,0.3761920266254566,0.3023272968543395,-0.09244544471275255,-0.10689206467749274,1.0546072792458123,0.32381121042172284,-0.3923318947909171,-2.1532091246978466,0.8647480266708385,2.4658690167199393,0.5444862258325507,1.0544104758940245,0.3238615046091247,-0.39250456234122666,-2.153291787532338,0.8647539153680389,2.46587817577521,0.5445020185570556,0.0010292620228826506,-0.0003842503105387793,5.272186190335617e-05,-0.00020376160594050304,0.0003687657600466203,-0.0001614225422908858,-0.0010604528213688873,0.0,0.0,0.0,0.0,0.0,0.0,0.0,-0.00019680335178784425,5.0294187401878077e-05,-0.0001726675503095354,-8.266283449120948e-05,5.888697200417958e-06,9.159055270657745e-06,1.579272450491498e-05,-0.0010292620228826506,0.0003842503105387793,-5.272186190335617e-05,0.00020376160594050304,-0.0003687657600466203,0.0001614225422908858,0.0010604528213688873,0.7084590792655945,34.28908920288086,4.048977375030518,-19.412263870239258,-0.3500266671180725,-1.815799355506897,0.08365194499492645,0
77,0.3799927234649658,-0.6053096652030945,-34.33669662475586,-4.072781085968018,19.388460159301758,0.3555198311805725,1.815799355506897,-0.09097616374492645,0.0,0.0,0.0,0.0,0.0,0.0,0.0,-0.6485201392391671,-0.2347120805821434,-0.48258037771040885,0.3834469752578745,0.30187590148309257,-0.09275309428884272,-0.10674837789759684,1.0546000397456479,0.32381456836004807,-0.3923302243550619,-2.153206767071894,0.8647481765258082,2.4658687817279787,0.5444870364045278,1.0544104758940245,0.3238615046091247,-0.39250456234122666,-2.153291787532338,0.8647539153680389,2.46587817577521,0.5445020185570556,-0.0008536307042923125,0.0006999386014119027,0.0007246311990344697,0.0010285426719340628,-1.8667258552285866e-05,-0.00018130992722893333,-0.0007518612477648273,0.0,0.0,0.0,0.0,0.0,0.0,0.0,-0.00018956385162338663,4.693624907664562e-05,-0.00017433798616478535,-8.502046044389644e-05,5.7388422307624865e-06,9.394047231214842e-06,1.4982152527820425e-05,0.0008536307042923125,-0.0006999386014119027,-0.0007246311990344697,-0.0010285426719340628,1.8667258552285866e-05,0.00018130992722893333,0.0007518612477648273,0.6053096652030945,34.33669662475586,4.072781085968018,-19.388460159301758,-0.3555198311805725,-1.815799355506897,0.09097616374492645,0
78,0.3849971294403076,-0.6053096652030945,-34.33669662475586,-4.072781085968018,19.388460159301758,0.3555198311805725,1.815799355506897,-0.09097616374492645,0.0,0.0,0.0,0.0,0.0,0.0,0.0,-0.6485201392391671,-0.2347120805821434,-0.48258037771040885,0.3834469752578745,0.30187590148309257,-0.09275309428884272,-0.10674837789759684,1.0546000397456479,0.32381456836004807,-0.3923302243550619,-2.153206767071894,0.8647481765258082,2.4658687817279787,0.5444870364045278,1.0544104758940245,0.3238615046091247,-0.39250456234122666,-2.153291787532338,0.8647539153680389,2.46587817577521,0.5445020185570556,-0.0008536307042923125,0.0006999386014119027,0.0007246311990344697,0.0010285426719340628,-1.8667258552285866e-05,-0.00018130992722893333,-0.0007518612477648273,0.0,0.0,0.0,0.0,0.0,0.0,0.0,-0.00018956385162338663,4.693624907664562e-05,-0.00017433798616478535,-8.502046044389644e-05,5.7388422307624865e-06,9.394047231214842e-06,1.4982152527820425e-05,0.0008536307042923125,-0.0006999386014119027,-0.0007246311990344697,-0.0010285426719340628,1.8667258552285866e-05,0.00018130992722893333,0.0007518612477648273,0.6053096652030945,34.33669662475586,4.072781085968018,-19.388460159301758,-0.3555198311805725,-1.815799355506897,0.09097616374492645,0
79,0.38999176025390625,-0.6291133761405945,-34.33669662475586,-4.048977375030518,19.412263870239258,0.3619285225868225,1.809390664100647,-0.11844198405742645,0.0,0.0,0.0,0.0,0.0,0.0,0.0,-0.6578927959274146,-0.23453303368059192,-0.49415792624590915,0.3817018387295207,0.3028396257898118,-0.09248349722700833,-0.10624615144942086,1.0546017101814873,0.32381620141481965,-0.3923318947909171,-2.1532093538545296,0.8647509564153315,2.465869846856014,0.5444904397599214,1.0544104758940245,0.3238615046091247,-0.39250456234122666,-2.153291787532338,0.8647539153680389,2.46587817577521,0.5445020185570556,-0.0005594529595012371,0.0004978402189734752,0.0003286869985172184,0.0002393815328531932,-0.00032729318644346504,1.7905872184504827e-05,0.001129208006475816,0.0,0.0,0.0,0.0,0.0,0.0,0.0,-0.0001912342874628159,4.530319430506857e-05,-0.0001726675503095354,-8.243367780824684e-05,2.9589527074103117e-06,8.328919196110007e-06,1.1578797134204066e-05,0.0005594529595012371,-0.0004978402189734752,-0.0003286869985172184,-0.0002393815328531932,0.00032729318644346504,-1.7905872184504827e-05,-0.001129208006475816,0.6291133761405945,34.33669662475586,4.048977375030518,-19.412263870239258,-0.3619285225868225,-1.809390664100647,0.11844198405742645,0
80,0.39495062828063965,-0.6291133761405945,-34.33669662475586,-4.048977375030518,19.412263870239258,0.3619285225868225,1.809390664100647,-0.11844198405742645,0.0,0.0,0.0,0.0,0.0,0.0,0.0,-0.6578927959274146,-0.23453303368059192,-0.49415792624590915,0.3817018387295207,0.3028396257898118,-0.09248349722700833,-0.10624615144942086,1.0546017101814873,0.32381620141481965,-0.3923318947909171,-2.1532093538545296,0.8647509564153315,2.465869846856014,0.5444904397599214,1.0544104758940245,0.3238615046091247,-0.39250456234122666,-2.153291787532338,0.8647539153680389,2.46587817577521,0.5445020185570556,-0.0005594529595012371,0.0004978402189734752,0.0003286869985172184,0.0002393815328531932,-0.00032729318644346504,1.7905872184504827e-05,0.001129208006475816,0.0,0.0,0.0,0.0,0.0,0.0,0.0,-0.0001912342874628159,4.530319430506857e-05,-0.0001726675503095354,-8.243367780824684e-05,2.9589527074103117e-06,8.328919196110007e-06,1.1578797134204066e-05,0.0005594529595012371,-0.0004978402189734752,-0.0003286869985172184,-0.0002393815328531932,0.00032729318644346504,-1.7905872184504827e-05,-0.001129208006475816,0.6291133761405945,34.33669662475586,4.048977375030518,-19.412263870239258,-0.3619285225868225,-1.809390664100647,0.11844198405742645,0
