rezayati/contactInterpretation/dataset/franka_main/labeled_data/link6/b3_4.csv
index,time,tau_J0,tau_J1,tau_J2,tau_J3,tau_J4,tau_J5,tau_J6,tau_J_d0,tau_J_d1,tau_J_d2,tau_J_d3,tau_J_d4,tau_J_d5,tau_J_d6,tau_ext0,tau_ext1,tau_ext2,tau_ext3,tau_ext4,tau_ext5,tau_ext6,q0,q1,q2,q3,q4,q5,q6,q_d0,q_d1,q_d2,q_d3,q_d4,q_d5,q_d6,dq0,dq1,dq2,dq3,dq4,dq5,dq6,dq_d0,dq_d1,dq_d2,dq_d3,dq_d4,dq_d5,dq_d6,e0,e1,e2,e3,e4,e5,e6,de0,de1,de2,de3,de4,de5,de6,etau_J0,etau_J1,etau_J2,etau_J3,etau_J4,etau_J5,etau_J6,label
1,0.0,-0.4029781222343445,-19.717248916625977,-0.4228789508342743,20.154146194458008,0.6063743233680725,2.4758944511413574,-0.24112264811992645,0.0,0.0,0.0,0.0,0.0,0.0,0.0,-0.3707155926838751,-0.004204764483539951,-0.1972180568343716,0.3859571457442459,0.019602315760724392,0.10240964577484504,-0.2732676506119826,1.2134743002464896,-0.22032771567936701,-0.007531580382029487,-2.6040940555104037,-0.10892616765884779,2.468144849860555,0.826474912612107,1.2134413937687574,-0.2202432315892585,-0.0075118285948192216,-2.6038483821997875,-0.10888392708698907,2.4681821257803174,0.826474908251239,0.0010091418624382873,-0.0002497615727686288,0.00048548896375367307,0.00021599483031434861,-0.0002012816919942301,4.8133567904809975e-06,-0.0012483241915459639,0.0,0.0,0.0,0.0,0.0,0.0,0.0,-3.290647773224187e-05,8.448409010852753e-05,1.9751787210265867e-05,0.00024567331061620123,4.2240571858712106e-05,3.727591976243616e-05,-4.360868000041762e-09,-0.0010091418624382873,0.0002497615727686288,-0.00048548896375367307,-0.00021599483031434861,0.0002012816919942301,-4.8133567904809975e-06,0.0012483241915459639,0.4029781222343445,19.717248916625977,0.4228789508342743,-20.154146194458008,-0.6063743233680725,-2.4758944511413574,0.24112264811992645,0
2,0.00422358512878418,-0.4029781222343445,-19.717248916625977,-0.4228789508342743,20.154146194458008,0.6063743233680725,2.4758944511413574,-0.24112264811992645,0.0,0.0,0.0,0.0,0.0,0.0,0.0,-0.3707155926838751,-0.004204764483539951,-0.1972180568343716,0.3859571457442459,0.019602315760724392,0.10240964577484504,-0.2732676506119826,1.2134743002464896,-0.22032771567936701,-0.007531580382029487,-2.6040940555104037,-0.10892616765884779,2.468144849860555,0.826474912612107,1.2134413937687574,-0.2202432315892585,-0.0075118285948192216,-2.6038483821997875,-0.10888392708698907,2.4681821257803174,0.826474908251239,0.0010091418624382873,-0.0002497615727686288,0.00048548896375367307,0.00021599483031434861,-0.0002012816919942301,4.8133567904809975e-06,-0.0012483241915459639,0.0,0.0,0.0,0.0,0.0,0.0,0.0,-3.290647773224187e-05,8.448409010852753e-05,1.9751787210265867e-05,0.00024567331061620123,4.2240571858712106e-05,3.727591976243616e-05,-4.360868000041762e-09,-0.0010091418624382873,0.0002497615727686288,-0.00048548896375367307,-0.00021599483031434861,0.0002012816919942301,-4.8133567904809975e-06,0.0012483241915459639,0.4029781222343445,19.717248916625977,0.4228789508342743,-20.154146194458008,-0.6063743233680725,-2.4758944511413574,0.24112264811992645,0
3,0.009224176406860352,-0.3752071261405945,-19.717248916625977,-0.4466826617717743,20.181917190551758,0.5999656319618225,2.4758944511413574,-0.26858848333358765,0.0,0.0,0.0,0.0,0.0,0.0,0.0,-0.37210856943194914,-0.004858067098384783,-0.1995651009587961,0.3889231628198289,0.01947873543123539,0.10222124490286061,-0.2724140469526465,1.2134723514046586,-0.22032771567921886,-0.00752990117850516,-2.6040960043522348,-0.10892641603435527,2.468148934336902,0.8264807866636912,1.2134413937687574,-0.2202432315892585,-0.0075118285948192216,-2.6038483821997875,-0.10888392708698907,2.4681821257803174,0.826474908251239,0.0002878740028492637,-0.00013484929392840146,0.0009776723193140266,0.005721090242437206,0.00018778328159166534,-0.0001483233360407798,0.00030341991136412157,0.0,0.0,0.0,0.0,0.0,0.0,0.0,-3.0957635901218694e-05,8.448408996036827e-05,1.8072583685938177e-05,0.0002476221524472244,4.2488947366192686e-05,3.31914434155145e-05,-5.878412452142712e-06,-0.0002878740028492637,0.00013484929392840146,-0.0009776723193140266,-0.005721090242437206,-0.00018778328159166534,0.0001483233360407798,-0.00030341991136412157,0.3752071261405945,19.717248916625977,0.4466826617717743,-20.181917190551758,-0.5999656319618225,-2.4758944511413574,0.26858848333358765,0
4,0.014223337173461914,-0.3752071261405945,-19.717248916625977,-0.4466826617717743,20.181917190551758,0.5999656319618225,2.4758944511413574,-0.26858848333358765,0.0,0.0,0.0,0.0,0.0,0.0,0.0,-0.37210856943194914,-0.004858067098384783,-0.1995651009587961,0.3889231628198289,0.01947873543123539,0.10222124490286061,-0.2724140469526465,1.2134723514046586,-0.22032771567921886,-0.00752990117850516,-2.6040960043522348,-0.10892641603435527,2.468148934336902,0.8264807866636912,1.2134413937687574,-0.2202432315892585,-0.0075118285948192216,-2.6038483821997875,-0.10888392708698907,2.4681821257803174,0.826474908251239,0.0002878740028492637,-0.00013484929392840146,0.0009776723193140266,0.005721090242437206,0.00018778328159166534,-0.0001483233360407798,0.00030341991136412157,0.0,0.0,0.0,0.0,0.0,0.0,0.0,-3.0957635901218694e-05,8.448408996036827e-05,1.8072583685938177e-05,0.0002476221524472244,4.2488947366192686e-05,3.31914434155145e-05,-5.878412452142712e-06,-0.0002878740028492637,0.00013484929392840146,-0.0009776723193140266,-0.005721090242437206,-0.00018778328159166534,0.0001483233360407798,-0.00030341991136412157,0.3752071261405945,19.717248916625977,0.4466826617717743,-20.181917190551758,-0.5999656319618225,-2.4758944511413574,0.26858848333358765,0
5,0.019226789474487305,-0.3236324191093445,-19.717248916625977,-0.3475005328655243,20.154146194458008,0.6118674874305725,2.4823031425476074,-0.30337852239608765,0.0,0.0,0.0,0.0,0.0,0.0,0.0,-0.3650879533505203,0.014305821236611971,-0.19444412284163834,0.36485960393790656,0.018244773108800235,0.0986025185447197,-0.2711471500864944,1.2134687321269721,-0.22032771567921886,-0.0075368613278525955,-2.6040940555104037,-0.10892677895508276,2.4681486927488985,0.8264846570846864,1.2134413937687574,-0.2202432315892585,-0.0075118285948192216,-2.6038483821997875,-0.10888392708698907,2.4681821257803174,0.826474908251239,-0.0009944571368019374,-9.644022721030136e-05,-0.0005944929993938334,0.0007176809165204878,-0.00026072394543049147,-0.00021330746822538306,0.0015569000978758122,0.0,0.0,0.0,0.0,0.0,0.0,0.0,-2.7338358214779035e-05,8.448408996036827e-05,2.5032733033373937e-05,0.00024567331061620123,4.285186809369068e-05,3.343303141889464e-05,-9.748833447398297e-06,0.0009944571368019374,9.644022721030136e-05,0.0005944929993938334,-0.0007176809165204878,0.00026072394543049147,0.00021330746822538306,-0.0015569000978758122,0.3236324191093445,19.717248916625977,0.3475005328655243,-20.154146194458008,-0.6118674874305725,-2.4823031425476074,0.30337852239608765,0
6,0.024225950241088867,-0.3236324191093445,-19.717248916625977,-0.3475005328655243,20.154146194458008,0.6118674874305725,2.4823031425476074,-0.30337852239608765,0.0,0.0,0.0,0.0,0.0,0.0,0.0,-0.3650879533505203,0.014305821236611971,-0.19444412284163834,0.36485960393790656,0.018244773108800235,0.0986025185447197,-0.2711471500864944,1.2134687321269721,-0.22032771567921886,-0.0075368613278525955,-2.6040940555104037,-0.10892677895508276,2.4681486927488985,0.8264846570846864,1.2134413937687574,-0.2202432315892585,-0.0075118285948192216,-2.6038483821997875,-0.10888392708698907,2.4681821257803174,0.826474908251239,-0.0009944571368019374,-9.644022721030136e-05,-0.0005944929993938334,0.0007176809165204878,-0.00026072394543049147,-0.00021330746822538306,0.0015569000978758122,0.0,0.0,0.0,0.0,0.0,0.0,0.0,-2.7338358214779035e-05,8.448408996036827e-05,2.5032733033373937e-05,0.00024567331061620123,4.285186809369068e-05,3.343303141889464e-05,-9.748833447398297e-06,0.0009944571368019374,9.644022721030136e-05,0.0005944929993938334,-0.0007176809165204878,0.00026072394543049147,0.00021330746822538306,-0.0015569000978758122,0.3236324191093445,19.717248916625977,0.3475005328655243,-20.154146194458008,-0.6118674874305725,-2.4823031425476074,0.30337852239608765,0
7,0.02962493896484375,-0.3236324191093445,-19.745019912719727,-0.4228789508342743,20.154146194458008,0.6063743233680725,2.4823031425476074,-0.30337852239608765,0.0,0.0,0.0,0.0,0.0,0.0,0.0,-0.36736064893686515,-0.00819762567660396,-0.19663885641798193,0.4006865257060893,0.019449501495302734,0.1047779746168843,-0.27078550456842426,1.2134687321269721,-0.22032576683738772,-0.007531571578229782,-2.6040940555104037,-0.10892569024784018,2.4681441096537937,0.8264850100820829,1.2134413937687574,-0.2202432315892585,-0.0075118285948192216,-2.6038483821997875,-0.10888392708698907,2.4681821257803174,0.826474908251239,-0.0008473843722334859,-8.463795201321322e-06,0.0011955547745039464,0.0001631312927245569,-3.066054507127778e-05,-0.0003154555450248038,0.001316642722702906,0.0,0.0,0.0,0.0,0.0,0.0,0.0,-2.7338358214779035e-05,8.253524812923407e-05,1.9742983410560126e-05,0.00024567331061620123,4.1763160851110426e-05,3.801612652365449e-05,-1.0101830843822768e-05,0.0008473843722334859,8.463795201321322e-06,-0.0011955547745039464,-0.0001631312927245569,3.066054507127778e-05,0.0003154555450248038,-0.001316642722702906,0.3236324191093445,19.745019912719727,0.4228789508342743,-20.154146194458008,-0.6063743233680725,-2.4823031425476074,0.30337852239608765,0
8,0.034232139587402344,-0.3236324191093445,-19.745019912719727,-0.4228789508342743,20.154146194458008,0.6063743233680725,2.4823031425476074,-0.30337852239608765,0.0,0.0,0.0,0.0,0.0,0.0,0.0,-0.36736064893686515,-0.00819762567660396,-0.19663885641798193,0.4006865257060893,0.019449501495302734,0.1047779746168843,-0.27078550456842426,1.2134687321269721,-0.22032576683738772,-0.007531571578229782,-2.6040940555104037,-0.10892569024784018,2.4681441096537937,0.8264850100820829,1.2134413937687574,-0.2202432315892585,-0.0075118285948192216,-2.6038483821997875,-0.10888392708698907,2.4681821257803174,0.826474908251239,-0.0008473843722334859,-8.463795201321322e-06,0.0011955547745039464,0.0001631312927245569,-3.066054507127778e-05,-0.0003154555450248038,0.001316642722702906,0.0,0.0,0.0,0.0,0.0,0.0,0.0,-2.7338358214779035e-05,8.253524812923407e-05,1.9742983410560126e-05,0.00024567331061620123,4.1763160851110426e-05,3.801612652365449e-05,-1.0101830843822768e-05,0.0008473843722334859,8.463795201321322e-06,-0.0011955547745039464,-0.0001631312927245569,3.066054507127778e-05,0.0003154555450248038,-0.001316642722702906,0.3236324191093445,19.745019912719727,0.4228789508342743,-20.154146194458008,-0.6063743233680725,-2.4823031425476074,0.30337852239608765,0
9,0.03923392295837402,-0.4029781222343445,-19.792627334594727,-0.3990752398967743,20.205720901489258,0.6063743233680725,2.4758944511413574,-0.23471395671367645,0.0,0.0,0.0,0.0,0.0,0.0,0.0,-0.3312967123872448,-0.015602678732413743,-0.15753061409720343,0.4038158008076,0.017578538472077646,0.10652683542626241,-0.27124927728495435,1.2134743002464896,-0.2203224259656772,-0.007533242050165582,-2.6040956084937377,-0.10892296897446514,2.468146105837112,0.826477380903227,1.2134413937687574,-0.2202432315892585,-0.0075118285948192216,-2.6038483821997875,-0.10888392708698907,2.4681821257803174,0.826474908251239,0.0006591862304697513,0.0006649553839490245,-0.0008283711589200998,-0.0011906794797227188,-0.0002165943002311793,2.5449008380377894e-05,-0.001363517955653479,0.0,0.0,0.0,0.0,0.0,0.0,0.0,-3.290647773224187e-05,7.919437641870641e-05,2.1413455346360084e-05,0.0002472262939501313,3.9041887476068404e-05,3.601994320545643e-05,-2.472651987939223e-06,-0.0006591862304697513,-0.0006649553839490245,0.0008283711589200998,0.0011906794797227188,0.0002165943002311793,-2.5449008380377894e-05,0.001363517955653479,0.4029781222343445,19.792627334594727,0.3990752398967743,-20.205720901489258,-0.6063743233680725,-2.4758944511413574,0.23471395671367645,0
10,0.044180870056152344,-0.4029781222343445,-19.792627334594727,-0.3990752398967743,20.205720901489258,0.6063743233680725,2.4758944511413574,-0.23471395671367645,0.0,0.0,0.0,0.0,0.0,0.0,0.0,-0.3312967123872448,-0.015602678732413743,-0.15753061409720343,0.4038158008076,0.017578538472077646,0.10652683542626241,-0.27124927728495435,1.2134743002464896,-0.2203224259656772,-0.007533242050165582,-2.6040956084937377,-0.10892296897446514,2.468146105837112,0.826477380903227,1.2134413937687574,-0.2202432315892585,-0.0075118285948192216,-2.6038483821997875,-0.10888392708698907,2.4681821257803174,0.826474908251239,0.0006591862304697513,0.0006649553839490245,-0.0008283711589200998,-0.0011906794797227188,-0.0002165943002311793,2.5449008380377894e-05,-0.001363517955653479,0.0,0.0,0.0,0.0,0.0,0.0,0.0,-3.290647773224187e-05,7.919437641870641e-05,2.1413455346360084e-05,0.0002472262939501313,3.9041887476068404e-05,3.601994320545643e-05,-2.472651987939223e-06,-0.0006591862304697513,-0.0006649553839490245,0.0008283711589200998,0.0011906794797227188,0.0002165943002311793,-2.5449008380377894e-05,0.001363517955653479,0.4029781222343445,19.792627334594727,0.3990752398967743,-20.205720901489258,-0.6063743233680725,-2.4758944511413574,0.23471395671367645,0
11,0.04923105239868164,-0.3752071261405945,-19.745019912719727,-0.3475005328655243,20.181917190551758,0.5999656319618225,2.4823031425476074,-0.22830526530742645,0.0,0.0,0.0,0.0,0.0,0.0,0.0,-0.40149816659368553,-0.01794053248114298,-0.23282238485048928,0.40326432407337415,0.020626623950620544,0.10525193158043976,-0.26994746270389736,1.2134723514046586,-0.22032576683738772,-0.0075368613278525955,-2.6040959788307636,-0.10892550539836118,2.4681441363374272,0.8264756072502114,1.2134413937687574,-0.2202432315892585,-0.0075118285948192216,-2.6038483821997875,-0.10888392708698907,2.4681821257803174,0.826474908251239,0.0006408963525308884,-0.0011792519420775506,-0.0003141628710018223,-0.00023022728024856776,0.00030696878365379156,-6.447512110559723e-05,-0.0018964867557886749,0.0,0.0,0.0,0.0,0.0,0.0,0.0,-3.0957635901218694e-05,8.253524812923407e-05,2.5032733033373937e-05,0.00024759663097606577,4.15783113721091e-05,3.798944289012951e-05,-6.989989723704682e-07,-0.0006408963525308884,0.0011792519420775506,0.0003141628710018223,0.00023022728024856776,-0.00030696878365379156,6.447512110559723e-05,0.0018964867557886749,0.3752071261405945,19.745019912719727,0.3475005328655243,-20.181917190551758,-0.5999656319618225,-2.4823031425476074,0.22830526530742645,0
12,0.05422616004943848,-0.3752071261405945,-19.745019912719727,-0.3475005328655243,20.181917190551758,0.5999656319618225,2.4823031425476074,-0.22830526530742645,0.0,0.0,0.0,0.0,0.0,0.0,0.0,-0.40149816659368553,-0.01794053248114298,-0.23282238485048928,0.40326432407337415,0.020626623950620544,0.10525193158043976,-0.26994746270389736,1.2134723514046586,-0.22032576683738772,-0.0075368613278525955,-2.6040959788307636,-0.10892550539836118,2.4681441363374272,0.8264756072502114,1.2134413937687574,-0.2202432315892585,-0.0075118285948192216,-2.6038483821997875,-0.10888392708698907,2.4681821257803174,0.826474908251239,0.0006408963525308884,-0.0011792519420775506,-0.0003141628710018223,-0.00023022728024856776,0.00030696878365379156,-6.447512110559723e-05,-0.0018964867557886749,0.0,0.0,0.0,0.0,0.0,0.0,0.0,-3.0957635901218694e-05,8.253524812923407e-05,2.5032733033373937e-05,0.00024759663097606577,4.15783113721091e-05,3.798944289012951e-05,-6.989989723704682e-07,-0.0006408963525308884,0.0011792519420775506,0.0003141628710018223,0.00023022728024856776,-0.00030696878365379156,6.447512110559723e-05,0.0018964867557886749,0.3752071261405945,19.745019912719727,0.3475005328655243,-20.181917190551758,-0.5999656319618225,-2.4823031425476074,0.22830526530742645,0
13,0.05922865867614746,-0.3752071261405945,-19.745019912719727,-0.3475005328655243,20.181917190551758,0.5999656319618225,2.4823031425476074,-0.22830526530742645,0.0,0.0,0.0,0.0,0.0,0.0,0.0,-0.40149816659368553,-0.01794053248114298,-0.23282238485048928,0.40326432407337415,0.020626623950620544,0.10525193158043976,-0.26994746270389736,1.2134723514046586,-0.22032576683738772,-0.0075368613278525955,-2.6040959788307636,-0.10892550539836118,2.4681441363374272,0.8264756072502114,1.2134413937687574,-0.2202432315892585,-0.0075118285948192216,-2.6038483821997875,-0.10888392708698907,2.4681821257803174,0.826474908251239,0.0006408963525308884,-0.0011792519420775506,-0.0003141628710018223,-0.00023022728024856776,0.00030696878365379156,-6.447512110559723e-05,-0.0018964867557886749,0.0,0.0,0.0,0.0,0.0,0.0,0.0,-3.0957635901218694e-05,8.253524812923407e-05,2.5032733033373937e-05,0.00024759663097606577,4.15783113721091e-05,3.798944289012951e-05,-6.989989723704682e-07,-0.0006408963525308884,0.0011792519420775506,0.0003141628710018223,0.00023022728024856776,-0.00030696878365379156,6.447512110559723e-05,0.0018964867557886749,0.3752071261405945,19.745019912719727,0.3475005328655243,-20.181917190551758,-0.5999656319618225,-2.4823031425476074,0.22830526530742645,0
14,0.06420373916625977,-0.3752071261405945,-19.745019912719727,-0.3475005328655243,20.181917190551758,0.5999656319618225,2.4823031425476074,-0.22830526530742645,0.0,0.0,0.0,0.0,0.0,0.0,0.0,-0.40149816659368553,-0.01794053248114298,-0.23282238485048928,0.40326432407337415,0.020626623950620544,0.10525193158043976,-0.26994746270389736,1.2134723514046586,-0.22032576683738772,-0.0075368613278525955,-2.6040959788307636,-0.10892550539836118,2.4681441363374272,0.8264756072502114,1.2134413937687574,-0.2202432315892585,-0.0075118285948192216,-2.6038483821997875,-0.10888392708698907,2.4681821257803174,0.826474908251239,0.0006408963525308884,-0.0011792519420775506,-0.0003141628710018223,-0.00023022728024856776,0.00030696878365379156,-6.447512110559723e-05,-0.0018964867557886749,0.0,0.0,0.0,0.0,0.0,0.0,0.0,-3.0957635901218694e-05,8.253524812923407e-05,2.5032733033373937e-05,0.00024759663097606577,4.15783113721091e-05,3.798944289012951e-05,-6.989989723704682e-07,-0.0006408963525308884,0.0011792519420775506,0.0003141628710018223,0.00023022728024856776,-0.00030696878365379156,6.447512110559723e-05,0.0018964867557886749,0.3752071261405945,19.745019912719727,0.3475005328655243,-20.181917190551758,-0.5999656319618225,-2.4823031425476074,0.22830526530742645,0
15,0.06922769546508789,-0.3752071261405945,-19.816431045532227,-0.4228789508342743,20.154146194458008,0.6063743233680725,2.4694857597351074,-0.23471395671367645,0.0,0.0,0.0,0.0,0.0,0.0,0.0,-0.3809947914314685,-0.015834333103228584,-0.21412587408122047,0.3977629959441231,0.020011264047522695,0.10489704318442503,-0.2692854644550006,1.2134723514046586,-0.22032075552982194,-0.0075315716143109284,-2.6040938259217103,-0.10892622121349352,2.468149694328818,0.8264773673187837,1.2134413937687574,-0.2202432315892585,-0.0075118285948192216,-2.6038483821997875,-0.10888392708698907,2.4681821257803174,0.826474908251239,0.00022148039249911464,0.0012167024074511762,-1.0534504380745175e-05,0.0005589450735279329,-0.00020626709386602262,5.8188475521889185e-05,-0.0016915413173774628,0.0,0.0,0.0,0.0,0.0,0.0,0.0,-3.0957635901218694e-05,7.752394056345646e-05,1.9743019491706877e-05,0.00024544372192281116,4.2294126504444085e-05,3.243145149944837e-05,-2.4590675447022647e-06,-0.00022148039249911464,-0.0012167024074511762,1.0534504380745175e-05,-0.0005589450735279329,0.00020626709386602262,-5.8188475521889185e-05,0.0016915413173774628,0.3752071261405945,19.816431045532227,0.4228789508342743,-20.154146194458008,-0.6063743233680725,-2.4694857597351074,0.23471395671367645,0
16,0.07417511940002441,-0.3752071261405945,-19.816431045532227,-0.4228789508342743,20.154146194458008,0.6063743233680725,2.4694857597351074,-0.23471395671367645,0.0,0.0,0.0,0.0,0.0,0.0,0.0,-0.3809947914314685,-0.015834333103228584,-0.21412587408122047,0.3977629959441231,0.020011264047522695,0.10489704318442503,-0.2692854644550006,1.2134723514046586,-0.22032075552982194,-0.0075315716143109284,-2.6040938259217103,-0.10892622121349352,2.468149694328818,0.8264773673187837,1.2134413937687574,-0.2202432315892585,-0.0075118285948192216,-2.6038483821997875,-0.10888392708698907,2.4681821257803174,0.826474908251239,0.00022148039249911464,0.0012167024074511762,-1.0534504380745175e-05,0.0005589450735279329,-0.00020626709386602262,5.8188475521889185e-05,-0.0016915413173774628,0.0,0.0,0.0,0.0,0.0,0.0,0.0,-3.0957635901218694e-05,7.752394056345646e-05,1.9743019491706877e-05,0.00024544372192281116,4.2294126504444085e-05,3.243145149944837e-05,-2.4590675447022647e-06,-0.00022148039249911464,-0.0012167024074511762,1.0534504380745175e-05,-0.0005589450735279329,0.00020626709386602262,-5.8188475521889185e-05,0.0016915413173774628,0.3752071261405945,19.816431045532227,0.4228789508342743,-20.154146194458008,-0.6063743233680725,-2.4694857597351074,0.23471395671367645,0
17,0.07923293113708496,-0.3752071261405945,-19.717248916625977,-0.3990752398967743,20.181917190551758,0.6063743233680725,2.4887118339538574,-0.29605430364608765,0.0,0.0,0.0,0.0,0.0,0.0,0.0,-0.36083672802795014,-0.02254675705000632,-0.19804765207507416,0.3980285200343868,0.018894332292102023,0.10512506679583031,-0.2703663209376471,1.2134723514046586,-0.22032771567921886,-0.007533242050166192,-2.6040960043518027,-0.1089225351993388,2.4681475199884386,0.8264841964973088,1.2134413937687574,-0.2202432315892585,-0.0075118285948192216,-2.6038483821997875,-0.10888392708698907,2.4681821257803174,0.826474908251239,4.832659279717779e-07,-0.001222732644710719,0.00012971793865644278,-0.0002515794057682499,-0.00017906617540077398,-0.00032253531482356044,0.001367297331348028,0.0,0.0,0.0,0.0,0.0,0.0,0.0,-3.0957635901218694e-05,8.448408996036827e-05,2.1413455346970707e-05,0.0002476221520151256,3.860811234972228e-05,3.4605791878750125e-05,-9.288246069716344e-06,-4.832659279717779e-07,0.001222732644710719,-0.00012971793865644278,0.0002515794057682499,0.00017906617540077398,0.00032253531482356044,-0.001367297331348028,0.3752071261405945,19.717248916625977,0.3990752398967743,-20.181917190551758,-0.6063743233680725,-2.4887118339538574,0.29605430364608765,0
18,0.08423209190368652,-0.3752071261405945,-19.717248916625977,-0.3990752398967743,20.181917190551758,0.6063743233680725,2.4887118339538574,-0.29605430364608765,0.0,0.0,0.0,0.0,0.0,0.0,0.0,-0.36083672802795014,-0.02254675705000632,-0.19804765207507416,0.3980285200343868,0.018894332292102023,0.10512506679583031,-0.2703663209376471,1.2134723514046586,-0.22032771567921886,-0.007533242050166192,-2.6040960043518027,-0.1089225351993388,2.4681475199884386,0.8264841964973088,1.2134413937687574,-0.2202432315892585,-0.0075118285948192216,-2.6038483821997875,-0.10888392708698907,2.4681821257803174,0.826474908251239,4.832659279717779e-07,-0.001222732644710719,0.00012971793865644278,-0.0002515794057682499,-0.00017906617540077398,-0.00032253531482356044,0.001367297331348028,0.0,0.0,0.0,0.0,0.0,0.0,0.0,-3.0957635901218694e-05,8.448408996036827e-05,2.1413455346970707e-05,0.0002476221520151256,3.860811234972228e-05,3.4605791878750125e-05,-9.288246069716344e-06,-4.832659279717779e-07,0.001222732644710719,-0.00012971793865644278,0.0002515794057682499,0.00017906617540077398,0.00032253531482356044,-0.001367297331348028,0.3752071261405945,19.717248916625977,0.3990752398967743,-20.181917190551758,-0.6063743233680725,-2.4887118339538574,0.29605430364608765,0
19,0.08918213844299316,-0.3752071261405945,-19.717248916625977,-0.3713042438030243,20.154146194458008,0.6118674874305725,2.4758944511413574,-0.26858848333358765,0.0,0.0,0.0,0.0,0.0,0.0,0.0,-0.36506454528111426,-0.01701286947991757,-0.20032225490799663,0.395824433870465,0.018778471496232612,0.10534045299526971,-0.27055379231178883,1.2134723514046586,-0.22032771567921886,-0.0075351908919973325,-2.6040940555104037,-0.10892312428770794,2.4681457914075358,0.8264807871661612,1.2134413937687574,-0.2202432315892585,-0.0075118285948192216,-2.6038483821997875,-0.10888392708698907,2.4681821257803174,0.826474908251239,-0.000404430928537545,-0.0006168122794505458,-0.0005744193916583641,0.0003689878199133547,-0.00045387408815067166,0.0002237657734435813,-0.00036053424957764173,0.0,0.0,0.0,0.0,0.0,0.0,0.0,-3.0957635901218694e-05,8.448408996036827e-05,2.3362297178110975e-05,0.00024567331061620123,3.91972007188629e-05,3.6334372781610114e-05,-5.878914922208267e-06,0.000404430928537545,0.0006168122794505458,0.0005744193916583641,-0.0003689878199133547,0.00045387408815067166,-0.0002237657734435813,0.00036053424957764173,0.3752071261405945,19.717248916625977,0.3713042438030243,-20.154146194458008,-0.6118674874305725,-2.4758944511413574,0.26858848333358765,0
20,0.09422731399536133,-0.3752071261405945,-19.717248916625977,-0.3713042438030243,20.154146194458008,0.6118674874305725,2.4758944511413574,-0.26858848333358765,0.0,0.0,0.0,0.0,0.0,0.0,0.0,-0.36506454528111426,-0.01701286947991757,-0.20032225490799663,0.395824433870465,0.018778471496232612,0.10534045299526971,-0.27055379231178883,1.2134723514046586,-0.22032771567921886,-0.0075351908919973325,-2.6040940555104037,-0.10892312428770794,2.4681457914075358,0.8264807871661612,1.2134413937687574,-0.2202432315892585,-0.0075118285948192216,-2.6038483821997875,-0.10888392708698907,2.4681821257803174,0.826474908251239,-0.000404430928537545,-0.0006168122794505458,-0.0005744193916583641,0.0003689878199133547,-0.00045387408815067166,0.0002237657734435813,-0.00036053424957764173,0.0,0.0,0.0,0.0,0.0,0.0,0.0,-3.0957635901218694e-05,8.448408996036827e-05,2.3362297178110975e-05,0.00024567331061620123,3.91972007188629e-05,3.6334372781610114e-05,-5.878914922208267e-06,0.000404430928537545,0.0006168122794505458,0.0005744193916583641,-0.0003689878199133547,0.00045387408815067166,-0.0002237657734435813,0.00036053424957764173,0.3752071261405945,19.717248916625977,0.3713042438030243,-20.154146194458008,-0.6118674874305725,-2.4758944511413574,0.26858848333358765,0
21,0.09918880462646484,-0.3752071261405945,-19.717248916625977,-0.3475005328655243,20.154146194458008,0.5999656319618225,2.4694857597351074,-0.24112264811992645,0.0,0.0,0.0,0.0,0.0,0.0,0.0,-0.36257360738246375,-0.047548858700463444,-0.19573733675306065,0.44550196188720825,0.01984928615225942,0.11349963908568343,-0.2715579425850947,1.2134723514046586,-0.22032771859540404,-0.0075368613278525955,-2.6040940555104037,-0.10892184069406106,2.4681489888759764,0.8264779735715742,1.2134413937687574,-0.2202432315892585,-0.0075118285948192216,-2.6038483821997875,-0.10888392708698907,2.4681821257803174,0.826474908251239,0.0005175860460640321,-0.0005028387385823278,-0.0010864082510952083,-0.0010240569976488092,0.00018971425289048273,0.0002264316886076133,-0.0012766401478732817,0.0,0.0,0.0,0.0,0.0,0.0,0.0,-3.0957635901218694e-05,8.448700614555049e-05,2.5032733033373937e-05,0.00024567331061620123,3.791360707199043e-05,3.3136904340924644e-05,-3.065320335116084e-06,-0.0005175860460640321,0.0005028387385823278,0.0010864082510952083,0.0010240569976488092,-0.00018971425289048273,-0.0002264316886076133,0.0012766401478732817,0.3752071261405945,19.717248916625977,0.3475005328655243,-20.154146194458008,-0.5999656319618225,-2.4694857597351074,0.24112264811992645,0
22,0.10422515869140625,-0.3752071261405945,-19.717248916625977,-0.3475005328655243,20.154146194458008,0.5999656319618225,2.4694857597351074,-0.24112264811992645,0.0,0.0,0.0,0.0,0.0,0.0,0.0,-0.36257360738246375,-0.047548858700463444,-0.19573733675306065,0.44550196188720825,0.01984928615225942,0.11349963908568343,-0.2715579425850947,1.2134723514046586,-0.22032771859540404,-0.0075368613278525955,-2.6040940555104037,-0.10892184069406106,2.4681489888759764,0.8264779735715742,1.2134413937687574,-0.2202432315892585,-0.0075118285948192216,-2.6038483821997875,-0.10888392708698907,2.4681821257803174,0.826474908251239,0.0005175860460640321,-0.0005028387385823278,-0.0010864082510952083,-0.0010240569976488092,0.00018971425289048273,0.0002264316886076133,-0.0012766401478732817,0.0,0.0,0.0,0.0,0.0,0.0,0.0,-3.0957635901218694e-05,8.448700614555049e-05,2.5032733033373937e-05,0.00024567331061620123,3.791360707199043e-05,3.3136904340924644e-05,-3.065320335116084e-06,-0.0005175860460640321,0.0005028387385823278,0.0010864082510952083,0.0010240569976488092,-0.00018971425289048273,-0.0002264316886076133,0.0012766401478732817,0.3752071261405945,19.717248916625977,0.3475005328655243,-20.154146194458008,-0.5999656319618225,-2.4694857597351074,0.24112264811992645,0
23,0.1091759204864502,-0.3752071261405945,-19.745019912719727,-0.3990752398967743,20.154146194458008,0.6063743233680725,2.4887118339538574,-0.24112264811992645,0.0,0.0,0.0,0.0,0.0,0.0,0.0,-0.36609892862045545,-0.02067694094763982,-0.198791328364354,0.4089448750451418,0.019256733533667116,0.10766147993474695,-0.2717577295467616,1.2134723514046586,-0.2203257668374371,-0.007533242050166192,-2.6040940555104037,-0.10892676878784248,2.468147637778661,0.8264779752404615,1.2134413937687574,-0.2202432315892585,-0.0075118285948192216,-2.6038483821997875,-0.10888392708698907,2.4681821257803174,0.826474908251239,0.0002304784307588629,-0.00011737795709282287,0.00019806117490280234,0.0005633492544041675,-8.288427545940908e-05,-0.0005327628402643915,-0.001132288164591535,0.0,0.0,0.0,0.0,0.0,0.0,0.0,-3.0957635901218694e-05,8.253524817861124e-05,2.1413455346970707e-05,0.00024567331061620123,4.2841700853404885e-05,3.4488001656285405e-05,-3.066989222477723e-06,-0.0002304784307588629,0.00011737795709282287,-0.00019806117490280234,-0.0005633492544041675,8.288427545940908e-05,0.0005327628402643915,0.001132288164591535,0.3752071261405945,19.745019912719727,0.3990752398967743,-20.154146194458008,-0.6063743233680725,-2.4887118339538574,0.24112264811992645,0
24,0.11422610282897949,-0.3752071261405945,-19.745019912719727,-0.3990752398967743,20.154146194458008,0.6063743233680725,2.4887118339538574,-0.24112264811992645,0.0,0.0,0.0,0.0,0.0,0.0,0.0,-0.36609892862045545,-0.02067694094763982,-0.198791328364354,0.4089448750451418,0.019256733533667116,0.10766147993474695,-0.2717577295467616,1.2134723514046586,-0.2203257668374371,-0.007533242050166192,-2.6040940555104037,-0.10892676878784248,2.468147637778661,0.8264779752404615,1.2134413937687574,-0.2202432315892585,-0.0075118285948192216,-2.6038483821997875,-0.10888392708698907,2.4681821257803174,0.826474908251239,0.0002304784307588629,-0.00011737795709282287,0.00019806117490280234,0.0005633492544041675,-8.288427545940908e-05,-0.0005327628402643915,-0.001132288164591535,0.0,0.0,0.0,0.0,0.0,0.0,0.0,-3.0957635901218694e-05,8.253524817861124e-05,2.1413455346970707e-05,0.00024567331061620123,4.2841700853404885e-05,3.4488001656285405e-05,-3.066989222477723e-06,-0.0002304784307588629,0.00011737795709282287,-0.00019806117490280234,-0.0005633492544041675,8.288427545940908e-05,0.0005327628402643915,0.001132288164591535,0.3752071261405945,19.745019912719727,0.3990752398967743,-20.154146194458008,-0.6063743233680725,-2.4887118339538574,0.24112264811992645,0
25,0.11923074722290039,-0.3752071261405945,-19.717248916625977,-0.4228789508342743,20.130342483520508,0.6063743233680725,2.4694857597351074,-0.30337852239608765,0.0,0.0,0.0,0.0,0.0,0.0,0.0,-0.36237748745278625,0.00235217248783191,-0.19426757582600307,0.384671032024591,0.018441825558579386,0.10352131624315837,-0.2716342812693441,1.2134723514046586,-0.22032771567921886,-0.0075315716143109284,-2.6040923850745488,-0.10892356201638621,2.468145416769287,0.8264845393489163,1.2134413937687574,-0.2202432315892585,-0.0075118285948192216,-2.6038483821997875,-0.10888392708698907,2.4681821257803174,0.826474908251239,0.0005230825184425708,-0.0003174347610118344,0.0010154742206572214,0.0012911078304340062,-0.00015858811957595106,0.0003831324223952071,0.0019221876655512655,0.0,0.0,0.0,0.0,0.0,0.0,0.0,-3.0957635901218694e-05,8.448408996036827e-05,1.9743019491706877e-05,0.00024400287476122884,3.963492939713931e-05,3.670901103047797e-05,-9.63109767726511e-06,-0.0005230825184425708,0.0003174347610118344,-0.0010154742206572214,-0.0012911078304340062,0.00015858811957595106,-0.0003831324223952071,-0.0019221876655512655,0.3752071261405945,19.717248916625977,0.4228789508342743,-20.130342483520508,-0.6063743233680725,-2.4694857597351074,0.30337852239608765,0
26,0.12417817115783691,-0.3752071261405945,-19.717248916625977,-0.4228789508342743,20.130342483520508,0.6063743233680725,2.4694857597351074,-0.30337852239608765,0.0,0.0,0.0,0.0,0.0,0.0,0.0,-0.36237748745278625,0.00235217248783191,-0.19426757582600307,0.384671032024591,0.018441825558579386,0.10352131624315837,-0.2716342812693441,1.2134723514046586,-0.22032771567921886,-0.0075315716143109284,-2.6040923850745488,-0.10892356201638621,2.468145416769287,0.8264845393489163,1.2134413937687574,-0.2202432315892585,-0.0075118285948192216,-2.6038483821997875,-0.10888392708698907,2.4681821257803174,0.826474908251239,0.0005230825184425708,-0.0003174347610118344,0.0010154742206572214,0.0012911078304340062,-0.00015858811957595106,0.0003831324223952071,0.0019221876655512655,0.0,0.0,0.0,0.0,0.0,0.0,0.0,-3.0957635901218694e-05,8.448408996036827e-05,1.9743019491706877e-05,0.00024400287476122884,3.963492939713931e-05,3.670901103047797e-05,-9.63109767726511e-06,-0.0005230825184425708,0.0003174347610118344,-0.0010154742206572214,-0.0012911078304340062,0.00015858811957595106,-0.0003831324223952071,-0.0019221876655512655,0.3752071261405945,19.717248916625977,0.4228789508342743,-20.130342483520508,-0.6063743233680725,-2.4694857597351074,0.30337852239608765,0
27,0.1292250156402588,-0.3514034152030945,-19.792627334594727,-0.3713042438030243,20.181917190551758,0.5944724678993225,2.4694857597351074,-0.24112264811992645,0.0,0.0,0.0,0.0,0.0,0.0,0.0,-0.36517545570636695,-0.006215583206633497,-0.19891216543078258,0.3887070988794559,0.01833142981621476,0.10398426634011801,-0.27031769494340774,1.2134706809688032,-0.2203224259656772,-0.0075351908919973325,-2.6040960043522348,-0.10892165969536127,2.4681465163808736,0.826478092977395,1.2134413937687574,-0.2202432315892585,-0.0075118285948192216,-2.6038483821997875,-0.10888392708698907,2.4681821257803174,0.826474908251239,-0.0003512015614307769,0.0007872679495857065,-0.0003232675878956845,-0.0005189921064221304,0.0001605220207438603,7.176330427126888e-05,-0.0013144429169175756,0.0,0.0,0.0,0.0,0.0,0.0,0.0,-2.928720004580221e-05,7.919437641870641e-05,2.3362297178110975e-05,0.0002476221524472244,3.7732608372198495e-05,3.560939944380337e-05,-3.1847261560136175e-06,0.0003512015614307769,-0.0007872679495857065,0.0003232675878956845,0.0005189921064221304,-0.0001605220207438603,-7.176330427126888e-05,0.0013144429169175756,0.3514034152030945,19.792627334594727,0.3713042438030243,-20.181917190551758,-0.5944724678993225,-2.4694857597351074,0.24112264811992645,0
28,0.13423371315002441,-0.3514034152030945,-19.792627334594727,-0.3713042438030243,20.181917190551758,0.5944724678993225,2.4694857597351074,-0.24112264811992645,0.0,0.0,0.0,0.0,0.0,0.0,0.0,-0.36517545570636695,-0.006215583206633497,-0.19891216543078258,0.3887070988794559,0.01833142981621476,0.10398426634011801,-0.27031769494340774,1.2134706809688032,-0.2203224259656772,-0.0075351908919973325,-2.6040960043522348,-0.10892165969536127,2.4681465163808736,0.826478092977395,1.2134413937687574,-0.2202432315892585,-0.0075118285948192216,-2.6038483821997875,-0.10888392708698907,2.4681821257803174,0.826474908251239,-0.0003512015614307769,0.0007872679495857065,-0.0003232675878956845,-0.0005189921064221304,0.0001605220207438603,7.176330427126888e-05,-0.0013144429169175756,0.0,0.0,0.0,0.0,0.0,0.0,0.0,-2.928720004580221e-05,7.919437641870641e-05,2.3362297178110975e-05,0.0002476221524472244,3.7732608372198495e-05,3.560939944380337e-05,-3.1847261560136175e-06,0.0003512015614307769,-0.0007872679495857065,0.0003232675878956845,0.0005189921064221304,-0.0001605220207438603,-7.176330427126888e-05,0.0013144429169175756,0.3514034152030945,19.792627334594727,0.3713042438030243,-20.181917190551758,-0.5944724678993225,-2.4694857597351074,0.24112264811992645,0
29,0.13925719261169434,-0.3752071261405945,-19.768823623657227,-0.3713042438030243,20.181917190551758,0.5880637764930725,2.4823031425476074,-0.29605430364608765,0.0,0.0,0.0,0.0,0.0,0.0,0.0,-0.3660685307579722,-0.03205014205818271,-0.19872370588454522,0.42853056747143825,0.018402334264014292,0.10967312222398613,-0.2695720744837086,1.2134723514046586,-0.22032409640153247,-0.007533060336387471,-2.6040960043522348,-0.10892047900075964,2.468147316326817,0.8264841960128175,1.2134413937687574,-0.2202432315892585,-0.0075118285948192216,-2.6038483821997875,-0.10888392708698907,2.4681821257803174,0.826474908251239,0.0002540766749649654,0.0004607492969249457,-0.0007967512188665839,-0.0013564754134435368,0.00041113707334042076,-0.00039344609846882314,0.0005200784221461009,0.0,0.0,0.0,0.0,0.0,0.0,0.0,-3.0957635901218694e-05,8.086481227398412e-05,2.1231741568249543e-05,0.0002476221524472244,3.655191377056888e-05,3.4809453500539433e-05,-9.287761578491427e-06,-0.0002540766749649654,-0.0004607492969249457,0.0007967512188665839,0.0013564754134435368,-0.00041113707334042076,0.00039344609846882314,-0.0005200784221461009,0.3752071261405945,19.768823623657227,0.3713042438030243,-20.181917190551758,-0.5880637764930725,-2.4823031425476074,0.29605430364608765,0
30,0.14423465728759766,-0.3752071261405945,-19.768823623657227,-0.3713042438030243,20.181917190551758,0.5880637764930725,2.4823031425476074,-0.29605430364608765,0.0,0.0,0.0,0.0,0.0,0.0,0.0,-0.3660685307579722,-0.03205014205818271,-0.19872370588454522,0.42853056747143825,0.018402334264014292,0.10967312222398613,-0.2695720744837086,1.2134723514046586,-0.22032409640153247,-0.007533060336387471,-2.6040960043522348,-0.10892047900075964,2.468147316326817,0.8264841960128175,1.2134413937687574,-0.2202432315892585,-0.0075118285948192216,-2.6038483821997875,-0.10888392708698907,2.4681821257803174,0.826474908251239,0.0002540766749649654,0.0004607492969249457,-0.0007967512188665839,-0.0013564754134435368,0.00041113707334042076,-0.00039344609846882314,0.0005200784221461009,0.0,0.0,0.0,0.0,0.0,0.0,0.0,-3.0957635901218694e-05,8.086481227398412e-05,2.1231741568249543e-05,0.0002476221524472244,3.655191377056888e-05,3.4809453500539433e-05,-9.287761578491427e-06,-0.0002540766749649654,-0.0004607492969249457,0.0007967512188665839,0.0013564754134435368,-0.00041113707334042076,0.00039344609846882314,-0.0005200784221461009,0.3752071261405945,19.768823623657227,0.3713042438030243,-20.181917190551758,-0.5880637764930725,-2.4823031425476074,0.29605430364608765,0
31,0.14926934242248535,-0.4029781222343445,-19.745019912719727,-0.3990752398967743,20.181917190551758,0.5944724678993225,2.4758944511413574,-0.30978721380233765,0.0,0.0,0.0,0.0,0.0,0.0,0.0,-0.3999932660661651,-0.007707537241398073,-0.23217490258109152,0.38631631427485497,0.01839494239880935,0.10258376746284704,-0.270382164598282,1.2134743002464896,-0.22032576683738772,-0.007533242038139144,-2.6040960043522348,-0.10892237526768617,2.4681448222073636,0.8264857209226876,1.2134413937687574,-0.2202432315892585,-0.0075118285948192216,-2.6038483821997875,-0.10888392708698907,2.4681821257803174,0.826474908251239,0.0011825170409593998,5.25646100529114e-05,0.001077782367441238,-9.0518054613504e-05,0.0003265767970783277,-6.1781048588752e-05,0.0016582839775475381,0.0,0.0,0.0,0.0,0.0,0.0,0.0,-3.290647773224187e-05,8.253524812923407e-05,2.141344331992208e-05,0.0002476221524472244,3.844818069709266e-05,3.730357295372855e-05,-1.0812671448534594e-05,-0.0011825170409593998,-5.25646100529114e-05,-0.001077782367441238,9.0518054613504e-05,-0.0003265767970783277,6.1781048588752e-05,-0.0016582839775475381,0.4029781222343445,19.745019912719727,0.3990752398967743,-20.181917190551758,-0.5944724678993225,-2.4758944511413574,0.30978721380233765,0
32,0.1541755199432373,-0.4029781222343445,-19.745019912719727,-0.3990752398967743,20.181917190551758,0.5944724678993225,2.4758944511413574,-0.30978721380233765,0.0,0.0,0.0,0.0,0.0,0.0,0.0,-0.3999932660661651,-0.007707537241398073,-0.23217490258109152,0.38631631427485497,0.01839494239880935,0.10258376746284704,-0.270382164598282,1.2134743002464896,-0.22032576683738772,-0.007533242038139144,-2.6040960043522348,-0.10892237526768617,2.4681448222073636,0.8264857209226876,1.2134413937687574,-0.2202432315892585,-0.0075118285948192216,-2.6038483821997875,-0.10888392708698907,2.4681821257803174,0.826474908251239,0.0011825170409593998,5.25646100529114e-05,0.001077782367441238,-9.0518054613504e-05,0.0003265767970783277,-6.1781048588752e-05,0.0016582839775475381,0.0,0.0,0.0,0.0,0.0,0.0,0.0,-3.290647773224187e-05,8.253524812923407e-05,2.141344331992208e-05,0.0002476221524472244,3.844818069709266e-05,3.730357295372855e-05,-1.0812671448534594e-05,-0.0011825170409593998,-5.25646100529114e-05,-0.001077782367441238,9.0518054613504e-05,-0.0003265767970783277,6.1781048588752e-05,-0.0016582839775475381,0.4029781222343445,19.745019912719727,0.3990752398967743,-20.181917190551758,-0.5944724678993225,-2.4758944511413574,0.30978721380233765,0
33,0.15918898582458496,-0.3514034152030945,-19.717248916625977,-0.3713042438030243,20.154146194458008,0.6063743233680725,2.4630770683288574,-0.25485557317733765,0.0,0.0,0.0,0.0,0.0,0.0,0.0,-0.36073947968521186,-0.0011970066014024778,-0.1908980575087554,0.38051763633454055,0.016503349300795157,0.10219616589727416,-0.2707299310706387,1.2134706809688032,-0.22032771567921886,-0.00753519089199731,-2.6040940555104037,-0.10892569104068174,2.4681464827865893,0.8264785592224835,1.2134413937687574,-0.2202432315892585,-0.0075118285948192216,-2.6038483821997875,-0.10888392708698907,2.4681821257803174,0.826474908251239,-0.0001602530896210996,-0.00013622119986592484,-0.00028822749592610547,0.0006676501158067047,-5.3190565704848705e-05,0.00019109979247359466,-0.0006605079785177525,0.0,0.0,0.0,0.0,0.0,0.0,0.0,-2.928720004580221e-05,8.448408996036827e-05,2.3362297178088423e-05,0.00024567331061620123,4.176395369266672e-05,3.564299372804669e-05,-3.6509712444399156e-06,0.0001602530896210996,0.00013622119986592484,0.00028822749592610547,-0.0006676501158067047,5.3190565704848705e-05,-0.00019109979247359466,0.0006605079785177525,0.3514034152030945,19.717248916625977,0.3713042438030243,-20.154146194458008,-0.6063743233680725,-2.4630770683288574,0.25485557317733765,0
34,0.16422486305236816,-0.3514034152030945,-19.717248916625977,-0.3713042438030243,20.154146194458008,0.6063743233680725,2.4630770683288574,-0.25485557317733765,0.0,0.0,0.0,0.0,0.0,0.0,0.0,-0.36073947968521186,-0.0011970066014024778,-0.1908980575087554,0.38051763633454055,0.016503349300795157,0.10219616589727416,-0.2707299310706387,1.2134706809688032,-0.22032771567921886,-0.00753519089199731,-2.6040940555104037,-0.10892569104068174,2.4681464827865893,0.8264785592224835,1.2134413937687574,-0.2202432315892585,-0.0075118285948192216,-2.6038483821997875,-0.10888392708698907,2.4681821257803174,0.826474908251239,-0.0001602530896210996,-0.00013622119986592484,-0.00028822749592610547,0.0006676501158067047,-5.3190565704848705e-05,0.00019109979247359466,-0.0006605079785177525,0.0,0.0,0.0,0.0,0.0,0.0,0.0,-2.928720004580221e-05,8.448408996036827e-05,2.3362297178088423e-05,0.00024567331061620123,4.176395369266672e-05,3.564299372804669e-05,-3.6509712444399156e-06,0.0001602530896210996,0.00013622119986592484,0.00028822749592610547,-0.0006676501158067047,5.3190565704848705e-05,-0.00019109979247359466,0.0006605079785177525,0.3514034152030945,19.717248916625977,0.3713042438030243,-20.154146194458008,-0.6063743233680725,-2.4630770683288574,0.25485557317733765,0
35,0.16922330856323242,-0.3514034152030945,-19.717248916625977,-0.3713042438030243,20.154146194458008,0.6063743233680725,2.4630770683288574,-0.25485557317733765,0.0,0.0,0.0,0.0,0.0,0.0,0.0,-0.36073947968521186,-0.0011970066014024778,-0.1908980575087554,0.38051763633454055,0.016503349300795157,0.10219616589727416,-0.2707299310706387,1.2134706809688032,-0.22032771567921886,-0.00753519089199731,-2.6040940555104037,-0.10892569104068174,2.4681464827865893,0.8264785592224835,1.2134413937687574,-0.2202432315892585,-0.0075118285948192216,-2.6038483821997875,-0.10888392708698907,2.4681821257803174,0.826474908251239,-0.0001602530896210996,-0.00013622119986592484,-0.00028822749592610547,0.0006676501158067047,-5.3190565704848705e-05,0.00019109979247359466,-0.0006605079785177525,0.0,0.0,0.0,0.0,0.0,0.0,0.0,-2.928720004580221e-05,8.448408996036827e-05,2.3362297178088423e-05,0.00024567331061620123,4.176395369266672e-05,3.564299372804669e-05,-3.6509712444399156e-06,0.0001602530896210996,0.00013622119986592484,0.00028822749592610547,-0.0006676501158067047,5.3190565704848705e-05,-0.00019109979247359466,0.0006605079785177525,0.3514034152030945,19.717248916625977,0.3713042438030243,-20.154146194458008,-0.6063743233680725,-2.4630770683288574,0.25485557317733765,0
36,0.17423510551452637,-0.3514034152030945,-19.717248916625977,-0.3713042438030243,20.154146194458008,0.6063743233680725,2.4630770683288574,-0.25485557317733765,0.0,0.0,0.0,0.0,0.0,0.0,0.0,-0.36073947968521186,-0.0011970066014024778,-0.1908980575087554,0.38051763633454055,0.016503349300795157,0.10219616589727416,-0.2707299310706387,1.2134706809688032,-0.22032771567921886,-0.00753519089199731,-2.6040940555104037,-0.10892569104068174,2.4681464827865893,0.8264785592224835,1.2134413937687574,-0.2202432315892585,-0.0075118285948192216,-2.6038483821997875,-0.10888392708698907,2.4681821257803174,0.826474908251239,-0.0001602530896210996,-0.00013622119986592484,-0.00028822749592610547,0.0006676501158067047,-5.3190565704848705e-05,0.00019109979247359466,-0.0006605079785177525,0.0,0.0,0.0,0.0,0.0,0.0,0.0,-2.928720004580221e-05,8.448408996036827e-05,2.3362297178088423e-05,0.00024567331061620123,4.176395369266672e-05,3.564299372804669e-05,-3.6509712444399156e-06,0.0001602530896210996,0.00013622119986592484,0.00028822749592610547,-0.0006676501158067047,5.3190565704848705e-05,-0.00019109979247359466,0.0006605079785177525,0.3514034152030945,19.717248916625977,0.3713042438030243,-20.154146194458008,-0.6063743233680725,-2.4630770683288574,0.25485557317733765,0
37,0.17996001243591309,-0.3514034152030945,-19.717248916625977,-0.3713042438030243,20.154146194458008,0.6063743233680725,2.4758944511413574,-0.28964561223983765,0.0,0.0,0.0,0.0,0.0,0.0,0.0,-0.35448915615046384,0.0015701177694902705,-0.18613045508599096,0.38279053428257115,0.01639184972434453,0.10183256743736258,-0.27110266794636523,1.2134706809688032,-0.22032771567921886,-0.0075351908919973325,-2.6040940555104037,-0.10892254126817139,2.4681482797021177,0.8264834839300129,1.2134413937687574,-0.2202432315892585,-0.0075118285948192216,-2.6038483821997875,-0.10888392708698907,2.4681821257803174,0.826474908251239,-0.00019831964059200497,4.338575951367689e-05,-0.0004634044006782795,-0.00011494569965597388,-0.00016623726149851882,7.518686229537056e-05,0.0007216898310362899,0.0,0.0,0.0,0.0,0.0,0.0,0.0,-2.928720004580221e-05,8.448408996036827e-05,2.3362297178110975e-05,0.00024567331061620123,3.8614181182311524e-05,3.3846078199673e-05,-8.575678773881101e-06,0.00019831964059200497,-4.338575951367689e-05,0.0004634044006782795,0.00011494569965597388,0.00016623726149851882,-7.518686229537056e-05,-0.0007216898310362899,0.3514034152030945,19.717248916625977,0.3713042438030243,-20.154146194458008,-0.6063743233680725,-2.4758944511413574,0.28964561223983765,0
38,0.1842491626739502,-0.3514034152030945,-19.717248916625977,-0.3713042438030243,20.154146194458008,0.6063743233680725,2.4758944511413574,-0.28964561223983765,0.0,0.0,0.0,0.0,0.0,0.0,0.0,-0.35448915615046384,0.0015701177694902705,-0.18613045508599096,0.38279053428257115,0.01639184972434453,0.10183256743736258,-0.27110266794636523,1.2134706809688032,-0.22032771567921886,-0.0075351908919973325,-2.6040940555104037,-0.10892254126817139,2.4681482797021177,0.8264834839300129,1.2134413937687574,-0.2202432315892585,-0.0075118285948192216,-2.6038483821997875,-0.10888392708698907,2.4681821257803174,0.826474908251239,-0.00019831964059200497,4.338575951367689e-05,-0.0004634044006782795,-0.00011494569965597388,-0.00016623726149851882,7.518686229537056e-05,0.0007216898310362899,0.0,0.0,0.0,0.0,0.0,0.0,0.0,-2.928720004580221e-05,8.448408996036827e-05,2.3362297178110975e-05,0.00024567331061620123,3.8614181182311524e-05,3.3846078199673e-05,-8.575678773881101e-06,0.00019831964059200497,-4.338575951367689e-05,0.0004634044006782795,0.00011494569965597388,0.00016623726149851882,-7.518686229537056e-05,-0.0007216898310362899,0.3514034152030945,19.717248916625977,0.3713042438030243,-20.154146194458008,-0.6063743233680725,-2.4758944511413574,0.28964561223983765,0
39,0.1891765594482422,-0.4029781222343445,-19.745019912719727,-0.3990752398967743,20.154146194458008,0.6063743233680725,2.4758944511413574,-0.25485557317733765,0.0,0.0,0.0,0.0,0.0,0.0,0.0,-0.35569551768331875,-0.001474303686267109,-0.18940573443664527,0.3908130941839804,0.01718678562858311,0.10388559364189744,-0.27177028650827156,1.2134742914161718,-0.22032577558594327,-0.007533242050166192,-2.6040940555104037,-0.10892581003127987,2.468148275898002,0.8264763963397174,1.2134413937687574,-0.2202432315892585,-0.0075118285948192216,-2.6038483821997875,-0.10888392708698907,2.4681821257803174,0.826474908251239,0.0011071019239944817,1.060074873675998e-05,-0.00024431143538706954,1.3968087860432797e-05,-0.00011022277868443421,2.576320489934254e-05,-0.0011334759684818291,0.0,0.0,0.0,0.0,0.0,0.0,0.0,-3.2897647414431574e-05,8.254399668478074e-05,2.1413455346970707e-05,0.00024567331061620123,4.1882944290791424e-05,3.384988231536212e-05,-1.4880884783297077e-06,-0.0011071019239944817,-1.060074873675998e-05,0.00024431143538706954,-1.3968087860432797e-05,0.00011022277868443421,-2.576320489934254e-05,0.0011334759684818291,0.4029781222343445,19.745019912719727,0.3990752398967743,-20.154146194458008,-0.6063743233680725,-2.4758944511413574,0.25485557317733765,0
40,0.19417119026184082,-0.4029781222343445,-19.745019912719727,-0.3990752398967743,20.154146194458008,0.6063743233680725,2.4758944511413574,-0.25485557317733765,0.0,0.0,0.0,0.0,0.0,0.0,0.0,-0.35569551768331875,-0.001474303686267109,-0.18940573443664527,0.3908130941839804,0.01718678562858311,0.10388559364189744,-0.27177028650827156,1.2134742914161718,-0.22032577558594327,-0.007533242050166192,-2.6040940555104037,-0.10892581003127987,2.468148275898002,0.8264763963397174,1.2134413937687574,-0.2202432315892585,-0.0075118285948192216,-2.6038483821997875,-0.10888392708698907,2.4681821257803174,0.826474908251239,0.0011071019239944817,1.060074873675998e-05,-0.00024431143538706954,1.3968087860432797e-05,-0.00011022277868443421,2.576320489934254e-05,-0.0011334759684818291,0.0,0.0,0.0,0.0,0.0,0.0,0.0,-3.2897647414431574e-05,8.254399668478074e-05,2.1413455346970707e-05,0.00024567331061620123,4.1882944290791424e-05,3.384988231536212e-05,-1.4880884783297077e-06,-0.0011071019239944817,-1.060074873675998e-05,0.00024431143538706954,-1.3968087860432797e-05,0.00011022277868443421,-2.576320489934254e-05,0.0011334759684818291,0.4029781222343445,19.745019912719727,0.3990752398967743,-20.154146194458008,-0.6063743233680725,-2.4758944511413574,0.25485557317733765,0
41,0.19924426078796387,-0.3752071261405945,-19.745019912719727,-0.4466826617717743,20.181917190551758,0.5999656319618225,2.4758944511413574,-0.23471395671367645,0.0,0.0,0.0,0.0,0.0,0.0,0.0,-0.36108911881054545,0.0005249857964624468,-0.19318187571640805,0.3940551620084526,0.017861088835347604,0.10459371384309352,-0.2727269802358135,1.2134723514046089,-0.22032579308310374,-0.0075299011784556655,-2.6040960043522348,-0.10892190642903694,2.4681489832385983,0.8264770231501734,1.2134413937687574,-0.2202432315892585,-0.0075118285948192216,-2.6038483821997875,-0.10888392708698907,2.4681821257803174,0.826474908251239,-9.094116931891002e-05,-2.692170739262797e-05,0.0007481015959562999,-6.495507225163353e-05,0.00024627859850055153,0.0002216222285075419,-0.0015234755224832952,0.0,0.0,0.0,0.0,0.0,0.0,0.0,-3.09576358514807e-05,8.256149384525124e-05,1.8072583636443915e-05,0.0002476221524472244,3.797934204786968e-05,3.3142541719044516e-05,-2.1148989343133806e-06,9.094116931891002e-05,2.692170739262797e-05,-0.0007481015959562999,6.495507225163353e-05,-0.00024627859850055153,-0.0002216222285075419,0.0015234755224832952,0.3752071261405945,19.745019912719727,0.4466826617717743,-20.181917190551758,-0.5999656319618225,-2.4758944511413574,0.23471395671367645,0
42,0.2042219638824463,-0.3752071261405945,-19.745019912719727,-0.4466826617717743,20.181917190551758,0.5999656319618225,2.4758944511413574,-0.23471395671367645,0.0,0.0,0.0,0.0,0.0,0.0,0.0,-0.36108911881054545,0.0005249857964624468,-0.19318187571640805,0.3940551620084526,0.017861088835347604,0.10459371384309352,-0.2727269802358135,1.2134723514046089,-0.22032579308310374,-0.0075299011784556655,-2.6040960043522348,-0.10892190642903694,2.4681489832385983,0.8264770231501734,1.2134413937687574,-0.2202432315892585,-0.0075118285948192216,-2.6038483821997875,-0.10888392708698907,2.4681821257803174,0.826474908251239,-9.094116931891002e-05,-2.692170739262797e-05,0.0007481015959562999,-6.495507225163353e-05,0.00024627859850055153,0.0002216222285075419,-0.0015234755224832952,0.0,0.0,0.0,0.0,0.0,0.0,0.0,-3.09576358514807e-05,8.256149384525124e-05,1.8072583636443915e-05,0.0002476221524472244,3.797934204786968e-05,3.3142541719044516e-05,-2.1148989343133806e-06,9.094116931891002e-05,2.692170739262797e-05,-0.0007481015959562999,6.495507225163353e-05,-0.00024627859850055153,-0.0002216222285075419,0.0015234755224832952,0.3752071261405945,19.745019912719727,0.4466826617717743,-20.181917190551758,-0.5999656319618225,-2.4758944511413574,0.23471395671367645,0
43,0.2092270851135254,-0.3752071261405945,-19.792627334594727,-0.3713042438030243,20.181917190551758,0.6118674874305725,2.4823031425476074,-0.25485557317733765,0.0,0.0,0.0,0.0,0.0,0.0,0.0,-0.3643376036719015,-0.0059104252999492785,-0.19673445757806263,0.39615439674051617,0.01846035130706014,0.10571014886643598,-0.27253015516210527,1.2134723514046586,-0.22032242596582535,-0.007535164588841656,-2.6040960040372987,-0.10892631453394935,2.468148589547107,0.8264796188047607,1.2134413937687574,-0.2202432315892585,-0.0075118285948192216,-2.6038483821997875,-0.10888392708698907,2.4681821257803174,0.826474908251239,-0.0003373083083287987,0.0006034132643546226,-0.0007167418069435487,7.874736550249366e-05,-0.00032495713256980806,-0.00016663078251058142,-0.00046354845815053936,0.0,0.0,0.0,0.0,0.0,0.0,0.0,-3.0957635901218694e-05,7.919437656686568e-05,2.3335994022434005e-05,0.0002476218375111472,4.2387446960279185e-05,3.353623321045163e-05,-4.710553521691807e-06,0.0003373083083287987,-0.0006034132643546226,0.0007167418069435487,-7.874736550249366e-05,0.00032495713256980806,0.00016663078251058142,0.00046354845815053936,0.3752071261405945,19.792627334594727,0.3713042438030243,-20.181917190551758,-0.6118674874305725,-2.4823031425476074,0.25485557317733765,0
44,0.21422958374023438,-0.3752071261405945,-19.792627334594727,-0.3713042438030243,20.181917190551758,0.6118674874305725,2.4823031425476074,-0.25485557317733765,0.0,0.0,0.0,0.0,0.0,0.0,0.0,-0.3643376036719015,-0.0059104252999492785,-0.19673445757806263,0.39615439674051617,0.01846035130706014,0.10571014886643598,-0.27253015516210527,1.2134723514046586,-0.22032242596582535,-0.007535164588841656,-2.6040960040372987,-0.10892631453394935,2.468148589547107,0.8264796188047607,1.2134413937687574,-0.2202432315892585,-0.0075118285948192216,-2.6038483821997875,-0.10888392708698907,2.4681821257803174,0.826474908251239,-0.0003373083083287987,0.0006034132643546226,-0.0007167418069435487,7.874736550249366e-05,-0.00032495713256980806,-0.00016663078251058142,-0.00046354845815053936,0.0,0.0,0.0,0.0,0.0,0.0,0.0,-3.0957635901218694e-05,7.919437656686568e-05,2.3335994022434005e-05,0.0002476218375111472,4.2387446960279185e-05,3.353623321045163e-05,-4.710553521691807e-06,0.0003373083083287987,-0.0006034132643546226,0.0007167418069435487,-7.874736550249366e-05,0.00032495713256980806,0.00016663078251058142,0.00046354845815053936,0.3752071261405945,19.792627334594727,0.3713042438030243,-20.181917190551758,-0.6118674874305725,-2.4823031425476074,0.25485557317733765,0
45,0.21923351287841797,-0.3752071261405945,-19.768823623657227,-0.3713042438030243,20.181917190551758,0.6063743233680725,2.4694857597351074,-0.27591270208358765,0.0,0.0,0.0,0.0,0.0,0.0,0.0,-0.36799275059476527,-0.004374425070158598,-0.19790857185663255,0.3892019280655162,0.018854658747757665,0.1048923584510635,-0.27199086967700997,1.2134723514046586,-0.22032409640153247,-0.007535190891848851,-2.604096004352233,-0.10892373584580353,2.468145562070334,0.826481954180954,1.2134413937687574,-0.2202432315892585,-0.0075118285948192216,-2.6038483821997875,-0.10888392708698907,2.4681821257803174,0.826474908251239,0.0005473771136679557,0.0002573948198710354,-0.0011030555634784045,-0.0007426260937365772,-0.0001307108475203083,0.0003557620742537836,0.00026735324552533906,0.0,0.0,0.0,0.0,0.0,0.0,0.0,-3.0957635901218694e-05,8.086481227398412e-05,2.3362297029629053e-05,0.00024762215244544805,3.9808758814458e-05,3.656370998328384e-05,-7.045929715010502e-06,-0.0005473771136679557,-0.0002573948198710354,0.0011030555634784045,0.0007426260937365772,0.0001307108475203083,-0.0003557620742537836,-0.00026735324552533906,0.3752071261405945,19.768823623657227,0.3713042438030243,-20.181917190551758,-0.6063743233680725,-2.4694857597351074,0.27591270208358765,0
46,0.2242269515991211,-0.3752071261405945,-19.768823623657227,-0.3713042438030243,20.181917190551758,0.6063743233680725,2.4694857597351074,-0.27591270208358765,0.0,0.0,0.0,0.0,0.0,0.0,0.0,-0.36799275059476527,-0.004374425070158598,-0.19790857185663255,0.3892019280655162,0.018854658747757665,0.1048923584510635,-0.27199086967700997,1.2134723514046586,-0.22032409640153247,-0.007535190891848851,-2.604096004352233,-0.10892373584580353,2.468145562070334,0.826481954180954,1.2134413937687574,-0.2202432315892585,-0.0075118285948192216,-2.6038483821997875,-0.10888392708698907,2.4681821257803174,0.826474908251239,0.0005473771136679557,0.0002573948198710354,-0.0011030555634784045,-0.0007426260937365772,-0.0001307108475203083,0.0003557620742537836,0.00026735324552533906,0.0,0.0,0.0,0.0,0.0,0.0,0.0,-3.0957635901218694e-05,8.086481227398412e-05,2.3362297029629053e-05,0.00024762215244544805,3.9808758814458e-05,3.656370998328384e-05,-7.045929715010502e-06,-0.0005473771136679557,-0.0002573948198710354,0.0011030555634784045,0.0007426260937365772,0.0001307108475203083,-0.0003557620742537836,-0.00026735324552533906,0.3752071261405945,19.768823623657227,0.3713042438030243,-20.181917190551758,-0.6063743233680725,-2.4694857597351074,0.27591270208358765,0
47,0.229231595993042,-0.3752071261405945,-19.768823623657227,-0.3713042438030243,20.154146194458008,0.5999656319618225,2.4887118339538574,-0.24844686686992645,0.0,0.0,0.0,0.0,0.0,0.0,0.0,-0.39943147285436065,-0.011759715820864882,-0.2332393965230929,0.3981947398730676,0.02048209894467527,0.10555568248291446,-0.27144685705438987,1.2134723514046586,-0.22032409640153247,-0.007535190891997332,-2.604094047007135,-0.10892621449042834,2.468146607151707,0.8264778470901477,1.2134413937687574,-0.2202432315892585,-0.0075118285948192216,-2.6038483821997875,-0.10888392708698907,2.4681821257803174,0.826474908251239,0.000632137006549288,0.00027884357256273775,0.0014060207729522365,0.000778248830701161,0.00019473205786635578,-0.0003756356070749806,-0.0009171031353897732,0.0,0.0,0.0,0.0,0.0,0.0,0.0,-3.0957635901218694e-05,8.086481227398412e-05,2.3362297178110107e-05,0.00024566480734744545,4.2287403439270066e-05,3.5518628610287095e-05,-2.9388389086726363e-06,-0.000632137006549288,-0.00027884357256273775,-0.0014060207729522365,-0.000778248830701161,-0.00019473205786635578,0.0003756356070749806,0.0009171031353897732,0.3752071261405945,19.768823623657227,0.3713042438030243,-20.154146194458008,-0.5999656319618225,-2.4887118339538574,0.24844686686992645,0
48,0.23423457145690918,-0.3752071261405945,-19.768823623657227,-0.3713042438030243,20.154146194458008,0.5999656319618225,2.4887118339538574,-0.24844686686992645,0.0,0.0,0.0,0.0,0.0,0.0,0.0,-0.39943147285436065,-0.011759715820864882,-0.2332393965230929,0.3981947398730676,0.02048209894467527,0.10555568248291446,-0.27144685705438987,1.2134723514046586,-0.22032409640153247,-0.007535190891997332,-2.604094047007135,-0.10892621449042834,2.468146607151707,0.8264778470901477,1.2134413937687574,-0.2202432315892585,-0.0075118285948192216,-2.6038483821997875,-0.10888392708698907,2.4681821257803174,0.826474908251239,0.000632137006549288,0.00027884357256273775,0.0014060207729522365,0.000778248830701161,0.00019473205786635578,-0.0003756356070749806,-0.0009171031353897732,0.0,0.0,0.0,0.0,0.0,0.0,0.0,-3.0957635901218694e-05,8.086481227398412e-05,2.3362297178110107e-05,0.00024566480734744545,4.2287403439270066e-05,3.5518628610287095e-05,-2.9388389086726363e-06,-0.000632137006549288,-0.00027884357256273775,-0.0014060207729522365,-0.000778248830701161,-0.00019473205786635578,0.0003756356070749806,0.0009171031353897732,0.3752071261405945,19.768823623657227,0.3713042438030243,-20.154146194458008,-0.5999656319618225,-2.4887118339538574,0.24844686686992645,0
49,0.23924756050109863,-0.3514034152030945,-19.717248916625977,-0.3713042438030243,20.154146194458008,0.5999656319618225,2.4694857597351074,-0.30978721380233765,0.0,0.0,0.0,0.0,0.0,0.0,0.0,-0.37225618169551644,-0.006327433633677803,-0.20351294054363156,0.3947234046215815,0.01912807829491544,0.1054472327369482,-0.27226469839008544,1.2134706809688032,-0.22032771567921886,-0.0075351908919973325,-2.6040940555103558,-0.1089221916930615,2.468148597129912,0.8264857218319066,1.2134413937687574,-0.2202432315892585,-0.0075118285948192216,-2.6038483821997875,-0.10888392708698907,2.4681821257803174,0.826474908251239,-1.7636443517021813e-05,-7.811652498146453e-05,7.725016027524068e-05,0.0005467881075978874,0.00014858311157088633,0.00023831818728256072,0.0016233833828160965,0.0,0.0,0.0,0.0,0.0,0.0,0.0,-2.928720004580221e-05,8.448408996036827e-05,2.3362297178110975e-05,0.0002456733105682396,3.8264606072424545e-05,3.3528650405401095e-05,-1.081358066756799e-05,1.7636443517021813e-05,7.811652498146453e-05,-7.725016027524068e-05,-0.0005467881075978874,-0.00014858311157088633,-0.00023831818728256072,-0.0016233833828160965,0.3514034152030945,19.717248916625977,0.3713042438030243,-20.154146194458008,-0.5999656319618225,-2.4694857597351074,0.30978721380233765,0
50,0.24424457550048828,-0.3514034152030945,-19.717248916625977,-0.3713042438030243,20.154146194458008,0.5999656319618225,2.4694857597351074,-0.30978721380233765,0.0,0.0,0.0,0.0,0.0,0.0,0.0,-0.37225618169551644,-0.006327433633677803,-0.20351294054363156,0.3947234046215815,0.01912807829491544,0.1054472327369482,-0.27226469839008544,1.2134706809688032,-0.22032771567921886,-0.0075351908919973325,-2.6040940555103558,-0.1089221916930615,2.468148597129912,0.8264857218319066,1.2134413937687574,-0.2202432315892585,-0.0075118285948192216,-2.6038483821997875,-0.10888392708698907,2.4681821257803174,0.826474908251239,-1.7636443517021813e-05,-7.811652498146453e-05,7.725016027524068e-05,0.0005467881075978874,0.00014858311157088633,0.00023831818728256072,0.0016233833828160965,0.0,0.0,0.0,0.0,0.0,0.0,0.0,-2.928720004580221e-05,8.448408996036827e-05,2.3362297178110975e-05,0.0002456733105682396,3.8264606072424545e-05,3.3528650405401095e-05,-1.081358066756799e-05,1.7636443517021813e-05,7.811652498146453e-05,-7.725016027524068e-05,-0.0005467881075978874,-0.00014858311157088633,-0.00023831818728256072,-0.0016233833828160965,0.3514034152030945,19.717248916625977,0.3713042438030243,-20.154146194458008,-0.5999656319618225,-2.4694857597351074,0.30978721380233765,0
51,0.249253511428833,-0.3236324191093445,-19.745019912719727,-0.3990752398967743,20.154146194458008,0.5999656319618225,2.4823031425476074,-0.24844686686992645,0.0,0.0,0.0,0.0,0.0,0.0,0.0,-0.3581859349671512,-0.009969284431717452,-0.1847479520203086,0.3969655493454826,0.018190744824771427,0.10572903872310034,-0.2743335619579845,1.2134687321269721,-0.2203257697535729,-0.007533242050166192,-2.6040940555104037,-0.1089229716105592,2.468147646606098,0.826478395078615,1.2134413937687574,-0.2202432315892585,-0.0075118285948192216,-2.6038483821997875,-0.10888392708698907,2.4681821257803174,0.826474908251239,-0.001320579249168334,0.0002263193840715257,0.0004655726178496771,0.00029165779644203436,-0.00011975982218770257,-0.0002951142980830635,-0.0010284299749556004,0.0,0.0,0.0,0.0,0.0,0.0,0.0,-2.7338358214779035e-05,8.25381643144163e-05,2.1413455346970707e-05,0.00024567331061620123,3.904452357011978e-05,3.4479174219281816e-05,-3.486827375942525e-06,0.001320579249168334,-0.0002263193840715257,-0.0004655726178496771,-0.00029165779644203436,0.00011975982218770257,0.0002951142980830635,0.0010284299749556004,0.3236324191093445,19.745019912719727,0.3990752398967743,-20.154146194458008,-0.5999656319618225,-2.4823031425476074,0.24844686686992645,0
52,0.2542273998260498,-0.3236324191093445,-19.745019912719727,-0.3990752398967743,20.154146194458008,0.5999656319618225,2.4823031425476074,-0.24844686686992645,0.0,0.0,0.0,0.0,0.0,0.0,0.0,-0.3581859349671512,-0.009969284431717452,-0.1847479520203086,0.3969655493454826,0.018190744824771427,0.10572903872310034,-0.2743335619579845,1.2134687321269721,-0.2203257697535729,-0.007533242050166192,-2.6040940555104037,-0.1089229716105592,2.468147646606098,0.826478395078615,1.2134413937687574,-0.2202432315892585,-0.0075118285948192216,-2.6038483821997875,-0.10888392708698907,2.4681821257803174,0.826474908251239,-0.001320579249168334,0.0002263193840715257,0.0004655726178496771,0.00029165779644203436,-0.00011975982218770257,-0.0002951142980830635,-0.0010284299749556004,0.0,0.0,0.0,0.0,0.0,0.0,0.0,-2.7338358214779035e-05,8.25381643144163e-05,2.1413455346970707e-05,0.00024567331061620123,3.904452357011978e-05,3.4479174219281816e-05,-3.486827375942525e-06,0.001320579249168334,-0.0002263193840715257,-0.0004655726178496771,-0.00029165779644203436,0.00011975982218770257,0.0002951142980830635,0.0010284299749556004,0.3236324191093445,19.745019912719727,0.3990752398967743,-20.154146194458008,-0.5999656319618225,-2.4823031425476074,0.24844686686992645,0
53,0.25922203063964844,-0.3236324191093445,-19.745019912719727,-0.3990752398967743,20.154146194458008,0.5999656319618225,2.4823031425476074,-0.24844686686992645,0.0,0.0,0.0,0.0,0.0,0.0,0.0,-0.3581859349671512,-0.009969284431717452,-0.1847479520203086,0.3969655493454826,0.018190744824771427,0.10572903872310034,-0.2743335619579845,1.2134687321269721,-0.2203257697535729,-0.007533242050166192,-2.6040940555104037,-0.1089229716105592,2.468147646606098,0.826478395078615,1.2134413937687574,-0.2202432315892585,-0.0075118285948192216,-2.6038483821997875,-0.10888392708698907,2.4681821257803174,0.826474908251239,-0.001320579249168334,0.0002263193840715257,0.0004655726178496771,0.00029165779644203436,-0.00011975982218770257,-0.0002951142980830635,-0.0010284299749556004,0.0,0.0,0.0,0.0,0.0,0.0,0.0,-2.7338358214779035e-05,8.25381643144163e-05,2.1413455346970707e-05,0.00024567331061620123,3.904452357011978e-05,3.4479174219281816e-05,-3.486827375942525e-06,0.001320579249168334,-0.0002263193840715257,-0.0004655726178496771,-0.00029165779644203436,0.00011975982218770257,0.0002951142980830635,0.0010284299749556004,0.3236324191093445,19.745019912719727,0.3990752398967743,-20.154146194458008,-0.5999656319618225,-2.4823031425476074,0.24844686686992645,0
54,0.26418328285217285,-0.3236324191093445,-19.745019912719727,-0.3990752398967743,20.154146194458008,0.5999656319618225,2.4823031425476074,-0.24844686686992645,0.0,0.0,0.0,0.0,0.0,0.0,0.0,-0.3581859349671512,-0.009969284431717452,-0.1847479520203086,0.3969655493454826,0.018190744824771427,0.10572903872310034,-0.2743335619579845,1.2134687321269721,-0.2203257697535729,-0.007533242050166192,-2.6040940555104037,-0.1089229716105592,2.468147646606098,0.826478395078615,1.2134413937687574,-0.2202432315892585,-0.0075118285948192216,-2.6038483821997875,-0.10888392708698907,2.4681821257803174,0.826474908251239,-0.001320579249168334,0.0002263193840715257,0.0004655726178496771,0.00029165779644203436,-0.00011975982218770257,-0.0002951142980830635,-0.0010284299749556004,0.0,0.0,0.0,0.0,0.0,0.0,0.0,-2.7338358214779035e-05,8.25381643144163e-05,2.1413455346970707e-05,0.00024567331061620123,3.904452357011978e-05,3.4479174219281816e-05,-3.486827375942525e-06,0.001320579249168334,-0.0002263193840715257,-0.0004655726178496771,-0.00029165779644203436,0.00011975982218770257,0.0002951142980830635,0.0010284299749556004,0.3236324191093445,19.745019912719727,0.3990752398967743,-20.154146194458008,-0.5999656319618225,-2.4823031425476074,0.24844686686992645,0
55,0.26923680305480957,-0.3752071261405945,-19.717248916625977,-0.3713042438030243,20.181917190551758,0.5944724678993225,2.4823031425476074,-0.26858848333358765,0.0,0.0,0.0,0.0,0.0,0.0,0.0,-0.36245031195027866,-0.009755985737693469,-0.188278723145717,0.40072659279683776,0.017799217620185645,0.10619953402308686,-0.2739940529398026,1.2134723514046586,-0.22032771665129705,-0.0075351908919973325,-2.6040960043522348,-0.1089223698655372,2.468148219534291,0.8264807915239234,1.2134413937687574,-0.2202432315892585,-0.0075118285948192216,-2.6038483821997875,-0.10888392708698907,2.4681821257803174,0.826474908251239,-2.4753480288638747e-05,-0.0005787644461365075,-0.00046275110651117126,1.6276350347682395e-05,0.0003358764371159216,-1.6383376461504814e-05,0.00028020915314656066,0.0,0.0,0.0,0.0,0.0,0.0,0.0,-3.0957635901218694e-05,8.448506203856398e-05,2.3362297178110975e-05,0.0002476221524472244,3.844277854812839e-05,3.3906246026393916e-05,-5.8832726843593974e-06,2.4753480288638747e-05,0.0005787644461365075,0.00046275110651117126,-1.6276350347682395e-05,-0.0003358764371159216,1.6383376461504814e-05,-0.00028020915314656066,0.3752071261405945,19.717248916625977,0.3713042438030243,-20.181917190551758,-0.5944724678993225,-2.4823031425476074,0.26858848333358765,0
56,0.2742171287536621,-0.3752071261405945,-19.717248916625977,-0.3713042438030243,20.181917190551758,0.5944724678993225,2.4823031425476074,-0.26858848333358765,0.0,0.0,0.0,0.0,0.0,0.0,0.0,-0.36245031195027866,-0.009755985737693469,-0.188278723145717,0.40072659279683776,0.017799217620185645,0.10619953402308686,-0.2739940529398026,1.2134723514046586,-0.22032771665129705,-0.0075351908919973325,-2.6040960043522348,-0.1089223698655372,2.468148219534291,0.8264807915239234,1.2134413937687574,-0.2202432315892585,-0.0075118285948192216,-2.6038483821997875,-0.10888392708698907,2.4681821257803174,0.826474908251239,-2.4753480288638747e-05,-0.0005787644461365075,-0.00046275110651117126,1.6276350347682395e-05,0.0003358764371159216,-1.6383376461504814e-05,0.00028020915314656066,0.0,0.0,0.0,0.0,0.0,0.0,0.0,-3.0957635901218694e-05,8.448506203856398e-05,2.3362297178110975e-05,0.0002476221524472244,3.844277854812839e-05,3.3906246026393916e-05,-5.8832726843593974e-06,2.4753480288638747e-05,0.0005787644461365075,0.00046275110651117126,-1.6276350347682395e-05,-0.0003358764371159216,1.6383376461504814e-05,-0.00028020915314656066,0.3752071261405945,19.717248916625977,0.3713042438030243,-20.181917190551758,-0.5944724678993225,-2.4823031425476074,0.26858848333358765,0
57,0.27922487258911133,-0.3514034152030945,-19.792627334594727,-0.4228789508342743,20.130342483520508,0.6063743233680725,2.4758944511413574,-0.29605430364608765,0.0,0.0,0.0,0.0,0.0,0.0,0.0,-0.36368414255822834,-0.005830161037156893,-0.1915206945833997,0.39589224485432245,0.017250359563306367,0.10526449099896114,-0.27272588686106375,1.2134706809688032,-0.2203224259656827,-0.0075315716143109284,-2.6040923850745488,-0.10892620417373075,2.46814945440792,0.8264810174194468,1.2134413937687574,-0.2202432315892585,-0.0075118285948192216,-2.6038483821997875,-0.10888392708698907,2.4681821257803174,0.826474908251239,-0.00047494693544916205,0.0011604759732952912,0.00026445975949582,0.000700085773118988,-9.294792104459343e-05,1.3537848201026596e-05,0.00125172127642464,0.0,0.0,0.0,0.0,0.0,0.0,0.0,-2.928720004580221e-05,7.919437642420202e-05,1.9743019491706877e-05,0.00024400287476122884,4.227708674167663e-05,3.267137239726381e-05,-6.1091682077574205e-06,0.00047494693544916205,-0.0011604759732952912,-0.00026445975949582,-0.000700085773118988,9.294792104459343e-05,-1.3537848201026596e-05,-0.00125172127642464,0.3514034152030945,19.792627334594727,0.4228789508342743,-20.130342483520508,-0.6063743233680725,-2.4758944511413574,0.29605430364608765,0
58,0.2842247486114502,-0.3514034152030945,-19.792627334594727,-0.4228789508342743,20.130342483520508,0.6063743233680725,2.4758944511413574,-0.29605430364608765,0.0,0.0,0.0,0.0,0.0,0.0,0.0,-0.36368414255822834,-0.005830161037156893,-0.1915206945833997,0.39589224485432245,0.017250359563306367,0.10526449099896114,-0.27272588686106375,1.2134706809688032,-0.2203224259656827,-0.0075315716143109284,-2.6040923850745488,-0.10892620417373075,2.46814945440792,0.8264810174194468,1.2134413937687574,-0.2202432315892585,-0.0075118285948192216,-2.6038483821997875,-0.10888392708698907,2.4681821257803174,0.826474908251239,-0.00047494693544916205,0.0011604759732952912,0.00026445975949582,0.000700085773118988,-9.294792104459343e-05,1.3537848201026596e-05,0.00125172127642464,0.0,0.0,0.0,0.0,0.0,0.0,0.0,-2.928720004580221e-05,7.919437642420202e-05,1.9743019491706877e-05,0.00024400287476122884,4.227708674167663e-05,3.267137239726381e-05,-6.1091682077574205e-06,0.00047494693544916205,-0.0011604759732952912,-0.00026445975949582,-0.000700085773118988,9.294792104459343e-05,-1.3537848201026596e-05,-0.00125172127642464,0.3514034152030945,19.792627334594727,0.4228789508342743,-20.130342483520508,-0.6063743233680725,-2.4758944511413574,0.29605430364608765,0
59,0.28925299644470215,-0.3514034152030945,-19.792627334594727,-0.3475005328655243,20.154146194458008,0.5999656319618225,2.4566683769226074,-0.30337852239608765,0.0,0.0,0.0,0.0,0.0,0.0,0.0,-0.361700562953654,-0.012628883855432536,-0.1935935353238279,0.4021263199442247,0.01764941133265649,0.10594197364858284,-0.2724741419928641,1.2134706809688032,-0.2203224259656772,-0.0075368613278525955,-2.6040940555104037,-0.10892182914015756,2.4681514190685756,0.8264807584854965,1.2134413937687574,-0.2202432315892585,-0.0075118285948192216,-2.6038483821997875,-0.10888392708698907,2.4681821257803174,0.826474908251239,-0.00021494246327008156,0.0007310227879370823,-0.0009560865753825728,0.0009647216398695089,0.0004037350792696923,0.0006486578459194029,0.001219330600108856,0.0,0.0,0.0,0.0,0.0,0.0,0.0,-2.928720004580221e-05,7.919437641870641e-05,2.5032733033373937e-05,0.00024567331061620123,3.7902053168489824e-05,3.070671174176809e-05,-5.850234257476217e-06,0.00021494246327008156,-0.0007310227879370823,0.0009560865753825728,-0.0009647216398695089,-0.0004037350792696923,-0.0006486578459194029,-0.001219330600108856,0.3514034152030945,19.792627334594727,0.3475005328655243,-20.154146194458008,-0.5999656319618225,-2.4566683769226074,0.30337852239608765,0
60,0.29427456855773926,-0.3514034152030945,-19.792627334594727,-0.3475005328655243,20.154146194458008,0.5999656319618225,2.4566683769226074,-0.30337852239608765,0.0,0.0,0.0,0.0,0.0,0.0,0.0,-0.361700562953654,-0.012628883855432536,-0.1935935353238279,0.4021263199442247,0.01764941133265649,0.10594197364858284,-0.2724741419928641,1.2134706809688032,-0.2203224259656772,-0.0075368613278525955,-2.6040940555104037,-0.10892182914015756,2.4681514190685756,0.8264807584854965,1.2134413937687574,-0.2202432315892585,-0.0075118285948192216,-2.6038483821997875,-0.10888392708698907,2.4681821257803174,0.826474908251239,-0.00021494246327008156,0.0007310227879370823,-0.0009560865753825728,0.0009647216398695089,0.0004037350792696923,0.0006486578459194029,0.001219330600108856,0.0,0.0,0.0,0.0,0.0,0.0,0.0,-2.928720004580221e-05,7.919437641870641e-05,2.5032733033373937e-05,0.00024567331061620123,3.7902053168489824e-05,3.070671174176809e-05,-5.850234257476217e-06,0.00021494246327008156,-0.0007310227879370823,0.0009560865753825728,-0.0009647216398695089,-0.0004037350792696923,-0.0006486578459194029,-0.001219330600108856,0.3514034152030945,19.792627334594727,0.3475005328655243,-20.154146194458008,-0.5999656319618225,-2.4566683769226074,0.30337852239608765,0
61,0.29924845695495605,-0.4029781222343445,-19.745019912719727,-0.3713042438030243,20.181917190551758,0.5999656319618225,2.4758944511413574,-0.29605430364608765,0.0,0.0,0.0,0.0,0.0,0.0,0.0,-0.3634139989036769,-0.0037377524569643084,-0.1961475891543837,0.3920923881134206,0.018788550502859512,0.10322430133912869,-0.27270530022744416,1.2134743002464896,-0.22032576683738772,-0.0075351908919973325,-2.6040960043522348,-0.10892545698742105,2.468144852955005,0.8264838384314565,1.2134413937687574,-0.2202432315892585,-0.0075118285948192216,-2.6038483821997875,-0.10888392708698907,2.4681821257803174,0.826474908251239,0.0006882895320614606,0.00011755172898193834,-0.0002697418236700438,-0.0002899739146287,0.00025733500835964374,-0.00012165712337391711,0.000771656031662748,0.0,0.0,0.0,0.0,0.0,0.0,0.0,-3.290647773224187e-05,8.253524812923407e-05,2.3362297178110975e-05,0.0002476221524472244,4.152990043197746e-05,3.727282531240661e-05,-8.930180217414652e-06,-0.0006882895320614606,-0.00011755172898193834,0.0002697418236700438,0.0002899739146287,-0.00025733500835964374,0.00012165712337391711,-0.000771656031662748,0.4029781222343445,19.745019912719727,0.3713042438030243,-20.181917190551758,-0.5999656319618225,-2.4758944511413574,0.29605430364608765,0
62,0.30425214767456055,-0.4029781222343445,-19.745019912719727,-0.3713042438030243,20.181917190551758,0.5999656319618225,2.4758944511413574,-0.29605430364608765,0.0,0.0,0.0,0.0,0.0,0.0,0.0,-0.3634139989036769,-0.0037377524569643084,-0.1961475891543837,0.3920923881134206,0.018788550502859512,0.10322430133912869,-0.27270530022744416,1.2134743002464896,-0.22032576683738772,-0.0075351908919973325,-2.6040960043522348,-0.10892545698742105,2.468144852955005,0.8264838384314565,1.2134413937687574,-0.2202432315892585,-0.0075118285948192216,-2.6038483821997875,-0.10888392708698907,2.4681821257803174,0.826474908251239,0.0006882895320614606,0.00011755172898193834,-0.0002697418236700438,-0.0002899739146287,0.00025733500835964374,-0.00012165712337391711,0.000771656031662748,0.0,0.0,0.0,0.0,0.0,0.0,0.0,-3.290647773224187e-05,8.253524812923407e-05,2.3362297178110975e-05,0.0002476221524472244,4.152990043197746e-05,3.727282531240661e-05,-8.930180217414652e-06,-0.0006882895320614606,-0.00011755172898193834,0.0002697418236700438,0.0002899739146287,-0.00025733500835964374,0.00012165712337391711,-0.000771656031662748,0.4029781222343445,19.745019912719727,0.3713042438030243,-20.181917190551758,-0.5999656319618225,-2.4758944511413574,0.29605430364608765,0
63,0.3091883659362793,-0.4029781222343445,-19.745019912719727,-0.3713042438030243,20.154146194458008,0.5944724678993225,2.4758944511413574,-0.29605430364608765,0.0,0.0,0.0,0.0,0.0,0.0,0.0,-0.3672548275259718,-0.010600256005599063,-0.19627293511839125,0.39830220108920367,0.019078564590596307,0.10384575577910148,-0.27337452608310037,1.2134743002464896,-0.22032576683738772,-0.0075351908919973325,-2.6040940555104037,-0.10892485839350657,2.4681447055824073,0.8264841557959061,1.2134413937687574,-0.2202432315892585,-0.0075118285948192216,-2.6038483821997875,-0.10888392708698907,2.4681821257803174,0.826474908251239,0.000862377186184811,0.0002740694795457624,-0.0008572083095958818,0.0006793030756755073,8.255983823337e-05,-3.593194241711395e-06,0.0007618233651202696,0.0,0.0,0.0,0.0,0.0,0.0,0.0,-3.290647773224187e-05,8.253524812923407e-05,2.3362297178110975e-05,0.00024567331061620123,4.093130651749988e-05,3.742019791008744e-05,-9.24754466702371e-06,-0.000862377186184811,-0.0002740694795457624,0.0008572083095958818,-0.0006793030756755073,-8.255983823337e-05,3.593194241711395e-06,-0.0007618233651202696,0.4029781222343445,19.745019912719727,0.3713042438030243,-20.154146194458008,-0.5944724678993225,-2.4758944511413574,0.29605430364608765,0
64,0.3142218589782715,-0.4029781222343445,-19.745019912719727,-0.3713042438030243,20.154146194458008,0.5944724678993225,2.4758944511413574,-0.29605430364608765,0.0,0.0,0.0,0.0,0.0,0.0,0.0,-0.3672548275259718,-0.010600256005599063,-0.19627293511839125,0.39830220108920367,0.019078564590596307,0.10384575577910148,-0.27337452608310037,1.2134743002464896,-0.22032576683738772,-0.0075351908919973325,-2.6040940555104037,-0.10892485839350657,2.4681447055824073,0.8264841557959061,1.2134413937687574,-0.2202432315892585,-0.0075118285948192216,-2.6038483821997875,-0.10888392708698907,2.4681821257803174,0.826474908251239,0.000862377186184811,0.0002740694795457624,-0.0008572083095958818,0.0006793030756755073,8.255983823337e-05,-3.593194241711395e-06,0.0007618233651202696,0.0,0.0,0.0,0.0,0.0,0.0,0.0,-3.290647773224187e-05,8.253524812923407e-05,2.3362297178110975e-05,0.00024567331061620123,4.093130651749988e-05,3.742019791008744e-05,-9.24754466702371e-06,-0.000862377186184811,-0.0002740694795457624,0.0008572083095958818,-0.0006793030756755073,-8.255983823337e-05,3.593194241711395e-06,-0.0007618233651202696,0.4029781222343445,19.745019912719727,0.3713042438030243,-20.154146194458008,-0.5944724678993225,-2.4758944511413574,0.29605430364608765,0
65,0.31923723220825195,-0.3514034152030945,-19.792627334594727,-0.3475005328655243,20.181917190551758,0.6063743233680725,2.4758944511413574,-0.26858848333358765,0.0,0.0,0.0,0.0,0.0,0.0,0.0,-0.36370224260917544,-0.007922227766949229,-0.19233100226557218,0.3960751031617238,0.01837577922128865,0.10306416495944246,-0.2746051000566086,1.2134706809688032,-0.2203224259656772,-0.0075368613278525955,-2.6040960043522348,-0.10892679866400512,2.468148281692027,0.8264811447392919,1.2134413937687574,-0.2202432315892585,-0.0075118285948192216,-2.6038483821997875,-0.10888392708698907,2.4681821257803174,0.826474908251239,-0.0002479610824777304,0.0014527601856659908,-0.0005963344275214716,-0.00029925799397749085,-3.143335119453603e-05,-5.4496342483130426e-05,-9.337750747170692e-05,0.0,0.0,0.0,0.0,0.0,0.0,0.0,-2.928720004580221e-05,7.919437641870641e-05,2.5032733033373937e-05,0.0002476221524472244,4.2871577016045936e-05,3.384408829054664e-05,-6.236488052868694e-06,0.0002479610824777304,-0.0014527601856659908,0.0005963344275214716,0.00029925799397749085,3.143335119453603e-05,5.4496342483130426e-05,9.337750747170692e-05,0.3514034152030945,19.792627334594727,0.3475005328655243,-20.181917190551758,-0.6063743233680725,-2.4758944511413574,0.26858848333358765,0
66,0.32422757148742676,-0.3514034152030945,-19.792627334594727,-0.3475005328655243,20.181917190551758,0.6063743233680725,2.4758944511413574,-0.26858848333358765,0.0,0.0,0.0,0.0,0.0,0.0,0.0,-0.36370224260917544,-0.007922227766949229,-0.19233100226557218,0.3960751031617238,0.01837577922128865,0.10306416495944246,-0.2746051000566086,1.2134706809688032,-0.2203224259656772,-0.0075368613278525955,-2.6040960043522348,-0.10892679866400512,2.468148281692027,0.8264811447392919,1.2134413937687574,-0.2202432315892585,-0.0075118285948192216,-2.6038483821997875,-0.10888392708698907,2.4681821257803174,0.826474908251239,-0.0002479610824777304,0.0014527601856659908,-0.0005963344275214716,-0.00029925799397749085,-3.143335119453603e-05,-5.4496342483130426e-05,-9.337750747170692e-05,0.0,0.0,0.0,0.0,0.0,0.0,0.0,-2.928720004580221e-05,7.919437641870641e-05,2.5032733033373937e-05,0.0002476221524472244,4.2871577016045936e-05,3.384408829054664e-05,-6.236488052868694e-06,0.0002479610824777304,-0.0014527601856659908,0.0005963344275214716,0.00029925799397749085,3.143335119453603e-05,5.4496342483130426e-05,9.337750747170692e-05,0.3514034152030945,19.792627334594727,0.3475005328655243,-20.181917190551758,-0.6063743233680725,-2.4758944511413574,0.26858848333358765,0
67,0.3292214870452881,-0.3752071261405945,-19.745019912719727,-0.3713042438030243,20.181917190551758,0.5944724678993225,2.4694857597351074,-0.30337852239608765,0.0,0.0,0.0,0.0,0.0,0.0,0.0,-0.3643088382379533,-0.0034592013195327105,-0.19327557674919232,0.39556511036183417,0.018907016718589215,0.10293833823120103,-0.27452495839507773,1.2134723514046586,-0.22032576683738772,-0.0075351821242787735,-2.6040960043522348,-0.10892452927433859,2.468145535308485,0.8264848386189829,1.2134413937687574,-0.2202432315892585,-0.0075118285948192216,-2.6038483821997875,-0.10888392708698907,2.4681821257803174,0.826474908251239,0.0007554303705165968,0.0005861629325868405,-0.00017894151128022178,-0.0006540072076204707,0.0004171272381255248,0.00010949753711912968,0.0009003576510167821,0.0,0.0,0.0,0.0,0.0,0.0,0.0,-3.0957635901218694e-05,8.253524812923407e-05,2.3353529459551985e-05,0.0002476221524472244,4.06021873495116e-05,3.6590471832465e-05,-9.930367743882229e-06,-0.0007554303705165968,-0.0005861629325868405,0.00017894151128022178,0.0006540072076204707,-0.0004171272381255248,-0.00010949753711912968,-0.0009003576510167821,0.3752071261405945,19.745019912719727,0.3713042438030243,-20.181917190551758,-0.5944724678993225,-2.4694857597351074,0.30337852239608765,0
68,0.3342254161834717,-0.3752071261405945,-19.745019912719727,-0.3713042438030243,20.181917190551758,0.5944724678993225,2.4694857597351074,-0.30337852239608765,0.0,0.0,0.0,0.0,0.0,0.0,0.0,-0.3643088382379533,-0.0034592013195327105,-0.19327557674919232,0.39556511036183417,0.018907016718589215,0.10293833823120103,-0.27452495839507773,1.2134723514046586,-0.22032576683738772,-0.0075351821242787735,-2.6040960043522348,-0.10892452927433859,2.468145535308485,0.8264848386189829,1.2134413937687574,-0.2202432315892585,-0.0075118285948192216,-2.6038483821997875,-0.10888392708698907,2.4681821257803174,0.826474908251239,0.0007554303705165968,0.0005861629325868405,-0.00017894151128022178,-0.0006540072076204707,0.0004171272381255248,0.00010949753711912968,0.0009003576510167821,0.0,0.0,0.0,0.0,0.0,0.0,0.0,-3.0957635901218694e-05,8.253524812923407e-05,2.3353529459551985e-05,0.0002476221524472244,4.06021873495116e-05,3.6590471832465e-05,-9.930367743882229e-06,-0.0007554303705165968,-0.0005861629325868405,0.00017894151128022178,0.0006540072076204707,-0.0004171272381255248,-0.00010949753711912968,-0.0009003576510167821,0.3752071261405945,19.745019912719727,0.3713042438030243,-20.181917190551758,-0.5944724678993225,-2.4694857597351074,0.30337852239608765,0
69,0.33922386169433594,-0.3236324191093445,-19.745019912719727,-0.3990752398967743,20.154146194458008,0.5999656319618225,2.4823031425476074,-0.24112264811992645,0.0,0.0,0.0,0.0,0.0,0.0,0.0,-0.3661559901969832,-0.008766111853527428,-0.19588701090956998,0.3987269030129669,0.019226870096765863,0.10363380454190062,-0.2738027809386438,1.2134687321269721,-0.22032576683738772,-0.007533242050116698,-2.604094056527889,-0.10892509645869314,2.4681485720271854,0.8264780928175789,1.2134413937687574,-0.2202432315892585,-0.0075118285948192216,-2.6038483821997875,-0.10888392708698907,2.4681821257803174,0.826474908251239,-0.0009299246013063636,-0.00016406678254651954,0.00028271639401007177,0.0001867528555168837,0.0001959031886687788,-0.00021267831725570678,-0.0012531311984926216,0.0,0.0,0.0,0.0,0.0,0.0,0.0,-2.7338358214779035e-05,8.253524812923407e-05,2.1413455297476444e-05,0.00024567432810140843,4.1169371704063984e-05,3.355375313196518e-05,-3.184566339853312e-06,0.0009299246013063636,0.00016406678254651954,-0.00028271639401007177,-0.0001867528555168837,-0.0001959031886687788,0.00021267831725570678,0.0012531311984926216,0.3236324191093445,19.745019912719727,0.3990752398967743,-20.154146194458008,-0.5999656319618225,-2.4823031425476074,0.24112264811992645,0
70,0.3442211151123047,-0.3236324191093445,-19.745019912719727,-0.3990752398967743,20.154146194458008,0.5999656319618225,2.4823031425476074,-0.24112264811992645,0.0,0.0,0.0,0.0,0.0,0.0,0.0,-0.3661559901969832,-0.008766111853527428,-0.19588701090956998,0.3987269030129669,0.019226870096765863,0.10363380454190062,-0.2738027809386438,1.2134687321269721,-0.22032576683738772,-0.007533242050116698,-2.604094056527889,-0.10892509645869314,2.4681485720271854,0.8264780928175789,1.2134413937687574,-0.2202432315892585,-0.0075118285948192216,-2.6038483821997875,-0.10888392708698907,2.4681821257803174,0.826474908251239,-0.0009299246013063636,-0.00016406678254651954,0.00028271639401007177,0.0001867528555168837,0.0001959031886687788,-0.00021267831725570678,-0.0012531311984926216,0.0,0.0,0.0,0.0,0.0,0.0,0.0,-2.7338358214779035e-05,8.253524812923407e-05,2.1413455297476444e-05,0.00024567432810140843,4.1169371704063984e-05,3.355375313196518e-05,-3.184566339853312e-06,0.0009299246013063636,0.00016406678254651954,-0.00028271639401007177,-0.0001867528555168837,-0.0001959031886687788,0.00021267831725570678,0.0012531311984926216,0.3236324191093445,19.745019912719727,0.3990752398967743,-20.154146194458008,-0.5999656319618225,-2.4823031425476074,0.24112264811992645,0
71,0.34922099113464355,-0.3514034152030945,-19.745019912719727,-0.4466826617717743,20.181917190551758,0.5999656319618225,2.4758944511413574,-0.27591270208358765,0.0,0.0,0.0,0.0,0.0,0.0,0.0,-0.36436246272657397,-0.008361190223691214,-0.19384478167357902,0.3993990717317661,0.019071652766205222,0.10409818845344955,-0.2732515861570318,1.2134706809688032,-0.22032576683738772,-0.007529901178455663,-2.6040960043522863,-0.10892230228312628,2.4681490604898833,0.8264816038753369,1.2134413937687574,-0.2202432315892585,-0.0075118285948192216,-2.6038483821997875,-0.10888392708698907,2.4681821257803174,0.826474908251239,-0.00042139501145415785,-0.00011770655485438743,0.001354531807152392,0.0002233053575914248,9.342523285981125e-05,-3.2882252530606196e-05,0.000549412818514346,0.0,0.0,0.0,0.0,0.0,0.0,0.0,-2.928720004580221e-05,8.253524812923407e-05,1.8072583636441313e-05,0.00024762215249873876,3.8375196137210854e-05,3.306529043411999e-05,-6.6956240978299775e-06,0.00042139501145415785,0.00011770655485438743,-0.001354531807152392,-0.0002233053575914248,-9.342523285981125e-05,3.2882252530606196e-05,-0.000549412818514346,0.3514034152030945,19.745019912719727,0.4466826617717743,-20.181917190551758,-0.5999656319618225,-2.4758944511413574,0.27591270208358765,0
72,0.3542208671569824,-0.3514034152030945,-19.745019912719727,-0.4466826617717743,20.181917190551758,0.5999656319618225,2.4758944511413574,-0.27591270208358765,0.0,0.0,0.0,0.0,0.0,0.0,0.0,-0.36436246272657397,-0.008361190223691214,-0.19384478167357902,0.3993990717317661,0.019071652766205222,0.10409818845344955,-0.2732515861570318,1.2134706809688032,-0.22032576683738772,-0.007529901178455663,-2.6040960043522863,-0.10892230228312628,2.4681490604898833,0.8264816038753369,1.2134413937687574,-0.2202432315892585,-0.0075118285948192216,-2.6038483821997875,-0.10888392708698907,2.4681821257803174,0.826474908251239,-0.00042139501145415785,-0.00011770655485438743,0.001354531807152392,0.0002233053575914248,9.342523285981125e-05,-3.2882252530606196e-05,0.000549412818514346,0.0,0.0,0.0,0.0,0.0,0.0,0.0,-2.928720004580221e-05,8.253524812923407e-05,1.8072583636441313e-05,0.00024762215249873876,3.8375196137210854e-05,3.306529043411999e-05,-6.6956240978299775e-06,0.00042139501145415785,0.00011770655485438743,-0.001354531807152392,-0.0002233053575914248,-9.342523285981125e-05,3.2882252530606196e-05,-0.000549412818514346,0.3514034152030945,19.745019912719727,0.4466826617717743,-20.181917190551758,-0.5999656319618225,-2.4758944511413574,0.27591270208358765,0
73,0.3592503070831299,-0.3514034152030945,-19.745019912719727,-0.4466826617717743,20.181917190551758,0.5999656319618225,2.4758944511413574,-0.27591270208358765,0.0,0.0,0.0,0.0,0.0,0.0,0.0,-0.36436246272657397,-0.008361190223691214,-0.19384478167357902,0.3993990717317661,0.019071652766205222,0.10409818845344955,-0.2732515861570318,1.2134706809688032,-0.22032576683738772,-0.007529901178455663,-2.6040960043522863,-0.10892230228312628,2.4681490604898833,0.8264816038753369,1.2134413937687574,-0.2202432315892585,-0.0075118285948192216,-2.6038483821997875,-0.10888392708698907,2.4681821257803174,0.826474908251239,-0.00042139501145415785,-0.00011770655485438743,0.001354531807152392,0.0002233053575914248,9.342523285981125e-05,-3.2882252530606196e-05,0.000549412818514346,0.0,0.0,0.0,0.0,0.0,0.0,0.0,-2.928720004580221e-05,8.253524812923407e-05,1.8072583636441313e-05,0.00024762215249873876,3.8375196137210854e-05,3.306529043411999e-05,-6.6956240978299775e-06,0.00042139501145415785,0.00011770655485438743,-0.001354531807152392,-0.0002233053575914248,-9.342523285981125e-05,3.2882252530606196e-05,-0.000549412818514346,0.3514034152030945,19.745019912719727,0.4466826617717743,-20.181917190551758,-0.5999656319618225,-2.4758944511413574,0.27591270208358765,0
74,0.36423373222351074,-0.3514034152030945,-19.745019912719727,-0.4466826617717743,20.181917190551758,0.5999656319618225,2.4758944511413574,-0.27591270208358765,0.0,0.0,0.0,0.0,0.0,0.0,0.0,-0.36436246272657397,-0.008361190223691214,-0.19384478167357902,0.3993990717317661,0.019071652766205222,0.10409818845344955,-0.2732515861570318,1.2134706809688032,-0.22032576683738772,-0.007529901178455663,-2.6040960043522863,-0.10892230228312628,2.4681490604898833,0.8264816038753369,1.2134413937687574,-0.2202432315892585,-0.0075118285948192216,-2.6038483821997875,-0.10888392708698907,2.4681821257803174,0.826474908251239,-0.00042139501145415785,-0.00011770655485438743,0.001354531807152392,0.0002233053575914248,9.342523285981125e-05,-3.2882252530606196e-05,0.000549412818514346,0.0,0.0,0.0,0.0,0.0,0.0,0.0,-2.928720004580221e-05,8.253524812923407e-05,1.8072583636441313e-05,0.00024762215249873876,3.8375196137210854e-05,3.306529043411999e-05,-6.6956240978299775e-06,0.00042139501145415785,0.00011770655485438743,-0.001354531807152392,-0.0002233053575914248,-9.342523285981125e-05,3.2882252530606196e-05,-0.000549412818514346,0.3514034152030945,19.745019912719727,0.4466826617717743,-20.181917190551758,-0.5999656319618225,-2.4758944511413574,0.27591270208358765,0
75,0.36930036544799805,-0.3752071261405945,-19.745019912719727,-0.3990752398967743,20.181917190551758,0.6063743233680725,2.4758944511413574,-0.30978721380233765,0.0,0.0,0.0,0.0,0.0,0.0,0.0,-0.3644916409706118,-0.005142303301313631,-0.19736056125618157,0.39286502174539933,0.018227035117054178,0.10267463894233239,-0.2717953745907604,1.2134723514046586,-0.22032576684138797,-0.0075331631406991605,-2.6040960043522348,-0.10892689210680895,2.4681462623604733,0.8264846234681054,1.2134413937687574,-0.2202432315892585,-0.0075118285948192216,-2.6038483821997875,-0.10888392708698907,2.4681821257803174,0.826474908251239,0.00017296869393267577,-0.00021831992051910126,-0.0002996035649655254,-0.0005337547438506396,-0.0001598162524541281,-6.333086304090193e-05,0.0020932865551168715,0.0,0.0,0.0,0.0,0.0,0.0,0.0,-3.0957635901218694e-05,8.253525212947865e-05,2.133454587993893e-05,0.0002476221524472244,4.2965019819873884e-05,3.586341984407326e-05,-9.715216866323928e-06,-0.00017296869393267577,0.00021831992051910126,0.0002996035649655254,0.0005337547438506396,0.0001598162524541281,6.333086304090193e-05,-0.0020932865551168715,0.3752071261405945,19.745019912719727,0.3990752398967743,-20.181917190551758,-0.6063743233680725,-2.4758944511413574,0.30978721380233765,0
76,0.3742239475250244,-0.3752071261405945,-19.745019912719727,-0.3990752398967743,20.181917190551758,0.6063743233680725,2.4758944511413574,-0.30978721380233765,0.0,0.0,0.0,0.0,0.0,0.0,0.0,-0.3644916409706118,-0.005142303301313631,-0.19736056125618157,0.39286502174539933,0.018227035117054178,0.10267463894233239,-0.2717953745907604,1.2134723514046586,-0.22032576684138797,-0.0075331631406991605,-2.6040960043522348,-0.10892689210680895,2.4681462623604733,0.8264846234681054,1.2134413937687574,-0.2202432315892585,-0.0075118285948192216,-2.6038483821997875,-0.10888392708698907,2.4681821257803174,0.826474908251239,0.00017296869393267577,-0.00021831992051910126,-0.0002996035649655254,-0.0005337547438506396,-0.0001598162524541281,-6.333086304090193e-05,0.0020932865551168715,0.0,0.0,0.0,0.0,0.0,0.0,0.0,-3.0957635901218694e-05,8.253525212947865e-05,2.133454587993893e-05,0.0002476221524472244,4.2965019819873884e-05,3.586341984407326e-05,-9.715216866323928e-06,-0.00017296869393267577,0.00021831992051910126,0.0002996035649655254,0.0005337547438506396,0.0001598162524541281,6.333086304090193e-05,-0.0020932865551168715,0.3752071261405945,19.745019912719727,0.3990752398967743,-20.181917190551758,-0.6063743233680725,-2.4758944511413574,0.30978721380233765,0
77,0.37917041778564453,-0.3752071261405945,-19.792627334594727,-0.3990752398967743,20.181917190551758,0.6118674874305725,2.4694857597351074,-0.26217979192733765,0.0,0.0,0.0,0.0,0.0,0.0,0.0,-0.3645384379796929,-0.009836682163573106,-0.1979379792831906,0.3966095015179385,0.018203597673731364,0.10368167876999689,-0.2704837374075753,1.2134723514046586,-0.2203224259656772,-0.00753324205001771,-2.6040960043522348,-0.10892677899129306,2.468148704048653,0.8264803013565922,1.2134413937687574,-0.2202432315892585,-0.0075118285948192216,-2.6038483821997875,-0.10888392708698907,2.4681821257803174,0.826474908251239,8.641694550564721e-05,0.0012341134736508002,0.00019064211159284484,1.7144810186425758e-05,-0.0005022453341828907,2.9821723570786547e-05,-0.00015709895266465348,0.0,0.0,0.0,0.0,0.0,0.0,0.0,-3.0957635901218694e-05,7.919437641870641e-05,2.1413455198488786e-05,0.0002476221524472244,4.285190430398933e-05,3.342173166442919e-05,-5.393105353190819e-06,-8.641694550564721e-05,-0.0012341134736508002,-0.00019064211159284484,-1.7144810186425758e-05,0.0005022453341828907,-2.9821723570786547e-05,0.00015709895266465348,0.3752071261405945,19.792627334594727,0.3990752398967743,-20.181917190551758,-0.6118674874305725,-2.4694857597351074,0.26217979192733765,0
78,0.3842628002166748,-0.3752071261405945,-19.792627334594727,-0.3990752398967743,20.181917190551758,0.6118674874305725,2.4694857597351074,-0.26217979192733765,0.0,0.0,0.0,0.0,0.0,0.0,0.0,-0.3645384379796929,-0.009836682163573106,-0.1979379792831906,0.3966095015179385,0.018203597673731364,0.10368167876999689,-0.2704837374075753,1.2134723514046586,-0.2203224259656772,-0.00753324205001771,-2.6040960043522348,-0.10892677899129306,2.468148704048653,0.8264803013565922,1.2134413937687574,-0.2202432315892585,-0.0075118285948192216,-2.6038483821997875,-0.10888392708698907,2.4681821257803174,0.826474908251239,8.641694550564721e-05,0.0012341134736508002,0.00019064211159284484,1.7144810186425758e-05,-0.0005022453341828907,2.9821723570786547e-05,-0.00015709895266465348,0.0,0.0,0.0,0.0,0.0,0.0,0.0,-3.0957635901218694e-05,7.919437641870641e-05,2.1413455198488786e-05,0.0002476221524472244,4.285190430398933e-05,3.342173166442919e-05,-5.393105353190819e-06,-8.641694550564721e-05,-0.0012341134736508002,-0.00019064211159284484,-1.7144810186425758e-05,0.0005022453341828907,-2.9821723570786547e-05,0.00015709895266465348,0.3752071261405945,19.792627334594727,0.3990752398967743,-20.181917190551758,-0.6118674874305725,-2.4694857597351074,0.26217979192733765,0
79,0.38924551010131836,-0.3752071261405945,-19.717248916625977,-0.3713042438030243,20.205720901489258,0.5999656319618225,2.4694857597351074,-0.28232139348983765,0.0,0.0,0.0,0.0,0.0,0.0,0.0,-0.3686801427218847,-0.004796310323792224,-0.19828002601563768,0.389267446090594,0.017475172248029334,0.10204733093021785,-0.2695862188124195,1.2134723514046586,-0.22032771567921886,-0.007535190891997332,-2.60409767478809,-0.10892511333579685,2.468145913660595,0.8264826706176869,1.2134413937687574,-0.2202432315892585,-0.0075118285948192216,-2.6038483821997875,-0.10888392708698907,2.4681821257803174,0.826474908251239,-0.00039656008270773314,-0.0004994885169281205,-0.0002128550790839976,-0.0013800383073342547,0.00016238731198300768,0.0003285447866877394,0.00042743032263741545,0.0,0.0,0.0,0.0,0.0,0.0,0.0,-3.0957635901218694e-05,8.448408996036827e-05,2.3362297178110107e-05,0.0002492925883026409,4.118624880777855e-05,3.621211972237859e-05,-7.762366447838787e-06,0.00039656008270773314,0.0004994885169281205,0.0002128550790839976,0.0013800383073342547,-0.00016238731198300768,-0.0003285447866877394,-0.00042743032263741545,0.3752071261405945,19.717248916625977,0.3713042438030243,-20.205720901489258,-0.5999656319618225,-2.4694857597351074,0.28232139348983765,0
