rezayati/contactInterpretation/dataset/franka_main/labeled_data/link6/b3_6.csv
index,time,tau_J0,tau_J1,tau_J2,tau_J3,tau_J4,tau_J5,tau_J6,tau_J_d0,tau_J_d1,tau_J_d2,tau_J_d3,tau_J_d4,tau_J_d5,tau_J_d6,tau_ext0,tau_ext1,tau_ext2,tau_ext3,tau_ext4,tau_ext5,tau_ext6,q0,q1,q2,q3,q4,q5,q6,q_d0,q_d1,q_d2,q_d3,q_d4,q_d5,q_d6,dq0,dq1,dq2,dq3,dq4,dq5,dq6,dq_d0,dq_d1,dq_d2,dq_d3,dq_d4,dq_d5,dq_d6,e0,e1,e2,e3,e4,e5,e6,de0,de1,de2,de3,de4,de5,de6,etau_J0,etau_J1,etau_J2,etau_J3,etau_J4,etau_J5,etau_J6,label
1,0.0,-0.09352988004684448,-18.078760147094727,0.9934418201446533,18.245882034301758,0.4928489327430725,2.2625765800476074,-0.17978231608867645,0.0,0.0,0.0,0.0,0.0,0.0,0.0,-0.03268778308817419,0.5159946028087021,0.16546338111499634,0.6095443908841041,0.062015436638566984,0.08678524189293894,-0.21054763651808994,-0.6092427303038145,-0.05776401230797432,-0.6666131989500199,-2.5947660065701132,-0.05559445467593766,2.5079511553976266,0.8763161384181842,-0.6090851748156966,-0.05753196718556838,-0.666603097082616,-2.5945565370258534,-0.05562143941554,2.507976027223799,0.8763108487046415,0.0010943427522664808,-0.0014167567680529484,-0.0002884387197874281,-0.0003349878301228558,-0.00014112678972468082,-3.150129814725661e-05,-0.0018536612629566271,0.0,0.0,0.0,0.0,0.0,0.0,0.0,0.00015755548811791087,0.00023204512240593972,1.0101867403911058e-05,0.00020946954425982156,-2.6984739602338437e-05,2.4871826172390143e-05,-5.289713542744323e-06,-0.0010943427522664808,0.0014167567680529484,0.0002884387197874281,0.0003349878301228558,0.00014112678972468082,3.150129814725661e-05,0.0018536612629566271,0.09352988004684448,18.078760147094727,-0.9934418201446533,-18.245882034301758,-0.4928489327430725,-2.2625765800476074,0.17978231608867645,0
2,0.004999637603759766,-0.09352988004684448,-18.078760147094727,0.9934418201446533,18.245882034301758,0.4928489327430725,2.2625765800476074,-0.17978231608867645,0.0,0.0,0.0,0.0,0.0,0.0,0.0,-0.03268778308817419,0.5159946028087021,0.16546338111499634,0.6095443908841041,0.062015436638566984,0.08678524189293894,-0.21054763651808994,-0.6092427303038145,-0.05776401230797432,-0.6666131989500199,-2.5947660065701132,-0.05559445467593766,2.5079511553976266,0.8763161384181842,-0.6090851748156966,-0.05753196718556838,-0.666603097082616,-2.5945565370258534,-0.05562143941554,2.507976027223799,0.8763108487046415,0.0010943427522664808,-0.0014167567680529484,-0.0002884387197874281,-0.0003349878301228558,-0.00014112678972468082,-3.150129814725661e-05,-0.0018536612629566271,0.0,0.0,0.0,0.0,0.0,0.0,0.0,0.00015755548811791087,0.00023204512240593972,1.0101867403911058e-05,0.00020946954425982156,-2.6984739602338437e-05,2.4871826172390143e-05,-5.289713542744323e-06,-0.0010943427522664808,0.0014167567680529484,0.0002884387197874281,0.0003349878301228558,0.00014112678972468082,3.150129814725661e-05,0.0018536612629566271,0.09352988004684448,18.078760147094727,-0.9934418201446533,-18.245882034301758,-0.4928489327430725,-2.2625765800476074,0.17978231608867645,0
3,0.010000944137573242,-0.04592245817184448,-18.106531143188477,0.9696381092071533,18.222078323364258,0.4864402413368225,2.2753939628601074,-0.17978231608867645,0.0,0.0,0.0,0.0,0.0,0.0,0.0,-0.03878188264209008,0.513033278961071,0.1636493687663167,0.6152612471819803,0.06275342364021073,0.0867269281024789,-0.21134932861382433,-0.6092460711755251,-0.05776206346614318,-0.6666115285137243,-2.5947643361692507,-0.05559374308663491,2.507949731243981,0.8763157852054745,-0.6090851748156966,-0.05753196718556838,-0.666603097082616,-2.5945565370258534,-0.05562143941554,2.507976027223799,0.8763108487046415,-0.0004501653895100074,-0.0008911435003591456,0.00023698650779951366,0.000628546159002651,-0.00010255691084030202,-0.0003424384669965208,-0.001422867992759743,0.0,0.0,0.0,0.0,0.0,0.0,0.0,0.0001608963598285218,0.00023009628057479858,8.431431108291143e-06,0.00020779914339730254,-2.7696328905091327e-05,2.6295979818069526e-05,-4.936500832997126e-06,0.0004501653895100074,0.0008911435003591456,-0.00023698650779951366,-0.000628546159002651,0.00010255691084030202,0.0003424384669965208,0.001422867992759743,0.04592245817184448,18.106531143188477,-0.9696381092071533,-18.222078323364258,-0.4864402413368225,-2.2753939628601074,0.17978231608867645,0
4,0.014999151229858398,-0.04592245817184448,-18.106531143188477,0.9696381092071533,18.222078323364258,0.4864402413368225,2.2753939628601074,-0.17978231608867645,0.0,0.0,0.0,0.0,0.0,0.0,0.0,-0.03878188264209008,0.513033278961071,0.1636493687663167,0.6152612471819803,0.06275342364021073,0.0867269281024789,-0.21134932861382433,-0.6092460711755251,-0.05776206346614318,-0.6666115285137243,-2.5947643361692507,-0.05559374308663491,2.507949731243981,0.8763157852054745,-0.6090851748156966,-0.05753196718556838,-0.666603097082616,-2.5945565370258534,-0.05562143941554,2.507976027223799,0.8763108487046415,-0.0004501653895100074,-0.0008911435003591456,0.00023698650779951366,0.000628546159002651,-0.00010255691084030202,-0.0003424384669965208,-0.001422867992759743,0.0,0.0,0.0,0.0,0.0,0.0,0.0,0.0001608963598285218,0.00023009628057479858,8.431431108291143e-06,0.00020779914339730254,-2.7696328905091327e-05,2.6295979818069526e-05,-4.936500832997126e-06,0.0004501653895100074,0.0008911435003591456,-0.00023698650779951366,-0.000628546159002651,0.00010255691084030202,0.0003424384669965208,0.001422867992759743,0.04592245817184448,18.106531143188477,-0.9696381092071533,-18.222078323364258,-0.4864402413368225,-2.2753939628601074,0.17978231608867645,0
5,0.01999950408935547,-0.04592245817184448,-18.106531143188477,0.9418671131134033,18.269685745239258,0.4864402413368225,2.2689852714538574,-0.20083944499492645,0.0,0.0,0.0,0.0,0.0,0.0,0.0,-0.04033932606428712,0.519004052298582,0.16514605904686216,0.6137129995430033,0.06244435315432428,0.08647357313865099,-0.21070839077530887,-0.6092460711755251,-0.05776206346614318,-0.6666102903489471,-2.5947676770059687,-0.055593861614239064,2.5079504433208037,0.87631847809718,-0.6090851748156966,-0.05753196718556838,-0.666603097082616,-2.5945565370258534,-0.05562143941554,2.507976027223799,0.8763108487046415,-4.8429929257863874e-05,-0.0004306955985033764,0.0006573326095647057,7.56366894770004e-06,-6.068173513890125e-05,0.00018141329396047421,-0.0004978587558149979,0.0,0.0,0.0,0.0,0.0,0.0,0.0,0.0001608963598285218,0.00023009628057479858,7.193266331140258e-06,0.00021113998011523805,-2.7577801300936178e-05,2.5583902995229835e-05,-7.629392538510693e-06,4.8429929257863874e-05,0.0004306955985033764,-0.0006573326095647057,-7.56366894770004e-06,6.068173513890125e-05,-0.00018141329396047421,0.0004978587558149979,0.04592245817184448,18.106531143188477,-0.9418671131134033,-18.269685745239258,-0.4864402413368225,-2.2689852714538574,0.20083944499492645,0
6,0.02499842643737793,-0.04592245817184448,-18.106531143188477,0.9418671131134033,18.269685745239258,0.4864402413368225,2.2689852714538574,-0.20083944499492645,0.0,0.0,0.0,0.0,0.0,0.0,0.0,-0.04033932606428712,0.519004052298582,0.16514605904686216,0.6137129995430033,0.06244435315432428,0.08647357313865099,-0.21070839077530887,-0.6092460711755251,-0.05776206346614318,-0.6666102903489471,-2.5947676770059687,-0.055593861614239064,2.5079504433208037,0.87631847809718,-0.6090851748156966,-0.05753196718556838,-0.666603097082616,-2.5945565370258534,-0.05562143941554,2.507976027223799,0.8763108487046415,-4.8429929257863874e-05,-0.0004306955985033764,0.0006573326095647057,7.56366894770004e-06,-6.068173513890125e-05,0.00018141329396047421,-0.0004978587558149979,0.0,0.0,0.0,0.0,0.0,0.0,0.0,0.0001608963598285218,0.00023009628057479858,7.193266331140258e-06,0.00021113998011523805,-2.7577801300936178e-05,2.5583902995229835e-05,-7.629392538510693e-06,4.8429929257863874e-05,0.0004306955985033764,-0.0006573326095647057,-7.56366894770004e-06,6.068173513890125e-05,-0.00018141329396047421,0.0004978587558149979,0.04592245817184448,18.106531143188477,-0.9418671131134033,-18.269685745239258,-0.4864402413368225,-2.2689852714538574,0.20083944499492645,0
7,0.03005814552307129,0.005652248859405518,-18.205713272094727,1.0172455310821533,18.269685745239258,0.4864402413368225,2.2488436698913574,-0.22098104655742645,0.0,0.0,0.0,0.0,0.0,0.0,0.0,-0.033374860678796955,0.519512679463415,0.17201992489796872,0.6105343251327557,0.06181816774577161,0.08656759339261531,-0.21080807850039818,-0.6092496904532114,-0.057755103316746256,-0.6666149473905867,-2.594767753535389,-0.055594808860629424,2.507952681276533,0.876320716054903,-0.6090851748156966,-0.05753196718556838,-0.666603097082616,-2.5945565370258534,-0.05562143941554,2.507976027223799,0.8763108487046415,-0.0007955744746022058,0.0013138481538690616,-7.570846124918694e-05,-0.0009896684552723257,-9.388610082258599e-05,0.0007759712062580195,0.00042932793909546905,0.0,0.0,0.0,0.0,0.0,0.0,0.0,0.00016451563751485043,0.0002231361311778729,1.1850307970684426e-05,0.0002112165095353724,-2.6630554910575532e-05,2.3345947266051326e-05,-9.867350261538732e-06,0.0007955744746022058,-0.0013138481538690616,7.570846124918694e-05,0.0009896684552723257,9.388610082258599e-05,-0.0007759712062580195,-0.00042932793909546905,-0.005652248859405518,18.205713272094727,-1.0172455310821533,-18.269685745239258,-0.4864402413368225,-2.2488436698913574,0.22098104655742645,0
8,0.03500986099243164,0.005652248859405518,-18.205713272094727,1.0172455310821533,18.269685745239258,0.4864402413368225,2.2488436698913574,-0.22098104655742645,0.0,0.0,0.0,0.0,0.0,0.0,0.0,-0.033374860678796955,0.519512679463415,0.17201992489796872,0.6105343251327557,0.06181816774577161,0.08656759339261531,-0.21080807850039818,-0.6092496904532114,-0.057755103316746256,-0.6666149473905867,-2.594767753535389,-0.055594808860629424,2.507952681276533,0.876320716054903,-0.6090851748156966,-0.05753196718556838,-0.666603097082616,-2.5945565370258534,-0.05562143941554,2.507976027223799,0.8763108487046415,-0.0007955744746022058,0.0013138481538690616,-7.570846124918694e-05,-0.0009896684552723257,-9.388610082258599e-05,0.0007759712062580195,0.00042932793909546905,0.0,0.0,0.0,0.0,0.0,0.0,0.0,0.00016451563751485043,0.0002231361311778729,1.1850307970684426e-05,0.0002112165095353724,-2.6630554910575532e-05,2.3345947266051326e-05,-9.867350261538732e-06,0.0007955744746022058,-0.0013138481538690616,7.570846124918694e-05,0.0009896684552723257,9.388610082258599e-05,-0.0007759712062580195,-0.00042932793909546905,-0.005652248859405518,18.205713272094727,-1.0172455310821533,-18.269685745239258,-0.4864402413368225,-2.2488436698913574,0.22098104655742645,0
9,0.04000377655029297,0.005652248859405518,-18.154138565063477,1.0172455310821533,18.222078323364258,0.4864402413368225,2.2625765800476074,-0.19351522624492645,0.0,0.0,0.0,0.0,0.0,0.0,0.0,-0.03453152851448701,0.5201267681401917,0.16982982347525424,0.610670552449895,0.0616662940866246,0.08658985948365809,-0.21145081896536258,-0.6092496904532114,-0.057758722594432654,-0.6666148703488523,-2.59476433613469,-0.05559374748055879,2.5079511553976266,0.8763176642970906,-0.6090851748156966,-0.05753196718556838,-0.666603097082616,-2.5945565370258534,-0.05562143941554,2.507976027223799,0.8763108487046415,5.591414506938761e-05,0.00013295015321513714,-0.0006453830502352279,0.00023330523027179426,-0.00016889617992992914,0.0004832094084053414,-0.0012448761246500856,0.0,0.0,0.0,0.0,0.0,0.0,0.0,0.00016451563751485043,0.00022675540886427092,1.177326623624797e-05,0.00020779910883650388,-2.7691934981206867e-05,2.4871826172390143e-05,-6.815592449083141e-06,-5.591414506938761e-05,-0.00013295015321513714,0.0006453830502352279,-0.00023330523027179426,0.00016889617992992914,-0.0004832094084053414,0.0012448761246500856,-0.005652248859405518,18.154138565063477,-1.0172455310821533,-18.222078323364258,-0.4864402413368225,-2.2625765800476074,0.19351522624492645,0
10,0.04513740539550781,0.005652248859405518,-18.154138565063477,1.0172455310821533,18.222078323364258,0.4864402413368225,2.2625765800476074,-0.19351522624492645,0.0,0.0,0.0,0.0,0.0,0.0,0.0,-0.03453152851448701,0.5201267681401917,0.16982982347525424,0.610670552449895,0.0616662940866246,0.08658985948365809,-0.21145081896536258,-0.6092496904532114,-0.057758722594432654,-0.6666148703488523,-2.59476433613469,-0.05559374748055879,2.5079511553976266,0.8763176642970906,-0.6090851748156966,-0.05753196718556838,-0.666603097082616,-2.5945565370258534,-0.05562143941554,2.507976027223799,0.8763108487046415,5.591414506938761e-05,0.00013295015321513714,-0.0006453830502352279,0.00023330523027179426,-0.00016889617992992914,0.0004832094084053414,-0.0012448761246500856,0.0,0.0,0.0,0.0,0.0,0.0,0.0,0.00016451563751485043,0.00022675540886427092,1.177326623624797e-05,0.00020779910883650388,-2.7691934981206867e-05,2.4871826172390143e-05,-6.815592449083141e-06,-5.591414506938761e-05,-0.00013295015321513714,0.0006453830502352279,-0.00023330523027179426,0.00016889617992992914,-0.0004832094084053414,0.0012448761246500856,-0.005652248859405518,18.154138565063477,-1.0172455310821533,-18.222078323364258,-0.4864402413368225,-2.2625765800476074,0.19351522624492645,0
11,0.05000734329223633,-0.018151462078094482,-18.078760147094727,0.9934418201446533,18.222078323364258,0.4864402413368225,2.2818026542663574,-0.16604940593242645,0.0,0.0,0.0,0.0,0.0,0.0,0.0,-0.026314448932367875,0.5175518049056149,0.17005708980985823,0.6148656460228009,0.06161130581427949,0.08733904640317511,-0.2122348143121548,-0.6092480200173562,-0.05776401230797432,-0.6666131989495849,-2.5947643361342583,-0.05559378209026074,2.507949019167158,0.876314612539278,-0.6090851748156966,-0.05753196718556838,-0.666603097082616,-2.5945565370258534,-0.05562143941554,2.507976027223799,0.8763108487046415,0.0004637967137358188,-0.0012675489421151917,0.00018231060701163042,0.0008145249041686716,-2.702172402155552e-05,-0.0002738507094688805,-0.001745092754857207,0.0,0.0,0.0,0.0,0.0,0.0,0.0,0.000162845201659656,0.00023204512240593972,1.0101866968925677e-05,0.00020779910840484916,-2.7657325279262235e-05,2.7008056640909217e-05,-3.7638346365165276e-06,-0.0004637967137358188,0.0012675489421151917,-0.00018231060701163042,-0.0008145249041686716,2.702172402155552e-05,0.0002738507094688805,0.001745092754857207,0.018151462078094482,18.078760147094727,-0.9934418201446533,-18.222078323364258,-0.4864402413368225,-2.2818026542663574,0.16604940593242645,0
12,0.05502748489379883,-0.018151462078094482,-18.078760147094727,0.9934418201446533,18.222078323364258,0.4864402413368225,2.2818026542663574,-0.16604940593242645,0.0,0.0,0.0,0.0,0.0,0.0,0.0,-0.026314448932367875,0.5175518049056149,0.17005708980985823,0.6148656460228009,0.06161130581427949,0.08733904640317511,-0.2122348143121548,-0.6092480200173562,-0.05776401230797432,-0.6666131989495849,-2.5947643361342583,-0.05559378209026074,2.507949019167158,0.876314612539278,-0.6090851748156966,-0.05753196718556838,-0.666603097082616,-2.5945565370258534,-0.05562143941554,2.507976027223799,0.8763108487046415,0.0004637967137358188,-0.0012675489421151917,0.00018231060701163042,0.0008145249041686716,-2.702172402155552e-05,-0.0002738507094688805,-0.001745092754857207,0.0,0.0,0.0,0.0,0.0,0.0,0.0,0.000162845201659656,0.00023204512240593972,1.0101866968925677e-05,0.00020779910840484916,-2.7657325279262235e-05,2.7008056640909217e-05,-3.7638346365165276e-06,-0.0004637967137358188,0.0012675489421151917,-0.00018231060701163042,-0.0008145249041686716,2.702172402155552e-05,0.0002738507094688805,0.001745092754857207,0.018151462078094482,18.078760147094727,-0.9934418201446533,-18.222078323364258,-0.4864402413368225,-2.2818026542663574,0.16604940593242645,0
13,0.06000065803527832,-0.018151462078094482,-18.078760147094727,0.9934418201446533,18.222078323364258,0.4864402413368225,2.2818026542663574,-0.16604940593242645,0.0,0.0,0.0,0.0,0.0,0.0,0.0,-0.026314448932367875,0.5175518049056149,0.17005708980985823,0.6148656460228009,0.06161130581427949,0.08733904640317511,-0.2122348143121548,-0.6092480200173562,-0.05776401230797432,-0.6666131989495849,-2.5947643361342583,-0.05559378209026074,2.507949019167158,0.876314612539278,-0.6090851748156966,-0.05753196718556838,-0.666603097082616,-2.5945565370258534,-0.05562143941554,2.507976027223799,0.8763108487046415,0.0004637967137358188,-0.0012675489421151917,0.00018231060701163042,0.0008145249041686716,-2.702172402155552e-05,-0.0002738507094688805,-0.001745092754857207,0.0,0.0,0.0,0.0,0.0,0.0,0.0,0.000162845201659656,0.00023204512240593972,1.0101866968925677e-05,0.00020779910840484916,-2.7657325279262235e-05,2.7008056640909217e-05,-3.7638346365165276e-06,-0.0004637967137358188,0.0012675489421151917,-0.00018231060701163042,-0.0008145249041686716,2.702172402155552e-05,0.0002738507094688805,0.001745092754857207,0.018151462078094482,18.078760147094727,-0.9934418201446533,-18.222078323364258,-0.4864402413368225,-2.2818026542663574,0.16604940593242645,0
14,0.06499814987182617,-0.018151462078094482,-18.078760147094727,0.9934418201446533,18.222078323364258,0.4864402413368225,2.2818026542663574,-0.16604940593242645,0.0,0.0,0.0,0.0,0.0,0.0,0.0,-0.026314448932367875,0.5175518049056149,0.17005708980985823,0.6148656460228009,0.06161130581427949,0.08733904640317511,-0.2122348143121548,-0.6092480200173562,-0.05776401230797432,-0.6666131989495849,-2.5947643361342583,-0.05559378209026074,2.507949019167158,0.876314612539278,-0.6090851748156966,-0.05753196718556838,-0.666603097082616,-2.5945565370258534,-0.05562143941554,2.507976027223799,0.8763108487046415,0.0004637967137358188,-0.0012675489421151917,0.00018231060701163042,0.0008145249041686716,-2.702172402155552e-05,-0.0002738507094688805,-0.001745092754857207,0.0,0.0,0.0,0.0,0.0,0.0,0.0,0.000162845201659656,0.00023204512240593972,1.0101866968925677e-05,0.00020779910840484916,-2.7657325279262235e-05,2.7008056640909217e-05,-3.7638346365165276e-06,-0.0004637967137358188,0.0012675489421151917,-0.00018231060701163042,-0.0008145249041686716,2.702172402155552e-05,0.0002738507094688805,0.001745092754857207,0.018151462078094482,18.078760147094727,-0.9934418201446533,-18.222078323364258,-0.4864402413368225,-2.2818026542663574,0.16604940593242645,0
15,0.06999921798706055,-0.06972616910934448,-18.130334854125977,0.9696381092071533,18.222078323364258,0.4809470772743225,2.2552523612976074,-0.24112264811992645,0.0,0.0,0.0,0.0,0.0,0.0,0.0,-0.028805472930718314,0.5183642680942171,0.16415821063742222,0.6140567361296215,0.06202184948732689,0.08706478031668717,-0.21076694391438297,-0.6092444007396698,-0.05776039303028792,-0.6666115294767013,-2.5947643361342583,-0.05559421313496736,2.50795196919971,0.8763229540106322,-0.6090851748156966,-0.05753196718556838,-0.666603097082616,-2.5945565370258534,-0.05562143941554,2.507976027223799,0.8763108487046415,0.0008439604235465128,-8.28808868241213e-05,-5.776121030503462e-05,0.0009495679149365055,0.00025961712694139437,0.0007144281472354023,0.000960369127539442,0.0,0.0,0.0,0.0,0.0,0.0,0.0,0.00015922592397321633,0.00022842584471953475,8.432394085322592e-06,0.00020779910840484916,-2.722628057263976e-05,2.4058024088891017e-05,-1.2105305990717241e-05,-0.0008439604235465128,8.28808868241213e-05,5.776121030503462e-05,-0.0009495679149365055,-0.00025961712694139437,-0.0007144281472354023,-0.000960369127539442,0.06972616910934448,18.130334854125977,-0.9696381092071533,-18.222078323364258,-0.4809470772743225,-2.2552523612976074,0.24112264811992645,0
16,0.07500147819519043,-0.06972616910934448,-18.130334854125977,0.9696381092071533,18.222078323364258,0.4809470772743225,2.2552523612976074,-0.24112264811992645,0.0,0.0,0.0,0.0,0.0,0.0,0.0,-0.028805472930718314,0.5183642680942171,0.16415821063742222,0.6140567361296215,0.06202184948732689,0.08706478031668717,-0.21076694391438297,-0.6092444007396698,-0.05776039303028792,-0.6666115294767013,-2.5947643361342583,-0.05559421313496736,2.50795196919971,0.8763229540106322,-0.6090851748156966,-0.05753196718556838,-0.666603097082616,-2.5945565370258534,-0.05562143941554,2.507976027223799,0.8763108487046415,0.0008439604235465128,-8.28808868241213e-05,-5.776121030503462e-05,0.0009495679149365055,0.00025961712694139437,0.0007144281472354023,0.000960369127539442,0.0,0.0,0.0,0.0,0.0,0.0,0.0,0.00015922592397321633,0.00022842584471953475,8.432394085322592e-06,0.00020779910840484916,-2.722628057263976e-05,2.4058024088891017e-05,-1.2105305990717241e-05,-0.0008439604235465128,8.28808868241213e-05,5.776121030503462e-05,-0.0009495679149365055,-0.00025961712694139437,-0.0007144281472354023,-0.000960369127539442,0.06972616910934448,18.130334854125977,-0.9696381092071533,-18.222078323364258,-0.4809470772743225,-2.2552523612976074,0.24112264811992645,0
17,0.07999849319458008,-0.04592245817184448,-18.130334854125977,0.9180634021759033,18.269685745239258,0.4928489327430725,2.2625765800476074,-0.18710653483867645,0.0,0.0,0.0,0.0,0.0,0.0,0.0,-0.02459566864909164,0.5188357366760864,0.16628838311762154,0.6160332659006771,0.06178061432528966,0.08723046041189027,-0.21236399613935636,-0.6092460711755251,-0.05776039303028792,-0.6666079092360433,-2.594767753535389,-0.05559445468201449,2.5079511553976266,0.8763169522202676,-0.6090851748156966,-0.05753196718556838,-0.666603097082616,-2.5945565370258534,-0.05562143941554,2.507976027223799,0.8763108487046415,-8.58942773877879e-05,-0.0003025846994785034,0.0010167940311163377,-0.0007209710402515813,-0.00018453338876965567,0.00036439526354828535,-0.0011946251935964392,0.0,0.0,0.0,0.0,0.0,0.0,0.0,0.0001608963598285218,0.00022842584471953475,4.812153427291577e-06,0.0002112165095353724,-2.6984733525511895e-05,2.4871826172390143e-05,-6.1035156261324275e-06,8.58942773877879e-05,0.0003025846994785034,-0.0010167940311163377,0.0007209710402515813,0.00018453338876965567,-0.00036439526354828535,0.0011946251935964392,0.04592245817184448,18.130334854125977,-0.9180634021759033,-18.269685745239258,-0.4928489327430725,-2.2625765800476074,0.18710653483867645,0
18,0.08500003814697266,-0.04592245817184448,-18.130334854125977,0.9180634021759033,18.269685745239258,0.4928489327430725,2.2625765800476074,-0.18710653483867645,0.0,0.0,0.0,0.0,0.0,0.0,0.0,-0.02459566864909164,0.5188357366760864,0.16628838311762154,0.6160332659006771,0.06178061432528966,0.08723046041189027,-0.21236399613935636,-0.6092460711755251,-0.05776039303028792,-0.6666079092360433,-2.594767753535389,-0.05559445468201449,2.5079511553976266,0.8763169522202676,-0.6090851748156966,-0.05753196718556838,-0.666603097082616,-2.5945565370258534,-0.05562143941554,2.507976027223799,0.8763108487046415,-8.58942773877879e-05,-0.0003025846994785034,0.0010167940311163377,-0.0007209710402515813,-0.00018453338876965567,0.00036439526354828535,-0.0011946251935964392,0.0,0.0,0.0,0.0,0.0,0.0,0.0,0.0001608963598285218,0.00022842584471953475,4.812153427291577e-06,0.0002112165095353724,-2.6984733525511895e-05,2.4871826172390143e-05,-6.1035156261324275e-06,8.58942773877879e-05,0.0003025846994785034,-0.0010167940311163377,0.0007209710402515813,0.00018453338876965567,-0.00036439526354828535,0.0011946251935964392,0.04592245817184448,18.130334854125977,-0.9180634021759033,-18.269685745239258,-0.4928489327430725,-2.2625765800476074,0.18710653483867645,0
19,0.09000945091247559,-0.04592245817184448,-18.130334854125977,0.9934418201446533,18.269685745239258,0.4928489327430725,2.2753939628601074,-0.20083944499492645,0.0,0.0,0.0,0.0,0.0,0.0,0.0,-0.03226851223546792,0.5185876929379811,0.1603979248082164,0.6196306423389639,0.06240931501806582,0.08780848912362342,-0.21217545747335284,-0.6092460711755251,-0.05776039303028792,-0.6666132077233703,-2.5947676770064003,-0.05559445613854782,2.507949731243981,0.8763184780991738,-0.6090851748156966,-0.05753196718556838,-0.666603097082616,-2.5945565370258534,-0.05562143941554,2.507976027223799,0.8763108487046415,-0.000745973828454903,-0.00029412971689951156,-0.0005893195964160455,-0.00037708198733538264,-0.00023382571438869892,-1.4161242684353626e-05,-0.0007336292659846419,0.0,0.0,0.0,0.0,0.0,0.0,0.0,0.0001608963598285218,0.00022842584471953475,1.0110640754290579e-05,0.00021113998054689276,-2.698327699218045e-05,2.6295979818069526e-05,-7.629394532360223e-06,0.000745973828454903,0.00029412971689951156,0.0005893195964160455,0.00037708198733538264,0.00023382571438869892,1.4161242684353626e-05,0.0007336292659846419,0.04592245817184448,18.130334854125977,-0.9934418201446533,-18.269685745239258,-0.4928489327430725,-2.2753939628601074,0.20083944499492645,0
20,0.09501481056213379,-0.04592245817184448,-18.130334854125977,0.9934418201446533,18.269685745239258,0.4928489327430725,2.2753939628601074,-0.20083944499492645,0.0,0.0,0.0,0.0,0.0,0.0,0.0,-0.03226851223546792,0.5185876929379811,0.1603979248082164,0.6196306423389639,0.06240931501806582,0.08780848912362342,-0.21217545747335284,-0.6092460711755251,-0.05776039303028792,-0.6666132077233703,-2.5947676770064003,-0.05559445613854782,2.507949731243981,0.8763184780991738,-0.6090851748156966,-0.05753196718556838,-0.666603097082616,-2.5945565370258534,-0.05562143941554,2.507976027223799,0.8763108487046415,-0.000745973828454903,-0.00029412971689951156,-0.0005893195964160455,-0.00037708198733538264,-0.00023382571438869892,-1.4161242684353626e-05,-0.0007336292659846419,0.0,0.0,0.0,0.0,0.0,0.0,0.0,0.0001608963598285218,0.00022842584471953475,1.0110640754290579e-05,0.00021113998054689276,-2.698327699218045e-05,2.6295979818069526e-05,-7.629394532360223e-06,0.000745973828454903,0.00029412971689951156,0.0005893195964160455,0.00037708198733538264,0.00023382571438869892,1.4161242684353626e-05,0.0007336292659846419,0.04592245817184448,18.130334854125977,-0.9934418201446533,-18.269685745239258,-0.4928489327430725,-2.2753939628601074,0.20083944499492645,0
21,0.10000419616699219,0.005652248859405518,-18.130334854125977,0.9418671131134033,18.198274612426758,0.4928489327430725,2.2689852714538574,-0.17337362468242645,0.0,0.0,0.0,0.0,0.0,0.0,0.0,-0.032614214126514496,0.5216528281749138,0.16578576969439207,0.615092091513791,0.062349789155598,0.08734802981192877,-0.21327641653037185,-0.6092496904532114,-0.05776039303028792,-0.666609579992935,-2.594762665698403,-0.055594454675921105,2.5079504433208037,0.8763153870955048,-0.6090851748156966,-0.05753196718556838,-0.666603097082616,-2.5945565370258534,-0.05562143941554,2.507976027223799,0.8763108487046415,-0.0009316794222798198,-0.0006459185646165684,0.001071218518889496,0.0009498843497160418,-0.00016226733419017432,-0.00028061263601737344,-0.001291503674251158,0.0,0.0,0.0,0.0,0.0,0.0,0.0,0.00016451563751485043,0.00022842584471953475,6.48291031901671e-06,0.00020612867254943268,-2.6984739618894638e-05,2.5583902995229835e-05,-4.538390863340069e-06,0.0009316794222798198,0.0006459185646165684,-0.001071218518889496,-0.0009498843497160418,0.00016226733419017432,0.00028061263601737344,0.001291503674251158,-0.005652248859405518,18.130334854125977,-0.9418671131134033,-18.198274612426758,-0.4928489327430725,-2.2689852714538574,0.17337362468242645,0
22,0.10500621795654297,0.005652248859405518,-18.130334854125977,0.9418671131134033,18.198274612426758,0.4928489327430725,2.2689852714538574,-0.17337362468242645,0.0,0.0,0.0,0.0,0.0,0.0,0.0,-0.032614214126514496,0.5216528281749138,0.16578576969439207,0.615092091513791,0.062349789155598,0.08734802981192877,-0.21327641653037185,-0.6092496904532114,-0.05776039303028792,-0.666609579992935,-2.594762665698403,-0.055594454675921105,2.5079504433208037,0.8763153870955048,-0.6090851748156966,-0.05753196718556838,-0.666603097082616,-2.5945565370258534,-0.05562143941554,2.507976027223799,0.8763108487046415,-0.0009316794222798198,-0.0006459185646165684,0.001071218518889496,0.0009498843497160418,-0.00016226733419017432,-0.00028061263601737344,-0.001291503674251158,0.0,0.0,0.0,0.0,0.0,0.0,0.0,0.00016451563751485043,0.00022842584471953475,6.48291031901671e-06,0.00020612867254943268,-2.6984739618894638e-05,2.5583902995229835e-05,-4.538390863340069e-06,0.0009316794222798198,0.0006459185646165684,-0.001071218518889496,-0.0009498843497160418,0.00016226733419017432,0.00028061263601737344,0.001291503674251158,-0.005652248859405518,18.130334854125977,-0.9418671131134033,-18.198274612426758,-0.4928489327430725,-2.2689852714538574,0.17337362468242645,0
23,0.11000323295593262,-0.04592245817184448,-18.130334854125977,1.0410492420196533,18.245882034301758,0.4864402413368225,2.2625765800476074,-0.24844686686992645,0.0,0.0,0.0,0.0,0.0,0.0,0.0,-0.0380417092887151,0.5185889414976956,0.160618506629992,0.6192580914657743,0.06296060170592432,0.08709173681260927,-0.21179067451109504,-0.6092460711755251,-0.05776039303028792,-0.6666165398212919,-2.5947660065701132,-0.055593746986994735,2.5079511553976266,0.876323767812494,-0.6090851748156966,-0.05753196718556838,-0.666603097082616,-2.5945565370258534,-0.05562143941554,2.507976027223799,0.8763108487046415,0.0005495690515585893,-0.0001660083391470033,-0.0015648927291995937,4.7945896350771014e-05,-0.00020659270049000396,0.00025246697508565726,0.0012202360345864376,0.0,0.0,0.0,0.0,0.0,0.0,0.0,0.0001608963598285218,0.00022842584471953475,1.3442738675872867e-05,0.00020946954425982156,-2.7692428545264547e-05,2.4871826172390143e-05,-1.291910785250483e-05,-0.0005495690515585893,0.0001660083391470033,0.0015648927291995937,-4.7945896350771014e-05,0.00020659270049000396,-0.00025246697508565726,-0.0012202360345864376,0.04592245817184448,18.130334854125977,-1.0410492420196533,-18.245882034301758,-0.4864402413368225,-2.2625765800476074,0.24844686686992645,0
24,0.11500358581542969,-0.04592245817184448,-18.130334854125977,1.0410492420196533,18.245882034301758,0.4864402413368225,2.2625765800476074,-0.24844686686992645,0.0,0.0,0.0,0.0,0.0,0.0,0.0,-0.0380417092887151,0.5185889414976956,0.160618506629992,0.6192580914657743,0.06296060170592432,0.08709173681260927,-0.21179067451109504,-0.6092460711755251,-0.05776039303028792,-0.6666165398212919,-2.5947660065701132,-0.055593746986994735,2.5079511553976266,0.876323767812494,-0.6090851748156966,-0.05753196718556838,-0.666603097082616,-2.5945565370258534,-0.05562143941554,2.507976027223799,0.8763108487046415,0.0005495690515585893,-0.0001660083391470033,-0.0015648927291995937,4.7945896350771014e-05,-0.00020659270049000396,0.00025246697508565726,0.0012202360345864376,0.0,0.0,0.0,0.0,0.0,0.0,0.0,0.0001608963598285218,0.00022842584471953475,1.3442738675872867e-05,0.00020946954425982156,-2.7692428545264547e-05,2.4871826172390143e-05,-1.291910785250483e-05,-0.0005495690515585893,0.0001660083391470033,0.0015648927291995937,-4.7945896350771014e-05,0.00020659270049000396,-0.00025246697508565726,-0.0012202360345864376,0.04592245817184448,18.130334854125977,-1.0410492420196533,-18.245882034301758,-0.4864402413368225,-2.2625765800476074,0.24844686686992645,0
25,0.12000656127929688,-0.04592245817184448,-18.106531143188477,0.9934418201446533,18.245882034301758,0.4864402413368225,2.2753939628601074,-0.17337362468242645,0.0,0.0,0.0,0.0,0.0,0.0,0.0,-0.03279594329071099,0.5247590987568338,0.1658978009200418,0.6154347899153627,0.062430241632577356,0.08577874522871945,-0.21292918273014358,-0.6092460711755251,-0.05776206346614318,-0.6666132076163729,-2.594766695334897,-0.055593742599114704,2.507949731243981,0.8763154263413614,-0.6090851748156966,-0.05753196718556838,-0.666603097082616,-2.5945565370258534,-0.05562143941554,2.507976027223799,0.8763108487046415,0.00039576393226242105,-0.00016226115238456083,0.0006589719258710385,-4.0936197437334605e-05,0.00014991378286330595,-4.898753944095853e-05,-0.001416572159613087,0.0,0.0,0.0,0.0,0.0,0.0,0.0,0.0001608963598285218,0.00023009628057479858,1.0110533756879647e-05,0.00021015830904369537,-2.769681642529609e-05,2.6295979818069526e-05,-4.577636719904632e-06,-0.00039576393226242105,0.00016226115238456083,-0.0006589719258710385,4.0936197437334605e-05,-0.00014991378286330595,4.898753944095853e-05,0.001416572159613087,0.04592245817184448,18.106531143188477,-0.9934418201446533,-18.245882034301758,-0.4864402413368225,-2.2753939628601074,0.17337362468242645,0
26,0.1250007152557373,-0.04592245817184448,-18.106531143188477,0.9934418201446533,18.245882034301758,0.4864402413368225,2.2753939628601074,-0.17337362468242645,0.0,0.0,0.0,0.0,0.0,0.0,0.0,-0.03279594329071099,0.5247590987568338,0.1658978009200418,0.6154347899153627,0.062430241632577356,0.08577874522871945,-0.21292918273014358,-0.6092460711755251,-0.05776206346614318,-0.6666132076163729,-2.594766695334897,-0.055593742599114704,2.507949731243981,0.8763154263413614,-0.6090851748156966,-0.05753196718556838,-0.666603097082616,-2.5945565370258534,-0.05562143941554,2.507976027223799,0.8763108487046415,0.00039576393226242105,-0.00016226115238456083,0.0006589719258710385,-4.0936197437334605e-05,0.00014991378286330595,-4.898753944095853e-05,-0.001416572159613087,0.0,0.0,0.0,0.0,0.0,0.0,0.0,0.0001608963598285218,0.00023009628057479858,1.0110533756879647e-05,0.00021015830904369537,-2.769681642529609e-05,2.6295979818069526e-05,-4.577636719904632e-06,-0.00039576393226242105,0.00016226115238456083,-0.0006589719258710385,4.0936197437334605e-05,-0.00014991378286330595,4.898753944095853e-05,0.001416572159613087,0.04592245817184448,18.106531143188477,-0.9934418201446533,-18.245882034301758,-0.4864402413368225,-2.2753939628601074,0.17337362468242645,0
27,0.13009905815124512,0.005652248859405518,-18.154138565063477,1.0172455310821533,18.245882034301758,0.4864402413368225,2.2625765800476074,-0.18710653483867645,0.0,0.0,0.0,0.0,0.0,0.0,0.0,-0.03346718680061797,0.5169878524591951,0.1672437119548349,0.6185879356057176,0.06279091311976595,0.08692492892622748,-0.21096090702549142,-0.6092496904532114,-0.057758722594432654,-0.6666148780522771,-2.5947660065740012,-0.05559378225274817,2.5079511553976266,0.8763169522202676,-0.6090851748156966,-0.05753196718556838,-0.666603097082616,-2.5945565370258534,-0.05562143941554,2.507976027223799,0.8763108487046415,-0.0004420855235870777,6.004866817631445e-05,-0.0006113161596172896,0.00014655869837388788,-9.291686760788189e-05,0.0003040943401904911,-0.0014087010009861285,0.0,0.0,0.0,0.0,0.0,0.0,0.0,0.00016451563751485043,0.00022675540886427092,1.1780969661145946e-05,0.0002094695481478226,-2.7657162791829004e-05,2.4871826172390143e-05,-6.1035156261324275e-06,0.0004420855235870777,-6.004866817631445e-05,0.0006113161596172896,-0.00014655869837388788,9.291686760788189e-05,-0.0003040943401904911,0.0014087010009861285,-0.005652248859405518,18.154138565063477,-1.0172455310821533,-18.245882034301758,-0.4864402413368225,-2.2625765800476074,0.18710653483867645,0
28,0.13499927520751953,0.005652248859405518,-18.154138565063477,1.0172455310821533,18.245882034301758,0.4864402413368225,2.2625765800476074,-0.18710653483867645,0.0,0.0,0.0,0.0,0.0,0.0,0.0,-0.03346718680061797,0.5169878524591951,0.1672437119548349,0.6185879356057176,0.06279091311976595,0.08692492892622748,-0.21096090702549142,-0.6092496904532114,-0.057758722594432654,-0.6666148780522771,-2.5947660065740012,-0.05559378225274817,2.5079511553976266,0.8763169522202676,-0.6090851748156966,-0.05753196718556838,-0.666603097082616,-2.5945565370258534,-0.05562143941554,2.507976027223799,0.8763108487046415,-0.0004420855235870777,6.004866817631445e-05,-0.0006113161596172896,0.00014655869837388788,-9.291686760788189e-05,0.0003040943401904911,-0.0014087010009861285,0.0,0.0,0.0,0.0,0.0,0.0,0.0,0.00016451563751485043,0.00022675540886427092,1.1780969661145946e-05,0.0002094695481478226,-2.7657162791829004e-05,2.4871826172390143e-05,-6.1035156261324275e-06,0.0004420855235870777,-6.004866817631445e-05,0.0006113161596172896,-0.00014655869837388788,9.291686760788189e-05,-0.0003040943401904911,0.0014087010009861285,-0.005652248859405518,18.154138565063477,-1.0172455310821533,-18.245882034301758,-0.4864402413368225,-2.2625765800476074,0.18710653483867645,0
29,0.14000225067138672,0.005652248859405518,-18.154138565063477,1.0172455310821533,18.245882034301758,0.4864402413368225,2.2625765800476074,-0.18710653483867645,0.0,0.0,0.0,0.0,0.0,0.0,0.0,-0.03346718680061797,0.5169878524591951,0.1672437119548349,0.6185879356057176,0.06279091311976595,0.08692492892622748,-0.21096090702549142,-0.6092496904532114,-0.057758722594432654,-0.6666148780522771,-2.5947660065740012,-0.05559378225274817,2.5079511553976266,0.8763169522202676,-0.6090851748156966,-0.05753196718556838,-0.666603097082616,-2.5945565370258534,-0.05562143941554,2.507976027223799,0.8763108487046415,-0.0004420855235870777,6.004866817631445e-05,-0.0006113161596172896,0.00014655869837388788,-9.291686760788189e-05,0.0003040943401904911,-0.0014087010009861285,0.0,0.0,0.0,0.0,0.0,0.0,0.0,0.00016451563751485043,0.00022675540886427092,1.1780969661145946e-05,0.0002094695481478226,-2.7657162791829004e-05,2.4871826172390143e-05,-6.1035156261324275e-06,0.0004420855235870777,-6.004866817631445e-05,0.0006113161596172896,-0.00014655869837388788,9.291686760788189e-05,-0.0003040943401904911,0.0014087010009861285,-0.005652248859405518,18.154138565063477,-1.0172455310821533,-18.245882034301758,-0.4864402413368225,-2.2625765800476074,0.18710653483867645,0
30,0.145003080368042,-0.06972616910934448,-18.130334854125977,0.9418671131134033,18.222078323364258,0.4928489327430725,2.2818026542663574,-0.20724813640117645,0.0,0.0,0.0,0.0,0.0,0.0,0.0,-0.0327570974895775,0.5232932549372588,0.16735397763051726,0.6139089474562479,0.0625397037137522,0.08603009852005875,-0.21162352459679407,-0.6092444007396698,-0.05776039303028792,-0.666609579671942,-2.5947643361342583,-0.05559765345873965,2.507949019167158,0.8763191901759968,-0.6090851748156966,-0.05753196718556838,-0.666603097082616,-2.5945565370258534,-0.05562143941554,2.507976027223799,0.8763108487046415,0.0007093460363055391,9.381210939586212e-05,0.0009936504396178246,0.0004875575632480591,-0.00010336969655419475,-0.0003502938501221695,0.0004349757956417741,0.0,0.0,0.0,0.0,0.0,0.0,0.0,0.00015922592397321633,0.00022842584471953475,6.48258932600676e-06,0.00020779910840484916,-2.3785956800352615e-05,2.7008056640909217e-05,-8.341471355310937e-06,-0.0007093460363055391,-9.381210939586212e-05,-0.0009936504396178246,-0.0004875575632480591,0.00010336969655419475,0.0003502938501221695,-0.0004349757956417741,0.06972616910934448,18.130334854125977,-0.9418671131134033,-18.222078323364258,-0.4928489327430725,-2.2818026542663574,0.20724813640117645,0
31,0.15001177787780762,-0.06972616910934448,-18.130334854125977,0.9418671131134033,18.222078323364258,0.4928489327430725,2.2818026542663574,-0.20724813640117645,0.0,0.0,0.0,0.0,0.0,0.0,0.0,-0.0327570974895775,0.5232932549372588,0.16735397763051726,0.6139089474562479,0.0625397037137522,0.08603009852005875,-0.21162352459679407,-0.6092444007396698,-0.05776039303028792,-0.666609579671942,-2.5947643361342583,-0.05559765345873965,2.507949019167158,0.8763191901759968,-0.6090851748156966,-0.05753196718556838,-0.666603097082616,-2.5945565370258534,-0.05562143941554,2.507976027223799,0.8763108487046415,0.0007093460363055391,9.381210939586212e-05,0.0009936504396178246,0.0004875575632480591,-0.00010336969655419475,-0.0003502938501221695,0.0004349757956417741,0.0,0.0,0.0,0.0,0.0,0.0,0.0,0.00015922592397321633,0.00022842584471953475,6.48258932600676e-06,0.00020779910840484916,-2.3785956800352615e-05,2.7008056640909217e-05,-8.341471355310937e-06,-0.0007093460363055391,-9.381210939586212e-05,-0.0009936504396178246,-0.0004875575632480591,0.00010336969655419475,0.0003502938501221695,-0.0004349757956417741,0.06972616910934448,18.130334854125977,-0.9418671131134033,-18.222078323364258,-0.4928489327430725,-2.2818026542663574,0.20724813640117645,0
32,0.15503668785095215,-0.018151462078094482,-18.106531143188477,0.9934418201446533,18.245882034301758,0.4864402413368225,2.2689852714538574,-0.23471395671367645,0.0,0.0,0.0,0.0,0.0,0.0,0.0,-0.027873543902298056,0.5207816449271042,0.17267835182983374,0.6172123792868971,0.06292963071689514,0.08719972645062925,-0.21062895594078482,-0.6092480200173562,-0.05776206346614318,-0.6666132249499596,-2.594766009404536,-0.05559409803743637,2.5079504433208037,0.8763222419338093,-0.6090851748156966,-0.05753196718556838,-0.666603097082616,-2.5945565370258534,-0.05562143941554,2.507976027223799,0.8763108487046415,-0.0004901300127392179,-0.0005714183411548001,5.2670077913954384e-05,0.0003154386892148771,3.5301470036177155e-05,1.1947986606333013e-06,0.0004273751945391479,0.0,0.0,0.0,0.0,0.0,0.0,0.0,0.000162845201659656,0.00023009628057479858,1.0127867343556751e-05,0.00020947237868274016,-2.7341378103631908e-05,2.5583902995229835e-05,-1.1393229167766528e-05,0.0004901300127392179,0.0005714183411548001,-5.2670077913954384e-05,-0.0003154386892148771,-3.5301470036177155e-05,-1.1947986606333013e-06,-0.0004273751945391479,0.018151462078094482,18.106531143188477,-0.9934418201446533,-18.245882034301758,-0.4864402413368225,-2.2689852714538574,0.23471395671367645,0
33,0.1600027084350586,-0.018151462078094482,-18.106531143188477,0.9934418201446533,18.245882034301758,0.4864402413368225,2.2689852714538574,-0.23471395671367645,0.0,0.0,0.0,0.0,0.0,0.0,0.0,-0.027873543902298056,0.5207816449271042,0.17267835182983374,0.6172123792868971,0.06292963071689514,0.08719972645062925,-0.21062895594078482,-0.6092480200173562,-0.05776206346614318,-0.6666132249499596,-2.594766009404536,-0.05559409803743637,2.5079504433208037,0.8763222419338093,-0.6090851748156966,-0.05753196718556838,-0.666603097082616,-2.5945565370258534,-0.05562143941554,2.507976027223799,0.8763108487046415,-0.0004901300127392179,-0.0005714183411548001,5.2670077913954384e-05,0.0003154386892148771,3.5301470036177155e-05,1.1947986606333013e-06,0.0004273751945391479,0.0,0.0,0.0,0.0,0.0,0.0,0.0,0.000162845201659656,0.00023009628057479858,1.0127867343556751e-05,0.00020947237868274016,-2.7341378103631908e-05,2.5583902995229835e-05,-1.1393229167766528e-05,0.0004901300127392179,0.0005714183411548001,-5.2670077913954384e-05,-0.0003154386892148771,-3.5301470036177155e-05,-1.1947986606333013e-06,-0.0004273751945391479,0.018151462078094482,18.106531143188477,-0.9934418201446533,-18.245882034301758,-0.4864402413368225,-2.2689852714538574,0.23471395671367645,0
34,0.16509556770324707,-0.06972616910934448,-18.106531143188477,0.9696381092071533,18.269685745239258,0.4928489327430725,2.2552523612976074,-0.21457235515117645,0.0,0.0,0.0,0.0,0.0,0.0,0.0,-0.03309514148669997,0.5249547272561426,0.17200717985002026,0.6185195032782331,0.06366888434544775,0.08687818094563032,-0.2122657710421473,-0.6092444007396698,-0.05776206346614318,-0.6666115371805665,-2.594767677005974,-0.05559481015104255,2.50795196919971,0.8763200039780801,-0.6090851748156966,-0.05753196718556838,-0.666603097082616,-2.5945565370258534,-0.05562143941554,2.507976027223799,0.8763108487046415,0.0008371557470031371,-0.00032155185031935345,0.00041629478334673036,-0.00032292033936299634,-0.0002519693006850176,0.00037147070947590564,0.0003856082218556856,0.0,0.0,0.0,0.0,0.0,0.0,0.0,0.00015922592397321633,0.00023009628057479858,8.44009795053502e-06,0.00021113998012056712,-2.6629264497451954e-05,2.4058024088891017e-05,-9.155273438588019e-06,-0.0008371557470031371,0.00032155185031935345,-0.00041629478334673036,0.00032292033936299634,0.0002519693006850176,-0.00037147070947590564,-0.0003856082218556856,0.06972616910934448,18.106531143188477,-0.9696381092071533,-18.269685745239258,-0.4928489327430725,-2.2552523612976074,0.21457235515117645,0
35,0.1701500415802002,-0.06972616910934448,-18.106531143188477,0.9696381092071533,18.269685745239258,0.4928489327430725,2.2552523612976074,-0.21457235515117645,0.0,0.0,0.0,0.0,0.0,0.0,0.0,-0.03309514148669997,0.5249547272561426,0.17200717985002026,0.6185195032782331,0.06366888434544775,0.08687818094563032,-0.2122657710421473,-0.6092444007396698,-0.05776206346614318,-0.6666115371805665,-2.594767677005974,-0.05559481015104255,2.50795196919971,0.8763200039780801,-0.6090851748156966,-0.05753196718556838,-0.666603097082616,-2.5945565370258534,-0.05562143941554,2.507976027223799,0.8763108487046415,0.0008371557470031371,-0.00032155185031935345,0.00041629478334673036,-0.00032292033936299634,-0.0002519693006850176,0.00037147070947590564,0.0003856082218556856,0.0,0.0,0.0,0.0,0.0,0.0,0.0,0.00015922592397321633,0.00023009628057479858,8.44009795053502e-06,0.00021113998012056712,-2.6629264497451954e-05,2.4058024088891017e-05,-9.155273438588019e-06,-0.0008371557470031371,0.00032155185031935345,-0.00041629478334673036,0.00032292033936299634,0.0002519693006850176,-0.00037147070947590564,-0.0003856082218556856,0.06972616910934448,18.106531143188477,-0.9696381092071533,-18.269685745239258,-0.4928489327430725,-2.2552523612976074,0.21457235515117645,0
36,0.1750955581665039,-0.06972616910934448,-18.106531143188477,0.9696381092071533,18.269685745239258,0.4928489327430725,2.2552523612976074,-0.21457235515117645,0.0,0.0,0.0,0.0,0.0,0.0,0.0,-0.03309514148669997,0.5249547272561426,0.17200717985002026,0.6185195032782331,0.06366888434544775,0.08687818094563032,-0.2122657710421473,-0.6092444007396698,-0.05776206346614318,-0.6666115371805665,-2.594767677005974,-0.05559481015104255,2.50795196919971,0.8763200039780801,-0.6090851748156966,-0.05753196718556838,-0.666603097082616,-2.5945565370258534,-0.05562143941554,2.507976027223799,0.8763108487046415,0.0008371557470031371,-0.00032155185031935345,0.00041629478334673036,-0.00032292033936299634,-0.0002519693006850176,0.00037147070947590564,0.0003856082218556856,0.0,0.0,0.0,0.0,0.0,0.0,0.0,0.00015922592397321633,0.00023009628057479858,8.44009795053502e-06,0.00021113998012056712,-2.6629264497451954e-05,2.4058024088891017e-05,-9.155273438588019e-06,-0.0008371557470031371,0.00032155185031935345,-0.00041629478334673036,0.00032292033936299634,0.0002519693006850176,-0.00037147070947590564,-0.0003856082218556856,0.06972616910934448,18.106531143188477,-0.9696381092071533,-18.269685745239258,-0.4928489327430725,-2.2552523612976074,0.21457235515117645,0
37,0.17999911308288574,-0.06972616910934448,-18.106531143188477,0.9696381092071533,18.269685745239258,0.4928489327430725,2.2552523612976074,-0.21457235515117645,0.0,0.0,0.0,0.0,0.0,0.0,0.0,-0.03309514148669997,0.5249547272561426,0.17200717985002026,0.6185195032782331,0.06366888434544775,0.08687818094563032,-0.2122657710421473,-0.6092444007396698,-0.05776206346614318,-0.6666115371805665,-2.594767677005974,-0.05559481015104255,2.50795196919971,0.8763200039780801,-0.6090851748156966,-0.05753196718556838,-0.666603097082616,-2.5945565370258534,-0.05562143941554,2.507976027223799,0.8763108487046415,0.0008371557470031371,-0.00032155185031935345,0.00041629478334673036,-0.00032292033936299634,-0.0002519693006850176,0.00037147070947590564,0.0003856082218556856,0.0,0.0,0.0,0.0,0.0,0.0,0.0,0.00015922592397321633,0.00023009628057479858,8.44009795053502e-06,0.00021113998012056712,-2.6629264497451954e-05,2.4058024088891017e-05,-9.155273438588019e-06,-0.0008371557470031371,0.00032155185031935345,-0.00041629478334673036,0.00032292033936299634,0.0002519693006850176,-0.00037147070947590564,-0.0003856082218556856,0.06972616910934448,18.106531143188477,-0.9696381092071533,-18.269685745239258,-0.4928489327430725,-2.2552523612976074,0.21457235515117645,0
38,0.1849994659423828,-0.06972616910934448,-18.130334854125977,1.0172455310821533,18.245882034301758,0.4864402413368225,2.2552523612976074,-0.26217979192733765,0.0,0.0,0.0,0.0,0.0,0.0,0.0,-0.03708281388300901,0.5272775399244852,0.1675912023698442,0.6179334144653906,0.06371225735289289,0.08523321036996974,-0.2114328708903122,-0.6092444007396698,-0.05776039303028792,-0.6666155723587215,-2.5947660065701132,-0.05559409948402075,2.50795196919971,0.8763252936932775,-0.6090851748156966,-0.05753196718556838,-0.666603097082616,-2.5945565370258534,-0.05562143941554,2.507976027223799,0.8763108487046415,0.0005084916349332741,0.0001293727439455942,-0.0008505233134462404,-0.00025055462054976137,-0.00011255363525443563,0.00034145105103233704,0.0019056977040809438,0.0,0.0,0.0,0.0,0.0,0.0,0.0,0.00015922592397321633,0.00022842584471953475,1.2475276105483601e-05,0.00020946954425982156,-2.7339931519251848e-05,2.4058024088891017e-05,-1.4444988636008738e-05,-0.0005084916349332741,-0.0001293727439455942,0.0008505233134462404,0.00025055462054976137,0.00011255363525443563,-0.00034145105103233704,-0.0019056977040809438,0.06972616910934448,18.130334854125977,-1.0172455310821533,-18.245882034301758,-0.4864402413368225,-2.2552523612976074,0.26217979192733765,0
39,0.19011521339416504,-0.06972616910934448,-18.130334854125977,1.0172455310821533,18.245882034301758,0.4864402413368225,2.2552523612976074,-0.26217979192733765,0.0,0.0,0.0,0.0,0.0,0.0,0.0,-0.03708281388300901,0.5272775399244852,0.1675912023698442,0.6179334144653906,0.06371225735289289,0.08523321036996974,-0.2114328708903122,-0.6092444007396698,-0.05776039303028792,-0.6666155723587215,-2.5947660065701132,-0.05559409948402075,2.50795196919971,0.8763252936932775,-0.6090851748156966,-0.05753196718556838,-0.666603097082616,-2.5945565370258534,-0.05562143941554,2.507976027223799,0.8763108487046415,0.0005084916349332741,0.0001293727439455942,-0.0008505233134462404,-0.00025055462054976137,-0.00011255363525443563,0.00034145105103233704,0.0019056977040809438,0.0,0.0,0.0,0.0,0.0,0.0,0.0,0.00015922592397321633,0.00022842584471953475,1.2475276105483601e-05,0.00020946954425982156,-2.7339931519251848e-05,2.4058024088891017e-05,-1.4444988636008738e-05,-0.0005084916349332741,-0.0001293727439455942,0.0008505233134462404,0.00025055462054976137,0.00011255363525443563,-0.00034145105103233704,-0.0019056977040809438,0.06972616910934448,18.130334854125977,-1.0172455310821533,-18.245882034301758,-0.4864402413368225,-2.2552523612976074,0.26217979192733765,0
40,0.19511675834655762,-0.06972616910934448,-18.154138565063477,0.9696381092071533,18.245882034301758,0.4928489327430725,2.2753939628601074,-0.22098104655742645,0.0,0.0,0.0,0.0,0.0,0.0,0.0,-0.03995478658062322,0.5223624201096492,0.16577138728760024,0.6181704827915899,0.06398394058060677,0.08487117301575958,-0.2130755515646365,-0.6092444007396698,-0.057758722594432654,-0.6666115294806696,-2.594766015073382,-0.0555948232619311,2.507949731243981,0.8763206768090465,-0.6090851748156966,-0.05753196718556838,-0.666603097082616,-2.5945565370258534,-0.05562143941554,2.507976027223799,0.8763108487046415,0.000521294429378834,0.0002048085649484864,0.00014481035224094186,-0.0004780854878556353,-0.00010337506017660615,0.00011188665629400572,0.00037454866675659454,0.0,0.0,0.0,0.0,0.0,0.0,0.0,0.00015922592397321633,0.00022675540886427092,8.432398053592749e-06,0.00020947804752857735,-2.6616153608896576e-05,2.6295979818069526e-05,-9.82810440497417e-06,-0.000521294429378834,-0.0002048085649484864,-0.00014481035224094186,0.0004780854878556353,0.00010337506017660615,-0.00011188665629400572,-0.00037454866675659454,0.06972616910934448,18.154138565063477,-0.9696381092071533,-18.245882034301758,-0.4928489327430725,-2.2753939628601074,0.22098104655742645,0
41,0.20000028610229492,-0.06972616910934448,-18.154138565063477,0.9696381092071533,18.245882034301758,0.4928489327430725,2.2753939628601074,-0.22098104655742645,0.0,0.0,0.0,0.0,0.0,0.0,0.0,-0.03995478658062322,0.5223624201096492,0.16577138728760024,0.6181704827915899,0.06398394058060677,0.08487117301575958,-0.2130755515646365,-0.6092444007396698,-0.057758722594432654,-0.6666115294806696,-2.594766015073382,-0.0555948232619311,2.507949731243981,0.8763206768090465,-0.6090851748156966,-0.05753196718556838,-0.666603097082616,-2.5945565370258534,-0.05562143941554,2.507976027223799,0.8763108487046415,0.000521294429378834,0.0002048085649484864,0.00014481035224094186,-0.0004780854878556353,-0.00010337506017660615,0.00011188665629400572,0.00037454866675659454,0.0,0.0,0.0,0.0,0.0,0.0,0.0,0.00015922592397321633,0.00022675540886427092,8.432398053592749e-06,0.00020947804752857735,-2.6616153608896576e-05,2.6295979818069526e-05,-9.82810440497417e-06,-0.000521294429378834,-0.0002048085649484864,-0.00014481035224094186,0.0004780854878556353,0.00010337506017660615,-0.00011188665629400572,-0.00037454866675659454,0.06972616910934448,18.154138565063477,-0.9696381092071533,-18.245882034301758,-0.4928489327430725,-2.2753939628601074,0.22098104655742645,0
42,0.2050018310546875,-0.04592245817184448,-18.177942276000977,0.9696381092071533,18.245882034301758,0.4928489327430725,2.2753939628601074,-0.17337362468242645,0.0,0.0,0.0,0.0,0.0,0.0,0.0,-0.04198510727271972,0.5130483945798311,0.16257221232796704,0.6226112006379413,0.06427688925557401,0.0872337584085876,-0.2111667870244709,-0.6092460711755251,-0.05775705215857739,-0.6666115285493955,-2.594766006570161,-0.055594460528533264,2.507949731243981,0.8763154248875896,-0.6090851748156966,-0.05753196718556838,-0.666603097082616,-2.5945565370258534,-0.05562143941554,2.507976027223799,0.8763108487046415,-0.00027163590910802524,3.1505443127897444e-05,5.495644522094028e-05,0.0004999261565401338,-0.0002169487783689889,-8.67900418775525e-05,-0.0018998371462073194,0.0,0.0,0.0,0.0,0.0,0.0,0.0,0.0001608963598285218,0.0002250849730090071,8.43146677953488e-06,0.0002094695443077832,-2.697888700673584e-05,2.6295979818069526e-05,-4.576182948134999e-06,0.00027163590910802524,-3.1505443127897444e-05,-5.495644522094028e-05,-0.0004999261565401338,0.0002169487783689889,8.67900418775525e-05,0.0018998371462073194,0.04592245817184448,18.177942276000977,-0.9696381092071533,-18.245882034301758,-0.4928489327430725,-2.2753939628601074,0.17337362468242645,0
43,0.21000266075134277,-0.04592245817184448,-18.177942276000977,0.9696381092071533,18.245882034301758,0.4928489327430725,2.2753939628601074,-0.17337362468242645,0.0,0.0,0.0,0.0,0.0,0.0,0.0,-0.04198510727271972,0.5130483945798311,0.16257221232796704,0.6226112006379413,0.06427688925557401,0.0872337584085876,-0.2111667870244709,-0.6092460711755251,-0.05775705215857739,-0.6666115285493955,-2.594766006570161,-0.055594460528533264,2.507949731243981,0.8763154248875896,-0.6090851748156966,-0.05753196718556838,-0.666603097082616,-2.5945565370258534,-0.05562143941554,2.507976027223799,0.8763108487046415,-0.00027163590910802524,3.1505443127897444e-05,5.495644522094028e-05,0.0004999261565401338,-0.0002169487783689889,-8.67900418775525e-05,-0.0018998371462073194,0.0,0.0,0.0,0.0,0.0,0.0,0.0,0.0001608963598285218,0.0002250849730090071,8.43146677953488e-06,0.0002094695443077832,-2.697888700673584e-05,2.6295979818069526e-05,-4.576182948134999e-06,0.00027163590910802524,-3.1505443127897444e-05,-5.495644522094028e-05,-0.0004999261565401338,0.0002169487783689889,8.67900418775525e-05,0.0018998371462073194,0.04592245817184448,18.177942276000977,-0.9696381092071533,-18.245882034301758,-0.4928489327430725,-2.2753939628601074,0.17337362468242645,0
44,0.21585464477539062,-0.06972616910934448,-18.106531143188477,0.9696381092071533,18.269685745239258,0.4864402413368225,2.2689852714538574,-0.22098104655742645,0.0,0.0,0.0,0.0,0.0,0.0,0.0,-0.035571415330770205,0.5215850087585547,0.16937399845332285,0.6132314017416772,0.06379145249555121,0.0866017378515037,-0.2117392883851878,-0.6092444007396698,-0.05776206346614318,-0.6666115285137244,-2.5947676770059687,-0.05559374276163796,2.5079504433208037,0.8763207160548949,-0.6090851748156966,-0.05753196718556838,-0.666603097082616,-2.5945565370258534,-0.05562143941554,2.507976027223799,0.8763108487046415,0.0009834660046324263,-0.0005695203677017096,0.0006405414620277263,-0.000605507437239667,-0.00013348530074320166,0.000164937647252737,0.0002095944666604849,0.0,0.0,0.0,0.0,0.0,0.0,0.0,0.00015922592397321633,0.00023009628057479858,8.431431108402165e-06,0.00021113998011523805,-2.769665390203735e-05,2.5583902995229835e-05,-9.867350253434104e-06,-0.0009834660046324263,0.0005695203677017096,-0.0006405414620277263,0.000605507437239667,0.00013348530074320166,-0.000164937647252737,-0.0002095944666604849,0.06972616910934448,18.106531143188477,-0.9696381092071533,-18.269685745239258,-0.4864402413368225,-2.2689852714538574,0.22098104655742645,0
45,0.22155094146728516,0.005652248859405518,-18.154138565063477,0.9934418201446533,18.222078323364258,0.4864402413368225,2.2753939628601074,-0.22830526530742645,0.0,0.0,0.0,0.0,0.0,0.0,0.0,-0.036222726160858296,0.5142325229166452,0.1681027355992021,0.6174804597194676,0.06368763957818356,0.08775034039687192,-0.21318003815784625,-0.6092496904532114,-0.057758722594432654,-0.6666131992705719,-2.5947643361342583,-0.05559375625035024,2.507949731243981,0.8763215298031511,-0.6090851748156966,-0.05753196718556838,-0.666603097082616,-2.5945565370258534,-0.05562143941554,2.507976027223799,0.8763108487046415,-0.0006757945485452937,0.0005537449783422484,0.00024751272726491883,0.0007293995294837294,-1.9138003325423204e-05,-0.0002880980325073088,0.0010422434434249985,0.0,0.0,0.0,0.0,0.0,0.0,0.0,0.00016451563751485043,0.00022675540886427092,1.0102187955940423e-05,0.00020779910840484916,-2.7683165189758274e-05,2.6295979818069526e-05,-1.068109850965726e-05,0.0006757945485452937,-0.0005537449783422484,-0.00024751272726491883,-0.0007293995294837294,1.9138003325423204e-05,0.0002880980325073088,-0.0010422434434249985,-0.005652248859405518,18.154138565063477,-0.9934418201446533,-18.222078323364258,-0.4864402413368225,-2.2753939628601074,0.22830526530742645,0
46,0.22500348091125488,0.005652248859405518,-18.154138565063477,0.9934418201446533,18.222078323364258,0.4864402413368225,2.2753939628601074,-0.22830526530742645,0.0,0.0,0.0,0.0,0.0,0.0,0.0,-0.036222726160858296,0.5142325229166452,0.1681027355992021,0.6174804597194676,0.06368763957818356,0.08775034039687192,-0.21318003815784625,-0.6092496904532114,-0.057758722594432654,-0.6666131992705719,-2.5947643361342583,-0.05559375625035024,2.507949731243981,0.8763215298031511,-0.6090851748156966,-0.05753196718556838,-0.666603097082616,-2.5945565370258534,-0.05562143941554,2.507976027223799,0.8763108487046415,-0.0006757945485452937,0.0005537449783422484,0.00024751272726491883,0.0007293995294837294,-1.9138003325423204e-05,-0.0002880980325073088,0.0010422434434249985,0.0,0.0,0.0,0.0,0.0,0.0,0.0,0.00016451563751485043,0.00022675540886427092,1.0102187955940423e-05,0.00020779910840484916,-2.7683165189758274e-05,2.6295979818069526e-05,-1.068109850965726e-05,0.0006757945485452937,-0.0005537449783422484,-0.00024751272726491883,-0.0007293995294837294,1.9138003325423204e-05,0.0002880980325073088,-0.0010422434434249985,-0.005652248859405518,18.154138565063477,-0.9934418201446533,-18.222078323364258,-0.4864402413368225,-2.2753939628601074,0.22830526530742645,0
47,0.23000240325927734,0.005652248859405518,-18.154138565063477,0.9934418201446533,18.222078323364258,0.4864402413368225,2.2753939628601074,-0.22830526530742645,0.0,0.0,0.0,0.0,0.0,0.0,0.0,-0.036222726160858296,0.5142325229166452,0.1681027355992021,0.6174804597194676,0.06368763957818356,0.08775034039687192,-0.21318003815784625,-0.6092496904532114,-0.057758722594432654,-0.6666131992705719,-2.5947643361342583,-0.05559375625035024,2.507949731243981,0.8763215298031511,-0.6090851748156966,-0.05753196718556838,-0.666603097082616,-2.5945565370258534,-0.05562143941554,2.507976027223799,0.8763108487046415,-0.0006757945485452937,0.0005537449783422484,0.00024751272726491883,0.0007293995294837294,-1.9138003325423204e-05,-0.0002880980325073088,0.0010422434434249985,0.0,0.0,0.0,0.0,0.0,0.0,0.0,0.00016451563751485043,0.00022675540886427092,1.0102187955940423e-05,0.00020779910840484916,-2.7683165189758274e-05,2.6295979818069526e-05,-1.068109850965726e-05,0.0006757945485452937,-0.0005537449783422484,-0.00024751272726491883,-0.0007293995294837294,1.9138003325423204e-05,0.0002880980325073088,-0.0010422434434249985,-0.005652248859405518,18.154138565063477,-0.9934418201446533,-18.222078323364258,-0.4864402413368225,-2.2753939628601074,0.22830526530742645,0
48,0.2350001335144043,-0.018151462078094482,-18.130334854125977,1.0410492420196533,18.269685745239258,0.4690452218055725,2.2552523612976074,-0.22098104655742645,0.0,0.0,0.0,0.0,0.0,0.0,0.0,-0.033510270700940314,0.5189265159958106,0.16860317504742378,0.6167198814893263,0.06310579739005417,0.08781130025093276,-0.21334083510751398,-0.6092480200173562,-0.05776039303028792,-0.6666166179650952,-2.5947676770059687,-0.055592877542721665,2.50795196919971,0.8763207160549028,-0.6090851748156966,-0.05753196718556838,-0.666603097082616,-2.5945565370258534,-0.05562143941554,2.507976027223799,0.8763108487046415,0.00022702336084750473,0.0005601161654141768,-0.0013451743043653955,-0.0005828636132914974,0.0007973561929788652,0.0005121290756464384,-0.00015264667460881707,0.0,0.0,0.0,0.0,0.0,0.0,0.0,0.000162845201659656,0.00022842584471953475,1.3520882479189922e-05,0.00021113998011523805,-2.8561872818334832e-05,2.4058024088891017e-05,-9.867350261316687e-06,-0.00022702336084750473,-0.0005601161654141768,0.0013451743043653955,0.0005828636132914974,-0.0007973561929788652,-0.0005121290756464384,0.00015264667460881707,0.018151462078094482,18.130334854125977,-1.0410492420196533,-18.269685745239258,-0.4690452218055725,-2.2552523612976074,0.22098104655742645,0
49,0.23999786376953125,-0.018151462078094482,-18.130334854125977,1.0410492420196533,18.269685745239258,0.4690452218055725,2.2552523612976074,-0.22098104655742645,0.0,0.0,0.0,0.0,0.0,0.0,0.0,-0.033510270700940314,0.5189265159958106,0.16860317504742378,0.6167198814893263,0.06310579739005417,0.08781130025093276,-0.21334083510751398,-0.6092480200173562,-0.05776039303028792,-0.6666166179650952,-2.5947676770059687,-0.055592877542721665,2.50795196919971,0.8763207160549028,-0.6090851748156966,-0.05753196718556838,-0.666603097082616,-2.5945565370258534,-0.05562143941554,2.507976027223799,0.8763108487046415,0.00022702336084750473,0.0005601161654141768,-0.0013451743043653955,-0.0005828636132914974,0.0007973561929788652,0.0005121290756464384,-0.00015264667460881707,0.0,0.0,0.0,0.0,0.0,0.0,0.0,0.000162845201659656,0.00022842584471953475,1.3520882479189922e-05,0.00021113998011523805,-2.8561872818334832e-05,2.4058024088891017e-05,-9.867350261316687e-06,-0.00022702336084750473,-0.0005601161654141768,0.0013451743043653955,0.0005828636132914974,-0.0007973561929788652,-0.0005121290756464384,0.00015264667460881707,0.018151462078094482,18.130334854125977,-1.0410492420196533,-18.269685745239258,-0.4690452218055725,-2.2552523612976074,0.22098104655742645,0
50,0.24499893188476562,-0.018151462078094482,-18.078760147094727,0.9934418201446533,18.245882034301758,0.4864402413368225,2.2689852714538574,-0.16604940593242645,0.0,0.0,0.0,0.0,0.0,0.0,0.0,-0.03533187653099407,0.524139967531686,0.1646359764177346,0.6149886561928407,0.06306556307627335,0.08688572033267515,-0.21475871440522942,-0.6092480200173562,-0.05776401230797432,-0.6666131989500207,-2.5947660065701132,-0.055596946263169994,2.5079504433208037,0.8763135529011487,-0.6090851748156966,-0.05753196718556838,-0.666603097082616,-2.5945565370258534,-0.05562143941554,2.507976027223799,0.8763108487046415,-0.0005634991187064464,-0.0006852418583096993,-0.0006755900190256698,-0.00029123131881042557,1.3812187429389421e-05,-5.388140921454034e-05,-0.0021679656106485257,0.0,0.0,0.0,0.0,0.0,0.0,0.0,0.000162845201659656,0.00023204512240593972,1.0101867404688214e-05,0.00020946954425982156,-2.4493152370005933e-05,2.5583902995229835e-05,-2.704196507163914e-06,0.0005634991187064464,0.0006852418583096993,0.0006755900190256698,0.00029123131881042557,-1.3812187429389421e-05,5.388140921454034e-05,0.0021679656106485257,0.018151462078094482,18.078760147094727,-0.9934418201446533,-18.245882034301758,-0.4864402413368225,-2.2689852714538574,0.16604940593242645,0
51,0.2499995231628418,-0.018151462078094482,-18.078760147094727,0.9934418201446533,18.245882034301758,0.4864402413368225,2.2689852714538574,-0.16604940593242645,0.0,0.0,0.0,0.0,0.0,0.0,0.0,-0.03533187653099407,0.524139967531686,0.1646359764177346,0.6149886561928407,0.06306556307627335,0.08688572033267515,-0.21475871440522942,-0.6092480200173562,-0.05776401230797432,-0.6666131989500207,-2.5947660065701132,-0.055596946263169994,2.5079504433208037,0.8763135529011487,-0.6090851748156966,-0.05753196718556838,-0.666603097082616,-2.5945565370258534,-0.05562143941554,2.507976027223799,0.8763108487046415,-0.0005634991187064464,-0.0006852418583096993,-0.0006755900190256698,-0.00029123131881042557,1.3812187429389421e-05,-5.388140921454034e-05,-0.0021679656106485257,0.0,0.0,0.0,0.0,0.0,0.0,0.0,0.000162845201659656,0.00023204512240593972,1.0101867404688214e-05,0.00020946954425982156,-2.4493152370005933e-05,2.5583902995229835e-05,-2.704196507163914e-06,0.0005634991187064464,0.0006852418583096993,0.0006755900190256698,0.00029123131881042557,-1.3812187429389421e-05,5.388140921454034e-05,0.0021679656106485257,0.018151462078094482,18.078760147094727,-0.9934418201446533,-18.245882034301758,-0.4864402413368225,-2.2689852714538574,0.16604940593242645,0
52,0.2550084590911865,-0.04592245817184448,-18.130334854125977,0.9696381092071533,18.222078323364258,0.4983420968055725,2.2882113456726074,-0.20083944499492645,0.0,0.0,0.0,0.0,0.0,0.0,0.0,-0.0321573601094397,0.5208780903397934,0.16770760539923937,0.6203679710006478,0.06334214355237802,0.08792557678450137,-0.21558252967500968,-0.6092460711755251,-0.05776039303028792,-0.6666115285137243,-2.5947643361342583,-0.055598619302623956,2.507948307090335,0.8763184780931922,-0.6090851748156966,-0.05753196718556838,-0.666603097082616,-2.5945565370258534,-0.05562143941554,2.507976027223799,0.8763108487046415,-3.264421045823536e-05,-0.00018517454379217036,0.0001683732445978327,0.00046994538760552075,-0.0003845578131896863,-0.0006524525656850814,-0.0012041708367998688,0.0,0.0,0.0,0.0,0.0,0.0,0.0,0.0001608963598285218,0.00022842584471953475,8.431431108291143e-06,0.00020779910840484916,-2.2820112916044355e-05,2.7720133464192998e-05,-7.629388550700611e-06,3.264421045823536e-05,0.00018517454379217036,-0.0001683732445978327,-0.00046994538760552075,0.0003845578131896863,0.0006524525656850814,0.0012041708367998688,0.04592245817184448,18.130334854125977,-0.9696381092071533,-18.222078323364258,-0.4983420968055725,-2.2882113456726074,0.20083944499492645,0
53,0.2600371837615967,-0.04592245817184448,-18.130334854125977,0.9696381092071533,18.222078323364258,0.4983420968055725,2.2882113456726074,-0.20083944499492645,0.0,0.0,0.0,0.0,0.0,0.0,0.0,-0.0321573601094397,0.5208780903397934,0.16770760539923937,0.6203679710006478,0.06334214355237802,0.08792557678450137,-0.21558252967500968,-0.6092460711755251,-0.05776039303028792,-0.6666115285137243,-2.5947643361342583,-0.055598619302623956,2.507948307090335,0.8763184780931922,-0.6090851748156966,-0.05753196718556838,-0.666603097082616,-2.5945565370258534,-0.05562143941554,2.507976027223799,0.8763108487046415,-3.264421045823536e-05,-0.00018517454379217036,0.0001683732445978327,0.00046994538760552075,-0.0003845578131896863,-0.0006524525656850814,-0.0012041708367998688,0.0,0.0,0.0,0.0,0.0,0.0,0.0,0.0001608963598285218,0.00022842584471953475,8.431431108291143e-06,0.00020779910840484916,-2.2820112916044355e-05,2.7720133464192998e-05,-7.629388550700611e-06,3.264421045823536e-05,0.00018517454379217036,-0.0001683732445978327,-0.00046994538760552075,0.0003845578131896863,0.0006524525656850814,0.0012041708367998688,0.04592245817184448,18.130334854125977,-0.9696381092071533,-18.222078323364258,-0.4983420968055725,-2.2882113456726074,0.20083944499492645,0
54,0.26521825790405273,-0.04592245817184448,-18.177942276000977,0.9934418201446533,18.269685745239258,0.4928489327430725,2.2689852714538574,-0.21457235515117645,0.0,0.0,0.0,0.0,0.0,0.0,0.0,-0.03391491361555278,0.525525843724547,0.1678139359361348,0.6192754467267007,0.06358173308867371,0.08880347597474375,-0.21781852016162073,-0.6092460711755251,-0.05775705215857739,-0.666613199056577,-2.5947676770059687,-0.0555955341205589,2.5079504433208037,0.8763200039780801,-0.6090851748156966,-0.05753196718556838,-0.666603097082616,-2.5945565370258534,-0.05562143941554,2.507976027223799,0.8763108487046415,0.00025336373001113183,0.0009260394172047891,-0.000513803933912256,-0.0006404483222435725,-7.230521473900664e-05,0.00019262972995919277,0.00041654188377289155,0.0,0.0,0.0,0.0,0.0,0.0,0.0,0.0001608963598285218,0.0002250849730090071,1.0101973961007538e-05,0.00021113998011523805,-2.5905294981101723e-05,2.5583902995229835e-05,-9.155273438588019e-06,-0.00025336373001113183,-0.0009260394172047891,0.000513803933912256,0.0006404483222435725,7.230521473900664e-05,-0.00019262972995919277,-0.00041654188377289155,0.04592245817184448,18.177942276000977,-0.9934418201446533,-18.269685745239258,-0.4928489327430725,-2.2689852714538574,0.21457235515117645,0
55,0.27001023292541504,-0.04592245817184448,-18.177942276000977,0.9934418201446533,18.269685745239258,0.4928489327430725,2.2689852714538574,-0.21457235515117645,0.0,0.0,0.0,0.0,0.0,0.0,0.0,-0.03391491361555278,0.525525843724547,0.1678139359361348,0.6192754467267007,0.06358173308867371,0.08880347597474375,-0.21781852016162073,-0.6092460711755251,-0.05775705215857739,-0.666613199056577,-2.5947676770059687,-0.0555955341205589,2.5079504433208037,0.8763200039780801,-0.6090851748156966,-0.05753196718556838,-0.666603097082616,-2.5945565370258534,-0.05562143941554,2.507976027223799,0.8763108487046415,0.00025336373001113183,0.0009260394172047891,-0.000513803933912256,-0.0006404483222435725,-7.230521473900664e-05,0.00019262972995919277,0.00041654188377289155,0.0,0.0,0.0,0.0,0.0,0.0,0.0,0.0001608963598285218,0.0002250849730090071,1.0101973961007538e-05,0.00021113998011523805,-2.5905294981101723e-05,2.5583902995229835e-05,-9.155273438588019e-06,-0.00025336373001113183,-0.0009260394172047891,0.000513803933912256,0.0006404483222435725,7.230521473900664e-05,-0.00019262972995919277,-0.00041654188377289155,0.04592245817184448,18.177942276000977,-0.9934418201446533,-18.269685745239258,-0.4928489327430725,-2.2689852714538574,0.21457235515117645,0
56,0.275012731552124,-0.018151462078094482,-18.130334854125977,1.0172455310821533,18.245882034301758,0.4864402413368225,2.2689852714538574,-0.22830526530742645,0.0,0.0,0.0,0.0,0.0,0.0,0.0,-0.0348756275547556,0.5210928836016947,0.16814059512204924,0.619363107142103,0.06386853750196542,0.08902556367707103,-0.21624105918347805,-0.6092480200173562,-0.05776039303028792,-0.6666148693854355,-2.5947660065701132,-0.055593742605183426,2.5079504433208037,0.8763215298569863,-0.6090851748156966,-0.05753196718556838,-0.666603097082616,-2.5945565370258534,-0.05562143941554,2.507976027223799,0.8763108487046415,-0.0005820161971275214,-0.0009120239205545995,-0.000699387812476924,0.00015632293852551484,5.17811519561869e-06,0.0001406049795698639,0.00047214475822338585,0.0,0.0,0.0,0.0,0.0,0.0,0.0,0.000162845201659656,0.00022842584471953475,1.1772302819457181e-05,0.00020946954425982156,-2.7696810356574175e-05,2.5583902995229835e-05,-1.0681152344815814e-05,0.0005820161971275214,0.0009120239205545995,0.000699387812476924,-0.00015632293852551484,-5.17811519561869e-06,-0.0001406049795698639,-0.00047214475822338585,0.018151462078094482,18.130334854125977,-1.0172455310821533,-18.245882034301758,-0.4864402413368225,-2.2689852714538574,0.22830526530742645,0
57,0.2800023555755615,-0.018151462078094482,-18.130334854125977,1.0172455310821533,18.245882034301758,0.4864402413368225,2.2689852714538574,-0.22830526530742645,0.0,0.0,0.0,0.0,0.0,0.0,0.0,-0.0348756275547556,0.5210928836016947,0.16814059512204924,0.619363107142103,0.06386853750196542,0.08902556367707103,-0.21624105918347805,-0.6092480200173562,-0.05776039303028792,-0.6666148693854355,-2.5947660065701132,-0.055593742605183426,2.5079504433208037,0.8763215298569863,-0.6090851748156966,-0.05753196718556838,-0.666603097082616,-2.5945565370258534,-0.05562143941554,2.507976027223799,0.8763108487046415,-0.0005820161971275214,-0.0009120239205545995,-0.000699387812476924,0.00015632293852551484,5.17811519561869e-06,0.0001406049795698639,0.00047214475822338585,0.0,0.0,0.0,0.0,0.0,0.0,0.0,0.000162845201659656,0.00022842584471953475,1.1772302819457181e-05,0.00020946954425982156,-2.7696810356574175e-05,2.5583902995229835e-05,-1.0681152344815814e-05,0.0005820161971275214,0.0009120239205545995,0.000699387812476924,-0.00015632293852551484,-5.17811519561869e-06,-0.0001406049795698639,-0.00047214475822338585,0.018151462078094482,18.130334854125977,-1.0172455310821533,-18.245882034301758,-0.4864402413368225,-2.2689852714538574,0.22830526530742645,0
58,0.2850017547607422,0.005652248859405518,-18.154138565063477,0.9934418201446533,18.245882034301758,0.4928489327430725,2.2753939628601074,-0.17978231608867645,0.0,0.0,0.0,0.0,0.0,0.0,0.0,-0.03703433407525022,0.5163585319683428,0.16780938970523895,0.6192033051948149,0.06371216717840762,0.08890903573463058,-0.21552351968460845,-0.6092496904532114,-0.057758722594432654,-0.6666131989495796,-2.5947662361583745,-0.05559587651958474,2.507949731243981,0.876316125336232,-0.6090851748156966,-0.05753196718556838,-0.666603097082616,-2.5945565370258534,-0.05562143941554,2.507976027223799,0.8763108487046415,-0.0011094220576377792,-0.00025540388966741886,-0.0001231274798566347,6.031739974474026e-06,-0.00026925909346607976,-1.2298684800895597e-05,-0.001004787812440944,0.0,0.0,0.0,0.0,0.0,0.0,0.0,0.00016451563751485043,0.00022675540886427092,1.0101866963596606e-05,0.00020969913252111283,-2.5562895955261178e-05,2.6295979818069526e-05,-5.276631590556136e-06,0.0011094220576377792,0.00025540388966741886,0.0001231274798566347,-6.031739974474026e-06,0.00026925909346607976,1.2298684800895597e-05,0.001004787812440944,-0.005652248859405518,18.154138565063477,-0.9934418201446533,-18.245882034301758,-0.4928489327430725,-2.2753939628601074,0.17978231608867645,0
59,0.29000353813171387,0.005652248859405518,-18.154138565063477,0.9934418201446533,18.245882034301758,0.4928489327430725,2.2753939628601074,-0.17978231608867645,0.0,0.0,0.0,0.0,0.0,0.0,0.0,-0.03703433407525022,0.5163585319683428,0.16780938970523895,0.6192033051948149,0.06371216717840762,0.08890903573463058,-0.21552351968460845,-0.6092496904532114,-0.057758722594432654,-0.6666131989495796,-2.5947662361583745,-0.05559587651958474,2.507949731243981,0.876316125336232,-0.6090851748156966,-0.05753196718556838,-0.666603097082616,-2.5945565370258534,-0.05562143941554,2.507976027223799,0.8763108487046415,-0.0011094220576377792,-0.00025540388966741886,-0.0001231274798566347,6.031739974474026e-06,-0.00026925909346607976,-1.2298684800895597e-05,-0.001004787812440944,0.0,0.0,0.0,0.0,0.0,0.0,0.0,0.00016451563751485043,0.00022675540886427092,1.0101866963596606e-05,0.00020969913252111283,-2.5562895955261178e-05,2.6295979818069526e-05,-5.276631590556136e-06,0.0011094220576377792,0.00025540388966741886,0.0001231274798566347,-6.031739974474026e-06,0.00026925909346607976,1.2298684800895597e-05,0.001004787812440944,-0.005652248859405518,18.154138565063477,-0.9934418201446533,-18.245882034301758,-0.4928489327430725,-2.2753939628601074,0.17978231608867645,0
60,0.29509902000427246,-0.06972616910934448,-18.130334854125977,0.9696381092071533,18.245882034301758,0.4809470772743225,2.2689852714538574,-0.20083944499492645,0.0,0.0,0.0,0.0,0.0,0.0,0.0,-0.04022110400231723,0.5194518115559761,0.1646523222982162,0.6157736030111834,0.06364859090705484,0.08806604098415004,-0.2135197314386108,-0.6092444007396698,-0.05776039303028792,-0.6666115285137243,-2.5947660065740012,-0.055593133734241414,2.5079504433208037,0.8763184780989524,-0.6090851748156966,-0.05753196718556838,-0.666603097082616,-2.5945565370258534,-0.05562143941554,2.507976027223799,0.8763108487046415,0.0006133873366903573,0.00010196575164059166,-0.00020246361578382777,6.0501567388452034e-05,0.00037517626179650777,1.1701096509772378e-05,-0.0004980014317186424,0.0,0.0,0.0,0.0,0.0,0.0,0.0,0.00015922592397321633,0.00022842584471953475,8.431431108291143e-06,0.0002094695481478226,-2.8305681298586294e-05,2.5583902995229835e-05,-7.62939431087073e-06,-0.0006133873366903573,-0.00010196575164059166,0.00020246361578382777,-6.0501567388452034e-05,-0.00037517626179650777,-1.1701096509772378e-05,0.0004980014317186424,0.06972616910934448,18.130334854125977,-0.9696381092071533,-18.245882034301758,-0.4809470772743225,-2.2689852714538574,0.20083944499492645,0
61,0.3000004291534424,-0.06972616910934448,-18.130334854125977,0.9696381092071533,18.245882034301758,0.4809470772743225,2.2689852714538574,-0.20083944499492645,0.0,0.0,0.0,0.0,0.0,0.0,0.0,-0.04022110400231723,0.5194518115559761,0.1646523222982162,0.6157736030111834,0.06364859090705484,0.08806604098415004,-0.2135197314386108,-0.6092444007396698,-0.05776039303028792,-0.6666115285137243,-2.5947660065740012,-0.055593133734241414,2.5079504433208037,0.8763184780989524,-0.6090851748156966,-0.05753196718556838,-0.666603097082616,-2.5945565370258534,-0.05562143941554,2.507976027223799,0.8763108487046415,0.0006133873366903573,0.00010196575164059166,-0.00020246361578382777,6.0501567388452034e-05,0.00037517626179650777,1.1701096509772378e-05,-0.0004980014317186424,0.0,0.0,0.0,0.0,0.0,0.0,0.0,0.00015922592397321633,0.00022842584471953475,8.431431108291143e-06,0.0002094695481478226,-2.8305681298586294e-05,2.5583902995229835e-05,-7.62939431087073e-06,-0.0006133873366903573,-0.00010196575164059166,0.00020246361578382777,-6.0501567388452034e-05,-0.00037517626179650777,-1.1701096509772378e-05,0.0004980014317186424,0.06972616910934448,18.130334854125977,-0.9696381092071533,-18.245882034301758,-0.4809470772743225,-2.2689852714538574,0.20083944499492645,0
62,0.3050081729888916,-0.06972616910934448,-18.130334854125977,0.9696381092071533,18.245882034301758,0.4809470772743225,2.2689852714538574,-0.20083944499492645,0.0,0.0,0.0,0.0,0.0,0.0,0.0,-0.04022110400231723,0.5194518115559761,0.1646523222982162,0.6157736030111834,0.06364859090705484,0.08806604098415004,-0.2135197314386108,-0.6092444007396698,-0.05776039303028792,-0.6666115285137243,-2.5947660065740012,-0.055593133734241414,2.5079504433208037,0.8763184780989524,-0.6090851748156966,-0.05753196718556838,-0.666603097082616,-2.5945565370258534,-0.05562143941554,2.507976027223799,0.8763108487046415,0.0006133873366903573,0.00010196575164059166,-0.00020246361578382777,6.0501567388452034e-05,0.00037517626179650777,1.1701096509772378e-05,-0.0004980014317186424,0.0,0.0,0.0,0.0,0.0,0.0,0.0,0.00015922592397321633,0.00022842584471953475,8.431431108291143e-06,0.0002094695481478226,-2.8305681298586294e-05,2.5583902995229835e-05,-7.62939431087073e-06,-0.0006133873366903573,-0.00010196575164059166,0.00020246361578382777,-6.0501567388452034e-05,-0.00037517626179650777,-1.1701096509772378e-05,0.0004980014317186424,0.06972616910934448,18.130334854125977,-0.9696381092071533,-18.245882034301758,-0.4809470772743225,-2.2689852714538574,0.20083944499492645,0
63,0.3100011348724365,-0.06972616910934448,-18.130334854125977,0.9696381092071533,18.245882034301758,0.4809470772743225,2.2689852714538574,-0.20083944499492645,0.0,0.0,0.0,0.0,0.0,0.0,0.0,-0.04022110400231723,0.5194518115559761,0.1646523222982162,0.6157736030111834,0.06364859090705484,0.08806604098415004,-0.2135197314386108,-0.6092444007396698,-0.05776039303028792,-0.6666115285137243,-2.5947660065740012,-0.055593133734241414,2.5079504433208037,0.8763184780989524,-0.6090851748156966,-0.05753196718556838,-0.666603097082616,-2.5945565370258534,-0.05562143941554,2.507976027223799,0.8763108487046415,0.0006133873366903573,0.00010196575164059166,-0.00020246361578382777,6.0501567388452034e-05,0.00037517626179650777,1.1701096509772378e-05,-0.0004980014317186424,0.0,0.0,0.0,0.0,0.0,0.0,0.0,0.00015922592397321633,0.00022842584471953475,8.431431108291143e-06,0.0002094695481478226,-2.8305681298586294e-05,2.5583902995229835e-05,-7.62939431087073e-06,-0.0006133873366903573,-0.00010196575164059166,0.00020246361578382777,-6.0501567388452034e-05,-0.00037517626179650777,-1.1701096509772378e-05,0.0004980014317186424,0.06972616910934448,18.130334854125977,-0.9696381092071533,-18.245882034301758,-0.4809470772743225,-2.2689852714538574,0.20083944499492645,0
64,0.31514787673950195,-0.018151462078094482,-18.130334854125977,0.9934418201446533,18.269685745239258,0.4864402413368225,2.2689852714538574,-0.24112264811992645,0.0,0.0,0.0,0.0,0.0,0.0,0.0,-0.03239801524512307,0.5169032662387727,0.1711712650939256,0.6191317037944329,0.06319500433636088,0.08804930815884916,-0.21303161707699372,-0.6092480200173562,-0.05776039303028792,-0.6666131989495796,-2.594767677950776,-0.05559387439875747,2.5079504433208037,0.8763229540106322,-0.6090851748156966,-0.05753196718556838,-0.666603097082616,-2.5945565370258534,-0.05562143941554,2.507976027223799,0.8763108487046415,-0.00043640906759427264,3.1806361480886883e-05,-4.5339932288581107e-05,-0.0005106143858252068,5.0733882734589055e-05,0.00010008038660204011,0.0009360552958923041,0.0,0.0,0.0,0.0,0.0,0.0,0.0,0.000162845201659656,0.00022842584471953475,1.0101866963596606e-05,0.00021114092492258152,-2.7565016782526985e-05,2.5583902995229835e-05,-1.2105305990717241e-05,0.00043640906759427264,-3.1806361480886883e-05,4.5339932288581107e-05,0.0005106143858252068,-5.0733882734589055e-05,-0.00010008038660204011,-0.0009360552958923041,0.018151462078094482,18.130334854125977,-0.9934418201446533,-18.269685745239258,-0.4864402413368225,-2.2689852714538574,0.24112264811992645,0
65,0.32000112533569336,-0.018151462078094482,-18.130334854125977,0.9934418201446533,18.269685745239258,0.4864402413368225,2.2689852714538574,-0.24112264811992645,0.0,0.0,0.0,0.0,0.0,0.0,0.0,-0.03239801524512307,0.5169032662387727,0.1711712650939256,0.6191317037944329,0.06319500433636088,0.08804930815884916,-0.21303161707699372,-0.6092480200173562,-0.05776039303028792,-0.6666131989495796,-2.594767677950776,-0.05559387439875747,2.5079504433208037,0.8763229540106322,-0.6090851748156966,-0.05753196718556838,-0.666603097082616,-2.5945565370258534,-0.05562143941554,2.507976027223799,0.8763108487046415,-0.00043640906759427264,3.1806361480886883e-05,-4.5339932288581107e-05,-0.0005106143858252068,5.0733882734589055e-05,0.00010008038660204011,0.0009360552958923041,0.0,0.0,0.0,0.0,0.0,0.0,0.0,0.000162845201659656,0.00022842584471953475,1.0101866963596606e-05,0.00021114092492258152,-2.7565016782526985e-05,2.5583902995229835e-05,-1.2105305990717241e-05,0.00043640906759427264,-3.1806361480886883e-05,4.5339932288581107e-05,0.0005106143858252068,-5.0733882734589055e-05,-0.00010008038660204011,-0.0009360552958923041,0.018151462078094482,18.130334854125977,-0.9934418201446533,-18.269685745239258,-0.4864402413368225,-2.2689852714538574,0.24112264811992645,0
66,0.32500195503234863,-0.018151462078094482,-18.054956436157227,0.9934418201446533,18.269685745239258,0.4864402413368225,2.2753939628601074,-0.24112264811992645,0.0,0.0,0.0,0.0,0.0,0.0,0.0,-0.03610045863017318,0.5231524272521275,0.16779400202921613,0.6181764973205516,0.06340775774771867,0.08755285783239018,-0.21397788589363737,-0.6092480200173562,-0.05776568274382959,-0.666613285617513,-2.594767677005974,-0.05559378355361213,2.507949731243981,0.8763229540106322,-0.6090851748156966,-0.05753196718556838,-0.666603097082616,-2.5945565370258534,-0.05562143941554,2.507976027223799,0.8763108487046415,-0.0004920652340209705,-0.0011255210330533465,-7.642350353288602e-05,-0.00045489645046501093,2.86239046198027e-05,-0.000251432532115568,0.0008013595681946464,0.0,0.0,0.0,0.0,0.0,0.0,0.0,0.000162845201659656,0.00023371555826120355,1.0188534896982127e-05,0.00021113998012056712,-2.7655861927870784e-05,2.6295979818069526e-05,-1.2105305990717241e-05,0.0004920652340209705,0.0011255210330533465,7.642350353288602e-05,0.00045489645046501093,-2.86239046198027e-05,0.000251432532115568,-0.0008013595681946464,0.018151462078094482,18.054956436157227,-0.9934418201446533,-18.269685745239258,-0.4864402413368225,-2.2753939628601074,0.24112264811992645,0
67,0.3300178050994873,-0.018151462078094482,-18.054956436157227,0.9934418201446533,18.269685745239258,0.4864402413368225,2.2753939628601074,-0.24112264811992645,0.0,0.0,0.0,0.0,0.0,0.0,0.0,-0.03610045863017318,0.5231524272521275,0.16779400202921613,0.6181764973205516,0.06340775774771867,0.08755285783239018,-0.21397788589363737,-0.6092480200173562,-0.05776568274382959,-0.666613285617513,-2.594767677005974,-0.05559378355361213,2.507949731243981,0.8763229540106322,-0.6090851748156966,-0.05753196718556838,-0.666603097082616,-2.5945565370258534,-0.05562143941554,2.507976027223799,0.8763108487046415,-0.0004920652340209705,-0.0011255210330533465,-7.642350353288602e-05,-0.00045489645046501093,2.86239046198027e-05,-0.000251432532115568,0.0008013595681946464,0.0,0.0,0.0,0.0,0.0,0.0,0.0,0.000162845201659656,0.00023371555826120355,1.0188534896982127e-05,0.00021113998012056712,-2.7655861927870784e-05,2.6295979818069526e-05,-1.2105305990717241e-05,0.0004920652340209705,0.0011255210330533465,7.642350353288602e-05,0.00045489645046501093,-2.86239046198027e-05,0.000251432532115568,-0.0008013595681946464,0.018151462078094482,18.054956436157227,-0.9934418201446533,-18.269685745239258,-0.4864402413368225,-2.2753939628601074,0.24112264811992645,0
68,0.3350071907043457,-0.04592245817184448,-18.154138565063477,0.9696381092071533,18.269685745239258,0.4809470772743225,2.2818026542663574,-0.18710653483867645,0.0,0.0,0.0,0.0,0.0,0.0,0.0,-0.0354928895794066,0.5230123068283384,0.16858705428804502,0.6189713122814697,0.06301828103649662,0.08807171758407735,-0.2143160150805554,-0.6092460711755251,-0.057758722594432654,-0.6666115371806807,-2.5947676770059687,-0.055597533316124055,2.507949019167158,0.8763169522202676,-0.6090851748156966,-0.05753196718556838,-0.666603097082616,-2.5945565370258534,-0.05562143941554,2.507976027223799,0.8763108487046415,-0.00010262163318173447,0.00042878702104781245,0.0009589825371618523,-0.0010177696281336711,0.00023495124936119007,-0.000398885390088935,-0.000913674264933058,0.0,0.0,0.0,0.0,0.0,0.0,0.0,0.0001608963598285218,0.00022675540886427092,8.440098064665946e-06,0.00021113998011523805,-2.3906099415944848e-05,2.7008056640909217e-05,-6.1035156261324275e-06,0.00010262163318173447,-0.00042878702104781245,-0.0009589825371618523,0.0010177696281336711,-0.00023495124936119007,0.000398885390088935,0.000913674264933058,0.04592245817184448,18.154138565063477,-0.9696381092071533,-18.269685745239258,-0.4809470772743225,-2.2818026542663574,0.18710653483867645,0
69,0.340012788772583,-0.04592245817184448,-18.154138565063477,0.9696381092071533,18.269685745239258,0.4809470772743225,2.2818026542663574,-0.18710653483867645,0.0,0.0,0.0,0.0,0.0,0.0,0.0,-0.0354928895794066,0.5230123068283384,0.16858705428804502,0.6189713122814697,0.06301828103649662,0.08807171758407735,-0.2143160150805554,-0.6092460711755251,-0.057758722594432654,-0.6666115371806807,-2.5947676770059687,-0.055597533316124055,2.507949019167158,0.8763169522202676,-0.6090851748156966,-0.05753196718556838,-0.666603097082616,-2.5945565370258534,-0.05562143941554,2.507976027223799,0.8763108487046415,-0.00010262163318173447,0.00042878702104781245,0.0009589825371618523,-0.0010177696281336711,0.00023495124936119007,-0.000398885390088935,-0.000913674264933058,0.0,0.0,0.0,0.0,0.0,0.0,0.0,0.0001608963598285218,0.00022675540886427092,8.440098064665946e-06,0.00021113998011523805,-2.3906099415944848e-05,2.7008056640909217e-05,-6.1035156261324275e-06,0.00010262163318173447,-0.00042878702104781245,-0.0009589825371618523,0.0010177696281336711,-0.00023495124936119007,0.000398885390088935,0.000913674264933058,0.04592245817184448,18.154138565063477,-0.9696381092071533,-18.269685745239258,-0.4809470772743225,-2.2818026542663574,0.18710653483867645,0
70,0.3449990749359131,0.03342324495315552,-18.130334854125977,0.9696381092071533,18.269685745239258,0.4864402413368225,2.2689852714538574,-0.24844686686992645,0.0,0.0,0.0,0.0,0.0,0.0,0.0,-0.029238287510086853,0.5262554212618618,0.1747990850234153,0.6195088816787477,0.06293176504112638,0.08875436374116412,-0.21247787835063336,-0.6092516392950426,-0.05776039303028792,-0.6666117625171935,-2.5947676770059687,-0.05559484837594499,2.5079504433208037,0.8763237663591653,-0.6090851748156966,-0.05753196718556838,-0.666603097082616,-2.5945565370258534,-0.05562143941554,2.507976027223799,0.8763108487046415,-0.0008336477346453449,-5.7240817412713045e-05,0.0007798303606642006,-0.00045912835127782286,0.00016812038839973567,0.00025881513790309006,0.0015973957647253552,0.0,0.0,0.0,0.0,0.0,0.0,0.0,0.00016646447934598463,0.00022842584471953475,8.665434577448394e-06,0.00021113998011523805,-2.659103959500725e-05,2.5583902995229835e-05,-1.2917654523825206e-05,0.0008336477346453449,5.7240817412713045e-05,-0.0007798303606642006,0.00045912835127782286,-0.00016812038839973567,-0.00025881513790309006,-0.0015973957647253552,-0.03342324495315552,18.130334854125977,-0.9696381092071533,-18.269685745239258,-0.4864402413368225,-2.2689852714538574,0.24844686686992645,0
71,0.35000157356262207,0.03342324495315552,-18.130334854125977,0.9696381092071533,18.269685745239258,0.4864402413368225,2.2689852714538574,-0.24844686686992645,0.0,0.0,0.0,0.0,0.0,0.0,0.0,-0.029238287510086853,0.5262554212618618,0.1747990850234153,0.6195088816787477,0.06293176504112638,0.08875436374116412,-0.21247787835063336,-0.6092516392950426,-0.05776039303028792,-0.6666117625171935,-2.5947676770059687,-0.05559484837594499,2.5079504433208037,0.8763237663591653,-0.6090851748156966,-0.05753196718556838,-0.666603097082616,-2.5945565370258534,-0.05562143941554,2.507976027223799,0.8763108487046415,-0.0008336477346453449,-5.7240817412713045e-05,0.0007798303606642006,-0.00045912835127782286,0.00016812038839973567,0.00025881513790309006,0.0015973957647253552,0.0,0.0,0.0,0.0,0.0,0.0,0.0,0.00016646447934598463,0.00022842584471953475,8.665434577448394e-06,0.00021113998011523805,-2.659103959500725e-05,2.5583902995229835e-05,-1.2917654523825206e-05,0.0008336477346453449,5.7240817412713045e-05,-0.0007798303606642006,0.00045912835127782286,-0.00016812038839973567,-0.00025881513790309006,-0.0015973957647253552,-0.03342324495315552,18.130334854125977,-0.9696381092071533,-18.269685745239258,-0.4864402413368225,-2.2689852714538574,0.24844686686992645,0
72,0.3550105094909668,-0.04592245817184448,-18.130334854125977,0.9934418201446533,18.222078323364258,0.4864402413368225,2.2625765800476074,-0.20724813640117645,0.0,0.0,0.0,0.0,0.0,0.0,0.0,-0.03004738365473904,0.5299845673712493,0.16969199404677054,0.6139183937331357,0.06347898191379778,0.08764715579834839,-0.2125928215325067,-0.6092460711755251,-0.05776039303028792,-0.6666141609676034,-2.5947651014284627,-0.055593747005721166,2.5079511553976266,0.8763191901759723,-0.6090851748156966,-0.05753196718556838,-0.666603097082616,-2.5945565370258534,-0.05562143941554,2.507976027223799,0.8763108487046415,0.00038626607430231746,0.00018710077062463577,4.837547228580249e-05,0.00014836290376595232,0.00022604124170820135,0.0002192450234553481,-0.0003729100818051955,0.0,0.0,0.0,0.0,0.0,0.0,0.0,0.0001608963598285218,0.00022842584471953475,1.1063884987394523e-05,0.00020856440260930142,-2.7692409818834418e-05,2.4871826172390143e-05,-8.341471330775008e-06,-0.00038626607430231746,-0.00018710077062463577,-4.837547228580249e-05,-0.00014836290376595232,-0.00022604124170820135,-0.0002192450234553481,0.0003729100818051955,0.04592245817184448,18.130334854125977,-0.9934418201446533,-18.222078323364258,-0.4864402413368225,-2.2625765800476074,0.20724813640117645,0
73,0.3599975109100342,-0.04592245817184448,-18.130334854125977,0.9934418201446533,18.222078323364258,0.4864402413368225,2.2625765800476074,-0.20724813640117645,0.0,0.0,0.0,0.0,0.0,0.0,0.0,-0.03004738365473904,0.5299845673712493,0.16969199404677054,0.6139183937331357,0.06347898191379778,0.08764715579834839,-0.2125928215325067,-0.6092460711755251,-0.05776039303028792,-0.6666141609676034,-2.5947651014284627,-0.055593747005721166,2.5079511553976266,0.8763191901759723,-0.6090851748156966,-0.05753196718556838,-0.666603097082616,-2.5945565370258534,-0.05562143941554,2.507976027223799,0.8763108487046415,0.00038626607430231746,0.00018710077062463577,4.837547228580249e-05,0.00014836290376595232,0.00022604124170820135,0.0002192450234553481,-0.0003729100818051955,0.0,0.0,0.0,0.0,0.0,0.0,0.0,0.0001608963598285218,0.00022842584471953475,1.1063884987394523e-05,0.00020856440260930142,-2.7692409818834418e-05,2.4871826172390143e-05,-8.341471330775008e-06,-0.00038626607430231746,-0.00018710077062463577,-4.837547228580249e-05,-0.00014836290376595232,-0.00022604124170820135,-0.0002192450234553481,0.0003729100818051955,0.04592245817184448,18.130334854125977,-0.9934418201446533,-18.222078323364258,-0.4864402413368225,-2.2625765800476074,0.20724813640117645,0
74,0.36500000953674316,-0.04592245817184448,-18.130334854125977,0.9696381092071533,18.245882034301758,0.4864402413368225,2.2753939628601074,-0.20083944499492645,0.0,0.0,0.0,0.0,0.0,0.0,0.0,-0.029798404580362564,0.5222537271813531,0.17055011640974932,0.6176346358585143,0.06364992191772442,0.08801700649940639,-0.21130526270344027,-0.6092460711755251,-0.05776039303028792,-0.6666115285155344,-2.594766006571553,-0.05559694593212097,2.507949731243981,0.8763184737385231,-0.6090851748156966,-0.05753196718556838,-0.666603097082616,-2.5945565370258534,-0.05562143941554,2.507976027223799,0.8763108487046415,0.00015441741481541925,-0.0005265434327934911,0.00011377078600411252,-0.00011580315025956918,7.614921191813337e-05,-0.0003512711550922982,-0.0004964133186039094,0.0,0.0,0.0,0.0,0.0,0.0,0.0,0.0001608963598285218,0.00022842584471953475,8.431432918398762e-06,0.00020946954569955878,-2.4493483419027462e-05,2.6295979818069526e-05,-7.625033881630827e-06,-0.00015441741481541925,0.0005265434327934911,-0.00011377078600411252,0.00011580315025956918,-7.614921191813337e-05,0.0003512711550922982,0.0004964133186039094,0.04592245817184448,18.130334854125977,-0.9696381092071533,-18.245882034301758,-0.4864402413368225,-2.2753939628601074,0.20083944499492645,0
75,0.3699960708618164,-0.04592245817184448,-18.130334854125977,0.9696381092071533,18.245882034301758,0.4864402413368225,2.2753939628601074,-0.20083944499492645,0.0,0.0,0.0,0.0,0.0,0.0,0.0,-0.029798404580362564,0.5222537271813531,0.17055011640974932,0.6176346358585143,0.06364992191772442,0.08801700649940639,-0.21130526270344027,-0.6092460711755251,-0.05776039303028792,-0.6666115285155344,-2.594766006571553,-0.05559694593212097,2.507949731243981,0.8763184737385231,-0.6090851748156966,-0.05753196718556838,-0.666603097082616,-2.5945565370258534,-0.05562143941554,2.507976027223799,0.8763108487046415,0.00015441741481541925,-0.0005265434327934911,0.00011377078600411252,-0.00011580315025956918,7.614921191813337e-05,-0.0003512711550922982,-0.0004964133186039094,0.0,0.0,0.0,0.0,0.0,0.0,0.0,0.0001608963598285218,0.00022842584471953475,8.431432918398762e-06,0.00020946954569955878,-2.4493483419027462e-05,2.6295979818069526e-05,-7.625033881630827e-06,-0.00015441741481541925,0.0005265434327934911,-0.00011377078600411252,0.00011580315025956918,-7.614921191813337e-05,0.0003512711550922982,0.0004964133186039094,0.04592245817184448,18.130334854125977,-0.9696381092071533,-18.245882034301758,-0.4864402413368225,-2.2753939628601074,0.20083944499492645,0
76,0.3750016689300537,-0.04592245817184448,-18.130334854125977,1.0172455310821533,18.198274612426758,0.4809470772743225,2.2625765800476074,-0.22098104655742645,0.0,0.0,0.0,0.0,0.0,0.0,0.0,-0.028951361906726016,0.5262321603550911,0.1732769272279125,0.6129179617256739,0.06316888304614823,0.08679504829867347,-0.21150645337061855,-0.6092460711755251,-0.05776039303028792,-0.6666155713956956,-2.594762665698403,-0.05559313226561034,2.5079511553976266,0.8763207160548785,-0.6090851748156966,-0.05753196718556838,-0.666603097082616,-2.5945565370258534,-0.05562143941554,2.507976027223799,0.8763108487046415,9.35860992761975e-05,-0.0001820731105643188,-0.0009075341159163703,0.00107773482931945,0.0001839073898405938,0.0002462441756669375,0.0007234812014722074,0.0,0.0,0.0,0.0,0.0,0.0,0.0,0.0001608963598285218,0.00022842584471953475,1.247431307960234e-05,0.00020612867254943268,-2.8307149929657216e-05,2.4871826172390143e-05,-9.867350237002803e-06,-9.35860992761975e-05,0.0001820731105643188,0.0009075341159163703,-0.00107773482931945,-0.0001839073898405938,-0.0002462441756669375,-0.0007234812014722074,0.04592245817184448,18.130334854125977,-1.0172455310821533,-18.198274612426758,-0.4809470772743225,-2.2625765800476074,0.22098104655742645,0
77,0.37999939918518066,-0.04592245817184448,-18.130334854125977,1.0172455310821533,18.198274612426758,0.4809470772743225,2.2625765800476074,-0.22098104655742645,0.0,0.0,0.0,0.0,0.0,0.0,0.0,-0.028951361906726016,0.5262321603550911,0.1732769272279125,0.6129179617256739,0.06316888304614823,0.08679504829867347,-0.21150645337061855,-0.6092460711755251,-0.05776039303028792,-0.6666155713956956,-2.594762665698403,-0.05559313226561034,2.5079511553976266,0.8763207160548785,-0.6090851748156966,-0.05753196718556838,-0.666603097082616,-2.5945565370258534,-0.05562143941554,2.507976027223799,0.8763108487046415,9.35860992761975e-05,-0.0001820731105643188,-0.0009075341159163703,0.00107773482931945,0.0001839073898405938,0.0002462441756669375,0.0007234812014722074,0.0,0.0,0.0,0.0,0.0,0.0,0.0,0.0001608963598285218,0.00022842584471953475,1.247431307960234e-05,0.00020612867254943268,-2.8307149929657216e-05,2.4871826172390143e-05,-9.867350237002803e-06,-9.35860992761975e-05,0.0001820731105643188,0.0009075341159163703,-0.00107773482931945,-0.0001839073898405938,-0.0002462441756669375,-0.0007234812014722074,0.04592245817184448,18.130334854125977,-1.0172455310821533,-18.198274612426758,-0.4809470772743225,-2.2625765800476074,0.22098104655742645,0
78,0.38499903678894043,-0.09352988004684448,-18.106531143188477,0.9934418201446533,18.198274612426758,0.4809470772743225,2.2689852714538574,-0.24844686686992645,0.0,0.0,0.0,0.0,0.0,0.0,0.0,-0.033502256641670516,0.525193707929681,0.17226739892363443,0.612220180307669,0.06312864923390536,0.0866924888894404,-0.2104296284094368,-0.6092427303038145,-0.05776206346614318,-0.6666134339278654,-2.594762665698403,-0.055593132735072714,2.5079504433208037,0.8763237678127155,-0.6090851748156966,-0.05753196718556838,-0.666603097082616,-2.5945565370258534,-0.05562143941554,2.507976027223799,0.8763108487046415,0.0015644616540093754,-0.0006616965425305918,-0.00036550295261853795,0.0008277826273366982,0.000342853995626847,0.00016049567777216147,0.0008070932593343484,0.0,0.0,0.0,0.0,0.0,0.0,0.0,0.00015755548811791087,0.00023009628057479858,1.0336845249425686e-05,0.00020612867254943268,-2.830668046728546e-05,2.5583902995229835e-05,-1.2919108073994323e-05,-0.0015644616540093754,0.0006616965425305918,0.00036550295261853795,-0.0008277826273366982,-0.000342853995626847,-0.00016049567777216147,-0.0008070932593343484,0.09352988004684448,18.106531143188477,-0.9934418201446533,-18.198274612426758,-0.4809470772743225,-2.2689852714538574,0.24844686686992645,0
79,0.3900306224822998,-0.09352988004684448,-18.106531143188477,0.9934418201446533,18.198274612426758,0.4809470772743225,2.2689852714538574,-0.24844686686992645,0.0,0.0,0.0,0.0,0.0,0.0,0.0,-0.033502256641670516,0.525193707929681,0.17226739892363443,0.612220180307669,0.06312864923390536,0.0866924888894404,-0.2104296284094368,-0.6092427303038145,-0.05776206346614318,-0.6666134339278654,-2.594762665698403,-0.055593132735072714,2.5079504433208037,0.8763237678127155,-0.6090851748156966,-0.05753196718556838,-0.666603097082616,-2.5945565370258534,-0.05562143941554,2.507976027223799,0.8763108487046415,0.0015644616540093754,-0.0006616965425305918,-0.00036550295261853795,0.0008277826273366982,0.000342853995626847,0.00016049567777216147,0.0008070932593343484,0.0,0.0,0.0,0.0,0.0,0.0,0.0,0.00015755548811791087,0.00023009628057479858,1.0336845249425686e-05,0.00020612867254943268,-2.830668046728546e-05,2.5583902995229835e-05,-1.2919108073994323e-05,-0.0015644616540093754,0.0006616965425305918,0.00036550295261853795,-0.0008277826273366982,-0.000342853995626847,-0.00016049567777216147,-0.0008070932593343484,0.09352988004684448,18.106531143188477,-0.9934418201446533,-18.198274612426758,-0.4809470772743225,-2.2689852714538574,0.24844686686992645,0
