rezayati/contactInterpretation/dataset/franka_main/labeled_data/link6/b4_2.csv
index,time,tau_J0,tau_J1,tau_J2,tau_J3,tau_J4,tau_J5,tau_J6,tau_J_d0,tau_J_d1,tau_J_d2,tau_J_d3,tau_J_d4,tau_J_d5,tau_J_d6,tau_ext0,tau_ext1,tau_ext2,tau_ext3,tau_ext4,tau_ext5,tau_ext6,q0,q1,q2,q3,q4,q5,q6,q_d0,q_d1,q_d2,q_d3,q_d4,q_d5,q_d6,dq0,dq1,dq2,dq3,dq4,dq5,dq6,dq_d0,dq_d1,dq_d2,dq_d3,dq_d4,dq_d5,dq_d6,e0,e1,e2,e3,e4,e5,e6,de0,de1,de2,de3,de4,de5,de6,etau_J0,etau_J1,etau_J2,etau_J3,etau_J4,etau_J5,etau_J6,label
1,0.0,-0.2998287081718445,-13.464807510375977,0.3705780804157257,18.297456741333008,0.5944724678993225,2.3010287284851074,-0.24844686686992645,0.0,0.0,0.0,0.0,0.0,0.0,0.0,-0.2643533777919264,0.41288167282214605,-0.02494605654409753,0.5811235017364306,0.16417553535391896,0.08177725456659757,-0.22679399613844362,0.07180175947411019,-0.3344344633336652,-0.12010498869196187,-2.8747498084955048,-0.06463227132168921,2.518282089922163,0.7687484510855546,0.07165585495296277,-0.33419673383382315,-0.1203439052763738,-2.874768336042937,-0.06453255302590709,2.518161157661014,0.7687020283728597,0.000980985751621462,-0.00048100929054472463,0.0005945801836876197,0.000378094714923131,-6.710184052841145e-05,-0.00023236686409771,0.00023867385116500137,0.0,0.0,0.0,0.0,0.0,0.0,0.0,-0.00014590452114741914,0.00023772949984207647,-0.0002389165844119273,-1.8527547432256597e-05,9.971829578211966e-05,-0.00012093226114906486,-4.6422712694838e-05,-0.000980985751621462,0.00048100929054472463,-0.0005945801836876197,-0.000378094714923131,6.710184052841145e-05,0.00023236686409771,-0.00023867385116500137,0.2998287081718445,13.464807510375977,-0.3705780804157257,-18.297456741333008,-0.5944724678993225,-2.3010287284851074,0.24844686686992645,0
2,0.004999637603759766,-0.2998287081718445,-13.464807510375977,0.3705780804157257,18.297456741333008,0.5944724678993225,2.3010287284851074,-0.24844686686992645,0.0,0.0,0.0,0.0,0.0,0.0,0.0,-0.2643533777919264,0.41288167282214605,-0.02494605654409753,0.5811235017364306,0.16417553535391896,0.08177725456659757,-0.22679399613844362,0.07180175947411019,-0.3344344633336652,-0.12010498869196187,-2.8747498084955048,-0.06463227132168921,2.518282089922163,0.7687484510855546,0.07165585495296277,-0.33419673383382315,-0.1203439052763738,-2.874768336042937,-0.06453255302590709,2.518161157661014,0.7687020283728597,0.000980985751621462,-0.00048100929054472463,0.0005945801836876197,0.000378094714923131,-6.710184052841145e-05,-0.00023236686409771,0.00023867385116500137,0.0,0.0,0.0,0.0,0.0,0.0,0.0,-0.00014590452114741914,0.00023772949984207647,-0.0002389165844119273,-1.8527547432256597e-05,9.971829578211966e-05,-0.00012093226114906486,-4.6422712694838e-05,-0.000980985751621462,0.00048100929054472463,-0.0005945801836876197,-0.000378094714923131,6.710184052841145e-05,0.00023236686409771,-0.00023867385116500137,0.2998287081718445,13.464807510375977,-0.3705780804157257,-18.297456741333008,-0.5944724678993225,-2.3010287284851074,0.24844686686992645,0
3,0.010019302368164062,-0.24825400114059448,-13.464807510375977,0.4221527874469757,18.321260452270508,0.5944724678993225,2.2946200370788574,-0.17978231608867645,0.0,0.0,0.0,0.0,0.0,0.0,0.0,-0.26075058963954517,0.41515773080694207,-0.022608066281334663,0.5828234889234137,0.163749848886842,0.08212513605077351,-0.22817820691992288,0.07179814019642378,-0.3344344633336652,-0.12011130036808448,-2.8747514779865524,-0.06463226985931426,2.518282801998986,0.7687363066398335,0.07165585495296277,-0.33419673383382315,-0.1203439052763738,-2.874768336042937,-0.06453255302590709,2.518161157661014,0.7687020283728597,-0.00023795661785669915,-0.0005109872456528148,-0.0006156958297513764,9.715288411933667e-05,-2.9679286969084958e-05,5.535856699620446e-05,-0.0018921469662664349,0.0,0.0,0.0,0.0,0.0,0.0,0.0,-0.00014228524346100724,0.00023772949984207647,-0.00023260490828931613,-1.6858056384627673e-05,9.97168334071763e-05,-0.00012164433797190455,-3.427826697377512e-05,0.00023795661785669915,0.0005109872456528148,0.0006156958297513764,-9.715288411933667e-05,2.9679286969084958e-05,-5.535856699620446e-05,0.0018921469662664349,0.24825400114059448,13.464807510375977,-0.4221527874469757,-18.321260452270508,-0.5944724678993225,-2.2946200370788574,0.17978231608867645,0
4,0.015006065368652344,-0.24825400114059448,-13.464807510375977,0.4221527874469757,18.321260452270508,0.5944724678993225,2.2946200370788574,-0.17978231608867645,0.0,0.0,0.0,0.0,0.0,0.0,0.0,-0.26075058963954517,0.41515773080694207,-0.022608066281334663,0.5828234889234137,0.163749848886842,0.08212513605077351,-0.22817820691992288,0.07179814019642378,-0.3344344633336652,-0.12011130036808448,-2.8747514779865524,-0.06463226985931426,2.518282801998986,0.7687363066398335,0.07165585495296277,-0.33419673383382315,-0.1203439052763738,-2.874768336042937,-0.06453255302590709,2.518161157661014,0.7687020283728597,-0.00023795661785669915,-0.0005109872456528148,-0.0006156958297513764,9.715288411933667e-05,-2.9679286969084958e-05,5.535856699620446e-05,-0.0018921469662664349,0.0,0.0,0.0,0.0,0.0,0.0,0.0,-0.00014228524346100724,0.00023772949984207647,-0.00023260490828931613,-1.6858056384627673e-05,9.97168334071763e-05,-0.00012164433797190455,-3.427826697377512e-05,0.00023795661785669915,0.0005109872456528148,0.0006156958297513764,-9.715288411933667e-05,2.9679286969084958e-05,-5.535856699620446e-05,0.0018921469662664349,0.24825400114059448,13.464807510375977,-0.4221527874469757,-18.321260452270508,-0.5944724678993225,-2.2946200370788574,0.17978231608867645,0
5,0.02000141143798828,-0.24825400114059448,-13.464807510375977,0.4221527874469757,18.321260452270508,0.5944724678993225,2.2946200370788574,-0.17978231608867645,0.0,0.0,0.0,0.0,0.0,0.0,0.0,-0.26075058963954517,0.41515773080694207,-0.022608066281334663,0.5828234889234137,0.163749848886842,0.08212513605077351,-0.22817820691992288,0.07179814019642378,-0.3344344633336652,-0.12011130036808448,-2.8747514779865524,-0.06463226985931426,2.518282801998986,0.7687363066398335,0.07165585495296277,-0.33419673383382315,-0.1203439052763738,-2.874768336042937,-0.06453255302590709,2.518161157661014,0.7687020283728597,-0.00023795661785669915,-0.0005109872456528148,-0.0006156958297513764,9.715288411933667e-05,-2.9679286969084958e-05,5.535856699620446e-05,-0.0018921469662664349,0.0,0.0,0.0,0.0,0.0,0.0,0.0,-0.00014228524346100724,0.00023772949984207647,-0.00023260490828931613,-1.6858056384627673e-05,9.97168334071763e-05,-0.00012164433797190455,-3.427826697377512e-05,0.00023795661785669915,0.0005109872456528148,0.0006156958297513764,-9.715288411933667e-05,2.9679286969084958e-05,-5.535856699620446e-05,0.0018921469662664349,0.24825400114059448,13.464807510375977,-0.4221527874469757,-18.321260452270508,-0.5944724678993225,-2.2946200370788574,0.17978231608867645,0
6,0.02496337890625,-0.24825400114059448,-13.464807510375977,0.4221527874469757,18.321260452270508,0.5944724678993225,2.2946200370788574,-0.17978231608867645,0.0,0.0,0.0,0.0,0.0,0.0,0.0,-0.26075058963954517,0.41515773080694207,-0.022608066281334663,0.5828234889234137,0.163749848886842,0.08212513605077351,-0.22817820691992288,0.07179814019642378,-0.3344344633336652,-0.12011130036808448,-2.8747514779865524,-0.06463226985931426,2.518282801998986,0.7687363066398335,0.07165585495296277,-0.33419673383382315,-0.1203439052763738,-2.874768336042937,-0.06453255302590709,2.518161157661014,0.7687020283728597,-0.00023795661785669915,-0.0005109872456528148,-0.0006156958297513764,9.715288411933667e-05,-2.9679286969084958e-05,5.535856699620446e-05,-0.0018921469662664349,0.0,0.0,0.0,0.0,0.0,0.0,0.0,-0.00014228524346100724,0.00023772949984207647,-0.00023260490828931613,-1.6858056384627673e-05,9.97168334071763e-05,-0.00012164433797190455,-3.427826697377512e-05,0.00023795661785669915,0.0005109872456528148,0.0006156958297513764,-9.715288411933667e-05,2.9679286969084958e-05,-5.535856699620446e-05,0.0018921469662664349,0.24825400114059448,13.464807510375977,-0.4221527874469757,-18.321260452270508,-0.5944724678993225,-2.2946200370788574,0.17978231608867645,0
7,0.03004598617553711,-0.24825400114059448,-13.512414932250977,0.4221527874469757,18.345064163208008,0.5999656319618225,2.2946200370788574,-0.24844686686992645,0.0,0.0,0.0,0.0,0.0,0.0,0.0,-0.25829452796043073,0.4159935875846591,-0.020404552819548855,0.5831138127144653,0.16326749141990618,0.08226464653296639,-0.22870862516803026,0.07179813139134128,-0.3344311224619547,-0.12010943135747638,-2.8747531493672094,-0.06463288021087646,2.518282801998986,0.7687474636110465,0.07165585495296277,-0.33419673383382315,-0.1203439052763738,-2.874768336042937,-0.06453255302590709,2.518161157661014,0.7687020283728597,-0.0007632860472141081,0.00031496491277751117,-0.00035492162523134533,-0.0006155199535549716,-0.0003423398800097158,-5.100905322951007e-05,0.0005245004713378445,0.0,0.0,0.0,0.0,0.0,0.0,0.0,-0.00014227643837851078,0.00023438862813157657,-0.00023447391889741542,-1.5186675727640875e-05,0.00010032718496937043,-0.00012164433797190455,-4.5435238186786187e-05,0.0007632860472141081,-0.00031496491277751117,0.00035492162523134533,0.0006155199535549716,0.0003423398800097158,5.100905322951007e-05,-0.0005245004713378445,0.24825400114059448,13.512414932250977,-0.4221527874469757,-18.345064163208008,-0.5999656319618225,-2.2946200370788574,0.24844686686992645,0
8,0.03499960899353027,-0.24825400114059448,-13.512414932250977,0.4221527874469757,18.345064163208008,0.5999656319618225,2.2946200370788574,-0.24844686686992645,0.0,0.0,0.0,0.0,0.0,0.0,0.0,-0.25829452796043073,0.4159935875846591,-0.020404552819548855,0.5831138127144653,0.16326749141990618,0.08226464653296639,-0.22870862516803026,0.07179813139134128,-0.3344311224619547,-0.12010943135747638,-2.8747531493672094,-0.06463288021087646,2.518282801998986,0.7687474636110465,0.07165585495296277,-0.33419673383382315,-0.1203439052763738,-2.874768336042937,-0.06453255302590709,2.518161157661014,0.7687020283728597,-0.0007632860472141081,0.00031496491277751117,-0.00035492162523134533,-0.0006155199535549716,-0.0003423398800097158,-5.100905322951007e-05,0.0005245004713378445,0.0,0.0,0.0,0.0,0.0,0.0,0.0,-0.00014227643837851078,0.00023438862813157657,-0.00023447391889741542,-1.5186675727640875e-05,0.00010032718496937043,-0.00012164433797190455,-4.5435238186786187e-05,0.0007632860472141081,-0.00031496491277751117,0.00035492162523134533,0.0006155199535549716,0.0003423398800097158,5.100905322951007e-05,-0.0005245004713378445,0.24825400114059448,13.512414932250977,-0.4221527874469757,-18.345064163208008,-0.5999656319618225,-2.2946200370788574,0.24844686686992645,0
9,0.03999829292297363,-0.24825400114059448,-13.536218643188477,0.3705780804157257,18.297456741333008,0.5944724678993225,2.2818026542663574,-0.25485557317733765,0.0,0.0,0.0,0.0,0.0,0.0,0.0,-0.25970991572219304,0.41446519106427654,-0.016516194511333255,0.5824090495158607,0.16310307050442685,0.08199980343023887,-0.22938337724593505,0.0717973509867588,-0.3344294520260994,-0.12010793441489426,-2.8747498084955043,-0.06463546383712582,2.518284226152632,0.7687487834793728,0.07165585495296277,-0.33419673383382315,-0.1203439052763738,-2.874768336042937,-0.06453255302590709,2.518161157661014,0.7687020283728597,-0.0003528409374905251,0.00031282678201660023,0.0006678500019953068,0.00031493399736550815,4.1966712686625334e-06,0.000582064609373977,0.0011185743669351452,0.0,0.0,0.0,0.0,0.0,0.0,0.0,-0.00014149603379602638,0.0002327181922762711,-0.0002359708614795425,-1.8527547432700686e-05,0.0001029108112187288,-0.00012306849161802802,-4.6755106513085565e-05,0.0003528409374905251,-0.00031282678201660023,-0.0006678500019953068,-0.00031493399736550815,-4.1966712686625334e-06,-0.000582064609373977,-0.0011185743669351452,0.24825400114059448,13.536218643188477,-0.3705780804157257,-18.297456741333008,-0.5944724678993225,-2.2818026542663574,0.25485557317733765,0
10,0.0449984073638916,-0.24825400114059448,-13.536218643188477,0.3705780804157257,18.297456741333008,0.5944724678993225,2.2818026542663574,-0.25485557317733765,0.0,0.0,0.0,0.0,0.0,0.0,0.0,-0.25970991572219304,0.41446519106427654,-0.016516194511333255,0.5824090495158607,0.16310307050442685,0.08199980343023887,-0.22938337724593505,0.0717973509867588,-0.3344294520260994,-0.12010793441489426,-2.8747498084955043,-0.06463546383712582,2.518284226152632,0.7687487834793728,0.07165585495296277,-0.33419673383382315,-0.1203439052763738,-2.874768336042937,-0.06453255302590709,2.518161157661014,0.7687020283728597,-0.0003528409374905251,0.00031282678201660023,0.0006678500019953068,0.00031493399736550815,4.1966712686625334e-06,0.000582064609373977,0.0011185743669351452,0.0,0.0,0.0,0.0,0.0,0.0,0.0,-0.00014149603379602638,0.0002327181922762711,-0.0002359708614795425,-1.8527547432700686e-05,0.0001029108112187288,-0.00012306849161802802,-4.6755106513085565e-05,0.0003528409374905251,-0.00031282678201660023,-0.0006678500019953068,-0.00031493399736550815,-4.1966712686625334e-06,-0.000582064609373977,-0.0011185743669351452,0.24825400114059448,13.536218643188477,-0.3705780804157257,-18.297456741333008,-0.5944724678993225,-2.2818026542663574,0.25485557317733765,0
11,0.04999876022338867,-0.24825400114059448,-13.512414932250977,0.3983490765094757,18.345064163208008,0.6118674874305725,2.3010287284851074,-0.24844686686992645,0.0,0.0,0.0,0.0,0.0,0.0,0.0,-0.26150316091278086,0.41142900060350457,-0.01830094906953152,0.5832401162924257,0.1637215982551611,0.08276716499467526,-0.22845414411408657,0.07179814019196866,-0.3344311224619547,-0.12010670994263047,-2.8747531493672147,-0.06463420265729197,2.518282089922163,0.768744279977795,0.07165585495296277,-0.33419673383382315,-0.1203439052763738,-2.874768336042937,-0.06453255302590709,2.518161157661014,0.7687020283728597,-0.0004630301486985032,0.0002401313111217267,-0.000343656367144714,-0.0003377504269185637,-0.00039885218331240106,-1.5166015424642673e-05,0.001678772476074288,0.0,0.0,0.0,0.0,0.0,0.0,0.0,-0.0001422852390058904,0.00023438862813157657,-0.00023719533374333412,-1.5186675722311804e-05,0.00010164963138488414,-0.00012093226114906486,-4.225160493531721e-05,0.0004630301486985032,-0.0002401313111217267,0.000343656367144714,0.0003377504269185637,0.00039885218331240106,1.5166015424642673e-05,-0.001678772476074288,0.24825400114059448,13.512414932250977,-0.3983490765094757,-18.345064163208008,-0.6118674874305725,-2.3010287284851074,0.24844686686992645,0
12,0.05499911308288574,-0.24825400114059448,-13.512414932250977,0.3983490765094757,18.345064163208008,0.6118674874305725,2.3010287284851074,-0.24844686686992645,0.0,0.0,0.0,0.0,0.0,0.0,0.0,-0.26150316091278086,0.41142900060350457,-0.01830094906953152,0.5832401162924257,0.1637215982551611,0.08276716499467526,-0.22845414411408657,0.07179814019196866,-0.3344311224619547,-0.12010670994263047,-2.8747531493672147,-0.06463420265729197,2.518282089922163,0.768744279977795,0.07165585495296277,-0.33419673383382315,-0.1203439052763738,-2.874768336042937,-0.06453255302590709,2.518161157661014,0.7687020283728597,-0.0004630301486985032,0.0002401313111217267,-0.000343656367144714,-0.0003377504269185637,-0.00039885218331240106,-1.5166015424642673e-05,0.001678772476074288,0.0,0.0,0.0,0.0,0.0,0.0,0.0,-0.0001422852390058904,0.00023438862813157657,-0.00023719533374333412,-1.5186675722311804e-05,0.00010164963138488414,-0.00012093226114906486,-4.225160493531721e-05,0.0004630301486985032,-0.0002401313111217267,0.000343656367144714,0.0003377504269185637,0.00039885218331240106,1.5166015424642673e-05,-0.001678772476074288,0.24825400114059448,13.512414932250977,-0.3983490765094757,-18.345064163208008,-0.6118674874305725,-2.3010287284851074,0.24844686686992645,0
13,0.059998273849487305,-0.2720577120780945,-13.512414932250977,0.3705780804157257,18.321260452270508,0.5944724678993225,2.2946200370788574,-0.23471395671367645,0.0,0.0,0.0,0.0,0.0,0.0,0.0,-0.26239544722250646,0.41051624163454875,-0.01939598631719369,0.5782821177499313,0.16447365769399744,0.08269793895605833,-0.22590628952924588,0.07179980770928027,-0.3344311224619547,-0.12010783867588516,-2.8747514789313597,-0.06463226985931426,2.518282801998986,0.7687426524801755,0.07165585495296277,-0.33419673383382315,-0.1203439052763738,-2.874768336042937,-0.06453255302590709,2.518161157661014,0.7687020283728597,-0.00018576929924106567,0.00028770466967927114,0.000569065811512509,-0.0002835982940293365,-3.069721977516245e-05,-8.957601129870984e-06,-9.643826485381104e-05,0.0,0.0,0.0,0.0,0.0,0.0,0.0,-0.0001439527563174975,0.00023438862813157657,-0.00023606660048863803,-1.68571115772842e-05,9.97168334071763e-05,-0.00012164433797190455,-4.06241073157565e-05,0.00018576929924106567,-0.00028770466967927114,-0.000569065811512509,0.0002835982940293365,3.069721977516245e-05,8.957601129870984e-06,9.643826485381104e-05,0.2720577120780945,13.512414932250977,-0.3705780804157257,-18.321260452270508,-0.5944724678993225,-2.2946200370788574,0.23471395671367645,0
14,0.0652475357055664,-0.2720577120780945,-13.512414932250977,0.3705780804157257,18.321260452270508,0.5944724678993225,2.2946200370788574,-0.23471395671367645,0.0,0.0,0.0,0.0,0.0,0.0,0.0,-0.26239544722250646,0.41051624163454875,-0.01939598631719369,0.5782821177499313,0.16447365769399744,0.08269793895605833,-0.22590628952924588,0.07179980770928027,-0.3344311224619547,-0.12010783867588516,-2.8747514789313597,-0.06463226985931426,2.518282801998986,0.7687426524801755,0.07165585495296277,-0.33419673383382315,-0.1203439052763738,-2.874768336042937,-0.06453255302590709,2.518161157661014,0.7687020283728597,-0.00018576929924106567,0.00028770466967927114,0.000569065811512509,-0.0002835982940293365,-3.069721977516245e-05,-8.957601129870984e-06,-9.643826485381104e-05,0.0,0.0,0.0,0.0,0.0,0.0,0.0,-0.0001439527563174975,0.00023438862813157657,-0.00023606660048863803,-1.68571115772842e-05,9.97168334071763e-05,-0.00012164433797190455,-4.06241073157565e-05,0.00018576929924106567,-0.00028770466967927114,-0.000569065811512509,0.0002835982940293365,3.069721977516245e-05,8.957601129870984e-06,9.643826485381104e-05,0.2720577120780945,13.512414932250977,-0.3705780804157257,-18.321260452270508,-0.5944724678993225,-2.2946200370788574,0.23471395671367645,0
15,0.07001566886901855,-0.24825400114059448,-13.488611221313477,0.3705780804157257,18.321260452270508,0.5944724678993225,2.3010287284851074,-0.25485557317733765,0.0,0.0,0.0,0.0,0.0,0.0,0.0,-0.2632786475323415,0.41012981985328184,-0.019508122177211554,0.5818490765925273,0.16499952778897223,0.08381805548496817,-0.2252261759884588,0.07179814008815906,-0.33443279289780997,-0.12010696767598195,-2.8747514789313597,-0.06463226985931396,2.518282089922163,0.7687459235767432,0.07165585495296277,-0.33419673383382315,-0.1203439052763738,-2.874768336042937,-0.06453255302590709,2.518161157661014,0.7687020283728597,-0.00016268524877907786,0.0001546415956922455,0.00044322190015963785,-1.1373421729370485e-05,5.9236508851031305e-05,-0.00023166373838536962,0.0006015863467477068,0.0,0.0,0.0,0.0,0.0,0.0,0.0,-0.0001422851351962906,0.00023605906398682652,-0.00023693760039185385,-1.68571115772842e-05,9.971683340687099e-05,-0.00012093226114906486,-4.389520388348167e-05,0.00016268524877907786,-0.0001546415956922455,-0.00044322190015963785,1.1373421729370485e-05,-5.9236508851031305e-05,0.00023166373838536962,-0.0006015863467477068,0.24825400114059448,13.488611221313477,-0.3705780804157257,-18.321260452270508,-0.5944724678993225,-2.3010287284851074,0.25485557317733765,0
16,0.07501792907714844,-0.24825400114059448,-13.488611221313477,0.3705780804157257,18.321260452270508,0.5944724678993225,2.3010287284851074,-0.25485557317733765,0.0,0.0,0.0,0.0,0.0,0.0,0.0,-0.2632786475323415,0.41012981985328184,-0.019508122177211554,0.5818490765925273,0.16499952778897223,0.08381805548496817,-0.2252261759884588,0.07179814008815906,-0.33443279289780997,-0.12010696767598195,-2.8747514789313597,-0.06463226985931396,2.518282089922163,0.7687459235767432,0.07165585495296277,-0.33419673383382315,-0.1203439052763738,-2.874768336042937,-0.06453255302590709,2.518161157661014,0.7687020283728597,-0.00016268524877907786,0.0001546415956922455,0.00044322190015963785,-1.1373421729370485e-05,5.9236508851031305e-05,-0.00023166373838536962,0.0006015863467477068,0.0,0.0,0.0,0.0,0.0,0.0,0.0,-0.0001422851351962906,0.00023605906398682652,-0.00023693760039185385,-1.68571115772842e-05,9.971683340687099e-05,-0.00012093226114906486,-4.389520388348167e-05,0.00016268524877907786,-0.0001546415956922455,-0.00044322190015963785,1.1373421729370485e-05,-5.9236508851031305e-05,0.00023166373838536962,-0.0006015863467477068,0.24825400114059448,13.488611221313477,-0.3705780804157257,-18.321260452270508,-0.5944724678993225,-2.3010287284851074,0.25485557317733765,0
17,0.08001041412353516,-0.2720577120780945,-13.488611221313477,0.4221527874469757,18.321260452270508,0.5944724678993225,2.3010287284851074,-0.22098104655742645,0.0,0.0,0.0,0.0,0.0,0.0,0.0,-0.26101973636557374,0.40634916304039337,-0.018129526298147375,0.5836292564502003,0.1653240304935317,0.08418381730338358,-0.22587665811942714,0.07179981052401922,-0.33443279289780997,-0.12010916536056764,-2.8747514789313597,-0.06463226985931396,2.5182820900836687,0.7687451797165209,0.07165585495296277,-0.33419673383382315,-0.1203439052763738,-2.874768336042937,-0.06453255302590709,2.518161157661014,0.7687020283728597,0.0006306890271306816,-0.0006373262035156866,-0.00010498289114932342,4.328740491443467e-06,0.00021343807686802156,-8.640046630155503e-05,-9.72493854641636e-07,0.0,0.0,0.0,0.0,0.0,0.0,0.0,-0.0001439555710564533,0.00023605906398682652,-0.0002347399158061647,-1.68571115772842e-05,9.971683340687099e-05,-0.00012093242265454052,-4.3151343661174124e-05,-0.0006306890271306816,0.0006373262035156866,0.00010498289114932342,-4.328740491443467e-06,-0.00021343807686802156,8.640046630155503e-05,9.72493854641636e-07,0.2720577120780945,13.488611221313477,-0.4221527874469757,-18.321260452270508,-0.5944724678993225,-2.3010287284851074,0.22098104655742645,0
18,0.08500146865844727,-0.2720577120780945,-13.488611221313477,0.4221527874469757,18.321260452270508,0.5944724678993225,2.3010287284851074,-0.22098104655742645,0.0,0.0,0.0,0.0,0.0,0.0,0.0,-0.26101973636557374,0.40634916304039337,-0.018129526298147375,0.5836292564502003,0.1653240304935317,0.08418381730338358,-0.22587665811942714,0.07179981052401922,-0.33443279289780997,-0.12010916536056764,-2.8747514789313597,-0.06463226985931396,2.5182820900836687,0.7687451797165209,0.07165585495296277,-0.33419673383382315,-0.1203439052763738,-2.874768336042937,-0.06453255302590709,2.518161157661014,0.7687020283728597,0.0006306890271306816,-0.0006373262035156866,-0.00010498289114932342,4.328740491443467e-06,0.00021343807686802156,-8.640046630155503e-05,-9.72493854641636e-07,0.0,0.0,0.0,0.0,0.0,0.0,0.0,-0.0001439555710564533,0.00023605906398682652,-0.0002347399158061647,-1.68571115772842e-05,9.971683340687099e-05,-0.00012093242265454052,-4.3151343661174124e-05,-0.0006306890271306816,0.0006373262035156866,0.00010498289114932342,-4.328740491443467e-06,-0.00021343807686802156,8.640046630155503e-05,9.72493854641636e-07,0.2720577120780945,13.488611221313477,-0.4221527874469757,-18.321260452270508,-0.5944724678993225,-2.3010287284851074,0.22098104655742645,0
19,0.09000039100646973,-0.24825400114059448,-13.512414932250977,0.4221527874469757,18.297456741333008,0.5999656319618225,2.3138461112976074,-0.23471395671367645,0.0,0.0,0.0,0.0,0.0,0.0,0.0,-0.25859830985273924,0.41225981460088146,-0.0168092232134648,0.5810783713432638,0.16578799371988662,0.08364977441923561,-0.2259386610192794,0.07179814019642194,-0.3344311224619547,-0.12010872139052886,-2.8747498084955043,-0.06463323507927081,2.51828066576852,0.7687466657629849,0.07165585495296277,-0.33419673383382315,-0.1203439052763738,-2.874768336042937,-0.06453255302590709,2.518161157661014,0.7687020283728597,0.00020126535585687032,0.00033418647471136705,1.3936396735671628e-05,0.0005022610024368713,-0.00011016396927614601,-0.0007891373565393975,-0.00020969018983748054,0.0,0.0,0.0,0.0,0.0,0.0,0.0,-0.00014228524345917537,0.00023438862813157657,-0.000235183885844939,-1.8527547432700686e-05,0.00010068205336372094,-0.00011950810750605001,-4.463739012516843e-05,-0.00020126535585687032,-0.00033418647471136705,-1.3936396735671628e-05,-0.0005022610024368713,0.00011016396927614601,0.0007891373565393975,0.00020969018983748054,0.24825400114059448,13.512414932250977,-0.4221527874469757,-18.297456741333008,-0.5999656319618225,-2.3138461112976074,0.23471395671367645,0
20,0.09499692916870117,-0.24825400114059448,-13.512414932250977,0.4221527874469757,18.297456741333008,0.5999656319618225,2.3138461112976074,-0.23471395671367645,0.0,0.0,0.0,0.0,0.0,0.0,0.0,-0.25859830985273924,0.41225981460088146,-0.0168092232134648,0.5810783713432638,0.16578799371988662,0.08364977441923561,-0.2259386610192794,0.07179814019642194,-0.3344311224619547,-0.12010872139052886,-2.8747498084955043,-0.06463323507927081,2.51828066576852,0.7687466657629849,0.07165585495296277,-0.33419673383382315,-0.1203439052763738,-2.874768336042937,-0.06453255302590709,2.518161157661014,0.7687020283728597,0.00020126535585687032,0.00033418647471136705,1.3936396735671628e-05,0.0005022610024368713,-0.00011016396927614601,-0.0007891373565393975,-0.00020969018983748054,0.0,0.0,0.0,0.0,0.0,0.0,0.0,-0.00014228524345917537,0.00023438862813157657,-0.000235183885844939,-1.8527547432700686e-05,0.00010068205336372094,-0.00011950810750605001,-4.463739012516843e-05,-0.00020126535585687032,-0.00033418647471136705,-1.3936396735671628e-05,-0.0005022610024368713,0.00011016396927614601,0.0007891373565393975,0.00020969018983748054,0.24825400114059448,13.512414932250977,-0.4221527874469757,-18.297456741333008,-0.5999656319618225,-2.3138461112976074,0.23471395671367645,0
21,0.09999704360961914,-0.24825400114059448,-13.536218643188477,0.3983490765094757,18.297456741333008,0.5880637764930725,2.2946200370788574,-0.22830526530742645,0.0,0.0,0.0,0.0,0.0,0.0,0.0,-0.2561390480325508,0.4097083883501302,-0.01505817326240959,0.5828029306536231,0.1660529256922645,0.08382083036207626,-0.22604572853869936,0.07179787701828176,-0.3344294520260994,-0.12010749907481373,-2.8747498084955043,-0.0646315577831588,2.518282801998986,0.7687416827066218,0.07165585495296277,-0.33419673383382315,-0.1203439052763738,-2.874768336042937,-0.06453255302590709,2.518161157661014,0.7687020283728597,-0.0002246505885440217,0.0005723157056482614,0.0004599070295601766,0.0006563029398771351,0.00021913674941362478,2.7109802301490283e-05,-0.00043734427464512976,0.0,0.0,0.0,0.0,0.0,0.0,0.0,-0.00014202206531899186,0.0002327181922762711,-0.00023640620156006875,-1.8527547432700686e-05,9.900475725170554e-05,-0.00012164433797190455,-3.965433376207361e-05,0.0002246505885440217,-0.0005723157056482614,-0.0004599070295601766,-0.0006563029398771351,-0.00021913674941362478,-2.7109802301490283e-05,0.00043734427464512976,0.24825400114059448,13.536218643188477,-0.3983490765094757,-18.297456741333008,-0.5880637764930725,-2.2946200370788574,0.22830526530742645,0
22,0.1049966812133789,-0.24825400114059448,-13.536218643188477,0.3983490765094757,18.297456741333008,0.5880637764930725,2.2946200370788574,-0.22830526530742645,0.0,0.0,0.0,0.0,0.0,0.0,0.0,-0.2561390480325508,0.4097083883501302,-0.01505817326240959,0.5828029306536231,0.1660529256922645,0.08382083036207626,-0.22604572853869936,0.07179787701828176,-0.3344294520260994,-0.12010749907481373,-2.8747498084955043,-0.0646315577831588,2.518282801998986,0.7687416827066218,0.07165585495296277,-0.33419673383382315,-0.1203439052763738,-2.874768336042937,-0.06453255302590709,2.518161157661014,0.7687020283728597,-0.0002246505885440217,0.0005723157056482614,0.0004599070295601766,0.0006563029398771351,0.00021913674941362478,2.7109802301490283e-05,-0.00043734427464512976,0.0,0.0,0.0,0.0,0.0,0.0,0.0,-0.00014202206531899186,0.0002327181922762711,-0.00023640620156006875,-1.8527547432700686e-05,9.900475725170554e-05,-0.00012164433797190455,-3.965433376207361e-05,0.0002246505885440217,-0.0005723157056482614,-0.0004599070295601766,-0.0006563029398771351,-0.00021913674941362478,-2.7109802301490283e-05,0.00043734427464512976,0.24825400114059448,13.536218643188477,-0.3983490765094757,-18.297456741333008,-0.5880637764930725,-2.2946200370788574,0.22830526530742645,0
23,0.10999608039855957,-0.2720577120780945,-13.512414932250977,0.3705780804157257,18.345064163208008,0.5944724678993225,2.2946200370788574,-0.23471395671367645,0.0,0.0,0.0,0.0,0.0,0.0,0.0,-0.2585613033453468,0.3889017366745197,-0.017906370737693852,0.6291575084417186,0.16725157722811276,0.09056682042099906,-0.22633430220360332,0.07179886357921529,-0.3344311224619547,-0.12010502274985362,-2.8747531493672147,-0.06463226985931396,2.518282801998986,0.7687470048923054,0.07165585495296277,-0.33419673383382315,-0.1203439052763738,-2.874768336042937,-0.06453255302590709,2.518161157661014,0.7687020283728597,0.0004352313208261248,0.00013232334135876298,0.00016324492822619973,-0.0017063501782871044,5.8044276994571955e-05,-8.266111705833224e-05,0.0005712433451145788,0.0,0.0,0.0,0.0,0.0,0.0,0.0,-0.00014300862625252209,0.00023438862813157657,-0.00023888252652018438,-1.5186675722311804e-05,9.971683340687099e-05,-0.00012164433797190455,-4.497651944568304e-05,-0.0004352313208261248,-0.00013232334135876298,-0.00016324492822619973,0.0017063501782871044,-5.8044276994571955e-05,8.266111705833224e-05,-0.0005712433451145788,0.2720577120780945,13.512414932250977,-0.3705780804157257,-18.345064163208008,-0.5944724678993225,-2.2946200370788574,0.23471395671367645,0
24,0.11499452590942383,-0.2720577120780945,-13.512414932250977,0.3705780804157257,18.345064163208008,0.5944724678993225,2.2946200370788574,-0.23471395671367645,0.0,0.0,0.0,0.0,0.0,0.0,0.0,-0.2585613033453468,0.3889017366745197,-0.017906370737693852,0.6291575084417186,0.16725157722811276,0.09056682042099906,-0.22633430220360332,0.07179886357921529,-0.3344311224619547,-0.12010502274985362,-2.8747531493672147,-0.06463226985931396,2.518282801998986,0.7687470048923054,0.07165585495296277,-0.33419673383382315,-0.1203439052763738,-2.874768336042937,-0.06453255302590709,2.518161157661014,0.7687020283728597,0.0004352313208261248,0.00013232334135876298,0.00016324492822619973,-0.0017063501782871044,5.8044276994571955e-05,-8.266111705833224e-05,0.0005712433451145788,0.0,0.0,0.0,0.0,0.0,0.0,0.0,-0.00014300862625252209,0.00023438862813157657,-0.00023888252652018438,-1.5186675722311804e-05,9.971683340687099e-05,-0.00012164433797190455,-4.497651944568304e-05,-0.0004352313208261248,-0.00013232334135876298,-0.00016324492822619973,0.0017063501782871044,-5.8044276994571955e-05,8.266111705833224e-05,-0.0005712433451145788,0.2720577120780945,13.512414932250977,-0.3705780804157257,-18.345064163208008,-0.5944724678993225,-2.2946200370788574,0.23471395671367645,0
25,0.11999773979187012,-0.2998287081718445,-13.512414932250977,0.3705780804157257,18.321260452270508,0.5880637764930725,2.3010287284851074,-0.21457235515117645,0.0,0.0,0.0,0.0,0.0,0.0,0.0,-0.2565464354482913,0.40591784464127423,-0.020518350684548426,0.585169489518309,0.16637065077171445,0.08354688728721786,-0.2261806308220876,0.07180173316177577,-0.3344311224619547,-0.1201047581974506,-2.8747514789313597,-0.06463155778249105,2.518282089922163,0.7687411252741528,0.07165585495296277,-0.33419673383382315,-0.1203439052763738,-2.874768336042937,-0.06453255302590709,2.518161157661014,0.7687020283728597,0.0005564121859803129,8.958395129214788e-05,-0.00011160810141261281,-0.000334885624471752,0.0004236744146655243,-0.0003707715612056186,-0.0003552338680719701,0.0,0.0,0.0,0.0,0.0,0.0,0.0,-0.00014587820881299673,0.00023438862813157657,-0.00023914707892319642,-1.68571115772842e-05,9.90047565839619e-05,-0.00012093226114906486,-3.909690129311194e-05,-0.0005564121859803129,-8.958395129214788e-05,0.00011160810141261281,0.000334885624471752,-0.0004236744146655243,0.0003707715612056186,0.0003552338680719701,0.2998287081718445,13.512414932250977,-0.3705780804157257,-18.321260452270508,-0.5880637764930725,-2.3010287284851074,0.21457235515117645,0
26,0.12502598762512207,-0.2998287081718445,-13.512414932250977,0.3705780804157257,18.321260452270508,0.5880637764930725,2.3010287284851074,-0.21457235515117645,0.0,0.0,0.0,0.0,0.0,0.0,0.0,-0.2565464354482913,0.40591784464127423,-0.020518350684548426,0.585169489518309,0.16637065077171445,0.08354688728721786,-0.2261806308220876,0.07180173316177577,-0.3344311224619547,-0.1201047581974506,-2.8747514789313597,-0.06463155778249105,2.518282089922163,0.7687411252741528,0.07165585495296277,-0.33419673383382315,-0.1203439052763738,-2.874768336042937,-0.06453255302590709,2.518161157661014,0.7687020283728597,0.0005564121859803129,8.958395129214788e-05,-0.00011160810141261281,-0.000334885624471752,0.0004236744146655243,-0.0003707715612056186,-0.0003552338680719701,0.0,0.0,0.0,0.0,0.0,0.0,0.0,-0.00014587820881299673,0.00023438862813157657,-0.00023914707892319642,-1.68571115772842e-05,9.90047565839619e-05,-0.00012093226114906486,-3.909690129311194e-05,-0.0005564121859803129,-8.958395129214788e-05,0.00011160810141261281,0.000334885624471752,-0.0004236744146655243,0.0003707715612056186,0.0003552338680719701,0.2998287081718445,13.512414932250977,-0.3705780804157257,-18.321260452270508,-0.5880637764930725,-2.3010287284851074,0.21457235515117645,0
27,0.13000774383544922,-0.2998287081718445,-13.512414932250977,0.3705780804157257,18.321260452270508,0.5880637764930725,2.3010287284851074,-0.21457235515117645,0.0,0.0,0.0,0.0,0.0,0.0,0.0,-0.2565464354482913,0.40591784464127423,-0.020518350684548426,0.585169489518309,0.16637065077171445,0.08354688728721786,-0.2261806308220876,0.07180173316177577,-0.3344311224619547,-0.1201047581974506,-2.8747514789313597,-0.06463155778249105,2.518282089922163,0.7687411252741528,0.07165585495296277,-0.33419673383382315,-0.1203439052763738,-2.874768336042937,-0.06453255302590709,2.518161157661014,0.7687020283728597,0.0005564121859803129,8.958395129214788e-05,-0.00011160810141261281,-0.000334885624471752,0.0004236744146655243,-0.0003707715612056186,-0.0003552338680719701,0.0,0.0,0.0,0.0,0.0,0.0,0.0,-0.00014587820881299673,0.00023438862813157657,-0.00023914707892319642,-1.68571115772842e-05,9.90047565839619e-05,-0.00012093226114906486,-3.909690129311194e-05,-0.0005564121859803129,-8.958395129214788e-05,0.00011160810141261281,0.000334885624471752,-0.0004236744146655243,0.0003707715612056186,0.0003552338680719701,0.2998287081718445,13.512414932250977,-0.3705780804157257,-18.321260452270508,-0.5880637764930725,-2.3010287284851074,0.21457235515117645,0
28,0.13500714302062988,-0.2998287081718445,-13.512414932250977,0.3705780804157257,18.321260452270508,0.5880637764930725,2.3010287284851074,-0.21457235515117645,0.0,0.0,0.0,0.0,0.0,0.0,0.0,-0.2565464354482913,0.40591784464127423,-0.020518350684548426,0.585169489518309,0.16637065077171445,0.08354688728721786,-0.2261806308220876,0.07180173316177577,-0.3344311224619547,-0.1201047581974506,-2.8747514789313597,-0.06463155778249105,2.518282089922163,0.7687411252741528,0.07165585495296277,-0.33419673383382315,-0.1203439052763738,-2.874768336042937,-0.06453255302590709,2.518161157661014,0.7687020283728597,0.0005564121859803129,8.958395129214788e-05,-0.00011160810141261281,-0.000334885624471752,0.0004236744146655243,-0.0003707715612056186,-0.0003552338680719701,0.0,0.0,0.0,0.0,0.0,0.0,0.0,-0.00014587820881299673,0.00023438862813157657,-0.00023914707892319642,-1.68571115772842e-05,9.90047565839619e-05,-0.00012093226114906486,-3.909690129311194e-05,-0.0005564121859803129,-8.958395129214788e-05,0.00011160810141261281,0.000334885624471752,-0.0004236744146655243,0.0003707715612056186,0.0003552338680719701,0.2998287081718445,13.512414932250977,-0.3705780804157257,-18.321260452270508,-0.5880637764930725,-2.3010287284851074,0.21457235515117645,0
29,0.14000582695007324,-0.2720577120780945,-13.464807510375977,0.4221527874469757,18.321260452270508,0.5944724678993225,2.3010287284851074,-0.20724813640117645,0.0,0.0,0.0,0.0,0.0,0.0,0.0,-0.25889636834680846,0.4115044217890057,-0.021640733249420386,0.5698056943805643,0.16587354877499247,0.08133633561119882,-0.2257773988438843,0.07179978140214353,-0.3344344633336652,-0.12011132663498408,-2.8747514789313597,-0.06463226985931396,2.518282089922163,0.7687434801728792,0.07165585495296277,-0.33419673383382315,-0.1203439052763738,-2.874768336042937,-0.06453255302590709,2.518161157661014,0.7687020283728597,-0.00037076939554944423,-0.0010917675339362283,-0.0005673496077900762,-0.0002143379284137456,-0.0001597066589974499,-0.00023488431222436464,-0.0008475312264766277,0.0,0.0,0.0,0.0,0.0,0.0,0.0,-0.00014392644918076458,0.00023772949984207647,-0.0002325786413897163,-1.68571115772842e-05,9.971683340687099e-05,-0.00012093226114906486,-4.1451800019465246e-05,0.00037076939554944423,0.0010917675339362283,0.0005673496077900762,0.0002143379284137456,0.0001597066589974499,0.00023488431222436464,0.0008475312264766277,0.2720577120780945,13.464807510375977,-0.4221527874469757,-18.321260452270508,-0.5944724678993225,-2.3010287284851074,0.20724813640117645,0
30,0.14499950408935547,-0.2720577120780945,-13.464807510375977,0.4221527874469757,18.321260452270508,0.5944724678993225,2.3010287284851074,-0.20724813640117645,0.0,0.0,0.0,0.0,0.0,0.0,0.0,-0.25889636834680846,0.4115044217890057,-0.021640733249420386,0.5698056943805643,0.16587354877499247,0.08133633561119882,-0.2257773988438843,0.07179978140214353,-0.3344344633336652,-0.12011132663498408,-2.8747514789313597,-0.06463226985931396,2.518282089922163,0.7687434801728792,0.07165585495296277,-0.33419673383382315,-0.1203439052763738,-2.874768336042937,-0.06453255302590709,2.518161157661014,0.7687020283728597,-0.00037076939554944423,-0.0010917675339362283,-0.0005673496077900762,-0.0002143379284137456,-0.0001597066589974499,-0.00023488431222436464,-0.0008475312264766277,0.0,0.0,0.0,0.0,0.0,0.0,0.0,-0.00014392644918076458,0.00023772949984207647,-0.0002325786413897163,-1.68571115772842e-05,9.971683340687099e-05,-0.00012093226114906486,-4.1451800019465246e-05,0.00037076939554944423,0.0010917675339362283,0.0005673496077900762,0.0002143379284137456,0.0001597066589974499,0.00023488431222436464,0.0008475312264766277,0.2720577120780945,13.464807510375977,-0.4221527874469757,-18.321260452270508,-0.5944724678993225,-2.3010287284851074,0.20724813640117645,0
31,0.14999890327453613,-0.24825400114059448,-13.536218643188477,0.3705780804157257,18.345064163208008,0.5944724678993225,2.2946200370788574,-0.21457235515117645,0.0,0.0,0.0,0.0,0.0,0.0,0.0,-0.26466740667362715,0.40466399277934006,-0.023702971710984597,0.5746025088128581,0.1653191371682194,0.08227529959628074,-0.22577356243616298,0.07179814019625877,-0.3344294520260994,-0.12010478354526066,-2.8747531493672147,-0.06463226985931396,2.518282801998986,0.7687437484754425,0.07165585495296277,-0.33419673383382315,-0.1203439052763738,-2.874768336042937,-0.06453255302590709,2.518161157661014,0.7687020283728597,-0.0007285974622012167,0.00012203358850929733,0.0006200715806591386,-0.0005679389909014483,-2.778373780039615e-05,0.00010408778084562729,1.3819640448617955e-05,0.0,0.0,0.0,0.0,0.0,0.0,0.0,-0.00014228524329600034,0.0002327181922762711,-0.00023912173111313717,-1.5186675722311804e-05,9.971683340687099e-05,-0.00012164433797190455,-4.1720102582742946e-05,0.0007285974622012167,-0.00012203358850929733,-0.0006200715806591386,0.0005679389909014483,2.778373780039615e-05,-0.00010408778084562729,-1.3819640448617955e-05,0.24825400114059448,13.536218643188477,-0.3705780804157257,-18.345064163208008,-0.5944724678993225,-2.2946200370788574,0.21457235515117645,0
32,0.1550002098083496,-0.24825400114059448,-13.536218643188477,0.3705780804157257,18.345064163208008,0.5944724678993225,2.2946200370788574,-0.21457235515117645,0.0,0.0,0.0,0.0,0.0,0.0,0.0,-0.26466740667362715,0.40466399277934006,-0.023702971710984597,0.5746025088128581,0.1653191371682194,0.08227529959628074,-0.22577356243616298,0.07179814019625877,-0.3344294520260994,-0.12010478354526066,-2.8747531493672147,-0.06463226985931396,2.518282801998986,0.7687437484754425,0.07165585495296277,-0.33419673383382315,-0.1203439052763738,-2.874768336042937,-0.06453255302590709,2.518161157661014,0.7687020283728597,-0.0007285974622012167,0.00012203358850929733,0.0006200715806591386,-0.0005679389909014483,-2.778373780039615e-05,0.00010408778084562729,1.3819640448617955e-05,0.0,0.0,0.0,0.0,0.0,0.0,0.0,-0.00014228524329600034,0.0002327181922762711,-0.00023912173111313717,-1.5186675722311804e-05,9.971683340687099e-05,-0.00012164433797190455,-4.1720102582742946e-05,0.0007285974622012167,-0.00012203358850929733,-0.0006200715806591386,0.0005679389909014483,2.778373780039615e-05,-0.00010408778084562729,-1.3819640448617955e-05,0.24825400114059448,13.536218643188477,-0.3705780804157257,-18.345064163208008,-0.5944724678993225,-2.2946200370788574,0.21457235515117645,0
33,0.15999841690063477,-0.22445029020309448,-13.536218643188477,0.4459564983844757,18.345064163208008,0.5944724678993225,2.3010287284851074,-0.20724813640117645,0.0,0.0,0.0,0.0,0.0,0.0,0.0,-0.2616158359,0.40951497938172654,-0.018574006691283135,0.5688297419498031,0.16440445812536247,0.08166621132691755,-0.22601887219904432,0.07179646976056851,-0.3344294520260994,-0.12011011806161069,-2.8747531493672147,-0.06463226985931396,2.518282089922163,0.7687396802621259,0.07165585495296277,-0.33419673383382315,-0.1203439052763738,-2.874768336042937,-0.06453255302590709,2.518161157661014,0.7687020283728597,-0.0006166080653891739,0.0005548469664770898,-0.0004488559500710704,-0.000970543641765284,6.056912405249007e-05,-0.0002449587110333334,-0.0005177889198050957,0.0,0.0,0.0,0.0,0.0,0.0,0.0,-0.0001406148076057434,0.0002327181922762711,-0.00023378721476310926,-1.5186675722311804e-05,9.971683340687099e-05,-0.00012093226114906486,-3.765188926618812e-05,0.0006166080653891739,-0.0005548469664770898,0.0004488559500710704,0.000970543641765284,-6.056912405249007e-05,0.0002449587110333334,0.0005177889198050957,0.22445029020309448,13.536218643188477,-0.4459564983844757,-18.345064163208008,-0.5944724678993225,-2.3010287284851074,0.20724813640117645,0
34,0.16499757766723633,-0.22445029020309448,-13.536218643188477,0.4459564983844757,18.345064163208008,0.5944724678993225,2.3010287284851074,-0.20724813640117645,0.0,0.0,0.0,0.0,0.0,0.0,0.0,-0.2616158359,0.40951497938172654,-0.018574006691283135,0.5688297419498031,0.16440445812536247,0.08166621132691755,-0.22601887219904432,0.07179646976056851,-0.3344294520260994,-0.12011011806161069,-2.8747531493672147,-0.06463226985931396,2.518282089922163,0.7687396802621259,0.07165585495296277,-0.33419673383382315,-0.1203439052763738,-2.874768336042937,-0.06453255302590709,2.518161157661014,0.7687020283728597,-0.0006166080653891739,0.0005548469664770898,-0.0004488559500710704,-0.000970543641765284,6.056912405249007e-05,-0.0002449587110333334,-0.0005177889198050957,0.0,0.0,0.0,0.0,0.0,0.0,0.0,-0.0001406148076057434,0.0002327181922762711,-0.00023378721476310926,-1.5186675722311804e-05,9.971683340687099e-05,-0.00012093226114906486,-3.765188926618812e-05,0.0006166080653891739,-0.0005548469664770898,0.0004488559500710704,0.000970543641765284,-6.056912405249007e-05,0.0002449587110333334,0.0005177889198050957,0.22445029020309448,13.536218643188477,-0.4459564983844757,-18.345064163208008,-0.5944724678993225,-2.3010287284851074,0.20724813640117645,0
35,0.1699967384338379,-0.24825400114059448,-13.464807510375977,0.3983490765094757,18.321260452270508,0.5944724678993225,2.2882113456726074,-0.26217979192733765,0.0,0.0,0.0,0.0,0.0,0.0,0.0,-0.258692110879577,0.41024859643627387,-0.012904333394315983,0.575634264815871,0.1645689598060226,0.0828489615024676,-0.22642892629972883,0.07179812850442899,-0.3344344633336652,-0.12010680605927603,-2.8747514789313597,-0.06463226985931396,2.518283514075809,0.7687500751319348,0.07165585495296277,-0.33419673383382315,-0.1203439052763738,-2.874768336042937,-0.06453255302590709,2.518161157661014,0.7687020283728597,0.00044170744823706027,-0.00047635567011895666,0.0006656178703899302,0.00019527010023111312,2.246860933537966e-05,0.00016130823297477747,0.001023255397609557,0.0,0.0,0.0,0.0,0.0,0.0,0.0,-0.00014227355146621823,0.00023772949984207647,-0.00023709921709777482,-1.68571115772842e-05,9.971683340687099e-05,-0.00012235641479474424,-4.804675907510436e-05,-0.00044170744823706027,0.00047635567011895666,-0.0006656178703899302,-0.00019527010023111312,-2.246860933537966e-05,-0.00016130823297477747,-0.001023255397609557,0.24825400114059448,13.464807510375977,-0.3983490765094757,-18.321260452270508,-0.5944724678993225,-2.2882113456726074,0.26217979192733765,0
36,0.17499637603759766,-0.24825400114059448,-13.464807510375977,0.3983490765094757,18.321260452270508,0.5944724678993225,2.2882113456726074,-0.26217979192733765,0.0,0.0,0.0,0.0,0.0,0.0,0.0,-0.258692110879577,0.41024859643627387,-0.012904333394315983,0.575634264815871,0.1645689598060226,0.0828489615024676,-0.22642892629972883,0.07179812850442899,-0.3344344633336652,-0.12010680605927603,-2.8747514789313597,-0.06463226985931396,2.518283514075809,0.7687500751319348,0.07165585495296277,-0.33419673383382315,-0.1203439052763738,-2.874768336042937,-0.06453255302590709,2.518161157661014,0.7687020283728597,0.00044170744823706027,-0.00047635567011895666,0.0006656178703899302,0.00019527010023111312,2.246860933537966e-05,0.00016130823297477747,0.001023255397609557,0.0,0.0,0.0,0.0,0.0,0.0,0.0,-0.00014227355146621823,0.00023772949984207647,-0.00023709921709777482,-1.68571115772842e-05,9.971683340687099e-05,-0.00012235641479474424,-4.804675907510436e-05,-0.00044170744823706027,0.00047635567011895666,-0.0006656178703899302,-0.00019527010023111312,-2.246860933537966e-05,-0.00016130823297477747,-0.001023255397609557,0.24825400114059448,13.464807510375977,-0.3983490765094757,-18.321260452270508,-0.5944724678993225,-2.2882113456726074,0.26217979192733765,0
37,0.18004107475280762,-0.2720577120780945,-13.488611221313477,0.3705780804157257,18.297456741333008,0.5999656319618225,2.2946200370788574,-0.24112264811992645,0.0,0.0,0.0,0.0,0.0,0.0,0.0,-0.2614348769717966,0.41476437349412365,-0.016070918507964427,0.5745609000860827,0.16509893904212256,0.08181411725895178,-0.22769649335792788,0.0717998103074354,-0.33443279289780997,-0.12010570521200786,-2.8747498084955043,-0.06463323507927081,2.518282801998986,0.7687463276374236,0.07165585495296277,-0.33419673383382315,-0.1203439052763738,-2.874768336042937,-0.06453255302590709,2.518161157661014,0.7687020283728597,0.0001344343658595612,9.10808427636759e-05,0.0002119039231832179,-8.012470133303765e-05,-9.907952456480291e-05,2.3567218344422583e-05,0.0010568211734028061,0.0,0.0,0.0,0.0,0.0,0.0,0.0,-0.00014395535447263297,0.00023605906398682652,-0.0002382000643659371,-1.8527547432700686e-05,0.00010068205336372094,-0.00012164433797190455,-4.42992645638407e-05,-0.0001344343658595612,-9.10808427636759e-05,-0.0002119039231832179,8.012470133303765e-05,9.907952456480291e-05,-2.3567218344422583e-05,-0.0010568211734028061,0.2720577120780945,13.488611221313477,-0.3705780804157257,-18.297456741333008,-0.5999656319618225,-2.2946200370788574,0.24112264811992645,0
38,0.18500423431396484,-0.2720577120780945,-13.488611221313477,0.3705780804157257,18.297456741333008,0.5999656319618225,2.2946200370788574,-0.24112264811992645,0.0,0.0,0.0,0.0,0.0,0.0,0.0,-0.2614348769717966,0.41476437349412365,-0.016070918507964427,0.5745609000860827,0.16509893904212256,0.08181411725895178,-0.22769649335792788,0.0717998103074354,-0.33443279289780997,-0.12010570521200786,-2.8747498084955043,-0.06463323507927081,2.518282801998986,0.7687463276374236,0.07165585495296277,-0.33419673383382315,-0.1203439052763738,-2.874768336042937,-0.06453255302590709,2.518161157661014,0.7687020283728597,0.0001344343658595612,9.10808427636759e-05,0.0002119039231832179,-8.012470133303765e-05,-9.907952456480291e-05,2.3567218344422583e-05,0.0010568211734028061,0.0,0.0,0.0,0.0,0.0,0.0,0.0,-0.00014395535447263297,0.00023605906398682652,-0.0002382000643659371,-1.8527547432700686e-05,0.00010068205336372094,-0.00012164433797190455,-4.42992645638407e-05,-0.0001344343658595612,-9.10808427636759e-05,-0.0002119039231832179,8.012470133303765e-05,9.907952456480291e-05,-2.3567218344422583e-05,-0.0010568211734028061,0.2720577120780945,13.488611221313477,-0.3705780804157257,-18.297456741333008,-0.5999656319618225,-2.2946200370788574,0.24112264811992645,0
39,0.1900017261505127,-0.24825400114059448,-13.536218643188477,0.3983490765094757,18.321260452270508,0.6063743233680725,2.2882113456726074,-0.20083944499492645,0.0,0.0,0.0,0.0,0.0,0.0,0.0,-0.2545870179344876,0.4092596294539336,-0.014427320237951034,0.5816607023986917,0.165252154785368,0.08300243549570077,-0.22748511437923713,0.07179814019642194,-0.3344294520260994,-0.12010741729573142,-2.8747514789313597,-0.06463359228970261,2.518283514075809,0.7687417090157227,0.07165585495296277,-0.33419673383382315,-0.1203439052763738,-2.874768336042937,-0.06453255302590709,2.518161157661014,0.7687020283728597,-0.0004456096750786286,0.0007768876356563282,-0.00017686457568575798,0.00014521453630869424,-0.0003923702676890895,0.00022068437000998586,-0.000512529702657272,0.0,0.0,0.0,0.0,0.0,0.0,0.0,-0.00014228524345917537,0.0002327181922762711,-0.0002364879806423803,-1.68571115772842e-05,0.0001010392637955243,-0.00012235641479474424,-3.968064286297146e-05,0.0004456096750786286,-0.0007768876356563282,0.00017686457568575798,-0.00014521453630869424,0.0003923702676890895,-0.00022068437000998586,0.000512529702657272,0.24825400114059448,13.536218643188477,-0.3983490765094757,-18.321260452270508,-0.6063743233680725,-2.2882113456726074,0.20083944499492645,0
40,0.19499850273132324,-0.24825400114059448,-13.536218643188477,0.3983490765094757,18.321260452270508,0.6063743233680725,2.2882113456726074,-0.20083944499492645,0.0,0.0,0.0,0.0,0.0,0.0,0.0,-0.2545870179344876,0.4092596294539336,-0.014427320237951034,0.5816607023986917,0.165252154785368,0.08300243549570077,-0.22748511437923713,0.07179814019642194,-0.3344294520260994,-0.12010741729573142,-2.8747514789313597,-0.06463359228970261,2.518283514075809,0.7687417090157227,0.07165585495296277,-0.33419673383382315,-0.1203439052763738,-2.874768336042937,-0.06453255302590709,2.518161157661014,0.7687020283728597,-0.0004456096750786286,0.0007768876356563282,-0.00017686457568575798,0.00014521453630869424,-0.0003923702676890895,0.00022068437000998586,-0.000512529702657272,0.0,0.0,0.0,0.0,0.0,0.0,0.0,-0.00014228524345917537,0.0002327181922762711,-0.0002364879806423803,-1.68571115772842e-05,0.0001010392637955243,-0.00012235641479474424,-3.968064286297146e-05,0.0004456096750786286,-0.0007768876356563282,0.00017686457568575798,-0.00014521453630869424,0.0003923702676890895,-0.00022068437000998586,0.000512529702657272,0.24825400114059448,13.536218643188477,-0.3983490765094757,-18.321260452270508,-0.6063743233680725,-2.2882113456726074,0.20083944499492645,0
41,0.20000004768371582,-0.24825400114059448,-13.512414932250977,0.3705780804157257,18.321260452270508,0.5999656319618225,2.2882113456726074,-0.21457235515117645,0.0,0.0,0.0,0.0,0.0,0.0,0.0,-0.25489933150487926,0.41239466635412503,-0.01484960924636952,0.5783067748791407,0.16512605464666785,0.08151457959202207,-0.2263959625948247,0.07179814019642378,-0.3344311224619547,-0.12010723383551807,-2.8747514789313597,-0.06463607402642568,2.518283514075809,0.7687432761019728,0.07165585495296277,-0.33419673383382315,-0.1203439052763738,-2.874768336042937,-0.06453255302590709,2.518161157661014,0.7687020283728597,-0.00028068006052288206,0.00011772444444850262,0.001109336481319397,0.0001014823421286789,-0.00019402804502521308,0.00014139560438587747,-0.0004196914950862112,0.0,0.0,0.0,0.0,0.0,0.0,0.0,-0.00014228524346100724,0.00023438862813157657,-0.00023667144085573466,-1.68571115772842e-05,0.00010352100051859436,-0.00012235641479474424,-4.124772911306973e-05,0.00028068006052288206,-0.00011772444444850262,-0.001109336481319397,-0.0001014823421286789,0.00019402804502521308,-0.00014139560438587747,0.0004196914950862112,0.24825400114059448,13.512414932250977,-0.3705780804157257,-18.321260452270508,-0.5999656319618225,-2.2882113456726074,0.21457235515117645,0
42,0.20499849319458008,-0.24825400114059448,-13.512414932250977,0.3705780804157257,18.321260452270508,0.5999656319618225,2.2882113456726074,-0.21457235515117645,0.0,0.0,0.0,0.0,0.0,0.0,0.0,-0.25489933150487926,0.41239466635412503,-0.01484960924636952,0.5783067748791407,0.16512605464666785,0.08151457959202207,-0.2263959625948247,0.07179814019642378,-0.3344311224619547,-0.12010723383551807,-2.8747514789313597,-0.06463607402642568,2.518283514075809,0.7687432761019728,0.07165585495296277,-0.33419673383382315,-0.1203439052763738,-2.874768336042937,-0.06453255302590709,2.518161157661014,0.7687020283728597,-0.00028068006052288206,0.00011772444444850262,0.001109336481319397,0.0001014823421286789,-0.00019402804502521308,0.00014139560438587747,-0.0004196914950862112,0.0,0.0,0.0,0.0,0.0,0.0,0.0,-0.00014228524346100724,0.00023438862813157657,-0.00023667144085573466,-1.68571115772842e-05,0.00010352100051859436,-0.00012235641479474424,-4.124772911306973e-05,0.00028068006052288206,-0.00011772444444850262,-0.001109336481319397,-0.0001014823421286789,0.00019402804502521308,-0.00014139560438587747,0.0004196914950862112,0.24825400114059448,13.512414932250977,-0.3705780804157257,-18.321260452270508,-0.5999656319618225,-2.2882113456726074,0.21457235515117645,0
43,0.20999908447265625,-0.2720577120780945,-13.563989639282227,0.3705780804157257,18.321260452270508,0.5944724678993225,2.2818026542663574,-0.23471395671367645,0.0,0.0,0.0,0.0,0.0,0.0,0.0,-0.2614556013298182,0.4102647231790934,-0.02110375515799283,0.579724232787787,0.16560981436903513,0.08040765891425453,-0.22604541163115077,0.07179981063227904,-0.3344275031842683,-0.12010498768337323,-2.8747514789313597,-0.06463546417968027,2.518284226152632,0.7687466661963677,0.07165585495296277,-0.33419673383382315,-0.1203439052763738,-2.874768336042937,-0.06453255302590709,2.518161157661014,0.7687020283728597,-3.4697576358510916e-05,0.001434127022193731,8.863323548326752e-05,1.3148906686564153e-05,1.8980824901287422e-05,0.00018771839523708294,-0.00014095454817303398,0.0,0.0,0.0,0.0,0.0,0.0,0.0,-0.00014395567931627107,0.0002307693504451369,-0.00023891759300057047,-1.68571115772842e-05,0.00010291115377318583,-0.00012306849161802802,-4.463782350794254e-05,3.4697576358510916e-05,-0.001434127022193731,-8.863323548326752e-05,-1.3148906686564153e-05,-1.8980824901287422e-05,-0.00018771839523708294,0.00014095454817303398,0.2720577120780945,13.563989639282227,-0.3705780804157257,-18.321260452270508,-0.5944724678993225,-2.2818026542663574,0.23471395671367645,0
44,0.2149980068206787,-0.2720577120780945,-13.563989639282227,0.3705780804157257,18.321260452270508,0.5944724678993225,2.2818026542663574,-0.23471395671367645,0.0,0.0,0.0,0.0,0.0,0.0,0.0,-0.2614556013298182,0.4102647231790934,-0.02110375515799283,0.579724232787787,0.16560981436903513,0.08040765891425453,-0.22604541163115077,0.07179981063227904,-0.3344275031842683,-0.12010498768337323,-2.8747514789313597,-0.06463546417968027,2.518284226152632,0.7687466661963677,0.07165585495296277,-0.33419673383382315,-0.1203439052763738,-2.874768336042937,-0.06453255302590709,2.518161157661014,0.7687020283728597,-3.4697576358510916e-05,0.001434127022193731,8.863323548326752e-05,1.3148906686564153e-05,1.8980824901287422e-05,0.00018771839523708294,-0.00014095454817303398,0.0,0.0,0.0,0.0,0.0,0.0,0.0,-0.00014395567931627107,0.0002307693504451369,-0.00023891759300057047,-1.68571115772842e-05,0.00010291115377318583,-0.00012306849161802802,-4.463782350794254e-05,3.4697576358510916e-05,-0.001434127022193731,-8.863323548326752e-05,-1.3148906686564153e-05,-1.8980824901287422e-05,-0.00018771839523708294,0.00014095454817303398,0.2720577120780945,13.563989639282227,-0.3705780804157257,-18.321260452270508,-0.5944724678993225,-2.2818026542663574,0.23471395671367645,0
45,0.21999764442443848,-0.24825400114059448,-13.488611221313477,0.4221527874469757,18.345064163208008,0.5999656319618225,2.2946200370788574,-0.24844686686992645,0.0,0.0,0.0,0.0,0.0,0.0,0.0,-0.2575901635009709,0.41341753249290414,-0.019568218828387548,0.5777228169014422,0.16515032652243447,0.07879436358850746,-0.2273936976867432,0.07179814019642378,-0.33443279289780997,-0.12011076552878877,-2.8747531493672147,-0.06463288028299603,2.5182828021604915,0.7687474623268767,0.07165585495296277,-0.33419673383382315,-0.1203439052763738,-2.874768336042937,-0.06453255302590709,2.518161157661014,0.7687020283728597,-0.0003309295570067031,-4.775545104944484e-05,-0.00048790314388121156,-0.000795522636602447,-0.00012150265441200244,-4.029785636036193e-05,0.0012168661251378342,0.0,0.0,0.0,0.0,0.0,0.0,0.0,-0.00014228524346100724,0.00023605906398682652,-0.00023313974758502887,-1.5186675722311804e-05,0.00010032725708894463,-0.00012164449947738021,-4.5433954017015665e-05,0.0003309295570067031,4.775545104944484e-05,0.00048790314388121156,0.000795522636602447,0.00012150265441200244,4.029785636036193e-05,-0.0012168661251378342,0.24825400114059448,13.488611221313477,-0.4221527874469757,-18.345064163208008,-0.5999656319618225,-2.2946200370788574,0.24844686686992645,0
46,0.22499608993530273,-0.24825400114059448,-13.488611221313477,0.4221527874469757,18.345064163208008,0.5999656319618225,2.2946200370788574,-0.24844686686992645,0.0,0.0,0.0,0.0,0.0,0.0,0.0,-0.2575901635009709,0.41341753249290414,-0.019568218828387548,0.5777228169014422,0.16515032652243447,0.07879436358850746,-0.2273936976867432,0.07179814019642378,-0.33443279289780997,-0.12011076552878877,-2.8747531493672147,-0.06463288028299603,2.5182828021604915,0.7687474623268767,0.07165585495296277,-0.33419673383382315,-0.1203439052763738,-2.874768336042937,-0.06453255302590709,2.518161157661014,0.7687020283728597,-0.0003309295570067031,-4.775545104944484e-05,-0.00048790314388121156,-0.000795522636602447,-0.00012150265441200244,-4.029785636036193e-05,0.0012168661251378342,0.0,0.0,0.0,0.0,0.0,0.0,0.0,-0.00014228524346100724,0.00023605906398682652,-0.00023313974758502887,-1.5186675722311804e-05,0.00010032725708894463,-0.00012164449947738021,-4.5433954017015665e-05,0.0003309295570067031,4.775545104944484e-05,0.00048790314388121156,0.000795522636602447,0.00012150265441200244,4.029785636036193e-05,-0.0012168661251378342,0.24825400114059448,13.488611221313477,-0.4221527874469757,-18.345064163208008,-0.5999656319618225,-2.2946200370788574,0.24844686686992645,0
47,0.23001980781555176,-0.24825400114059448,-13.464807510375977,0.4221527874469757,18.345064163208008,0.5880637764930725,2.3010287284851074,-0.20724813640117645,0.0,0.0,0.0,0.0,0.0,0.0,0.0,-0.2581973947113723,0.4137341981101818,-0.017016903560816282,0.5795463109573513,0.16518826628480593,0.0793095010930092,-0.22834424959933955,0.0717974289334073,-0.3344344633336652,-0.12010861713693104,-2.8747531493672147,-0.06463155778249145,2.518282089922164,0.7687424220209953,0.07165585495296277,-0.33419673383382315,-0.1203439052763738,-2.874768336042937,-0.06453255302590709,2.518161157661014,0.7687020283728597,-0.00038754700893028617,-0.0004707620625042854,-0.00028246716592225245,-0.0005794368396591016,0.0004767195913076055,-0.0004279684345806554,-0.00034333727201704255,0.0,0.0,0.0,0.0,0.0,0.0,0.0,-0.00014157398044453706,0.00023772949984207647,-0.00023528813944276306,-1.5186675722311804e-05,9.900475658436436e-05,-0.00012093226114995304,-4.039364813557267e-05,0.00038754700893028617,0.0004707620625042854,0.00028246716592225245,0.0005794368396591016,-0.0004767195913076055,0.0004279684345806554,0.00034333727201704255,0.24825400114059448,13.464807510375977,-0.4221527874469757,-18.345064163208008,-0.5880637764930725,-2.3010287284851074,0.20724813640117645,0
48,0.23502516746520996,-0.24825400114059448,-13.464807510375977,0.4221527874469757,18.345064163208008,0.5880637764930725,2.3010287284851074,-0.20724813640117645,0.0,0.0,0.0,0.0,0.0,0.0,0.0,-0.2581973947113723,0.4137341981101818,-0.017016903560816282,0.5795463109573513,0.16518826628480593,0.0793095010930092,-0.22834424959933955,0.0717974289334073,-0.3344344633336652,-0.12010861713693104,-2.8747531493672147,-0.06463155778249145,2.518282089922164,0.7687424220209953,0.07165585495296277,-0.33419673383382315,-0.1203439052763738,-2.874768336042937,-0.06453255302590709,2.518161157661014,0.7687020283728597,-0.00038754700893028617,-0.0004707620625042854,-0.00028246716592225245,-0.0005794368396591016,0.0004767195913076055,-0.0004279684345806554,-0.00034333727201704255,0.0,0.0,0.0,0.0,0.0,0.0,0.0,-0.00014157398044453706,0.00023772949984207647,-0.00023528813944276306,-1.5186675722311804e-05,9.900475658436436e-05,-0.00012093226114995304,-4.039364813557267e-05,0.00038754700893028617,0.0004707620625042854,0.00028246716592225245,0.0005794368396591016,-0.0004767195913076055,0.0004279684345806554,0.00034333727201704255,0.24825400114059448,13.464807510375977,-0.4221527874469757,-18.345064163208008,-0.5880637764930725,-2.3010287284851074,0.20724813640117645,0
49,0.24002718925476074,-0.24825400114059448,-13.464807510375977,0.4221527874469757,18.321260452270508,0.6063743233680725,2.2946200370788574,-0.22830526530742645,0.0,0.0,0.0,0.0,0.0,0.0,0.0,-0.2571867007574136,0.41406751817481224,-0.013043370646358975,0.5802631975635865,0.16519405333306458,0.07970408721422985,-0.22827629393895002,0.07179814019240868,-0.3344344633336652,-0.12010918714563579,-2.8747514789313597,-0.06463359228769938,2.518282801998986,0.7687418990956879,0.07165585495296277,-0.33419673383382315,-0.1203439052763738,-2.874768336042937,-0.06453255302590709,2.518161157661014,0.7687020283728597,-2.6608705846783146e-05,-0.0002496989543310942,-0.0004014848354276367,-0.00024009237808848166,-0.00041380077087679976,-0.00012736352813835599,-0.0005920274165893486,0.0,0.0,0.0,0.0,0.0,0.0,0.0,-0.00014228523944591343,0.00023772949984207647,-0.0002347181307380125,-1.68571115772842e-05,0.00010103926179229339,-0.00012164433797190455,-3.98707228281836e-05,2.6608705846783146e-05,0.0002496989543310942,0.0004014848354276367,0.00024009237808848166,0.00041380077087679976,0.00012736352813835599,0.0005920274165893486,0.24825400114059448,13.464807510375977,-0.4221527874469757,-18.321260452270508,-0.6063743233680725,-2.2946200370788574,0.22830526530742645,0
50,0.24502825736999512,-0.24825400114059448,-13.464807510375977,0.4221527874469757,18.321260452270508,0.6063743233680725,2.2946200370788574,-0.22830526530742645,0.0,0.0,0.0,0.0,0.0,0.0,0.0,-0.2571867007574136,0.41406751817481224,-0.013043370646358975,0.5802631975635865,0.16519405333306458,0.07970408721422985,-0.22827629393895002,0.07179814019240868,-0.3344344633336652,-0.12010918714563579,-2.8747514789313597,-0.06463359228769938,2.518282801998986,0.7687418990956879,0.07165585495296277,-0.33419673383382315,-0.1203439052763738,-2.874768336042937,-0.06453255302590709,2.518161157661014,0.7687020283728597,-2.6608705846783146e-05,-0.0002496989543310942,-0.0004014848354276367,-0.00024009237808848166,-0.00041380077087679976,-0.00012736352813835599,-0.0005920274165893486,0.0,0.0,0.0,0.0,0.0,0.0,0.0,-0.00014228523944591343,0.00023772949984207647,-0.0002347181307380125,-1.68571115772842e-05,0.00010103926179229339,-0.00012164433797190455,-3.98707228281836e-05,2.6608705846783146e-05,0.0002496989543310942,0.0004014848354276367,0.00024009237808848166,0.00041380077087679976,0.00012736352813835599,0.0005920274165893486,0.24825400114059448,13.464807510375977,-0.4221527874469757,-18.321260452270508,-0.6063743233680725,-2.2946200370788574,0.22830526530742645,0
51,0.25001072883605957,-0.24825400114059448,-13.464807510375977,0.4221527874469757,18.321260452270508,0.6063743233680725,2.2946200370788574,-0.22830526530742645,0.0,0.0,0.0,0.0,0.0,0.0,0.0,-0.2571867007574136,0.41406751817481224,-0.013043370646358975,0.5802631975635865,0.16519405333306458,0.07970408721422985,-0.22827629393895002,0.07179814019240868,-0.3344344633336652,-0.12010918714563579,-2.8747514789313597,-0.06463359228769938,2.518282801998986,0.7687418990956879,0.07165585495296277,-0.33419673383382315,-0.1203439052763738,-2.874768336042937,-0.06453255302590709,2.518161157661014,0.7687020283728597,-2.6608705846783146e-05,-0.0002496989543310942,-0.0004014848354276367,-0.00024009237808848166,-0.00041380077087679976,-0.00012736352813835599,-0.0005920274165893486,0.0,0.0,0.0,0.0,0.0,0.0,0.0,-0.00014228523944591343,0.00023772949984207647,-0.0002347181307380125,-1.68571115772842e-05,0.00010103926179229339,-0.00012164433797190455,-3.98707228281836e-05,2.6608705846783146e-05,0.0002496989543310942,0.0004014848354276367,0.00024009237808848166,0.00041380077087679976,0.00012736352813835599,0.0005920274165893486,0.24825400114059448,13.464807510375977,-0.4221527874469757,-18.321260452270508,-0.6063743233680725,-2.2946200370788574,0.22830526530742645,0
52,0.25499582290649414,-0.24825400114059448,-13.464807510375977,0.4221527874469757,18.321260452270508,0.6063743233680725,2.2946200370788574,-0.22830526530742645,0.0,0.0,0.0,0.0,0.0,0.0,0.0,-0.2571867007574136,0.41406751817481224,-0.013043370646358975,0.5802631975635865,0.16519405333306458,0.07970408721422985,-0.22827629393895002,0.07179814019240868,-0.3344344633336652,-0.12010918714563579,-2.8747514789313597,-0.06463359228769938,2.518282801998986,0.7687418990956879,0.07165585495296277,-0.33419673383382315,-0.1203439052763738,-2.874768336042937,-0.06453255302590709,2.518161157661014,0.7687020283728597,-2.6608705846783146e-05,-0.0002496989543310942,-0.0004014848354276367,-0.00024009237808848166,-0.00041380077087679976,-0.00012736352813835599,-0.0005920274165893486,0.0,0.0,0.0,0.0,0.0,0.0,0.0,-0.00014228523944591343,0.00023772949984207647,-0.0002347181307380125,-1.68571115772842e-05,0.00010103926179229339,-0.00012164433797190455,-3.98707228281836e-05,2.6608705846783146e-05,0.0002496989543310942,0.0004014848354276367,0.00024009237808848166,0.00041380077087679976,0.00012736352813835599,0.0005920274165893486,0.24825400114059448,13.464807510375977,-0.4221527874469757,-18.321260452270508,-0.6063743233680725,-2.2946200370788574,0.22830526530742645,0
53,0.2599940299987793,-0.24825400114059448,-13.512414932250977,0.3983490765094757,18.321260452270508,0.5944724678993225,2.3010287284851074,-0.26858848333358765,0.0,0.0,0.0,0.0,0.0,0.0,0.0,-0.25584918335990237,0.41359095495510034,-0.013201442187646462,0.5832292147581388,0.1652560194749588,0.08029388817735932,-0.22894700323045514,0.07179814019642375,-0.3344311224619547,-0.12010670116027514,-2.8747514789313597,-0.06463226985931396,2.518282089922163,0.7687504684990146,0.07165585495296277,-0.33419673383382315,-0.1203439052763738,-2.874768336042937,-0.06453255302590709,2.518161157661014,0.7687020283728597,7.725132392851843e-05,0.00046973717897099386,-6.308031606503822e-05,0.00023114584537806422,9.134301548698813e-05,-0.0002657070707381691,0.0015389495242577544,0.0,0.0,0.0,0.0,0.0,0.0,0.0,-0.00014228524346097948,0.00023438862813157657,-0.0002372041160986632,-1.68571115772842e-05,9.971683340687099e-05,-0.00012093226114906486,-4.8440126154902785e-05,-7.725132392851843e-05,-0.00046973717897099386,6.308031606503822e-05,-0.00023114584537806422,-9.134301548698813e-05,0.0002657070707381691,-0.0015389495242577544,0.24825400114059448,13.512414932250977,-0.3983490765094757,-18.321260452270508,-0.5944724678993225,-2.3010287284851074,0.26858848333358765,0
54,0.26500844955444336,-0.24825400114059448,-13.512414932250977,0.3983490765094757,18.321260452270508,0.5944724678993225,2.3010287284851074,-0.26858848333358765,0.0,0.0,0.0,0.0,0.0,0.0,0.0,-0.25584918335990237,0.41359095495510034,-0.013201442187646462,0.5832292147581388,0.1652560194749588,0.08029388817735932,-0.22894700323045514,0.07179814019642375,-0.3344311224619547,-0.12010670116027514,-2.8747514789313597,-0.06463226985931396,2.518282089922163,0.7687504684990146,0.07165585495296277,-0.33419673383382315,-0.1203439052763738,-2.874768336042937,-0.06453255302590709,2.518161157661014,0.7687020283728597,7.725132392851843e-05,0.00046973717897099386,-6.308031606503822e-05,0.00023114584537806422,9.134301548698813e-05,-0.0002657070707381691,0.0015389495242577544,0.0,0.0,0.0,0.0,0.0,0.0,0.0,-0.00014228524346097948,0.00023438862813157657,-0.0002372041160986632,-1.68571115772842e-05,9.971683340687099e-05,-0.00012093226114906486,-4.8440126154902785e-05,-7.725132392851843e-05,-0.00046973717897099386,6.308031606503822e-05,-0.00023114584537806422,-9.134301548698813e-05,0.0002657070707381691,-0.0015389495242577544,0.24825400114059448,13.512414932250977,-0.3983490765094757,-18.321260452270508,-0.5944724678993225,-2.3010287284851074,0.26858848333358765,0
55,0.2700235843658447,-0.2720577120780945,-13.512414932250977,0.3983490765094757,18.345064163208008,0.5880637764930725,2.2946200370788574,-0.20083944499492645,0.0,0.0,0.0,0.0,0.0,0.0,0.0,-0.25835290855798637,0.41576650115161745,-0.018496675247329147,0.5814990919298775,0.16534670617723496,0.0797818874047558,-0.22929974389466853,0.07179972294231811,-0.3344311224619547,-0.12010981382455584,-2.8747531493672147,-0.06463159721231264,2.518282801998986,0.768743255795141,0.07165585495296277,-0.33419673383382315,-0.1203439052763738,-2.874768336042937,-0.06453255302590709,2.518161157661014,0.7687020283728597,-0.00037256990907954385,0.00014019891011930293,-0.0007827513720198952,-0.0005937093911867791,6.950939966514973e-05,-9.344703542588304e-05,-0.000591043996757914,0.0,0.0,0.0,0.0,0.0,0.0,0.0,-0.00014386798935533962,0.00023438862813157657,-0.00023409145181796376,-1.5186675722311804e-05,9.904418640555024e-05,-0.00012164433797190455,-4.1227422281298054e-05,0.00037256990907954385,-0.00014019891011930293,0.0007827513720198952,0.0005937093911867791,-6.950939966514973e-05,9.344703542588304e-05,0.000591043996757914,0.2720577120780945,13.512414932250977,-0.3983490765094757,-18.345064163208008,-0.5880637764930725,-2.2946200370788574,0.20083944499492645,0
56,0.2750251293182373,-0.2720577120780945,-13.512414932250977,0.3983490765094757,18.345064163208008,0.5880637764930725,2.2946200370788574,-0.20083944499492645,0.0,0.0,0.0,0.0,0.0,0.0,0.0,-0.25835290855798637,0.41576650115161745,-0.018496675247329147,0.5814990919298775,0.16534670617723496,0.0797818874047558,-0.22929974389466853,0.07179972294231811,-0.3344311224619547,-0.12010981382455584,-2.8747531493672147,-0.06463159721231264,2.518282801998986,0.768743255795141,0.07165585495296277,-0.33419673383382315,-0.1203439052763738,-2.874768336042937,-0.06453255302590709,2.518161157661014,0.7687020283728597,-0.00037256990907954385,0.00014019891011930293,-0.0007827513720198952,-0.0005937093911867791,6.950939966514973e-05,-9.344703542588304e-05,-0.000591043996757914,0.0,0.0,0.0,0.0,0.0,0.0,0.0,-0.00014386798935533962,0.00023438862813157657,-0.00023409145181796376,-1.5186675722311804e-05,9.904418640555024e-05,-0.00012164433797190455,-4.1227422281298054e-05,0.00037256990907954385,-0.00014019891011930293,0.0007827513720198952,0.0005937093911867791,-6.950939966514973e-05,9.344703542588304e-05,0.000591043996757914,0.2720577120780945,13.512414932250977,-0.3983490765094757,-18.345064163208008,-0.5880637764930725,-2.2946200370788574,0.20083944499492645,0
57,0.280015230178833,-0.2720577120780945,-13.512414932250977,0.3705780804157257,18.297456741333008,0.5999656319618225,2.2882113456726074,-0.20724813640117645,0.0,0.0,0.0,0.0,0.0,0.0,0.0,-0.25532649498253673,0.41683546040238406,-0.019335569412099733,0.579109242738635,0.16376766614342275,0.07883884564440889,-0.22837076378568041,0.07179981063211403,-0.3344311224619547,-0.12010714532939674,-2.8747498084955043,-0.06463288022897982,2.518283514075809,0.7687428797684179,0.07165585495296277,-0.33419673383382315,-0.1203439052763738,-2.874768336042937,-0.06453255302590709,2.518161157661014,0.7687020283728597,0.00029475995413842475,0.000363858414023196,0.00033649891389925365,1.0371657518713922e-05,-0.00026889654182422315,-9.64974897232443e-05,-0.0006142590231660676,0.0,0.0,0.0,0.0,0.0,0.0,0.0,-0.00014395567915126417,0.00023438862813157657,-0.00023675994697705538,-1.8527547432700686e-05,0.00010032720307273646,-0.00012235641479474424,-4.0851395558205716e-05,-0.00029475995413842475,-0.000363858414023196,-0.00033649891389925365,-1.0371657518713922e-05,0.00026889654182422315,9.64974897232443e-05,0.0006142590231660676,0.2720577120780945,13.512414932250977,-0.3705780804157257,-18.297456741333008,-0.5999656319618225,-2.2882113456726074,0.20724813640117645,0
58,0.28502511978149414,-0.2720577120780945,-13.512414932250977,0.3705780804157257,18.297456741333008,0.5999656319618225,2.2882113456726074,-0.20724813640117645,0.0,0.0,0.0,0.0,0.0,0.0,0.0,-0.25532649498253673,0.41683546040238406,-0.019335569412099733,0.579109242738635,0.16376766614342275,0.07883884564440889,-0.22837076378568041,0.07179981063211403,-0.3344311224619547,-0.12010714532939674,-2.8747498084955043,-0.06463288022897982,2.518283514075809,0.7687428797684179,0.07165585495296277,-0.33419673383382315,-0.1203439052763738,-2.874768336042937,-0.06453255302590709,2.518161157661014,0.7687020283728597,0.00029475995413842475,0.000363858414023196,0.00033649891389925365,1.0371657518713922e-05,-0.00026889654182422315,-9.64974897232443e-05,-0.0006142590231660676,0.0,0.0,0.0,0.0,0.0,0.0,0.0,-0.00014395567915126417,0.00023438862813157657,-0.00023675994697705538,-1.8527547432700686e-05,0.00010032720307273646,-0.00012235641479474424,-4.0851395558205716e-05,-0.00029475995413842475,-0.000363858414023196,-0.00033649891389925365,-1.0371657518713922e-05,0.00026889654182422315,9.64974897232443e-05,0.0006142590231660676,0.2720577120780945,13.512414932250977,-0.3705780804157257,-18.297456741333008,-0.5999656319618225,-2.2882113456726074,0.20724813640117645,0
59,0.28502511978149414,-0.2720577120780945,-13.512414932250977,0.3705780804157257,18.297456741333008,0.5999656319618225,2.2882113456726074,-0.20724813640117645,0.0,0.0,0.0,0.0,0.0,0.0,0.0,-0.25532649498253673,0.41683546040238406,-0.019335569412099733,0.579109242738635,0.16376766614342275,0.07883884564440889,-0.22837076378568041,0.07179981063211403,-0.3344311224619547,-0.12010714532939674,-2.8747498084955043,-0.06463288022897982,2.518283514075809,0.7687428797684179,0.07165585495296277,-0.33419673383382315,-0.1203439052763738,-2.874768336042937,-0.06453255302590709,2.518161157661014,0.7687020283728597,0.00029475995413842475,0.000363858414023196,0.00033649891389925365,1.0371657518713922e-05,-0.00026889654182422315,-9.64974897232443e-05,-0.0006142590231660676,0.0,0.0,0.0,0.0,0.0,0.0,0.0,-0.00014395567915126417,0.00023438862813157657,-0.00023675994697705538,-1.8527547432700686e-05,0.00010032720307273646,-0.00012235641479474424,-4.0851395558205716e-05,-0.00029475995413842475,-0.000363858414023196,-0.00033649891389925365,-1.0371657518713922e-05,0.00026889654182422315,9.64974897232443e-05,0.0006142590231660676,0.2720577120780945,13.512414932250977,-0.3705780804157257,-18.297456741333008,-0.5999656319618225,-2.2882113456726074,0.20724813640117645,0
60,0.2950325012207031,-0.3236324191093445,-13.512414932250977,0.3983490765094757,18.297456741333008,0.5944724678993225,2.2818026542663574,-0.23471395671367645,0.0,0.0,0.0,0.0,0.0,0.0,0.0,-0.2589911068689117,0.4137093855806698,-0.023755589934924555,0.5798066095160703,0.16419035003376165,0.07873291808509668,-0.22737824496830472,0.07180342954910142,-0.3344289766947428,-0.1201089343401851,-2.8747498084955043,-0.06463227424040534,2.518284226152632,0.7687455003242414,0.07165585495296277,-0.33419673383382315,-0.1203439052763738,-2.874768336042937,-0.06453255302590709,2.518161157661014,0.7687020283728597,0.001355201248879479,0.0005644037738228319,-0.0004482163158896414,0.0002519483880915636,0.000198037943355602,0.00020857979396851512,-0.00042855813905460355,0.0,0.0,0.0,0.0,0.0,0.0,0.0,-0.00014757459613864987,0.0002322428609196625,-0.00023497093618869702,-1.8527547432700686e-05,9.972121449824956e-05,-0.00012306849161802802,-4.347195138165727e-05,-0.001355201248879479,-0.0005644037738228319,0.0004482163158896414,-0.0002519483880915636,-0.000198037943355602,-0.00020857979396851512,0.00042855813905460355,0.3236324191093445,13.512414932250977,-0.3983490765094757,-18.297456741333008,-0.5944724678993225,-2.2818026542663574,0.23471395671367645,0
61,0.30002474784851074,-0.3236324191093445,-13.512414932250977,0.3983490765094757,18.297456741333008,0.5944724678993225,2.2818026542663574,-0.23471395671367645,0.0,0.0,0.0,0.0,0.0,0.0,0.0,-0.2589911068689117,0.4137093855806698,-0.023755589934924555,0.5798066095160703,0.16419035003376165,0.07873291808509668,-0.22737824496830472,0.07180342954910142,-0.3344289766947428,-0.1201089343401851,-2.8747498084955043,-0.06463227424040534,2.518284226152632,0.7687455003242414,0.07165585495296277,-0.33419673383382315,-0.1203439052763738,-2.874768336042937,-0.06453255302590709,2.518161157661014,0.7687020283728597,0.001355201248879479,0.0005644037738228319,-0.0004482163158896414,0.0002519483880915636,0.000198037943355602,0.00020857979396851512,-0.00042855813905460355,0.0,0.0,0.0,0.0,0.0,0.0,0.0,-0.00014757459613864987,0.0002322428609196625,-0.00023497093618869702,-1.8527547432700686e-05,9.972121449824956e-05,-0.00012306849161802802,-4.347195138165727e-05,-0.001355201248879479,-0.0005644037738228319,0.0004482163158896414,-0.0002519483880915636,-0.000198037943355602,-0.00020857979396851512,0.00042855813905460355,0.3236324191093445,13.512414932250977,-0.3983490765094757,-18.297456741333008,-0.5944724678993225,-2.2818026542663574,0.23471395671367645,0
62,0.3050389289855957,-0.19667929410934448,-13.488611221313477,0.3983490765094757,18.345064163208008,0.5944724678993225,2.2882113456726074,-0.25485557317733765,0.0,0.0,0.0,0.0,0.0,0.0,0.0,-0.2595646502873674,0.4124200012167579,-0.022977075179612533,0.579426568465954,0.16467373773539792,0.07876578299924968,-0.22763616138703002,0.07179452091873534,-0.3344327928856971,-0.12010775204043918,-2.8747531493672147,-0.06463230928916028,2.518283514075809,0.7687492883270051,0.07165585495296277,-0.33419673383382315,-0.1203439052763738,-2.874768336042937,-0.06453255302590709,2.518161157661014,0.7687020283728597,-0.0016237651984423558,-0.0001975798921708067,-0.00017998257535214754,-0.0006632392141687454,1.2265253896202621e-05,4.7753549202343354e-05,0.0012574752190396036,0.0,0.0,0.0,0.0,0.0,0.0,0.0,-0.00013866596577256918,0.00023605905187396026,-0.0002361532359346219,-1.5186675722311804e-05,9.975626325318954e-05,-0.00012235641479474424,-4.725995414534001e-05,0.0016237651984423558,0.0001975798921708067,0.00017998257535214754,0.0006632392141687454,-1.2265253896202621e-05,-4.7753549202343354e-05,-0.0012574752190396036,0.19667929410934448,13.488611221313477,-0.3983490765094757,-18.345064163208008,-0.5944724678993225,-2.2882113456726074,0.25485557317733765,0
63,0.3100142478942871,-0.19667929410934448,-13.488611221313477,0.3983490765094757,18.345064163208008,0.5944724678993225,2.2882113456726074,-0.25485557317733765,0.0,0.0,0.0,0.0,0.0,0.0,0.0,-0.2595646502873674,0.4124200012167579,-0.022977075179612533,0.579426568465954,0.16467373773539792,0.07876578299924968,-0.22763616138703002,0.07179452091873534,-0.3344327928856971,-0.12010775204043918,-2.8747531493672147,-0.06463230928916028,2.518283514075809,0.7687492883270051,0.07165585495296277,-0.33419673383382315,-0.1203439052763738,-2.874768336042937,-0.06453255302590709,2.518161157661014,0.7687020283728597,-0.0016237651984423558,-0.0001975798921708067,-0.00017998257535214754,-0.0006632392141687454,1.2265253896202621e-05,4.7753549202343354e-05,0.0012574752190396036,0.0,0.0,0.0,0.0,0.0,0.0,0.0,-0.00013866596577256918,0.00023605905187396026,-0.0002361532359346219,-1.5186675722311804e-05,9.975626325318954e-05,-0.00012235641479474424,-4.725995414534001e-05,0.0016237651984423558,0.0001975798921708067,0.00017998257535214754,0.0006632392141687454,-1.2265253896202621e-05,-4.7753549202343354e-05,-0.0012574752190396036,0.19667929410934448,13.488611221313477,-0.3983490765094757,-18.345064163208008,-0.5944724678993225,-2.2882113456726074,0.25485557317733765,0
64,0.31501126289367676,-0.24825400114059448,-13.536218643188477,0.3983490765094757,18.269685745239258,0.5944724678993225,2.3010287284851074,-0.23471395671367645,0.0,0.0,0.0,0.0,0.0,0.0,0.0,-0.25540862883668086,0.40866799198382203,-0.019044417253192586,0.5799337853251216,0.16487809986763943,0.07830303137816391,-0.2264777387103447,0.07179814019642378,-0.33442945202609936,-0.12010964462129231,-2.8747478596536733,-0.06463226991362409,2.518282089922163,0.768743354399821,0.07165585495296277,-0.33419673383382315,-0.1203439052763738,-2.874768336042937,-0.06453255302590709,2.518161157661014,0.7687020283728597,0.00021789949360072865,0.00042155067129190637,0.00038290391792414064,0.001366200633799788,-1.7676358422605684e-05,-0.0004044040040323988,0.0005471431001220066,0.0,0.0,0.0,0.0,0.0,0.0,0.0,-0.00014228524346100724,0.0002327181922762156,-0.00023426065508148908,-2.047638926372386e-05,9.971688771699683e-05,-0.00012093226114906486,-4.132602696127474e-05,-0.00021789949360072865,-0.00042155067129190637,-0.00038290391792414064,-0.001366200633799788,1.7676358422605684e-05,0.0004044040040323988,-0.0005471431001220066,0.24825400114059448,13.536218643188477,-0.3983490765094757,-18.269685745239258,-0.5944724678993225,-2.3010287284851074,0.23471395671367645,0
65,0.3200263977050781,-0.24825400114059448,-13.536218643188477,0.3983490765094757,18.269685745239258,0.5944724678993225,2.3010287284851074,-0.23471395671367645,0.0,0.0,0.0,0.0,0.0,0.0,0.0,-0.25540862883668086,0.40866799198382203,-0.019044417253192586,0.5799337853251216,0.16487809986763943,0.07830303137816391,-0.2264777387103447,0.07179814019642378,-0.33442945202609936,-0.12010964462129231,-2.8747478596536733,-0.06463226991362409,2.518282089922163,0.768743354399821,0.07165585495296277,-0.33419673383382315,-0.1203439052763738,-2.874768336042937,-0.06453255302590709,2.518161157661014,0.7687020283728597,0.00021789949360072865,0.00042155067129190637,0.00038290391792414064,0.001366200633799788,-1.7676358422605684e-05,-0.0004044040040323988,0.0005471431001220066,0.0,0.0,0.0,0.0,0.0,0.0,0.0,-0.00014228524346100724,0.0002327181922762156,-0.00023426065508148908,-2.047638926372386e-05,9.971688771699683e-05,-0.00012093226114906486,-4.132602696127474e-05,-0.00021789949360072865,-0.00042155067129190637,-0.00038290391792414064,-0.001366200633799788,1.7676358422605684e-05,0.0004044040040323988,-0.0005471431001220066,0.24825400114059448,13.536218643188477,-0.3983490765094757,-18.269685745239258,-0.5944724678993225,-2.3010287284851074,0.23471395671367645,0
66,0.3249943256378174,-0.22445029020309448,-13.512414932250977,0.3705780804157257,18.345064163208008,0.5880637764930725,2.2753939628601074,-0.22098104655742645,0.0,0.0,0.0,0.0,0.0,0.0,0.0,-0.2533068770214894,0.41323304607239136,-0.016106327970563272,0.5762733577060098,0.16548133349297578,0.07753146941770354,-0.22652283789806862,0.0717964696523093,-0.3344311224619547,-0.12010510005904196,-2.8747531493672147,-0.06463155778249136,2.518284938229455,0.7687411136803787,0.07165585495296277,-0.33419673383382315,-0.1203439052763738,-2.874768336042937,-0.06453255302590709,2.518161157661014,0.7687020283728597,-0.00041296107783849405,0.00032182326396671166,0.0012619048307267078,-0.0007472219252392375,0.0002500377051364385,0.0005556901900593267,-0.0007018735673187625,0.0,0.0,0.0,0.0,0.0,0.0,0.0,-0.00014061469934653625,0.00023438862813157657,-0.00023880521733184168,-1.5186675722311804e-05,9.900475658426722e-05,-0.0001237805684408677,-3.908530751894901e-05,0.00041296107783849405,-0.00032182326396671166,-0.0012619048307267078,0.0007472219252392375,-0.0002500377051364385,-0.0005556901900593267,0.0007018735673187625,0.22445029020309448,13.512414932250977,-0.3705780804157257,-18.345064163208008,-0.5880637764930725,-2.2753939628601074,0.22098104655742645,0
67,0.33000826835632324,-0.22445029020309448,-13.512414932250977,0.3705780804157257,18.345064163208008,0.5880637764930725,2.2753939628601074,-0.22098104655742645,0.0,0.0,0.0,0.0,0.0,0.0,0.0,-0.2533068770214894,0.41323304607239136,-0.016106327970563272,0.5762733577060098,0.16548133349297578,0.07753146941770354,-0.22652283789806862,0.0717964696523093,-0.3344311224619547,-0.12010510005904196,-2.8747531493672147,-0.06463155778249136,2.518284938229455,0.7687411136803787,0.07165585495296277,-0.33419673383382315,-0.1203439052763738,-2.874768336042937,-0.06453255302590709,2.518161157661014,0.7687020283728597,-0.00041296107783849405,0.00032182326396671166,0.0012619048307267078,-0.0007472219252392375,0.0002500377051364385,0.0005556901900593267,-0.0007018735673187625,0.0,0.0,0.0,0.0,0.0,0.0,0.0,-0.00014061469934653625,0.00023438862813157657,-0.00023880521733184168,-1.5186675722311804e-05,9.900475658426722e-05,-0.0001237805684408677,-3.908530751894901e-05,0.00041296107783849405,-0.00032182326396671166,-0.0012619048307267078,0.0007472219252392375,-0.0002500377051364385,-0.0005556901900593267,0.0007018735673187625,0.22445029020309448,13.512414932250977,-0.3705780804157257,-18.345064163208008,-0.5880637764930725,-2.2753939628601074,0.22098104655742645,0
68,0.3350033760070801,-0.24825400114059448,-13.488611221313477,0.3983490765094757,18.321260452270508,0.5999656319618225,2.2882113456726074,-0.23471395671367645,0.0,0.0,0.0,0.0,0.0,0.0,0.0,-0.25157876047536487,0.40687252435498517,-0.014891378336469476,0.5780887742814412,0.165401615180457,0.07778519932002342,-0.2274795473276636,0.07179814019642317,-0.33443279289780997,-0.12010773290400187,-2.8747514789313597,-0.06463288021087646,2.518283514075809,0.7687466516809773,0.07165585495296277,-0.33419673383382315,-0.1203439052763738,-2.874768336042937,-0.06453255302590709,2.518161157661014,0.7687020283728597,0.00019719019153930395,-0.0008020909299446749,-0.00011028492791845151,-0.0002617118437593783,-0.00010623942104571199,0.00021559316876115979,2.9399066901473735e-05,0.0,0.0,0.0,0.0,0.0,0.0,0.0,-0.00014228524346039662,0.00023605906398682652,-0.00023617237237193167,-1.68571115772842e-05,0.00010032718496937043,-0.00012235641479474424,-4.4623308117608396e-05,-0.00019719019153930395,0.0008020909299446749,0.00011028492791845151,0.0002617118437593783,0.00010623942104571199,-0.00021559316876115979,-2.9399066901473735e-05,0.24825400114059448,13.488611221313477,-0.3983490765094757,-18.321260452270508,-0.5999656319618225,-2.2882113456726074,0.23471395671367645,0
69,0.34001779556274414,-0.24825400114059448,-13.488611221313477,0.3983490765094757,18.321260452270508,0.5999656319618225,2.2882113456726074,-0.23471395671367645,0.0,0.0,0.0,0.0,0.0,0.0,0.0,-0.25157876047536487,0.40687252435498517,-0.014891378336469476,0.5780887742814412,0.165401615180457,0.07778519932002342,-0.2274795473276636,0.07179814019642317,-0.33443279289780997,-0.12010773290400187,-2.8747514789313597,-0.06463288021087646,2.518283514075809,0.7687466516809773,0.07165585495296277,-0.33419673383382315,-0.1203439052763738,-2.874768336042937,-0.06453255302590709,2.518161157661014,0.7687020283728597,0.00019719019153930395,-0.0008020909299446749,-0.00011028492791845151,-0.0002617118437593783,-0.00010623942104571199,0.00021559316876115979,2.9399066901473735e-05,0.0,0.0,0.0,0.0,0.0,0.0,0.0,-0.00014228524346039662,0.00023605906398682652,-0.00023617237237193167,-1.68571115772842e-05,0.00010032718496937043,-0.00012235641479474424,-4.4623308117608396e-05,-0.00019719019153930395,0.0008020909299446749,0.00011028492791845151,0.0002617118437593783,0.00010623942104571199,-0.00021559316876115979,-2.9399066901473735e-05,0.24825400114059448,13.488611221313477,-0.3983490765094757,-18.321260452270508,-0.5999656319618225,-2.2882113456726074,0.23471395671367645,0
70,0.3450314998626709,-0.24825400114059448,-13.488611221313477,0.3705780804157257,18.297456741333008,0.6063743233680725,2.2882113456726074,-0.22830526530742645,0.0,0.0,0.0,0.0,0.0,0.0,0.0,-0.2525755367171478,0.41030949778193326,-0.018996255055732252,0.5788028242424893,0.16637437508139588,0.078445938489746,-0.227910446294755,0.07179814019642378,-0.33443279289780997,-0.12010580167619696,-2.8747498084955043,-0.06463359666879066,2.518283514075809,0.7687462936571348,0.07165585495296277,-0.33419673383382315,-0.1203439052763738,-2.874768336042937,-0.06453255302590709,2.518161157661014,0.7687020283728597,-0.00044728871684676473,-5.889185645210717e-05,0.0001624333087822356,0.0007676038204401265,-0.00035927793038279156,0.0002099448907603804,0.0003095037211341387,0.0,0.0,0.0,0.0,0.0,0.0,0.0,-0.00014228524346100724,0.00023605906398682652,-0.00023810360017684218,-1.8527547432700686e-05,0.00010104364288357481,-0.00012235641479474424,-4.426528427503573e-05,0.00044728871684676473,5.889185645210717e-05,-0.0001624333087822356,-0.0007676038204401265,0.00035927793038279156,-0.0002099448907603804,-0.0003095037211341387,0.24825400114059448,13.488611221313477,-0.3705780804157257,-18.297456741333008,-0.6063743233680725,-2.2882113456726074,0.22830526530742645,0
71,0.3500242233276367,-0.24825400114059448,-13.488611221313477,0.3705780804157257,18.297456741333008,0.6063743233680725,2.2882113456726074,-0.22830526530742645,0.0,0.0,0.0,0.0,0.0,0.0,0.0,-0.2525755367171478,0.41030949778193326,-0.018996255055732252,0.5788028242424893,0.16637437508139588,0.078445938489746,-0.227910446294755,0.07179814019642378,-0.33443279289780997,-0.12010580167619696,-2.8747498084955043,-0.06463359666879066,2.518283514075809,0.7687462936571348,0.07165585495296277,-0.33419673383382315,-0.1203439052763738,-2.874768336042937,-0.06453255302590709,2.518161157661014,0.7687020283728597,-0.00044728871684676473,-5.889185645210717e-05,0.0001624333087822356,0.0007676038204401265,-0.00035927793038279156,0.0002099448907603804,0.0003095037211341387,0.0,0.0,0.0,0.0,0.0,0.0,0.0,-0.00014228524346100724,0.00023605906398682652,-0.00023810360017684218,-1.8527547432700686e-05,0.00010104364288357481,-0.00012235641479474424,-4.426528427503573e-05,0.00044728871684676473,5.889185645210717e-05,-0.0001624333087822356,-0.0007676038204401265,0.00035927793038279156,-0.0002099448907603804,-0.0003095037211341387,0.24825400114059448,13.488611221313477,-0.3705780804157257,-18.297456741333008,-0.6063743233680725,-2.2882113456726074,0.22830526530742645,0
72,0.35501551628112793,-0.2720577120780945,-13.488611221313477,0.3983490765094757,18.321260452270508,0.5944724678993225,2.2882113456726074,-0.22098104655742645,0.0,0.0,0.0,0.0,0.0,0.0,0.0,-0.25145418887919524,0.409191913782596,-0.0184705473505828,0.5820456400222743,0.16682024231709444,0.07919909563027948,-0.22795954679835592,0.07179981063227904,-0.33443279289780997,-0.12010693687798381,-2.8747514789313597,-0.06463238814880347,2.518283514075809,0.7687454848717985,0.07165585495296277,-0.33419673383382315,-0.1203439052763738,-2.874768336042937,-0.06453255302590709,2.518161157661014,0.7687020283728597,6.038387764787039e-05,-8.125728860910768e-05,-5.933945342558659e-05,8.119034021617376e-05,6.13852134681342e-06,0.0001672627897374554,-0.0004254888548946056,0.0,0.0,0.0,0.0,0.0,0.0,0.0,-0.00014395567931627107,0.00023605906398682652,-0.00023696839838999173,-1.68571115772842e-05,9.983512289638008e-05,-0.00012235641479474424,-4.3456498938776456e-05,-6.038387764787039e-05,8.125728860910768e-05,5.933945342558659e-05,-8.119034021617376e-05,-6.13852134681342e-06,-0.0001672627897374554,0.0004254888548946056,0.2720577120780945,13.488611221313477,-0.3983490765094757,-18.321260452270508,-0.5944724678993225,-2.2882113456726074,0.22098104655742645,0
73,0.36002612113952637,-0.2720577120780945,-13.488611221313477,0.3983490765094757,18.321260452270508,0.5944724678993225,2.2882113456726074,-0.22098104655742645,0.0,0.0,0.0,0.0,0.0,0.0,0.0,-0.25145418887919524,0.409191913782596,-0.0184705473505828,0.5820456400222743,0.16682024231709444,0.07919909563027948,-0.22795954679835592,0.07179981063227904,-0.33443279289780997,-0.12010693687798381,-2.8747514789313597,-0.06463238814880347,2.518283514075809,0.7687454848717985,0.07165585495296277,-0.33419673383382315,-0.1203439052763738,-2.874768336042937,-0.06453255302590709,2.518161157661014,0.7687020283728597,6.038387764787039e-05,-8.125728860910768e-05,-5.933945342558659e-05,8.119034021617376e-05,6.13852134681342e-06,0.0001672627897374554,-0.0004254888548946056,0.0,0.0,0.0,0.0,0.0,0.0,0.0,-0.00014395567931627107,0.00023605906398682652,-0.00023696839838999173,-1.68571115772842e-05,9.983512289638008e-05,-0.00012235641479474424,-4.3456498938776456e-05,-6.038387764787039e-05,8.125728860910768e-05,5.933945342558659e-05,-8.119034021617376e-05,-6.13852134681342e-06,-0.0001672627897374554,0.0004254888548946056,0.2720577120780945,13.488611221313477,-0.3983490765094757,-18.321260452270508,-0.5944724678993225,-2.2882113456726074,0.22098104655742645,0
74,0.36502599716186523,-0.2720577120780945,-13.512414932250977,0.3983490765094757,18.321260452270508,0.5944724678993225,2.2946200370788574,-0.22830526530742645,0.0,0.0,0.0,0.0,0.0,0.0,0.0,-0.25750732708748253,0.40967931178913325,-0.022341255043839752,0.5850390022963149,0.16671387513543473,0.07990275954125632,-0.2289658820726991,0.07179981063227904,-0.3344311224619547,-0.12010752111226632,-2.8747514789313597,-0.0646322698599817,2.518282801998986,0.7687430795870271,0.07165585495296277,-0.33419673383382315,-0.1203439052763738,-2.874768336042937,-0.06453255302590709,2.518161157661014,0.7687020283728597,0.0003705010478149679,0.0001039183942344768,-0.0006075867549280078,4.702138812079104e-05,4.6964874616816735e-06,-1.0330359494298175e-05,-0.00024742731802999686,0.0,0.0,0.0,0.0,0.0,0.0,0.0,-0.00014395567931627107,0.00023438862813157657,-0.00023638416410748375,-1.68571115772842e-05,9.971683407461462e-05,-0.00012164433797190455,-4.105121416742019e-05,-0.0003705010478149679,-0.0001039183942344768,0.0006075867549280078,-4.702138812079104e-05,-4.6964874616816735e-06,1.0330359494298175e-05,0.00024742731802999686,0.2720577120780945,13.512414932250977,-0.3983490765094757,-18.321260452270508,-0.5944724678993225,-2.2946200370788574,0.22830526530742645,0
75,0.3700277805328369,-0.2720577120780945,-13.512414932250977,0.3983490765094757,18.321260452270508,0.5944724678993225,2.2946200370788574,-0.22830526530742645,0.0,0.0,0.0,0.0,0.0,0.0,0.0,-0.25750732708748253,0.40967931178913325,-0.022341255043839752,0.5850390022963149,0.16671387513543473,0.07990275954125632,-0.2289658820726991,0.07179981063227904,-0.3344311224619547,-0.12010752111226632,-2.8747514789313597,-0.0646322698599817,2.518282801998986,0.7687430795870271,0.07165585495296277,-0.33419673383382315,-0.1203439052763738,-2.874768336042937,-0.06453255302590709,2.518161157661014,0.7687020283728597,0.0003705010478149679,0.0001039183942344768,-0.0006075867549280078,4.702138812079104e-05,4.6964874616816735e-06,-1.0330359494298175e-05,-0.00024742731802999686,0.0,0.0,0.0,0.0,0.0,0.0,0.0,-0.00014395567931627107,0.00023438862813157657,-0.00023638416410748375,-1.68571115772842e-05,9.971683407461462e-05,-0.00012164433797190455,-4.105121416742019e-05,-0.0003705010478149679,-0.0001039183942344768,0.0006075867549280078,-4.702138812079104e-05,-4.6964874616816735e-06,1.0330359494298175e-05,0.00024742731802999686,0.2720577120780945,13.512414932250977,-0.3983490765094757,-18.321260452270508,-0.5944724678993225,-2.2946200370788574,0.22830526530742645,0
76,0.375018835067749,-0.22445029020309448,-13.536218643188477,0.3983490765094757,18.297456741333008,0.5944724678993225,2.3010287284851074,-0.22830526530742645,0.0,0.0,0.0,0.0,0.0,0.0,0.0,-0.256052616724112,0.41034591141736076,-0.021183453748118936,0.5868487076495935,0.16634493557520186,0.08052337785175699,-0.22911747297086646,0.07179646976056851,-0.3344294520260994,-0.12010954978491985,-2.8747498084955043,-0.06463226985931396,2.518282089922163,0.7687459807642995,0.07165585495296277,-0.33419673383382315,-0.1203439052763738,-2.874768336042937,-0.06453255302590709,2.518161157661014,0.7687020283728597,-0.0005215191471573113,0.0005144011801398518,0.00023490930273977284,0.000655942654897243,-0.00014993773315106554,-8.933654908567313e-05,0.0005407772584263893,0.0,0.0,0.0,0.0,0.0,0.0,0.0,-0.0001406148076057434,0.0002327181922762711,-0.00023435549145395251,-1.8527547432700686e-05,9.971683340687099e-05,-0.00012093226114906486,-4.3952391439727734e-05,0.0005215191471573113,-0.0005144011801398518,-0.00023490930273977284,-0.000655942654897243,0.00014993773315106554,8.933654908567313e-05,-0.0005407772584263893,0.22445029020309448,13.536218643188477,-0.3983490765094757,-18.297456741333008,-0.5944724678993225,-2.3010287284851074,0.22830526530742645,0
77,0.3800387382507324,-0.22445029020309448,-13.536218643188477,0.3983490765094757,18.297456741333008,0.5944724678993225,2.3010287284851074,-0.22830526530742645,0.0,0.0,0.0,0.0,0.0,0.0,0.0,-0.256052616724112,0.41034591141736076,-0.021183453748118936,0.5868487076495935,0.16634493557520186,0.08052337785175699,-0.22911747297086646,0.07179646976056851,-0.3344294520260994,-0.12010954978491985,-2.8747498084955043,-0.06463226985931396,2.518282089922163,0.7687459807642995,0.07165585495296277,-0.33419673383382315,-0.1203439052763738,-2.874768336042937,-0.06453255302590709,2.518161157661014,0.7687020283728597,-0.0005215191471573113,0.0005144011801398518,0.00023490930273977284,0.000655942654897243,-0.00014993773315106554,-8.933654908567313e-05,0.0005407772584263893,0.0,0.0,0.0,0.0,0.0,0.0,0.0,-0.0001406148076057434,0.0002327181922762711,-0.00023435549145395251,-1.8527547432700686e-05,9.971683340687099e-05,-0.00012093226114906486,-4.3952391439727734e-05,0.0005215191471573113,-0.0005144011801398518,-0.00023490930273977284,-0.000655942654897243,0.00014993773315106554,8.933654908567313e-05,-0.0005407772584263893,0.22445029020309448,13.536218643188477,-0.3983490765094757,-18.297456741333008,-0.5944724678993225,-2.3010287284851074,0.22830526530742645,0
78,0.385082483291626,-0.22445029020309448,-13.536218643188477,0.3983490765094757,18.297456741333008,0.5944724678993225,2.3010287284851074,-0.22830526530742645,0.0,0.0,0.0,0.0,0.0,0.0,0.0,-0.256052616724112,0.41034591141736076,-0.021183453748118936,0.5868487076495935,0.16634493557520186,0.08052337785175699,-0.22911747297086646,0.07179646976056851,-0.3344294520260994,-0.12010954978491985,-2.8747498084955043,-0.06463226985931396,2.518282089922163,0.7687459807642995,0.07165585495296277,-0.33419673383382315,-0.1203439052763738,-2.874768336042937,-0.06453255302590709,2.518161157661014,0.7687020283728597,-0.0005215191471573113,0.0005144011801398518,0.00023490930273977284,0.000655942654897243,-0.00014993773315106554,-8.933654908567313e-05,0.0005407772584263893,0.0,0.0,0.0,0.0,0.0,0.0,0.0,-0.0001406148076057434,0.0002327181922762711,-0.00023435549145395251,-1.8527547432700686e-05,9.971683340687099e-05,-0.00012093226114906486,-4.3952391439727734e-05,0.0005215191471573113,-0.0005144011801398518,-0.00023490930273977284,-0.000655942654897243,0.00014993773315106554,8.933654908567313e-05,-0.0005407772584263893,0.22445029020309448,13.536218643188477,-0.3983490765094757,-18.297456741333008,-0.5944724678993225,-2.3010287284851074,0.22830526530742645,0
79,0.39002227783203125,-0.22445029020309448,-13.536218643188477,0.3983490765094757,18.297456741333008,0.5944724678993225,2.3010287284851074,-0.22830526530742645,0.0,0.0,0.0,0.0,0.0,0.0,0.0,-0.256052616724112,0.41034591141736076,-0.021183453748118936,0.5868487076495935,0.16634493557520186,0.08052337785175699,-0.22911747297086646,0.07179646976056851,-0.3344294520260994,-0.12010954978491985,-2.8747498084955043,-0.06463226985931396,2.518282089922163,0.7687459807642995,0.07165585495296277,-0.33419673383382315,-0.1203439052763738,-2.874768336042937,-0.06453255302590709,2.518161157661014,0.7687020283728597,-0.0005215191471573113,0.0005144011801398518,0.00023490930273977284,0.000655942654897243,-0.00014993773315106554,-8.933654908567313e-05,0.0005407772584263893,0.0,0.0,0.0,0.0,0.0,0.0,0.0,-0.0001406148076057434,0.0002327181922762711,-0.00023435549145395251,-1.8527547432700686e-05,9.971683340687099e-05,-0.00012093226114906486,-4.3952391439727734e-05,0.0005215191471573113,-0.0005144011801398518,-0.00023490930273977284,-0.000655942654897243,0.00014993773315106554,8.933654908567313e-05,-0.0005407772584263893,0.22445029020309448,13.536218643188477,-0.3983490765094757,-18.297456741333008,-0.5944724678993225,-2.3010287284851074,0.22830526530742645,0
