rezayati/contactInterpretation/dataset/franka_main/labeled_data/link6/b4_3.csv
index,time,tau_J0,tau_J1,tau_J2,tau_J3,tau_J4,tau_J5,tau_J6,tau_J_d0,tau_J_d1,tau_J_d2,tau_J_d3,tau_J_d4,tau_J_d5,tau_J_d6,tau_ext0,tau_ext1,tau_ext2,tau_ext3,tau_ext4,tau_ext5,tau_ext6,q0,q1,q2,q3,q4,q5,q6,q_d0,q_d1,q_d2,q_d3,q_d4,q_d5,q_d6,dq0,dq1,dq2,dq3,dq4,dq5,dq6,dq_d0,dq_d1,dq_d2,dq_d3,dq_d4,dq_d5,dq_d6,e0,e1,e2,e3,e4,e5,e6,de0,de1,de2,de3,de4,de5,de6,etau_J0,etau_J1,etau_J2,etau_J3,etau_J4,etau_J5,etau_J6,label
1,0.0,-0.4783565402030945,-34.23751449584961,-3.9735991954803467,19.586824417114258,0.1357932686805725,1.815799355506897,-0.06991903483867645,0.0,0.0,0.0,0.0,0.0,0.0,0.0,-0.5189948826317395,-0.13314206167677417,-0.3768227295197555,0.5375293197262944,0.08674859185864106,-0.08893726905440007,-0.11032859721046837,1.0545815114318815,0.3242382398864681,-0.3924554103006396,-2.1534866812438564,0.8647953786253928,2.4658834400574365,0.5444846951802547,1.0544104758940245,0.3238615046091247,-0.39250456234122666,-2.153291787532338,0.8647539153680389,2.46587817577521,0.5445020185570556,-0.0012415121792811604,0.0006223637175457524,0.0007874764888774782,-0.00031266759297427746,0.00021442624755505047,-0.00010784808133405578,-0.0018144017847740444,0.0,0.0,0.0,0.0,0.0,0.0,0.0,-0.00017103553785702275,-0.0003767352773433874,-4.9152040587086e-05,0.00019489371151859558,-4.146325735387979e-05,-5.2642822265802636e-06,1.7323376800937318e-05,0.0012415121792811604,-0.0006223637175457524,-0.0007874764888774782,0.00031266759297427746,-0.00021442624755505047,0.00010784808133405578,0.0018144017847740444,0.4783565402030945,34.23751449584961,3.9735991954803467,-19.586824417114258,-0.1357932686805725,-1.815799355506897,0.06991903483867645,0
2,0.004999637603759766,-0.4783565402030945,-34.23751449584961,-3.9735991954803467,19.586824417114258,0.1357932686805725,1.815799355506897,-0.06991903483867645,0.0,0.0,0.0,0.0,0.0,0.0,0.0,-0.5189948826317395,-0.13314206167677417,-0.3768227295197555,0.5375293197262944,0.08674859185864106,-0.08893726905440007,-0.11032859721046837,1.0545815114318815,0.3242382398864681,-0.3924554103006396,-2.1534866812438564,0.8647953786253928,2.4658834400574365,0.5444846951802547,1.0544104758940245,0.3238615046091247,-0.39250456234122666,-2.153291787532338,0.8647539153680389,2.46587817577521,0.5445020185570556,-0.0012415121792811604,0.0006223637175457524,0.0007874764888774782,-0.00031266759297427746,0.00021442624755505047,-0.00010784808133405578,-0.0018144017847740444,0.0,0.0,0.0,0.0,0.0,0.0,0.0,-0.00017103553785702275,-0.0003767352773433874,-4.9152040587086e-05,0.00019489371151859558,-4.146325735387979e-05,-5.2642822265802636e-06,1.7323376800937318e-05,0.0012415121792811604,-0.0006223637175457524,-0.0007874764888774782,0.00031266759297427746,-0.00021442624755505047,0.00010784808133405578,0.0018144017847740444,0.4783565402030945,34.23751449584961,3.9735991954803467,-19.586824417114258,-0.1357932686805725,-1.815799355506897,0.06991903483867645,0
3,0.010002613067626953,-0.5815059542655945,-34.21371078491211,-3.9735991954803467,19.535249710083008,0.1412864327430725,1.822208046913147,-0.13858358561992645,0.0,0.0,0.0,0.0,0.0,0.0,0.0,-0.5256402559200339,-0.13514262356948503,-0.3838224652590781,0.5387763802817479,0.08737783143950893,-0.08847153344956897,-0.11066908011358503,1.0545887164099852,0.32423659545099265,-0.3924554103006396,-2.1534824253147575,0.8647947682738303,2.4658827279806137,0.5444923245029321,1.0544104758940245,0.3238615046091247,-0.39250456234122666,-2.153291787532338,0.8647539153680389,2.46587817577521,0.5445020185570556,0.0012413049995856655,0.00018058773448103915,0.0006149785004633976,0.0008923411784871652,-6.15761464588125e-06,-0.00019852138116261954,0.0014835683295525836,0.0,0.0,0.0,0.0,0.0,0.0,0.0,-0.00017824051596071477,-0.00037509084186793107,-4.9152040587086e-05,0.0001906377824196781,-4.085290579136647e-05,-4.552205403740572e-06,9.694054123543516e-06,-0.0012413049995856655,-0.00018058773448103915,-0.0006149785004633976,-0.0008923411784871652,6.15761464588125e-06,0.00019852138116261954,-0.0014835683295525836,0.5815059542655945,34.21371078491211,3.9735991954803467,-19.535249710083008,-0.1412864327430725,-1.822208046913147,0.13858358561992645,0
4,0.014996767044067383,-0.5815059542655945,-34.21371078491211,-3.9735991954803467,19.535249710083008,0.1412864327430725,1.822208046913147,-0.13858358561992645,0.0,0.0,0.0,0.0,0.0,0.0,0.0,-0.5256402559200339,-0.13514262356948503,-0.3838224652590781,0.5387763802817479,0.08737783143950893,-0.08847153344956897,-0.11066908011358503,1.0545887164099852,0.32423659545099265,-0.3924554103006396,-2.1534824253147575,0.8647947682738303,2.4658827279806137,0.5444923245029321,1.0544104758940245,0.3238615046091247,-0.39250456234122666,-2.153291787532338,0.8647539153680389,2.46587817577521,0.5445020185570556,0.0012413049995856655,0.00018058773448103915,0.0006149785004633976,0.0008923411784871652,-6.15761464588125e-06,-0.00019852138116261954,0.0014835683295525836,0.0,0.0,0.0,0.0,0.0,0.0,0.0,-0.00017824051596071477,-0.00037509084186793107,-4.9152040587086e-05,0.0001906377824196781,-4.085290579136647e-05,-4.552205403740572e-06,9.694054123543516e-06,-0.0012413049995856655,-0.00018058773448103915,-0.0006149785004633976,-0.0008923411784871652,6.15761464588125e-06,0.00019852138116261954,-0.0014835683295525836,0.5815059542655945,34.21371078491211,3.9735991954803467,-19.535249710083008,-0.1412864327430725,-1.822208046913147,0.13858358561992645,0
5,0.020168304443359375,-0.5537349581718445,-34.21371078491211,-3.9497954845428467,19.535249710083008,0.1357932686805725,1.815799355506897,-0.09738485515117645,0.0,0.0,0.0,0.0,0.0,0.0,0.0,-0.5323043980801733,-0.1325767004985711,-0.38761770336740475,0.5356671135663155,0.08746203940314154,-0.08819372080890533,-0.10988200728605069,1.0545874916540197,0.3242369074556997,-0.3924570807364948,-2.153482427636844,0.8647953786253928,2.4658834400574365,0.5444877512806988,1.0544104758940245,0.3238615046091247,-0.39250456234122666,-2.153291787532338,0.8647539153680389,2.46587817577521,0.5445020185570556,0.00026080747042998804,0.00027120082504119425,-0.00010744172241577788,0.00030872737223435674,0.000163491329687803,1.5359388629954755e-05,-0.00022909836793461816,0.0,0.0,0.0,0.0,0.0,0.0,0.0,-0.0001770157599951805,-0.00037540284657500145,-4.748160473183605e-05,0.00019064010450620117,-4.146325735387979e-05,-5.2642822265802636e-06,1.4267276356783043e-05,-0.00026080747042998804,-0.00027120082504119425,0.00010744172241577788,-0.00030872737223435674,-0.000163491329687803,-1.5359388629954755e-05,0.00022909836793461816,0.5537349581718445,34.21371078491211,3.9497954845428467,-19.535249710083008,-0.1357932686805725,-1.815799355506897,0.09738485515117645,0
6,0.025002717971801758,-0.5537349581718445,-34.21371078491211,-3.9497954845428467,19.535249710083008,0.1357932686805725,1.815799355506897,-0.09738485515117645,0.0,0.0,0.0,0.0,0.0,0.0,0.0,-0.5323043980801733,-0.1325767004985711,-0.38761770336740475,0.5356671135663155,0.08746203940314154,-0.08819372080890533,-0.10988200728605069,1.0545874916540197,0.3242369074556997,-0.3924570807364948,-2.153482427636844,0.8647953786253928,2.4658834400574365,0.5444877512806988,1.0544104758940245,0.3238615046091247,-0.39250456234122666,-2.153291787532338,0.8647539153680389,2.46587817577521,0.5445020185570556,0.00026080747042998804,0.00027120082504119425,-0.00010744172241577788,0.00030872737223435674,0.000163491329687803,1.5359388629954755e-05,-0.00022909836793461816,0.0,0.0,0.0,0.0,0.0,0.0,0.0,-0.0001770157599951805,-0.00037540284657500145,-4.748160473183605e-05,0.00019064010450620117,-4.146325735387979e-05,-5.2642822265802636e-06,1.4267276356783043e-05,-0.00026080747042998804,-0.00027120082504119425,0.00010744172241577788,-0.00030872737223435674,-0.000163491329687803,-1.5359388629954755e-05,0.00022909836793461816,0.5537349581718445,34.21371078491211,3.9497954845428467,-19.535249710083008,-0.1357932686805725,-1.815799355506897,0.09738485515117645,0
7,0.030002117156982422,-0.5299312472343445,-34.18990707397461,-3.9497954845428467,19.586824417114258,0.1412864327430725,1.809390664100647,-0.10470907390117645,0.0,0.0,0.0,0.0,0.0,0.0,0.0,-0.5272782040475682,-0.1338115091145142,-0.38103069894239827,0.5374503787850805,0.08713962553813413,-0.08854232044253849,-0.10833374641447886,1.054585130495175,0.3242358350303463,-0.3924570807364948,-2.153486044298153,0.8647947682738303,2.4658841521342594,0.5444885655673238,1.0544104758940245,0.3238615046091247,-0.39250456234122666,-2.153291787532338,0.8647539153680389,2.46587817577521,0.5445020185570556,-0.0006442790471595409,-0.00027447381151960234,-0.00010279956651081717,-0.0007910163224185924,1.054510303985176e-05,0.00015085983850569518,0.00014637582064331415,0.0,0.0,0.0,0.0,0.0,0.0,0.0,-0.00017465460115051457,-0.00037433042122159144,-4.748160473183605e-05,0.00019425676581530382,-4.085290579136647e-05,-5.976359049419955e-06,1.3452989731765896e-05,0.0006442790471595409,0.00027447381151960234,0.00010279956651081717,0.0007910163224185924,-1.054510303985176e-05,-0.00015085983850569518,-0.00014637582064331415,0.5299312472343445,34.18990707397461,3.9497954845428467,-19.586824417114258,-0.1412864327430725,-1.809390664100647,0.10470907390117645,0
8,0.03500199317932129,-0.5299312472343445,-34.18990707397461,-3.9497954845428467,19.586824417114258,0.1412864327430725,1.809390664100647,-0.10470907390117645,0.0,0.0,0.0,0.0,0.0,0.0,0.0,-0.5272782040475682,-0.1338115091145142,-0.38103069894239827,0.5374503787850805,0.08713962553813413,-0.08854232044253849,-0.10833374641447886,1.054585130495175,0.3242358350303463,-0.3924570807364948,-2.153486044298153,0.8647947682738303,2.4658841521342594,0.5444885655673238,1.0544104758940245,0.3238615046091247,-0.39250456234122666,-2.153291787532338,0.8647539153680389,2.46587817577521,0.5445020185570556,-0.0006442790471595409,-0.00027447381151960234,-0.00010279956651081717,-0.0007910163224185924,1.054510303985176e-05,0.00015085983850569518,0.00014637582064331415,0.0,0.0,0.0,0.0,0.0,0.0,0.0,-0.00017465460115051457,-0.00037433042122159144,-4.748160473183605e-05,0.00019425676581530382,-4.085290579136647e-05,-5.976359049419955e-06,1.3452989731765896e-05,0.0006442790471595409,0.00027447381151960234,0.00010279956651081717,0.0007910163224185924,-1.054510303985176e-05,-0.00015085983850569518,-0.00014637582064331415,0.5299312472343445,34.18990707397461,3.9497954845428467,-19.586824417114258,-0.1412864327430725,-1.809390664100647,0.10470907390117645,0
9,0.040014028549194336,-0.5021602511405945,-34.21371078491211,-3.9735991954803467,19.586824417114258,0.1476951241493225,1.809390664100647,-0.13217489421367645,0.0,0.0,0.0,0.0,0.0,0.0,0.0,-0.47265855751100444,-0.13134995742654015,-0.32857701845276366,0.5426266260788218,0.08525747106409656,-0.09303874297255268,-0.10798683655150272,1.0545831456740762,0.3242365964549193,-0.3924554103006396,-2.153486329484697,0.8647940561970073,2.4658841521342594,0.5444916124261364,1.0544104758940245,0.3238615046091247,-0.39250456234122666,-2.153291787532338,0.8647539153680389,2.46587817577521,0.5445020185570556,-0.0005143665757243628,0.00029409209725962763,0.0046391363482451145,-0.0003112366638976418,-0.0001944255595947822,5.1198395127229974e-05,0.001047690841855566,0.0,0.0,0.0,0.0,0.0,0.0,0.0,-0.00017266978005170408,-0.0003750918457945951,-4.9152040587086e-05,0.0001945419523590175,-4.0140828968415754e-05,-5.976359049419955e-06,1.0406130919182743e-05,0.0005143665757243628,-0.00029409209725962763,-0.0046391363482451145,0.0003112366638976418,0.0001944255595947822,-5.1198395127229974e-05,-0.001047690841855566,0.5021602511405945,34.21371078491211,3.9735991954803467,-19.586824417114258,-0.1476951241493225,-1.809390664100647,0.13217489421367645,0
10,0.044996023178100586,-0.5021602511405945,-34.21371078491211,-3.9735991954803467,19.586824417114258,0.1476951241493225,1.809390664100647,-0.13217489421367645,0.0,0.0,0.0,0.0,0.0,0.0,0.0,-0.47265855751100444,-0.13134995742654015,-0.32857701845276366,0.5426266260788218,0.08525747106409656,-0.09303874297255268,-0.10798683655150272,1.0545831456740762,0.3242365964549193,-0.3924554103006396,-2.153486329484697,0.8647940561970073,2.4658841521342594,0.5444916124261364,1.0544104758940245,0.3238615046091247,-0.39250456234122666,-2.153291787532338,0.8647539153680389,2.46587817577521,0.5445020185570556,-0.0005143665757243628,0.00029409209725962763,0.0046391363482451145,-0.0003112366638976418,-0.0001944255595947822,5.1198395127229974e-05,0.001047690841855566,0.0,0.0,0.0,0.0,0.0,0.0,0.0,-0.00017266978005170408,-0.0003750918457945951,-4.9152040587086e-05,0.0001945419523590175,-4.0140828968415754e-05,-5.976359049419955e-06,1.0406130919182743e-05,0.0005143665757243628,-0.00029409209725962763,-0.0046391363482451145,0.0003112366638976418,0.0001944255595947822,-5.1198395127229974e-05,-0.001047690841855566,0.5021602511405945,34.21371078491211,3.9735991954803467,-19.586824417114258,-0.1476951241493225,-1.809390664100647,0.13217489421367645,0
11,0.04999685287475586,-0.5299312472343445,-34.21371078491211,-3.8982207775115967,19.535249710083008,0.1476951241493225,1.809390664100647,-0.06991903483867645,0.0,0.0,0.0,0.0,0.0,0.0,0.0,-0.5569186156669991,-0.1343459088852073,-0.4065642254051287,0.5363082951790527,0.08898535254795552,-0.08815216156083604,-0.10804845216249792,1.0545873193197106,0.32423656945076507,-0.39246070001418126,-2.1534824331942444,0.8647940561970073,2.4658841521342594,0.5444878740227884,1.0544104758940245,0.3238615046091247,-0.39250456234122666,-2.153291787532338,0.8647539153680389,2.46587817577521,0.5445020185570556,-8.811979656329723e-05,0.00010590983080579129,-0.001385743952043638,0.0003237052608766833,-9.263173725692333e-05,-0.00027855175971032214,-0.0013002340426321115,0.0,0.0,0.0,0.0,0.0,0.0,0.0,-0.0001768434256861351,-0.00037506484164034903,-4.386232704539639e-05,0.00019064566190651888,-4.0140828968415754e-05,-5.976359049419955e-06,1.4144534267179765e-05,8.811979656329723e-05,-0.00010590983080579129,0.001385743952043638,-0.0003237052608766833,9.263173725692333e-05,0.00027855175971032214,0.0013002340426321115,0.5299312472343445,34.21371078491211,3.8982207775115967,-19.535249710083008,-0.1476951241493225,-1.809390664100647,0.06991903483867645,0
12,0.05499267578125,-0.5299312472343445,-34.21371078491211,-3.8982207775115967,19.535249710083008,0.1476951241493225,1.809390664100647,-0.06991903483867645,0.0,0.0,0.0,0.0,0.0,0.0,0.0,-0.5569186156669991,-0.1343459088852073,-0.4065642254051287,0.5363082951790527,0.08898535254795552,-0.08815216156083604,-0.10804845216249792,1.0545873193197106,0.32423656945076507,-0.39246070001418126,-2.1534824331942444,0.8647940561970073,2.4658841521342594,0.5444878740227884,1.0544104758940245,0.3238615046091247,-0.39250456234122666,-2.153291787532338,0.8647539153680389,2.46587817577521,0.5445020185570556,-8.811979656329723e-05,0.00010590983080579129,-0.001385743952043638,0.0003237052608766833,-9.263173725692333e-05,-0.00027855175971032214,-0.0013002340426321115,0.0,0.0,0.0,0.0,0.0,0.0,0.0,-0.0001768434256861351,-0.00037506484164034903,-4.386232704539639e-05,0.00019064566190651888,-4.0140828968415754e-05,-5.976359049419955e-06,1.4144534267179765e-05,8.811979656329723e-05,-0.00010590983080579129,0.001385743952043638,-0.0003237052608766833,9.263173725692333e-05,0.00027855175971032214,0.0013002340426321115,0.5299312472343445,34.21371078491211,3.8982207775115967,-19.535249710083008,-0.1476951241493225,-1.809390664100647,0.06991903483867645,0
13,0.05999588966369629,-0.4783565402030945,-34.23751449584961,-3.9497954845428467,19.559053421020508,0.1357932686805725,1.802981972694397,-0.09738485515117645,0.0,0.0,0.0,0.0,0.0,0.0,0.0,-0.5300616947089006,-0.13798979114588156,-0.3839677472918817,0.5436718477661644,0.08877358449730931,-0.09127612605302185,-0.10785888506270196,1.0545814748145117,0.3242382402074603,-0.3924570807364948,-2.1534841033055248,0.8647953786253928,2.4658848642110827,0.5444877468841579,1.0544104758940245,0.3238615046091247,-0.39250456234122666,-2.153291787532338,0.8647539153680389,2.46587817577521,0.5445020185570556,-0.0009963051489023523,0.0004625044990954033,4.28563515643214e-05,0.00025299026070180696,0.00020287574862210662,0.0002062218201683532,-0.0007757328021039621,0.0,0.0,0.0,0.0,0.0,0.0,0.0,-0.00017099892048721976,-0.0003767355983355647,-4.748160473183605e-05,0.00019231577318690185,-4.146325735387979e-05,-6.688435872703735e-06,1.4271672897692156e-05,0.0009963051489023523,-0.0004625044990954033,-4.28563515643214e-05,-0.00025299026070180696,-0.00020287574862210662,-0.0002062218201683532,0.0007757328021039621,0.4783565402030945,34.23751449584961,3.9497954845428467,-19.559053421020508,-0.1357932686805725,-1.802981972694397,0.09738485515117645,0
14,0.0650033950805664,-0.4783565402030945,-34.23751449584961,-3.9497954845428467,19.559053421020508,0.1357932686805725,1.802981972694397,-0.09738485515117645,0.0,0.0,0.0,0.0,0.0,0.0,0.0,-0.5300616947089006,-0.13798979114588156,-0.3839677472918817,0.5436718477661644,0.08877358449730931,-0.09127612605302185,-0.10785888506270196,1.0545814748145117,0.3242382402074603,-0.3924570807364948,-2.1534841033055248,0.8647953786253928,2.4658848642110827,0.5444877468841579,1.0544104758940245,0.3238615046091247,-0.39250456234122666,-2.153291787532338,0.8647539153680389,2.46587817577521,0.5445020185570556,-0.0009963051489023523,0.0004625044990954033,4.28563515643214e-05,0.00025299026070180696,0.00020287574862210662,0.0002062218201683532,-0.0007757328021039621,0.0,0.0,0.0,0.0,0.0,0.0,0.0,-0.00017099892048721976,-0.0003767355983355647,-4.748160473183605e-05,0.00019231577318690185,-4.146325735387979e-05,-6.688435872703735e-06,1.4271672897692156e-05,0.0009963051489023523,-0.0004625044990954033,-4.28563515643214e-05,-0.00025299026070180696,-0.00020287574862210662,-0.0002062218201683532,0.0007757328021039621,0.4783565402030945,34.23751449584961,3.9497954845428467,-19.559053421020508,-0.1357932686805725,-1.802981972694397,0.09738485515117645,0
15,0.06999921798706055,-0.5021602511405945,-34.21371078491211,-3.9735991954803467,19.511445999145508,0.1412864327430725,1.802981972694397,-0.13217489421367645,0.0,0.0,0.0,0.0,0.0,0.0,0.0,-0.5326491979029754,-0.1354253451682045,-0.38735496293077043,0.5390625111408136,0.08893541010158396,-0.09204291408514931,-0.10879388317913662,1.0545831452741443,0.3242365694506144,-0.3924554103006396,-2.1534807545846415,0.8647947682738303,2.4658848642110827,0.5444916517258006,1.0544104758940245,0.3238615046091247,-0.39250456234122666,-2.153291787532338,0.8647539153680389,2.46587817577521,0.5445020185570556,-0.0004933220305830493,-6.235793000526164e-05,0.0003975088087871998,0.0012220807609666735,7.977165769489788e-05,0.000498498850383595,0.000778531237048418,0.0,0.0,0.0,0.0,0.0,0.0,0.0,-0.00017266938011983868,-0.00037506484148969177,-4.9152040587086e-05,0.00018896705230364574,-4.085290579136647e-05,-6.688435872703735e-06,1.0366831254993158e-05,0.0004933220305830493,6.235793000526164e-05,-0.0003975088087871998,-0.0012220807609666735,-7.977165769489788e-05,-0.000498498850383595,-0.000778531237048418,0.5021602511405945,34.21371078491211,3.9735991954803467,-19.511445999145508,-0.1412864327430725,-1.802981972694397,0.13217489421367645,0
16,0.07494282722473145,-0.5021602511405945,-34.21371078491211,-3.9735991954803467,19.511445999145508,0.1412864327430725,1.802981972694397,-0.13217489421367645,0.0,0.0,0.0,0.0,0.0,0.0,0.0,-0.5326491979029754,-0.1354253451682045,-0.38735496293077043,0.5390625111408136,0.08893541010158396,-0.09204291408514931,-0.10879388317913662,1.0545831452741443,0.3242365694506144,-0.3924554103006396,-2.1534807545846415,0.8647947682738303,2.4658848642110827,0.5444916517258006,1.0544104758940245,0.3238615046091247,-0.39250456234122666,-2.153291787532338,0.8647539153680389,2.46587817577521,0.5445020185570556,-0.0004933220305830493,-6.235793000526164e-05,0.0003975088087871998,0.0012220807609666735,7.977165769489788e-05,0.000498498850383595,0.000778531237048418,0.0,0.0,0.0,0.0,0.0,0.0,0.0,-0.00017266938011983868,-0.00037506484148969177,-4.9152040587086e-05,0.00018896705230364574,-4.085290579136647e-05,-6.688435872703735e-06,1.0366831254993158e-05,0.0004933220305830493,6.235793000526164e-05,-0.0003975088087871998,-0.0012220807609666735,-7.977165769489788e-05,-0.000498498850383595,-0.000778531237048418,0.5021602511405945,34.21371078491211,3.9735991954803467,-19.511445999145508,-0.1412864327430725,-1.802981972694397,0.13217489421367645,0
17,0.07999730110168457,-0.5021602511405945,-34.18990707397461,-3.9497954845428467,19.535249710083008,0.1293845772743225,1.809390664100647,-0.06991903483867645,0.0,0.0,0.0,0.0,0.0,0.0,0.0,-0.528981808627419,-0.137392945109846,-0.38739031686470965,0.5394066049798151,0.0885618541087657,-0.09221034098053452,-0.11030369143155752,1.0545855304047431,0.3242349019036885,-0.3924570807364948,-2.153484552145882,0.8647960907022157,2.4658841521342594,0.5444861080132966,1.0544104758940245,0.3238615046091247,-0.39250456234122666,-2.153291787532338,0.8647539153680389,2.46587817577521,0.5445020185570556,-0.0003700213359451638,-0.0007608834757395551,-0.0005579029834422121,0.0004680251502512142,0.000386880100766188,0.00021862205810041813,-0.0015784209624852164,0.0,0.0,0.0,0.0,0.0,0.0,0.0,-0.00017505451071864186,-0.0003733972945637598,-4.748160473183605e-05,0.00019276461354422736,-4.2175334176830503e-05,-5.976359049419955e-06,1.591054375904566e-05,0.0003700213359451638,0.0007608834757395551,0.0005579029834422121,-0.0004680251502512142,-0.000386880100766188,-0.00021862205810041813,0.0015784209624852164,0.5021602511405945,34.18990707397461,3.9497954845428467,-19.535249710083008,-0.1293845772743225,-1.809390664100647,0.06991903483867645,0
18,0.0849449634552002,-0.5021602511405945,-34.18990707397461,-3.9497954845428467,19.535249710083008,0.1293845772743225,1.809390664100647,-0.06991903483867645,0.0,0.0,0.0,0.0,0.0,0.0,0.0,-0.528981808627419,-0.137392945109846,-0.38739031686470965,0.5394066049798151,0.0885618541087657,-0.09221034098053452,-0.11030369143155752,1.0545855304047431,0.3242349019036885,-0.3924570807364948,-2.153484552145882,0.8647960907022157,2.4658841521342594,0.5444861080132966,1.0544104758940245,0.3238615046091247,-0.39250456234122666,-2.153291787532338,0.8647539153680389,2.46587817577521,0.5445020185570556,-0.0003700213359451638,-0.0007608834757395551,-0.0005579029834422121,0.0004680251502512142,0.000386880100766188,0.00021862205810041813,-0.0015784209624852164,0.0,0.0,0.0,0.0,0.0,0.0,0.0,-0.00017505451071864186,-0.0003733972945637598,-4.748160473183605e-05,0.00019276461354422736,-4.2175334176830503e-05,-5.976359049419955e-06,1.591054375904566e-05,0.0003700213359451638,0.0007608834757395551,0.0005579029834422121,-0.0004680251502512142,-0.000386880100766188,-0.00021862205810041813,0.0015784209624852164,0.5021602511405945,34.18990707397461,3.9497954845428467,-19.535249710083008,-0.1293845772743225,-1.809390664100647,0.06991903483867645,0
19,0.08999085426330566,-0.5021602511405945,-34.18990707397461,-3.9497954845428467,19.535249710083008,0.1293845772743225,1.809390664100647,-0.06991903483867645,0.0,0.0,0.0,0.0,0.0,0.0,0.0,-0.528981808627419,-0.137392945109846,-0.38739031686470965,0.5394066049798151,0.0885618541087657,-0.09221034098053452,-0.11030369143155752,1.0545855304047431,0.3242349019036885,-0.3924570807364948,-2.153484552145882,0.8647960907022157,2.4658841521342594,0.5444861080132966,1.0544104758940245,0.3238615046091247,-0.39250456234122666,-2.153291787532338,0.8647539153680389,2.46587817577521,0.5445020185570556,-0.0003700213359451638,-0.0007608834757395551,-0.0005579029834422121,0.0004680251502512142,0.000386880100766188,0.00021862205810041813,-0.0015784209624852164,0.0,0.0,0.0,0.0,0.0,0.0,0.0,-0.00017505451071864186,-0.0003733972945637598,-4.748160473183605e-05,0.00019276461354422736,-4.2175334176830503e-05,-5.976359049419955e-06,1.591054375904566e-05,0.0003700213359451638,0.0007608834757395551,0.0005579029834422121,-0.0004680251502512142,-0.000386880100766188,-0.00021862205810041813,0.0015784209624852164,0.5021602511405945,34.18990707397461,3.9497954845428467,-19.535249710083008,-0.1293845772743225,-1.809390664100647,0.06991903483867645,0
20,0.09499740600585938,-0.5021602511405945,-34.18990707397461,-3.9497954845428467,19.535249710083008,0.1293845772743225,1.809390664100647,-0.06991903483867645,0.0,0.0,0.0,0.0,0.0,0.0,0.0,-0.528981808627419,-0.137392945109846,-0.38739031686470965,0.5394066049798151,0.0885618541087657,-0.09221034098053452,-0.11030369143155752,1.0545855304047431,0.3242349019036885,-0.3924570807364948,-2.153484552145882,0.8647960907022157,2.4658841521342594,0.5444861080132966,1.0544104758940245,0.3238615046091247,-0.39250456234122666,-2.153291787532338,0.8647539153680389,2.46587817577521,0.5445020185570556,-0.0003700213359451638,-0.0007608834757395551,-0.0005579029834422121,0.0004680251502512142,0.000386880100766188,0.00021862205810041813,-0.0015784209624852164,0.0,0.0,0.0,0.0,0.0,0.0,0.0,-0.00017505451071864186,-0.0003733972945637598,-4.748160473183605e-05,0.00019276461354422736,-4.2175334176830503e-05,-5.976359049419955e-06,1.591054375904566e-05,0.0003700213359451638,0.0007608834757395551,0.0005579029834422121,-0.0004680251502512142,-0.000386880100766188,-0.00021862205810041813,0.0015784209624852164,0.5021602511405945,34.18990707397461,3.9497954845428467,-19.535249710083008,-0.1293845772743225,-1.809390664100647,0.06991903483867645,0
21,0.09999799728393555,-0.4505855441093445,-34.18990707397461,-3.9497954845428467,19.586824417114258,0.1531882882118225,1.815799355506897,-0.11844198405742645,0.0,0.0,0.0,0.0,0.0,0.0,0.0,-0.511031583472125,-0.13450115018571912,-0.37463030729339625,0.5391374599896953,0.08732861423063057,-0.09320072020784173,-0.1099983690202968,1.0545795259735833,0.32423560102503435,-0.3924570807364948,-2.1534860444070496,0.8647934458454449,2.4658834400574365,0.5444900909158291,1.0544104758940245,0.3238615046091247,-0.39250456234122666,-2.153291787532338,0.8647539153680389,2.46587817577521,0.5445020185570556,-0.001144224621477367,-0.0005117463268950965,0.00023417963645806607,-0.000699724929550495,-0.00045902044359248965,8.235460174495324e-06,0.0003656969843493743,0.0,0.0,0.0,0.0,0.0,0.0,0.0,-0.0001690500795588079,-0.0003740964159096305,-4.748160473183605e-05,0.00019425687471175124,-3.9530477406013453e-05,-5.2642822265802636e-06,1.1927641226483487e-05,0.001144224621477367,0.0005117463268950965,-0.00023417963645806607,0.000699724929550495,0.00045902044359248965,-8.235460174495324e-06,-0.0003656969843493743,0.4505855441093445,34.18990707397461,3.9497954845428467,-19.586824417114258,-0.1531882882118225,-1.815799355506897,0.11844198405742645,0
22,0.10499930381774902,-0.4505855441093445,-34.18990707397461,-3.9497954845428467,19.586824417114258,0.1531882882118225,1.815799355506897,-0.11844198405742645,0.0,0.0,0.0,0.0,0.0,0.0,0.0,-0.511031583472125,-0.13450115018571912,-0.37463030729339625,0.5391374599896953,0.08732861423063057,-0.09320072020784173,-0.1099983690202968,1.0545795259735833,0.32423560102503435,-0.3924570807364948,-2.1534860444070496,0.8647934458454449,2.4658834400574365,0.5444900909158291,1.0544104758940245,0.3238615046091247,-0.39250456234122666,-2.153291787532338,0.8647539153680389,2.46587817577521,0.5445020185570556,-0.001144224621477367,-0.0005117463268950965,0.00023417963645806607,-0.000699724929550495,-0.00045902044359248965,8.235460174495324e-06,0.0003656969843493743,0.0,0.0,0.0,0.0,0.0,0.0,0.0,-0.0001690500795588079,-0.0003740964159096305,-4.748160473183605e-05,0.00019425687471175124,-3.9530477406013453e-05,-5.2642822265802636e-06,1.1927641226483487e-05,0.001144224621477367,0.0005117463268950965,-0.00023417963645806607,0.000699724929550495,0.00045902044359248965,-8.235460174495324e-06,-0.0003656969843493743,0.4505855441093445,34.18990707397461,3.9497954845428467,-19.586824417114258,-0.1531882882118225,-1.815799355506897,0.11844198405742645,0
23,0.10999536514282227,-0.5299312472343445,-34.26528549194336,-3.8982207775115967,19.559053421020508,0.1531882882118225,1.822208046913147,-0.12485067546367645,0.0,0.0,0.0,0.0,0.0,0.0,0.0,-0.5218442544310844,-0.13669764052907257,-0.3860046612544158,0.5421736348496624,0.08800907988295495,-0.09114373955524412,-0.10995415840037266,1.0545854149508533,0.32424112474594285,-0.39246070001418126,-2.15348416609885,0.8647934458454449,2.4658827279806137,0.5444909163616201,1.0544104758940245,0.3238615046091247,-0.39250456234122666,-2.153291787532338,0.8647539153680389,2.46587817577521,0.5445020185570556,0.00011201318787711815,0.0015759326115178452,-0.0005417988750941465,0.0005848584439197902,-0.0005351306184505214,-0.00013391336517106392,0.0011943479708324256,0.0,0.0,0.0,0.0,0.0,0.0,0.0,-0.00017493905682886002,-0.00037962013681813733,-4.386232704539639e-05,0.00019237856651210805,-3.9530477406013453e-05,-4.552205403740572e-06,1.1102195435541695e-05,-0.00011201318787711815,-0.0015759326115178452,0.0005417988750941465,-0.0005848584439197902,0.0005351306184505214,0.00013391336517106392,-0.0011943479708324256,0.5299312472343445,34.26528549194336,3.8982207775115967,-19.559053421020508,-0.1531882882118225,-1.822208046913147,0.12485067546367645,0
24,0.11500406265258789,-0.5299312472343445,-34.26528549194336,-3.8982207775115967,19.559053421020508,0.1531882882118225,1.822208046913147,-0.12485067546367645,0.0,0.0,0.0,0.0,0.0,0.0,0.0,-0.5218442544310844,-0.13669764052907257,-0.3860046612544158,0.5421736348496624,0.08800907988295495,-0.09114373955524412,-0.10995415840037266,1.0545854149508533,0.32424112474594285,-0.39246070001418126,-2.15348416609885,0.8647934458454449,2.4658827279806137,0.5444909163616201,1.0544104758940245,0.3238615046091247,-0.39250456234122666,-2.153291787532338,0.8647539153680389,2.46587817577521,0.5445020185570556,0.00011201318787711815,0.0015759326115178452,-0.0005417988750941465,0.0005848584439197902,-0.0005351306184505214,-0.00013391336517106392,0.0011943479708324256,0.0,0.0,0.0,0.0,0.0,0.0,0.0,-0.00017493905682886002,-0.00037962013681813733,-4.386232704539639e-05,0.00019237856651210805,-3.9530477406013453e-05,-4.552205403740572e-06,1.1102195435541695e-05,-0.00011201318787711815,-0.0015759326115178452,0.0005417988750941465,-0.0005848584439197902,0.0005351306184505214,0.00013391336517106392,-0.0011943479708324256,0.5299312472343445,34.26528549194336,3.8982207775115967,-19.559053421020508,-0.1531882882118225,-1.822208046913147,0.12485067546367645,0
25,0.11999297142028809,-0.5021602511405945,-34.21371078491211,-3.8982207775115967,19.586824417114258,0.1412864327430725,1.815799355506897,-0.11111776530742645,0.0,0.0,0.0,0.0,0.0,0.0,0.0,-0.5272839326047218,-0.13017121210607485,-0.3839589146764509,0.5357537834657413,0.08777262890051764,-0.09092305646388284,-0.10945803867484655,1.0545831452384093,0.32423680345579414,-0.39246070001418126,-2.1534860678780867,0.8647947682738303,2.4658834400574365,0.5444892901879436,1.0544104758940245,0.3238615046091247,-0.39250456234122666,-2.153291787532338,0.8647539153680389,2.46587817577521,0.5445020185570556,-0.0006805867206397472,0.00018809008074092113,-0.0010735494868648102,-0.001065971838384678,-8.300883632336896e-05,-0.000125302312320596,0.0003134176482735314,0.0,0.0,0.0,0.0,0.0,0.0,0.0,-0.00017266934438486814,-0.00037529884666942515,-4.386232704539639e-05,0.0001942803457488651,-4.085290579136647e-05,-5.2642822265802636e-06,1.272836911203612e-05,0.0006805867206397472,-0.00018809008074092113,0.0010735494868648102,0.001065971838384678,8.300883632336896e-05,0.000125302312320596,-0.0003134176482735314,0.5021602511405945,34.21371078491211,3.8982207775115967,-19.586824417114258,-0.1412864327430725,-1.815799355506897,0.11111776530742645,0
26,0.12500596046447754,-0.5021602511405945,-34.21371078491211,-3.8982207775115967,19.586824417114258,0.1412864327430725,1.815799355506897,-0.11111776530742645,0.0,0.0,0.0,0.0,0.0,0.0,0.0,-0.5272839326047218,-0.13017121210607485,-0.3839589146764509,0.5357537834657413,0.08777262890051764,-0.09092305646388284,-0.10945803867484655,1.0545831452384093,0.32423680345579414,-0.39246070001418126,-2.1534860678780867,0.8647947682738303,2.4658834400574365,0.5444892901879436,1.0544104758940245,0.3238615046091247,-0.39250456234122666,-2.153291787532338,0.8647539153680389,2.46587817577521,0.5445020185570556,-0.0006805867206397472,0.00018809008074092113,-0.0010735494868648102,-0.001065971838384678,-8.300883632336896e-05,-0.000125302312320596,0.0003134176482735314,0.0,0.0,0.0,0.0,0.0,0.0,0.0,-0.00017266934438486814,-0.00037529884666942515,-4.386232704539639e-05,0.0001942803457488651,-4.085290579136647e-05,-5.2642822265802636e-06,1.272836911203612e-05,0.0006805867206397472,-0.00018809008074092113,0.0010735494868648102,0.001065971838384678,8.300883632336896e-05,0.000125302312320596,-0.0003134176482735314,0.5021602511405945,34.21371078491211,3.8982207775115967,-19.586824417114258,-0.1412864327430725,-1.815799355506897,0.11111776530742645,0
27,0.12995386123657227,-0.5299312472343445,-34.21371078491211,-3.9735991954803467,19.535249710083008,0.1412864327430725,1.809390664100647,-0.13858358561992645,0.0,0.0,0.0,0.0,0.0,0.0,0.0,-0.5209261537497712,-0.12581431807858254,-0.37538696792313636,0.534051542291286,0.08656814161168082,-0.09101484055169669,-0.10784554472271494,1.0545853364349143,0.32423664755919046,-0.3924554103006396,-2.153482425149701,0.864794772634481,2.4658841521342594,0.5444955034173525,1.0544104758940245,0.3238615046091247,-0.39250456234122666,-2.153291787532338,0.8647539153680389,2.46587817577521,0.5445020185570556,1.7584735127676742e-05,0.0005560613733685079,0.0002941328601322862,0.00045292910052383895,-0.00015764559988459308,0.0001862903803783123,0.0013816991372275161,0.0,0.0,0.0,0.0,0.0,0.0,0.0,-0.00017486054088977632,-0.0003751429500657433,-4.9152040587086e-05,0.00019063761736326512,-4.085726644209586e-05,-5.976359049419955e-06,6.515139703067163e-06,-1.7584735127676742e-05,-0.0005560613733685079,-0.0002941328601322862,-0.00045292910052383895,0.00015764559988459308,-0.0001862903803783123,-0.0013816991372275161,0.5299312472343445,34.21371078491211,3.9735991954803467,-19.535249710083008,-0.1412864327430725,-1.809390664100647,0.13858358561992645,0
28,0.13499832153320312,-0.5299312472343445,-34.21371078491211,-3.9735991954803467,19.535249710083008,0.1412864327430725,1.809390664100647,-0.13858358561992645,0.0,0.0,0.0,0.0,0.0,0.0,0.0,-0.5209261537497712,-0.12581431807858254,-0.37538696792313636,0.534051542291286,0.08656814161168082,-0.09101484055169669,-0.10784554472271494,1.0545853364349143,0.32423664755919046,-0.3924554103006396,-2.153482425149701,0.864794772634481,2.4658841521342594,0.5444955034173525,1.0544104758940245,0.3238615046091247,-0.39250456234122666,-2.153291787532338,0.8647539153680389,2.46587817577521,0.5445020185570556,1.7584735127676742e-05,0.0005560613733685079,0.0002941328601322862,0.00045292910052383895,-0.00015764559988459308,0.0001862903803783123,0.0013816991372275161,0.0,0.0,0.0,0.0,0.0,0.0,0.0,-0.00017486054088977632,-0.0003751429500657433,-4.9152040587086e-05,0.00019063761736326512,-4.085726644209586e-05,-5.976359049419955e-06,6.515139703067163e-06,-1.7584735127676742e-05,-0.0005560613733685079,-0.0002941328601322862,-0.00045292910052383895,0.00015764559988459308,-0.0001862903803783123,-0.0013816991372275161,0.5299312472343445,34.21371078491211,3.9735991954803467,-19.535249710083008,-0.1412864327430725,-1.809390664100647,0.13858358561992645,0
29,0.13999295234680176,-0.5299312472343445,-34.21371078491211,-3.9497954845428467,19.535249710083008,0.1357932686805725,1.815799355506897,-0.11844198405742645,0.0,0.0,0.0,0.0,0.0,0.0,0.0,-0.527997340400796,-0.13321323375708985,-0.38363592902131743,0.5393640997407082,0.08610547605806967,-0.08960695559360204,-0.10768844469542388,1.0545850942375605,0.3242375083652602,-0.3924570807364948,-2.1534824488586763,0.8647943189872717,2.4658834400574365,0.5444932654675722,1.0544104758940245,0.3238615046091247,-0.39250456234122666,-2.153291787532338,0.8647539153680389,2.46587817577521,0.5445020185570556,4.428048164203819e-05,0.0003598436343767804,-0.00025533873517204523,0.0009189824510525413,7.646078172357052e-05,-0.00016427476163744664,0.0005782618733722335,0.0,0.0,0.0,0.0,0.0,0.0,0.0,-0.00017461834353604822,-0.0003760037561355012,-4.748160473183605e-05,0.00019066132633849264,-4.040361923274283e-05,-5.2642822265802636e-06,8.753089483448662e-06,-4.428048164203819e-05,-0.0003598436343767804,0.00025533873517204523,-0.0009189824510525413,-7.646078172357052e-05,0.00016427476163744664,-0.0005782618733722335,0.5299312472343445,34.21371078491211,3.9497954845428467,-19.535249710083008,-0.1357932686805725,-1.815799355506897,0.11844198405742645,0
30,0.14500808715820312,-0.5299312472343445,-34.21371078491211,-3.9497954845428467,19.535249710083008,0.1357932686805725,1.815799355506897,-0.11844198405742645,0.0,0.0,0.0,0.0,0.0,0.0,0.0,-0.527997340400796,-0.13321323375708985,-0.38363592902131743,0.5393640997407082,0.08610547605806967,-0.08960695559360204,-0.10768844469542388,1.0545850942375605,0.3242375083652602,-0.3924570807364948,-2.1534824488586763,0.8647943189872717,2.4658834400574365,0.5444932654675722,1.0544104758940245,0.3238615046091247,-0.39250456234122666,-2.153291787532338,0.8647539153680389,2.46587817577521,0.5445020185570556,4.428048164203819e-05,0.0003598436343767804,-0.00025533873517204523,0.0009189824510525413,7.646078172357052e-05,-0.00016427476163744664,0.0005782618733722335,0.0,0.0,0.0,0.0,0.0,0.0,0.0,-0.00017461834353604822,-0.0003760037561355012,-4.748160473183605e-05,0.00019066132633849264,-4.040361923274283e-05,-5.2642822265802636e-06,8.753089483448662e-06,-4.428048164203819e-05,-0.0003598436343767804,0.00025533873517204523,-0.0009189824510525413,-7.646078172357052e-05,0.00016427476163744664,-0.0005782618733722335,0.5299312472343445,34.21371078491211,3.9497954845428467,-19.535249710083008,-0.1357932686805725,-1.815799355506897,0.11844198405742645,0
31,0.15004754066467285,-0.5537349581718445,-34.18990707397461,-3.9220244884490967,19.559053421020508,0.1357932686805725,1.802981972694397,-0.13858358561992645,0.0,0.0,0.0,0.0,0.0,0.0,0.0,-0.5201805245234274,-0.13588582773215224,-0.377961919851835,0.5433131424831249,0.08505223127298427,-0.08952241674741414,-0.10805758231318047,1.0545868439883526,0.32423560103031823,-0.392459029578326,-2.153486076064007,0.8647953786194111,2.4658848642110827,0.5444924553403989,1.0544104758940245,0.3238615046091247,-0.39250456234122666,-2.153291787532338,0.8647539153680389,2.46587817577521,0.5445020185570556,0.0008505815685537641,-0.0005996869328878456,-0.0005699526748331871,0.0004901775559791748,2.2484080179414764e-05,0.0002825987146658792,0.0015616064961173942,0.0,0.0,0.0,0.0,0.0,0.0,0.0,-0.0001763680943280832,-0.00037409642119351494,-4.553276290064634e-05,0.00019428853166925109,-4.146325137222018e-05,-6.688435872703735e-06,9.563216656682805e-06,-0.0008505815685537641,0.0005996869328878456,0.0005699526748331871,-0.0004901775559791748,-2.2484080179414764e-05,-0.0002825987146658792,-0.0015616064961173942,0.5537349581718445,34.18990707397461,3.9220244884490967,-19.559053421020508,-0.1357932686805725,-1.802981972694397,0.13858358561992645,0
32,0.15539932250976562,-0.5537349581718445,-34.18990707397461,-3.9220244884490967,19.559053421020508,0.1357932686805725,1.802981972694397,-0.13858358561992645,0.0,0.0,0.0,0.0,0.0,0.0,0.0,-0.5201805245234274,-0.13588582773215224,-0.377961919851835,0.5433131424831249,0.08505223127298427,-0.08952241674741414,-0.10805758231318047,1.0545868439883526,0.32423560103031823,-0.392459029578326,-2.153486076064007,0.8647953786194111,2.4658848642110827,0.5444924553403989,1.0544104758940245,0.3238615046091247,-0.39250456234122666,-2.153291787532338,0.8647539153680389,2.46587817577521,0.5445020185570556,0.0008505815685537641,-0.0005996869328878456,-0.0005699526748331871,0.0004901775559791748,2.2484080179414764e-05,0.0002825987146658792,0.0015616064961173942,0.0,0.0,0.0,0.0,0.0,0.0,0.0,-0.0001763680943280832,-0.00037409642119351494,-4.553276290064634e-05,0.00019428853166925109,-4.146325137222018e-05,-6.688435872703735e-06,9.563216656682805e-06,-0.0008505815685537641,0.0005996869328878456,0.0005699526748331871,-0.0004901775559791748,-2.2484080179414764e-05,-0.0002825987146658792,-0.0015616064961173942,0.5537349581718445,34.18990707397461,3.9220244884490967,-19.559053421020508,-0.1357932686805725,-1.802981972694397,0.13858358561992645,0
33,0.16001224517822266,-0.5299312472343445,-34.26528549194336,-3.9220244884490967,19.586824417114258,0.1412864327430725,1.815799355506897,-0.10470907390117645,0.0,0.0,0.0,0.0,0.0,0.0,0.0,-0.5216464531192853,-0.1307794201514981,-0.376048976728692,0.5407949986005667,0.08470726436403879,-0.09006039127248218,-0.10811506524884455,1.0545850941891015,0.3242401973990553,-0.392459029578326,-2.153486114951861,0.8647947682738303,2.4658834400574365,0.5444886784066048,1.0544104758940245,0.3238615046091247,-0.39250456234122666,-2.153291787532338,0.8647539153680389,2.46587817577521,0.5445020185570556,0.00013307923747332768,0.0015502290803818275,2.384656274607825e-05,-0.0004277594789787369,4.381218040378155e-05,0.00011171848718819619,-0.0001375279378238455,0.0,0.0,0.0,0.0,0.0,0.0,0.0,-0.00017461829507703364,-0.0003786927899305792,-4.553276290064634e-05,0.00019432741952307708,-4.085290579136647e-05,-5.2642822265802636e-06,1.33401504508468e-05,-0.00013307923747332768,-0.0015502290803818275,-2.384656274607825e-05,0.0004277594789787369,-4.381218040378155e-05,-0.00011171848718819619,0.0001375279378238455,0.5299312472343445,34.26528549194336,3.9220244884490967,-19.586824417114258,-0.1412864327430725,-1.815799355506897,0.10470907390117645,0
34,0.1649484634399414,-0.5299312472343445,-34.26528549194336,-3.9220244884490967,19.586824417114258,0.1412864327430725,1.815799355506897,-0.10470907390117645,0.0,0.0,0.0,0.0,0.0,0.0,0.0,-0.5216464531192853,-0.1307794201514981,-0.376048976728692,0.5407949986005667,0.08470726436403879,-0.09006039127248218,-0.10811506524884455,1.0545850941891015,0.3242401973990553,-0.392459029578326,-2.153486114951861,0.8647947682738303,2.4658834400574365,0.5444886784066048,1.0544104758940245,0.3238615046091247,-0.39250456234122666,-2.153291787532338,0.8647539153680389,2.46587817577521,0.5445020185570556,0.00013307923747332768,0.0015502290803818275,2.384656274607825e-05,-0.0004277594789787369,4.381218040378155e-05,0.00011171848718819619,-0.0001375279378238455,0.0,0.0,0.0,0.0,0.0,0.0,0.0,-0.00017461829507703364,-0.0003786927899305792,-4.553276290064634e-05,0.00019432741952307708,-4.085290579136647e-05,-5.2642822265802636e-06,1.33401504508468e-05,-0.00013307923747332768,-0.0015502290803818275,-2.384656274607825e-05,0.0004277594789787369,-4.381218040378155e-05,-0.00011171848718819619,0.0001375279378238455,0.5299312472343445,34.26528549194336,3.9220244884490967,-19.586824417114258,-0.1412864327430725,-1.815799355506897,0.10470907390117645,0
35,0.16999197006225586,-0.5299312472343445,-34.26528549194336,-3.9220244884490967,19.586824417114258,0.1412864327430725,1.815799355506897,-0.10470907390117645,0.0,0.0,0.0,0.0,0.0,0.0,0.0,-0.5216464531192853,-0.1307794201514981,-0.376048976728692,0.5407949986005667,0.08470726436403879,-0.09006039127248218,-0.10811506524884455,1.0545850941891015,0.3242401973990553,-0.392459029578326,-2.153486114951861,0.8647947682738303,2.4658834400574365,0.5444886784066048,1.0544104758940245,0.3238615046091247,-0.39250456234122666,-2.153291787532338,0.8647539153680389,2.46587817577521,0.5445020185570556,0.00013307923747332768,0.0015502290803818275,2.384656274607825e-05,-0.0004277594789787369,4.381218040378155e-05,0.00011171848718819619,-0.0001375279378238455,0.0,0.0,0.0,0.0,0.0,0.0,0.0,-0.00017461829507703364,-0.0003786927899305792,-4.553276290064634e-05,0.00019432741952307708,-4.085290579136647e-05,-5.2642822265802636e-06,1.33401504508468e-05,-0.00013307923747332768,-0.0015502290803818275,-2.384656274607825e-05,0.0004277594789787369,-4.381218040378155e-05,-0.00011171848718819619,0.0001375279378238455,0.5299312472343445,34.26528549194336,3.9220244884490967,-19.586824417114258,-0.1412864327430725,-1.815799355506897,0.10470907390117645,0
36,0.17499351501464844,-0.5299312472343445,-34.26528549194336,-3.9220244884490967,19.586824417114258,0.1412864327430725,1.815799355506897,-0.10470907390117645,0.0,0.0,0.0,0.0,0.0,0.0,0.0,-0.5216464531192853,-0.1307794201514981,-0.376048976728692,0.5407949986005667,0.08470726436403879,-0.09006039127248218,-0.10811506524884455,1.0545850941891015,0.3242401973990553,-0.392459029578326,-2.153486114951861,0.8647947682738303,2.4658834400574365,0.5444886784066048,1.0544104758940245,0.3238615046091247,-0.39250456234122666,-2.153291787532338,0.8647539153680389,2.46587817577521,0.5445020185570556,0.00013307923747332768,0.0015502290803818275,2.384656274607825e-05,-0.0004277594789787369,4.381218040378155e-05,0.00011171848718819619,-0.0001375279378238455,0.0,0.0,0.0,0.0,0.0,0.0,0.0,-0.00017461829507703364,-0.0003786927899305792,-4.553276290064634e-05,0.00019432741952307708,-4.085290579136647e-05,-5.2642822265802636e-06,1.33401504508468e-05,-0.00013307923747332768,-0.0015502290803818275,-2.384656274607825e-05,0.0004277594789787369,-4.381218040378155e-05,-0.00011171848718819619,0.0001375279378238455,0.5299312472343445,34.26528549194336,3.9220244884490967,-19.586824417114258,-0.1412864327430725,-1.815799355506897,0.10470907390117645,0
37,0.1800060272216797,-0.5299312472343445,-34.21371078491211,-3.9735991954803467,19.610628128051758,0.1412864327430725,1.809390664100647,-0.13217489421367645,0.0,0.0,0.0,0.0,0.0,0.0,0.0,-0.521839213612661,-0.12680777391343145,-0.374809415319566,0.5390321535930164,0.0851653908544652,-0.09042806602954813,-0.10869771291974895,1.0545850941886534,0.32423664748746744,-0.39245328440164257,-2.1534877383788102,0.8647947682738303,2.4658841521342594,0.5444916129112901,1.0544104758940245,0.3238615046091247,-0.39250456234122666,-2.153291787532338,0.8647539153680389,2.46587817577521,0.5445020185570556,0.0003297409667266809,0.00046394825722434534,0.000724526959236647,-0.0011891863862323762,6.730866802710854e-05,2.798637088266247e-05,0.0012581524348246286,0.0,0.0,0.0,0.0,0.0,0.0,0.0,-0.00017461829462894762,-0.00037514287834272686,-5.1277939584093435e-05,0.00019595084647239247,-4.085290579136647e-05,-5.976359049419955e-06,1.0405645765487748e-05,-0.0003297409667266809,-0.00046394825722434534,-0.000724526959236647,0.0011891863862323762,-6.730866802710854e-05,-2.798637088266247e-05,-0.0012581524348246286,0.5299312472343445,34.21371078491211,3.9735991954803467,-19.610628128051758,-0.1412864327430725,-1.809390664100647,0.13217489421367645,0
38,0.18503165245056152,-0.5299312472343445,-34.21371078491211,-3.9735991954803467,19.610628128051758,0.1412864327430725,1.809390664100647,-0.13217489421367645,0.0,0.0,0.0,0.0,0.0,0.0,0.0,-0.521839213612661,-0.12680777391343145,-0.374809415319566,0.5390321535930164,0.0851653908544652,-0.09042806602954813,-0.10869771291974895,1.0545850941886534,0.32423664748746744,-0.39245328440164257,-2.1534877383788102,0.8647947682738303,2.4658841521342594,0.5444916129112901,1.0544104758940245,0.3238615046091247,-0.39250456234122666,-2.153291787532338,0.8647539153680389,2.46587817577521,0.5445020185570556,0.0003297409667266809,0.00046394825722434534,0.000724526959236647,-0.0011891863862323762,6.730866802710854e-05,2.798637088266247e-05,0.0012581524348246286,0.0,0.0,0.0,0.0,0.0,0.0,0.0,-0.00017461829462894762,-0.00037514287834272686,-5.1277939584093435e-05,0.00019595084647239247,-4.085290579136647e-05,-5.976359049419955e-06,1.0405645765487748e-05,-0.0003297409667266809,-0.00046394825722434534,-0.000724526959236647,0.0011891863862323762,-6.730866802710854e-05,-2.798637088266247e-05,-0.0012581524348246286,0.5299312472343445,34.21371078491211,3.9735991954803467,-19.610628128051758,-0.1412864327430725,-1.809390664100647,0.13217489421367645,0
39,0.19000506401062012,-0.5299312472343445,-34.18990707397461,-3.9497954845428467,19.610628128051758,0.1412864327430725,1.815799355506897,-0.13217489421367645,0.0,0.0,0.0,0.0,0.0,0.0,0.0,-0.5176393622611717,-0.13311696189027244,-0.3738930181343251,0.5459328495288035,0.08548619991907516,-0.09061867525957365,-0.10839307327964687,1.0545851206069288,0.3242370051526837,-0.3924570807324946,-2.1534877156061687,0.8647947682738303,2.4658834400574365,0.544491625561897,1.0544104758940245,0.3238615046091247,-0.39250456234122666,-2.153291787532338,0.8647539153680389,2.46587817577521,0.5445020185570556,0.000591588669985316,-0.00047299602755066655,0.0003928052813473929,-0.0006904290190851818,-0.0002242183289830945,-3.520584733863141e-05,0.001037421882356414,0.0,0.0,0.0,0.0,0.0,0.0,0.0,-0.00017464471290429273,-0.0003755005435590042,-4.748160873208063e-05,0.0001959280738308422,-4.085290579136647e-05,-5.2642822265802636e-06,1.0392995158592377e-05,-0.000591588669985316,0.00047299602755066655,-0.0003928052813473929,0.0006904290190851818,0.0002242183289830945,3.520584733863141e-05,-0.001037421882356414,0.5299312472343445,34.18990707397461,3.9497954845428467,-19.610628128051758,-0.1412864327430725,-1.815799355506897,0.13217489421367645,0
40,0.1954057216644287,-0.5299312472343445,-34.18990707397461,-3.9497954845428467,19.610628128051758,0.1412864327430725,1.815799355506897,-0.13217489421367645,0.0,0.0,0.0,0.0,0.0,0.0,0.0,-0.5176393622611717,-0.13311696189027244,-0.3738930181343251,0.5459328495288035,0.08548619991907516,-0.09061867525957365,-0.10839307327964687,1.0545851206069288,0.3242370051526837,-0.3924570807324946,-2.1534877156061687,0.8647947682738303,2.4658834400574365,0.544491625561897,1.0544104758940245,0.3238615046091247,-0.39250456234122666,-2.153291787532338,0.8647539153680389,2.46587817577521,0.5445020185570556,0.000591588669985316,-0.00047299602755066655,0.0003928052813473929,-0.0006904290190851818,-0.0002242183289830945,-3.520584733863141e-05,0.001037421882356414,0.0,0.0,0.0,0.0,0.0,0.0,0.0,-0.00017464471290429273,-0.0003755005435590042,-4.748160873208063e-05,0.0001959280738308422,-4.085290579136647e-05,-5.2642822265802636e-06,1.0392995158592377e-05,-0.000591588669985316,0.00047299602755066655,-0.0003928052813473929,0.0006904290190851818,0.0002242183289830945,3.520584733863141e-05,-0.001037421882356414,0.5299312472343445,34.18990707397461,3.9497954845428467,-19.610628128051758,-0.1412864327430725,-1.815799355506897,0.13217489421367645,0
41,0.19999456405639648,-0.5537349581718445,-34.21371078491211,-3.9220244884490967,19.535249710083008,0.1357932686805725,1.815799355506897,-0.12485067546367645,0.0,0.0,0.0,0.0,0.0,0.0,0.0,-0.5199815378006857,-0.13121456357256547,-0.37586427703615,0.5458321552032096,0.08534264266800233,-0.09042725049204065,-0.10882497254865509,1.0545867648426905,0.32423659546288186,-0.392459029578326,-2.153484403011632,0.8647953786253928,2.4658834400574365,0.5444907986240995,1.0544104758940245,0.3238615046091247,-0.39250456234122666,-2.153291787532338,0.8647539153680389,2.46587817577521,0.5445020185570556,0.0010623655693900891,-7.393707265429033e-05,-0.0003319624487164322,0.0007796490883361238,0.00011514236258265806,0.0001547250546239756,0.0007555326268988661,0.0,0.0,0.0,0.0,0.0,0.0,0.0,-0.00017628894866605904,-0.0003750908537571429,-4.553276290064634e-05,0.00019261547929394496,-4.146325735387979e-05,-5.2642822265802636e-06,1.1219932956052503e-05,-0.0010623655693900891,7.393707265429033e-05,0.0003319624487164322,-0.0007796490883361238,-0.00011514236258265806,-0.0001547250546239756,-0.0007555326268988661,0.5537349581718445,34.21371078491211,3.9220244884490967,-19.535249710083008,-0.1357932686805725,-1.815799355506897,0.12485067546367645,0
42,0.20499134063720703,-0.5537349581718445,-34.21371078491211,-3.9220244884490967,19.535249710083008,0.1357932686805725,1.815799355506897,-0.12485067546367645,0.0,0.0,0.0,0.0,0.0,0.0,0.0,-0.5199815378006857,-0.13121456357256547,-0.37586427703615,0.5458321552032096,0.08534264266800233,-0.09042725049204065,-0.10882497254865509,1.0545867648426905,0.32423659546288186,-0.392459029578326,-2.153484403011632,0.8647953786253928,2.4658834400574365,0.5444907986240995,1.0544104758940245,0.3238615046091247,-0.39250456234122666,-2.153291787532338,0.8647539153680389,2.46587817577521,0.5445020185570556,0.0010623655693900891,-7.393707265429033e-05,-0.0003319624487164322,0.0007796490883361238,0.00011514236258265806,0.0001547250546239756,0.0007555326268988661,0.0,0.0,0.0,0.0,0.0,0.0,0.0,-0.00017628894866605904,-0.0003750908537571429,-4.553276290064634e-05,0.00019261547929394496,-4.146325735387979e-05,-5.2642822265802636e-06,1.1219932956052503e-05,-0.0010623655693900891,7.393707265429033e-05,0.0003319624487164322,-0.0007796490883361238,-0.00011514236258265806,-0.0001547250546239756,-0.0007555326268988661,0.5537349581718445,34.21371078491211,3.9220244884490967,-19.535249710083008,-0.1357932686805725,-1.815799355506897,0.12485067546367645,0
43,0.2099912166595459,-0.5021602511405945,-34.23751449584961,-3.9497954845428467,19.586824417114258,0.1476951241493225,1.815799355506897,-0.10470907390117645,0.0,0.0,0.0,0.0,0.0,0.0,0.0,-0.5222149216310753,-0.1305819348575768,-0.37762229563577904,0.5450288112515809,0.08499593396028864,-0.09008076874935977,-0.10848029760050096,1.054585303105825,0.32424043258533025,-0.3924570807364948,-2.1534860443416055,0.8647940561970073,2.4658834400574365,0.5444889196952071,1.0544104758940245,0.3238615046091247,-0.39250456234122666,-2.153291787532338,0.8647539153680389,2.46587817577521,0.5445020185570556,-0.0005152461152760337,0.0008109162918211626,-1.0602033425046381e-05,-0.0005694064773710949,-0.00037044865912045906,-9.622343173357257e-05,-0.00029941103348111954,0.0,0.0,0.0,0.0,0.0,0.0,0.0,-0.00017482721180051009,-0.0003789279762055342,-4.748160473183605e-05,0.00019425680926765665,-4.0140828968415754e-05,-5.2642822265802636e-06,1.3098861848526155e-05,0.0005152461152760337,-0.0008109162918211626,1.0602033425046381e-05,0.0005694064773710949,0.00037044865912045906,9.622343173357257e-05,0.00029941103348111954,0.5021602511405945,34.23751449584961,3.9497954845428467,-19.586824417114258,-0.1476951241493225,-1.815799355506897,0.10470907390117645,0
44,0.21503305435180664,-0.5021602511405945,-34.23751449584961,-3.9497954845428467,19.586824417114258,0.1476951241493225,1.815799355506897,-0.10470907390117645,0.0,0.0,0.0,0.0,0.0,0.0,0.0,-0.5222149216310753,-0.1305819348575768,-0.37762229563577904,0.5450288112515809,0.08499593396028864,-0.09008076874935977,-0.10848029760050096,1.054585303105825,0.32424043258533025,-0.3924570807364948,-2.1534860443416055,0.8647940561970073,2.4658834400574365,0.5444889196952071,1.0544104758940245,0.3238615046091247,-0.39250456234122666,-2.153291787532338,0.8647539153680389,2.46587817577521,0.5445020185570556,-0.0005152461152760337,0.0008109162918211626,-1.0602033425046381e-05,-0.0005694064773710949,-0.00037044865912045906,-9.622343173357257e-05,-0.00029941103348111954,0.0,0.0,0.0,0.0,0.0,0.0,0.0,-0.00017482721180051009,-0.0003789279762055342,-4.748160473183605e-05,0.00019425680926765665,-4.0140828968415754e-05,-5.2642822265802636e-06,1.3098861848526155e-05,0.0005152461152760337,-0.0008109162918211626,1.0602033425046381e-05,0.0005694064773710949,0.00037044865912045906,9.622343173357257e-05,0.00029941103348111954,0.5021602511405945,34.23751449584961,3.9497954845428467,-19.586824417114258,-0.1476951241493225,-1.815799355506897,0.10470907390117645,0
45,0.22002339363098145,-0.5299312472343445,-34.21371078491211,-3.9497954845428467,19.535249710083008,0.1412864327430725,1.802981972694397,-0.13217489421367645,0.0,0.0,0.0,0.0,0.0,0.0,0.0,-0.5253581138790725,-0.1354052688242981,-0.38370736469548944,0.5457020308876157,0.08557972045557699,-0.09009880454792576,-0.10904092039250596,1.0545851206917873,0.3242386841962317,-0.3924570807364948,-2.1534832727309556,0.8647947682738303,2.4658848642110827,0.5444916138816857,1.0544104758940245,0.3238615046091247,-0.39250456234122666,-2.153291787532338,0.8647539153680389,2.46587817577521,0.5445020185570556,8.09752584327464e-05,0.0001626541312748868,-0.0002746671007154586,0.0008499570392680722,5.739140849199658e-05,0.00027972753544629875,0.001196950206159103,0.0,0.0,0.0,0.0,0.0,0.0,0.0,-0.00017464479776285735,-0.0003771795871069794,-4.748160473183605e-05,0.00019148519861778013,-4.085290579136647e-05,-6.688435872703735e-06,1.0404675369946048e-05,-8.09752584327464e-05,-0.0001626541312748868,0.0002746671007154586,-0.0008499570392680722,-5.739140849199658e-05,-0.00027972753544629875,-0.001196950206159103,0.5299312472343445,34.21371078491211,3.9497954845428467,-19.535249710083008,-0.1412864327430725,-1.802981972694397,0.13217489421367645,0
46,0.225006103515625,-0.5299312472343445,-34.21371078491211,-3.9497954845428467,19.535249710083008,0.1412864327430725,1.802981972694397,-0.13217489421367645,0.0,0.0,0.0,0.0,0.0,0.0,0.0,-0.5253581138790725,-0.1354052688242981,-0.38370736469548944,0.5457020308876157,0.08557972045557699,-0.09009880454792576,-0.10904092039250596,1.0545851206917873,0.3242386841962317,-0.3924570807364948,-2.1534832727309556,0.8647947682738303,2.4658848642110827,0.5444916138816857,1.0544104758940245,0.3238615046091247,-0.39250456234122666,-2.153291787532338,0.8647539153680389,2.46587817577521,0.5445020185570556,8.09752584327464e-05,0.0001626541312748868,-0.0002746671007154586,0.0008499570392680722,5.739140849199658e-05,0.00027972753544629875,0.001196950206159103,0.0,0.0,0.0,0.0,0.0,0.0,0.0,-0.00017464479776285735,-0.0003771795871069794,-4.748160473183605e-05,0.00019148519861778013,-4.085290579136647e-05,-6.688435872703735e-06,1.0404675369946048e-05,-8.09752584327464e-05,-0.0001626541312748868,0.0002746671007154586,-0.0008499570392680722,-5.739140849199658e-05,-0.00027972753544629875,-0.001196950206159103,0.5299312472343445,34.21371078491211,3.9497954845428467,-19.535249710083008,-0.1412864327430725,-1.802981972694397,0.13217489421367645,0
47,0.22995591163635254,-0.5299312472343445,-34.18990707397461,-3.9220244884490967,19.586824417114258,0.1357932686805725,1.815799355506897,-0.11111776530742645,0.0,0.0,0.0,0.0,0.0,0.0,0.0,-0.5187093413994337,-0.13347650078458922,-0.3800256225788434,0.5434832485908262,0.08598486001082808,-0.09167897318166143,-0.10865412228865175,1.0545850940797867,0.3242349028786033,-0.392459029578326,-2.153486068722568,0.8647953786253928,2.4658834386038864,0.5444892777518003,1.0544104758940245,0.3238615046091247,-0.39250456234122666,-2.153291787532338,0.8647539153680389,2.46587817577521,0.5445020185570556,2.2203181509370333e-05,-0.0006362434562059614,-0.0006870441845444243,-0.0005916585923855464,0.00011336540085063503,-9.32789295084599e-05,-9.469895467538208e-05,0.0,0.0,0.0,0.0,0.0,0.0,0.0,-0.00017461818576225419,-0.00037339826947857535,-4.553276290064634e-05,0.00019428119023023882,-4.146325735387979e-05,-5.2628286764111465e-06,1.2740805255262444e-05,-2.2203181509370333e-05,0.0006362434562059614,0.0006870441845444243,0.0005916585923855464,-0.00011336540085063503,9.32789295084599e-05,9.469895467538208e-05,0.5299312472343445,34.18990707397461,3.9220244884490967,-19.586824417114258,-0.1357932686805725,-1.815799355506897,0.11111776530742645,0
48,0.23499441146850586,-0.5299312472343445,-34.18990707397461,-3.9220244884490967,19.586824417114258,0.1357932686805725,1.815799355506897,-0.11111776530742645,0.0,0.0,0.0,0.0,0.0,0.0,0.0,-0.5187093413994337,-0.13347650078458922,-0.3800256225788434,0.5434832485908262,0.08598486001082808,-0.09167897318166143,-0.10865412228865175,1.0545850940797867,0.3242349028786033,-0.392459029578326,-2.153486068722568,0.8647953786253928,2.4658834386038864,0.5444892777518003,1.0544104758940245,0.3238615046091247,-0.39250456234122666,-2.153291787532338,0.8647539153680389,2.46587817577521,0.5445020185570556,2.2203181509370333e-05,-0.0006362434562059614,-0.0006870441845444243,-0.0005916585923855464,0.00011336540085063503,-9.32789295084599e-05,-9.469895467538208e-05,0.0,0.0,0.0,0.0,0.0,0.0,0.0,-0.00017461818576225419,-0.00037339826947857535,-4.553276290064634e-05,0.00019428119023023882,-4.146325735387979e-05,-5.2628286764111465e-06,1.2740805255262444e-05,-2.2203181509370333e-05,0.0006362434562059614,0.0006870441845444243,0.0005916585923855464,-0.00011336540085063503,9.32789295084599e-05,9.469895467538208e-05,0.5299312472343445,34.18990707397461,3.9220244884490967,-19.586824417114258,-0.1357932686805725,-1.815799355506897,0.11111776530742645,0
49,0.23999857902526855,-0.4783565402030945,-34.21371078491211,-3.9220244884490967,19.559053421020508,0.1357932686805725,1.809390664100647,-0.07724325358867645,0.0,0.0,0.0,0.0,0.0,0.0,0.0,-0.5189996918943351,-0.1312900802650674,-0.37871180529562537,0.5415941143298075,0.08571706724742317,-0.09210403147819662,-0.10827716147643772,1.0545814757830965,0.3242372714608951,-0.392459029578326,-2.1534843073840713,0.8647953655434406,2.4658841521342514,0.5444855134326683,1.0544104758940245,0.3238615046091247,-0.39250456234122666,-2.153291787532338,0.8647539153680389,2.46587817577521,0.5445020185570556,-0.0013508956149146669,0.00023637278053072896,-0.0007834271107326566,3.2563226190606494e-05,0.00021245024184425235,0.00010154440121158796,-0.000553516838730147,0.0,0.0,0.0,0.0,0.0,0.0,0.0,-0.0001709998890719877,-0.00037576685177037605,-4.553276290064634e-05,0.00019251985173340813,-4.14501754016916e-05,-5.976359041426349e-06,1.650512438733376e-05,0.0013508956149146669,-0.00023637278053072896,0.0007834271107326566,-3.2563226190606494e-05,-0.00021245024184425235,-0.00010154440121158796,0.000553516838730147,0.4783565402030945,34.21371078491211,3.9220244884490967,-19.559053421020508,-0.1357932686805725,-1.809390664100647,0.07724325358867645,0
50,0.2450122833251953,-0.4783565402030945,-34.21371078491211,-3.9220244884490967,19.559053421020508,0.1357932686805725,1.809390664100647,-0.07724325358867645,0.0,0.0,0.0,0.0,0.0,0.0,0.0,-0.5189996918943351,-0.1312900802650674,-0.37871180529562537,0.5415941143298075,0.08571706724742317,-0.09210403147819662,-0.10827716147643772,1.0545814757830965,0.3242372714608951,-0.392459029578326,-2.1534843073840713,0.8647953655434406,2.4658841521342514,0.5444855134326683,1.0544104758940245,0.3238615046091247,-0.39250456234122666,-2.153291787532338,0.8647539153680389,2.46587817577521,0.5445020185570556,-0.0013508956149146669,0.00023637278053072896,-0.0007834271107326566,3.2563226190606494e-05,0.00021245024184425235,0.00010154440121158796,-0.000553516838730147,0.0,0.0,0.0,0.0,0.0,0.0,0.0,-0.0001709998890719877,-0.00037576685177037605,-4.553276290064634e-05,0.00019251985173340813,-4.14501754016916e-05,-5.976359041426349e-06,1.650512438733376e-05,0.0013508956149146669,-0.00023637278053072896,0.0007834271107326566,-3.2563226190606494e-05,-0.00021245024184425235,-0.00010154440121158796,0.000553516838730147,0.4783565402030945,34.21371078491211,3.9220244884490967,-19.559053421020508,-0.1357932686805725,-1.809390664100647,0.07724325358867645,0
51,0.25000429153442383,-0.5299312472343445,-34.21371078491211,-3.9497954845428467,19.586824417114258,0.1357932686805725,1.815799355506897,-0.08365194499492645,0.0,0.0,0.0,0.0,0.0,0.0,0.0,-0.527074379947945,-0.12997193629395692,-0.38149110549175835,0.5405731425911311,0.08568780004096928,-0.0920139779570488,-0.10696539562107883,1.0545858093353904,0.32423656946250123,-0.3924570807364948,-2.153486115041173,0.8647953786251713,2.4658834400574365,0.5444865756536432,1.0544104758940245,0.3238615046091247,-0.39250456234122666,-2.153291787532338,0.8647539153680389,2.46587817577521,0.5445020185570556,-0.00018769126165106987,0.0005558897238242644,-0.00020674296569166427,-0.00046786777384388503,7.686045376496242e-05,-8.09402595255099e-05,-0.0008217470949822974,0.0,0.0,0.0,0.0,0.0,0.0,0.0,-0.00017533344136588802,-0.0003750648533765166,-4.748160473183605e-05,0.00019432750883519034,-4.1463257132390297e-05,-5.2642822265802636e-06,1.5442903412377085e-05,0.00018769126165106987,-0.0005558897238242644,0.00020674296569166427,0.00046786777384388503,-7.686045376496242e-05,8.09402595255099e-05,0.0008217470949822974,0.5299312472343445,34.21371078491211,3.9497954845428467,-19.586824417114258,-0.1357932686805725,-1.815799355506897,0.08365194499492645,0
52,0.2550323009490967,-0.5299312472343445,-34.21371078491211,-3.9497954845428467,19.586824417114258,0.1357932686805725,1.815799355506897,-0.08365194499492645,0.0,0.0,0.0,0.0,0.0,0.0,0.0,-0.527074379947945,-0.12997193629395692,-0.38149110549175835,0.5405731425911311,0.08568780004096928,-0.0920139779570488,-0.10696539562107883,1.0545858093353904,0.32423656946250123,-0.3924570807364948,-2.153486115041173,0.8647953786251713,2.4658834400574365,0.5444865756536432,1.0544104758940245,0.3238615046091247,-0.39250456234122666,-2.153291787532338,0.8647539153680389,2.46587817577521,0.5445020185570556,-0.00018769126165106987,0.0005558897238242644,-0.00020674296569166427,-0.00046786777384388503,7.686045376496242e-05,-8.09402595255099e-05,-0.0008217470949822974,0.0,0.0,0.0,0.0,0.0,0.0,0.0,-0.00017533344136588802,-0.0003750648533765166,-4.748160473183605e-05,0.00019432750883519034,-4.1463257132390297e-05,-5.2642822265802636e-06,1.5442903412377085e-05,0.00018769126165106987,-0.0005558897238242644,0.00020674296569166427,0.00046786777384388503,-7.686045376496242e-05,8.09402595255099e-05,0.0008217470949822974,0.5299312472343445,34.21371078491211,3.9497954845428467,-19.586824417114258,-0.1357932686805725,-1.815799355506897,0.08365194499492645,0
53,0.26012396812438965,-0.5299312472343445,-34.18990707397461,-3.9497954845428467,19.559053421020508,0.1412864327430725,1.815799355506897,-0.13858358561992645,0.0,0.0,0.0,0.0,0.0,0.0,0.0,-0.5308525683859117,-0.12782819292422065,-0.3814479039453798,0.5393287688657856,0.08531224630758902,-0.09230524301976782,-0.10651614578728827,1.054586074248944,0.32423497715856076,-0.3924570807364948,-2.1534841033058783,0.8647947682738303,2.4658834400574365,0.5444923245049338,1.0544104758940245,0.3238615046091247,-0.39250456234122666,-2.153291787532338,0.8647539153680389,2.46587817577521,0.5445020185570556,-0.00039843247500429056,-1.7359663389779105e-05,-8.559747317526481e-05,-0.0004322079812689451,-6.1900967888002785e-06,-0.00013211446251175997,0.00154384696699191,0.0,0.0,0.0,0.0,0.0,0.0,0.0,-0.00017559835491942621,-0.000373472549436038,-4.748160473183605e-05,0.00019231577354039686,-4.085290579136647e-05,-5.2642822265802636e-06,9.694052121811403e-06,0.00039843247500429056,1.7359663389779105e-05,8.559747317526481e-05,0.0004322079812689451,6.1900967888002785e-06,0.00013211446251175997,-0.00154384696699191,0.5299312472343445,34.18990707397461,3.9497954845428467,-19.559053421020508,-0.1412864327430725,-1.815799355506897,0.13858358561992645,0
54,0.2649970054626465,-0.5299312472343445,-34.18990707397461,-3.9497954845428467,19.559053421020508,0.1412864327430725,1.815799355506897,-0.13858358561992645,0.0,0.0,0.0,0.0,0.0,0.0,0.0,-0.5308525683859117,-0.12782819292422065,-0.3814479039453798,0.5393287688657856,0.08531224630758902,-0.09230524301976782,-0.10651614578728827,1.054586074248944,0.32423497715856076,-0.3924570807364948,-2.1534841033058783,0.8647947682738303,2.4658834400574365,0.5444923245049338,1.0544104758940245,0.3238615046091247,-0.39250456234122666,-2.153291787532338,0.8647539153680389,2.46587817577521,0.5445020185570556,-0.00039843247500429056,-1.7359663389779105e-05,-8.559747317526481e-05,-0.0004322079812689451,-6.1900967888002785e-06,-0.00013211446251175997,0.00154384696699191,0.0,0.0,0.0,0.0,0.0,0.0,0.0,-0.00017559835491942621,-0.000373472549436038,-4.748160473183605e-05,0.00019231577354039686,-4.085290579136647e-05,-5.2642822265802636e-06,9.694052121811403e-06,0.00039843247500429056,1.7359663389779105e-05,8.559747317526481e-05,0.0004322079812689451,6.1900967888002785e-06,0.00013211446251175997,-0.00154384696699191,0.5299312472343445,34.18990707397461,3.9497954845428467,-19.559053421020508,-0.1412864327430725,-1.815799355506897,0.13858358561992645,0
55,0.26999640464782715,-0.5299312472343445,-34.18990707397461,-3.9497954845428467,19.559053421020508,0.1357932686805725,1.809390664100647,-0.12485067546367645,0.0,0.0,0.0,0.0,0.0,0.0,0.0,-0.5173864898968985,-0.13167551624507695,-0.36794212908884755,0.5465467757429172,0.08486319985379656,-0.0928317243137978,-0.10733016978604709,1.0545854120129472,0.3242356010254592,-0.3924570807364948,-2.153484096619192,0.8647953786253928,2.4658841128884026,0.5444939775384134,1.0544104758940245,0.3238615046091247,-0.39250456234122666,-2.153291787532338,0.8647539153680389,2.46587817577521,0.5445020185570556,0.0004883008649173116,-0.00015948650023837562,0.0004938962134548269,0.0004951885109822028,8.366211821082607e-05,1.2537533145700072e-05,0.00028803336038015897,0.0,0.0,0.0,0.0,0.0,0.0,0.0,-0.00017493611892271943,-0.00037409641633445734,-4.748160473183605e-05,0.0001923090868540811,-4.146325735387979e-05,-5.937113192633348e-06,8.04101864215756e-06,-0.0004883008649173116,0.00015948650023837562,-0.0004938962134548269,-0.0004951885109822028,-8.366211821082607e-05,-1.2537533145700072e-05,-0.00028803336038015897,0.5299312472343445,34.18990707397461,3.9497954845428467,-19.559053421020508,-0.1357932686805725,-1.809390664100647,0.12485067546367645,0
56,0.2749612331390381,-0.5299312472343445,-34.18990707397461,-3.9497954845428467,19.559053421020508,0.1357932686805725,1.809390664100647,-0.12485067546367645,0.0,0.0,0.0,0.0,0.0,0.0,0.0,-0.5173864898968985,-0.13167551624507695,-0.36794212908884755,0.5465467757429172,0.08486319985379656,-0.0928317243137978,-0.10733016978604709,1.0545854120129472,0.3242356010254592,-0.3924570807364948,-2.153484096619192,0.8647953786253928,2.4658841128884026,0.5444939775384134,1.0544104758940245,0.3238615046091247,-0.39250456234122666,-2.153291787532338,0.8647539153680389,2.46587817577521,0.5445020185570556,0.0004883008649173116,-0.00015948650023837562,0.0004938962134548269,0.0004951885109822028,8.366211821082607e-05,1.2537533145700072e-05,0.00028803336038015897,0.0,0.0,0.0,0.0,0.0,0.0,0.0,-0.00017493611892271943,-0.00037409641633445734,-4.748160473183605e-05,0.0001923090868540811,-4.146325735387979e-05,-5.937113192633348e-06,8.04101864215756e-06,-0.0004883008649173116,0.00015948650023837562,-0.0004938962134548269,-0.0004951885109822028,-8.366211821082607e-05,-1.2537533145700072e-05,-0.00028803336038015897,0.5299312472343445,34.18990707397461,3.9497954845428467,-19.559053421020508,-0.1357932686805725,-1.809390664100647,0.12485067546367645,0
57,0.2799992561340332,-0.5021602511405945,-34.23751449584961,-3.9220244884490967,19.535249710083008,0.1412864327430725,1.796573281288147,-0.10470907390117645,0.0,0.0,0.0,0.0,0.0,0.0,0.0,-0.5328496457276005,-0.13436255834812766,-0.38305709070181454,0.5460526152305046,0.08583573248086233,-0.0916692395495415,-0.10935561827764534,1.0545833840942445,0.32424034592121287,-0.392459029578326,-2.153482427636849,0.8647947682738303,2.465885576287684,0.5444885652083976,1.0544104758940245,0.3238615046091247,-0.39250456234122666,-2.153291787532338,0.8647539153680389,2.46587817577521,0.5445020185570556,-0.0004126214265137406,0.0005158444687263072,-0.0007207745823183929,0.0005420461863561839,-6.763862946820566e-05,0.0005807174637751833,-0.00036545748740702036,0.0,0.0,0.0,0.0,0.0,0.0,0.0,-0.00017290820021997888,-0.00037884131208815175,-4.553276290064634e-05,0.00019064010451108615,-4.085290579136647e-05,-7.400512473942911e-06,1.3453348657987974e-05,0.0004126214265137406,-0.0005158444687263072,0.0007207745823183929,-0.0005420461863561839,6.763862946820566e-05,-0.0005807174637751833,0.00036545748740702036,0.5021602511405945,34.23751449584961,3.9220244884490967,-19.535249710083008,-0.1412864327430725,-1.796573281288147,0.10470907390117645,0
58,0.28500866889953613,-0.5021602511405945,-34.23751449584961,-3.9220244884490967,19.535249710083008,0.1412864327430725,1.796573281288147,-0.10470907390117645,0.0,0.0,0.0,0.0,0.0,0.0,0.0,-0.5328496457276005,-0.13436255834812766,-0.38305709070181454,0.5460526152305046,0.08583573248086233,-0.0916692395495415,-0.10935561827764534,1.0545833840942445,0.32424034592121287,-0.392459029578326,-2.153482427636849,0.8647947682738303,2.465885576287684,0.5444885652083976,1.0544104758940245,0.3238615046091247,-0.39250456234122666,-2.153291787532338,0.8647539153680389,2.46587817577521,0.5445020185570556,-0.0004126214265137406,0.0005158444687263072,-0.0007207745823183929,0.0005420461863561839,-6.763862946820566e-05,0.0005807174637751833,-0.00036545748740702036,0.0,0.0,0.0,0.0,0.0,0.0,0.0,-0.00017290820021997888,-0.00037884131208815175,-4.553276290064634e-05,0.00019064010451108615,-4.085290579136647e-05,-7.400512473942911e-06,1.3453348657987974e-05,0.0004126214265137406,-0.0005158444687263072,0.0007207745823183929,-0.0005420461863561839,6.763862946820566e-05,-0.0005807174637751833,0.00036545748740702036,0.5021602511405945,34.23751449584961,3.9220244884490967,-19.535249710083008,-0.1412864327430725,-1.796573281288147,0.10470907390117645,0
59,0.2900099754333496,-0.5299312472343445,-34.23751449584961,-3.9497954845428467,19.610628128051758,0.1293845772743225,1.828616738319397,-0.13217489421367645,0.0,0.0,0.0,0.0,0.0,0.0,0.0,-0.5253860914118541,-0.12815861001432266,-0.37853308610678926,0.541586254990001,0.08540954707629726,-0.09253951618757432,-0.11066217257689542,1.054585209856262,0.3242382411823259,-0.3924570807364948,-2.153488562444512,0.8647960907022157,2.465882015903791,0.5444958509786517,1.0544104758940245,0.3238615046091247,-0.39250456234122666,-2.153291787532338,0.8647539153680389,2.46587817577521,0.5445020185570556,0.00015564861100787807,0.0008916538672029378,0.0005683897880361185,-0.0013194916270845034,0.0003154571574744724,-0.0004633333107462828,0.0014264697759805935,0.0,0.0,0.0,0.0,0.0,0.0,0.0,-0.0001747339622375499,-0.00037673657320119736,-4.748160473183605e-05,0.00019677491217429122,-4.2175334176830503e-05,-3.840128580900881e-06,6.167578403881713e-06,-0.00015564861100787807,-0.0008916538672029378,-0.0005683897880361185,0.0013194916270845034,-0.0003154571574744724,0.0004633333107462828,-0.0014264697759805935,0.5299312472343445,34.23751449584961,3.9497954845428467,-19.610628128051758,-0.1293845772743225,-1.828616738319397,0.13217489421367645,0
60,0.29511237144470215,-0.5299312472343445,-34.23751449584961,-3.9497954845428467,19.610628128051758,0.1293845772743225,1.828616738319397,-0.13217489421367645,0.0,0.0,0.0,0.0,0.0,0.0,0.0,-0.5253860914118541,-0.12815861001432266,-0.37853308610678926,0.541586254990001,0.08540954707629726,-0.09253951618757432,-0.11066217257689542,1.054585209856262,0.3242382411823259,-0.3924570807364948,-2.153488562444512,0.8647960907022157,2.465882015903791,0.5444958509786517,1.0544104758940245,0.3238615046091247,-0.39250456234122666,-2.153291787532338,0.8647539153680389,2.46587817577521,0.5445020185570556,0.00015564861100787807,0.0008916538672029378,0.0005683897880361185,-0.0013194916270845034,0.0003154571574744724,-0.0004633333107462828,0.0014264697759805935,0.0,0.0,0.0,0.0,0.0,0.0,0.0,-0.0001747339622375499,-0.00037673657320119736,-4.748160473183605e-05,0.00019677491217429122,-4.2175334176830503e-05,-3.840128580900881e-06,6.167578403881713e-06,-0.00015564861100787807,-0.0008916538672029378,-0.0005683897880361185,0.0013194916270845034,-0.0003154571574744724,0.0004633333107462828,-0.0014264697759805935,0.5299312472343445,34.23751449584961,3.9497954845428467,-19.610628128051758,-0.1293845772743225,-1.828616738319397,0.13217489421367645,0
61,0.29994821548461914,-0.5299312472343445,-34.23751449584961,-3.9497954845428467,19.610628128051758,0.1293845772743225,1.828616738319397,-0.13217489421367645,0.0,0.0,0.0,0.0,0.0,0.0,0.0,-0.5253860914118541,-0.12815861001432266,-0.37853308610678926,0.541586254990001,0.08540954707629726,-0.09253951618757432,-0.11066217257689542,1.054585209856262,0.3242382411823259,-0.3924570807364948,-2.153488562444512,0.8647960907022157,2.465882015903791,0.5444958509786517,1.0544104758940245,0.3238615046091247,-0.39250456234122666,-2.153291787532338,0.8647539153680389,2.46587817577521,0.5445020185570556,0.00015564861100787807,0.0008916538672029378,0.0005683897880361185,-0.0013194916270845034,0.0003154571574744724,-0.0004633333107462828,0.0014264697759805935,0.0,0.0,0.0,0.0,0.0,0.0,0.0,-0.0001747339622375499,-0.00037673657320119736,-4.748160473183605e-05,0.00019677491217429122,-4.2175334176830503e-05,-3.840128580900881e-06,6.167578403881713e-06,-0.00015564861100787807,-0.0008916538672029378,-0.0005683897880361185,0.0013194916270845034,-0.0003154571574744724,0.0004633333107462828,-0.0014264697759805935,0.5299312472343445,34.23751449584961,3.9497954845428467,-19.610628128051758,-0.1293845772743225,-1.828616738319397,0.13217489421367645,0
62,0.30499267578125,-0.5299312472343445,-34.23751449584961,-3.9497954845428467,19.610628128051758,0.1293845772743225,1.828616738319397,-0.13217489421367645,0.0,0.0,0.0,0.0,0.0,0.0,0.0,-0.5253860914118541,-0.12815861001432266,-0.37853308610678926,0.541586254990001,0.08540954707629726,-0.09253951618757432,-0.11066217257689542,1.054585209856262,0.3242382411823259,-0.3924570807364948,-2.153488562444512,0.8647960907022157,2.465882015903791,0.5444958509786517,1.0544104758940245,0.3238615046091247,-0.39250456234122666,-2.153291787532338,0.8647539153680389,2.46587817577521,0.5445020185570556,0.00015564861100787807,0.0008916538672029378,0.0005683897880361185,-0.0013194916270845034,0.0003154571574744724,-0.0004633333107462828,0.0014264697759805935,0.0,0.0,0.0,0.0,0.0,0.0,0.0,-0.0001747339622375499,-0.00037673657320119736,-4.748160473183605e-05,0.00019677491217429122,-4.2175334176830503e-05,-3.840128580900881e-06,6.167578403881713e-06,-0.00015564861100787807,-0.0008916538672029378,-0.0005683897880361185,0.0013194916270845034,-0.0003154571574744724,0.0004633333107462828,-0.0014264697759805935,0.5299312472343445,34.23751449584961,3.9497954845428467,-19.610628128051758,-0.1293845772743225,-1.828616738319397,0.13217489421367645,0
63,0.31000423431396484,-0.5299312472343445,-34.18990707397461,-3.9497954845428467,19.535249710083008,0.1412864327430725,1.822208046913147,-0.10470907390117645,0.0,0.0,0.0,0.0,0.0,0.0,0.0,-0.5204146611643479,-0.1302318869130896,-0.37264238639138,0.5429361696885749,0.08483482621746234,-0.09195605715474003,-0.11028756767857754,1.0545853324988692,0.32423700508121256,-0.3924570807364948,-2.153482425122141,0.8647947682738303,2.4658827279806137,0.544491739606611,1.0544104758940245,0.3238615046091247,-0.39250456234122666,-2.153291787532338,0.8647539153680389,2.46587817577521,0.5445020185570556,0.00047477702248167474,-0.0003483863818090266,0.0001944288381651995,0.0008435908415904301,-4.036060897889293e-05,-0.00019267436969480184,-0.0004529669532729768,0.0,0.0,0.0,0.0,0.0,0.0,0.0,-0.00017485660484473087,-0.0003755004720878419,-4.748160473183605e-05,0.00019063758980308876,-4.085290579136647e-05,-4.552205403740572e-06,1.0278950444586599e-05,-0.00047477702248167474,0.0003483863818090266,-0.0001944288381651995,-0.0008435908415904301,4.036060897889293e-05,0.00019267436969480184,0.0004529669532729768,0.5299312472343445,34.18990707397461,3.9497954845428467,-19.535249710083008,-0.1412864327430725,-1.822208046913147,0.10470907390117645,0
64,0.315004825592041,-0.5299312472343445,-34.18990707397461,-3.9497954845428467,19.535249710083008,0.1412864327430725,1.822208046913147,-0.10470907390117645,0.0,0.0,0.0,0.0,0.0,0.0,0.0,-0.5204146611643479,-0.1302318869130896,-0.37264238639138,0.5429361696885749,0.08483482621746234,-0.09195605715474003,-0.11028756767857754,1.0545853324988692,0.32423700508121256,-0.3924570807364948,-2.153482425122141,0.8647947682738303,2.4658827279806137,0.544491739606611,1.0544104758940245,0.3238615046091247,-0.39250456234122666,-2.153291787532338,0.8647539153680389,2.46587817577521,0.5445020185570556,0.00047477702248167474,-0.0003483863818090266,0.0001944288381651995,0.0008435908415904301,-4.036060897889293e-05,-0.00019267436969480184,-0.0004529669532729768,0.0,0.0,0.0,0.0,0.0,0.0,0.0,-0.00017485660484473087,-0.0003755004720878419,-4.748160473183605e-05,0.00019063758980308876,-4.085290579136647e-05,-4.552205403740572e-06,1.0278950444586599e-05,-0.00047477702248167474,0.0003483863818090266,-0.0001944288381651995,-0.0008435908415904301,4.036060897889293e-05,0.00019267436969480184,0.0004529669532729768,0.5299312472343445,34.18990707397461,3.9497954845428467,-19.535249710083008,-0.1412864327430725,-1.822208046913147,0.10470907390117645,0
65,0.3199954032897949,-0.4783565402030945,-34.21371078491211,-3.9220244884490967,19.610628128051758,0.1412864327430725,1.809390664100647,-0.09738485515117645,0.0,0.0,0.0,0.0,0.0,0.0,0.0,-0.5263327955417936,-0.13323767724886706,-0.3783567678821575,0.5436860612724237,0.08529155847488536,-0.09074698864485367,-0.1100973362187676,1.0545843358262452,0.3242366474636415,-0.392459029578326,-2.153487714863199,0.8647947682738303,2.4658841521342594,0.544487746884158,1.0544104758940245,0.3238615046091247,-0.39250456234122666,-2.153291787532338,0.8647539153680389,2.46587817577521,0.5445020185570556,-0.001433563540448264,0.00010294235314264632,-0.0004585435070800127,-0.0010883750595219906,-0.0001793372729675144,4.909594724079462e-05,-0.00031395561481801923,0.0,0.0,0.0,0.0,0.0,0.0,0.0,-0.00017385993222074347,-0.00037514285451678564,-4.553276290064634e-05,0.00019592733086115643,-4.085290579136647e-05,-5.976359049419955e-06,1.4271672897581134e-05,0.001433563540448264,-0.00010294235314264632,0.0004585435070800127,0.0010883750595219906,0.0001793372729675144,-4.909594724079462e-05,0.00031395561481801923,0.4783565402030945,34.21371078491211,3.9220244884490967,-19.610628128051758,-0.1412864327430725,-1.809390664100647,0.09738485515117645,0
66,0.32495570182800293,-0.4783565402030945,-34.21371078491211,-3.9220244884490967,19.610628128051758,0.1412864327430725,1.809390664100647,-0.09738485515117645,0.0,0.0,0.0,0.0,0.0,0.0,0.0,-0.5263327955417936,-0.13323767724886706,-0.3783567678821575,0.5436860612724237,0.08529155847488536,-0.09074698864485367,-0.1100973362187676,1.0545843358262452,0.3242366474636415,-0.392459029578326,-2.153487714863199,0.8647947682738303,2.4658841521342594,0.544487746884158,1.0544104758940245,0.3238615046091247,-0.39250456234122666,-2.153291787532338,0.8647539153680389,2.46587817577521,0.5445020185570556,-0.001433563540448264,0.00010294235314264632,-0.0004585435070800127,-0.0010883750595219906,-0.0001793372729675144,4.909594724079462e-05,-0.00031395561481801923,0.0,0.0,0.0,0.0,0.0,0.0,0.0,-0.00017385993222074347,-0.00037514285451678564,-4.553276290064634e-05,0.00019592733086115643,-4.085290579136647e-05,-5.976359049419955e-06,1.4271672897581134e-05,0.001433563540448264,-0.00010294235314264632,0.0004585435070800127,0.0010883750595219906,0.0001793372729675144,-4.909594724079462e-05,0.00031395561481801923,0.4783565402030945,34.21371078491211,3.9220244884490967,-19.610628128051758,-0.1412864327430725,-1.809390664100647,0.09738485515117645,0
67,0.32999205589294434,-0.5537349581718445,-34.21371078491211,-3.9497954845428467,19.559053421020508,0.1476951241493225,1.822208046913147,-0.11844198405742645,0.0,0.0,0.0,0.0,0.0,0.0,0.0,-0.47579037256396584,-0.11906829792012559,-0.33074907584025637,0.5383713985441084,0.08357353910735668,-0.09546002867954632,-0.10895109467626723,1.0545867646406588,0.32423659577242536,-0.3924570807364948,-2.1534866385878186,0.8647941739345772,2.4658827279806137,0.5444904397599124,1.0544104758940245,0.3238615046091247,-0.39250456234122666,-2.153291787532338,0.8647539153680389,2.46587817577521,0.5445020185570556,0.0005857806062511104,0.0005559982677517931,-0.002317609444551459,-3.6343895584956605e-05,-0.0003876918037652344,-0.00043605563787183583,0.0003812756261973259,0.0,0.0,0.0,0.0,0.0,0.0,0.0,-0.00017628874663433436,-0.00037509116330064485,-4.748160473183605e-05,0.00019485105548078252,-4.0258566538331486e-05,-4.552205403740572e-06,1.1578797143196873e-05,-0.0005857806062511104,-0.0005559982677517931,0.002317609444551459,3.6343895584956605e-05,0.0003876918037652344,0.00043605563787183583,-0.0003812756261973259,0.5537349581718445,34.21371078491211,3.9497954845428467,-19.559053421020508,-0.1476951241493225,-1.822208046913147,0.11844198405742645,0
68,0.3350076675415039,-0.5537349581718445,-34.21371078491211,-3.9497954845428467,19.559053421020508,0.1476951241493225,1.822208046913147,-0.11844198405742645,0.0,0.0,0.0,0.0,0.0,0.0,0.0,-0.47579037256396584,-0.11906829792012559,-0.33074907584025637,0.5383713985441084,0.08357353910735668,-0.09546002867954632,-0.10895109467626723,1.0545867646406588,0.32423659577242536,-0.3924570807364948,-2.1534866385878186,0.8647941739345772,2.4658827279806137,0.5444904397599124,1.0544104758940245,0.3238615046091247,-0.39250456234122666,-2.153291787532338,0.8647539153680389,2.46587817577521,0.5445020185570556,0.0005857806062511104,0.0005559982677517931,-0.002317609444551459,-3.6343895584956605e-05,-0.0003876918037652344,-0.00043605563787183583,0.0003812756261973259,0.0,0.0,0.0,0.0,0.0,0.0,0.0,-0.00017628874663433436,-0.00037509116330064485,-4.748160473183605e-05,0.00019485105548078252,-4.0258566538331486e-05,-4.552205403740572e-06,1.1578797143196873e-05,-0.0005857806062511104,-0.0005559982677517931,0.002317609444551459,3.6343895584956605e-05,0.0003876918037652344,0.00043605563787183583,-0.0003812756261973259,0.5537349581718445,34.21371078491211,3.9497954845428467,-19.559053421020508,-0.1476951241493225,-1.822208046913147,0.11844198405742645,0
69,0.34002685546875,-0.5021602511405945,-34.18990707397461,-3.9497954845428467,19.535249710083008,0.1293845772743225,1.809390664100647,-0.09738485515117645,0.0,0.0,0.0,0.0,0.0,0.0,0.0,-0.5108837570363214,-0.12979010772687738,-0.36450722512815015,0.5408113845722237,0.08553719787367459,-0.09156809799620373,-0.10727041464468243,1.0545839399785157,0.32423490768160024,-0.3924570807364948,-2.1534824485835182,0.8647960907024372,2.4658841521342594,0.5444877861127342,1.0544104758940245,0.3238615046091247,-0.39250456234122666,-2.153291787532338,0.8647539153680389,2.46587817577521,0.5445020185570556,-0.0002861277162422286,-0.0002491698260058238,-0.00031025766985125994,0.0005541241304130751,0.000522623158986715,0.0003188967368158301,-0.0002489672109488621,0.0,0.0,0.0,0.0,0.0,0.0,0.0,-0.00017346408449125938,-0.00037340307247551996,-4.748160473183605e-05,0.00019066105118037413,-4.217533439832e-05,-5.976359049419955e-06,1.4232444321415905e-05,0.0002861277162422286,0.0002491698260058238,0.00031025766985125994,-0.0005541241304130751,-0.000522623158986715,-0.0003188967368158301,0.0002489672109488621,0.5021602511405945,34.18990707397461,3.9497954845428467,-19.535249710083008,-0.1293845772743225,-1.809390664100647,0.09738485515117645,0
70,0.34500837326049805,-0.5021602511405945,-34.18990707397461,-3.9497954845428467,19.535249710083008,0.1293845772743225,1.809390664100647,-0.09738485515117645,0.0,0.0,0.0,0.0,0.0,0.0,0.0,-0.5108837570363214,-0.12979010772687738,-0.36450722512815015,0.5408113845722237,0.08553719787367459,-0.09156809799620373,-0.10727041464468243,1.0545839399785157,0.32423490768160024,-0.3924570807364948,-2.1534824485835182,0.8647960907024372,2.4658841521342594,0.5444877861127342,1.0544104758940245,0.3238615046091247,-0.39250456234122666,-2.153291787532338,0.8647539153680389,2.46587817577521,0.5445020185570556,-0.0002861277162422286,-0.0002491698260058238,-0.00031025766985125994,0.0005541241304130751,0.000522623158986715,0.0003188967368158301,-0.0002489672109488621,0.0,0.0,0.0,0.0,0.0,0.0,0.0,-0.00017346408449125938,-0.00037340307247551996,-4.748160473183605e-05,0.00019066105118037413,-4.217533439832e-05,-5.976359049419955e-06,1.4232444321415905e-05,0.0002861277162422286,0.0002491698260058238,0.00031025766985125994,-0.0005541241304130751,-0.000522623158986715,-0.0003188967368158301,0.0002489672109488621,0.5021602511405945,34.18990707397461,3.9497954845428467,-19.535249710083008,-0.1293845772743225,-1.809390664100647,0.09738485515117645,0
71,0.3500056266784668,-0.5537349581718445,-34.18990707397461,-3.9220244884490967,19.559053421020508,0.1412864327430725,1.815799355506897,-0.06991903483867645,0.0,0.0,0.0,0.0,0.0,0.0,0.0,-0.5344724327345399,-0.13500138431721456,-0.38881486546542166,0.539655907860501,0.08715426701230329,-0.08844988496757328,-0.10705326908273582,1.054589652142897,0.3242348990148063,-0.392459029578326,-2.1534860743197455,0.8647947682738303,2.4658834400574365,0.5444846994692727,1.0544104758940245,0.3238615046091247,-0.39250456234122666,-2.153291787532338,0.8647539153680389,2.46587817577521,0.5445020185570556,0.0007045545925591677,-0.0005112115874230694,-0.0003302831178829287,-0.0002271255587755347,0.0001549883912864422,-3.77562788377563e-05,-0.00131276871252395,0.0,0.0,0.0,0.0,0.0,0.0,0.0,-0.0001791762488725368,-0.0003733944056815708,-4.553276290064634e-05,0.00019428678740762706,-4.085290579136647e-05,-5.2642822265802636e-06,1.7319087782907694e-05,-0.0007045545925591677,0.0005112115874230694,0.0003302831178829287,0.0002271255587755347,-0.0001549883912864422,3.77562788377563e-05,0.00131276871252395,0.5537349581718445,34.18990707397461,3.9220244884490967,-19.559053421020508,-0.1412864327430725,-1.815799355506897,0.06991903483867645,0
72,0.3549952507019043,-0.5537349581718445,-34.18990707397461,-3.9220244884490967,19.559053421020508,0.1412864327430725,1.815799355506897,-0.06991903483867645,0.0,0.0,0.0,0.0,0.0,0.0,0.0,-0.5344724327345399,-0.13500138431721456,-0.38881486546542166,0.539655907860501,0.08715426701230329,-0.08844988496757328,-0.10705326908273582,1.054589652142897,0.3242348990148063,-0.392459029578326,-2.1534860743197455,0.8647947682738303,2.4658834400574365,0.5444846994692727,1.0544104758940245,0.3238615046091247,-0.39250456234122666,-2.153291787532338,0.8647539153680389,2.46587817577521,0.5445020185570556,0.0007045545925591677,-0.0005112115874230694,-0.0003302831178829287,-0.0002271255587755347,0.0001549883912864422,-3.77562788377563e-05,-0.00131276871252395,0.0,0.0,0.0,0.0,0.0,0.0,0.0,-0.0001791762488725368,-0.0003733944056815708,-4.553276290064634e-05,0.00019428678740762706,-4.085290579136647e-05,-5.2642822265802636e-06,1.7319087782907694e-05,-0.0007045545925591677,0.0005112115874230694,0.0003302831178829287,0.0002271255587755347,-0.0001549883912864422,3.77562788377563e-05,0.00131276871252395,0.5537349581718445,34.18990707397461,3.9220244884490967,-19.559053421020508,-0.1412864327430725,-1.815799355506897,0.06991903483867645,0
73,0.359999418258667,-0.5021602511405945,-34.21371078491211,-3.9220244884490967,19.586824417114258,0.1476951241493225,1.815799355506897,-0.13217489421367645,0.0,0.0,0.0,0.0,0.0,0.0,0.0,-0.5360981402209332,-0.1357221059172582,-0.39107974568926074,0.5401220725299215,0.0874359636980273,-0.08755203788142472,-0.1064711566149601,1.054583145290445,0.3242366474517527,-0.392459029578326,-2.1534860446969226,0.8647940561970073,2.4658834400574365,0.5444916124261333,1.0544104758940245,0.3238615046091247,-0.39250456234122666,-2.153291787532338,0.8647539153680389,2.46587817577521,0.5445020185570556,-0.00047241835699286534,-3.496290764793212e-05,-0.0003287352656590277,-0.0003911937737144926,-0.00039459197422614617,9.223755577731506e-05,0.001428715697566151,0.0,0.0,0.0,0.0,0.0,0.0,0.0,-0.00017266939642057721,-0.0003751428426279624,-4.553276290064634e-05,0.00019425716458476572,-4.0140828968415754e-05,-5.2642822265802636e-06,1.0406130922291368e-05,0.00047241835699286534,3.496290764793212e-05,0.0003287352656590277,0.0003911937737144926,0.00039459197422614617,-9.223755577731506e-05,-0.001428715697566151,0.5021602511405945,34.21371078491211,3.9220244884490967,-19.586824417114258,-0.1476951241493225,-1.815799355506897,0.13217489421367645,0
74,0.36499476432800293,-0.5021602511405945,-34.21371078491211,-3.9220244884490967,19.586824417114258,0.1476951241493225,1.815799355506897,-0.13217489421367645,0.0,0.0,0.0,0.0,0.0,0.0,0.0,-0.5360981402209332,-0.1357221059172582,-0.39107974568926074,0.5401220725299215,0.0874359636980273,-0.08755203788142472,-0.1064711566149601,1.054583145290445,0.3242366474517527,-0.392459029578326,-2.1534860446969226,0.8647940561970073,2.4658834400574365,0.5444916124261333,1.0544104758940245,0.3238615046091247,-0.39250456234122666,-2.153291787532338,0.8647539153680389,2.46587817577521,0.5445020185570556,-0.00047241835699286534,-3.496290764793212e-05,-0.0003287352656590277,-0.0003911937737144926,-0.00039459197422614617,9.223755577731506e-05,0.001428715697566151,0.0,0.0,0.0,0.0,0.0,0.0,0.0,-0.00017266939642057721,-0.0003751428426279624,-4.553276290064634e-05,0.00019425716458476572,-4.0140828968415754e-05,-5.2642822265802636e-06,1.0406130922291368e-05,0.00047241835699286534,3.496290764793212e-05,0.0003287352656590277,0.0003911937737144926,0.00039459197422614617,-9.223755577731506e-05,-0.001428715697566151,0.5021602511405945,34.21371078491211,3.9220244884490967,-19.586824417114258,-0.1476951241493225,-1.815799355506897,0.13217489421367645,0
75,0.3700082302093506,-0.5299312472343445,-34.21371078491211,-3.9220244884490967,19.586824417114258,0.1412864327430725,1.822208046913147,-0.10470907390117645,0.0,0.0,0.0,0.0,0.0,0.0,0.0,-0.5323140377493405,-0.13664427169468937,-0.38654592191900555,0.5381701864423095,0.08685811779268184,-0.087857620243639,-0.10592304437979314,1.0545872516206056,0.3242365697720453,-0.39245910905118575,-2.1534866803717283,0.8647947682738303,2.4658827279806137,0.5444885606682963,1.0544104758940245,0.3238615046091247,-0.39250456234122666,-2.153291787532338,0.8647539153680389,2.46587817577521,0.5445020185570556,0.0003077272077523737,-0.00030612319089992954,-0.0008499928873557197,-0.0008502011620301623,-6.728060484187416e-05,-3.4029592522896066e-05,-0.00010217498025903353,0.0,0.0,0.0,0.0,0.0,0.0,0.0,-0.00017677572658114649,-0.0003750651629205737,-4.545329004090881e-05,0.0001948928393904481,-4.085290579136647e-05,-4.552205403740572e-06,1.3457888759282888e-05,-0.0003077272077523737,0.00030612319089992954,0.0008499928873557197,0.0008502011620301623,6.728060484187416e-05,3.4029592522896066e-05,0.00010217498025903353,0.5299312472343445,34.21371078491211,3.9220244884490967,-19.586824417114258,-0.1412864327430725,-1.822208046913147,0.10470907390117645,0
76,0.37499523162841797,-0.5299312472343445,-34.21371078491211,-3.9220244884490967,19.586824417114258,0.1412864327430725,1.822208046913147,-0.10470907390117645,0.0,0.0,0.0,0.0,0.0,0.0,0.0,-0.5323140377493405,-0.13664427169468937,-0.38654592191900555,0.5381701864423095,0.08685811779268184,-0.087857620243639,-0.10592304437979314,1.0545872516206056,0.3242365697720453,-0.39245910905118575,-2.1534866803717283,0.8647947682738303,2.4658827279806137,0.5444885606682963,1.0544104758940245,0.3238615046091247,-0.39250456234122666,-2.153291787532338,0.8647539153680389,2.46587817577521,0.5445020185570556,0.0003077272077523737,-0.00030612319089992954,-0.0008499928873557197,-0.0008502011620301623,-6.728060484187416e-05,-3.4029592522896066e-05,-0.00010217498025903353,0.0,0.0,0.0,0.0,0.0,0.0,0.0,-0.00017677572658114649,-0.0003750651629205737,-4.545329004090881e-05,0.0001948928393904481,-4.085290579136647e-05,-4.552205403740572e-06,1.3457888759282888e-05,-0.0003077272077523737,0.00030612319089992954,0.0008499928873557197,0.0008502011620301623,6.728060484187416e-05,3.4029592522896066e-05,0.00010217498025903353,0.5299312472343445,34.21371078491211,3.9220244884490967,-19.586824417114258,-0.1412864327430725,-1.822208046913147,0.10470907390117645,0
77,0.3799617290496826,-0.5537349581718445,-34.21371078491211,-3.9220244884490967,19.610628128051758,0.1357932686805725,1.809390664100647,-0.11844198405742645,0.0,0.0,0.0,0.0,0.0,0.0,0.0,-0.5327583151315857,-0.13535431011275534,-0.38597866133415504,0.5358739121468967,0.08667436714306194,-0.08781773542913536,-0.1070721272364613,1.0545874886137263,0.3242372714965409,-0.39245902957877465,-2.15348778576774,0.8647953786253928,2.4658841521342594,0.5444900865472025,1.0544104758940245,0.3238615046091247,-0.39250456234122666,-2.153291787532338,0.8647539153680389,2.46587817577521,0.5445020185570556,0.0005660022419598126,-5.93815386646767e-05,-0.0005797414426789572,-0.0014503935283717068,0.00015538729920120772,0.0003610896708708762,0.00043954035578392243,0.0,0.0,0.0,0.0,0.0,0.0,0.0,-0.00017701271970183008,-0.0003757668874161957,-4.5532762452005215e-05,0.00019599823540206174,-4.146325735387979e-05,-5.976359049419955e-06,1.1932009853055092e-05,-0.0005660022419598126,5.93815386646767e-05,0.0005797414426789572,0.0014503935283717068,-0.00015538729920120772,-0.0003610896708708762,-0.00043954035578392243,0.5537349581718445,34.21371078491211,3.9220244884490967,-19.610628128051758,-0.1357932686805725,-1.809390664100647,0.11844198405742645,0
78,0.3849945068359375,-0.5537349581718445,-34.21371078491211,-3.9220244884490967,19.610628128051758,0.1357932686805725,1.809390664100647,-0.11844198405742645,0.0,0.0,0.0,0.0,0.0,0.0,0.0,-0.5327583151315857,-0.13535431011275534,-0.38597866133415504,0.5358739121468967,0.08667436714306194,-0.08781773542913536,-0.1070721272364613,1.0545874886137263,0.3242372714965409,-0.39245902957877465,-2.15348778576774,0.8647953786253928,2.4658841521342594,0.5444900865472025,1.0544104758940245,0.3238615046091247,-0.39250456234122666,-2.153291787532338,0.8647539153680389,2.46587817577521,0.5445020185570556,0.0005660022419598126,-5.93815386646767e-05,-0.0005797414426789572,-0.0014503935283717068,0.00015538729920120772,0.0003610896708708762,0.00043954035578392243,0.0,0.0,0.0,0.0,0.0,0.0,0.0,-0.00017701271970183008,-0.0003757668874161957,-4.5532762452005215e-05,0.00019599823540206174,-4.146325735387979e-05,-5.976359049419955e-06,1.1932009853055092e-05,-0.0005660022419598126,5.93815386646767e-05,0.0005797414426789572,0.0014503935283717068,-0.00015538729920120772,-0.0003610896708708762,-0.00043954035578392243,0.5537349581718445,34.21371078491211,3.9220244884490967,-19.610628128051758,-0.1357932686805725,-1.809390664100647,0.11844198405742645,0
79,0.39000511169433594,-0.5021602511405945,-34.18990707397461,-3.9497954845428467,19.535249710083008,0.1357932686805725,1.809390664100647,-0.12485067546367645,0.0,0.0,0.0,0.0,0.0,0.0,0.0,-0.524456713269809,-0.13382219472506876,-0.37823945989926283,0.5388611615899259,0.08566182109193983,-0.08759265700111821,-0.10903462514559241,1.0545838608246791,0.32423492505476625,-0.3924570807364949,-2.153482425311563,0.8647953786253928,2.4658841521342594,0.5444908117598128,1.0544104758940245,0.3238615046091247,-0.39250456234122666,-2.153291787532338,0.8647539153680389,2.46587817577521,0.5445020185570556,-0.00022026488861318135,-0.0002018211439310201,0.0005821342357321146,0.0007962430514821098,0.00010602826272820919,-0.005143181912018674,0.0004781599556468267,0.0,0.0,0.0,0.0,0.0,0.0,0.0,-0.0001733849306546631,-0.00037342044564153687,-4.7481604731780536e-05,0.00019063777922534442,-4.146325735387979e-05,-5.976359049419955e-06,1.1206797242757638e-05,0.00022026488861318135,0.0002018211439310201,-0.0005821342357321146,-0.0007962430514821098,-0.00010602826272820919,0.005143181912018674,-0.0004781599556468267,0.5021602511405945,34.18990707397461,3.9497954845428467,-19.535249710083008,-0.1357932686805725,-1.809390664100647,0.12485067546367645,0
80,0.39504337310791016,-0.5021602511405945,-34.18990707397461,-3.9497954845428467,19.535249710083008,0.1357932686805725,1.809390664100647,-0.12485067546367645,0.0,0.0,0.0,0.0,0.0,0.0,0.0,-0.524456713269809,-0.13382219472506876,-0.37823945989926283,0.5388611615899259,0.08566182109193983,-0.08759265700111821,-0.10903462514559241,1.0545838608246791,0.32423492505476625,-0.3924570807364949,-2.153482425311563,0.8647953786253928,2.4658841521342594,0.5444908117598128,1.0544104758940245,0.3238615046091247,-0.39250456234122666,-2.153291787532338,0.8647539153680389,2.46587817577521,0.5445020185570556,-0.00022026488861318135,-0.0002018211439310201,0.0005821342357321146,0.0007962430514821098,0.00010602826272820919,-0.005143181912018674,0.0004781599556468267,0.0,0.0,0.0,0.0,0.0,0.0,0.0,-0.0001733849306546631,-0.00037342044564153687,-4.7481604731780536e-05,0.00019063777922534442,-4.146325735387979e-05,-5.976359049419955e-06,1.1206797242757638e-05,0.00022026488861318135,0.0002018211439310201,-0.0005821342357321146,-0.0007962430514821098,-0.00010602826272820919,0.005143181912018674,-0.0004781599556468267,0.5021602511405945,34.18990707397461,3.9497954845428467,-19.535249710083008,-0.1357932686805725,-1.809390664100647,0.12485067546367645,0
