rezayati/contactInterpretation/dataset/franka_main/labeled_data/link6/b4_4.csv
index,time,tau_J0,tau_J1,tau_J2,tau_J3,tau_J4,tau_J5,tau_J6,tau_J_d0,tau_J_d1,tau_J_d2,tau_J_d3,tau_J_d4,tau_J_d5,tau_J_d6,tau_ext0,tau_ext1,tau_ext2,tau_ext3,tau_ext4,tau_ext5,tau_ext6,q0,q1,q2,q3,q4,q5,q6,q_d0,q_d1,q_d2,q_d3,q_d4,q_d5,q_d6,dq0,dq1,dq2,dq3,dq4,dq5,dq6,dq_d0,dq_d1,dq_d2,dq_d3,dq_d4,dq_d5,dq_d6,e0,e1,e2,e3,e4,e5,e6,de0,de1,de2,de3,de4,de5,de6,etau_J0,etau_J1,etau_J2,etau_J3,etau_J4,etau_J5,etau_J6,label
1,0.0,-0.4029781222343445,-19.693445205688477,-0.4228789508342743,20.130342483520508,0.8920188546180725,2.4694857597351074,-0.27591270208358765,0.0,0.0,0.0,0.0,0.0,0.0,0.0,-0.41903433277690455,-0.0009438225726289516,-0.22100544509407002,0.3961512820965694,0.30174082659026263,0.09728796703193932,-0.26873044403797036,1.213579800467742,-0.22033257496356964,-0.007419719307438322,-2.6040828493865793,-0.10902649495829006,2.4681559993426005,0.8264819536363254,1.2134413937687574,-0.2202432315892585,-0.0075118285948192216,-2.6038483821997875,-0.10888392708698907,2.4681821257803174,0.826474908251239,-0.0003450950968586175,0.0001607092758257927,6.817225340038628e-05,0.001395549010853845,-7.428233479569398e-05,4.271185920764993e-05,0.00010624626837356522,0.0,0.0,0.0,0.0,0.0,0.0,0.0,-0.00013840669898468327,8.934337431115713e-05,-9.21092873808994e-05,0.0002344671867917647,0.00014256787130098592,2.6126437716822437e-05,-7.04538508633501e-06,0.0003450950968586175,-0.0001607092758257927,-6.817225340038628e-05,-0.001395549010853845,7.428233479569398e-05,-4.271185920764993e-05,-0.00010624626837356522,0.4029781222343445,19.693445205688477,0.4228789508342743,-20.130342483520508,-0.8920188546180725,-2.4694857597351074,0.27591270208358765,0
2,0.004997730255126953,-0.4029781222343445,-19.693445205688477,-0.4228789508342743,20.130342483520508,0.8920188546180725,2.4694857597351074,-0.27591270208358765,0.0,0.0,0.0,0.0,0.0,0.0,0.0,-0.41903433277690455,-0.0009438225726289516,-0.22100544509407002,0.3961512820965694,0.30174082659026263,0.09728796703193932,-0.26873044403797036,1.213579800467742,-0.22033257496356964,-0.007419719307438322,-2.6040828493865793,-0.10902649495829006,2.4681559993426005,0.8264819536363254,1.2134413937687574,-0.2202432315892585,-0.0075118285948192216,-2.6038483821997875,-0.10888392708698907,2.4681821257803174,0.826474908251239,-0.0003450950968586175,0.0001607092758257927,6.817225340038628e-05,0.001395549010853845,-7.428233479569398e-05,4.271185920764993e-05,0.00010624626837356522,0.0,0.0,0.0,0.0,0.0,0.0,0.0,-0.00013840669898468327,8.934337431115713e-05,-9.21092873808994e-05,0.0002344671867917647,0.00014256787130098592,2.6126437716822437e-05,-7.04538508633501e-06,0.0003450950968586175,-0.0001607092758257927,-6.817225340038628e-05,-0.001395549010853845,7.428233479569398e-05,-4.271185920764993e-05,-0.00010624626837356522,0.4029781222343445,19.693445205688477,0.4228789508342743,-20.130342483520508,-0.8920188546180725,-2.4694857597351074,0.27591270208358765,0
3,0.009996891021728516,-0.4267818331718445,-19.669641494750977,-0.4228789508342743,20.181917190551758,0.8920188546180725,2.4694857597351074,-0.26858848333358765,0.0,0.0,0.0,0.0,0.0,0.0,0.0,-0.4175686872140587,-0.00048025986920242474,-0.2209447541534307,0.40158111925770595,0.3017955910649512,0.09768813912984624,-0.27037608162399085,1.2135813884872986,-0.2203342453994249,-0.007419719307438322,-2.6040864689657233,-0.10902720425837466,2.4681549397104527,0.8264811445779885,1.2134413937687574,-0.2202432315892585,-0.0075118285948192216,-2.6038483821997875,-0.10888392708698907,2.4681821257803174,0.826474908251239,0.00044754958407937964,-0.00029884444213898974,-0.00015310389892535999,-0.0003055211382899677,-0.000192794024107598,-0.0002096638755839608,-4.5117491316173904e-05,0.0,0.0,0.0,0.0,0.0,0.0,0.0,-0.00013999471854120316,9.101381016640708e-05,-9.21092873808994e-05,0.00023808676593572997,0.0001432771713855835,2.718606986462646e-05,-6.2363267494536245e-06,-0.00044754958407937964,0.00029884444213898974,0.00015310389892535999,0.0003055211382899677,0.000192794024107598,0.0002096638755839608,4.5117491316173904e-05,0.4267818331718445,19.669641494750977,0.4228789508342743,-20.181917190551758,-0.8920188546180725,-2.4694857597351074,0.26858848333358765,0
4,0.014996051788330078,-0.4267818331718445,-19.669641494750977,-0.4228789508342743,20.181917190551758,0.8920188546180725,2.4694857597351074,-0.26858848333358765,0.0,0.0,0.0,0.0,0.0,0.0,0.0,-0.4175686872140587,-0.00048025986920242474,-0.2209447541534307,0.40158111925770595,0.3017955910649512,0.09768813912984624,-0.27037608162399085,1.2135813884872986,-0.2203342453994249,-0.007419719307438322,-2.6040864689657233,-0.10902720425837466,2.4681549397104527,0.8264811445779885,1.2134413937687574,-0.2202432315892585,-0.0075118285948192216,-2.6038483821997875,-0.10888392708698907,2.4681821257803174,0.826474908251239,0.00044754958407937964,-0.00029884444213898974,-0.00015310389892535999,-0.0003055211382899677,-0.000192794024107598,-0.0002096638755839608,-4.5117491316173904e-05,0.0,0.0,0.0,0.0,0.0,0.0,0.0,-0.00013999471854120316,9.101381016640708e-05,-9.21092873808994e-05,0.00023808676593572997,0.0001432771713855835,2.718606986462646e-05,-6.2363267494536245e-06,-0.00044754958407937964,0.00029884444213898974,0.00015310389892535999,0.0003055211382899677,0.000192794024107598,0.0002096638755839608,4.5117491316173904e-05,0.4267818331718445,19.669641494750977,0.4228789508342743,-20.181917190551758,-0.8920188546180725,-2.4694857597351074,0.26858848333358765,0
5,0.020078182220458984,-0.4267818331718445,-19.717248916625977,-0.4228789508342743,20.253328323364258,0.8801169991493225,2.4630770683288574,-0.26858848333358765,0.0,0.0,0.0,0.0,0.0,0.0,0.0,-0.42139064200526166,0.001421554886246357,-0.22631013080751064,0.4067744469400227,0.30222889098912736,0.09878512900017374,-0.27158049778959187,1.2135814709031323,-0.22033090452771437,-0.007419719343519469,-2.6040937326463003,-0.10902919388491973,2.468155769518864,0.826479727528031,1.2134413937687574,-0.2202432315892585,-0.0075118285948192216,-2.6038483821997875,-0.10888392708698907,2.4681821257803174,0.826474908251239,-0.00018013439159277468,0.00026973171290130965,0.0004762241073019467,-0.0019840937693744007,0.00033548286727785013,0.002114454233446145,-0.00035391522116706985,0.0,0.0,0.0,0.0,0.0,0.0,0.0,-0.0001400771343749163,8.767293845587942e-05,-9.210925129975265e-05,0.00024535044651274873,0.0001452667979306571,2.6356261453308605e-05,-4.819276791967475e-06,0.00018013439159277468,-0.00026973171290130965,-0.0004762241073019467,0.0019840937693744007,-0.00033548286727785013,-0.002114454233446145,0.00035391522116706985,0.4267818331718445,19.717248916625977,0.4228789508342743,-20.253328323364258,-0.8801169991493225,-2.4630770683288574,0.26858848333358765,0
6,0.02500176429748535,-0.4267818331718445,-19.717248916625977,-0.4228789508342743,20.253328323364258,0.8801169991493225,2.4630770683288574,-0.26858848333358765,0.0,0.0,0.0,0.0,0.0,0.0,0.0,-0.42139064200526166,0.001421554886246357,-0.22631013080751064,0.4067744469400227,0.30222889098912736,0.09878512900017374,-0.27158049778959187,1.2135814709031323,-0.22033090452771437,-0.007419719343519469,-2.6040937326463003,-0.10902919388491973,2.468155769518864,0.826479727528031,1.2134413937687574,-0.2202432315892585,-0.0075118285948192216,-2.6038483821997875,-0.10888392708698907,2.4681821257803174,0.826474908251239,-0.00018013439159277468,0.00026973171290130965,0.0004762241073019467,-0.0019840937693744007,0.00033548286727785013,0.002114454233446145,-0.00035391522116706985,0.0,0.0,0.0,0.0,0.0,0.0,0.0,-0.0001400771343749163,8.767293845587942e-05,-9.210925129975265e-05,0.00024535044651274873,0.0001452667979306571,2.6356261453308605e-05,-4.819276791967475e-06,0.00018013439159277468,-0.00026973171290130965,-0.0004762241073019467,0.0019840937693744007,-0.00033548286727785013,-0.002114454233446145,0.00035391522116706985,0.4267818331718445,19.717248916625977,0.4228789508342743,-20.253328323364258,-0.8801169991493225,-2.4630770683288574,0.26858848333358765,0
7,0.0299527645111084,-0.4029781222343445,-19.717248916625977,-0.3713042438030243,20.181917190551758,0.8856101632118225,2.4694857597351074,-0.22830526530742645,0.0,0.0,0.0,0.0,0.0,0.0,0.0,-0.421440612193257,0.004646178536487238,-0.2213312706999398,0.40645189892541467,0.30202446114136716,0.09875200450437234,-0.27237088611799704,1.2135797179383891,-0.22033090452771437,-0.00742333858512493,-2.6040868369689103,-0.1090254275449818,2.4681549397051357,0.8264766542829051,1.2134413937687574,-0.2202432315892585,-0.0075118285948192216,-2.6038483821997875,-0.10888392708698907,2.4681821257803174,0.826474908251239,-0.000452867399926825,-0.0006458543531689885,-0.0011679698862664633,0.000412617815232132,0.0003511491204938415,0.00026251998268730394,-0.002281382874722995,0.0,0.0,0.0,0.0,0.0,0.0,0.0,-0.00013832416963177607,8.767293845587942e-05,-8.849000969429147e-05,0.00023845476912276453,0.0001415004579927298,2.718607518170657e-05,-1.7460316660278252e-06,0.000452867399926825,0.0006458543531689885,0.0011679698862664633,-0.000412617815232132,-0.0003511491204938415,-0.00026251998268730394,0.002281382874722995,0.4029781222343445,19.717248916625977,0.3713042438030243,-20.181917190551758,-0.8856101632118225,-2.4694857597351074,0.22830526530742645,0
8,0.03499913215637207,-0.4029781222343445,-19.717248916625977,-0.3713042438030243,20.181917190551758,0.8856101632118225,2.4694857597351074,-0.22830526530742645,0.0,0.0,0.0,0.0,0.0,0.0,0.0,-0.421440612193257,0.004646178536487238,-0.2213312706999398,0.40645189892541467,0.30202446114136716,0.09875200450437234,-0.27237088611799704,1.2135797179383891,-0.22033090452771437,-0.00742333858512493,-2.6040868369689103,-0.1090254275449818,2.4681549397051357,0.8264766542829051,1.2134413937687574,-0.2202432315892585,-0.0075118285948192216,-2.6038483821997875,-0.10888392708698907,2.4681821257803174,0.826474908251239,-0.000452867399926825,-0.0006458543531689885,-0.0011679698862664633,0.000412617815232132,0.0003511491204938415,0.00026251998268730394,-0.002281382874722995,0.0,0.0,0.0,0.0,0.0,0.0,0.0,-0.00013832416963177607,8.767293845587942e-05,-8.849000969429147e-05,0.00023845476912276453,0.0001415004579927298,2.718607518170657e-05,-1.7460316660278252e-06,0.000452867399926825,0.0006458543531689885,0.0011679698862664633,-0.000412617815232132,-0.0003511491204938415,-0.00026251998268730394,0.002281382874722995,0.4029781222343445,19.717248916625977,0.3713042438030243,-20.181917190551758,-0.8856101632118225,-2.4694857597351074,0.22830526530742645,0
9,0.040766000747680664,-0.4029781222343445,-19.745019912719727,-0.3990752398967743,20.181917190551758,0.8801169991493225,2.4758944511413574,-0.30978721380233765,0.0,0.0,0.0,0.0,0.0,0.0,0.0,-0.41564284077717656,0.007028505215466401,-0.21518604891290732,0.4022641255911755,0.3021354601774214,0.0985837969916541,-0.27281441377094523,1.2135790586075317,-0.22032895568588323,-0.007421389743293586,-2.604086470701296,-0.10902518523446851,2.4681542276276485,0.8264846627380291,1.2134413937687574,-0.2202432315892585,-0.0075118285948192216,-2.6038483821997875,-0.10888392708698907,2.4681821257803174,0.826474908251239,-6.809057468815508e-05,-0.0005767101209837757,-0.00010571870462183333,-0.00014121498759595808,0.00028198017174837223,-9.052492408181782e-05,0.001716235968634505,0.0,0.0,0.0,0.0,0.0,0.0,0.0,-0.00013766483877430957,8.572409662474523e-05,-9.043885152563557e-05,0.00023808850150830452,0.00014125814747943666,2.789815266890372e-05,-9.754486790081174e-06,6.809057468815508e-05,0.0005767101209837757,0.00010571870462183333,0.00014121498759595808,-0.00028198017174837223,9.052492408181782e-05,-0.001716235968634505,0.4029781222343445,19.745019912719727,0.3990752398967743,-20.181917190551758,-0.8801169991493225,-2.4758944511413574,0.30978721380233765,0
10,0.0449528694152832,-0.4029781222343445,-19.745019912719727,-0.3990752398967743,20.181917190551758,0.8801169991493225,2.4758944511413574,-0.30978721380233765,0.0,0.0,0.0,0.0,0.0,0.0,0.0,-0.41564284077717656,0.007028505215466401,-0.21518604891290732,0.4022641255911755,0.3021354601774214,0.0985837969916541,-0.27281441377094523,1.2135790586075317,-0.22032895568588323,-0.007421389743293586,-2.604086470701296,-0.10902518523446851,2.4681542276276485,0.8264846627380291,1.2134413937687574,-0.2202432315892585,-0.0075118285948192216,-2.6038483821997875,-0.10888392708698907,2.4681821257803174,0.826474908251239,-6.809057468815508e-05,-0.0005767101209837757,-0.00010571870462183333,-0.00014121498759595808,0.00028198017174837223,-9.052492408181782e-05,0.001716235968634505,0.0,0.0,0.0,0.0,0.0,0.0,0.0,-0.00013766483877430957,8.572409662474523e-05,-9.043885152563557e-05,0.00023808850150830452,0.00014125814747943666,2.789815266890372e-05,-9.754486790081174e-06,6.809057468815508e-05,0.0005767101209837757,0.00010571870462183333,0.00014121498759595808,-0.00028198017174837223,9.052492408181782e-05,-0.001716235968634505,0.4029781222343445,19.745019912719727,0.3990752398967743,-20.181917190551758,-0.8801169991493225,-2.4758944511413574,0.30978721380233765,0
11,0.04999518394470215,-0.3752071261405945,-19.717248916625977,-0.4228789508342743,20.154146194458008,0.8920188546180725,2.4758944511413574,-0.30337852239608765,0.0,0.0,0.0,0.0,0.0,0.0,0.0,-0.4115057634874855,0.0007732901600079576,-0.21350224012854616,0.39977790652320816,0.30205916179471715,0.09856977269650301,-0.2734835583949662,1.2135778516217233,-0.22033090452771437,-0.007419719307438322,-2.604086744384175,-0.10902613959917576,2.4681542276276485,0.8264850096474136,1.2134413937687574,-0.2202432315892585,-0.0075118285948192216,-2.6038483821997875,-0.10888392708698907,2.4681821257803174,0.826474908251239,-0.00024810987211061614,-0.0014384903988245402,0.00023815911482918145,0.00013899191978945707,-0.0002911992973036927,-0.00014599016991270403,0.0014441514861296453,0.0,0.0,0.0,0.0,0.0,0.0,0.0,-0.00013645785296589885,8.767293845587942e-05,-9.21092873808994e-05,0.0002383621843873307,0.00014221251218668463,2.789815266890372e-05,-1.0101396174522215e-05,0.00024810987211061614,0.0014384903988245402,-0.00023815911482918145,-0.00013899191978945707,0.0002911992973036927,0.00014599016991270403,-0.0014441514861296453,0.3752071261405945,19.717248916625977,0.4228789508342743,-20.154146194458008,-0.8920188546180725,-2.4758944511413574,0.30337852239608765,0
12,0.055013179779052734,-0.3752071261405945,-19.717248916625977,-0.4228789508342743,20.154146194458008,0.8920188546180725,2.4758944511413574,-0.30337852239608765,0.0,0.0,0.0,0.0,0.0,0.0,0.0,-0.4115057634874855,0.0007732901600079576,-0.21350224012854616,0.39977790652320816,0.30205916179471715,0.09856977269650301,-0.2734835583949662,1.2135778516217233,-0.22033090452771437,-0.007419719307438322,-2.604086744384175,-0.10902613959917576,2.4681542276276485,0.8264850096474136,1.2134413937687574,-0.2202432315892585,-0.0075118285948192216,-2.6038483821997875,-0.10888392708698907,2.4681821257803174,0.826474908251239,-0.00024810987211061614,-0.0014384903988245402,0.00023815911482918145,0.00013899191978945707,-0.0002911992973036927,-0.00014599016991270403,0.0014441514861296453,0.0,0.0,0.0,0.0,0.0,0.0,0.0,-0.00013645785296589885,8.767293845587942e-05,-9.21092873808994e-05,0.0002383621843873307,0.00014221251218668463,2.789815266890372e-05,-1.0101396174522215e-05,0.00024810987211061614,0.0014384903988245402,-0.00023815911482918145,-0.00013899191978945707,0.0002911992973036927,0.00014599016991270403,-0.0014441514861296453,0.3752071261405945,19.717248916625977,0.4228789508342743,-20.154146194458008,-0.8920188546180725,-2.4758944511413574,0.30337852239608765,0
13,0.06000709533691406,-0.4505855441093445,-19.745019912719727,-0.4228789508342743,20.154146194458008,0.8975120186805725,2.4823031425476074,-0.28232139348983765,0.0,0.0,0.0,0.0,0.0,0.0,0.0,-0.4141198975300688,-0.004597668109798401,-0.22144091125516452,0.4026898153870663,0.3025045861987207,0.09949067589395971,-0.2737207336824823,1.2135831413394527,-0.22032895568588323,-0.007419719307438322,-2.604084522849744,-0.10902781504063153,2.468153515550825,0.8264826704569188,1.2134413937687574,-0.2202432315892585,-0.0075118285948192216,-2.6038483821997875,-0.10888392708698907,2.4681821257803174,0.826474908251239,0.0006252286296306986,0.0001416464150891601,-9.920099817120921e-06,0.0007212454820003702,-0.00032106656173493884,-0.00045377882385669305,0.00044810001514877557,0.0,0.0,0.0,0.0,0.0,0.0,0.0,-0.0001417475706952942,8.572409662474523e-05,-9.21092873808994e-05,0.00023614064995625128,0.000143887953642452,2.86102294921875e-05,-7.76220567977326e-06,-0.0006252286296306986,-0.0001416464150891601,9.920099817120921e-06,-0.0007212454820003702,0.00032106656173493884,0.00045377882385669305,-0.00044810001514877557,0.4505855441093445,19.745019912719727,0.4228789508342743,-20.154146194458008,-0.8975120186805725,-2.4823031425476074,0.28232139348983765,0
14,0.0650031566619873,-0.4505855441093445,-19.745019912719727,-0.4228789508342743,20.154146194458008,0.8975120186805725,2.4823031425476074,-0.28232139348983765,0.0,0.0,0.0,0.0,0.0,0.0,0.0,-0.4141198975300688,-0.004597668109798401,-0.22144091125516452,0.4026898153870663,0.3025045861987207,0.09949067589395971,-0.2737207336824823,1.2135831413394527,-0.22032895568588323,-0.007419719307438322,-2.604084522849744,-0.10902781504063153,2.468153515550825,0.8264826704569188,1.2134413937687574,-0.2202432315892585,-0.0075118285948192216,-2.6038483821997875,-0.10888392708698907,2.4681821257803174,0.826474908251239,0.0006252286296306986,0.0001416464150891601,-9.920099817120921e-06,0.0007212454820003702,-0.00032106656173493884,-0.00045377882385669305,0.00044810001514877557,0.0,0.0,0.0,0.0,0.0,0.0,0.0,-0.0001417475706952942,8.572409662474523e-05,-9.21092873808994e-05,0.00023614064995625128,0.000143887953642452,2.86102294921875e-05,-7.76220567977326e-06,-0.0006252286296306986,-0.0001416464150891601,9.920099817120921e-06,-0.0007212454820003702,0.00032106656173493884,0.00045377882385669305,-0.00044810001514877557,0.4505855441093445,19.745019912719727,0.4228789508342743,-20.154146194458008,-0.8975120186805725,-2.4823031425476074,0.28232139348983765,0
15,0.07001829147338867,-0.4029781222343445,-19.768823623657227,-0.4466826617717743,20.205720901489258,0.8856101632118225,2.4630770683288574,-0.29605430364608765,0.0,0.0,0.0,0.0,0.0,0.0,0.0,-0.41330909759100026,-0.003945828467273891,-0.22417949430952167,0.4008629914485545,0.3028127977419306,0.09928059282341481,-0.27328487973332755,1.2135795532188451,-0.22032728525002798,-0.007418285599984155,-2.6040889625471,-0.10902542752628759,2.4681556522658106,0.8264831324985533,1.2134413937687574,-0.2202432315892585,-0.0075118285948192216,-2.6038483821997875,-0.10888392708698907,2.4681821257803174,0.826474908251239,-0.00045991704085450593,0.001036773711390473,-0.00016383243116453798,-0.0005735580836891018,0.0002208047343393609,0.0005235649343743679,0.0011275740452747795,0.0,0.0,0.0,0.0,0.0,0.0,0.0,-0.00013815945008777142,8.405366076949528e-05,-9.354299483506617e-05,0.00024058034731266886,0.00014150043929851697,2.6473514506797358e-05,-8.224247314281286e-06,0.00045991704085450593,-0.001036773711390473,0.00016383243116453798,0.0005735580836891018,-0.0002208047343393609,-0.0005235649343743679,-0.0011275740452747795,0.4029781222343445,19.768823623657227,0.4466826617717743,-20.205720901489258,-0.8856101632118225,-2.4630770683288574,0.29605430364608765,0
16,0.07500076293945312,-0.4029781222343445,-19.768823623657227,-0.4466826617717743,20.205720901489258,0.8856101632118225,2.4630770683288574,-0.29605430364608765,0.0,0.0,0.0,0.0,0.0,0.0,0.0,-0.41330909759100026,-0.003945828467273891,-0.22417949430952167,0.4008629914485545,0.3028127977419306,0.09928059282341481,-0.27328487973332755,1.2135795532188451,-0.22032728525002798,-0.007418285599984155,-2.6040889625471,-0.10902542752628759,2.4681556522658106,0.8264831324985533,1.2134413937687574,-0.2202432315892585,-0.0075118285948192216,-2.6038483821997875,-0.10888392708698907,2.4681821257803174,0.826474908251239,-0.00045991704085450593,0.001036773711390473,-0.00016383243116453798,-0.0005735580836891018,0.0002208047343393609,0.0005235649343743679,0.0011275740452747795,0.0,0.0,0.0,0.0,0.0,0.0,0.0,-0.00013815945008777142,8.405366076949528e-05,-9.354299483506617e-05,0.00024058034731266886,0.00014150043929851697,2.6473514506797358e-05,-8.224247314281286e-06,0.00045991704085450593,-0.001036773711390473,0.00016383243116453798,0.0005735580836891018,-0.0002208047343393609,-0.0005235649343743679,-0.0011275740452747795,0.4029781222343445,19.768823623657227,0.4466826617717743,-20.205720901489258,-0.8856101632118225,-2.4630770683288574,0.29605430364608765,0
17,0.07995343208312988,-0.4029781222343445,-19.768823623657227,-0.4466826617717743,20.205720901489258,0.8856101632118225,2.4630770683288574,-0.29605430364608765,0.0,0.0,0.0,0.0,0.0,0.0,0.0,-0.41330909759100026,-0.003945828467273891,-0.22417949430952167,0.4008629914485545,0.3028127977419306,0.09928059282341481,-0.27328487973332755,1.2135795532188451,-0.22032728525002798,-0.007418285599984155,-2.6040889625471,-0.10902542752628759,2.4681556522658106,0.8264831324985533,1.2134413937687574,-0.2202432315892585,-0.0075118285948192216,-2.6038483821997875,-0.10888392708698907,2.4681821257803174,0.826474908251239,-0.00045991704085450593,0.001036773711390473,-0.00016383243116453798,-0.0005735580836891018,0.0002208047343393609,0.0005235649343743679,0.0011275740452747795,0.0,0.0,0.0,0.0,0.0,0.0,0.0,-0.00013815945008777142,8.405366076949528e-05,-9.354299483506617e-05,0.00024058034731266886,0.00014150043929851697,2.6473514506797358e-05,-8.224247314281286e-06,0.00045991704085450593,-0.001036773711390473,0.00016383243116453798,0.0005735580836891018,-0.0002208047343393609,-0.0005235649343743679,-0.0011275740452747795,0.4029781222343445,19.768823623657227,0.4466826617717743,-20.205720901489258,-0.8856101632118225,-2.4630770683288574,0.29605430364608765,0
18,0.08499455451965332,-0.4029781222343445,-19.768823623657227,-0.4466826617717743,20.205720901489258,0.8856101632118225,2.4630770683288574,-0.29605430364608765,0.0,0.0,0.0,0.0,0.0,0.0,0.0,-0.41330909759100026,-0.003945828467273891,-0.22417949430952167,0.4008629914485545,0.3028127977419306,0.09928059282341481,-0.27328487973332755,1.2135795532188451,-0.22032728525002798,-0.007418285599984155,-2.6040889625471,-0.10902542752628759,2.4681556522658106,0.8264831324985533,1.2134413937687574,-0.2202432315892585,-0.0075118285948192216,-2.6038483821997875,-0.10888392708698907,2.4681821257803174,0.826474908251239,-0.00045991704085450593,0.001036773711390473,-0.00016383243116453798,-0.0005735580836891018,0.0002208047343393609,0.0005235649343743679,0.0011275740452747795,0.0,0.0,0.0,0.0,0.0,0.0,0.0,-0.00013815945008777142,8.405366076949528e-05,-9.354299483506617e-05,0.00024058034731266886,0.00014150043929851697,2.6473514506797358e-05,-8.224247314281286e-06,0.00045991704085450593,-0.001036773711390473,0.00016383243116453798,0.0005735580836891018,-0.0002208047343393609,-0.0005235649343743679,-0.0011275740452747795,0.4029781222343445,19.768823623657227,0.4466826617717743,-20.205720901489258,-0.8856101632118225,-2.4630770683288574,0.29605430364608765,0
19,0.0899970531463623,-0.3752071261405945,-19.745019912719727,-0.4466826617717743,20.181917190551758,0.8801169991493225,2.4630770683288574,-0.24112264811992645,0.0,0.0,0.0,0.0,0.0,0.0,0.0,-0.40938696532867735,-0.00480805633668529,-0.2232555660881016,0.4010452640201058,0.3029462498084345,0.09903518111341417,-0.2719941041734831,1.2135778516245153,-0.22032895568588323,-0.007418048872919398,-2.604086504243191,-0.10902494925050184,2.468155651781297,0.8264780928125417,1.2134413937687574,-0.2202432315892585,-0.0075118285948192216,-2.6038483821997875,-0.10888392708698907,2.4681821257803174,0.826474908251239,-0.0012665010370800744,0.0002136378539842868,0.00024000497990957125,0.00010078233259331148,0.0003734034265347655,2.8301960904947715e-05,-0.0012183575888436275,0.0,0.0,0.0,0.0,0.0,0.0,0.0,-0.00013645785575788771,8.572409662474523e-05,-9.377972189982334e-05,0.00023812204340334375,0.00014102216351276342,2.6473999020559802e-05,-3.184561302660427e-06,0.0012665010370800744,-0.0002136378539842868,-0.00024000497990957125,-0.00010078233259331148,-0.0003734034265347655,-2.8301960904947715e-05,0.0012183575888436275,0.3752071261405945,19.745019912719727,0.4466826617717743,-20.181917190551758,-0.8801169991493225,-2.4630770683288574,0.24112264811992645,0
20,0.0950310230255127,-0.3752071261405945,-19.745019912719727,-0.4466826617717743,20.181917190551758,0.8801169991493225,2.4630770683288574,-0.24112264811992645,0.0,0.0,0.0,0.0,0.0,0.0,0.0,-0.40938696532867735,-0.00480805633668529,-0.2232555660881016,0.4010452640201058,0.3029462498084345,0.09903518111341417,-0.2719941041734831,1.2135778516245153,-0.22032895568588323,-0.007418048872919398,-2.604086504243191,-0.10902494925050184,2.468155651781297,0.8264780928125417,1.2134413937687574,-0.2202432315892585,-0.0075118285948192216,-2.6038483821997875,-0.10888392708698907,2.4681821257803174,0.826474908251239,-0.0012665010370800744,0.0002136378539842868,0.00024000497990957125,0.00010078233259331148,0.0003734034265347655,2.8301960904947715e-05,-0.0012183575888436275,0.0,0.0,0.0,0.0,0.0,0.0,0.0,-0.00013645785575788771,8.572409662474523e-05,-9.377972189982334e-05,0.00023812204340334375,0.00014102216351276342,2.6473999020559802e-05,-3.184561302660427e-06,0.0012665010370800744,-0.0002136378539842868,-0.00024000497990957125,-0.00010078233259331148,-0.0003734034265347655,-2.8301960904947715e-05,0.0012183575888436275,0.3752071261405945,19.745019912719727,0.4466826617717743,-20.181917190551758,-0.8801169991493225,-2.4630770683288574,0.24112264811992645,0
21,0.1000065803527832,-0.3514034152030945,-19.717248916625977,-0.4466826617717743,20.205720901489258,0.8920188546180725,2.4694857597351074,-0.27591270208358765,0.0,0.0,0.0,0.0,0.0,0.0,0.0,-0.4093328222862565,-0.001209620400180813,-0.22661981915623172,0.4013361421656077,0.30288433491360195,0.09894390491700325,-0.2714714063717183,1.2135761811900556,-0.22033090452771437,-0.007418048871583062,-2.6040881381580485,-0.10902724363235122,2.4681549397044713,0.8264818015581782,1.2134413937687574,-0.2202432315892585,-0.0075118285948192216,-2.6038483821997875,-0.10888392708698907,2.4681821257803174,0.826474908251239,-0.0011168489405060306,-0.0001743108614647946,0.000331576698167191,-0.00039170451483605366,-0.0001089759838645405,0.00029213906757780567,5.3382680554079106e-05,0.0,0.0,0.0,0.0,0.0,0.0,0.0,-0.00013478742129824361,8.767293845587942e-05,-9.377972323615976e-05,0.00023975595826097873,0.00014331654536214877,2.718607584606403e-05,-6.89330693914858e-06,0.0011168489405060306,0.0001743108614647946,-0.000331576698167191,0.00039170451483605366,0.0001089759838645405,-0.00029213906757780567,-5.3382680554079106e-05,0.3514034152030945,19.717248916625977,0.4466826617717743,-20.205720901489258,-0.8920188546180725,-2.4694857597351074,0.27591270208358765,0
22,0.10500931739807129,-0.3514034152030945,-19.717248916625977,-0.4466826617717743,20.205720901489258,0.8920188546180725,2.4694857597351074,-0.27591270208358765,0.0,0.0,0.0,0.0,0.0,0.0,0.0,-0.4093328222862565,-0.001209620400180813,-0.22661981915623172,0.4013361421656077,0.30288433491360195,0.09894390491700325,-0.2714714063717183,1.2135761811900556,-0.22033090452771437,-0.007418048871583062,-2.6040881381580485,-0.10902724363235122,2.4681549397044713,0.8264818015581782,1.2134413937687574,-0.2202432315892585,-0.0075118285948192216,-2.6038483821997875,-0.10888392708698907,2.4681821257803174,0.826474908251239,-0.0011168489405060306,-0.0001743108614647946,0.000331576698167191,-0.00039170451483605366,-0.0001089759838645405,0.00029213906757780567,5.3382680554079106e-05,0.0,0.0,0.0,0.0,0.0,0.0,0.0,-0.00013478742129824361,8.767293845587942e-05,-9.377972323615976e-05,0.00023975595826097873,0.00014331654536214877,2.718607584606403e-05,-6.89330693914858e-06,0.0011168489405060306,0.0001743108614647946,-0.000331576698167191,0.00039170451483605366,0.0001089759838645405,-0.00029213906757780567,-5.3382680554079106e-05,0.3514034152030945,19.717248916625977,0.4466826617717743,-20.205720901489258,-0.8920188546180725,-2.4694857597351074,0.27591270208358765,0
23,0.11012792587280273,-0.4029781222343445,-19.768823623657227,-0.3990752398967743,20.181917190551758,0.8856101632118225,2.4694857597351074,-0.28232139348983765,0.0,0.0,0.0,0.0,0.0,0.0,0.0,-0.40372271199624754,-0.004801477581969588,-0.22523637485765904,0.40585607674036456,0.3027933268435933,0.09982786150362084,-0.27199558190633916,1.2135797912726909,-0.22032728525002798,-0.007421389743293586,-2.6040865632526775,-0.10902544066978129,2.4681549397044713,0.8264826662568912,1.2134413937687574,-0.2202432315892585,-0.0075118285948192216,-2.6038483821997875,-0.10888392708698907,2.4681821257803174,0.826474908251239,0.00043292395023715685,0.0006582778215200493,0.0001655881687697492,0.0002469793690279526,6.472283757535881e-05,-2.314461826360438e-06,0.0005524570010620671,0.0,0.0,0.0,0.0,0.0,0.0,0.0,-0.00013839750393351835,8.405366076949528e-05,-9.043885152563557e-05,0.00023818105288997415,0.00014151358279221316,2.718607584606403e-05,-7.758005652114264e-06,-0.00043292395023715685,-0.0006582778215200493,-0.0001655881687697492,-0.0002469793690279526,-6.472283757535881e-05,2.314461826360438e-06,-0.0005524570010620671,0.4029781222343445,19.768823623657227,0.3990752398967743,-20.181917190551758,-0.8856101632118225,-2.4694857597351074,0.28232139348983765,0
24,0.11499571800231934,-0.4029781222343445,-19.768823623657227,-0.3990752398967743,20.181917190551758,0.8856101632118225,2.4694857597351074,-0.28232139348983765,0.0,0.0,0.0,0.0,0.0,0.0,0.0,-0.40372271199624754,-0.004801477581969588,-0.22523637485765904,0.40585607674036456,0.3027933268435933,0.09982786150362084,-0.27199558190633916,1.2135797912726909,-0.22032728525002798,-0.007421389743293586,-2.6040865632526775,-0.10902544066978129,2.4681549397044713,0.8264826662568912,1.2134413937687574,-0.2202432315892585,-0.0075118285948192216,-2.6038483821997875,-0.10888392708698907,2.4681821257803174,0.826474908251239,0.00043292395023715685,0.0006582778215200493,0.0001655881687697492,0.0002469793690279526,6.472283757535881e-05,-2.314461826360438e-06,0.0005524570010620671,0.0,0.0,0.0,0.0,0.0,0.0,0.0,-0.00013839750393351835,8.405366076949528e-05,-9.043885152563557e-05,0.00023818105288997415,0.00014151358279221316,2.718607584606403e-05,-7.758005652114264e-06,-0.00043292395023715685,-0.0006582778215200493,-0.0001655881687697492,-0.0002469793690279526,-6.472283757535881e-05,2.314461826360438e-06,-0.0005524570010620671,0.4029781222343445,19.768823623657227,0.3990752398967743,-20.181917190551758,-0.8856101632118225,-2.4694857597351074,0.28232139348983765,0
25,0.12000775337219238,-0.4267818331718445,-19.717248916625977,-0.4228789508342743,20.205720901489258,0.8737083077430725,2.4630770683288574,-0.28232139348983765,0.0,0.0,0.0,0.0,0.0,0.0,0.0,-0.40617601681795523,0.0005198595649676793,-0.22735920325239448,0.40166727930585067,0.30303985291683383,0.09870983196218319,-0.27221725697010063,1.2135814709034418,-0.22033090452771437,-0.00742042949264161,-2.6040881383857073,-0.10902410509211237,2.468155651781294,0.8264826706183542,1.2134413937687574,-0.2202432315892585,-0.0075118285948192216,-2.6038483821997875,-0.10888392708698907,2.4681821257803174,0.826474908251239,0.0005739000492331798,-0.0005369804362981153,0.0006054692146472993,-0.0011340230365987898,0.0005036261261304185,0.00020274541220489454,0.0006538820748102554,0.0,0.0,0.0,0.0,0.0,0.0,0.0,-0.0001400771346844465,8.767293845587942e-05,-9.139910217761168e-05,0.00023975618591975945,0.00014017800512329537,2.6473999023224337e-05,-7.762367115193847e-06,-0.0005739000492331798,0.0005369804362981153,-0.0006054692146472993,0.0011340230365987898,-0.0005036261261304185,-0.00020274541220489454,-0.0006538820748102554,0.4267818331718445,19.717248916625977,0.4228789508342743,-20.205720901489258,-0.8737083077430725,-2.4630770683288574,0.28232139348983765,0
26,0.12499403953552246,-0.4267818331718445,-19.717248916625977,-0.4228789508342743,20.205720901489258,0.8737083077430725,2.4630770683288574,-0.28232139348983765,0.0,0.0,0.0,0.0,0.0,0.0,0.0,-0.40617601681795523,0.0005198595649676793,-0.22735920325239448,0.40166727930585067,0.30303985291683383,0.09870983196218319,-0.27221725697010063,1.2135814709034418,-0.22033090452771437,-0.00742042949264161,-2.6040881383857073,-0.10902410509211237,2.468155651781294,0.8264826706183542,1.2134413937687574,-0.2202432315892585,-0.0075118285948192216,-2.6038483821997875,-0.10888392708698907,2.4681821257803174,0.826474908251239,0.0005739000492331798,-0.0005369804362981153,0.0006054692146472993,-0.0011340230365987898,0.0005036261261304185,0.00020274541220489454,0.0006538820748102554,0.0,0.0,0.0,0.0,0.0,0.0,0.0,-0.0001400771346844465,8.767293845587942e-05,-9.139910217761168e-05,0.00023975618591975945,0.00014017800512329537,2.6473999023224337e-05,-7.762367115193847e-06,-0.0005739000492331798,0.0005369804362981153,-0.0006054692146472993,0.0011340230365987898,-0.0005036261261304185,-0.00020274541220489454,-0.0006538820748102554,0.4267818331718445,19.717248916625977,0.4228789508342743,-20.205720901489258,-0.8737083077430725,-2.4630770683288574,0.28232139348983765,0
27,0.12999892234802246,-0.4029781222343445,-19.844202041625977,-0.3990752398967743,20.130342483520508,0.8856101632118225,2.4694857597351074,-0.29605430364608765,0.0,0.0,0.0,0.0,0.0,0.0,0.0,-0.404750904297861,-0.007619336071466754,-0.22114174377769977,0.4068835280289954,0.3028427115480195,0.09924597495857937,-0.2728921819813888,1.213579800467742,-0.22032199553648632,-0.007421389747302602,-2.6040830955802834,-0.10902542752027511,2.4681549397044713,0.8264841960128175,1.2134413937687574,-0.2202432315892585,-0.0075118285948192216,-2.6038483821997875,-0.10888392708698907,2.4681821257803174,0.826474908251239,-0.0004116616732244541,0.0021020987579571564,0.00020663987344579147,0.0010358322642365512,8.964110155844258e-05,4.5575758182009345e-05,0.0007967490920799963,0.0,0.0,0.0,0.0,0.0,0.0,0.0,-0.00013840669898468327,7.876394722783342e-05,-9.043884751661936e-05,0.00023471338049585455,0.0001415004332860348,2.718607584606403e-05,-9.287761578491427e-06,0.0004116616732244541,-0.0021020987579571564,-0.00020663987344579147,-0.0010358322642365512,-8.964110155844258e-05,-4.5575758182009345e-05,-0.0007967490920799963,0.4029781222343445,19.844202041625977,0.3990752398967743,-20.130342483520508,-0.8856101632118225,-2.4694857597351074,0.29605430364608765,0
28,0.13500022888183594,-0.4029781222343445,-19.844202041625977,-0.3990752398967743,20.130342483520508,0.8856101632118225,2.4694857597351074,-0.29605430364608765,0.0,0.0,0.0,0.0,0.0,0.0,0.0,-0.404750904297861,-0.007619336071466754,-0.22114174377769977,0.4068835280289954,0.3028427115480195,0.09924597495857937,-0.2728921819813888,1.213579800467742,-0.22032199553648632,-0.007421389747302602,-2.6040830955802834,-0.10902542752027511,2.4681549397044713,0.8264841960128175,1.2134413937687574,-0.2202432315892585,-0.0075118285948192216,-2.6038483821997875,-0.10888392708698907,2.4681821257803174,0.826474908251239,-0.0004116616732244541,0.0021020987579571564,0.00020663987344579147,0.0010358322642365512,8.964110155844258e-05,4.5575758182009345e-05,0.0007967490920799963,0.0,0.0,0.0,0.0,0.0,0.0,0.0,-0.00013840669898468327,7.876394722783342e-05,-9.043884751661936e-05,0.00023471338049585455,0.0001415004332860348,2.718607584606403e-05,-9.287761578491427e-06,0.0004116616732244541,-0.0021020987579571564,-0.00020663987344579147,-0.0010358322642365512,-8.964110155844258e-05,-4.5575758182009345e-05,-0.0007967490920799963,0.4029781222343445,19.844202041625977,0.3990752398967743,-20.130342483520508,-0.8856101632118225,-2.4694857597351074,0.29605430364608765,0
29,0.14002776145935059,-0.4267818331718445,-19.768823623657227,-0.4228789508342743,20.229524612426758,0.8856101632118225,2.4630770683288574,-0.29605430364608765,0.0,0.0,0.0,0.0,0.0,0.0,0.0,-0.4072339149515657,-0.0154914388501222,-0.22038351569930864,0.40597575304232814,0.3034855596175295,0.09942938482050229,-0.27372607430458734,1.2135814434314978,-0.22032728525002798,-0.007419720281629276,-2.604089808493498,-0.10902542752027511,2.468155651781294,0.8264838389239735,1.2134413937687574,-0.2202432315892585,-0.0075118285948192216,-2.6038483821997875,-0.10888392708698907,2.4681821257803174,0.826474908251239,0.0003467758946966488,-0.0006980941739250073,8.354299328125452e-05,-0.000742705285153243,5.489083338769816e-05,0.0003153849276547925,0.0009182725958016637,0.0,0.0,0.0,0.0,0.0,0.0,0.0,-0.00014004966274039354,8.405366076949528e-05,-9.21083131899458e-05,0.0002414262937104894,0.0001415004332860348,2.6473999023224337e-05,-8.930672734441814e-06,-0.0003467758946966488,0.0006980941739250073,-8.354299328125452e-05,0.000742705285153243,-5.489083338769816e-05,-0.0003153849276547925,-0.0009182725958016637,0.4267818331718445,19.768823623657227,0.4228789508342743,-20.229524612426758,-0.8856101632118225,-2.4630770683288574,0.29605430364608765,0
30,0.14499473571777344,-0.4267818331718445,-19.768823623657227,-0.4228789508342743,20.229524612426758,0.8856101632118225,2.4630770683288574,-0.29605430364608765,0.0,0.0,0.0,0.0,0.0,0.0,0.0,-0.4072339149515657,-0.0154914388501222,-0.22038351569930864,0.40597575304232814,0.3034855596175295,0.09942938482050229,-0.27372607430458734,1.2135814434314978,-0.22032728525002798,-0.007419720281629276,-2.604089808493498,-0.10902542752027511,2.468155651781294,0.8264838389239735,1.2134413937687574,-0.2202432315892585,-0.0075118285948192216,-2.6038483821997875,-0.10888392708698907,2.4681821257803174,0.826474908251239,0.0003467758946966488,-0.0006980941739250073,8.354299328125452e-05,-0.000742705285153243,5.489083338769816e-05,0.0003153849276547925,0.0009182725958016637,0.0,0.0,0.0,0.0,0.0,0.0,0.0,-0.00014004966274039354,8.405366076949528e-05,-9.21083131899458e-05,0.0002414262937104894,0.0001415004332860348,2.6473999023224337e-05,-8.930672734441814e-06,-0.0003467758946966488,0.0006980941739250073,-8.354299328125452e-05,0.000742705285153243,-5.489083338769816e-05,-0.0003153849276547925,-0.0009182725958016637,0.4267818331718445,19.768823623657227,0.4228789508342743,-20.229524612426758,-0.8856101632118225,-2.4630770683288574,0.29605430364608765,0
31,0.14999723434448242,-0.4029781222343445,-19.745019912719727,-0.3713042438030243,20.154146194458008,0.8856101632118225,2.4694857597351074,-0.29605430364608765,0.0,0.0,0.0,0.0,0.0,0.0,0.0,-0.4029140645038374,-0.0108101597773305,-0.21513706727124293,0.3998503161272821,0.30329256103949465,0.09859172485254004,-0.27406136596587216,1.2135797729954874,-0.22032895568588323,-0.007423417530678404,-2.6040867484164134,-0.10902542752027511,2.4681549397044713,0.8264831237752343,1.2134413937687574,-0.2202432315892585,-0.0075118285948192216,-2.6038483821997875,-0.10888392708698907,2.4681821257803174,0.826474908251239,-3.5784079193391816e-05,-0.00034865111511114014,-0.001018884814430749,0.0007027352035307109,0.00012141263215958407,1.7224699484888363e-05,0.00035959231561302974,0.0,0.0,0.0,0.0,0.0,0.0,0.0,-0.00013837922672998992,8.572409662474523e-05,-8.84110641408177e-05,0.00023836621662587376,0.0001415004332860348,2.718607584606403e-05,-8.215523995214191e-06,3.5784079193391816e-05,0.00034865111511114014,0.001018884814430749,-0.0007027352035307109,-0.00012141263215958407,-1.7224699484888363e-05,-0.00035959231561302974,0.4029781222343445,19.745019912719727,0.3713042438030243,-20.154146194458008,-0.8856101632118225,-2.4694857597351074,0.29605430364608765,0
32,0.15501070022583008,-0.4029781222343445,-19.745019912719727,-0.3713042438030243,20.154146194458008,0.8856101632118225,2.4694857597351074,-0.29605430364608765,0.0,0.0,0.0,0.0,0.0,0.0,0.0,-0.4029140645038374,-0.0108101597773305,-0.21513706727124293,0.3998503161272821,0.30329256103949465,0.09859172485254004,-0.27406136596587216,1.2135797729954874,-0.22032895568588323,-0.007423417530678404,-2.6040867484164134,-0.10902542752027511,2.4681549397044713,0.8264831237752343,1.2134413937687574,-0.2202432315892585,-0.0075118285948192216,-2.6038483821997875,-0.10888392708698907,2.4681821257803174,0.826474908251239,-3.5784079193391816e-05,-0.00034865111511114014,-0.001018884814430749,0.0007027352035307109,0.00012141263215958407,1.7224699484888363e-05,0.00035959231561302974,0.0,0.0,0.0,0.0,0.0,0.0,0.0,-0.00013837922672998992,8.572409662474523e-05,-8.84110641408177e-05,0.00023836621662587376,0.0001415004332860348,2.718607584606403e-05,-8.215523995214191e-06,3.5784079193391816e-05,0.00034865111511114014,0.001018884814430749,-0.0007027352035307109,-0.00012141263215958407,-1.7224699484888363e-05,-0.00035959231561302974,0.4029781222343445,19.745019912719727,0.3713042438030243,-20.154146194458008,-0.8856101632118225,-2.4694857597351074,0.29605430364608765,0
33,0.16004538536071777,-0.4267818331718445,-19.693445205688477,-0.3990752398967743,20.154146194458008,0.8801169991493225,2.4758944511413574,-0.27591270208358765,0.0,0.0,0.0,0.0,0.0,0.0,0.0,-0.40634787604252,-0.007829325281738617,-0.21732139723944502,0.4023322127703685,0.30328717636503777,0.09830639587767617,-0.2757184535509549,1.2135814709035457,-0.22033257496356964,-0.007421389743442136,-2.604084520128082,-0.10902600006336045,2.4681542276276485,0.8264819541789359,1.2134413937687574,-0.2202432315892585,-0.0075118285948192216,-2.6038483821997875,-0.10888392708698907,2.4681821257803174,0.826474908251239,0.00062892764586566,-0.0004817400607186768,-0.000431564161495144,0.0007464182344503078,0.00010108837203534554,-0.00011467775779314619,0.00031045143644891396,0.0,0.0,0.0,0.0,0.0,0.0,0.0,-0.00014007713478836337,8.934337431115713e-05,-9.0438851377086e-05,0.0002361379282942444,0.0001420729763713796,2.789815266890372e-05,-7.045927696847087e-06,-0.00062892764586566,0.0004817400607186768,0.000431564161495144,-0.0007464182344503078,-0.00010108837203534554,0.00011467775779314619,-0.00031045143644891396,0.4267818331718445,19.693445205688477,0.3990752398967743,-20.154146194458008,-0.8801169991493225,-2.4758944511413574,0.27591270208358765,0
34,0.16501832008361816,-0.4267818331718445,-19.693445205688477,-0.3990752398967743,20.154146194458008,0.8801169991493225,2.4758944511413574,-0.27591270208358765,0.0,0.0,0.0,0.0,0.0,0.0,0.0,-0.40634787604252,-0.007829325281738617,-0.21732139723944502,0.4023322127703685,0.30328717636503777,0.09830639587767617,-0.2757184535509549,1.2135814709035457,-0.22033257496356964,-0.007421389743442136,-2.604084520128082,-0.10902600006336045,2.4681542276276485,0.8264819541789359,1.2134413937687574,-0.2202432315892585,-0.0075118285948192216,-2.6038483821997875,-0.10888392708698907,2.4681821257803174,0.826474908251239,0.00062892764586566,-0.0004817400607186768,-0.000431564161495144,0.0007464182344503078,0.00010108837203534554,-0.00011467775779314619,0.00031045143644891396,0.0,0.0,0.0,0.0,0.0,0.0,0.0,-0.00014007713478836337,8.934337431115713e-05,-9.0438851377086e-05,0.0002361379282942444,0.0001420729763713796,2.789815266890372e-05,-7.045927696847087e-06,-0.00062892764586566,0.0004817400607186768,0.000431564161495144,-0.0007464182344503078,-0.00010108837203534554,0.00011467775779314619,-0.00031045143644891396,0.4267818331718445,19.693445205688477,0.3990752398967743,-20.154146194458008,-0.8801169991493225,-2.4758944511413574,0.27591270208358765,0
35,0.17006206512451172,-0.4267818331718445,-19.693445205688477,-0.3990752398967743,20.154146194458008,0.8801169991493225,2.4758944511413574,-0.27591270208358765,0.0,0.0,0.0,0.0,0.0,0.0,0.0,-0.40634787604252,-0.007829325281738617,-0.21732139723944502,0.4023322127703685,0.30328717636503777,0.09830639587767617,-0.2757184535509549,1.2135814709035457,-0.22033257496356964,-0.007421389743442136,-2.604084520128082,-0.10902600006336045,2.4681542276276485,0.8264819541789359,1.2134413937687574,-0.2202432315892585,-0.0075118285948192216,-2.6038483821997875,-0.10888392708698907,2.4681821257803174,0.826474908251239,0.00062892764586566,-0.0004817400607186768,-0.000431564161495144,0.0007464182344503078,0.00010108837203534554,-0.00011467775779314619,0.00031045143644891396,0.0,0.0,0.0,0.0,0.0,0.0,0.0,-0.00014007713478836337,8.934337431115713e-05,-9.0438851377086e-05,0.0002361379282942444,0.0001420729763713796,2.789815266890372e-05,-7.045927696847087e-06,-0.00062892764586566,0.0004817400607186768,0.000431564161495144,-0.0007464182344503078,-0.00010108837203534554,0.00011467775779314619,-0.00031045143644891396,0.4267818331718445,19.693445205688477,0.3990752398967743,-20.154146194458008,-0.8801169991493225,-2.4758944511413574,0.27591270208358765,0
36,0.17500805854797363,-0.4267818331718445,-19.693445205688477,-0.3990752398967743,20.154146194458008,0.8801169991493225,2.4758944511413574,-0.27591270208358765,0.0,0.0,0.0,0.0,0.0,0.0,0.0,-0.40634787604252,-0.007829325281738617,-0.21732139723944502,0.4023322127703685,0.30328717636503777,0.09830639587767617,-0.2757184535509549,1.2135814709035457,-0.22033257496356964,-0.007421389743442136,-2.604084520128082,-0.10902600006336045,2.4681542276276485,0.8264819541789359,1.2134413937687574,-0.2202432315892585,-0.0075118285948192216,-2.6038483821997875,-0.10888392708698907,2.4681821257803174,0.826474908251239,0.00062892764586566,-0.0004817400607186768,-0.000431564161495144,0.0007464182344503078,0.00010108837203534554,-0.00011467775779314619,0.00031045143644891396,0.0,0.0,0.0,0.0,0.0,0.0,0.0,-0.00014007713478836337,8.934337431115713e-05,-9.0438851377086e-05,0.0002361379282942444,0.0001420729763713796,2.789815266890372e-05,-7.045927696847087e-06,-0.00062892764586566,0.0004817400607186768,0.000431564161495144,-0.0007464182344503078,-0.00010108837203534554,0.00011467775779314619,-0.00031045143644891396,0.4267818331718445,19.693445205688477,0.3990752398967743,-20.154146194458008,-0.8801169991493225,-2.4758944511413574,0.27591270208358765,0
37,0.1800062656402588,-0.4029781222343445,-19.745019912719727,-0.3990752398967743,20.181917190551758,0.8920188546180725,2.4694857597351074,-0.28232139348983765,0.0,0.0,0.0,0.0,0.0,0.0,0.0,-0.40869624690217626,-0.0007857225446438139,-0.21851648684833305,0.4001408692685964,0.30242026990387877,0.09827084389591,-0.27494841647895685,1.2135797180137584,-0.22032895568588323,-0.007421390717484538,-2.604086468664248,-0.1090261396037755,2.4681549397044713,0.8264826704568978,1.2134413937687574,-0.2202432315892585,-0.0075118285948192216,-2.6038483821997875,-0.10888392708698907,2.4681821257803174,0.826474908251239,-7.026432850213906e-05,0.0011871080457649026,-0.000415132352946497,-0.0007370225243258753,-0.00027171976179657495,-7.465994995529816e-05,0.0005578924997833585,0.0,0.0,0.0,0.0,0.0,0.0,0.0,-0.00013832424500104246,8.572409662474523e-05,-9.04378773346837e-05,0.0002380864644604408,0.00014221251678642188,2.718607584606403e-05,-7.762205658790045e-06,7.026432850213906e-05,-0.0011871080457649026,0.000415132352946497,0.0007370225243258753,0.00027171976179657495,7.465994995529816e-05,-0.0005578924997833585,0.4029781222343445,19.745019912719727,0.3990752398967743,-20.181917190551758,-0.8920188546180725,-2.4694857597351074,0.28232139348983765,0
38,0.18500041961669922,-0.4029781222343445,-19.745019912719727,-0.3990752398967743,20.181917190551758,0.8920188546180725,2.4694857597351074,-0.28232139348983765,0.0,0.0,0.0,0.0,0.0,0.0,0.0,-0.40869624690217626,-0.0007857225446438139,-0.21851648684833305,0.4001408692685964,0.30242026990387877,0.09827084389591,-0.27494841647895685,1.2135797180137584,-0.22032895568588323,-0.007421390717484538,-2.604086468664248,-0.1090261396037755,2.4681549397044713,0.8264826704568978,1.2134413937687574,-0.2202432315892585,-0.0075118285948192216,-2.6038483821997875,-0.10888392708698907,2.4681821257803174,0.826474908251239,-7.026432850213906e-05,0.0011871080457649026,-0.000415132352946497,-0.0007370225243258753,-0.00027171976179657495,-7.465994995529816e-05,0.0005578924997833585,0.0,0.0,0.0,0.0,0.0,0.0,0.0,-0.00013832424500104246,8.572409662474523e-05,-9.04378773346837e-05,0.0002380864644604408,0.00014221251678642188,2.718607584606403e-05,-7.762205658790045e-06,7.026432850213906e-05,-0.0011871080457649026,0.000415132352946497,0.0007370225243258753,0.00027171976179657495,7.465994995529816e-05,-0.0005578924997833585,0.4029781222343445,19.745019912719727,0.3990752398967743,-20.181917190551758,-0.8920188546180725,-2.4694857597351074,0.28232139348983765,0
39,0.19001460075378418,-0.3752071261405945,-19.745019912719727,-0.4466826617717743,20.205720901489258,0.8856101632118225,2.4694857597351074,-0.26858848333358765,0.0,0.0,0.0,0.0,0.0,0.0,0.0,-0.41416320087967906,-0.002782767913283764,-0.2232949546923575,0.4097209808484739,0.30282534754697465,0.10032671689998068,-0.27388142402606874,1.2135778516254456,-0.22032895568588323,-0.007418048907669705,-2.6040882214787158,-0.10902542898063891,2.468154944065122,0.8264807910422943,1.2134413937687574,-0.2202432315892585,-0.0075118285948192216,-2.6038483821997875,-0.10888392708698907,2.4681821257803174,0.826474908251239,-0.0014163314879948202,0.0008235888967977269,0.0002525737674062682,-0.00017748136736396694,0.00023054473109125113,-3.4608480560742605e-05,-0.00024847975321355556,0.0,0.0,0.0,0.0,0.0,0.0,0.0,-0.0001364578566882546,8.572409662474523e-05,-9.377968714951654e-05,0.0002398392789282333,0.0001415018936498369,2.7181715195556677e-05,-5.882791055289438e-06,0.0014163314879948202,-0.0008235888967977269,-0.0002525737674062682,0.00017748136736396694,-0.00023054473109125113,3.4608480560742605e-05,0.00024847975321355556,0.3752071261405945,19.745019912719727,0.4466826617717743,-20.205720901489258,-0.8856101632118225,-2.4694857597351074,0.26858848333358765,0
40,0.19500041007995605,-0.3752071261405945,-19.745019912719727,-0.4466826617717743,20.205720901489258,0.8856101632118225,2.4694857597351074,-0.26858848333358765,0.0,0.0,0.0,0.0,0.0,0.0,0.0,-0.41416320087967906,-0.002782767913283764,-0.2232949546923575,0.4097209808484739,0.30282534754697465,0.10032671689998068,-0.27388142402606874,1.2135778516254456,-0.22032895568588323,-0.007418048907669705,-2.6040882214787158,-0.10902542898063891,2.468154944065122,0.8264807910422943,1.2134413937687574,-0.2202432315892585,-0.0075118285948192216,-2.6038483821997875,-0.10888392708698907,2.4681821257803174,0.826474908251239,-0.0014163314879948202,0.0008235888967977269,0.0002525737674062682,-0.00017748136736396694,0.00023054473109125113,-3.4608480560742605e-05,-0.00024847975321355556,0.0,0.0,0.0,0.0,0.0,0.0,0.0,-0.0001364578566882546,8.572409662474523e-05,-9.377968714951654e-05,0.0002398392789282333,0.0001415018936498369,2.7181715195556677e-05,-5.882791055289438e-06,0.0014163314879948202,-0.0008235888967977269,-0.0002525737674062682,0.00017748136736396694,-0.00023054473109125113,3.4608480560742605e-05,0.00024847975321355556,0.3752071261405945,19.745019912719727,0.4466826617717743,-20.205720901489258,-0.8856101632118225,-2.4694857597351074,0.26858848333358765,0
41,0.20000123977661133,-0.4267818331718445,-19.792627334594727,-0.4228789508342743,20.181917190551758,0.8856101632118225,2.4758944511413574,-0.30978721380233765,0.0,0.0,0.0,0.0,0.0,0.0,0.0,-0.4122042768133126,-0.0006052745675575666,-0.22461021149909174,0.4060716990819861,0.302585372033301,0.0993769011196136,-0.27357901139420193,1.2135814709035975,-0.2203256148141727,-0.007419719307438526,-2.604086714896123,-0.10902579553195157,2.468155287265802,0.8264855523088651,1.2134413937687574,-0.2202432315892585,-0.0075118285948192216,-2.6038483821997875,-0.10888392708698907,2.4681821257803174,0.826474908251239,-2.9123135947711115e-05,0.0008346921533134073,-0.0001641169744025218,-0.00013998420697625838,0.00021856140150467015,8.033209742703886e-06,0.0018246593604159895,0.0,0.0,0.0,0.0,0.0,0.0,0.0,-0.00014007713484009976,8.238322491421757e-05,-9.210928738069557e-05,0.0002383326963353305,0.00014186844496250073,2.6838514515237222e-05,-1.0644057626074677e-05,2.9123135947711115e-05,-0.0008346921533134073,0.0001641169744025218,0.00013998420697625838,-0.00021856140150467015,-8.033209742703886e-06,-0.0018246593604159895,0.4267818331718445,19.792627334594727,0.4228789508342743,-20.181917190551758,-0.8856101632118225,-2.4758944511413574,0.30978721380233765,0
42,0.20495271682739258,-0.4267818331718445,-19.792627334594727,-0.4228789508342743,20.181917190551758,0.8856101632118225,2.4758944511413574,-0.30978721380233765,0.0,0.0,0.0,0.0,0.0,0.0,0.0,-0.4122042768133126,-0.0006052745675575666,-0.22461021149909174,0.4060716990819861,0.302585372033301,0.0993769011196136,-0.27357901139420193,1.2135814709035975,-0.2203256148141727,-0.007419719307438526,-2.604086714896123,-0.10902579553195157,2.468155287265802,0.8264855523088651,1.2134413937687574,-0.2202432315892585,-0.0075118285948192216,-2.6038483821997875,-0.10888392708698907,2.4681821257803174,0.826474908251239,-2.9123135947711115e-05,0.0008346921533134073,-0.0001641169744025218,-0.00013998420697625838,0.00021856140150467015,8.033209742703886e-06,0.0018246593604159895,0.0,0.0,0.0,0.0,0.0,0.0,0.0,-0.00014007713484009976,8.238322491421757e-05,-9.210928738069557e-05,0.0002383326963353305,0.00014186844496250073,2.6838514515237222e-05,-1.0644057626074677e-05,2.9123135947711115e-05,-0.0008346921533134073,0.0001641169744025218,0.00013998420697625838,-0.00021856140150467015,-8.033209742703886e-06,-0.0018246593604159895,0.4267818331718445,19.792627334594727,0.4228789508342743,-20.181917190551758,-0.8856101632118225,-2.4758944511413574,0.30978721380233765,0
43,0.2101120948791504,-0.4029781222343445,-19.768823623657227,-0.3990752398967743,20.181917190551758,0.8856101632118225,2.4823031425476074,-0.28232139348983765,0.0,0.0,0.0,0.0,0.0,0.0,0.0,-0.40928139904587196,-0.008510865287306608,-0.22038338466190585,0.409726575489027,0.3027073636803247,0.09995391625036645,-0.27377577643523704,1.213579800467742,-0.22032728525002798,-0.007421390825727976,-2.604086587673717,-0.10902542752235254,2.4681535155568066,0.8264826573740103,1.2134413937687574,-0.2202432315892585,-0.0075118285948192216,-2.6038483821997875,-0.10888392708698907,2.4681821257803174,0.826474908251239,-0.0003055747645587525,-0.0005063002021746985,-0.00014809479733541274,0.0003803111302468362,-0.00010146040721847358,-0.00041395978033949835,-0.00015628269436653898,0.0,0.0,0.0,0.0,0.0,0.0,0.0,-0.00013840669898468327,8.405366076949528e-05,-9.043776909124519e-05,0.00023820547392938707,0.00014150043536347023,2.8610223510749933e-05,-7.749122771238959e-06,0.0003055747645587525,0.0005063002021746985,0.00014809479733541274,-0.0003803111302468362,0.00010146040721847358,0.00041395978033949835,0.00015628269436653898,0.4029781222343445,19.768823623657227,0.3990752398967743,-20.181917190551758,-0.8856101632118225,-2.4823031425476074,0.28232139348983765,0
44,0.2149970531463623,-0.4029781222343445,-19.768823623657227,-0.3990752398967743,20.181917190551758,0.8856101632118225,2.4823031425476074,-0.28232139348983765,0.0,0.0,0.0,0.0,0.0,0.0,0.0,-0.40928139904587196,-0.008510865287306608,-0.22038338466190585,0.409726575489027,0.3027073636803247,0.09995391625036645,-0.27377577643523704,1.213579800467742,-0.22032728525002798,-0.007421390825727976,-2.604086587673717,-0.10902542752235254,2.4681535155568066,0.8264826573740103,1.2134413937687574,-0.2202432315892585,-0.0075118285948192216,-2.6038483821997875,-0.10888392708698907,2.4681821257803174,0.826474908251239,-0.0003055747645587525,-0.0005063002021746985,-0.00014809479733541274,0.0003803111302468362,-0.00010146040721847358,-0.00041395978033949835,-0.00015628269436653898,0.0,0.0,0.0,0.0,0.0,0.0,0.0,-0.00013840669898468327,8.405366076949528e-05,-9.043776909124519e-05,0.00023820547392938707,0.00014150043536347023,2.8610223510749933e-05,-7.749122771238959e-06,0.0003055747645587525,0.0005063002021746985,0.00014809479733541274,-0.0003803111302468362,0.00010146040721847358,0.00041395978033949835,0.00015628269436653898,0.4029781222343445,19.768823623657227,0.3990752398967743,-20.181917190551758,-0.8856101632118225,-2.4823031425476074,0.28232139348983765,0
45,0.2199995517730713,-0.4029781222343445,-19.768823623657227,-0.4228789508342743,20.154146194458008,0.8920188546180725,2.4758944511413574,-0.28964561223983765,0.0,0.0,0.0,0.0,0.0,0.0,0.0,-0.41257421782045095,-0.0030759584823309,-0.22169767102348387,0.4020272339268287,0.30255524616558344,0.0982526689285053,-0.2749851237452115,1.2135797974152864,-0.22032728525002798,-0.00742042960090338,-2.604085342932262,-0.10902613959709806,2.4681542276276485,0.8264787747559845,1.2134413937687574,-0.2202432315892585,-0.0075118285948192216,-2.6038483821997875,-0.10888392708698907,2.4681821257803174,0.826474908251239,0.00034745027584371936,0.00022898883903977972,-8.950021940583486e-05,0.0007230559753034788,-0.00018350192645377232,-0.0001252250645158918,0.0007572500253029543,0.0,0.0,0.0,0.0,0.0,0.0,0.0,-0.00013840364652906167,8.405366076949528e-05,-9.139899391584147e-05,0.00023696073247458926,0.0001422125101089855,2.789815266890372e-05,-3.866504745486665e-06,-0.00034745027584371936,-0.00022898883903977972,8.950021940583486e-05,-0.0007230559753034788,0.00018350192645377232,0.0001252250645158918,-0.0007572500253029543,0.4029781222343445,19.768823623657227,0.4228789508342743,-20.154146194458008,-0.8920188546180725,-2.4758944511413574,0.28964561223983765,0
46,0.2250068187713623,-0.4029781222343445,-19.768823623657227,-0.4228789508342743,20.154146194458008,0.8920188546180725,2.4758944511413574,-0.28964561223983765,0.0,0.0,0.0,0.0,0.0,0.0,0.0,-0.41257421782045095,-0.0030759584823309,-0.22169767102348387,0.4020272339268287,0.30255524616558344,0.0982526689285053,-0.2749851237452115,1.2135797974152864,-0.22032728525002798,-0.00742042960090338,-2.604085342932262,-0.10902613959709806,2.4681542276276485,0.8264787747559845,1.2134413937687574,-0.2202432315892585,-0.0075118285948192216,-2.6038483821997875,-0.10888392708698907,2.4681821257803174,0.826474908251239,0.00034745027584371936,0.00022898883903977972,-8.950021940583486e-05,0.0007230559753034788,-0.00018350192645377232,-0.0001252250645158918,0.0007572500253029543,0.0,0.0,0.0,0.0,0.0,0.0,0.0,-0.00013840364652906167,8.405366076949528e-05,-9.139899391584147e-05,0.00023696073247458926,0.0001422125101089855,2.789815266890372e-05,-3.866504745486665e-06,-0.00034745027584371936,-0.00022898883903977972,8.950021940583486e-05,-0.0007230559753034788,0.00018350192645377232,0.0001252250645158918,-0.0007572500253029543,0.4029781222343445,19.768823623657227,0.4228789508342743,-20.154146194458008,-0.8920188546180725,-2.4758944511413574,0.28964561223983765,0
47,0.2299940586090088,-0.4029781222343445,-19.745019912719727,-0.4228789508342743,20.181917190551758,0.8920188546180725,2.4758944511413574,-0.24844686686992645,0.0,0.0,0.0,0.0,0.0,0.0,0.0,-0.40735509412443704,-0.014807140317817637,-0.21586738734661726,0.4101346544498708,0.3028446032995821,0.10023677917699556,-0.27539507261250146,1.2135798004677363,-0.22032895568588323,-0.007421849864384727,-2.604086498147738,-0.10902649446549238,2.4681542276276485,0.8264785514609925,1.2134413937687574,-0.2202432315892585,-0.0075118285948192216,-2.6038483821997875,-0.10888392708698907,2.4681821257803174,0.826474908251239,0.0002471386937347565,4.1828375484562056e-05,0.0007281882789292359,0.0003975166316616191,-0.0002138522964643035,-0.00027527312586387925,-0.0012091356570480478,0.0,0.0,0.0,0.0,0.0,0.0,0.0,-0.00013840669897891011,8.572409662474523e-05,-8.997873043449425e-05,0.00023811594795031255,0.00014256737850330825,2.789815266890372e-05,-3.643209753434462e-06,-0.0002471386937347565,-4.1828375484562056e-05,-0.0007281882789292359,-0.0003975166316616191,0.0002138522964643035,0.00027527312586387925,0.0012091356570480478,0.4029781222343445,19.745019912719727,0.4228789508342743,-20.181917190551758,-0.8920188546180725,-2.4758944511413574,0.24844686686992645,0
48,0.23499655723571777,-0.4029781222343445,-19.745019912719727,-0.4228789508342743,20.181917190551758,0.8920188546180725,2.4758944511413574,-0.24844686686992645,0.0,0.0,0.0,0.0,0.0,0.0,0.0,-0.40735509412443704,-0.014807140317817637,-0.21586738734661726,0.4101346544498708,0.3028446032995821,0.10023677917699556,-0.27539507261250146,1.2135798004677363,-0.22032895568588323,-0.007421849864384727,-2.604086498147738,-0.10902649446549238,2.4681542276276485,0.8264785514609925,1.2134413937687574,-0.2202432315892585,-0.0075118285948192216,-2.6038483821997875,-0.10888392708698907,2.4681821257803174,0.826474908251239,0.0002471386937347565,4.1828375484562056e-05,0.0007281882789292359,0.0003975166316616191,-0.0002138522964643035,-0.00027527312586387925,-0.0012091356570480478,0.0,0.0,0.0,0.0,0.0,0.0,0.0,-0.00013840669897891011,8.572409662474523e-05,-8.997873043449425e-05,0.00023811594795031255,0.00014256737850330825,2.789815266890372e-05,-3.643209753434462e-06,-0.0002471386937347565,-4.1828375484562056e-05,-0.0007281882789292359,-0.0003975166316616191,0.0002138522964643035,0.00027527312586387925,0.0012091356570480478,0.4029781222343445,19.745019912719727,0.4228789508342743,-20.181917190551758,-0.8920188546180725,-2.4758944511413574,0.24844686686992645,0
49,0.24001431465148926,-0.4267818331718445,-19.745019912719727,-0.4228789508342743,20.205720901489258,0.8856101632118225,2.4630770683288574,-0.22830526530742645,0.0,0.0,0.0,0.0,0.0,0.0,0.0,-0.4133834114002876,-0.01792526667195242,-0.2199414152250141,0.4104061968277886,0.3033159034103379,0.09989151725481268,-0.2748138531007047,1.2135814709035975,-0.22032895568588323,-0.007419719319465379,-2.6040881685696533,-0.10902862133782758,2.468155651781294,0.8264766644637511,1.2134413937687574,-0.2202432315892585,-0.0075118285948192216,-2.6038483821997875,-0.10888392708698907,2.4681821257803174,0.826474908251239,0.0004454570937315089,-0.00041769037888539536,-0.0002342788285184865,-0.0006071723084233146,0.00011924227629582508,0.00018039299036400291,-0.0017949555336189424,0.0,0.0,0.0,0.0,0.0,0.0,0.0,-0.00014007713484009976,8.572409662474523e-05,-9.210927535384297e-05,0.00023978636986576873,0.0001446942508385035,2.6473999023224337e-05,-1.7562125120829108e-06,-0.0004454570937315089,0.00041769037888539536,0.0002342788285184865,0.0006071723084233146,-0.00011924227629582508,-0.00018039299036400291,0.0017949555336189424,0.4267818331718445,19.745019912719727,0.4228789508342743,-20.205720901489258,-0.8856101632118225,-2.4630770683288574,0.22830526530742645,0
50,0.24503207206726074,-0.4267818331718445,-19.745019912719727,-0.4228789508342743,20.205720901489258,0.8856101632118225,2.4630770683288574,-0.22830526530742645,0.0,0.0,0.0,0.0,0.0,0.0,0.0,-0.4133834114002876,-0.01792526667195242,-0.2199414152250141,0.4104061968277886,0.3033159034103379,0.09989151725481268,-0.2748138531007047,1.2135814709035975,-0.22032895568588323,-0.007419719319465379,-2.6040881685696533,-0.10902862133782758,2.468155651781294,0.8264766644637511,1.2134413937687574,-0.2202432315892585,-0.0075118285948192216,-2.6038483821997875,-0.10888392708698907,2.4681821257803174,0.826474908251239,0.0004454570937315089,-0.00041769037888539536,-0.0002342788285184865,-0.0006071723084233146,0.00011924227629582508,0.00018039299036400291,-0.0017949555336189424,0.0,0.0,0.0,0.0,0.0,0.0,0.0,-0.00014007713484009976,8.572409662474523e-05,-9.210927535384297e-05,0.00023978636986576873,0.0001446942508385035,2.6473999023224337e-05,-1.7562125120829108e-06,-0.0004454570937315089,0.00041769037888539536,0.0002342788285184865,0.0006071723084233146,-0.00011924227629582508,-0.00018039299036400291,0.0017949555336189424,0.4267818331718445,19.745019912719727,0.4228789508342743,-20.205720901489258,-0.8856101632118225,-2.4630770683288574,0.22830526530742645,0
51,0.25003504753112793,-0.4029781222343445,-19.717248916625977,-0.4704863727092743,20.154146194458008,0.8856101632118225,2.4694857597351074,-0.24844686686992645,0.0,0.0,0.0,0.0,0.0,0.0,0.0,-0.40976978038121814,-0.006213086118105462,-0.21522209193775116,0.40534273298975076,0.30355236599345287,0.098830607820723,-0.2743111003225734,1.213579717033958,-0.22033090452771437,-0.007416378435727864,-2.6040867450249685,-0.1090254275383043,2.4681549397044713,0.8264787890445423,1.2134413937687574,-0.2202432315892585,-0.0075118285948192216,-2.6038483821997875,-0.10888392708698907,2.4681821257803174,0.826474908251239,-0.00011840217257770871,-5.6377730950731406e-05,0.0010492925778021519,0.0007536663693909598,0.0002934627728156189,-1.1074952858155595e-05,-0.0010200119049519668,0.0,0.0,0.0,0.0,0.0,0.0,0.0,-0.00013832326520057947,8.767293845587942e-05,-9.545015909135767e-05,0.00023836282518097107,0.00014150045131522404,2.718607584606403e-05,-3.880793303268071e-06,0.00011840217257770871,5.6377730950731406e-05,-0.0010492925778021519,-0.0007536663693909598,-0.0002934627728156189,1.1074952858155595e-05,0.0010200119049519668,0.4029781222343445,19.717248916625977,0.4704863727092743,-20.154146194458008,-0.8856101632118225,-2.4694857597351074,0.24844686686992645,0
52,0.2550063133239746,-0.4029781222343445,-19.717248916625977,-0.4704863727092743,20.154146194458008,0.8856101632118225,2.4694857597351074,-0.24844686686992645,0.0,0.0,0.0,0.0,0.0,0.0,0.0,-0.40976978038121814,-0.006213086118105462,-0.21522209193775116,0.40534273298975076,0.30355236599345287,0.098830607820723,-0.2743111003225734,1.213579717033958,-0.22033090452771437,-0.007416378435727864,-2.6040867450249685,-0.1090254275383043,2.4681549397044713,0.8264787890445423,1.2134413937687574,-0.2202432315892585,-0.0075118285948192216,-2.6038483821997875,-0.10888392708698907,2.4681821257803174,0.826474908251239,-0.00011840217257770871,-5.6377730950731406e-05,0.0010492925778021519,0.0007536663693909598,0.0002934627728156189,-1.1074952858155595e-05,-0.0010200119049519668,0.0,0.0,0.0,0.0,0.0,0.0,0.0,-0.00013832326520057947,8.767293845587942e-05,-9.545015909135767e-05,0.00023836282518097107,0.00014150045131522404,2.718607584606403e-05,-3.880793303268071e-06,0.00011840217257770871,5.6377730950731406e-05,-0.0010492925778021519,-0.0007536663693909598,-0.0002934627728156189,1.1074952858155595e-05,0.0010200119049519668,0.4029781222343445,19.717248916625977,0.4704863727092743,-20.154146194458008,-0.8856101632118225,-2.4694857597351074,0.24844686686992645,0
53,0.2600061893463135,-0.4029781222343445,-19.717248916625977,-0.4228789508342743,20.181917190551758,0.8856101632118225,2.4694857597351074,-0.26858848333358765,0.0,0.0,0.0,0.0,0.0,0.0,0.0,-0.4149098081624385,-0.00862887086098524,-0.22069951964996615,0.40798202084982993,0.3042998449235787,0.09950576597043911,-0.27418388885993605,1.2135797913099045,-0.22033090452771437,-0.007419719307438322,-2.604086495131422,-0.10902578238866957,2.4681549397044713,0.8264811442005051,1.2134413937687574,-0.2202432315892585,-0.0075118285948192216,-2.6038483821997875,-0.10888392708698907,2.4681821257803174,0.826474908251239,-0.0008220981060022389,-0.0002498211013026512,-0.00010042152093505533,0.00022412428887954222,8.934068844411543e-05,6.036434489220487e-05,-0.00027367596107591435,0.0,0.0,0.0,0.0,0.0,0.0,0.0,-0.0001383975411470839,8.767293845587942e-05,-9.21092873808994e-05,0.00023811293163467084,0.00014185530168049632,2.718607584606403e-05,-6.235949266075735e-06,0.0008220981060022389,0.0002498211013026512,0.00010042152093505533,-0.00022412428887954222,-8.934068844411543e-05,-6.036434489220487e-05,0.00027367596107591435,0.4029781222343445,19.717248916625977,0.4228789508342743,-20.181917190551758,-0.8856101632118225,-2.4694857597351074,0.26858848333358765,0
54,0.26499295234680176,-0.4029781222343445,-19.717248916625977,-0.4228789508342743,20.181917190551758,0.8856101632118225,2.4694857597351074,-0.26858848333358765,0.0,0.0,0.0,0.0,0.0,0.0,0.0,-0.4149098081624385,-0.00862887086098524,-0.22069951964996615,0.40798202084982993,0.3042998449235787,0.09950576597043911,-0.27418388885993605,1.2135797913099045,-0.22033090452771437,-0.007419719307438322,-2.604086495131422,-0.10902578238866957,2.4681549397044713,0.8264811442005051,1.2134413937687574,-0.2202432315892585,-0.0075118285948192216,-2.6038483821997875,-0.10888392708698907,2.4681821257803174,0.826474908251239,-0.0008220981060022389,-0.0002498211013026512,-0.00010042152093505533,0.00022412428887954222,8.934068844411543e-05,6.036434489220487e-05,-0.00027367596107591435,0.0,0.0,0.0,0.0,0.0,0.0,0.0,-0.0001383975411470839,8.767293845587942e-05,-9.21092873808994e-05,0.00023811293163467084,0.00014185530168049632,2.718607584606403e-05,-6.235949266075735e-06,0.0008220981060022389,0.0002498211013026512,0.00010042152093505533,-0.00022412428887954222,-8.934068844411543e-05,-6.036434489220487e-05,0.00027367596107591435,0.4029781222343445,19.717248916625977,0.4228789508342743,-20.181917190551758,-0.8856101632118225,-2.4694857597351074,0.26858848333358765,0
55,0.27004432678222656,-0.4029781222343445,-19.717248916625977,-0.4228789508342743,20.181917190551758,0.8920188546180725,2.4758944511413574,-0.30337852239608765,0.0,0.0,0.0,0.0,0.0,0.0,0.0,-0.4144454885717932,-0.004035199396442969,-0.22187447195574875,0.40462890185315586,0.3039878768505844,0.09912609352497997,-0.274071928983198,1.2135798004676903,-0.22033090452771437,-0.007419719307438322,-2.604086504351746,-0.10902720436654698,2.4681542276276485,0.8264850102994146,1.2134413937687574,-0.2202432315892585,-0.0075118285948192216,-2.6038483821997875,-0.10888392708698907,2.4681821257803174,0.826474908251239,-0.00041508336856856885,-0.0006179267130302865,-0.00017553423490322334,-0.00014915097201346583,-0.0002785190820101255,-0.00020033910800742896,0.0012294529592119644,0.0,0.0,0.0,0.0,0.0,0.0,0.0,-0.00013840669893294688,8.767293845587942e-05,-9.21092873808994e-05,0.00023812215195828657,0.00014327727955790182,2.789815266890372e-05,-1.0102048175530953e-05,0.00041508336856856885,0.0006179267130302865,0.00017553423490322334,0.00014915097201346583,0.0002785190820101255,0.00020033910800742896,-0.0012294529592119644,0.4029781222343445,19.717248916625977,0.4228789508342743,-20.181917190551758,-0.8920188546180725,-2.4758944511413574,0.30337852239608765,0
56,0.27501630783081055,-0.4029781222343445,-19.717248916625977,-0.4228789508342743,20.181917190551758,0.8920188546180725,2.4758944511413574,-0.30337852239608765,0.0,0.0,0.0,0.0,0.0,0.0,0.0,-0.4144454885717932,-0.004035199396442969,-0.22187447195574875,0.40462890185315586,0.3039878768505844,0.09912609352497997,-0.274071928983198,1.2135798004676903,-0.22033090452771437,-0.007419719307438322,-2.604086504351746,-0.10902720436654698,2.4681542276276485,0.8264850102994146,1.2134413937687574,-0.2202432315892585,-0.0075118285948192216,-2.6038483821997875,-0.10888392708698907,2.4681821257803174,0.826474908251239,-0.00041508336856856885,-0.0006179267130302865,-0.00017553423490322334,-0.00014915097201346583,-0.0002785190820101255,-0.00020033910800742896,0.0012294529592119644,0.0,0.0,0.0,0.0,0.0,0.0,0.0,-0.00013840669893294688,8.767293845587942e-05,-9.21092873808994e-05,0.00023812215195828657,0.00014327727955790182,2.789815266890372e-05,-1.0102048175530953e-05,0.00041508336856856885,0.0006179267130302865,0.00017553423490322334,0.00014915097201346583,0.0002785190820101255,0.00020033910800742896,-0.0012294529592119644,0.4029781222343445,19.717248916625977,0.4228789508342743,-20.181917190551758,-0.8920188546180725,-2.4758944511413574,0.30337852239608765,0
57,0.28000640869140625,-0.4029781222343445,-19.717248916625977,-0.4228789508342743,20.181917190551758,0.8920188546180725,2.4758944511413574,-0.30337852239608765,0.0,0.0,0.0,0.0,0.0,0.0,0.0,-0.4144454885717932,-0.004035199396442969,-0.22187447195574875,0.40462890185315586,0.3039878768505844,0.09912609352497997,-0.274071928983198,1.2135798004676903,-0.22033090452771437,-0.007419719307438322,-2.604086504351746,-0.10902720436654698,2.4681542276276485,0.8264850102994146,1.2134413937687574,-0.2202432315892585,-0.0075118285948192216,-2.6038483821997875,-0.10888392708698907,2.4681821257803174,0.826474908251239,-0.00041508336856856885,-0.0006179267130302865,-0.00017553423490322334,-0.00014915097201346583,-0.0002785190820101255,-0.00020033910800742896,0.0012294529592119644,0.0,0.0,0.0,0.0,0.0,0.0,0.0,-0.00013840669893294688,8.767293845587942e-05,-9.21092873808994e-05,0.00023812215195828657,0.00014327727955790182,2.789815266890372e-05,-1.0102048175530953e-05,0.00041508336856856885,0.0006179267130302865,0.00017553423490322334,0.00014915097201346583,0.0002785190820101255,0.00020033910800742896,-0.0012294529592119644,0.4029781222343445,19.717248916625977,0.4228789508342743,-20.181917190551758,-0.8920188546180725,-2.4758944511413574,0.30337852239608765,0
58,0.28499603271484375,-0.4029781222343445,-19.717248916625977,-0.4228789508342743,20.181917190551758,0.8920188546180725,2.4758944511413574,-0.30337852239608765,0.0,0.0,0.0,0.0,0.0,0.0,0.0,-0.4144454885717932,-0.004035199396442969,-0.22187447195574875,0.40462890185315586,0.3039878768505844,0.09912609352497997,-0.274071928983198,1.2135798004676903,-0.22033090452771437,-0.007419719307438322,-2.604086504351746,-0.10902720436654698,2.4681542276276485,0.8264850102994146,1.2134413937687574,-0.2202432315892585,-0.0075118285948192216,-2.6038483821997875,-0.10888392708698907,2.4681821257803174,0.826474908251239,-0.00041508336856856885,-0.0006179267130302865,-0.00017553423490322334,-0.00014915097201346583,-0.0002785190820101255,-0.00020033910800742896,0.0012294529592119644,0.0,0.0,0.0,0.0,0.0,0.0,0.0,-0.00013840669893294688,8.767293845587942e-05,-9.21092873808994e-05,0.00023812215195828657,0.00014327727955790182,2.789815266890372e-05,-1.0102048175530953e-05,0.00041508336856856885,0.0006179267130302865,0.00017553423490322334,0.00014915097201346583,0.0002785190820101255,0.00020033910800742896,-0.0012294529592119644,0.4029781222343445,19.717248916625977,0.4228789508342743,-20.181917190551758,-0.8920188546180725,-2.4758944511413574,0.30337852239608765,0
59,0.2899959087371826,-0.4267818331718445,-19.745019912719727,-0.3990752398967743,20.154146194458008,0.8856101632118225,2.4694857597351074,-0.23471395671367645,0.0,0.0,0.0,0.0,0.0,0.0,0.0,-0.4109671039431626,-0.007626567008239101,-0.22050351720565972,0.40578317734733976,0.30365310571825704,0.10045257034587754,-0.27395641490623646,1.2135814698861123,-0.22032895568588323,-0.007421389851537025,-2.6040848037762108,-0.10902542752227866,2.4681549397044713,0.8264742018273371,1.2134413937687574,-0.2202432315892585,-0.0075118285948192216,-2.6038483821997875,-0.10888392708698907,2.4681821257803174,0.826474908251239,0.0002485884278935919,-5.63826258335491e-05,-0.0004561736600053201,0.0006447344313506238,-5.9423844387078694e-05,3.149110641183498e-05,-0.001598355520229208,0.0,0.0,0.0,0.0,0.0,0.0,0.0,-0.00014007611735489256,8.572409662474523e-05,-9.043874328219619e-05,0.00023642157642322914,0.0001415004352895849,2.718607584606403e-05,7.064239019305418e-07,-0.0002485884278935919,5.63826258335491e-05,0.0004561736600053201,-0.0006447344313506238,5.9423844387078694e-05,-3.149110641183498e-05,0.001598355520229208,0.4267818331718445,19.745019912719727,0.3990752398967743,-20.154146194458008,-0.8856101632118225,-2.4694857597351074,0.23471395671367645,0
60,0.29499244689941406,-0.4267818331718445,-19.745019912719727,-0.3990752398967743,20.154146194458008,0.8856101632118225,2.4694857597351074,-0.23471395671367645,0.0,0.0,0.0,0.0,0.0,0.0,0.0,-0.4109671039431626,-0.007626567008239101,-0.22050351720565972,0.40578317734733976,0.30365310571825704,0.10045257034587754,-0.27395641490623646,1.2135814698861123,-0.22032895568588323,-0.007421389851537025,-2.6040848037762108,-0.10902542752227866,2.4681549397044713,0.8264742018273371,1.2134413937687574,-0.2202432315892585,-0.0075118285948192216,-2.6038483821997875,-0.10888392708698907,2.4681821257803174,0.826474908251239,0.0002485884278935919,-5.63826258335491e-05,-0.0004561736600053201,0.0006447344313506238,-5.9423844387078694e-05,3.149110641183498e-05,-0.001598355520229208,0.0,0.0,0.0,0.0,0.0,0.0,0.0,-0.00014007611735489256,8.572409662474523e-05,-9.043874328219619e-05,0.00023642157642322914,0.0001415004352895849,2.718607584606403e-05,7.064239019305418e-07,-0.0002485884278935919,5.63826258335491e-05,0.0004561736600053201,-0.0006447344313506238,5.9423844387078694e-05,-3.149110641183498e-05,0.001598355520229208,0.4267818331718445,19.745019912719727,0.3990752398967743,-20.154146194458008,-0.8856101632118225,-2.4694857597351074,0.23471395671367645,0
61,0.2999999523162842,-0.4029781222343445,-19.745019912719727,-0.3990752398967743,20.181917190551758,0.8975120186805725,2.4758944511413574,-0.24844686686992645,0.0,0.0,0.0,0.0,0.0,0.0,0.0,-0.4159788567565554,-0.004693779134054285,-0.22433211197613406,0.40520007942475117,0.30293794900885646,0.09973767173430026,-0.2730824962253209,1.2135798004677363,-0.22032895568588323,-0.0074213926658670505,-2.6040864799335552,-0.10902676893338945,2.4681542276276485,0.8264778077186994,1.2134413937687574,-0.2202432315892585,-0.0075118285948192216,-2.6038483821997875,-0.10888392708698907,2.4681821257803174,0.826474908251239,-0.00032857858847270296,0.00034521706103696014,-0.000644076672112078,0.00021639617829445108,-0.00032973459869588387,-0.00015427759808800395,-0.0006287817672574153,0.0,0.0,0.0,0.0,0.0,0.0,0.0,-0.00013840669897891011,8.572409662474523e-05,-9.043592895217108e-05,0.00023809773376770593,0.00014284184640037112,2.789815266890372e-05,-2.899467460348859e-06,0.00032857858847270296,-0.00034521706103696014,0.000644076672112078,-0.00021639617829445108,0.00032973459869588387,0.00015427759808800395,0.0006287817672574153,0.4029781222343445,19.745019912719727,0.3990752398967743,-20.181917190551758,-0.8975120186805725,-2.4758944511413574,0.24844686686992645,0
62,0.30501580238342285,-0.4029781222343445,-19.745019912719727,-0.3990752398967743,20.181917190551758,0.8975120186805725,2.4758944511413574,-0.24844686686992645,0.0,0.0,0.0,0.0,0.0,0.0,0.0,-0.4159788567565554,-0.004693779134054285,-0.22433211197613406,0.40520007942475117,0.30293794900885646,0.09973767173430026,-0.2730824962253209,1.2135798004677363,-0.22032895568588323,-0.0074213926658670505,-2.6040864799335552,-0.10902676893338945,2.4681542276276485,0.8264778077186994,1.2134413937687574,-0.2202432315892585,-0.0075118285948192216,-2.6038483821997875,-0.10888392708698907,2.4681821257803174,0.826474908251239,-0.00032857858847270296,0.00034521706103696014,-0.000644076672112078,0.00021639617829445108,-0.00032973459869588387,-0.00015427759808800395,-0.0006287817672574153,0.0,0.0,0.0,0.0,0.0,0.0,0.0,-0.00013840669897891011,8.572409662474523e-05,-9.043592895217108e-05,0.00023809773376770593,0.00014284184640037112,2.789815266890372e-05,-2.899467460348859e-06,0.00032857858847270296,-0.00034521706103696014,0.000644076672112078,-0.00021639617829445108,0.00032973459869588387,0.00015427759808800395,0.0006287817672574153,0.4029781222343445,19.745019912719727,0.3990752398967743,-20.181917190551758,-0.8975120186805725,-2.4758944511413574,0.24844686686992645,0
63,0.310028076171875,-0.4029781222343445,-19.745019912719727,-0.4228789508342743,20.229524612426758,0.8920188546180725,2.4694857597351074,-0.27591270208358765,0.0,0.0,0.0,0.0,0.0,0.0,0.0,-0.4117360421763908,-0.009096845969819068,-0.2218710882769544,0.40538892392168474,0.3023433876726488,0.09965291379303128,-0.27156267974202347,1.213579800467742,-0.22032895568588323,-0.00741971930745482,-2.6040900845584942,-0.1090261795138147,2.4681549397044713,0.8264808987357659,1.2134413937687574,-0.2202432315892585,-0.0075118285948192216,-2.6038483821997875,-0.10888392708698907,2.4681821257803174,0.826474908251239,-0.0001419023504401686,-0.0003781270223138142,0.0004684357175969822,-0.0009297929379383371,-0.0002691664587623203,1.5822655554374428e-05,0.00045951434341389975,0.0,0.0,0.0,0.0,0.0,0.0,0.0,-0.00013840669898468327,8.572409662474523e-05,-9.210928736440131e-05,0.00024170235870668577,0.0001422524268256259,2.718607584606403e-05,-5.99048452687434e-06,0.0001419023504401686,0.0003781270223138142,-0.0004684357175969822,0.0009297929379383371,0.0002691664587623203,-1.5822655554374428e-05,-0.00045951434341389975,0.4029781222343445,19.745019912719727,0.4228789508342743,-20.229524612426758,-0.8920188546180725,-2.4694857597351074,0.27591270208358765,0
64,0.31500768661499023,-0.4029781222343445,-19.745019912719727,-0.4228789508342743,20.229524612426758,0.8920188546180725,2.4694857597351074,-0.27591270208358765,0.0,0.0,0.0,0.0,0.0,0.0,0.0,-0.4117360421763908,-0.009096845969819068,-0.2218710882769544,0.40538892392168474,0.3023433876726488,0.09965291379303128,-0.27156267974202347,1.213579800467742,-0.22032895568588323,-0.00741971930745482,-2.6040900845584942,-0.1090261795138147,2.4681549397044713,0.8264808987357659,1.2134413937687574,-0.2202432315892585,-0.0075118285948192216,-2.6038483821997875,-0.10888392708698907,2.4681821257803174,0.826474908251239,-0.0001419023504401686,-0.0003781270223138142,0.0004684357175969822,-0.0009297929379383371,-0.0002691664587623203,1.5822655554374428e-05,0.00045951434341389975,0.0,0.0,0.0,0.0,0.0,0.0,0.0,-0.00013840669898468327,8.572409662474523e-05,-9.210928736440131e-05,0.00024170235870668577,0.0001422524268256259,2.718607584606403e-05,-5.99048452687434e-06,0.0001419023504401686,0.0003781270223138142,-0.0004684357175969822,0.0009297929379383371,0.0002691664587623203,-1.5822655554374428e-05,-0.00045951434341389975,0.4029781222343445,19.745019912719727,0.4228789508342743,-20.229524612426758,-0.8920188546180725,-2.4694857597351074,0.27591270208358765,0
65,0.3200035095214844,-0.4267818331718445,-19.717248916625977,-0.4228789508342743,20.205720901489258,0.8856101632118225,2.4630770683288574,-0.26858848333358765,0.0,0.0,0.0,0.0,0.0,0.0,0.0,-0.41108519841931723,-0.010524802712799352,-0.22120438615586965,0.40685935688023683,0.30231509921622474,0.09980427092200365,-0.2710220522637931,1.213580729156907,-0.22033090452771437,-0.007419719307438322,-2.6040882204617444,-0.1090265054310698,2.468155651781294,0.8264811316017401,1.2134413937687574,-0.2202432315892585,-0.0075118285948192216,-2.6038483821997875,-0.10888392708698907,2.4681821257803174,0.826474908251239,0.0004349620442107396,-0.0008466346931274367,0.000601298349640599,5.7964420289575884e-05,-6.779043914718593e-05,0.00042393576129083214,-0.00011789771040621901,0.0,0.0,0.0,0.0,0.0,0.0,0.0,-0.00013933538814958624,8.767293845587942e-05,-9.21092873808994e-05,0.00023983826195683733,0.00014257834408072656,2.6473999023224337e-05,-6.2233505010445e-06,-0.0004349620442107396,0.0008466346931274367,-0.000601298349640599,-5.7964420289575884e-05,6.779043914718593e-05,-0.00042393576129083214,0.00011789771040621901,0.4267818331718445,19.717248916625977,0.4228789508342743,-20.205720901489258,-0.8856101632118225,-2.4630770683288574,0.26858848333358765,0
66,0.3249533176422119,-0.4267818331718445,-19.717248916625977,-0.4228789508342743,20.205720901489258,0.8856101632118225,2.4630770683288574,-0.26858848333358765,0.0,0.0,0.0,0.0,0.0,0.0,0.0,-0.41108519841931723,-0.010524802712799352,-0.22120438615586965,0.40685935688023683,0.30231509921622474,0.09980427092200365,-0.2710220522637931,1.213580729156907,-0.22033090452771437,-0.007419719307438322,-2.6040882204617444,-0.1090265054310698,2.468155651781294,0.8264811316017401,1.2134413937687574,-0.2202432315892585,-0.0075118285948192216,-2.6038483821997875,-0.10888392708698907,2.4681821257803174,0.826474908251239,0.0004349620442107396,-0.0008466346931274367,0.000601298349640599,5.7964420289575884e-05,-6.779043914718593e-05,0.00042393576129083214,-0.00011789771040621901,0.0,0.0,0.0,0.0,0.0,0.0,0.0,-0.00013933538814958624,8.767293845587942e-05,-9.21092873808994e-05,0.00023983826195683733,0.00014257834408072656,2.6473999023224337e-05,-6.2233505010445e-06,-0.0004349620442107396,0.0008466346931274367,-0.000601298349640599,-5.7964420289575884e-05,6.779043914718593e-05,-0.00042393576129083214,0.00011789771040621901,0.4267818331718445,19.717248916625977,0.4228789508342743,-20.205720901489258,-0.8856101632118225,-2.4630770683288574,0.26858848333358765,0
67,0.32999658584594727,-0.3752071261405945,-19.717248916625977,-0.3990752398967743,20.181917190551758,0.8801169991493225,2.4758944511413574,-0.28232139348983765,0.0,0.0,0.0,0.0,0.0,0.0,0.0,-0.41021357201938924,-0.004235882640782526,-0.21853692988450127,0.40462369646092905,0.302244577352178,0.09897548421018258,-0.2703213319595682,1.2135778504911847,-0.22033090452771437,-0.007421389743293586,-2.6040886928496074,-0.10902481766158535,2.4681542276276485,0.8264793739125609,1.2134413937687574,-0.2202432315892585,-0.0075118285948192216,-2.6038483821997875,-0.10888392708698907,2.4681821257803174,0.826474908251239,-0.0009523788479178744,-0.0003181079589554922,-0.00019885697835672053,0.00036668235338330614,0.00014112067736823968,-0.00028250300779914493,0.00017537791518727153,0.0,0.0,0.0,0.0,0.0,0.0,0.0,-0.0001364567224273472,8.767293845587942e-05,-9.043885152563557e-05,0.00024031064981988592,0.00014089057459627796,2.789815266890372e-05,-4.465661321839676e-06,0.0009523788479178744,0.0003181079589554922,0.00019885697835672053,-0.00036668235338330614,-0.00014112067736823968,0.00028250300779914493,-0.00017537791518727153,0.3752071261405945,19.717248916625977,0.3990752398967743,-20.181917190551758,-0.8801169991493225,-2.4758944511413574,0.28232139348983765,0
68,0.33501172065734863,-0.3752071261405945,-19.717248916625977,-0.3990752398967743,20.181917190551758,0.8801169991493225,2.4758944511413574,-0.28232139348983765,0.0,0.0,0.0,0.0,0.0,0.0,0.0,-0.41021357201938924,-0.004235882640782526,-0.21853692988450127,0.40462369646092905,0.302244577352178,0.09897548421018258,-0.2703213319595682,1.2135778504911847,-0.22033090452771437,-0.007421389743293586,-2.6040886928496074,-0.10902481766158535,2.4681542276276485,0.8264793739125609,1.2134413937687574,-0.2202432315892585,-0.0075118285948192216,-2.6038483821997875,-0.10888392708698907,2.4681821257803174,0.826474908251239,-0.0009523788479178744,-0.0003181079589554922,-0.00019885697835672053,0.00036668235338330614,0.00014112067736823968,-0.00028250300779914493,0.00017537791518727153,0.0,0.0,0.0,0.0,0.0,0.0,0.0,-0.0001364567224273472,8.767293845587942e-05,-9.043885152563557e-05,0.00024031064981988592,0.00014089057459627796,2.789815266890372e-05,-4.465661321839676e-06,0.0009523788479178744,0.0003181079589554922,0.00019885697835672053,-0.00036668235338330614,-0.00014112067736823968,0.00028250300779914493,-0.00017537791518727153,0.3752071261405945,19.717248916625977,0.3990752398967743,-20.181917190551758,-0.8801169991493225,-2.4758944511413574,0.28232139348983765,0
69,0.34001588821411133,-0.4505855441093445,-19.693445205688477,-0.3990752398967743,20.205720901489258,0.8856101632118225,2.4630770683288574,-0.26217979192733765,0.0,0.0,0.0,0.0,0.0,0.0,0.0,-0.4082057263730997,-0.005262777589372824,-0.2161013689602705,0.40770343058617514,0.30219162293801294,0.09900723732989768,-0.2715292230026816,1.2135831413394462,-0.22033257496356964,-0.007421471575333471,-2.604088415868624,-0.10902542768254053,2.468155651781294,0.8264804282834382,1.2134413937687574,-0.2202432315892585,-0.0075118285948192216,-2.6038483821997875,-0.10888392708698907,2.4681821257803174,0.826474908251239,0.0014109554335752705,-0.0007372202787330135,-0.0005578096482643367,-0.0006491795892387466,3.0481420687810056e-05,0.00019484462089380724,-0.00048531100241275347,0.0,0.0,0.0,0.0,0.0,0.0,0.0,-0.0001417475706888549,8.934337431115713e-05,-9.03570194857508e-05,0.00024003366883640354,0.0001415005955514581,2.6473999023224337e-05,-5.520032199113345e-06,-0.0014109554335752705,0.0007372202787330135,0.0005578096482643367,0.0006491795892387466,-3.0481420687810056e-05,-0.00019484462089380724,0.00048531100241275347,0.4505855441093445,19.693445205688477,0.3990752398967743,-20.205720901489258,-0.8856101632118225,-2.4630770683288574,0.26217979192733765,0
70,0.34502196311950684,-0.4505855441093445,-19.693445205688477,-0.3990752398967743,20.205720901489258,0.8856101632118225,2.4630770683288574,-0.26217979192733765,0.0,0.0,0.0,0.0,0.0,0.0,0.0,-0.4082057263730997,-0.005262777589372824,-0.2161013689602705,0.40770343058617514,0.30219162293801294,0.09900723732989768,-0.2715292230026816,1.2135831413394462,-0.22033257496356964,-0.007421471575333471,-2.604088415868624,-0.10902542768254053,2.468155651781294,0.8264804282834382,1.2134413937687574,-0.2202432315892585,-0.0075118285948192216,-2.6038483821997875,-0.10888392708698907,2.4681821257803174,0.826474908251239,0.0014109554335752705,-0.0007372202787330135,-0.0005578096482643367,-0.0006491795892387466,3.0481420687810056e-05,0.00019484462089380724,-0.00048531100241275347,0.0,0.0,0.0,0.0,0.0,0.0,0.0,-0.0001417475706888549,8.934337431115713e-05,-9.03570194857508e-05,0.00024003366883640354,0.0001415005955514581,2.6473999023224337e-05,-5.520032199113345e-06,-0.0014109554335752705,0.0007372202787330135,0.0005578096482643367,0.0006491795892387466,-3.0481420687810056e-05,-0.00019484462089380724,0.00048531100241275347,0.4505855441093445,19.693445205688477,0.3990752398967743,-20.205720901489258,-0.8856101632118225,-2.4630770683288574,0.26217979192733765,0
71,0.3500180244445801,-0.4505855441093445,-19.693445205688477,-0.3990752398967743,20.205720901489258,0.8856101632118225,2.4630770683288574,-0.26217979192733765,0.0,0.0,0.0,0.0,0.0,0.0,0.0,-0.4082057263730997,-0.005262777589372824,-0.2161013689602705,0.40770343058617514,0.30219162293801294,0.09900723732989768,-0.2715292230026816,1.2135831413394462,-0.22033257496356964,-0.007421471575333471,-2.604088415868624,-0.10902542768254053,2.468155651781294,0.8264804282834382,1.2134413937687574,-0.2202432315892585,-0.0075118285948192216,-2.6038483821997875,-0.10888392708698907,2.4681821257803174,0.826474908251239,0.0014109554335752705,-0.0007372202787330135,-0.0005578096482643367,-0.0006491795892387466,3.0481420687810056e-05,0.00019484462089380724,-0.00048531100241275347,0.0,0.0,0.0,0.0,0.0,0.0,0.0,-0.0001417475706888549,8.934337431115713e-05,-9.03570194857508e-05,0.00024003366883640354,0.0001415005955514581,2.6473999023224337e-05,-5.520032199113345e-06,-0.0014109554335752705,0.0007372202787330135,0.0005578096482643367,0.0006491795892387466,-3.0481420687810056e-05,-0.00019484462089380724,0.00048531100241275347,0.4505855441093445,19.693445205688477,0.3990752398967743,-20.205720901489258,-0.8856101632118225,-2.4630770683288574,0.26217979192733765,0
72,0.35497236251831055,-0.4267818331718445,-19.745019912719727,-0.4466826617717743,20.181917190551758,0.8856101632118225,2.4694857597351074,-0.28964561223983765,0.0,0.0,0.0,0.0,0.0,0.0,0.0,-0.41282412740131036,-0.006262188268024024,-0.22048771129955397,0.41034994468739944,0.3026239300834328,0.09902699432752045,-0.27269323035904397,1.213580646740608,-0.22032895568588323,-0.007418075283444119,-2.6040864676106388,-0.10902542768253866,2.4681549397044713,0.8264824247823573,1.2134413937687574,-0.2202432315892585,-0.0075118285948192216,-2.6038483821997875,-0.10888392708698907,2.4681821257803174,0.826474908251239,9.830297148399528e-05,0.0001604816219923826,0.0006554755154555667,7.588563134366466e-06,7.801633964945009e-05,-0.00038016849956799717,0.0007987430798217361,0.0,0.0,0.0,0.0,0.0,0.0,0.0,-0.00013925297185068963,8.572409662474523e-05,-9.375331137510216e-05,0.0002380854108512409,0.0001415005955495846,2.718607584606403e-05,-7.516531118301195e-06,-9.830297148399528e-05,-0.0001604816219923826,-0.0006554755154555667,-7.588563134366466e-06,-7.801633964945009e-05,0.00038016849956799717,-0.0007987430798217361,0.4267818331718445,19.745019912719727,0.4466826617717743,-20.181917190551758,-0.8856101632118225,-2.4694857597351074,0.28964561223983765,0
73,0.35999631881713867,-0.4267818331718445,-19.745019912719727,-0.4466826617717743,20.181917190551758,0.8856101632118225,2.4694857597351074,-0.28964561223983765,0.0,0.0,0.0,0.0,0.0,0.0,0.0,-0.41282412740131036,-0.006262188268024024,-0.22048771129955397,0.41034994468739944,0.3026239300834328,0.09902699432752045,-0.27269323035904397,1.213580646740608,-0.22032895568588323,-0.007418075283444119,-2.6040864676106388,-0.10902542768253866,2.4681549397044713,0.8264824247823573,1.2134413937687574,-0.2202432315892585,-0.0075118285948192216,-2.6038483821997875,-0.10888392708698907,2.4681821257803174,0.826474908251239,9.830297148399528e-05,0.0001604816219923826,0.0006554755154555667,7.588563134366466e-06,7.801633964945009e-05,-0.00038016849956799717,0.0007987430798217361,0.0,0.0,0.0,0.0,0.0,0.0,0.0,-0.00013925297185068963,8.572409662474523e-05,-9.375331137510216e-05,0.0002380854108512409,0.0001415005955495846,2.718607584606403e-05,-7.516531118301195e-06,-9.830297148399528e-05,-0.0001604816219923826,-0.0006554755154555667,-7.588563134366466e-06,-7.801633964945009e-05,0.00038016849956799717,-0.0007987430798217361,0.4267818331718445,19.745019912719727,0.4466826617717743,-20.181917190551758,-0.8856101632118225,-2.4694857597351074,0.28964561223983765,0
74,0.36500048637390137,-0.3752071261405945,-19.768823623657227,-0.4228789508342743,20.181917190551758,0.8856101632118225,2.4758944511413574,-0.29605430364608765,0.0,0.0,0.0,0.0,0.0,0.0,0.0,-0.4149461708654693,-0.006678536236046949,-0.22210816808703537,0.4102525205846002,0.3020355393576502,0.0985695319533624,-0.27310320499070506,1.2135776043723618,-0.22032728525002798,-0.007419719307587418,-2.604086476766437,-0.10902546841046139,2.4681542276276485,0.8264841960068359,1.2134413937687574,-0.2202432315892585,-0.0075118285948192216,-2.6038483821997875,-0.10888392708698907,2.4681821257803174,0.826474908251239,-0.0013638962822083798,0.00033233660057042057,-0.0002513604787542172,-5.80580553009816e-06,5.230982151480596e-05,-8.138434450731977e-05,0.0006769464286282654,0.0,0.0,0.0,0.0,0.0,0.0,0.0,-0.00013621060360446968,8.405366076949528e-05,-9.210928723180339e-05,0.00023809456664958262,0.0001415413234723134,2.789815266890372e-05,-9.287755596831815e-06,0.0013638962822083798,-0.00033233660057042057,0.0002513604787542172,5.80580553009816e-06,-5.230982151480596e-05,8.138434450731977e-05,-0.0006769464286282654,0.3752071261405945,19.768823623657227,0.4228789508342743,-20.181917190551758,-0.8856101632118225,-2.4758944511413574,0.29605430364608765,0
75,0.37076401710510254,-0.4267818331718445,-19.745019912719727,-0.3990752398967743,20.181917190551758,0.8856101632118225,2.4823031425476074,-0.26858848333358765,0.0,0.0,0.0,0.0,0.0,0.0,0.0,-0.41509447482496453,-0.008723841464729152,-0.2228514059139551,0.40877265870575863,0.3019435699602611,0.09887480457088604,-0.27324352509442507,1.2135814709022017,-0.22032895568588323,-0.007422108696215434,-2.604088692849194,-0.10902542962992026,2.468153515550825,0.8264811403788682,1.2134413937687574,-0.2202432315892585,-0.0075118285948192216,-2.6038483821997875,-0.10888392708698907,2.4681821257803174,0.826474908251239,0.0001695404891401891,-0.0004260748765442806,-0.0006890740014813845,-0.00017901219387897457,0.0003082888255124618,-0.0006114561075206312,-7.488692452242165e-05,0.0,0.0,0.0,0.0,0.0,0.0,0.0,-0.00014007713344432737,8.572409662474523e-05,-8.971989860378799e-05,0.00024031064940643887,0.0001415025429311878,2.86102294921875e-05,-6.232127629179907e-06,-0.0001695404891401891,0.0004260748765442806,0.0006890740014813845,0.00017901219387897457,-0.0003082888255124618,0.0006114561075206312,7.488692452242165e-05,0.4267818331718445,19.745019912719727,0.3990752398967743,-20.181917190551758,-0.8856101632118225,-2.4823031425476074,0.26858848333358765,0
76,0.37504124641418457,-0.4267818331718445,-19.745019912719727,-0.3990752398967743,20.181917190551758,0.8856101632118225,2.4823031425476074,-0.26858848333358765,0.0,0.0,0.0,0.0,0.0,0.0,0.0,-0.41509447482496453,-0.008723841464729152,-0.2228514059139551,0.40877265870575863,0.3019435699602611,0.09887480457088604,-0.27324352509442507,1.2135814709022017,-0.22032895568588323,-0.007422108696215434,-2.604088692849194,-0.10902542962992026,2.468153515550825,0.8264811403788682,1.2134413937687574,-0.2202432315892585,-0.0075118285948192216,-2.6038483821997875,-0.10888392708698907,2.4681821257803174,0.826474908251239,0.0001695404891401891,-0.0004260748765442806,-0.0006890740014813845,-0.00017901219387897457,0.0003082888255124618,-0.0006114561075206312,-7.488692452242165e-05,0.0,0.0,0.0,0.0,0.0,0.0,0.0,-0.00014007713344432737,8.572409662474523e-05,-8.971989860378799e-05,0.00024031064940643887,0.0001415025429311878,2.86102294921875e-05,-6.232127629179907e-06,-0.0001695404891401891,0.0004260748765442806,0.0006890740014813845,0.00017901219387897457,-0.0003082888255124618,0.0006114561075206312,7.488692452242165e-05,0.4267818331718445,19.745019912719727,0.3990752398967743,-20.181917190551758,-0.8856101632118225,-2.4823031425476074,0.26858848333358765,0
77,0.3800041675567627,-0.4267818331718445,-19.745019912719727,-0.3990752398967743,20.181917190551758,0.8856101632118225,2.4823031425476074,-0.26858848333358765,0.0,0.0,0.0,0.0,0.0,0.0,0.0,-0.41509447482496453,-0.008723841464729152,-0.2228514059139551,0.40877265870575863,0.3019435699602611,0.09887480457088604,-0.27324352509442507,1.2135814709022017,-0.22032895568588323,-0.007422108696215434,-2.604088692849194,-0.10902542962992026,2.468153515550825,0.8264811403788682,1.2134413937687574,-0.2202432315892585,-0.0075118285948192216,-2.6038483821997875,-0.10888392708698907,2.4681821257803174,0.826474908251239,0.0001695404891401891,-0.0004260748765442806,-0.0006890740014813845,-0.00017901219387897457,0.0003082888255124618,-0.0006114561075206312,-7.488692452242165e-05,0.0,0.0,0.0,0.0,0.0,0.0,0.0,-0.00014007713344432737,8.572409662474523e-05,-8.971989860378799e-05,0.00024031064940643887,0.0001415025429311878,2.86102294921875e-05,-6.232127629179907e-06,-0.0001695404891401891,0.0004260748765442806,0.0006890740014813845,0.00017901219387897457,-0.0003082888255124618,0.0006114561075206312,7.488692452242165e-05,0.4267818331718445,19.745019912719727,0.3990752398967743,-20.181917190551758,-0.8856101632118225,-2.4823031425476074,0.26858848333358765,0
78,0.3850400447845459,-0.4267818331718445,-19.745019912719727,-0.3990752398967743,20.154146194458008,0.8856101632118225,2.4694857597351074,-0.28964561223983765,0.0,0.0,0.0,0.0,0.0,0.0,0.0,-0.4190139783893919,-0.007921372941109464,-0.2245118539763292,0.4052625361205557,0.3028897451508819,0.09827707380811145,-0.27359486744396044,1.2135814709035975,-0.22032895568588323,-0.0074213897473520965,-2.604085516932755,-0.10902544066356089,2.4681549397044713,0.8264830918004147,1.2134413937687574,-0.2202432315892585,-0.0075118285948192216,-2.6038483821997875,-0.10888392708698907,2.4681821257803174,0.826474908251239,0.00039439419188722335,-9.95430615188133e-05,-0.0005590828358136978,0.0006369925914178785,0.00011023534064731282,5.503522388671695e-05,0.000594234620954914,0.0,0.0,0.0,0.0,0.0,0.0,0.0,-0.00014007713484009976,8.572409662474523e-05,-9.04388474671251e-05,0.00023713473296727017,0.00014151357657181396,2.718607584606403e-05,-8.183549175644345e-06,-0.00039439419188722335,9.95430615188133e-05,0.0005590828358136978,-0.0006369925914178785,-0.00011023534064731282,-5.503522388671695e-05,-0.000594234620954914,0.4267818331718445,19.745019912719727,0.3990752398967743,-20.154146194458008,-0.8856101632118225,-2.4694857597351074,0.28964561223983765,0
79,0.3899955749511719,-0.4267818331718445,-19.745019912719727,-0.3990752398967743,20.154146194458008,0.8856101632118225,2.4694857597351074,-0.28964561223983765,0.0,0.0,0.0,0.0,0.0,0.0,0.0,-0.4190139783893919,-0.007921372941109464,-0.2245118539763292,0.4052625361205557,0.3028897451508819,0.09827707380811145,-0.27359486744396044,1.2135814709035975,-0.22032895568588323,-0.0074213897473520965,-2.604085516932755,-0.10902544066356089,2.4681549397044713,0.8264830918004147,1.2134413937687574,-0.2202432315892585,-0.0075118285948192216,-2.6038483821997875,-0.10888392708698907,2.4681821257803174,0.826474908251239,0.00039439419188722335,-9.95430615188133e-05,-0.0005590828358136978,0.0006369925914178785,0.00011023534064731282,5.503522388671695e-05,0.000594234620954914,0.0,0.0,0.0,0.0,0.0,0.0,0.0,-0.00014007713484009976,8.572409662474523e-05,-9.04388474671251e-05,0.00023713473296727017,0.00014151357657181396,2.718607584606403e-05,-8.183549175644345e-06,-0.00039439419188722335,9.95430615188133e-05,0.0005590828358136978,-0.0006369925914178785,-0.00011023534064731282,-5.503522388671695e-05,-0.000594234620954914,0.4267818331718445,19.745019912719727,0.3990752398967743,-20.154146194458008,-0.8856101632118225,-2.4694857597351074,0.28964561223983765,0
