rezayati/contactInterpretation/dataset/franka_main/labeled_data/link6/b4_5.csv
index,time,tau_J0,tau_J1,tau_J2,tau_J3,tau_J4,tau_J5,tau_J6,tau_J_d0,tau_J_d1,tau_J_d2,tau_J_d3,tau_J_d4,tau_J_d5,tau_J_d6,tau_ext0,tau_ext1,tau_ext2,tau_ext3,tau_ext4,tau_ext5,tau_ext6,q0,q1,q2,q3,q4,q5,q6,q_d0,q_d1,q_d2,q_d3,q_d4,q_d5,q_d6,dq0,dq1,dq2,dq3,dq4,dq5,dq6,dq_d0,dq_d1,dq_d2,dq_d3,dq_d4,dq_d5,dq_d6,e0,e1,e2,e3,e4,e5,e6,de0,de1,de2,de3,de4,de5,de6,etau_J0,etau_J1,etau_J2,etau_J3,etau_J4,etau_J5,etau_J6,label
1,0.0,-0.8869869112968445,-46.37740707397461,-5.786648273468018,19.733613967895508,0.9634299874305725,2.3660311698913574,-0.09738485515117645,0.0,0.0,0.0,0.0,0.0,0.0,0.0,-0.8303486290551775,-0.0684680149776046,-0.579392994638474,0.5360429309760671,0.36926167479740785,0.08989758492564721,-0.08843395284738638,0.8781289036692234,0.7556626421359547,-0.2824312238555367,-1.6693174445884216,0.14128760169933127,2.4034563075903495,1.027312966497408,0.878092876070424,0.7554597494309409,-0.2825552651693207,-1.6690993614607135,0.1414185955172306,2.4034451173676383,1.0273381002308042,0.0008530655595466313,-4.9951796428914785e-05,0.0008851383356768232,-0.0002117095091894167,-0.0004545672695619278,-0.00047245654249382125,-0.00040510516308211417,0.0,0.0,0.0,0.0,0.0,0.0,0.0,-3.602759879939299e-05,-0.00020289270501383516,-0.00012404131378401795,0.0002180831277081019,0.00013099381789932751,-1.1190222711121578e-05,2.5133733396076607e-05,-0.0008530655595466313,4.9951796428914785e-05,-0.0008851383356768232,0.0002117095091894167,0.0004545672695619278,0.00047245654249382125,0.00040510516308211417,0.8869869112968445,46.37740707397461,5.786648273468018,-19.733613967895508,-0.9634299874305725,-2.3660311698913574,0.09738485515117645,0
2,0.005292415618896484,-0.8869869112968445,-46.37740707397461,-5.786648273468018,19.733613967895508,0.9634299874305725,2.3660311698913574,-0.09738485515117645,0.0,0.0,0.0,0.0,0.0,0.0,0.0,-0.8303486290551775,-0.0684680149776046,-0.579392994638474,0.5360429309760671,0.36926167479740785,0.08989758492564721,-0.08843395284738638,0.8781289036692234,0.7556626421359547,-0.2824312238555367,-1.6693174445884216,0.14128760169933127,2.4034563075903495,1.027312966497408,0.878092876070424,0.7554597494309409,-0.2825552651693207,-1.6690993614607135,0.1414185955172306,2.4034451173676383,1.0273381002308042,0.0008530655595466313,-4.9951796428914785e-05,0.0008851383356768232,-0.0002117095091894167,-0.0004545672695619278,-0.00047245654249382125,-0.00040510516308211417,0.0,0.0,0.0,0.0,0.0,0.0,0.0,-3.602759879939299e-05,-0.00020289270501383516,-0.00012404131378401795,0.0002180831277081019,0.00013099381789932751,-1.1190222711121578e-05,2.5133733396076607e-05,-0.0008530655595466313,4.9951796428914785e-05,-0.0008851383356768232,0.0002117095091894167,0.0004545672695619278,0.00047245654249382125,0.00040510516308211417,0.8869869112968445,46.37740707397461,5.786648273468018,-19.733613967895508,-0.9634299874305725,-2.3660311698913574,0.09738485515117645,0
3,0.00998544692993164,-0.8869869112968445,-46.42501449584961,-5.762844562530518,19.757417678833008,0.9515281319618225,2.3596224784851074,-0.07724325358867645,0.0,0.0,0.0,0.0,0.0,0.0,0.0,-0.8353075720189319,-0.08428095215198941,-0.582747702919431,0.5476545943640445,0.3696207867728724,0.09065810543773788,-0.08939411567966798,0.8781289036692234,0.7556659829706536,-0.28243289167501745,-1.6693188666973526,0.14128525021327804,2.403460198988381,1.027310728541679,0.878092876070424,0.7554597494309409,-0.2825552651693207,-1.6690993614607135,0.1414185955172306,2.4034451173676383,1.0273381002308042,0.0005443668290277837,0.0005426086003572882,0.00011033836503547795,-0.0001493868154438628,0.0002701747806253992,-0.00014902259763469893,-0.0004904164300998168,0.0,0.0,0.0,0.0,0.0,0.0,0.0,-3.602759879939299e-05,-0.00020623353971271907,-0.00012237349430327393,0.00021950523663916144,0.0001333453039525645,-1.5081620742485313e-05,2.7371689125255116e-05,-0.0005443668290277837,-0.0005426086003572882,-0.00011033836503547795,0.0001493868154438628,-0.0002701747806253992,0.00014902259763469893,0.0004904164300998168,0.8869869112968445,46.42501449584961,5.762844562530518,-19.757417678833008,-0.9515281319618225,-2.3596224784851074,0.07724325358867645,0
4,0.014986515045166016,-0.8869869112968445,-46.42501449584961,-5.762844562530518,19.757417678833008,0.9515281319618225,2.3596224784851074,-0.07724325358867645,0.0,0.0,0.0,0.0,0.0,0.0,0.0,-0.8353075720189319,-0.08428095215198941,-0.582747702919431,0.5476545943640445,0.3696207867728724,0.09065810543773788,-0.08939411567966798,0.8781289036692234,0.7556659829706536,-0.28243289167501745,-1.6693188666973526,0.14128525021327804,2.403460198988381,1.027310728541679,0.878092876070424,0.7554597494309409,-0.2825552651693207,-1.6690993614607135,0.1414185955172306,2.4034451173676383,1.0273381002308042,0.0005443668290277837,0.0005426086003572882,0.00011033836503547795,-0.0001493868154438628,0.0002701747806253992,-0.00014902259763469893,-0.0004904164300998168,0.0,0.0,0.0,0.0,0.0,0.0,0.0,-3.602759879939299e-05,-0.00020623353971271907,-0.00012237349430327393,0.00021950523663916144,0.0001333453039525645,-1.5081620742485313e-05,2.7371689125255116e-05,-0.0005443668290277837,-0.0005426086003572882,-0.00011033836503547795,0.0001493868154438628,-0.0002701747806253992,0.00014902259763469893,0.0004904164300998168,0.8869869112968445,46.42501449584961,5.762844562530518,-19.757417678833008,-0.9515281319618225,-2.3596224784851074,0.07724325358867645,0
5,0.01999497413635254,-0.8076412081718445,-46.42501449584961,-5.735073566436768,19.785188674926758,0.9570212960243225,2.3522982597351074,-0.06991903483867645,0.0,0.0,0.0,0.0,0.0,0.0,0.0,-0.8270763125151326,-0.07898092371285173,-0.5750242112036453,0.5484310374677036,0.36921501654506134,0.09021919198252372,-0.08952410093928022,0.8781233355497058,0.7556659830076651,-0.28243484313322426,-1.6693209834228353,0.14128510913010367,2.403458879965684,1.0273099147395954,0.878092876070424,0.7554597494309409,-0.2825552651693207,-1.6690993614607135,0.1414185955172306,2.4034451173676383,1.0273381002308042,-0.000853331593341548,0.0006174470464448059,-0.00017553048775644826,-0.0011360695005441044,-0.00021265600210270295,7.751049369775039e-05,-0.0007461985090118815,0.0,0.0,0.0,0.0,0.0,0.0,0.0,-3.0459479281819135e-05,-0.00020623357672422404,-0.00012042203609646807,0.00022162196212183183,0.00013348638712692984,-1.3762598045641283e-05,2.8185491208754243e-05,0.000853331593341548,-0.0006174470464448059,0.00017553048775644826,0.0011360695005441044,0.00021265600210270295,-7.751049369775039e-05,0.0007461985090118815,0.8076412081718445,46.42501449584961,5.735073566436768,-19.785188674926758,-0.9570212960243225,-2.3522982597351074,0.06991903483867645,0
6,0.024993181228637695,-0.8076412081718445,-46.42501449584961,-5.735073566436768,19.785188674926758,0.9570212960243225,2.3522982597351074,-0.06991903483867645,0.0,0.0,0.0,0.0,0.0,0.0,0.0,-0.8270763125151326,-0.07898092371285173,-0.5750242112036453,0.5484310374677036,0.36921501654506134,0.09021919198252372,-0.08952410093928022,0.8781233355497058,0.7556659830076651,-0.28243484313322426,-1.6693209834228353,0.14128510913010367,2.403458879965684,1.0273099147395954,0.878092876070424,0.7554597494309409,-0.2825552651693207,-1.6690993614607135,0.1414185955172306,2.4034451173676383,1.0273381002308042,-0.000853331593341548,0.0006174470464448059,-0.00017553048775644826,-0.0011360695005441044,-0.00021265600210270295,7.751049369775039e-05,-0.0007461985090118815,0.0,0.0,0.0,0.0,0.0,0.0,0.0,-3.0459479281819135e-05,-0.00020623357672422404,-0.00012042203609646807,0.00022162196212183183,0.00013348638712692984,-1.3762598045641283e-05,2.8185491208754243e-05,0.000853331593341548,-0.0006174470464448059,0.00017553048775644826,0.0011360695005441044,0.00021265600210270295,-7.751049369775039e-05,0.0007461985090118815,0.8076412081718445,46.42501449584961,5.735073566436768,-19.785188674926758,-0.9570212960243225,-2.3522982597351074,0.06991903483867645,0
7,0.029988765716552734,-0.8076412081718445,-46.44881820678711,-5.786648273468018,19.709810256958008,0.9570212960243225,2.3522982597351074,-0.11844198405742645,0.0,0.0,0.0,0.0,0.0,0.0,0.0,-0.8326697167171875,-0.07922438783974599,-0.5783066503316137,0.5474987680158276,0.36888815900528077,0.09015383886746456,-0.0887624179021458,0.8781233355497058,0.7556676531104153,-0.2824312238555526,-1.669315773183101,0.14128715167535366,2.403459233166354,1.0273153056938809,0.878092876070424,0.7554597494309409,-0.2825552651693207,-1.6690993614607135,0.1414185955172306,2.4034451173676383,1.0273381002308042,-0.0003200335951743956,0.0006906471716702454,0.0006625636460350268,0.0007846024813874454,-0.0004284961790141338,8.068071967419287e-05,0.0017617045609904713,0.0,0.0,0.0,0.0,0.0,0.0,0.0,-3.0459479281819135e-05,-0.00020790367947443045,-0.00012404131376814176,0.0002164117223875106,0.00013144384187693814,-1.4115798715685912e-05,2.2794536923331776e-05,0.0003200335951743956,-0.0006906471716702454,-0.0006625636460350268,-0.0007846024813874454,0.0004284961790141338,-8.068071967419287e-05,-0.0017617045609904713,0.8076412081718445,46.44881820678711,5.786648273468018,-19.709810256958008,-0.9570212960243225,-2.3522982597351074,0.11844198405742645,0
8,0.034984588623046875,-0.8076412081718445,-46.44881820678711,-5.786648273468018,19.709810256958008,0.9570212960243225,2.3522982597351074,-0.11844198405742645,0.0,0.0,0.0,0.0,0.0,0.0,0.0,-0.8326697167171875,-0.07922438783974599,-0.5783066503316137,0.5474987680158276,0.36888815900528077,0.09015383886746456,-0.0887624179021458,0.8781233355497058,0.7556676531104153,-0.2824312238555526,-1.669315773183101,0.14128715167535366,2.403459233166354,1.0273153056938809,0.878092876070424,0.7554597494309409,-0.2825552651693207,-1.6690993614607135,0.1414185955172306,2.4034451173676383,1.0273381002308042,-0.0003200335951743956,0.0006906471716702454,0.0006625636460350268,0.0007846024813874454,-0.0004284961790141338,8.068071967419287e-05,0.0017617045609904713,0.0,0.0,0.0,0.0,0.0,0.0,0.0,-3.0459479281819135e-05,-0.00020790367947443045,-0.00012404131376814176,0.0002164117223875106,0.00013144384187693814,-1.4115798715685912e-05,2.2794536923331776e-05,0.0003200335951743956,-0.0006906471716702454,-0.0006625636460350268,-0.0007846024813874454,0.0004284961790141338,-8.068071967419287e-05,-0.0017617045609904713,0.8076412081718445,46.44881820678711,5.786648273468018,-19.709810256958008,-0.9570212960243225,-2.3522982597351074,0.11844198405742645,0
9,0.03998827934265137,-0.8076412081718445,-46.44881820678711,-5.786648273468018,19.709810256958008,0.9570212960243225,2.3522982597351074,-0.11844198405742645,0.0,0.0,0.0,0.0,0.0,0.0,0.0,-0.8326697167171875,-0.07922438783974599,-0.5783066503316137,0.5474987680158276,0.36888815900528077,0.09015383886746456,-0.0887624179021458,0.8781233355497058,0.7556676531104153,-0.2824312238555526,-1.669315773183101,0.14128715167535366,2.403459233166354,1.0273153056938809,0.878092876070424,0.7554597494309409,-0.2825552651693207,-1.6690993614607135,0.1414185955172306,2.4034451173676383,1.0273381002308042,-0.0003200335951743956,0.0006906471716702454,0.0006625636460350268,0.0007846024813874454,-0.0004284961790141338,8.068071967419287e-05,0.0017617045609904713,0.0,0.0,0.0,0.0,0.0,0.0,0.0,-3.0459479281819135e-05,-0.00020790367947443045,-0.00012404131376814176,0.0002164117223875106,0.00013144384187693814,-1.4115798715685912e-05,2.2794536923331776e-05,0.0003200335951743956,-0.0006906471716702454,-0.0006625636460350268,-0.0007846024813874454,0.0004284961790141338,-8.068071967419287e-05,-0.0017617045609904713,0.8076412081718445,46.44881820678711,5.786648273468018,-19.709810256958008,-0.9570212960243225,-2.3522982597351074,0.11844198405742645,0
10,0.04498410224914551,-0.8076412081718445,-46.44881820678711,-5.786648273468018,19.709810256958008,0.9570212960243225,2.3522982597351074,-0.11844198405742645,0.0,0.0,0.0,0.0,0.0,0.0,0.0,-0.8326697167171875,-0.07922438783974599,-0.5783066503316137,0.5474987680158276,0.36888815900528077,0.09015383886746456,-0.0887624179021458,0.8781233355497058,0.7556676531104153,-0.2824312238555526,-1.669315773183101,0.14128715167535366,2.403459233166354,1.0273153056938809,0.878092876070424,0.7554597494309409,-0.2825552651693207,-1.6690993614607135,0.1414185955172306,2.4034451173676383,1.0273381002308042,-0.0003200335951743956,0.0006906471716702454,0.0006625636460350268,0.0007846024813874454,-0.0004284961790141338,8.068071967419287e-05,0.0017617045609904713,0.0,0.0,0.0,0.0,0.0,0.0,0.0,-3.0459479281819135e-05,-0.00020790367947443045,-0.00012404131376814176,0.0002164117223875106,0.00013144384187693814,-1.4115798715685912e-05,2.2794536923331776e-05,0.0003200335951743956,-0.0006906471716702454,-0.0006625636460350268,-0.0007846024813874454,0.0004284961790141338,-8.068071967419287e-05,-0.0017617045609904713,0.8076412081718445,46.44881820678711,5.786648273468018,-19.709810256958008,-0.9570212960243225,-2.3522982597351074,0.11844198405742645,0
11,0.04992938041687012,-0.8354122042655945,-46.47658920288086,-5.735073566436768,19.757417678833008,0.9451194405555725,2.3596224784851074,-0.05710165575146675,0.0,0.0,0.0,0.0,0.0,0.0,0.0,-0.8292447021338916,-0.08212822156812967,-0.5776914205324506,0.5443075178835881,0.3681104565062972,0.09051977561230869,-0.08744080857957792,0.8781252843915369,0.7556696022853497,-0.2824348402261386,-1.6693191150364066,0.1412881362465993,2.403460238242139,1.027308490586361,0.878092876070424,0.7554597494309409,-0.2825552651693207,-1.6690993614607135,0.1414185955172306,2.4034451173676383,1.0273381002308042,0.00040164027649055965,0.0013475101221531321,-0.00030579767956344963,-0.0007138068766763885,0.0002583906903654045,-8.375417247436077e-05,-0.0007187547365492583,0.0,0.0,0.0,0.0,0.0,0.0,0.0,-3.240832111295333e-05,-0.00020985285440888735,-0.00012042494318215136,0.00021975357569314902,0.0001304592706312946,-1.5120874500507142e-05,2.9609644443207017e-05,-0.00040164027649055965,-0.0013475101221531321,0.00030579767956344963,0.0007138068766763885,-0.0002583906903654045,8.375417247436077e-05,0.0007187547365492583,0.8354122042655945,46.47658920288086,5.735073566436768,-19.757417678833008,-0.9451194405555725,-2.3596224784851074,0.05710165575146675,0
12,0.0549924373626709,-0.8354122042655945,-46.47658920288086,-5.735073566436768,19.757417678833008,0.9451194405555725,2.3596224784851074,-0.05710165575146675,0.0,0.0,0.0,0.0,0.0,0.0,0.0,-0.8292447021338916,-0.08212822156812967,-0.5776914205324506,0.5443075178835881,0.3681104565062972,0.09051977561230869,-0.08744080857957792,0.8781252843915369,0.7556696022853497,-0.2824348402261386,-1.6693191150364066,0.1412881362465993,2.403460238242139,1.027308490586361,0.878092876070424,0.7554597494309409,-0.2825552651693207,-1.6690993614607135,0.1414185955172306,2.4034451173676383,1.0273381002308042,0.00040164027649055965,0.0013475101221531321,-0.00030579767956344963,-0.0007138068766763885,0.0002583906903654045,-8.375417247436077e-05,-0.0007187547365492583,0.0,0.0,0.0,0.0,0.0,0.0,0.0,-3.240832111295333e-05,-0.00020985285440888735,-0.00012042494318215136,0.00021975357569314902,0.0001304592706312946,-1.5120874500507142e-05,2.9609644443207017e-05,-0.00040164027649055965,-0.0013475101221531321,0.00030579767956344963,0.0007138068766763885,-0.0002583906903654045,8.375417247436077e-05,0.0007187547365492583,0.8354122042655945,46.47658920288086,5.735073566436768,-19.757417678833008,-0.9451194405555725,-2.3596224784851074,0.05710165575146675,0
13,0.0599973201751709,-0.8592159152030945,-46.34963607788086,-5.786648273468018,19.709810256958008,0.9451194405555725,2.3522982597351074,-0.08365194499492645,0.0,0.0,0.0,0.0,0.0,0.0,0.0,-0.841459838189738,-0.09390319097997997,-0.5862913459927203,0.5448576832142704,0.3683743732458328,0.09146064368457668,-0.08486100650517515,0.8781269548273922,0.7556606932941236,-0.28243202550614266,-1.6693156652574495,0.14128807756072057,2.403457833391585,1.0273114406185018,0.878092876070424,0.7554597494309409,-0.2825552651693207,-1.6690993614607135,0.1414185955172306,2.4034451173676383,1.0273381002308042,0.000291236343051966,-0.0013825878285061305,0.0009690487335145927,0.0008195469377797451,0.00022790161786958245,5.693615324128611e-05,0.0002689135586502531,0.0,0.0,0.0,0.0,0.0,0.0,0.0,-3.4078756968258794e-05,-0.00020094386318270097,-0.00012323966317806523,0.00021630379673598377,0.0001305179565100345,-1.2716023946701682e-05,2.6659612302415425e-05,-0.000291236343051966,0.0013825878285061305,-0.0009690487335145927,-0.0008195469377797451,-0.00022790161786958245,-5.693615324128611e-05,-0.0002689135586502531,0.8592159152030945,46.34963607788086,5.786648273468018,-19.709810256958008,-0.9451194405555725,-2.3522982597351074,0.08365194499492645,0
14,0.06498932838439941,-0.8592159152030945,-46.34963607788086,-5.786648273468018,19.709810256958008,0.9451194405555725,2.3522982597351074,-0.08365194499492645,0.0,0.0,0.0,0.0,0.0,0.0,0.0,-0.841459838189738,-0.09390319097997997,-0.5862913459927203,0.5448576832142704,0.3683743732458328,0.09146064368457668,-0.08486100650517515,0.8781269548273922,0.7556606932941236,-0.28243202550614266,-1.6693156652574495,0.14128807756072057,2.403457833391585,1.0273114406185018,0.878092876070424,0.7554597494309409,-0.2825552651693207,-1.6690993614607135,0.1414185955172306,2.4034451173676383,1.0273381002308042,0.000291236343051966,-0.0013825878285061305,0.0009690487335145927,0.0008195469377797451,0.00022790161786958245,5.693615324128611e-05,0.0002689135586502531,0.0,0.0,0.0,0.0,0.0,0.0,0.0,-3.4078756968258794e-05,-0.00020094386318270097,-0.00012323966317806523,0.00021630379673598377,0.0001305179565100345,-1.2716023946701682e-05,2.6659612302415425e-05,-0.000291236343051966,0.0013825878285061305,-0.0009690487335145927,-0.0008195469377797451,-0.00022790161786958245,-5.693615324128611e-05,-0.0002689135586502531,0.8592159152030945,46.34963607788086,5.786648273468018,-19.709810256958008,-0.9451194405555725,-2.3522982597351074,0.08365194499492645,0
15,0.06998705863952637,-0.8592159152030945,-46.34963607788086,-5.786648273468018,19.709810256958008,0.9451194405555725,2.3522982597351074,-0.08365194499492645,0.0,0.0,0.0,0.0,0.0,0.0,0.0,-0.841459838189738,-0.09390319097997997,-0.5862913459927203,0.5448576832142704,0.3683743732458328,0.09146064368457668,-0.08486100650517515,0.8781269548273922,0.7556606932941236,-0.28243202550614266,-1.6693156652574495,0.14128807756072057,2.403457833391585,1.0273114406185018,0.878092876070424,0.7554597494309409,-0.2825552651693207,-1.6690993614607135,0.1414185955172306,2.4034451173676383,1.0273381002308042,0.000291236343051966,-0.0013825878285061305,0.0009690487335145927,0.0008195469377797451,0.00022790161786958245,5.693615324128611e-05,0.0002689135586502531,0.0,0.0,0.0,0.0,0.0,0.0,0.0,-3.4078756968258794e-05,-0.00020094386318270097,-0.00012323966317806523,0.00021630379673598377,0.0001305179565100345,-1.2716023946701682e-05,2.6659612302415425e-05,-0.000291236343051966,0.0013825878285061305,-0.0009690487335145927,-0.0008195469377797451,-0.00022790161786958245,-5.693615324128611e-05,-0.0002689135586502531,0.8592159152030945,46.34963607788086,5.786648273468018,-19.709810256958008,-0.9451194405555725,-2.3522982597351074,0.08365194499492645,0
16,0.07494449615478516,-0.8592159152030945,-46.34963607788086,-5.786648273468018,19.709810256958008,0.9451194405555725,2.3522982597351074,-0.08365194499492645,0.0,0.0,0.0,0.0,0.0,0.0,0.0,-0.841459838189738,-0.09390319097997997,-0.5862913459927203,0.5448576832142704,0.3683743732458328,0.09146064368457668,-0.08486100650517515,0.8781269548273922,0.7556606932941236,-0.28243202550614266,-1.6693156652574495,0.14128807756072057,2.403457833391585,1.0273114406185018,0.878092876070424,0.7554597494309409,-0.2825552651693207,-1.6690993614607135,0.1414185955172306,2.4034451173676383,1.0273381002308042,0.000291236343051966,-0.0013825878285061305,0.0009690487335145927,0.0008195469377797451,0.00022790161786958245,5.693615324128611e-05,0.0002689135586502531,0.0,0.0,0.0,0.0,0.0,0.0,0.0,-3.4078756968258794e-05,-0.00020094386318270097,-0.00012323966317806523,0.00021630379673598377,0.0001305179565100345,-1.2716023946701682e-05,2.6659612302415425e-05,-0.000291236343051966,0.0013825878285061305,-0.0009690487335145927,-0.0008195469377797451,-0.00022790161786958245,-5.693615324128611e-05,-0.0002689135586502531,0.8592159152030945,46.34963607788086,5.786648273468018,-19.709810256958008,-0.9451194405555725,-2.3522982597351074,0.08365194499492645,0
17,0.07996630668640137,-0.8354122042655945,-46.37740707397461,-5.786648273468018,19.757417678833008,0.9570212960243225,2.3596224784851074,-0.05710165575146675,0.0,0.0,0.0,0.0,0.0,0.0,0.0,-0.8287078149449234,-0.07665318844788911,-0.5740940022569291,0.5394596175258365,0.36773965910448836,0.0903099955228275,-0.0838881520608054,0.8781252843915369,0.7556626141551125,-0.28243122095297746,-1.669319111983342,0.1412849965733261,2.4034570108681743,1.0273084905863636,0.878092876070424,0.7554597494309409,-0.2825552651693207,-1.6690993614607135,0.1414185955172306,2.4034451173676383,1.0273381002308042,-0.0002360520603485306,-0.00019552798167026726,0.000980105399202103,-0.00034268525756623013,7.007089293314683e-05,-9.773469366681446e-05,-0.0014484055265100442,0.0,0.0,0.0,0.0,0.0,0.0,0.0,-3.240832111295333e-05,-0.00020286472417163637,-0.00012404421634326646,0.00021975052262845907,0.0001335989439044949,-1.189350053598659e-05,2.9609644440542482e-05,0.0002360520603485306,0.00019552798167026726,-0.000980105399202103,0.00034268525756623013,-7.007089293314683e-05,9.773469366681446e-05,0.0014484055265100442,0.8354122042655945,46.37740707397461,5.786648273468018,-19.757417678833008,-0.9570212960243225,-2.3596224784851074,0.05710165575146675,0
18,0.08498978614807129,-0.8354122042655945,-46.37740707397461,-5.786648273468018,19.757417678833008,0.9570212960243225,2.3596224784851074,-0.05710165575146675,0.0,0.0,0.0,0.0,0.0,0.0,0.0,-0.8287078149449234,-0.07665318844788911,-0.5740940022569291,0.5394596175258365,0.36773965910448836,0.0903099955228275,-0.0838881520608054,0.8781252843915369,0.7556626141551125,-0.28243122095297746,-1.669319111983342,0.1412849965733261,2.4034570108681743,1.0273084905863636,0.878092876070424,0.7554597494309409,-0.2825552651693207,-1.6690993614607135,0.1414185955172306,2.4034451173676383,1.0273381002308042,-0.0002360520603485306,-0.00019552798167026726,0.000980105399202103,-0.00034268525756623013,7.007089293314683e-05,-9.773469366681446e-05,-0.0014484055265100442,0.0,0.0,0.0,0.0,0.0,0.0,0.0,-3.240832111295333e-05,-0.00020286472417163637,-0.00012404421634326646,0.00021975052262845907,0.0001335989439044949,-1.189350053598659e-05,2.9609644440542482e-05,0.0002360520603485306,0.00019552798167026726,-0.000980105399202103,0.00034268525756623013,-7.007089293314683e-05,9.773469366681446e-05,0.0014484055265100442,0.8354122042655945,46.37740707397461,5.786648273468018,-19.757417678833008,-0.9570212960243225,-2.3596224784851074,0.05710165575146675,0
19,0.089996337890625,-0.8076412081718445,-46.40121078491211,-5.762844562530518,19.757417678833008,0.9451194405555725,2.3458895683288574,-0.11844198405742645,0.0,0.0,0.0,0.0,0.0,0.0,0.0,-0.8259217135283821,-0.08681859287977085,-0.5746069440368099,0.5471958473887302,0.3683004968095109,0.0911247264796927,-0.08378634509145172,0.8781233355497058,0.755664312571652,-0.2824328913479523,-1.6693181612530623,0.14128503626094635,2.403458886083607,1.0273153061783975,0.878092876070424,0.7554597494309409,-0.2825552651693207,-1.6690993614607135,0.1414185955172306,2.4034451173676383,1.0273381002308042,-0.00043037348129877027,-0.0001780387818276416,0.0003743398971458961,-0.0002981860204430033,0.0004178287037326816,0.00023995643352210986,0.00136502430028064,0.0,0.0,0.0,0.0,0.0,0.0,0.0,-3.0459479281819135e-05,-0.0002045631407111559,-0.00012237382136842667,0.00021879979234884495,0.00013355925628424914,-1.376871596869833e-05,2.2794052406682752e-05,0.00043037348129877027,0.0001780387818276416,-0.0003743398971458961,0.0002981860204430033,-0.0004178287037326816,-0.00023995643352210986,-0.00136502430028064,0.8076412081718445,46.40121078491211,5.762844562530518,-19.757417678833008,-0.9451194405555725,-2.3458895683288574,0.11844198405742645,0
20,0.09495306015014648,-0.8076412081718445,-46.40121078491211,-5.762844562530518,19.757417678833008,0.9451194405555725,2.3458895683288574,-0.11844198405742645,0.0,0.0,0.0,0.0,0.0,0.0,0.0,-0.8259217135283821,-0.08681859287977085,-0.5746069440368099,0.5471958473887302,0.3683004968095109,0.0911247264796927,-0.08378634509145172,0.8781233355497058,0.755664312571652,-0.2824328913479523,-1.6693181612530623,0.14128503626094635,2.403458886083607,1.0273153061783975,0.878092876070424,0.7554597494309409,-0.2825552651693207,-1.6690993614607135,0.1414185955172306,2.4034451173676383,1.0273381002308042,-0.00043037348129877027,-0.0001780387818276416,0.0003743398971458961,-0.0002981860204430033,0.0004178287037326816,0.00023995643352210986,0.00136502430028064,0.0,0.0,0.0,0.0,0.0,0.0,0.0,-3.0459479281819135e-05,-0.0002045631407111559,-0.00012237382136842667,0.00021879979234884495,0.00013355925628424914,-1.376871596869833e-05,2.2794052406682752e-05,0.00043037348129877027,0.0001780387818276416,-0.0003743398971458961,0.0002981860204430033,-0.0004178287037326816,-0.00023995643352210986,-0.00136502430028064,0.8076412081718445,46.40121078491211,5.762844562530518,-19.757417678833008,-0.9451194405555725,-2.3458895683288574,0.11844198405742645,0
21,0.09998345375061035,-0.8076412081718445,-46.40121078491211,-5.711269855499268,19.757417678833008,0.9570212960243225,2.3596224784851074,-0.08365194499492645,0.0,0.0,0.0,0.0,0.0,0.0,0.0,-0.8297617876587524,-0.08175595089109156,-0.5781497380842482,0.545353551832806,0.3684330923471301,0.09038144451237437,-0.08402821253798735,0.8781233355497058,0.75566431257181,-0.2824372376914715,-1.6693190875589283,0.14128513615653668,2.4034570065094463,1.0273114406185018,0.878092876070424,0.7554597494309409,-0.2825552651693207,-1.6690993614607135,0.1414185955172306,2.4034451173676383,1.0273381002308042,-0.000478834795330342,-0.00046526203383303054,-0.0003262541013537302,-5.512429915098184e-06,-9.85491258505486e-05,-0.00016184957622989224,0.000103824974658836,0.0,0.0,0.0,0.0,0.0,0.0,0.0,-3.0459479281819135e-05,-0.00020456314086914062,-0.00011802747784922518,0.00021972609821485634,0.00013345936069392161,-1.1889141807941428e-05,2.6659612302415425e-05,0.000478834795330342,0.00046526203383303054,0.0003262541013537302,5.512429915098184e-06,9.85491258505486e-05,0.00016184957622989224,-0.000103824974658836,0.8076412081718445,46.40121078491211,5.711269855499268,-19.757417678833008,-0.9570212960243225,-2.3596224784851074,0.08365194499492645,0
22,0.10498833656311035,-0.8076412081718445,-46.40121078491211,-5.711269855499268,19.757417678833008,0.9570212960243225,2.3596224784851074,-0.08365194499492645,0.0,0.0,0.0,0.0,0.0,0.0,0.0,-0.8297617876587524,-0.08175595089109156,-0.5781497380842482,0.545353551832806,0.3684330923471301,0.09038144451237437,-0.08402821253798735,0.8781233355497058,0.75566431257181,-0.2824372376914715,-1.6693190875589283,0.14128513615653668,2.4034570065094463,1.0273114406185018,0.878092876070424,0.7554597494309409,-0.2825552651693207,-1.6690993614607135,0.1414185955172306,2.4034451173676383,1.0273381002308042,-0.000478834795330342,-0.00046526203383303054,-0.0003262541013537302,-5.512429915098184e-06,-9.85491258505486e-05,-0.00016184957622989224,0.000103824974658836,0.0,0.0,0.0,0.0,0.0,0.0,0.0,-3.0459479281819135e-05,-0.00020456314086914062,-0.00011802747784922518,0.00021972609821485634,0.00013345936069392161,-1.1889141807941428e-05,2.6659612302415425e-05,0.000478834795330342,0.00046526203383303054,0.0003262541013537302,5.512429915098184e-06,9.85491258505486e-05,0.00016184957622989224,-0.000103824974658836,0.8076412081718445,46.40121078491211,5.711269855499268,-19.757417678833008,-0.9570212960243225,-2.3596224784851074,0.08365194499492645,0
23,0.10998821258544922,-0.8076412081718445,-46.44881820678711,-5.711269855499268,19.709810256958008,0.9515281319618225,2.3522982597351074,-0.04336874559521675,0.0,0.0,0.0,0.0,0.0,0.0,0.0,-0.8384097935138114,-0.07837440278066549,-0.5824547462876662,0.5440793435987512,0.36848987546135986,0.0899248509685904,-0.08395762415222636,0.8781233355497058,0.7556676504085614,-0.2824365194600605,-1.6693157731834,0.1412884708632956,2.403460999869943,1.0273069647074573,0.878092876070424,0.7554597494309409,-0.2825552651693207,-1.6690993614607135,0.1414185955172306,2.4034451173676383,1.0273381002308042,-0.0009625173651262801,0.0010139484068990544,-0.0009519570761671174,0.001454428213248785,-0.00016932736629690696,0.0001960769871159612,-0.0018583487192999752,0.0,0.0,0.0,0.0,0.0,0.0,0.0,-3.0459479281819135e-05,-0.00020790097762057869,-0.00011874570926023731,0.0002164117226866047,0.00013012465393499872,-1.588250230488697e-05,3.11355233468813e-05,0.0009625173651262801,-0.0010139484068990544,0.0009519570761671174,-0.001454428213248785,0.00016932736629690696,-0.0001960769871159612,0.0018583487192999752,0.8076412081718445,46.44881820678711,5.711269855499268,-19.709810256958008,-0.9515281319618225,-2.3522982597351074,0.04336874559521675,0
24,0.11500668525695801,-0.8076412081718445,-46.44881820678711,-5.711269855499268,19.709810256958008,0.9515281319618225,2.3522982597351074,-0.04336874559521675,0.0,0.0,0.0,0.0,0.0,0.0,0.0,-0.8384097935138114,-0.07837440278066549,-0.5824547462876662,0.5440793435987512,0.36848987546135986,0.0899248509685904,-0.08395762415222636,0.8781233355497058,0.7556676504085614,-0.2824365194600605,-1.6693157731834,0.1412884708632956,2.403460999869943,1.0273069647074573,0.878092876070424,0.7554597494309409,-0.2825552651693207,-1.6690993614607135,0.1414185955172306,2.4034451173676383,1.0273381002308042,-0.0009625173651262801,0.0010139484068990544,-0.0009519570761671174,0.001454428213248785,-0.00016932736629690696,0.0001960769871159612,-0.0018583487192999752,0.0,0.0,0.0,0.0,0.0,0.0,0.0,-3.0459479281819135e-05,-0.00020790097762057869,-0.00011874570926023731,0.0002164117226866047,0.00013012465393499872,-1.588250230488697e-05,3.11355233468813e-05,0.0009625173651262801,-0.0010139484068990544,0.0009519570761671174,-0.001454428213248785,0.00016932736629690696,-0.0001960769871159612,0.0018583487192999752,0.8076412081718445,46.44881820678711,5.711269855499268,-19.709810256958008,-0.9515281319618225,-2.3522982597351074,0.04336874559521675,0
25,0.11999201774597168,-0.8076412081718445,-46.42501449584961,-5.735073566436768,19.733613967895508,0.9451194405555725,2.3458895683288574,-0.08365194499492645,0.0,0.0,0.0,0.0,0.0,0.0,0.0,-0.832383605337266,-0.08671612037955141,-0.5777303901404205,0.5477771883213604,0.36844055027817224,0.08999682371117163,-0.08444265459873872,0.8781233355497058,0.7556659830076482,-0.2824348402988493,-1.6693174446005512,0.14128594603604297,2.4034617113186925,1.0273114406185018,0.878092876070424,0.7554597494309409,-0.2825552651693207,-1.6690993614607135,0.1414185955172306,2.4034451173676383,1.0273381002308042,-0.0003367841094528472,-0.0002685507706635164,-0.0007659331166913778,0.00023723295961833858,0.0004353782744502152,0.00020663271265547909,0.00030158474160277835,0.0,0.0,0.0,0.0,0.0,0.0,0.0,-3.0459479281819135e-05,-0.00020623357670734865,-0.00012042487047142503,0.00021808313983773253,0.00013264948118762998,-1.6593951054133527e-05,2.6659612302415425e-05,0.0003367841094528472,0.0002685507706635164,0.0007659331166913778,-0.00023723295961833858,-0.0004353782744502152,-0.00020663271265547909,-0.00030158474160277835,0.8076412081718445,46.42501449584961,5.735073566436768,-19.733613967895508,-0.9451194405555725,-2.3458895683288574,0.08365194499492645,0
26,0.12498688697814941,-0.8076412081718445,-46.42501449584961,-5.735073566436768,19.733613967895508,0.9451194405555725,2.3458895683288574,-0.08365194499492645,0.0,0.0,0.0,0.0,0.0,0.0,0.0,-0.832383605337266,-0.08671612037955141,-0.5777303901404205,0.5477771883213604,0.36844055027817224,0.08999682371117163,-0.08444265459873872,0.8781233355497058,0.7556659830076482,-0.2824348402988493,-1.6693174446005512,0.14128594603604297,2.4034617113186925,1.0273114406185018,0.878092876070424,0.7554597494309409,-0.2825552651693207,-1.6690993614607135,0.1414185955172306,2.4034451173676383,1.0273381002308042,-0.0003367841094528472,-0.0002685507706635164,-0.0007659331166913778,0.00023723295961833858,0.0004353782744502152,0.00020663271265547909,0.00030158474160277835,0.0,0.0,0.0,0.0,0.0,0.0,0.0,-3.0459479281819135e-05,-0.00020623357670734865,-0.00012042487047142503,0.00021808313983773253,0.00013264948118762998,-1.6593951054133527e-05,2.6659612302415425e-05,0.0003367841094528472,0.0002685507706635164,0.0007659331166913778,-0.00023723295961833858,-0.0004353782744502152,-0.00020663271265547909,-0.00030158474160277835,0.8076412081718445,46.42501449584961,5.735073566436768,-19.733613967895508,-0.9451194405555725,-2.3458895683288574,0.08365194499492645,0
27,0.12993216514587402,-0.8076412081718445,-46.42501449584961,-5.735073566436768,19.757417678833008,0.9515281319618225,2.3596224784851074,-0.09738485515117645,0.0,0.0,0.0,0.0,0.0,0.0,0.0,-0.8314249399006822,-0.07926992048106443,-0.5790115057504372,0.5420124580433712,0.36891021232465987,0.08895126979245023,-0.08410101893288519,0.8781233355497058,0.7556659830076653,-0.2824355554455211,-1.6693191150364122,0.1412885677735096,2.403458183954929,1.027312966497408,0.878092876070424,0.7554597494309409,-0.2825552651693207,-1.6690993614607135,0.1414185955172306,2.4034451173676383,1.0273381002308042,-0.000580459084175256,0.00047278189486272366,-0.0007193310760657006,-0.00017033402656623737,-2.8456954996056268e-05,-0.00020845557684673793,0.0004253541309299151,0.0,0.0,0.0,0.0,0.0,0.0,0.0,-3.0459479281819135e-05,-0.0002062335767244461,-0.00011970972379959921,0.00021975357569870013,0.00013002774372100623,-1.3066587290833098e-05,2.5133733396076607e-05,0.000580459084175256,-0.00047278189486272366,0.0007193310760657006,0.00017033402656623737,2.8456954996056268e-05,0.00020845557684673793,-0.0004253541309299151,0.8076412081718445,46.42501449584961,5.735073566436768,-19.757417678833008,-0.9515281319618225,-2.3596224784851074,0.09738485515117645,0
28,0.13498306274414062,-0.8076412081718445,-46.42501449584961,-5.735073566436768,19.757417678833008,0.9515281319618225,2.3596224784851074,-0.09738485515117645,0.0,0.0,0.0,0.0,0.0,0.0,0.0,-0.8314249399006822,-0.07926992048106443,-0.5790115057504372,0.5420124580433712,0.36891021232465987,0.08895126979245023,-0.08410101893288519,0.8781233355497058,0.7556659830076653,-0.2824355554455211,-1.6693191150364122,0.1412885677735096,2.403458183954929,1.027312966497408,0.878092876070424,0.7554597494309409,-0.2825552651693207,-1.6690993614607135,0.1414185955172306,2.4034451173676383,1.0273381002308042,-0.000580459084175256,0.00047278189486272366,-0.0007193310760657006,-0.00017033402656623737,-2.8456954996056268e-05,-0.00020845557684673793,0.0004253541309299151,0.0,0.0,0.0,0.0,0.0,0.0,0.0,-3.0459479281819135e-05,-0.0002062335767244461,-0.00011970972379959921,0.00021975357569870013,0.00013002774372100623,-1.3066587290833098e-05,2.5133733396076607e-05,0.000580459084175256,-0.00047278189486272366,0.0007193310760657006,0.00017033402656623737,2.8456954996056268e-05,0.00020845557684673793,-0.0004253541309299151,0.8076412081718445,46.42501449584961,5.735073566436768,-19.757417678833008,-0.9515281319618225,-2.3596224784851074,0.09738485515117645,0
29,0.14000248908996582,-0.8076412081718445,-46.42501449584961,-5.735073566436768,19.785188674926758,0.9634299874305725,2.3596224784851074,-0.06991903483867645,0.0,0.0,0.0,0.0,0.0,0.0,0.0,-0.8278772719969675,-0.09276319377045023,-0.5798244026311339,0.5505599898238712,0.3689979378149324,0.09018916402727578,-0.08347452565689784,0.8781233355497058,0.7556659829706536,-0.2824348403028371,-1.6693210638782432,0.14128406868337973,2.403460203355604,1.0273099147395954,0.878092876070424,0.7554597494309409,-0.2825552651693207,-1.6690993614607135,0.1414185955172306,2.4034451173676383,1.0273381002308042,-0.00045986554938479894,6.734326521428925e-05,-0.0006894377795569505,-0.0004217918114137204,-0.0001968541528632685,-8.422796957074512e-05,-0.0005511153340214233,0.0,0.0,0.0,0.0,0.0,0.0,0.0,-3.0459479281819135e-05,-0.00020623353971271907,-0.00012042486648361495,0.0002217024175297233,0.00013452683385087316,-1.508598796551297e-05,2.8185491208754243e-05,0.00045986554938479894,-6.734326521428925e-05,0.0006894377795569505,0.0004217918114137204,0.0001968541528632685,8.422796957074512e-05,0.0005511153340214233,0.8076412081718445,46.42501449584961,5.735073566436768,-19.785188674926758,-0.9634299874305725,-2.3596224784851074,0.06991903483867645,0
30,0.1450059413909912,-0.8076412081718445,-46.42501449584961,-5.735073566436768,19.785188674926758,0.9634299874305725,2.3596224784851074,-0.06991903483867645,0.0,0.0,0.0,0.0,0.0,0.0,0.0,-0.8278772719969675,-0.09276319377045023,-0.5798244026311339,0.5505599898238712,0.3689979378149324,0.09018916402727578,-0.08347452565689784,0.8781233355497058,0.7556659829706536,-0.2824348403028371,-1.6693210638782432,0.14128406868337973,2.403460203355604,1.0273099147395954,0.878092876070424,0.7554597494309409,-0.2825552651693207,-1.6690993614607135,0.1414185955172306,2.4034451173676383,1.0273381002308042,-0.00045986554938479894,6.734326521428925e-05,-0.0006894377795569505,-0.0004217918114137204,-0.0001968541528632685,-8.422796957074512e-05,-0.0005511153340214233,0.0,0.0,0.0,0.0,0.0,0.0,0.0,-3.0459479281819135e-05,-0.00020623353971271907,-0.00012042486648361495,0.0002217024175297233,0.00013452683385087316,-1.508598796551297e-05,2.8185491208754243e-05,0.00045986554938479894,-6.734326521428925e-05,0.0006894377795569505,0.0004217918114137204,0.0001968541528632685,8.422796957074512e-05,0.0005511153340214233,0.8076412081718445,46.42501449584961,5.735073566436768,-19.785188674926758,-0.9634299874305725,-2.3596224784851074,0.06991903483867645,0
31,0.14998483657836914,-0.8076412081718445,-46.42501449584961,-5.711269855499268,19.733613967895508,0.9515281319618225,2.3458895683288574,-0.08365194499492645,0.0,0.0,0.0,0.0,0.0,0.0,0.0,-0.8250779633928375,-0.07065709271081935,-0.5766106992727695,0.5391795409542612,0.3691070584633167,0.08896194011428889,-0.08378054851500844,0.8781233355497058,0.7556657401739271,-0.2824365194559568,-1.6693171972426437,0.14128540794122038,2.4034585848937167,1.0273114406185018,0.878092876070424,0.7554597494309409,-0.2825552651693207,-1.6690993614607135,0.1414185955172306,2.4034451173676383,1.0273381002308042,-0.0001250103234485883,0.0006381952362466344,-0.0010557550546155328,-0.0003100515505518504,9.046425992101301e-05,0.0004394446417181443,7.240014130853138e-05,0.0,0.0,0.0,0.0,0.0,0.0,0.0,-3.0459479281819135e-05,-0.00020599074298621733,-0.00011874571336389916,0.00021783578193024233,0.00013318757601021858,-1.3467526078336789e-05,2.6659612302415425e-05,0.0001250103234485883,-0.0006381952362466344,0.0010557550546155328,0.0003100515505518504,-9.046425992101301e-05,-0.0004394446417181443,-7.240014130853138e-05,0.8076412081718445,46.42501449584961,5.711269855499268,-19.733613967895508,-0.9515281319618225,-2.3458895683288574,0.08365194499492645,0
32,0.15499448776245117,-0.8076412081718445,-46.42501449584961,-5.711269855499268,19.733613967895508,0.9515281319618225,2.3458895683288574,-0.08365194499492645,0.0,0.0,0.0,0.0,0.0,0.0,0.0,-0.8250779633928375,-0.07065709271081935,-0.5766106992727695,0.5391795409542612,0.3691070584633167,0.08896194011428889,-0.08378054851500844,0.8781233355497058,0.7556657401739271,-0.2824365194559568,-1.6693171972426437,0.14128540794122038,2.4034585848937167,1.0273114406185018,0.878092876070424,0.7554597494309409,-0.2825552651693207,-1.6690993614607135,0.1414185955172306,2.4034451173676383,1.0273381002308042,-0.0001250103234485883,0.0006381952362466344,-0.0010557550546155328,-0.0003100515505518504,9.046425992101301e-05,0.0004394446417181443,7.240014130853138e-05,0.0,0.0,0.0,0.0,0.0,0.0,0.0,-3.0459479281819135e-05,-0.00020599074298621733,-0.00011874571336389916,0.00021783578193024233,0.00013318757601021858,-1.3467526078336789e-05,2.6659612302415425e-05,0.0001250103234485883,-0.0006381952362466344,0.0010557550546155328,0.0003100515505518504,-9.046425992101301e-05,-0.0004394446417181443,-7.240014130853138e-05,0.8076412081718445,46.42501449584961,5.711269855499268,-19.733613967895508,-0.9515281319618225,-2.3458895683288574,0.08365194499492645,0
33,0.15994811058044434,-0.8076412081718445,-46.34963607788086,-5.786648273468018,19.757417678833008,0.9451194405555725,2.3660311698913574,-0.10470907390117645,0.0,0.0,0.0,0.0,0.0,0.0,0.0,-0.8387257354871112,-0.08132452520784886,-0.5898272253635108,0.5442283904108116,0.3696990002920007,0.09091345012602091,-0.08426256740013259,0.8781240508054431,0.7556606931817177,-0.28243336962279775,-1.6693191052235516,0.1412884769730786,2.403459826558021,1.0273137802994914,0.878092876070424,0.7554597494309409,-0.2825552651693207,-1.6690993614607135,0.1414185955172306,2.4034451173676383,1.0273381002308042,-0.0004425034159120618,-0.0009848152780734868,0.0005375906799960813,-0.0003772913397091929,0.00041597997313198637,-7.405702022784979e-05,0.0007616015229020593,0.0,0.0,0.0,0.0,0.0,0.0,0.0,-3.117473501912382e-05,-0.00020094375077683857,-0.00012189554652297652,0.00021974376283817598,0.00013011854415198587,-1.4709190382600212e-05,2.4319931312799525e-05,0.0004425034159120618,0.0009848152780734868,-0.0005375906799960813,0.0003772913397091929,-0.00041597997313198637,7.405702022784979e-05,-0.0007616015229020593,0.8076412081718445,46.34963607788086,5.786648273468018,-19.757417678833008,-0.9451194405555725,-2.3660311698913574,0.10470907390117645,0
34,0.16493439674377441,-0.8076412081718445,-46.34963607788086,-5.786648273468018,19.757417678833008,0.9451194405555725,2.3660311698913574,-0.10470907390117645,0.0,0.0,0.0,0.0,0.0,0.0,0.0,-0.8387257354871112,-0.08132452520784886,-0.5898272253635108,0.5442283904108116,0.3696990002920007,0.09091345012602091,-0.08426256740013259,0.8781240508054431,0.7556606931817177,-0.28243336962279775,-1.6693191052235516,0.1412884769730786,2.403459826558021,1.0273137802994914,0.878092876070424,0.7554597494309409,-0.2825552651693207,-1.6690993614607135,0.1414185955172306,2.4034451173676383,1.0273381002308042,-0.0004425034159120618,-0.0009848152780734868,0.0005375906799960813,-0.0003772913397091929,0.00041597997313198637,-7.405702022784979e-05,0.0007616015229020593,0.0,0.0,0.0,0.0,0.0,0.0,0.0,-3.117473501912382e-05,-0.00020094375077683857,-0.00012189554652297652,0.00021974376283817598,0.00013011854415198587,-1.4709190382600212e-05,2.4319931312799525e-05,0.0004425034159120618,0.0009848152780734868,-0.0005375906799960813,0.0003772913397091929,-0.00041597997313198637,7.405702022784979e-05,-0.0007616015229020593,0.8076412081718445,46.34963607788086,5.786648273468018,-19.757417678833008,-0.9451194405555725,-2.3660311698913574,0.10470907390117645,0
35,0.1699965000152588,-0.8592159152030945,-46.42501449584961,-5.735073566436768,19.757417678833008,0.9689231514930725,2.3522982597351074,-0.06351034343242645,0.0,0.0,0.0,0.0,0.0,0.0,0.0,-0.8273915716744291,-0.09189335537846714,-0.5837760679467546,0.5503680365800343,0.3696623716776631,0.09236954931624626,-0.0853893937475109,0.8781269548314299,0.755665979676612,-0.2824355564387964,-1.669316969269145,0.14128583310470283,2.4034579385515586,1.0273092026627726,0.878092876070424,0.7554597494309409,-0.2825552651693207,-1.6690993614607135,0.1414185955172306,2.4034451173676383,1.0273381002308042,0.0009990501991970603,0.00011684532447220339,-0.0003265921553911393,-0.00043781502155049764,-0.0005894228605172933,0.00012895009731601458,-0.0008903307705528356,0.0,0.0,0.0,0.0,0.0,0.0,0.0,-3.407876100591789e-05,-0.00020623024567112402,-0.00011970873052430386,0.00021760780843149696,0.00013276241252777043,-1.2821183920319612e-05,2.8897568031593934e-05,-0.0009990501991970603,-0.00011684532447220339,0.0003265921553911393,0.00043781502155049764,0.0005894228605172933,-0.00012895009731601458,0.0008903307705528356,0.8592159152030945,46.42501449584961,5.735073566436768,-19.757417678833008,-0.9689231514930725,-2.3522982597351074,0.06351034343242645,0
36,0.17503952980041504,-0.8592159152030945,-46.42501449584961,-5.735073566436768,19.757417678833008,0.9689231514930725,2.3522982597351074,-0.06351034343242645,0.0,0.0,0.0,0.0,0.0,0.0,0.0,-0.8273915716744291,-0.09189335537846714,-0.5837760679467546,0.5503680365800343,0.3696623716776631,0.09236954931624626,-0.0853893937475109,0.8781269548314299,0.755665979676612,-0.2824355564387964,-1.669316969269145,0.14128583310470283,2.4034579385515586,1.0273092026627726,0.878092876070424,0.7554597494309409,-0.2825552651693207,-1.6690993614607135,0.1414185955172306,2.4034451173676383,1.0273381002308042,0.0009990501991970603,0.00011684532447220339,-0.0003265921553911393,-0.00043781502155049764,-0.0005894228605172933,0.00012895009731601458,-0.0008903307705528356,0.0,0.0,0.0,0.0,0.0,0.0,0.0,-3.407876100591789e-05,-0.00020623024567112402,-0.00011970873052430386,0.00021760780843149696,0.00013276241252777043,-1.2821183920319612e-05,2.8897568031593934e-05,-0.0009990501991970603,-0.00011684532447220339,0.0003265921553911393,0.00043781502155049764,0.0005894228605172933,-0.00012895009731601458,0.0008903307705528356,0.8592159152030945,46.42501449584961,5.735073566436768,-19.757417678833008,-0.9689231514930725,-2.3522982597351074,0.06351034343242645,0
37,0.1800212860107422,-0.8592159152030945,-46.42501449584961,-5.735073566436768,19.757417678833008,0.9689231514930725,2.3522982597351074,-0.06351034343242645,0.0,0.0,0.0,0.0,0.0,0.0,0.0,-0.8273915716744291,-0.09189335537846714,-0.5837760679467546,0.5503680365800343,0.3696623716776631,0.09236954931624626,-0.0853893937475109,0.8781269548314299,0.755665979676612,-0.2824355564387964,-1.669316969269145,0.14128583310470283,2.4034579385515586,1.0273092026627726,0.878092876070424,0.7554597494309409,-0.2825552651693207,-1.6690993614607135,0.1414185955172306,2.4034451173676383,1.0273381002308042,0.0009990501991970603,0.00011684532447220339,-0.0003265921553911393,-0.00043781502155049764,-0.0005894228605172933,0.00012895009731601458,-0.0008903307705528356,0.0,0.0,0.0,0.0,0.0,0.0,0.0,-3.407876100591789e-05,-0.00020623024567112402,-0.00011970873052430386,0.00021760780843149696,0.00013276241252777043,-1.2821183920319612e-05,2.8897568031593934e-05,-0.0009990501991970603,-0.00011684532447220339,0.0003265921553911393,0.00043781502155049764,0.0005894228605172933,-0.00012895009731601458,0.0008903307705528356,0.8592159152030945,46.42501449584961,5.735073566436768,-19.757417678833008,-0.9689231514930725,-2.3522982597351074,0.06351034343242645,0
38,0.18500089645385742,-0.8592159152030945,-46.42501449584961,-5.735073566436768,19.757417678833008,0.9689231514930725,2.3522982597351074,-0.06351034343242645,0.0,0.0,0.0,0.0,0.0,0.0,0.0,-0.8273915716744291,-0.09189335537846714,-0.5837760679467546,0.5503680365800343,0.3696623716776631,0.09236954931624626,-0.0853893937475109,0.8781269548314299,0.755665979676612,-0.2824355564387964,-1.669316969269145,0.14128583310470283,2.4034579385515586,1.0273092026627726,0.878092876070424,0.7554597494309409,-0.2825552651693207,-1.6690993614607135,0.1414185955172306,2.4034451173676383,1.0273381002308042,0.0009990501991970603,0.00011684532447220339,-0.0003265921553911393,-0.00043781502155049764,-0.0005894228605172933,0.00012895009731601458,-0.0008903307705528356,0.0,0.0,0.0,0.0,0.0,0.0,0.0,-3.407876100591789e-05,-0.00020623024567112402,-0.00011970873052430386,0.00021760780843149696,0.00013276241252777043,-1.2821183920319612e-05,2.8897568031593934e-05,-0.0009990501991970603,-0.00011684532447220339,0.0003265921553911393,0.00043781502155049764,0.0005894228605172933,-0.00012895009731601458,0.0008903307705528356,0.8592159152030945,46.42501449584961,5.735073566436768,-19.757417678833008,-0.9689231514930725,-2.3522982597351074,0.06351034343242645,0
39,0.1899876594543457,-0.8354122042655945,-46.42501449584961,-5.762844562530518,19.709810256958008,0.9515281319618225,2.3522982597351074,-0.11111776530742645,0.0,0.0,0.0,0.0,0.0,0.0,0.0,-0.8245426296332046,-0.08016181566592018,-0.5800857886699097,0.5442251720838657,0.3701885281956438,0.0913089346600989,-0.08493677418631763,0.8781252843915369,0.7556659830076591,-0.2824328913492998,-1.6693157473426619,0.14128784097109318,2.4034583348665426,1.0273144923763142,0.878092876070424,0.7554597494309409,-0.2825552651693207,-1.6690993614607135,0.1414185955172306,2.4034451173676383,1.0273381002308042,0.00035730045361526277,0.0006590530676234619,0.00013304990952714955,0.000862538648118522,0.0004900856910269248,0.00017825932825339926,0.0015924713281324407,0.0,0.0,0.0,0.0,0.0,0.0,0.0,-3.240832111295333e-05,-0.00020623357671822884,-0.000122373820020949,0.00021638588194838881,0.00013075454613742377,-1.3217498904261049e-05,2.3607854489959834e-05,-0.00035730045361526277,-0.0006590530676234619,-0.00013304990952714955,-0.000862538648118522,-0.0004900856910269248,-0.00017825932825339926,-0.0015924713281324407,0.8354122042655945,46.42501449584961,5.762844562530518,-19.709810256958008,-0.9515281319618225,-2.3522982597351074,0.11111776530742645,0
40,0.19498276710510254,-0.8354122042655945,-46.42501449584961,-5.762844562530518,19.709810256958008,0.9515281319618225,2.3522982597351074,-0.11111776530742645,0.0,0.0,0.0,0.0,0.0,0.0,0.0,-0.8245426296332046,-0.08016181566592018,-0.5800857886699097,0.5442251720838657,0.3701885281956438,0.0913089346600989,-0.08493677418631763,0.8781252843915369,0.7556659830076591,-0.2824328913492998,-1.6693157473426619,0.14128784097109318,2.4034583348665426,1.0273144923763142,0.878092876070424,0.7554597494309409,-0.2825552651693207,-1.6690993614607135,0.1414185955172306,2.4034451173676383,1.0273381002308042,0.00035730045361526277,0.0006590530676234619,0.00013304990952714955,0.000862538648118522,0.0004900856910269248,0.00017825932825339926,0.0015924713281324407,0.0,0.0,0.0,0.0,0.0,0.0,0.0,-3.240832111295333e-05,-0.00020623357671822884,-0.000122373820020949,0.00021638588194838881,0.00013075454613742377,-1.3217498904261049e-05,2.3607854489959834e-05,-0.00035730045361526277,-0.0006590530676234619,-0.00013304990952714955,-0.000862538648118522,-0.0004900856910269248,-0.00017825932825339926,-0.0015924713281324407,0.8354122042655945,46.42501449584961,5.762844562530518,-19.709810256958008,-0.9515281319618225,-2.3522982597351074,0.11111776530742645,0
41,0.199981689453125,-0.8354122042655945,-46.42501449584961,-5.762844562530518,19.757417678833008,0.9515281319618225,2.3724398612976074,-0.06351034343242645,0.0,0.0,0.0,0.0,0.0,0.0,0.0,-0.8375023663049478,-0.08473729479918825,-0.5902772024971575,0.542548315603083,0.3707740090624737,0.09148115121860852,-0.08425469957786988,0.8781252843915369,0.7556659820083496,-0.28243289232909846,-1.6693169338387617,0.14128536608035344,2.403455974815275,1.0273092026627726,0.878092876070424,0.7554597494309409,-0.2825552651693207,-1.6690993614607135,0.1414185955172306,2.4034451173676383,1.0273381002308042,-0.0004046371147508817,0.00021832191940250953,0.0002607438105987515,-0.000438672503459634,5.2525766290168055e-05,-0.0006830110813242178,-0.000781713072673356,0.0,0.0,0.0,0.0,0.0,0.0,0.0,-3.240832111295333e-05,-0.00020623257740870482,-0.00012237284022226236,0.00021757237804820306,0.00013322943687715805,-1.0857447636514195e-05,2.8897568031593934e-05,0.0004046371147508817,-0.00021832191940250953,-0.0002607438105987515,0.000438672503459634,-5.2525766290168055e-05,0.0006830110813242178,0.000781713072673356,0.8354122042655945,46.42501449584961,5.762844562530518,-19.757417678833008,-0.9515281319618225,-2.3724398612976074,0.06351034343242645,0
42,0.2050034999847412,-0.8354122042655945,-46.42501449584961,-5.762844562530518,19.757417678833008,0.9515281319618225,2.3724398612976074,-0.06351034343242645,0.0,0.0,0.0,0.0,0.0,0.0,0.0,-0.8375023663049478,-0.08473729479918825,-0.5902772024971575,0.542548315603083,0.3707740090624737,0.09148115121860852,-0.08425469957786988,0.8781252843915369,0.7556659820083496,-0.28243289232909846,-1.6693169338387617,0.14128536608035344,2.403455974815275,1.0273092026627726,0.878092876070424,0.7554597494309409,-0.2825552651693207,-1.6690993614607135,0.1414185955172306,2.4034451173676383,1.0273381002308042,-0.0004046371147508817,0.00021832191940250953,0.0002607438105987515,-0.000438672503459634,5.2525766290168055e-05,-0.0006830110813242178,-0.000781713072673356,0.0,0.0,0.0,0.0,0.0,0.0,0.0,-3.240832111295333e-05,-0.00020623257740870482,-0.00012237284022226236,0.00021757237804820306,0.00013322943687715805,-1.0857447636514195e-05,2.8897568031593934e-05,0.0004046371147508817,-0.00021832191940250953,-0.0002607438105987515,0.000438672503459634,-5.2525766290168055e-05,0.0006830110813242178,0.000781713072673356,0.8354122042655945,46.42501449584961,5.762844562530518,-19.757417678833008,-0.9515281319618225,-2.3724398612976074,0.06351034343242645,0
43,0.20998263359069824,-0.8354122042655945,-46.42501449584961,-5.762844562530518,19.757417678833008,0.9570212960243225,2.3458895683288574,-0.03604452684521675,0.0,0.0,0.0,0.0,0.0,0.0,0.0,-0.8222003772779418,-0.0878926678411114,-0.577377784825078,0.5447809922752456,0.3701927247719388,0.09146665586495642,-0.08359779447852858,0.8781252843915369,0.7556659740138175,-0.2824350640421878,-1.6693183909017055,0.1412847846424888,2.4034617113029593,1.027306150905374,0.878092876070424,0.7554597494309409,-0.2825552651693207,-1.6690993614607135,0.1414185955172306,2.4034451173676383,1.0273381002308042,0.0002767580219772197,0.0002130977457976591,0.0005644988123300047,-0.0002976046786734323,5.597904205131378e-08,0.0005181214927578984,-0.001612155224128388,0.0,0.0,0.0,0.0,0.0,0.0,0.0,-3.240832111295333e-05,-0.00020622458287666845,-0.00012020112713290176,0.0002190294409920579,0.00013381087474179099,-1.6593935320941e-05,3.194932543015838e-05,-0.0002767580219772197,-0.0002130977457976591,-0.0005644988123300047,0.0002976046786734323,-5.597904205131378e-08,-0.0005181214927578984,0.001612155224128388,0.8354122042655945,46.42501449584961,5.762844562530518,-19.757417678833008,-0.9570212960243225,-2.3458895683288574,0.03604452684521675,0
44,0.2149953842163086,-0.8354122042655945,-46.42501449584961,-5.762844562530518,19.757417678833008,0.9570212960243225,2.3458895683288574,-0.03604452684521675,0.0,0.0,0.0,0.0,0.0,0.0,0.0,-0.8222003772779418,-0.0878926678411114,-0.577377784825078,0.5447809922752456,0.3701927247719388,0.09146665586495642,-0.08359779447852858,0.8781252843915369,0.7556659740138175,-0.2824350640421878,-1.6693183909017055,0.1412847846424888,2.4034617113029593,1.027306150905374,0.878092876070424,0.7554597494309409,-0.2825552651693207,-1.6690993614607135,0.1414185955172306,2.4034451173676383,1.0273381002308042,0.0002767580219772197,0.0002130977457976591,0.0005644988123300047,-0.0002976046786734323,5.597904205131378e-08,0.0005181214927578984,-0.001612155224128388,0.0,0.0,0.0,0.0,0.0,0.0,0.0,-3.240832111295333e-05,-0.00020622458287666845,-0.00012020112713290176,0.0002190294409920579,0.00013381087474179099,-1.6593935320941e-05,3.194932543015838e-05,-0.0002767580219772197,-0.0002130977457976591,-0.0005644988123300047,0.0002976046786734323,-5.597904205131378e-08,-0.0005181214927578984,0.001612155224128388,0.8354122042655945,46.42501449584961,5.762844562530518,-19.757417678833008,-0.9570212960243225,-2.3458895683288574,0.03604452684521675,0
45,0.22000622749328613,-0.7838374972343445,-46.40121078491211,-5.786648273468018,19.733613967895508,0.9451194405555725,2.3596224784851074,-0.11111776530742645,0.0,0.0,0.0,0.0,0.0,0.0,0.0,-0.8349486057813912,-0.07330319319566404,-0.5846676073866285,0.5359841522765961,0.37033918548092565,0.09010444198496662,-0.08318434052074893,0.8781216651138505,0.7556643125717593,-0.2824312209243617,-1.6693152190293485,0.14128503636809334,2.4034570066869003,1.027314490922764,0.878092876070424,0.7554597494309409,-0.2825552651693207,-1.6690993614607135,0.1414185955172306,2.4034451173676383,1.0273381002308042,-0.001601772412200628,0.00032782930645916227,0.0006142582939790518,-0.00015032641647534203,0.00044087040439798943,7.007887365425708e-05,0.0011809224768460555,0.0,0.0,0.0,0.0,0.0,0.0,0.0,-2.8789043426513672e-05,-0.00020456314081840343,-0.00012404424495904287,0.00021585756863506944,0.0001335591491372634,-1.1889319261992881e-05,2.360930804012895e-05,0.001601772412200628,-0.00032782930645916227,-0.0006142582939790518,0.00015032641647534203,-0.00044087040439798943,-7.007887365425708e-05,-0.0011809224768460555,0.7838374972343445,46.40121078491211,5.786648273468018,-19.733613967895508,-0.9451194405555725,-2.3596224784851074,0.11111776530742645,0
46,0.224992036819458,-0.7838374972343445,-46.40121078491211,-5.786648273468018,19.733613967895508,0.9451194405555725,2.3596224784851074,-0.11111776530742645,0.0,0.0,0.0,0.0,0.0,0.0,0.0,-0.8349486057813912,-0.07330319319566404,-0.5846676073866285,0.5359841522765961,0.37033918548092565,0.09010444198496662,-0.08318434052074893,0.8781216651138505,0.7556643125717593,-0.2824312209243617,-1.6693152190293485,0.14128503636809334,2.4034570066869003,1.027314490922764,0.878092876070424,0.7554597494309409,-0.2825552651693207,-1.6690993614607135,0.1414185955172306,2.4034451173676383,1.0273381002308042,-0.001601772412200628,0.00032782930645916227,0.0006142582939790518,-0.00015032641647534203,0.00044087040439798943,7.007887365425708e-05,0.0011809224768460555,0.0,0.0,0.0,0.0,0.0,0.0,0.0,-2.8789043426513672e-05,-0.00020456314081840343,-0.00012404424495904287,0.00021585756863506944,0.0001335591491372634,-1.1889319261992881e-05,2.360930804012895e-05,0.001601772412200628,-0.00032782930645916227,-0.0006142582939790518,0.00015032641647534203,-0.00044087040439798943,-7.007887365425708e-05,-0.0011809224768460555,0.7838374972343445,46.40121078491211,5.786648273468018,-19.733613967895508,-0.9451194405555725,-2.3596224784851074,0.11111776530742645,0
47,0.22993254661560059,-0.7838374972343445,-46.42501449584961,-5.711269855499268,19.757417678833008,0.9570212960243225,2.3596224784851074,-0.06991903483867645,0.0,0.0,0.0,0.0,0.0,0.0,0.0,-0.8351964173423281,-0.0846289333295768,-0.5877070182235614,0.5408060670612995,0.3705456457597937,0.09105366722937311,-0.08295437604442421,0.8781216651138505,0.7556659830076653,-0.2824365106619773,-1.6693191120804096,0.14128726992422086,2.403457019589403,1.0273099147395872,0.878092876070424,0.7554597494309409,-0.2825552651693207,-1.6690993614607135,0.1414185955172306,2.4034451173676383,1.0273381002308042,-0.0014596105195047425,0.00021963494242974502,-0.001034404416827531,-0.000755950366150455,1.3608327536469236e-05,-9.923369637243266e-05,-0.0005705571287454584,0.0,0.0,0.0,0.0,0.0,0.0,0.0,-2.8789043426513672e-05,-0.0002062335767244461,-0.00011875450734344373,0.0002197506196961463,0.00013132559300974012,-1.1902221764614751e-05,2.8185491216969893e-05,0.0014596105195047425,-0.00021963494242974502,0.001034404416827531,0.000755950366150455,-1.3608327536469236e-05,9.923369637243266e-05,0.0005705571287454584,0.7838374972343445,46.42501449584961,5.711269855499268,-19.757417678833008,-0.9570212960243225,-2.3596224784851074,0.06991903483867645,0
48,0.23498773574829102,-0.7838374972343445,-46.42501449584961,-5.711269855499268,19.757417678833008,0.9570212960243225,2.3596224784851074,-0.06991903483867645,0.0,0.0,0.0,0.0,0.0,0.0,0.0,-0.8351964173423281,-0.0846289333295768,-0.5877070182235614,0.5408060670612995,0.3705456457597937,0.09105366722937311,-0.08295437604442421,0.8781216651138505,0.7556659830076653,-0.2824365106619773,-1.6693191120804096,0.14128726992422086,2.403457019589403,1.0273099147395872,0.878092876070424,0.7554597494309409,-0.2825552651693207,-1.6690993614607135,0.1414185955172306,2.4034451173676383,1.0273381002308042,-0.0014596105195047425,0.00021963494242974502,-0.001034404416827531,-0.000755950366150455,1.3608327536469236e-05,-9.923369637243266e-05,-0.0005705571287454584,0.0,0.0,0.0,0.0,0.0,0.0,0.0,-2.8789043426513672e-05,-0.0002062335767244461,-0.00011875450734344373,0.0002197506196961463,0.00013132559300974012,-1.1902221764614751e-05,2.8185491216969893e-05,0.0014596105195047425,-0.00021963494242974502,0.001034404416827531,0.000755950366150455,-1.3608327536469236e-05,9.923369637243266e-05,0.0005705571287454584,0.7838374972343445,46.42501449584961,5.711269855499268,-19.757417678833008,-0.9570212960243225,-2.3596224784851074,0.06991903483867645,0
49,0.2400047779083252,-0.8354122042655945,-46.42501449584961,-5.762844562530518,19.785188674926758,0.9634299874305725,2.3660311698913574,-0.09738485515117645,0.0,0.0,0.0,0.0,0.0,0.0,0.0,-0.8293017091284395,-0.08740472976149612,-0.5817992261396799,0.5425121238168963,0.3704208368968195,0.09088292448110205,-0.08203907993085206,0.8781252843915369,0.7556659830076653,-0.28243504038565265,-1.6693210635511444,0.1412871675031421,2.4034562963689154,1.027312966497408,0.878092876070424,0.7554597494309409,-0.2825552651693207,-1.6690993614607135,0.1414185955172306,2.4034451173676383,1.0273381002308042,0.0001615038156481763,0.0001957778098674634,0.00029057672286901943,-0.0010778451707794698,-0.00033434328311107004,-0.0005461454169971118,0.00021829281127895903,0.0,0.0,0.0,0.0,0.0,0.0,0.0,-3.240832111295333e-05,-0.0002062335767244461,-0.00012022478366807698,0.0002217020904309308,0.00013142801408849714,-1.117900127711735e-05,2.5133733396076607e-05,-0.0001615038156481763,-0.0001957778098674634,-0.00029057672286901943,0.0010778451707794698,0.00033434328311107004,0.0005461454169971118,-0.00021829281127895903,0.8354122042655945,46.42501449584961,5.762844562530518,-19.785188674926758,-0.9634299874305725,-2.3660311698913574,0.09738485515117645,0
50,0.24498677253723145,-0.8354122042655945,-46.42501449584961,-5.762844562530518,19.785188674926758,0.9634299874305725,2.3660311698913574,-0.09738485515117645,0.0,0.0,0.0,0.0,0.0,0.0,0.0,-0.8293017091284395,-0.08740472976149612,-0.5817992261396799,0.5425121238168963,0.3704208368968195,0.09088292448110205,-0.08203907993085206,0.8781252843915369,0.7556659830076653,-0.28243504038565265,-1.6693210635511444,0.1412871675031421,2.4034562963689154,1.027312966497408,0.878092876070424,0.7554597494309409,-0.2825552651693207,-1.6690993614607135,0.1414185955172306,2.4034451173676383,1.0273381002308042,0.0001615038156481763,0.0001957778098674634,0.00029057672286901943,-0.0010778451707794698,-0.00033434328311107004,-0.0005461454169971118,0.00021829281127895903,0.0,0.0,0.0,0.0,0.0,0.0,0.0,-3.240832111295333e-05,-0.0002062335767244461,-0.00012022478366807698,0.0002217020904309308,0.00013142801408849714,-1.117900127711735e-05,2.5133733396076607e-05,-0.0001615038156481763,-0.0001957778098674634,-0.00029057672286901943,0.0010778451707794698,0.00033434328311107004,0.0005461454169971118,-0.00021829281127895903,0.8354122042655945,46.42501449584961,5.762844562530518,-19.785188674926758,-0.9634299874305725,-2.3660311698913574,0.09738485515117645,0
51,0.249983549118042,-0.8076412081718445,-46.40121078491211,-5.762844562530518,19.733613967895508,0.9515281319618225,2.3458895683288574,-0.11111776530742645,0.0,0.0,0.0,0.0,0.0,0.0,0.0,-0.8278177753582433,-0.08615780547448354,-0.5794103792982171,0.5414717821024204,0.37055924272919705,0.09097870215555534,-0.08264254280853918,0.8781233355497058,0.75566431257181,-0.28243289135199584,-1.6693171796910238,0.14128468417289247,2.4034585323863595,1.0273144923763142,0.878092876070424,0.7554597494309409,-0.2825552651693207,-1.6690993614607135,0.1414185955172306,2.4034451173676383,1.0273381002308042,-0.000526732859348735,-0.00019970428582938453,0.00036043042257398916,0.0004985242879233075,0.0001790248588828573,0.0001734984909265771,0.001407206671984573,0.0,0.0,0.0,0.0,0.0,0.0,0.0,-3.0459479281819135e-05,-0.00020456314086914062,-0.0001223738173248834,0.00021781823031030711,0.0001339113443381279,-1.3415018721207872e-05,2.3607854489959834e-05,0.000526732859348735,0.00019970428582938453,-0.00036043042257398916,-0.0004985242879233075,-0.0001790248588828573,-0.0001734984909265771,-0.001407206671984573,0.8076412081718445,46.40121078491211,5.762844562530518,-19.733613967895508,-0.9515281319618225,-2.3458895683288574,0.11111776530742645,0
52,0.2549858093261719,-0.8076412081718445,-46.40121078491211,-5.762844562530518,19.733613967895508,0.9515281319618225,2.3458895683288574,-0.11111776530742645,0.0,0.0,0.0,0.0,0.0,0.0,0.0,-0.8278177753582433,-0.08615780547448354,-0.5794103792982171,0.5414717821024204,0.37055924272919705,0.09097870215555534,-0.08264254280853918,0.8781233355497058,0.75566431257181,-0.28243289135199584,-1.6693171796910238,0.14128468417289247,2.4034585323863595,1.0273144923763142,0.878092876070424,0.7554597494309409,-0.2825552651693207,-1.6690993614607135,0.1414185955172306,2.4034451173676383,1.0273381002308042,-0.000526732859348735,-0.00019970428582938453,0.00036043042257398916,0.0004985242879233075,0.0001790248588828573,0.0001734984909265771,0.001407206671984573,0.0,0.0,0.0,0.0,0.0,0.0,0.0,-3.0459479281819135e-05,-0.00020456314086914062,-0.0001223738173248834,0.00021781823031030711,0.0001339113443381279,-1.3415018721207872e-05,2.3607854489959834e-05,0.000526732859348735,0.00019970428582938453,-0.00036043042257398916,-0.0004985242879233075,-0.0001790248588828573,-0.0001734984909265771,-0.001407206671984573,0.8076412081718445,46.40121078491211,5.762844562530518,-19.733613967895508,-0.9515281319618225,-2.3458895683288574,0.11111776530742645,0
53,0.25998353958129883,-0.8354122042655945,-46.42501449584961,-5.735073566436768,19.757417678833008,0.9570212960243225,2.3458895683288574,-0.08365194499492645,0.0,0.0,0.0,0.0,0.0,0.0,0.0,-0.8261611198428409,-0.07333431163958194,-0.5772877844209459,0.5352369968521833,0.37042194939906076,0.08944761670243934,-0.08201435150791879,0.8781252843915369,0.7556659017299807,-0.28243484411436887,-1.6693191148895616,0.141283916158518,2.403459959934203,1.0273114406185018,0.878092876070424,0.7554597494309409,-0.2825552651693207,-1.6690993614607135,0.1414185955172306,2.4034451173676383,1.0273381002308042,0.0005306230638734754,0.0009601859687445296,-0.00021256120272985225,-0.0008543534937667967,-0.00019014346775263853,0.00029707379180374043,-0.00015895261943875915,0.0,0.0,0.0,0.0,0.0,0.0,0.0,-3.240832111295333e-05,-0.00020615229903986343,-0.00012042105495185806,0.0002197534288481684,0.00013467935871258607,-1.4842566564698956e-05,2.6659612302415425e-05,-0.0005306230638734754,-0.0009601859687445296,0.00021256120272985225,0.0008543534937667967,0.00019014346775263853,-0.00029707379180374043,0.00015895261943875915,0.8354122042655945,46.42501449584961,5.735073566436768,-19.757417678833008,-0.9570212960243225,-2.3458895683288574,0.08365194499492645,0
54,0.2649805545806885,-0.8354122042655945,-46.42501449584961,-5.735073566436768,19.757417678833008,0.9570212960243225,2.3458895683288574,-0.08365194499492645,0.0,0.0,0.0,0.0,0.0,0.0,0.0,-0.8261611198428409,-0.07333431163958194,-0.5772877844209459,0.5352369968521833,0.37042194939906076,0.08944761670243934,-0.08201435150791879,0.8781252843915369,0.7556659017299807,-0.28243484411436887,-1.6693191148895616,0.141283916158518,2.403459959934203,1.0273114406185018,0.878092876070424,0.7554597494309409,-0.2825552651693207,-1.6690993614607135,0.1414185955172306,2.4034451173676383,1.0273381002308042,0.0005306230638734754,0.0009601859687445296,-0.00021256120272985225,-0.0008543534937667967,-0.00019014346775263853,0.00029707379180374043,-0.00015895261943875915,0.0,0.0,0.0,0.0,0.0,0.0,0.0,-3.240832111295333e-05,-0.00020615229903986343,-0.00012042105495185806,0.0002197534288481684,0.00013467935871258607,-1.4842566564698956e-05,2.6659612302415425e-05,-0.0005306230638734754,-0.0009601859687445296,0.00021256120272985225,0.0008543534937667967,0.00019014346775263853,-0.00029707379180374043,0.00015895261943875915,0.8354122042655945,46.42501449584961,5.735073566436768,-19.757417678833008,-0.9570212960243225,-2.3458895683288574,0.08365194499492645,0
55,0.26998138427734375,-0.8354122042655945,-46.40121078491211,-5.762844562530518,19.733613967895508,0.9515281319618225,2.3522982597351074,-0.04336874559521675,0.0,0.0,0.0,0.0,0.0,0.0,0.0,-0.8267893328817794,-0.08724125261033512,-0.579796225485775,0.5452589927997259,0.37026235874211294,0.09042639365155715,-0.08183246287249936,0.8781252843915369,0.7556642316267719,-0.2824329002146307,-1.6693174347890918,0.14128572538229225,2.4034578217711418,1.0273069647074573,0.878092876070424,0.7554597494309409,-0.2825552651693207,-1.6690993614607135,0.1414185955172306,2.4034451173676383,1.0273381002308042,-0.0001018633440900273,0.00022259855747873894,0.0006645322382716844,0.00019963097245227085,0.00011270414083137226,-2.153701473276493e-05,-0.0011531096331831921,0.0,0.0,0.0,0.0,0.0,0.0,0.0,-3.240832111295333e-05,-0.0002044821958310239,-0.00012236495469003517,0.00021807332837830984,0.00013287013493834543,-1.2704403503427386e-05,3.11355233468813e-05,0.0001018633440900273,-0.00022259855747873894,-0.0006645322382716844,-0.00019963097245227085,-0.00011270414083137226,2.153701473276493e-05,0.0011531096331831921,0.8354122042655945,46.40121078491211,5.762844562530518,-19.733613967895508,-0.9515281319618225,-2.3522982597351074,0.04336874559521675,0
56,0.27498817443847656,-0.8354122042655945,-46.40121078491211,-5.762844562530518,19.733613967895508,0.9515281319618225,2.3522982597351074,-0.04336874559521675,0.0,0.0,0.0,0.0,0.0,0.0,0.0,-0.8267893328817794,-0.08724125261033512,-0.579796225485775,0.5452589927997259,0.37026235874211294,0.09042639365155715,-0.08183246287249936,0.8781252843915369,0.7556642316267719,-0.2824329002146307,-1.6693174347890918,0.14128572538229225,2.4034578217711418,1.0273069647074573,0.878092876070424,0.7554597494309409,-0.2825552651693207,-1.6690993614607135,0.1414185955172306,2.4034451173676383,1.0273381002308042,-0.0001018633440900273,0.00022259855747873894,0.0006645322382716844,0.00019963097245227085,0.00011270414083137226,-2.153701473276493e-05,-0.0011531096331831921,0.0,0.0,0.0,0.0,0.0,0.0,0.0,-3.240832111295333e-05,-0.0002044821958310239,-0.00012236495469003517,0.00021807332837830984,0.00013287013493834543,-1.2704403503427386e-05,3.11355233468813e-05,0.0001018633440900273,-0.00022259855747873894,-0.0006645322382716844,-0.00019963097245227085,-0.00011270414083137226,2.153701473276493e-05,0.0011531096331831921,0.8354122042655945,46.40121078491211,5.762844562530518,-19.733613967895508,-0.9515281319618225,-2.3522982597351074,0.04336874559521675,0
57,0.27994227409362793,-0.8354122042655945,-46.37740707397461,-5.711269855499268,19.709810256958008,0.9451194405555725,2.3522982597351074,-0.09738485515117645,0.0,0.0,0.0,0.0,0.0,0.0,0.0,-0.8336305797198685,-0.07598494056139679,-0.5812911003505903,0.5395866516724153,0.3698307085006104,0.08961793107655537,-0.0808423238227139,0.8781252843915369,0.7556619105993247,-0.2824365900985482,-1.6693157741283073,0.1412861069103875,2.4034578348450437,1.027312966497408,0.878092876070424,0.7554597494309409,-0.2825552651693207,-1.6690993614607135,0.1414185955172306,2.4034451173676383,1.0273381002308042,0.00016774055764173383,-0.0003858342000292018,-0.0009929361960485602,0.0004605548040096779,0.0004279263604664943,0.00024052267175221593,0.0007272125415494889,0.0,0.0,0.0,0.0,0.0,0.0,0.0,-3.240832111295333e-05,-0.00020216116838389642,-0.00011867507077251149,0.00021641266759386824,0.00013248860684308972,-1.2717477405388422e-05,2.5133733396076607e-05,-0.00016774055764173383,0.0003858342000292018,0.0009929361960485602,-0.0004605548040096779,-0.0004279263604664943,-0.00024052267175221593,-0.0007272125415494889,0.8354122042655945,46.37740707397461,5.711269855499268,-19.709810256958008,-0.9451194405555725,-2.3522982597351074,0.09738485515117645,0
58,0.2849884033203125,-0.8354122042655945,-46.37740707397461,-5.711269855499268,19.709810256958008,0.9451194405555725,2.3522982597351074,-0.09738485515117645,0.0,0.0,0.0,0.0,0.0,0.0,0.0,-0.8336305797198685,-0.07598494056139679,-0.5812911003505903,0.5395866516724153,0.3698307085006104,0.08961793107655537,-0.0808423238227139,0.8781252843915369,0.7556619105993247,-0.2824365900985482,-1.6693157741283073,0.1412861069103875,2.4034578348450437,1.027312966497408,0.878092876070424,0.7554597494309409,-0.2825552651693207,-1.6690993614607135,0.1414185955172306,2.4034451173676383,1.0273381002308042,0.00016774055764173383,-0.0003858342000292018,-0.0009929361960485602,0.0004605548040096779,0.0004279263604664943,0.00024052267175221593,0.0007272125415494889,0.0,0.0,0.0,0.0,0.0,0.0,0.0,-3.240832111295333e-05,-0.00020216116838389642,-0.00011867507077251149,0.00021641266759386824,0.00013248860684308972,-1.2717477405388422e-05,2.5133733396076607e-05,-0.00016774055764173383,0.0003858342000292018,0.0009929361960485602,-0.0004605548040096779,-0.0004279263604664943,-0.00024052267175221593,-0.0007272125415494889,0.8354122042655945,46.37740707397461,5.711269855499268,-19.709810256958008,-0.9451194405555725,-2.3522982597351074,0.09738485515117645,0
59,0.28998303413391113,-0.8076412081718445,-46.42501449584961,-5.762844562530518,19.757417678833008,0.9570212960243225,2.3522982597351074,-0.11111776530742645,0.0,0.0,0.0,0.0,0.0,0.0,0.0,-0.8365454461931656,-0.0878357105038822,-0.5847276457377676,0.5446829147423129,0.3698678758737462,0.09092347237599059,-0.08105635709839229,0.8781233355497058,0.7556659830035357,-0.28243289134840066,-1.6693188648440758,0.14128835341772097,2.4034578595554716,1.0273144923763142,0.878092876070424,0.7554597494309409,-0.2825552651693207,-1.6690993614607135,0.1414185955172306,2.4034451173676383,1.0273381002308042,-0.0006337942332978201,8.637527111432982e-05,-0.00013856601671403292,-0.00038263055947108905,-4.955979233356828e-05,0.00020781611635851036,0.0011429465385414098,0.0,0.0,0.0,0.0,0.0,0.0,0.0,-3.0459479281819135e-05,-0.00020623357259486053,-0.0001223738209200631,0.00021950338336229613,0.0001302420995096254,-1.2742187833314489e-05,2.3607854489959834e-05,0.0006337942332978201,-8.637527111432982e-05,0.00013856601671403292,0.00038263055947108905,4.955979233356828e-05,-0.00020781611635851036,-0.0011429465385414098,0.8076412081718445,46.42501449584961,5.762844562530518,-19.757417678833008,-0.9570212960243225,-2.3522982597351074,0.11111776530742645,0
60,0.2949838638305664,-0.8076412081718445,-46.42501449584961,-5.762844562530518,19.757417678833008,0.9570212960243225,2.3522982597351074,-0.11111776530742645,0.0,0.0,0.0,0.0,0.0,0.0,0.0,-0.8365454461931656,-0.0878357105038822,-0.5847276457377676,0.5446829147423129,0.3698678758737462,0.09092347237599059,-0.08105635709839229,0.8781233355497058,0.7556659830035357,-0.28243289134840066,-1.6693188648440758,0.14128835341772097,2.4034578595554716,1.0273144923763142,0.878092876070424,0.7554597494309409,-0.2825552651693207,-1.6690993614607135,0.1414185955172306,2.4034451173676383,1.0273381002308042,-0.0006337942332978201,8.637527111432982e-05,-0.00013856601671403292,-0.00038263055947108905,-4.955979233356828e-05,0.00020781611635851036,0.0011429465385414098,0.0,0.0,0.0,0.0,0.0,0.0,0.0,-3.0459479281819135e-05,-0.00020623357259486053,-0.0001223738209200631,0.00021950338336229613,0.0001302420995096254,-1.2742187833314489e-05,2.3607854489959834e-05,0.0006337942332978201,-8.637527111432982e-05,0.00013856601671403292,0.00038263055947108905,4.955979233356828e-05,-0.00020781611635851036,-0.0011429465385414098,0.8076412081718445,46.42501449584961,5.762844562530518,-19.757417678833008,-0.9570212960243225,-2.3522982597351074,0.11111776530742645,0
61,0.29999732971191406,-0.8076412081718445,-46.42501449584961,-5.762844562530518,19.757417678833008,0.9570212960243225,2.3522982597351074,-0.11111776530742645,0.0,0.0,0.0,0.0,0.0,0.0,0.0,-0.8365454461931656,-0.0878357105038822,-0.5847276457377676,0.5446829147423129,0.3698678758737462,0.09092347237599059,-0.08105635709839229,0.8781233355497058,0.7556659830035357,-0.28243289134840066,-1.6693188648440758,0.14128835341772097,2.4034578595554716,1.0273144923763142,0.878092876070424,0.7554597494309409,-0.2825552651693207,-1.6690993614607135,0.1414185955172306,2.4034451173676383,1.0273381002308042,-0.0006337942332978201,8.637527111432982e-05,-0.00013856601671403292,-0.00038263055947108905,-4.955979233356828e-05,0.00020781611635851036,0.0011429465385414098,0.0,0.0,0.0,0.0,0.0,0.0,0.0,-3.0459479281819135e-05,-0.00020623357259486053,-0.0001223738209200631,0.00021950338336229613,0.0001302420995096254,-1.2742187833314489e-05,2.3607854489959834e-05,0.0006337942332978201,-8.637527111432982e-05,0.00013856601671403292,0.00038263055947108905,4.955979233356828e-05,-0.00020781611635851036,-0.0011429465385414098,0.8076412081718445,46.42501449584961,5.762844562530518,-19.757417678833008,-0.9570212960243225,-2.3522982597351074,0.11111776530742645,0
62,0.30500030517578125,-0.8076412081718445,-46.42501449584961,-5.762844562530518,19.757417678833008,0.9570212960243225,2.3522982597351074,-0.11111776530742645,0.0,0.0,0.0,0.0,0.0,0.0,0.0,-0.8365454461931656,-0.0878357105038822,-0.5847276457377676,0.5446829147423129,0.3698678758737462,0.09092347237599059,-0.08105635709839229,0.8781233355497058,0.7556659830035357,-0.28243289134840066,-1.6693188648440758,0.14128835341772097,2.4034578595554716,1.0273144923763142,0.878092876070424,0.7554597494309409,-0.2825552651693207,-1.6690993614607135,0.1414185955172306,2.4034451173676383,1.0273381002308042,-0.0006337942332978201,8.637527111432982e-05,-0.00013856601671403292,-0.00038263055947108905,-4.955979233356828e-05,0.00020781611635851036,0.0011429465385414098,0.0,0.0,0.0,0.0,0.0,0.0,0.0,-3.0459479281819135e-05,-0.00020623357259486053,-0.0001223738209200631,0.00021950338336229613,0.0001302420995096254,-1.2742187833314489e-05,2.3607854489959834e-05,0.0006337942332978201,-8.637527111432982e-05,0.00013856601671403292,0.00038263055947108905,4.955979233356828e-05,-0.00020781611635851036,-0.0011429465385414098,0.8076412081718445,46.42501449584961,5.762844562530518,-19.757417678833008,-0.9570212960243225,-2.3522982597351074,0.11111776530742645,0
63,0.3099851608276367,-0.8354122042655945,-46.42501449584961,-5.735073566436768,19.733613967895508,0.9570212960243225,2.3596224784851074,-0.09738485515117645,0.0,0.0,0.0,0.0,0.0,0.0,0.0,-0.843000354362974,-0.0860458865807729,-0.5897644019280494,0.5410054926458439,0.36936483366324285,0.09037721112117462,-0.08230258579877678,0.8781252843915369,0.755665955878092,-0.2824348431332224,-1.6693174442720955,0.1412871146402494,2.403458223129227,1.027312966497408,0.878092876070424,0.7554597494309409,-0.2825552651693207,-1.6690993614607135,0.1414185955172306,2.4034451173676383,1.0273381002308042,-0.0004326363742071833,-0.0002491891342026676,-0.0009549232315737828,-5.550406393423161e-05,-0.0002564202004859264,-0.00014809479609419166,0.0011320645325173645,0.0,0.0,0.0,0.0,0.0,0.0,0.0,-3.240832111295333e-05,-0.00020620644715119152,-0.00012042203609829993,0.00021808281138202545,0.00013148087698119926,-1.3105761588860787e-05,2.5133733396076607e-05,0.0004326363742071833,0.0002491891342026676,0.0009549232315737828,5.550406393423161e-05,0.0002564202004859264,0.00014809479609419166,-0.0011320645325173645,0.8354122042655945,46.42501449584961,5.735073566436768,-19.733613967895508,-0.9570212960243225,-2.3596224784851074,0.09738485515117645,0
64,0.31498265266418457,-0.8354122042655945,-46.42501449584961,-5.735073566436768,19.733613967895508,0.9570212960243225,2.3596224784851074,-0.09738485515117645,0.0,0.0,0.0,0.0,0.0,0.0,0.0,-0.843000354362974,-0.0860458865807729,-0.5897644019280494,0.5410054926458439,0.36936483366324285,0.09037721112117462,-0.08230258579877678,0.8781252843915369,0.755665955878092,-0.2824348431332224,-1.6693174442720955,0.1412871146402494,2.403458223129227,1.027312966497408,0.878092876070424,0.7554597494309409,-0.2825552651693207,-1.6690993614607135,0.1414185955172306,2.4034451173676383,1.0273381002308042,-0.0004326363742071833,-0.0002491891342026676,-0.0009549232315737828,-5.550406393423161e-05,-0.0002564202004859264,-0.00014809479609419166,0.0011320645325173645,0.0,0.0,0.0,0.0,0.0,0.0,0.0,-3.240832111295333e-05,-0.00020620644715119152,-0.00012042203609829993,0.00021808281138202545,0.00013148087698119926,-1.3105761588860787e-05,2.5133733396076607e-05,0.0004326363742071833,0.0002491891342026676,0.0009549232315737828,5.550406393423161e-05,0.0002564202004859264,0.00014809479609419166,-0.0011320645325173645,0.8354122042655945,46.42501449584961,5.735073566436768,-19.733613967895508,-0.9570212960243225,-2.3596224784851074,0.09738485515117645,0
65,0.31998515129089355,-0.8354122042655945,-46.42501449584961,-5.762844562530518,19.757417678833008,0.9515281319618225,2.3724398612976074,-0.12485067546367645,0.0,0.0,0.0,0.0,0.0,0.0,0.0,-0.8235741188494892,-0.07645325434715317,-0.5727575594993582,0.5352813901100677,0.36846275718616317,0.08947462460346116,-0.0838365093094112,0.8781252843915369,0.7556659830075122,-0.2824328913479687,-1.669319114927394,0.14128848392983528,2.4034559360578984,1.0273160182552206,0.878092876070424,0.7554597494309409,-0.2825552651693207,-1.6690993614607135,0.1414185955172306,2.4034451173676383,1.0273381002308042,-7.378165265381737e-05,0.00030780753392585514,0.0006261520526760833,-0.00015480246858658083,-6.139762962293423e-05,-0.0006497087026958594,0.001444870683030872,0.0,0.0,0.0,0.0,0.0,0.0,0.0,-3.240832111295333e-05,-0.00020623357657134633,-0.00012237382135205088,0.00021975346668057227,0.00013011158739531514,-1.0818690260094854e-05,2.2081975583621016e-05,7.378165265381737e-05,-0.00030780753392585514,-0.0006261520526760833,0.00015480246858658083,6.139762962293423e-05,0.0006497087026958594,-0.001444870683030872,0.8354122042655945,46.42501449584961,5.762844562530518,-19.757417678833008,-0.9515281319618225,-2.3724398612976074,0.12485067546367645,0
66,0.32498741149902344,-0.8354122042655945,-46.42501449584961,-5.762844562530518,19.757417678833008,0.9515281319618225,2.3724398612976074,-0.12485067546367645,0.0,0.0,0.0,0.0,0.0,0.0,0.0,-0.8235741188494892,-0.07645325434715317,-0.5727575594993582,0.5352813901100677,0.36846275718616317,0.08947462460346116,-0.0838365093094112,0.8781252843915369,0.7556659830075122,-0.2824328913479687,-1.669319114927394,0.14128848392983528,2.4034559360578984,1.0273160182552206,0.878092876070424,0.7554597494309409,-0.2825552651693207,-1.6690993614607135,0.1414185955172306,2.4034451173676383,1.0273381002308042,-7.378165265381737e-05,0.00030780753392585514,0.0006261520526760833,-0.00015480246858658083,-6.139762962293423e-05,-0.0006497087026958594,0.001444870683030872,0.0,0.0,0.0,0.0,0.0,0.0,0.0,-3.240832111295333e-05,-0.00020623357657134633,-0.00012237382135205088,0.00021975346668057227,0.00013011158739531514,-1.0818690260094854e-05,2.2081975583621016e-05,7.378165265381737e-05,-0.00030780753392585514,-0.0006261520526760833,0.00015480246858658083,6.139762962293423e-05,0.0006497087026958594,-0.001444870683030872,0.8354122042655945,46.42501449584961,5.762844562530518,-19.757417678833008,-0.9515281319618225,-2.3724398612976074,0.12485067546367645,0
67,0.3299853801727295,-0.8354122042655945,-46.42501449584961,-5.762844562530518,19.757417678833008,0.9515281319618225,2.3724398612976074,-0.12485067546367645,0.0,0.0,0.0,0.0,0.0,0.0,0.0,-0.8235741188494892,-0.07645325434715317,-0.5727575594993582,0.5352813901100677,0.36846275718616317,0.08947462460346116,-0.0838365093094112,0.8781252843915369,0.7556659830075122,-0.2824328913479687,-1.669319114927394,0.14128848392983528,2.4034559360578984,1.0273160182552206,0.878092876070424,0.7554597494309409,-0.2825552651693207,-1.6690993614607135,0.1414185955172306,2.4034451173676383,1.0273381002308042,-7.378165265381737e-05,0.00030780753392585514,0.0006261520526760833,-0.00015480246858658083,-6.139762962293423e-05,-0.0006497087026958594,0.001444870683030872,0.0,0.0,0.0,0.0,0.0,0.0,0.0,-3.240832111295333e-05,-0.00020623357657134633,-0.00012237382135205088,0.00021975346668057227,0.00013011158739531514,-1.0818690260094854e-05,2.2081975583621016e-05,7.378165265381737e-05,-0.00030780753392585514,-0.0006261520526760833,0.00015480246858658083,6.139762962293423e-05,0.0006497087026958594,-0.001444870683030872,0.8354122042655945,46.42501449584961,5.762844562530518,-19.757417678833008,-0.9515281319618225,-2.3724398612976074,0.12485067546367645,0
68,0.3349936008453369,-0.8354122042655945,-46.40121078491211,-5.786648273468018,19.757417678833008,0.9451194405555725,2.3596224784851074,-0.11111776530742645,0.0,0.0,0.0,0.0,0.0,0.0,0.0,-0.8297189145717766,-0.09612021287270486,-0.5786300648665497,0.5436777245727297,0.36871041962185236,0.09080499484948676,-0.0859999411430961,0.8781252843915369,0.75566431257181,-0.28243122091209677,-1.6693191140552652,0.14128487842095747,2.403460185908351,1.0273144923763142,0.878092876070424,0.7554597494309409,-0.2825552651693207,-1.6690993614607135,0.1414185955172306,2.4034451173676383,1.0273381002308042,0.0005475241303565191,-0.0008797930544681081,0.0003037640225828598,-0.0004262092096688331,0.0003353555915931927,-0.00024481568324491974,0.0010548123403669014,0.0,0.0,0.0,0.0,0.0,0.0,0.0,-3.240832111295333e-05,-0.00020456314086914062,-0.00012404425722395418,0.00021975259455175866,0.00013371709627313377,-1.506854071253727e-05,2.3607854489959834e-05,-0.0005475241303565191,0.0008797930544681081,-0.0003037640225828598,0.0004262092096688331,-0.0003353555915931927,0.00024481568324491974,-0.0010548123403669014,0.8354122042655945,46.40121078491211,5.786648273468018,-19.757417678833008,-0.9451194405555725,-2.3596224784851074,0.11111776530742645,0
69,0.33998751640319824,-0.8354122042655945,-46.40121078491211,-5.786648273468018,19.757417678833008,0.9451194405555725,2.3596224784851074,-0.11111776530742645,0.0,0.0,0.0,0.0,0.0,0.0,0.0,-0.8297189145717766,-0.09612021287270486,-0.5786300648665497,0.5436777245727297,0.36871041962185236,0.09080499484948676,-0.0859999411430961,0.8781252843915369,0.75566431257181,-0.28243122091209677,-1.6693191140552652,0.14128487842095747,2.403460185908351,1.0273144923763142,0.878092876070424,0.7554597494309409,-0.2825552651693207,-1.6690993614607135,0.1414185955172306,2.4034451173676383,1.0273381002308042,0.0005475241303565191,-0.0008797930544681081,0.0003037640225828598,-0.0004262092096688331,0.0003353555915931927,-0.00024481568324491974,0.0010548123403669014,0.0,0.0,0.0,0.0,0.0,0.0,0.0,-3.240832111295333e-05,-0.00020456314086914062,-0.00012404425722395418,0.00021975259455175866,0.00013371709627313377,-1.506854071253727e-05,2.3607854489959834e-05,-0.0005475241303565191,0.0008797930544681081,-0.0003037640225828598,0.0004262092096688331,-0.0003353555915931927,0.00024481568324491974,-0.0010548123403669014,0.8354122042655945,46.40121078491211,5.786648273468018,-19.757417678833008,-0.9451194405555725,-2.3596224784851074,0.11111776530742645,0
70,0.3449835777282715,-0.8592159152030945,-46.47658920288086,-5.762844562530518,19.733613967895508,0.9570212960243225,2.3458895683288574,-0.06351034343242645,0.0,0.0,0.0,0.0,0.0,0.0,0.0,-0.8322354496973922,-0.08159321277685683,-0.5818982071294854,0.5349623949815278,0.36849314764452146,0.08950084543791731,-0.08661239617461604,0.8781269548273922,0.7556696022853516,-0.28243503755122906,-1.6693174446005512,0.14128711201292793,2.403458538218505,1.0273092026627726,0.878092876070424,0.7554597494309409,-0.2825552651693207,-1.6690993614607135,0.1414185955172306,2.4034451173676383,1.0273381002308042,0.0006768211467850393,0.001338557578850708,0.00044654078978560745,-9.498065944760532e-05,-0.00012919665671365951,0.0004181746822126999,-0.001158884602020257,0.0,0.0,0.0,0.0,0.0,0.0,0.0,-3.4078756968258794e-05,-0.00020985285441077473,-0.00012022761809166171,0.00021808313983773253,0.00013148350430267075,-1.3420850866641132e-05,2.8897568031593934e-05,-0.0006768211467850393,-0.001338557578850708,-0.00044654078978560745,9.498065944760532e-05,0.00012919665671365951,-0.0004181746822126999,0.001158884602020257,0.8592159152030945,46.47658920288086,5.762844562530518,-19.733613967895508,-0.9570212960243225,-2.3458895683288574,0.06351034343242645,0
71,0.34998178482055664,-0.8592159152030945,-46.47658920288086,-5.762844562530518,19.733613967895508,0.9570212960243225,2.3458895683288574,-0.06351034343242645,0.0,0.0,0.0,0.0,0.0,0.0,0.0,-0.8322354496973922,-0.08159321277685683,-0.5818982071294854,0.5349623949815278,0.36849314764452146,0.08950084543791731,-0.08661239617461604,0.8781269548273922,0.7556696022853516,-0.28243503755122906,-1.6693174446005512,0.14128711201292793,2.403458538218505,1.0273092026627726,0.878092876070424,0.7554597494309409,-0.2825552651693207,-1.6690993614607135,0.1414185955172306,2.4034451173676383,1.0273381002308042,0.0006768211467850393,0.001338557578850708,0.00044654078978560745,-9.498065944760532e-05,-0.00012919665671365951,0.0004181746822126999,-0.001158884602020257,0.0,0.0,0.0,0.0,0.0,0.0,0.0,-3.4078756968258794e-05,-0.00020985285441077473,-0.00012022761809166171,0.00021808313983773253,0.00013148350430267075,-1.3420850866641132e-05,2.8897568031593934e-05,-0.0006768211467850393,-0.001338557578850708,-0.00044654078978560745,9.498065944760532e-05,0.00012919665671365951,-0.0004181746822126999,0.001158884602020257,0.8592159152030945,46.47658920288086,5.762844562530518,-19.733613967895508,-0.9570212960243225,-2.3458895683288574,0.06351034343242645,0
72,0.355025053024292,-0.8076412081718445,-46.40121078491211,-5.711269855499268,19.757417678833008,0.9515281319618225,2.3522982597351074,-0.08365194499492645,0.0,0.0,0.0,0.0,0.0,0.0,0.0,-0.8176996105261369,-0.0894975764687971,-0.5737308884910024,0.5416648150616191,0.3687061377657951,0.09076768944817745,-0.08719403800265675,0.8781233355497058,0.75566431257181,-0.282438656513982,-1.669316966325761,0.14128523850541458,2.4034579382086414,1.0273114406185018,0.878092876070424,0.7554597494309409,-0.2825552651693207,-1.6690993614607135,0.1414185955172306,2.4034451173676383,1.0273381002308042,2.7422718012748503e-05,-0.0002203952635388385,-0.0007160854551869809,-0.00023881978414386307,-3.940625523536238e-05,0.00012536104595338866,0.00016134857184590547,0.0,0.0,0.0,0.0,0.0,0.0,0.0,-3.0459479281819135e-05,-0.00020456314086914062,-0.00011660865533874576,0.00021760486504751597,0.000133357011816021,-1.282084100306946e-05,2.6659612302415425e-05,-2.7422718012748503e-05,0.0002203952635388385,0.0007160854551869809,0.00023881978414386307,3.940625523536238e-05,-0.00012536104595338866,-0.00016134857184590547,0.8076412081718445,46.40121078491211,5.711269855499268,-19.757417678833008,-0.9515281319618225,-2.3522982597351074,0.08365194499492645,0
73,0.35999560356140137,-0.8076412081718445,-46.40121078491211,-5.711269855499268,19.757417678833008,0.9515281319618225,2.3522982597351074,-0.08365194499492645,0.0,0.0,0.0,0.0,0.0,0.0,0.0,-0.8176996105261369,-0.0894975764687971,-0.5737308884910024,0.5416648150616191,0.3687061377657951,0.09076768944817745,-0.08719403800265675,0.8781233355497058,0.75566431257181,-0.282438656513982,-1.669316966325761,0.14128523850541458,2.4034579382086414,1.0273114406185018,0.878092876070424,0.7554597494309409,-0.2825552651693207,-1.6690993614607135,0.1414185955172306,2.4034451173676383,1.0273381002308042,2.7422718012748503e-05,-0.0002203952635388385,-0.0007160854551869809,-0.00023881978414386307,-3.940625523536238e-05,0.00012536104595338866,0.00016134857184590547,0.0,0.0,0.0,0.0,0.0,0.0,0.0,-3.0459479281819135e-05,-0.00020456314086914062,-0.00011660865533874576,0.00021760486504751597,0.000133357011816021,-1.282084100306946e-05,2.6659612302415425e-05,-2.7422718012748503e-05,0.0002203952635388385,0.0007160854551869809,0.00023881978414386307,3.940625523536238e-05,-0.00012536104595338866,-0.00016134857184590547,0.8076412081718445,46.40121078491211,5.711269855499268,-19.757417678833008,-0.9515281319618225,-2.3522982597351074,0.08365194499492645,0
74,0.36499667167663574,-0.8354122042655945,-46.40121078491211,-5.786648273468018,19.709810256958008,0.9451194405555725,2.3522982597351074,-0.11111776530742645,0.0,0.0,0.0,0.0,0.0,0.0,0.0,-0.8404115006599967,-0.08285829276723575,-0.5897650444704405,0.5391301744338279,0.369247623879973,0.09066275210850608,-0.08671684182831527,0.8781252843915369,0.7556640607072181,-0.28243125035860284,-1.66931362838536,0.14128860427553316,2.403457863916706,1.0273144923763142,0.878092876070424,0.7554597494309409,-0.2825552651693207,-1.6690993614607135,0.1414185955172306,2.4034451173676383,1.0273381002308042,3.958842233686925e-05,-8.27472463476136e-05,0.0008795661779321807,0.0007085024842916594,0.00024974973387336774,0.00024991523269091745,0.0007517164771482054,0.0,0.0,0.0,0.0,0.0,0.0,0.0,-3.240832111295333e-05,-0.0002043112762772914,-0.00012401481071788734,0.0002142669246465445,0.0001299912416974358,-1.2746549067799151e-05,2.3607854489959834e-05,-3.958842233686925e-05,8.27472463476136e-05,-0.0008795661779321807,-0.0007085024842916594,-0.00024974973387336774,-0.00024991523269091745,-0.0007517164771482054,0.8354122042655945,46.40121078491211,5.786648273468018,-19.709810256958008,-0.9451194405555725,-2.3522982597351074,0.11111776530742645,0
75,0.36998796463012695,-0.8354122042655945,-46.40121078491211,-5.786648273468018,19.709810256958008,0.9451194405555725,2.3522982597351074,-0.11111776530742645,0.0,0.0,0.0,0.0,0.0,0.0,0.0,-0.8404115006599967,-0.08285829276723575,-0.5897650444704405,0.5391301744338279,0.369247623879973,0.09066275210850608,-0.08671684182831527,0.8781252843915369,0.7556640607072181,-0.28243125035860284,-1.66931362838536,0.14128860427553316,2.403457863916706,1.0273144923763142,0.878092876070424,0.7554597494309409,-0.2825552651693207,-1.6690993614607135,0.1414185955172306,2.4034451173676383,1.0273381002308042,3.958842233686925e-05,-8.27472463476136e-05,0.0008795661779321807,0.0007085024842916594,0.00024974973387336774,0.00024991523269091745,0.0007517164771482054,0.0,0.0,0.0,0.0,0.0,0.0,0.0,-3.240832111295333e-05,-0.0002043112762772914,-0.00012401481071788734,0.0002142669246465445,0.0001299912416974358,-1.2746549067799151e-05,2.3607854489959834e-05,-3.958842233686925e-05,8.27472463476136e-05,-0.0008795661779321807,-0.0007085024842916594,-0.00024974973387336774,-0.00024991523269091745,-0.0007517164771482054,0.8354122042655945,46.40121078491211,5.786648273468018,-19.709810256958008,-0.9451194405555725,-2.3522982597351074,0.11111776530742645,0
76,0.3749856948852539,-0.8076412081718445,-46.40121078491211,-5.786648273468018,19.733613967895508,0.9634299874305725,2.3596224784851074,-0.04977743700146675,0.0,0.0,0.0,0.0,0.0,0.0,0.0,-0.828439388161713,-0.09299962964538472,-0.5817525013246557,0.5483222215966552,0.36952730711013415,0.09182897695370616,-0.08637808004197808,0.8781233355497058,0.7556643125703882,-0.2824314861851829,-1.6693174436072973,0.1412832129839574,2.403460185422084,1.0273076767842804,0.878092876070424,0.7554597494309409,-0.2825552651693207,-1.6690993614607135,0.1414185955172306,2.4034451173676383,1.0273381002308042,-0.00040093462470175016,-0.0003739185270305923,0.0007761053313009088,-1.700503828703765e-05,-0.00032371109435229086,2.4183893763835967e-05,-0.001549387056618244,0.0,0.0,0.0,0.0,0.0,0.0,0.0,-3.0459479281819135e-05,-0.00020456313944738902,-0.0001237789841378456,0.00021808214658380898,0.00013538253327319283,-1.5068054445510626e-05,3.0423446523819564e-05,0.00040093462470175016,0.0003739185270305923,-0.0007761053313009088,1.700503828703765e-05,0.00032371109435229086,-2.4183893763835967e-05,0.001549387056618244,0.8076412081718445,46.40121078491211,5.786648273468018,-19.733613967895508,-0.9634299874305725,-2.3596224784851074,0.04977743700146675,0
77,0.3799922466278076,-0.8076412081718445,-46.40121078491211,-5.786648273468018,19.733613967895508,0.9634299874305725,2.3596224784851074,-0.04977743700146675,0.0,0.0,0.0,0.0,0.0,0.0,0.0,-0.828439388161713,-0.09299962964538472,-0.5817525013246557,0.5483222215966552,0.36952730711013415,0.09182897695370616,-0.08637808004197808,0.8781233355497058,0.7556643125703882,-0.2824314861851829,-1.6693174436072973,0.1412832129839574,2.403460185422084,1.0273076767842804,0.878092876070424,0.7554597494309409,-0.2825552651693207,-1.6690993614607135,0.1414185955172306,2.4034451173676383,1.0273381002308042,-0.00040093462470175016,-0.0003739185270305923,0.0007761053313009088,-1.700503828703765e-05,-0.00032371109435229086,2.4183893763835967e-05,-0.001549387056618244,0.0,0.0,0.0,0.0,0.0,0.0,0.0,-3.0459479281819135e-05,-0.00020456313944738902,-0.0001237789841378456,0.00021808214658380898,0.00013538253327319283,-1.5068054445510626e-05,3.0423446523819564e-05,0.00040093462470175016,0.0003739185270305923,-0.0007761053313009088,1.700503828703765e-05,0.00032371109435229086,-2.4183893763835967e-05,0.001549387056618244,0.8076412081718445,46.40121078491211,5.786648273468018,-19.733613967895508,-0.9634299874305725,-2.3596224784851074,0.04977743700146675,0
78,0.3850250244140625,-0.8354122042655945,-46.42501449584961,-5.786648273468018,19.733613967895508,0.9451194405555725,2.3660311698913574,-0.04977743700146675,0.0,0.0,0.0,0.0,0.0,0.0,0.0,-0.8411758638039415,-0.09133498083300605,-0.5913107793936578,0.5453406436170259,0.37014198465720516,0.09167730503691268,-0.08709893473283549,0.8781252843915369,0.7556659830076653,-0.2824319361723265,-1.6693174446005399,0.1412891566100219,2.40345736768906,1.0273076767842804,0.878092876070424,0.7554597494309409,-0.2825552651693207,-1.6690993614607135,0.1414185955172306,2.4034451173676383,1.0273381002308042,-3.512864176424156e-05,3.0404507842365324e-05,0.0004525320796083185,9.560474165754166e-05,0.0003781322329505638,-0.00043380926193755043,-0.0015673080160128043,0.0,0.0,0.0,0.0,0.0,0.0,0.0,-3.240832111295333e-05,-0.0002062335767244461,-0.00012332899699424305,0.00021808313982640826,0.00012943890720870654,-1.2250321421714006e-05,3.0423446523819564e-05,3.512864176424156e-05,-3.0404507842365324e-05,-0.0004525320796083185,-9.560474165754166e-05,-0.0003781322329505638,0.00043380926193755043,0.0015673080160128043,0.8354122042655945,46.42501449584961,5.786648273468018,-19.733613967895508,-0.9451194405555725,-2.3660311698913574,0.04977743700146675,0
79,0.3899872303009033,-0.8354122042655945,-46.42501449584961,-5.786648273468018,19.733613967895508,0.9451194405555725,2.3660311698913574,-0.04977743700146675,0.0,0.0,0.0,0.0,0.0,0.0,0.0,-0.8411758638039415,-0.09133498083300605,-0.5913107793936578,0.5453406436170259,0.37014198465720516,0.09167730503691268,-0.08709893473283549,0.8781252843915369,0.7556659830076653,-0.2824319361723265,-1.6693174446005399,0.1412891566100219,2.40345736768906,1.0273076767842804,0.878092876070424,0.7554597494309409,-0.2825552651693207,-1.6690993614607135,0.1414185955172306,2.4034451173676383,1.0273381002308042,-3.512864176424156e-05,3.0404507842365324e-05,0.0004525320796083185,9.560474165754166e-05,0.0003781322329505638,-0.00043380926193755043,-0.0015673080160128043,0.0,0.0,0.0,0.0,0.0,0.0,0.0,-3.240832111295333e-05,-0.0002062335767244461,-0.00012332899699424305,0.00021808313982640826,0.00012943890720870654,-1.2250321421714006e-05,3.0423446523819564e-05,3.512864176424156e-05,-3.0404507842365324e-05,-0.0004525320796083185,-9.560474165754166e-05,-0.0003781322329505638,0.00043380926193755043,0.0015673080160128043,0.8354122042655945,46.42501449584961,5.786648273468018,-19.733613967895508,-0.9451194405555725,-2.3660311698913574,0.04977743700146675,0
80,0.39499402046203613,-0.7838374972343445,-46.40121078491211,-5.762844562530518,19.757417678833008,0.9515281319618225,2.3522982597351074,-0.09097616374492645,0.0,0.0,0.0,0.0,0.0,0.0,0.0,-0.8300603337682798,-0.08809150088690267,-0.5861098177864964,0.5448611789998937,0.37037663129377196,0.091545643836534,-0.08705932077807609,0.8781216651138505,0.75566431257181,-0.2824328914583142,-1.6693191109664716,0.1412875011896347,2.403458173685768,1.027312254420585,0.878092876070424,0.7554597494309409,-0.2825552651693207,-1.6690993614607135,0.1414185955172306,2.4034451173676383,1.0273381002308042,-0.0008839896049679691,-0.0003626346677180212,-0.00023641318828454346,-0.00013692988039497623,0.00010330492661720461,0.00020608486245529383,-0.00010716413179652257,0.0,0.0,0.0,0.0,0.0,0.0,0.0,-2.8789043426513672e-05,-0.00020456314086914062,-0.00012237371100654038,0.00021974950575809338,0.00013109432759589312,-1.305631812975605e-05,2.5845810219138343e-05,0.0008839896049679691,0.0003626346677180212,0.00023641318828454346,0.00013692988039497623,-0.00010330492661720461,-0.00020608486245529383,0.00010716413179652257,0.7838374972343445,46.40121078491211,5.762844562530518,-19.757417678833008,-0.9515281319618225,-2.3522982597351074,0.09097616374492645,0
