rezayati/contactInterpretation/dataset/franka_main/labeled_data/link6/b4_6.csv
index,time,tau_J0,tau_J1,tau_J2,tau_J3,tau_J4,tau_J5,tau_J6,tau_J_d0,tau_J_d1,tau_J_d2,tau_J_d3,tau_J_d4,tau_J_d5,tau_J_d6,tau_ext0,tau_ext1,tau_ext2,tau_ext3,tau_ext4,tau_ext5,tau_ext6,q0,q1,q2,q3,q4,q5,q6,q_d0,q_d1,q_d2,q_d3,q_d4,q_d5,q_d6,dq0,dq1,dq2,dq3,dq4,dq5,dq6,dq_d0,dq_d1,dq_d2,dq_d3,dq_d4,dq_d5,dq_d6,e0,e1,e2,e3,e4,e5,e6,de0,de1,de2,de3,de4,de5,de6,etau_J0,etau_J1,etau_J2,etau_J3,etau_J4,etau_J5,etau_J6,label
1,0.0,-0.018151462078094482,-18.130334854125977,0.9418671131134033,18.245882034301758,0.7134910225868225,2.2818026542663574,-0.22098104655742645,0.0,0.0,0.0,0.0,0.0,0.0,0.0,-0.05301242935959765,0.5449898988787829,0.10294608266712012,0.6290391242901471,0.2911424509650274,0.08838320771355575,-0.2108828133473147,-0.6088868754747111,-0.05762926189195159,-0.6664596218605533,-2.5947463531535258,-0.05579308752916846,2.5079490322491145,0.876320716054903,-0.6090851748156966,-0.05753196718556838,-0.666603097082616,-2.5945565370258534,-0.05562143941554,2.507976027223799,0.8763108487046415,-0.0007207810744129795,-0.00021660025988061706,-0.00015580578074699826,0.0006751167670647385,0.00017170806517656712,8.15279217757129e-05,0.00047080147184290223,0.0,0.0,0.0,0.0,0.0,0.0,0.0,-0.00019829934098547497,9.729470638320664e-05,-0.00014347522206270558,0.00018981612767232647,0.00017164811362845728,2.6994974684502182e-05,-9.867350261538732e-06,0.0007207810744129795,0.00021660025988061706,0.00015580578074699826,-0.0006751167670647385,-0.00017170806517656712,-8.15279217757129e-05,-0.00047080147184290223,0.018151462078094482,18.130334854125977,-0.9418671131134033,-18.245882034301758,-0.7134910225868225,-2.2818026542663574,0.22098104655742645,0
2,0.004995107650756836,-0.018151462078094482,-18.130334854125977,0.9418671131134033,18.245882034301758,0.7134910225868225,2.2818026542663574,-0.22098104655742645,0.0,0.0,0.0,0.0,0.0,0.0,0.0,-0.05301242935959765,0.5449898988787829,0.10294608266712012,0.6290391242901471,0.2911424509650274,0.08838320771355575,-0.2108828133473147,-0.6088868754747111,-0.05762926189195159,-0.6664596218605533,-2.5947463531535258,-0.05579308752916846,2.5079490322491145,0.876320716054903,-0.6090851748156966,-0.05753196718556838,-0.666603097082616,-2.5945565370258534,-0.05562143941554,2.507976027223799,0.8763108487046415,-0.0007207810744129795,-0.00021660025988061706,-0.00015580578074699826,0.0006751167670647385,0.00017170806517656712,8.15279217757129e-05,0.00047080147184290223,0.0,0.0,0.0,0.0,0.0,0.0,0.0,-0.00019829934098547497,9.729470638320664e-05,-0.00014347522206270558,0.00018981612767232647,0.00017164811362845728,2.6994974684502182e-05,-9.867350261538732e-06,0.0007207810744129795,0.00021660025988061706,0.00015580578074699826,-0.0006751167670647385,-0.00017170806517656712,-8.15279217757129e-05,-0.00047080147184290223,0.018151462078094482,18.130334854125977,-0.9418671131134033,-18.245882034301758,-0.7134910225868225,-2.2818026542663574,0.22098104655742645,0
3,0.009998798370361328,-0.018151462078094482,-18.078760147094727,0.9418671131134033,18.297456741333008,0.7189841866493225,2.2753939628601074,-0.23471395671367645,0.0,0.0,0.0,0.0,0.0,0.0,0.0,-0.04954602928771901,0.5454462151956602,0.10710215254770175,0.6281561517088935,0.29113026210902104,0.0888194861015962,-0.21224699410550008,-0.6088875784478999,-0.057630854231841555,-0.6664621880040614,-2.5947472230202013,-0.05579575071632814,2.507949731244055,0.8763221241962393,-0.6090851748156966,-0.05753196718556838,-0.666603097082616,-2.5945565370258534,-0.05562143941554,2.507976027223799,0.8763108487046415,-0.0005287967227655238,-0.0007364569363789155,-0.00037824270248398433,-0.0009891786944415779,-0.0002088300550470775,-9.96428439731269e-05,0.0010626823218485267,0.0,0.0,0.0,0.0,0.0,0.0,0.0,-0.0001975963677967041,9.888704627317169e-05,-0.00014090907855457413,0.00019068599434790556,0.00017431130078814083,2.6295979743906628e-05,-1.1275491597850795e-05,0.0005287967227655238,0.0007364569363789155,0.00037824270248398433,0.0009891786944415779,0.0002088300550470775,9.96428439731269e-05,-0.0010626823218485267,0.018151462078094482,18.078760147094727,-0.9418671131134033,-18.297456741333008,-0.7189841866493225,-2.2753939628601074,0.23471395671367645,0
4,0.015014886856079102,-0.018151462078094482,-18.078760147094727,0.9418671131134033,18.297456741333008,0.7189841866493225,2.2753939628601074,-0.23471395671367645,0.0,0.0,0.0,0.0,0.0,0.0,0.0,-0.04954602928771901,0.5454462151956602,0.10710215254770175,0.6281561517088935,0.29113026210902104,0.0888194861015962,-0.21224699410550008,-0.6088875784478999,-0.057630854231841555,-0.6664621880040614,-2.5947472230202013,-0.05579575071632814,2.507949731244055,0.8763221241962393,-0.6090851748156966,-0.05753196718556838,-0.666603097082616,-2.5945565370258534,-0.05562143941554,2.507976027223799,0.8763108487046415,-0.0005287967227655238,-0.0007364569363789155,-0.00037824270248398433,-0.0009891786944415779,-0.0002088300550470775,-9.96428439731269e-05,0.0010626823218485267,0.0,0.0,0.0,0.0,0.0,0.0,0.0,-0.0001975963677967041,9.888704627317169e-05,-0.00014090907855457413,0.00019068599434790556,0.00017431130078814083,2.6295979743906628e-05,-1.1275491597850795e-05,0.0005287967227655238,0.0007364569363789155,0.00037824270248398433,0.0009891786944415779,0.0002088300550470775,9.96428439731269e-05,-0.0010626823218485267,0.018151462078094482,18.078760147094727,-0.9418671131134033,-18.297456741333008,-0.7189841866493225,-2.2753939628601074,0.23471395671367645,0
5,0.020003557205200195,-0.018151462078094482,-18.031152725219727,0.8704559803009033,18.245882034301758,0.7015891671180725,2.2625765800476074,-0.17337362468242645,0.0,0.0,0.0,0.0,0.0,0.0,0.0,-0.046605451017363866,0.5533710922963523,0.1095836651884927,0.6277624208483741,0.2910322480766723,0.08857689437754065,-0.2118944086251732,-0.6088871875149371,-0.05763632716098211,-0.6664571757323337,-2.594743604672187,-0.05579497700493874,2.507951155397627,0.8763154263353797,-0.6090851748156966,-0.05753196718556838,-0.666603097082616,-2.5945565370258534,-0.05562143941554,2.507976027223799,0.8763108487046415,-0.0004977371944645563,-0.0006043993095219599,0.0015526461549346237,0.00026287334452289573,0.0002786109497696437,0.00027570414503898927,-0.001477186108685425,0.0,0.0,0.0,0.0,0.0,0.0,0.0,-0.00019798730075948345,0.00010435997541372727,-0.00014592135028235198,0.00018706764633336093,0.00017353758939873953,2.4871826171946054e-05,-4.57763073824502e-06,0.0004977371944645563,0.0006043993095219599,-0.0015526461549346237,-0.00026287334452289573,-0.0002786109497696437,-0.00027570414503898927,0.001477186108685425,0.018151462078094482,18.031152725219727,-0.8704559803009033,-18.245882034301758,-0.7015891671180725,-2.2625765800476074,0.17337362468242645,0
6,0.02499985694885254,-0.018151462078094482,-18.031152725219727,0.8704559803009033,18.245882034301758,0.7015891671180725,2.2625765800476074,-0.17337362468242645,0.0,0.0,0.0,0.0,0.0,0.0,0.0,-0.046605451017363866,0.5533710922963523,0.1095836651884927,0.6277624208483741,0.2910322480766723,0.08857689437754065,-0.2118944086251732,-0.6088871875149371,-0.05763632716098211,-0.6664571757323337,-2.594743604672187,-0.05579497700493874,2.507951155397627,0.8763154263353797,-0.6090851748156966,-0.05753196718556838,-0.666603097082616,-2.5945565370258534,-0.05562143941554,2.507976027223799,0.8763108487046415,-0.0004977371944645563,-0.0006043993095219599,0.0015526461549346237,0.00026287334452289573,0.0002786109497696437,0.00027570414503898927,-0.001477186108685425,0.0,0.0,0.0,0.0,0.0,0.0,0.0,-0.00019798730075948345,0.00010435997541372727,-0.00014592135028235198,0.00018706764633336093,0.00017353758939873953,2.4871826171946054e-05,-4.57763073824502e-06,0.0004977371944645563,0.0006043993095219599,-0.0015526461549346237,-0.00026287334452289573,-0.0002786109497696437,-0.00027570414503898927,0.001477186108685425,0.018151462078094482,18.031152725219727,-0.8704559803009033,-18.245882034301758,-0.7015891671180725,-2.2625765800476074,0.17337362468242645,0
7,0.030000925064086914,-0.06972616910934448,-18.054956436157227,0.9418671131134033,18.245882034301758,0.7134910225868225,2.2625765800476074,-0.18710653483867645,0.0,0.0,0.0,0.0,0.0,0.0,0.0,-0.05289786882588018,0.5586774166425941,0.10264305030175648,0.6311133653172477,0.29069501629402295,0.0887156783933201,-0.21146961584058893,-0.608883259085972,-0.057634656833452064,-0.6664614946756452,-2.5947439013452493,-0.05579300707689069,2.5079523725036994,0.8763169522202676,-0.6090851748156966,-0.05753196718556838,-0.666603097082616,-2.5945565370258534,-0.05562143941554,2.507976027223799,0.8763108487046415,9.517299880997498e-05,-0.00021034604105198653,-0.0010439259064508881,0.00022896725679382135,8.249836897506916e-05,0.00031872598556610145,-0.0015741582122779489,0.0,0.0,0.0,0.0,0.0,0.0,0.0,-0.00020191572972461103,0.00010268964788368029,-0.00014160240697080884,0.0001873643193959218,0.00017156766135068696,2.3654720099575144e-05,-6.1035156261324275e-06,-9.517299880997498e-05,0.00021034604105198653,0.0010439259064508881,-0.00022896725679382135,-8.249836897506916e-05,-0.00031872598556610145,0.0015741582122779489,0.06972616910934448,18.054956436157227,-0.9418671131134033,-18.245882034301758,-0.7134910225868225,-2.2625765800476074,0.18710653483867645,0
8,0.034996747970581055,-0.06972616910934448,-18.054956436157227,0.9418671131134033,18.245882034301758,0.7134910225868225,2.2625765800476074,-0.18710653483867645,0.0,0.0,0.0,0.0,0.0,0.0,0.0,-0.05289786882588018,0.5586774166425941,0.10264305030175648,0.6311133653172477,0.29069501629402295,0.0887156783933201,-0.21146961584058893,-0.608883259085972,-0.057634656833452064,-0.6664614946756452,-2.5947439013452493,-0.05579300707689069,2.5079523725036994,0.8763169522202676,-0.6090851748156966,-0.05753196718556838,-0.666603097082616,-2.5945565370258534,-0.05562143941554,2.507976027223799,0.8763108487046415,9.517299880997498e-05,-0.00021034604105198653,-0.0010439259064508881,0.00022896725679382135,8.249836897506916e-05,0.00031872598556610145,-0.0015741582122779489,0.0,0.0,0.0,0.0,0.0,0.0,0.0,-0.00020191572972461103,0.00010268964788368029,-0.00014160240697080884,0.0001873643193959218,0.00017156766135068696,2.3654720099575144e-05,-6.1035156261324275e-06,-9.517299880997498e-05,0.00021034604105198653,0.0010439259064508881,-0.00022896725679382135,-8.249836897506916e-05,-0.00031872598556610145,0.0015741582122779489,0.06972616910934448,18.054956436157227,-0.9418671131134033,-18.245882034301758,-0.7134910225868225,-2.2625765800476074,0.18710653483867645,0
9,0.03999662399291992,-0.04592245817184448,-18.106531143188477,0.9180634021759033,18.245882034301758,0.7253928780555725,2.2625765800476074,-0.19351522624492645,0.0,0.0,0.0,0.0,0.0,0.0,0.0,-0.05463376278278674,0.5649463392815194,0.10163872845857341,0.6292308357775878,0.2908771522627982,0.08765116147714273,-0.2121616947403276,-0.6088849266328472,-0.05762890668971496,-0.6664599285221576,-2.5947435962751917,-0.055797541242189004,2.507951159765148,0.8763176642970906,-0.6090851748156966,-0.05753196718556838,-0.666603097082616,-2.5945565370258534,-0.05562143941554,2.507976027223799,0.8763108487046415,-0.0008226747391388319,0.00044297814205874656,-0.00017472104141670828,-0.00014774654108552985,-0.0003493758186055431,0.0002784228776730496,-3.5056899009282204e-05,0.0,0.0,0.0,0.0,0.0,0.0,0.0,-0.00020024818284936075,9.693950414657593e-05,-0.00014316856045837323,0.00018705924933826168,0.00017610182664900415,2.4867458650934537e-05,-6.815592449083141e-06,0.0008226747391388319,-0.00044297814205874656,0.00017472104141670828,0.00014774654108552985,0.0003493758186055431,-0.0002784228776730496,3.5056899009282204e-05,0.04592245817184448,18.106531143188477,-0.9180634021759033,-18.245882034301758,-0.7253928780555725,-2.2625765800476074,0.19351522624492645,0
10,0.04499483108520508,-0.04592245817184448,-18.106531143188477,0.9180634021759033,18.245882034301758,0.7253928780555725,2.2625765800476074,-0.19351522624492645,0.0,0.0,0.0,0.0,0.0,0.0,0.0,-0.05463376278278674,0.5649463392815194,0.10163872845857341,0.6292308357775878,0.2908771522627982,0.08765116147714273,-0.2121616947403276,-0.6088849266328472,-0.05762890668971496,-0.6664599285221576,-2.5947435962751917,-0.055797541242189004,2.507951159765148,0.8763176642970906,-0.6090851748156966,-0.05753196718556838,-0.666603097082616,-2.5945565370258534,-0.05562143941554,2.507976027223799,0.8763108487046415,-0.0008226747391388319,0.00044297814205874656,-0.00017472104141670828,-0.00014774654108552985,-0.0003493758186055431,0.0002784228776730496,-3.5056899009282204e-05,0.0,0.0,0.0,0.0,0.0,0.0,0.0,-0.00020024818284936075,9.693950414657593e-05,-0.00014316856045837323,0.00018705924933826168,0.00017610182664900415,2.4867458650934537e-05,-6.815592449083141e-06,0.0008226747391388319,-0.00044297814205874656,0.00017472104141670828,0.00014774654108552985,0.0003493758186055431,-0.0002784228776730496,3.5056899009282204e-05,0.04592245817184448,18.106531143188477,-0.9180634021759033,-18.245882034301758,-0.7253928780555725,-2.2625765800476074,0.19351522624492645,0
11,0.049994707107543945,-0.06972616910934448,-18.154138565063477,0.8704559803009033,18.269685745239258,0.7189841866493225,2.2818026542663574,-0.22098104655742645,0.0,0.0,0.0,0.0,0.0,0.0,0.0,-0.06268346739502406,0.5583124891877056,0.09459523053584566,0.6322334422421284,0.29149166095997453,0.08779574003773197,-0.20994817630868728,-0.6088832571599527,-0.05762761775106151,-0.6664543659560117,-2.5947452746177153,-0.05579681748241696,2.507950472878935,0.876320716054903,-0.6090851748156966,-0.05753196718556838,-0.666603097082616,-2.5945565370258534,-0.05562143941554,2.507976027223799,0.8763108487046415,-0.00018758693164687686,-4.5553709920280496e-05,0.0003502721178445593,-0.00047643172507329983,-0.00016040181169537157,-0.0002484019646431505,-0.00020804548450289033,0.0,0.0,0.0,0.0,0.0,0.0,0.0,-0.00020191765574384402,9.565056549312723e-05,-0.00014873112660429566,0.0001887375918618872,0.00017537806687695917,2.555434486417596e-05,-9.867350261538732e-06,0.00018758693164687686,4.5553709920280496e-05,-0.0003502721178445593,0.00047643172507329983,0.00016040181169537157,0.0002484019646431505,0.00020804548450289033,0.06972616910934448,18.154138565063477,-0.8704559803009033,-18.269685745239258,-0.7189841866493225,-2.2818026542663574,0.22098104655742645,0
12,0.05499434471130371,-0.06972616910934448,-18.154138565063477,0.8704559803009033,18.269685745239258,0.7189841866493225,2.2818026542663574,-0.22098104655742645,0.0,0.0,0.0,0.0,0.0,0.0,0.0,-0.06268346739502406,0.5583124891877056,0.09459523053584566,0.6322334422421284,0.29149166095997453,0.08779574003773197,-0.20994817630868728,-0.6088832571599527,-0.05762761775106151,-0.6664543659560117,-2.5947452746177153,-0.05579681748241696,2.507950472878935,0.876320716054903,-0.6090851748156966,-0.05753196718556838,-0.666603097082616,-2.5945565370258534,-0.05562143941554,2.507976027223799,0.8763108487046415,-0.00018758693164687686,-4.5553709920280496e-05,0.0003502721178445593,-0.00047643172507329983,-0.00016040181169537157,-0.0002484019646431505,-0.00020804548450289033,0.0,0.0,0.0,0.0,0.0,0.0,0.0,-0.00020191765574384402,9.565056549312723e-05,-0.00014873112660429566,0.0001887375918618872,0.00017537806687695917,2.555434486417596e-05,-9.867350261538732e-06,0.00018758693164687686,4.5553709920280496e-05,-0.0003502721178445593,0.00047643172507329983,0.00016040181169537157,0.0002484019646431505,0.00020804548450289033,0.06972616910934448,18.154138565063477,-0.8704559803009033,-18.269685745239258,-0.7189841866493225,-2.2818026542663574,0.22098104655742645,0
13,0.05999636650085449,-0.018151462078094482,-18.177942276000977,0.8942596912384033,18.269685745239258,0.7189841866493225,2.2753939628601074,-0.20724813640117645,0.0,0.0,0.0,0.0,0.0,0.0,0.0,-0.0590112055824096,0.5530303134895077,0.09678837193186139,0.6270730093443346,0.2912269502593581,0.08862417779943156,-0.21161258013744413,-0.6088868754746675,-0.0576250496414116,-0.6664588519458553,-2.5947453426089186,-0.055796460599426854,2.5079497318982096,0.8763191901759968,-0.6090851748156966,-0.05753196718556838,-0.666603097082616,-2.5945565370258534,-0.05562143941554,2.507976027223799,0.8763108487046415,-0.0010247633837552896,0.0002709438141162668,0.00018050671734144607,-0.0002616364424664715,-7.725459493257692e-06,0.0002580264919406881,-0.00048431893811752,0.0,0.0,0.0,0.0,0.0,0.0,0.0,-0.00019829934102910673,9.308245584321861e-05,-0.00014424513676070116,0.00018880558306522133,0.00017502118388685456,2.629532558939829e-05,-8.341471355310937e-06,0.0010247633837552896,-0.0002709438141162668,-0.00018050671734144607,0.0002616364424664715,7.725459493257692e-06,-0.0002580264919406881,0.00048431893811752,0.018151462078094482,18.177942276000977,-0.8942596912384033,-18.269685745239258,-0.7189841866493225,-2.2753939628601074,0.20724813640117645,0
14,0.06499385833740234,-0.018151462078094482,-18.177942276000977,0.8942596912384033,18.269685745239258,0.7189841866493225,2.2753939628601074,-0.20724813640117645,0.0,0.0,0.0,0.0,0.0,0.0,0.0,-0.0590112055824096,0.5530303134895077,0.09678837193186139,0.6270730093443346,0.2912269502593581,0.08862417779943156,-0.21161258013744413,-0.6088868754746675,-0.0576250496414116,-0.6664588519458553,-2.5947453426089186,-0.055796460599426854,2.5079497318982096,0.8763191901759968,-0.6090851748156966,-0.05753196718556838,-0.666603097082616,-2.5945565370258534,-0.05562143941554,2.507976027223799,0.8763108487046415,-0.0010247633837552896,0.0002709438141162668,0.00018050671734144607,-0.0002616364424664715,-7.725459493257692e-06,0.0002580264919406881,-0.00048431893811752,0.0,0.0,0.0,0.0,0.0,0.0,0.0,-0.00019829934102910673,9.308245584321861e-05,-0.00014424513676070116,0.00018880558306522133,0.00017502118388685456,2.629532558939829e-05,-8.341471355310937e-06,0.0010247633837552896,-0.0002709438141162668,-0.00018050671734144607,0.0002616364424664715,7.725459493257692e-06,-0.0002580264919406881,0.00048431893811752,0.018151462078094482,18.177942276000977,-0.8942596912384033,-18.269685745239258,-0.7189841866493225,-2.2753939628601074,0.20724813640117645,0
15,0.0701141357421875,-0.04592245817184448,-18.154138565063477,0.9418671131134033,18.222078323364258,0.7134910225868225,2.2689852714538574,-0.21457235515117645,0.0,0.0,0.0,0.0,0.0,0.0,0.0,-0.04865608374119955,0.5461231428555263,0.10549856726186965,0.6231287876873413,0.2907269653420326,0.08960823477927135,-0.21234128493869708,-0.6088870326636131,-0.05762745990462171,-0.6664614833295143,-2.594742871486401,-0.05579596828038829,2.507950443320815,0.8763200039780801,-0.6090851748156966,-0.05753196718556838,-0.666603097082616,-2.5945565370258534,-0.05562143941554,2.507976027223799,0.8763108487046415,0.0007656734183922545,-0.00027499454411305504,-4.9289213386255424e-05,0.000640027184966475,-0.0002421649457609756,0.00027878254701405074,-5.672991538589857e-05,0.0,0.0,0.0,0.0,0.0,0.0,0.0,-0.0001981421520834692,9.54927190533264e-05,-0.00014161375310173252,0.00018633446054749925,0.0001745288648482904,2.5583902984127604e-05,-9.155273438588019e-06,-0.0007656734183922545,0.00027499454411305504,4.9289213386255424e-05,-0.000640027184966475,0.0002421649457609756,-0.00027878254701405074,5.672991538589857e-05,0.04592245817184448,18.154138565063477,-0.9418671131134033,-18.222078323364258,-0.7134910225868225,-2.2689852714538574,0.21457235515117645,0
16,0.0750432014465332,-0.04592245817184448,-18.154138565063477,0.9418671131134033,18.222078323364258,0.7134910225868225,2.2689852714538574,-0.21457235515117645,0.0,0.0,0.0,0.0,0.0,0.0,0.0,-0.04865608374119955,0.5461231428555263,0.10549856726186965,0.6231287876873413,0.2907269653420326,0.08960823477927135,-0.21234128493869708,-0.6088870326636131,-0.05762745990462171,-0.6664614833295143,-2.594742871486401,-0.05579596828038829,2.507950443320815,0.8763200039780801,-0.6090851748156966,-0.05753196718556838,-0.666603097082616,-2.5945565370258534,-0.05562143941554,2.507976027223799,0.8763108487046415,0.0007656734183922545,-0.00027499454411305504,-4.9289213386255424e-05,0.000640027184966475,-0.0002421649457609756,0.00027878254701405074,-5.672991538589857e-05,0.0,0.0,0.0,0.0,0.0,0.0,0.0,-0.0001981421520834692,9.54927190533264e-05,-0.00014161375310173252,0.00018633446054749925,0.0001745288648482904,2.5583902984127604e-05,-9.155273438588019e-06,-0.0007656734183922545,0.00027499454411305504,4.9289213386255424e-05,-0.000640027184966475,0.0002421649457609756,-0.00027878254701405074,5.672991538589857e-05,0.04592245817184448,18.154138565063477,-0.9418671131134033,-18.222078323364258,-0.7134910225868225,-2.2689852714538574,0.21457235515117645,0
17,0.08009886741638184,-0.018151462078094482,-18.078760147094727,0.9180634021759033,18.222078323364258,0.7253928780555725,2.2818026542663574,-0.20083944499492645,0.0,0.0,0.0,0.0,0.0,0.0,0.0,-0.05005832842211977,0.541282685740856,0.10096775830357434,0.623495973894494,0.2904040312057721,0.08958377597737892,-0.21352337193521673,-0.6088868754759831,-0.0576329862891891,-0.6664605265202598,-2.5947420268276438,-0.05579750176962196,2.5079490191851033,0.8763184780991738,-0.6090851748156966,-0.05753196718556838,-0.666603097082616,-2.5945565370258534,-0.05562143941554,2.507976027223799,0.8763108487046415,9.355927685323916e-05,-0.00012502429374315372,0.0005524285016144157,0.0008462498571010576,-0.00020263150471446642,-0.000509848829253837,-0.000974051575252551,0.0,0.0,0.0,0.0,0.0,0.0,0.0,-0.00019829933971349245,0.00010101910362071698,-0.00014257056235622567,0.00018548980179033947,0.0001760623540819628,2.7008038695708336e-05,-7.629394532360223e-06,-9.355927685323916e-05,0.00012502429374315372,-0.0005524285016144157,-0.0008462498571010576,0.00020263150471446642,0.000509848829253837,0.000974051575252551,0.018151462078094482,18.078760147094727,-0.9180634021759033,-18.222078323364258,-0.7253928780555725,-2.2818026542663574,0.20083944499492645,0
18,0.08500242233276367,-0.018151462078094482,-18.078760147094727,0.9180634021759033,18.222078323364258,0.7253928780555725,2.2818026542663574,-0.20083944499492645,0.0,0.0,0.0,0.0,0.0,0.0,0.0,-0.05005832842211977,0.541282685740856,0.10096775830357434,0.623495973894494,0.2904040312057721,0.08958377597737892,-0.21352337193521673,-0.6088868754759831,-0.0576329862891891,-0.6664605265202598,-2.5947420268276438,-0.05579750176962196,2.5079490191851033,0.8763184780991738,-0.6090851748156966,-0.05753196718556838,-0.666603097082616,-2.5945565370258534,-0.05562143941554,2.507976027223799,0.8763108487046415,9.355927685323916e-05,-0.00012502429374315372,0.0005524285016144157,0.0008462498571010576,-0.00020263150471446642,-0.000509848829253837,-0.000974051575252551,0.0,0.0,0.0,0.0,0.0,0.0,0.0,-0.00019829933971349245,0.00010101910362071698,-0.00014257056235622567,0.00018548980179033947,0.0001760623540819628,2.7008038695708336e-05,-7.629394532360223e-06,-9.355927685323916e-05,0.00012502429374315372,-0.0005524285016144157,-0.0008462498571010576,0.00020263150471446642,0.000509848829253837,0.000974051575252551,0.018151462078094482,18.078760147094727,-0.9180634021759033,-18.222078323364258,-0.7253928780555725,-2.2818026542663574,0.20083944499492645,0
19,0.09000158309936523,-0.018151462078094482,-18.078760147094727,0.9180634021759033,18.222078323364258,0.7253928780555725,2.2818026542663574,-0.20083944499492645,0.0,0.0,0.0,0.0,0.0,0.0,0.0,-0.05005832842211977,0.541282685740856,0.10096775830357434,0.623495973894494,0.2904040312057721,0.08958377597737892,-0.21352337193521673,-0.6088868754759831,-0.0576329862891891,-0.6664605265202598,-2.5947420268276438,-0.05579750176962196,2.5079490191851033,0.8763184780991738,-0.6090851748156966,-0.05753196718556838,-0.666603097082616,-2.5945565370258534,-0.05562143941554,2.507976027223799,0.8763108487046415,9.355927685323916e-05,-0.00012502429374315372,0.0005524285016144157,0.0008462498571010576,-0.00020263150471446642,-0.000509848829253837,-0.000974051575252551,0.0,0.0,0.0,0.0,0.0,0.0,0.0,-0.00019829933971349245,0.00010101910362071698,-0.00014257056235622567,0.00018548980179033947,0.0001760623540819628,2.7008038695708336e-05,-7.629394532360223e-06,-9.355927685323916e-05,0.00012502429374315372,-0.0005524285016144157,-0.0008462498571010576,0.00020263150471446642,0.000509848829253837,0.000974051575252551,0.018151462078094482,18.078760147094727,-0.9180634021759033,-18.222078323364258,-0.7253928780555725,-2.2818026542663574,0.20083944499492645,0
20,0.09494805335998535,-0.018151462078094482,-18.078760147094727,0.9180634021759033,18.222078323364258,0.7253928780555725,2.2818026542663574,-0.20083944499492645,0.0,0.0,0.0,0.0,0.0,0.0,0.0,-0.05005832842211977,0.541282685740856,0.10096775830357434,0.623495973894494,0.2904040312057721,0.08958377597737892,-0.21352337193521673,-0.6088868754759831,-0.0576329862891891,-0.6664605265202598,-2.5947420268276438,-0.05579750176962196,2.5079490191851033,0.8763184780991738,-0.6090851748156966,-0.05753196718556838,-0.666603097082616,-2.5945565370258534,-0.05562143941554,2.507976027223799,0.8763108487046415,9.355927685323916e-05,-0.00012502429374315372,0.0005524285016144157,0.0008462498571010576,-0.00020263150471446642,-0.000509848829253837,-0.000974051575252551,0.0,0.0,0.0,0.0,0.0,0.0,0.0,-0.00019829933971349245,0.00010101910362071698,-0.00014257056235622567,0.00018548980179033947,0.0001760623540819628,2.7008038695708336e-05,-7.629394532360223e-06,-9.355927685323916e-05,0.00012502429374315372,-0.0005524285016144157,-0.0008462498571010576,0.00020263150471446642,0.000509848829253837,0.000974051575252551,0.018151462078094482,18.078760147094727,-0.9180634021759033,-18.222078323364258,-0.7253928780555725,-2.2818026542663574,0.20083944499492645,0
21,0.10008978843688965,-0.12130087614059448,-17.979578018188477,0.9418671131134033,18.269685745239258,0.7070823311805725,2.2689852714538574,-0.18710653483867645,0.0,0.0,0.0,0.0,0.0,0.0,0.0,-0.05064107077512994,0.5438282322918833,0.09965882444869123,0.6246186506224773,0.29140412287737694,0.08931505528057074,-0.2136268094917475,-0.6088796455860825,-0.05763994654699314,-0.6664601824584201,-2.5947473324093684,-0.055795229883512154,2.5079504438053206,0.8763169522202676,-0.6090851748156966,-0.05753196718556838,-0.666603097082616,-2.5945565370258534,-0.05562143941554,2.507976027223799,0.8763108487046415,0.0020219204921388743,-0.002006733180038109,-0.0008005721734073802,-0.00038327297694903804,0.00031430708523330305,-4.6674173261762516e-05,-0.0005415190306421745,0.0,0.0,0.0,0.0,0.0,0.0,0.0,-0.00020552922961403208,0.00010797936142475928,-0.00014291462419591117,0.0001907953835149634,0.00017379046797215414,2.5583418478358766e-05,-6.1035156261324275e-06,-0.0020219204921388743,0.002006733180038109,0.0008005721734073802,0.00038327297694903804,-0.00031430708523330305,4.6674173261762516e-05,0.0005415190306421745,0.12130087614059448,17.979578018188477,-0.9418671131134033,-18.269685745239258,-0.7070823311805725,-2.2689852714538574,0.18710653483867645,0
22,0.10708975791931152,-0.12130087614059448,-17.979578018188477,0.9418671131134033,18.269685745239258,0.7070823311805725,2.2689852714538574,-0.18710653483867645,0.0,0.0,0.0,0.0,0.0,0.0,0.0,-0.05064107077512994,0.5438282322918833,0.09965882444869123,0.6246186506224773,0.29140412287737694,0.08931505528057074,-0.2136268094917475,-0.6088796455860825,-0.05763994654699314,-0.6664601824584201,-2.5947473324093684,-0.055795229883512154,2.5079504438053206,0.8763169522202676,-0.6090851748156966,-0.05753196718556838,-0.666603097082616,-2.5945565370258534,-0.05562143941554,2.507976027223799,0.8763108487046415,0.0020219204921388743,-0.002006733180038109,-0.0008005721734073802,-0.00038327297694903804,0.00031430708523330305,-4.6674173261762516e-05,-0.0005415190306421745,0.0,0.0,0.0,0.0,0.0,0.0,0.0,-0.00020552922961403208,0.00010797936142475928,-0.00014291462419591117,0.0001907953835149634,0.00017379046797215414,2.5583418478358766e-05,-6.1035156261324275e-06,-0.0020219204921388743,0.002006733180038109,0.0008005721734073802,0.00038327297694903804,-0.00031430708523330305,4.6674173261762516e-05,0.0005415190306421745,0.12130087614059448,17.979578018188477,-0.9418671131134033,-18.269685745239258,-0.7070823311805725,-2.2689852714538574,0.18710653483867645,0
23,0.10999488830566406,-0.06972616910934448,-18.130334854125977,0.8942596912384033,18.269685745239258,0.7189841866493225,2.2625765800476074,-0.24844686686992645,0.0,0.0,0.0,0.0,0.0,0.0,0.0,-0.049150220421769045,0.5540253725778874,0.10254448377911068,0.6251494277639124,0.2912501198646637,0.08900382442632082,-0.2127127898220288,-0.6088839582072852,-0.05762934081292214,-0.6664590809962725,-2.59474605682514,-0.05579264333743615,2.5079511553976297,0.8763237678127155,-0.6090851748156966,-0.05753196718556838,-0.666603097082616,-2.5945565370258534,-0.05562143941554,2.507976027223799,0.8763108487046415,-0.0001225548009065943,0.0014201996376929295,0.0002606402774994992,-0.0007415097750415847,-0.0003099294504800069,0.0002158284952062148,0.0009759908648247289,0.0,0.0,0.0,0.0,0.0,0.0,0.0,-0.00020121660841132538,9.737362735375704e-05,-0.00014401608634351248,0.0001895197992864972,0.0001712039218961514,2.487182616928152e-05,-1.2919108073994323e-05,0.0001225548009065943,-0.0014201996376929295,-0.0002606402774994992,0.0007415097750415847,0.0003099294504800069,-0.0002158284952062148,-0.0009759908648247289,0.06972616910934448,18.130334854125977,-0.8942596912384033,-18.269685745239258,-0.7189841866493225,-2.2625765800476074,0.24844686686992645,0
24,0.11509013175964355,-0.06972616910934448,-18.130334854125977,0.8942596912384033,18.269685745239258,0.7189841866493225,2.2625765800476074,-0.24844686686992645,0.0,0.0,0.0,0.0,0.0,0.0,0.0,-0.049150220421769045,0.5540253725778874,0.10254448377911068,0.6251494277639124,0.2912501198646637,0.08900382442632082,-0.2127127898220288,-0.6088839582072852,-0.05762934081292214,-0.6664590809962725,-2.59474605682514,-0.05579264333743615,2.5079511553976297,0.8763237678127155,-0.6090851748156966,-0.05753196718556838,-0.666603097082616,-2.5945565370258534,-0.05562143941554,2.507976027223799,0.8763108487046415,-0.0001225548009065943,0.0014201996376929295,0.0002606402774994992,-0.0007415097750415847,-0.0003099294504800069,0.0002158284952062148,0.0009759908648247289,0.0,0.0,0.0,0.0,0.0,0.0,0.0,-0.00020121660841132538,9.737362735375704e-05,-0.00014401608634351248,0.0001895197992864972,0.0001712039218961514,2.487182616928152e-05,-1.2919108073994323e-05,0.0001225548009065943,-0.0014201996376929295,-0.0002606402774994992,0.0007415097750415847,0.0003099294504800069,-0.0002158284952062148,-0.0009759908648247289,0.06972616910934448,18.130334854125977,-0.8942596912384033,-18.269685745239258,-0.7189841866493225,-2.2625765800476074,0.24844686686992645,0
25,0.1199948787689209,-0.04592245817184448,-18.130334854125977,0.9418671131134033,18.269685745239258,0.7189841866493225,2.2689852714538574,-0.23471395671367645,0.0,0.0,0.0,0.0,0.0,0.0,0.0,-0.05175331291593939,0.5552632327932777,0.10026041468971021,0.6293929127291059,0.29075051806561814,0.08873656938142037,-0.21397637113214524,-0.6088849266367938,-0.05762913035686739,-0.6664615614071423,-2.5947460309582038,-0.05579339359291989,2.5079536222351924,0.8763222419338093,-0.6090851748156966,-0.05753196718556838,-0.666603097082616,-2.5945565370258534,-0.05562143941554,2.507976027223799,0.8763108487046415,-0.0006978160568067843,6.664446496456854e-05,-0.0010922793783914933,-0.000302740260687873,-0.0001088967996858996,6.0169774330870195e-05,0.0013350251268897594,0.0,0.0,0.0,0.0,0.0,0.0,0.0,-0.00020024817890273994,9.716317129900703e-05,-0.00014153567547370294,0.00018949393235034862,0.0001719541773798905,2.2404988606616882e-05,-1.1393229167766528e-05,0.0006978160568067843,-6.664446496456854e-05,0.0010922793783914933,0.000302740260687873,0.0001088967996858996,-6.0169774330870195e-05,-0.0013350251268897594,0.04592245817184448,18.130334854125977,-0.9418671131134033,-18.269685745239258,-0.7189841866493225,-2.2689852714538574,0.23471395671367645,0
26,0.12499785423278809,-0.04592245817184448,-18.130334854125977,0.9418671131134033,18.269685745239258,0.7189841866493225,2.2689852714538574,-0.23471395671367645,0.0,0.0,0.0,0.0,0.0,0.0,0.0,-0.05175331291593939,0.5552632327932777,0.10026041468971021,0.6293929127291059,0.29075051806561814,0.08873656938142037,-0.21397637113214524,-0.6088849266367938,-0.05762913035686739,-0.6664615614071423,-2.5947460309582038,-0.05579339359291989,2.5079536222351924,0.8763222419338093,-0.6090851748156966,-0.05753196718556838,-0.666603097082616,-2.5945565370258534,-0.05562143941554,2.507976027223799,0.8763108487046415,-0.0006978160568067843,6.664446496456854e-05,-0.0010922793783914933,-0.000302740260687873,-0.0001088967996858996,6.0169774330870195e-05,0.0013350251268897594,0.0,0.0,0.0,0.0,0.0,0.0,0.0,-0.00020024817890273994,9.716317129900703e-05,-0.00014153567547370294,0.00018949393235034862,0.0001719541773798905,2.2404988606616882e-05,-1.1393229167766528e-05,0.0006978160568067843,-6.664446496456854e-05,0.0010922793783914933,0.000302740260687873,0.0001088967996858996,-6.0169774330870195e-05,-0.0013350251268897594,0.04592245817184448,18.130334854125977,-0.9418671131134033,-18.269685745239258,-0.7189841866493225,-2.2689852714538574,0.23471395671367645,0
27,0.13001036643981934,-0.06972616910934448,-18.106531143188477,0.9696381092071533,18.297456741333008,0.7134910225868225,2.2882113456726074,-0.24112264811992645,0.0,0.0,0.0,0.0,0.0,0.0,0.0,-0.052295192847528246,0.5580448206296121,0.10207438434432425,0.6255169368817118,0.2907184608667132,0.08753234539984826,-0.2122792301910875,-0.6088832561969757,-0.05763030063397966,-0.6664637009135697,-2.5947500489286637,-0.055796319951037204,2.507951486022668,0.8763229540106322,-0.6090851748156966,-0.05753196718556838,-0.666603097082616,-2.5945565370258534,-0.05562143941554,2.507976027223799,0.8763108487046415,0.00013219871667428286,-0.0007676618876808671,-0.0010693673474850781,-0.0011174963612425842,-1.13954791367154e-05,-0.0005722434932736746,0.0014766776191714216,0.0,0.0,0.0,0.0,0.0,0.0,0.0,-0.00020191861872087546,9.833344841127939e-05,-0.00013939616904634633,0.00019351190281025055,0.0001748805354972044,2.4541201130823254e-05,-1.2105305990717241e-05,-0.00013219871667428286,0.0007676618876808671,0.0010693673474850781,0.0011174963612425842,1.13954791367154e-05,0.0005722434932736746,-0.0014766776191714216,0.06972616910934448,18.106531143188477,-0.9696381092071533,-18.297456741333008,-0.7134910225868225,-2.2882113456726074,0.24112264811992645,0
28,0.13500404357910156,-0.06972616910934448,-18.106531143188477,0.9696381092071533,18.297456741333008,0.7134910225868225,2.2882113456726074,-0.24112264811992645,0.0,0.0,0.0,0.0,0.0,0.0,0.0,-0.052295192847528246,0.5580448206296121,0.10207438434432425,0.6255169368817118,0.2907184608667132,0.08753234539984826,-0.2122792301910875,-0.6088832561969757,-0.05763030063397966,-0.6664637009135697,-2.5947500489286637,-0.055796319951037204,2.507951486022668,0.8763229540106322,-0.6090851748156966,-0.05753196718556838,-0.666603097082616,-2.5945565370258534,-0.05562143941554,2.507976027223799,0.8763108487046415,0.00013219871667428286,-0.0007676618876808671,-0.0010693673474850781,-0.0011174963612425842,-1.13954791367154e-05,-0.0005722434932736746,0.0014766776191714216,0.0,0.0,0.0,0.0,0.0,0.0,0.0,-0.00020191861872087546,9.833344841127939e-05,-0.00013939616904634633,0.00019351190281025055,0.0001748805354972044,2.4541201130823254e-05,-1.2105305990717241e-05,-0.00013219871667428286,0.0007676618876808671,0.0010693673474850781,0.0011174963612425842,1.13954791367154e-05,0.0005722434932736746,-0.0014766776191714216,0.06972616910934448,18.106531143188477,-0.9696381092071533,-18.297456741333008,-0.7134910225868225,-2.2882113456726074,0.24112264811992645,0
29,0.14002537727355957,-0.04592245817184448,-18.177942276000977,0.9418671131134033,18.269685745239258,0.7134910225868225,2.2753939628601074,-0.21457235515117645,0.0,0.0,0.0,0.0,0.0,0.0,0.0,-0.05220261813988727,0.5515602204260086,0.10503998110420745,0.623584239251124,0.29035914197932156,0.0880970880548448,-0.21199576801204392,-0.608884926632831,-0.057623895053211596,-0.6664617520728149,-2.5947455208085946,-0.0557961766327784,2.50795096112694,0.8763200039780801,-0.6090851748156966,-0.05753196718556838,-0.666603097082616,-2.5945565370258534,-0.05562143941554,2.507976027223799,0.8763108487046415,0.00021334993198008994,0.0007957767326307832,-0.000317924800270671,-0.0005537889388245963,-3.2717109765425026e-05,-0.00014535145466968298,-0.0006923651872115967,0.0,0.0,0.0,0.0,0.0,0.0,0.0,-0.00020024818286557,9.192786764321281e-05,-0.0001413450098011193,0.0001889837827411256,0.00017473721723840208,2.5066096859038822e-05,-9.155273438588019e-06,-0.00021334993198008994,-0.0007957767326307832,0.000317924800270671,0.0005537889388245963,3.2717109765425026e-05,0.00014535145466968298,0.0006923651872115967,0.04592245817184448,18.177942276000977,-0.9418671131134033,-18.269685745239258,-0.7134910225868225,-2.2753939628601074,0.21457235515117645,0
30,0.14500117301940918,-0.04592245817184448,-18.177942276000977,0.9418671131134033,18.269685745239258,0.7134910225868225,2.2753939628601074,-0.21457235515117645,0.0,0.0,0.0,0.0,0.0,0.0,0.0,-0.05220261813988727,0.5515602204260086,0.10503998110420745,0.623584239251124,0.29035914197932156,0.0880970880548448,-0.21199576801204392,-0.608884926632831,-0.057623895053211596,-0.6664617520728149,-2.5947455208085946,-0.0557961766327784,2.50795096112694,0.8763200039780801,-0.6090851748156966,-0.05753196718556838,-0.666603097082616,-2.5945565370258534,-0.05562143941554,2.507976027223799,0.8763108487046415,0.00021334993198008994,0.0007957767326307832,-0.000317924800270671,-0.0005537889388245963,-3.2717109765425026e-05,-0.00014535145466968298,-0.0006923651872115967,0.0,0.0,0.0,0.0,0.0,0.0,0.0,-0.00020024818286557,9.192786764321281e-05,-0.0001413450098011193,0.0001889837827411256,0.00017473721723840208,2.5066096859038822e-05,-9.155273438588019e-06,-0.00021334993198008994,-0.0007957767326307832,0.000317924800270671,0.0005537889388245963,3.2717109765425026e-05,0.00014535145466968298,0.0006923651872115967,0.04592245817184448,18.177942276000977,-0.9418671131134033,-18.269685745239258,-0.7134910225868225,-2.2753939628601074,0.21457235515117645,0
31,0.1499958038330078,-0.06972616910934448,-18.130334854125977,0.9418671131134033,18.222078323364258,0.7134910225868225,2.2625765800476074,-0.18710653483867645,0.0,0.0,0.0,0.0,0.0,0.0,0.0,-0.05404561596109578,0.5395973725213808,0.10208715161759147,0.6251945163935998,0.2902035533464282,0.08837834490597182,-0.21396132957683012,-0.6088832561969757,-0.05762928493913859,-0.6664600789537101,-2.5947426136590255,-0.05579478517860116,2.5079511554045695,0.8763169507667175,-0.6090851748156966,-0.05753196718556838,-0.666603097082616,-2.5945565370258534,-0.05562143941554,2.507976027223799,0.8763108487046415,0.0005793573824334392,-0.0005697528011039659,-0.0004908494528119028,0.0006296847324872496,-4.312941697177819e-05,0.0003478682036096965,-0.00028774762183897754,0.0,0.0,0.0,0.0,0.0,0.0,0.0,-0.00020191861872087546,9.731775357020578e-05,-0.00014301812890593624,0.0001860766331720498,0.00017334576306116123,2.4871819229499437e-05,-6.10206207596331e-06,-0.0005793573824334392,0.0005697528011039659,0.0004908494528119028,-0.0006296847324872496,4.312941697177819e-05,-0.0003478682036096965,0.00028774762183897754,0.06972616910934448,18.130334854125977,-0.9418671131134033,-18.222078323364258,-0.7134910225868225,-2.2625765800476074,0.18710653483867645,0
32,0.15500259399414062,-0.06972616910934448,-18.130334854125977,0.9418671131134033,18.222078323364258,0.7134910225868225,2.2625765800476074,-0.18710653483867645,0.0,0.0,0.0,0.0,0.0,0.0,0.0,-0.05404561596109578,0.5395973725213808,0.10208715161759147,0.6251945163935998,0.2902035533464282,0.08837834490597182,-0.21396132957683012,-0.6088832561969757,-0.05762928493913859,-0.6664600789537101,-2.5947426136590255,-0.05579478517860116,2.5079511554045695,0.8763169507667175,-0.6090851748156966,-0.05753196718556838,-0.666603097082616,-2.5945565370258534,-0.05562143941554,2.507976027223799,0.8763108487046415,0.0005793573824334392,-0.0005697528011039659,-0.0004908494528119028,0.0006296847324872496,-4.312941697177819e-05,0.0003478682036096965,-0.00028774762183897754,0.0,0.0,0.0,0.0,0.0,0.0,0.0,-0.00020191861872087546,9.731775357020578e-05,-0.00014301812890593624,0.0001860766331720498,0.00017334576306116123,2.4871819229499437e-05,-6.10206207596331e-06,-0.0005793573824334392,0.0005697528011039659,0.0004908494528119028,-0.0006296847324872496,4.312941697177819e-05,-0.0003478682036096965,0.00028774762183897754,0.06972616910934448,18.130334854125977,-0.9418671131134033,-18.222078323364258,-0.7134910225868225,-2.2625765800476074,0.18710653483867645,0
33,0.15999984741210938,-0.06972616910934448,-18.078760147094727,0.8704559803009033,18.245882034301758,0.7189841866493225,2.2625765800476074,-0.17337362468242645,0.0,0.0,0.0,0.0,0.0,0.0,0.0,-0.057096603217833566,0.5427452072788027,0.09781713836452434,0.6245321312353598,0.28985343627010307,0.08744493565255657,-0.21073674579167181,-0.6088834902003959,-0.05763203902077718,-0.6664544686649819,-2.594743598061989,-0.055796789900946935,2.507951547856193,0.8763154263413533,-0.6090851748156966,-0.05753196718556838,-0.666603097082616,-2.5945565370258534,-0.05562143941554,2.507976027223799,0.8763108487046415,0.00011268733273711424,-0.00043250105973716515,0.0004496552381001842,0.0004834257290595912,-0.00021250764473161103,0.0005172442468713775,-0.0011462297422867448,0.0,0.0,0.0,0.0,0.0,0.0,0.0,-0.00020168461530067905,0.00010007183520879814,-0.00014862841763407797,0.0001870610361356384,0.0001753504854069346,2.447936760585634e-05,-4.577636711800004e-06,-0.00011268733273711424,0.00043250105973716515,-0.0004496552381001842,-0.0004834257290595912,0.00021250764473161103,-0.0005172442468713775,0.0011462297422867448,0.06972616910934448,18.078760147094727,-0.8704559803009033,-18.245882034301758,-0.7189841866493225,-2.2625765800476074,0.17337362468242645,0
34,0.16499805450439453,-0.06972616910934448,-18.078760147094727,0.8704559803009033,18.245882034301758,0.7189841866493225,2.2625765800476074,-0.17337362468242645,0.0,0.0,0.0,0.0,0.0,0.0,0.0,-0.057096603217833566,0.5427452072788027,0.09781713836452434,0.6245321312353598,0.28985343627010307,0.08744493565255657,-0.21073674579167181,-0.6088834902003959,-0.05763203902077718,-0.6664544686649819,-2.594743598061989,-0.055796789900946935,2.507951547856193,0.8763154263413533,-0.6090851748156966,-0.05753196718556838,-0.666603097082616,-2.5945565370258534,-0.05562143941554,2.507976027223799,0.8763108487046415,0.00011268733273711424,-0.00043250105973716515,0.0004496552381001842,0.0004834257290595912,-0.00021250764473161103,0.0005172442468713775,-0.0011462297422867448,0.0,0.0,0.0,0.0,0.0,0.0,0.0,-0.00020168461530067905,0.00010007183520879814,-0.00014862841763407797,0.0001870610361356384,0.0001753504854069346,2.447936760585634e-05,-4.577636711800004e-06,-0.00011268733273711424,0.00043250105973716515,-0.0004496552381001842,-0.0004834257290595912,0.00021250764473161103,-0.0005172442468713775,0.0011462297422867448,0.06972616910934448,18.078760147094727,-0.8704559803009033,-18.245882034301758,-0.7189841866493225,-2.2625765800476074,0.17337362468242645,0
35,0.1699962615966797,-0.06972616910934448,-18.054956436157227,0.8704559803009033,18.222078323364258,0.7189841866493225,2.2689852714538574,-0.24844686686992645,0.0,0.0,0.0,0.0,0.0,0.0,0.0,-0.05157345174431578,0.5468147577077792,0.10137627447583399,0.6253332091514209,0.28889812195254466,0.08776730114140097,-0.2098463245183175,-0.6088834902017168,-0.0576325259620534,-0.6664544436241977,-2.5947420022620666,-0.055795526192234324,2.5079504433230193,0.8763237678127155,-0.6090851748156966,-0.05753196718556838,-0.666603097082616,-2.5945565370258534,-0.05562143941554,2.507976027223799,0.8763108487046415,0.00021883559079471514,-0.000620943926965488,0.0005085631160416592,0.0007317763865195859,-0.00012126748991864765,0.00019958845700674487,0.0016097655360807037,0.0,0.0,0.0,0.0,0.0,0.0,0.0,-0.0002016846139797357,0.00010055877648501577,-0.0001486534584183019,0.00018546523621321143,0.00017408677669432382,2.5583900779668767e-05,-1.2919108073994323e-05,-0.00021883559079471514,0.000620943926965488,-0.0005085631160416592,-0.0007317763865195859,0.00012126748991864765,-0.00019958845700674487,-0.0016097655360807037,0.06972616910934448,18.054956436157227,-0.8704559803009033,-18.222078323364258,-0.7189841866493225,-2.2689852714538574,0.24844686686992645,0
36,0.17499208450317383,-0.06972616910934448,-18.054956436157227,0.8704559803009033,18.222078323364258,0.7189841866493225,2.2689852714538574,-0.24844686686992645,0.0,0.0,0.0,0.0,0.0,0.0,0.0,-0.05157345174431578,0.5468147577077792,0.10137627447583399,0.6253332091514209,0.28889812195254466,0.08776730114140097,-0.2098463245183175,-0.6088834902017168,-0.0576325259620534,-0.6664544436241977,-2.5947420022620666,-0.055795526192234324,2.5079504433230193,0.8763237678127155,-0.6090851748156966,-0.05753196718556838,-0.666603097082616,-2.5945565370258534,-0.05562143941554,2.507976027223799,0.8763108487046415,0.00021883559079471514,-0.000620943926965488,0.0005085631160416592,0.0007317763865195859,-0.00012126748991864765,0.00019958845700674487,0.0016097655360807037,0.0,0.0,0.0,0.0,0.0,0.0,0.0,-0.0002016846139797357,0.00010055877648501577,-0.0001486534584183019,0.00018546523621321143,0.00017408677669432382,2.5583900779668767e-05,-1.2919108073994323e-05,-0.00021883559079471514,0.000620943926965488,-0.0005085631160416592,-0.0007317763865195859,0.00012126748991864765,-0.00019958845700674487,-0.0016097655360807037,0.06972616910934448,18.054956436157227,-0.8704559803009033,-18.222078323364258,-0.7189841866493225,-2.2689852714538574,0.24844686686992645,0
37,0.1799921989440918,-0.06972616910934448,-18.106531143188477,0.9418671131134033,18.297456741333008,0.7134910225868225,2.2882113456726074,-0.24112264811992645,0.0,0.0,0.0,0.0,0.0,0.0,0.0,-0.050173294680186956,0.55396687206401,0.1028555937421714,0.6268162012409513,0.2892429978057983,0.08844000364267601,-0.21166446081294055,-0.6088832561982966,-0.05762889790869004,-0.6664622883310601,-2.594747446924486,-0.05579628485983735,2.5079514860047234,0.8763229496499815,-0.6090851748156966,-0.05753196718556838,-0.666603097082616,-2.5945565370258534,-0.05562143941554,2.507976027223799,0.8763108487046415,0.0007996897853435665,0.0008514153079020437,-0.00039503660112021494,-0.0013048887208232573,-5.9966627875197196e-05,-0.0004429707674817041,0.000757379843854818,0.0,0.0,0.0,0.0,0.0,0.0,0.0,-0.0002019186173999321,9.693072312165485e-05,-0.00014080875155586536,0.00019090989863235208,0.00017484544429734877,2.4541219075580045e-05,-1.2100945339987845e-05,-0.0007996897853435665,-0.0008514153079020437,0.00039503660112021494,0.0013048887208232573,5.9966627875197196e-05,0.0004429707674817041,-0.000757379843854818,0.06972616910934448,18.106531143188477,-0.9418671131134033,-18.297456741333008,-0.7134910225868225,-2.2882113456726074,0.24112264811992645,0
38,0.18499350547790527,-0.06972616910934448,-18.106531143188477,0.9418671131134033,18.297456741333008,0.7134910225868225,2.2882113456726074,-0.24112264811992645,0.0,0.0,0.0,0.0,0.0,0.0,0.0,-0.050173294680186956,0.55396687206401,0.1028555937421714,0.6268162012409513,0.2892429978057983,0.08844000364267601,-0.21166446081294055,-0.6088832561982966,-0.05762889790869004,-0.6664622883310601,-2.594747446924486,-0.05579628485983735,2.5079514860047234,0.8763229496499815,-0.6090851748156966,-0.05753196718556838,-0.666603097082616,-2.5945565370258534,-0.05562143941554,2.507976027223799,0.8763108487046415,0.0007996897853435665,0.0008514153079020437,-0.00039503660112021494,-0.0013048887208232573,-5.9966627875197196e-05,-0.0004429707674817041,0.000757379843854818,0.0,0.0,0.0,0.0,0.0,0.0,0.0,-0.0002019186173999321,9.693072312165485e-05,-0.00014080875155586536,0.00019090989863235208,0.00017484544429734877,2.4541219075580045e-05,-1.2100945339987845e-05,-0.0007996897853435665,-0.0008514153079020437,0.00039503660112021494,0.0013048887208232573,5.9966627875197196e-05,0.0004429707674817041,-0.000757379843854818,0.06972616910934448,18.106531143188477,-0.9418671131134033,-18.297456741333008,-0.7134910225868225,-2.2882113456726074,0.24112264811992645,0
39,0.18999290466308594,-0.018151462078094482,-18.078760147094727,0.9180634021759033,18.245882034301758,0.7134910225868225,2.2818026542663574,-0.22830526530742645,0.0,0.0,0.0,0.0,0.0,0.0,0.0,-0.050048382681477405,0.5565920757577317,0.10424390137877178,0.6308692477154303,0.28948768796431623,0.0893383595012138,-0.21284597491804744,-0.6088868755816595,-0.057632985411185556,-0.666458489446619,-2.594744284094752,-0.055796334542981635,2.5079490191851033,0.8763215298569618,-0.6090851748156966,-0.05753196718556838,-0.666603097082616,-2.5945565370258534,-0.05562143941554,2.507976027223799,0.8763108487046415,0.0002636102890599746,-0.0005384458820057287,0.0006122819948563885,0.0005006096494791843,0.00016901937520914326,-0.0003917796282464824,0.0007318485920732857,0.0,0.0,0.0,0.0,0.0,0.0,0.0,-0.00019829923403702487,0.00010101822561717211,-0.0001446076359969961,0.00018774706889868042,0.00017489512744163493,2.7008038695708336e-05,-1.0681152320279885e-05,-0.0002636102890599746,0.0005384458820057287,-0.0006122819948563885,-0.0005006096494791843,-0.00016901937520914326,0.0003917796282464824,-0.0007318485920732857,0.018151462078094482,18.078760147094727,-0.9180634021759033,-18.245882034301758,-0.7134910225868225,-2.2818026542663574,0.22830526530742645,0
40,0.19500112533569336,-0.018151462078094482,-18.078760147094727,0.9180634021759033,18.245882034301758,0.7134910225868225,2.2818026542663574,-0.22830526530742645,0.0,0.0,0.0,0.0,0.0,0.0,0.0,-0.050048382681477405,0.5565920757577317,0.10424390137877178,0.6308692477154303,0.28948768796431623,0.0893383595012138,-0.21284597491804744,-0.6088868755816595,-0.057632985411185556,-0.666458489446619,-2.594744284094752,-0.055796334542981635,2.5079490191851033,0.8763215298569618,-0.6090851748156966,-0.05753196718556838,-0.666603097082616,-2.5945565370258534,-0.05562143941554,2.507976027223799,0.8763108487046415,0.0002636102890599746,-0.0005384458820057287,0.0006122819948563885,0.0005006096494791843,0.00016901937520914326,-0.0003917796282464824,0.0007318485920732857,0.0,0.0,0.0,0.0,0.0,0.0,0.0,-0.00019829923403702487,0.00010101822561717211,-0.0001446076359969961,0.00018774706889868042,0.00017489512744163493,2.7008038695708336e-05,-1.0681152320279885e-05,-0.0002636102890599746,0.0005384458820057287,-0.0006122819948563885,-0.0005006096494791843,-0.00016901937520914326,0.0003917796282464824,-0.0007318485920732857,0.018151462078094482,18.078760147094727,-0.9180634021759033,-18.245882034301758,-0.7134910225868225,-2.2818026542663574,0.22830526530742645,0
41,0.20000243186950684,-0.06972616910934448,-18.154138565063477,0.9418671131134033,18.222078323364258,0.7134910225868225,2.2753939628601074,-0.20724813640117645,0.0,0.0,0.0,0.0,0.0,0.0,0.0,-0.04912393805460965,0.5567941330247825,0.10057294232625037,0.6313679785023277,0.2905379087754235,0.08940778494749442,-0.21249419859439234,-0.6088832561969763,-0.057626986395366016,-0.6664593850662675,-2.5947442209892606,-0.05579632582162415,2.507949735604632,0.8763191901759968,-0.6090851748156966,-0.05753196718556838,-0.666603097082616,-2.5945565370258534,-0.05562143941554,2.507976027223799,0.8763108487046415,0.0007938282620096219,0.001034716677686487,1.4320582692949821e-05,0.0009857554707926285,3.876984411963882e-05,4.0347645869891706e-05,-0.0007787872492130036,0.0,0.0,0.0,0.0,0.0,0.0,0.0,-0.00020191861872032035,9.50192097976324e-05,-0.00014371201634855169,0.0001876839634071814,0.0001748864060841515,2.6291619167118085e-05,-8.341471355310937e-06,-0.0007938282620096219,-0.001034716677686487,-1.4320582692949821e-05,-0.0009857554707926285,-3.876984411963882e-05,-4.0347645869891706e-05,0.0007787872492130036,0.06972616910934448,18.154138565063477,-0.9418671131134033,-18.222078323364258,-0.7134910225868225,-2.2753939628601074,0.20724813640117645,0
42,0.2050004005432129,-0.06972616910934448,-18.154138565063477,0.9418671131134033,18.222078323364258,0.7134910225868225,2.2753939628601074,-0.20724813640117645,0.0,0.0,0.0,0.0,0.0,0.0,0.0,-0.04912393805460965,0.5567941330247825,0.10057294232625037,0.6313679785023277,0.2905379087754235,0.08940778494749442,-0.21249419859439234,-0.6088832561969763,-0.057626986395366016,-0.6664593850662675,-2.5947442209892606,-0.05579632582162415,2.507949735604632,0.8763191901759968,-0.6090851748156966,-0.05753196718556838,-0.666603097082616,-2.5945565370258534,-0.05562143941554,2.507976027223799,0.8763108487046415,0.0007938282620096219,0.001034716677686487,1.4320582692949821e-05,0.0009857554707926285,3.876984411963882e-05,4.0347645869891706e-05,-0.0007787872492130036,0.0,0.0,0.0,0.0,0.0,0.0,0.0,-0.00020191861872032035,9.50192097976324e-05,-0.00014371201634855169,0.0001876839634071814,0.0001748864060841515,2.6291619167118085e-05,-8.341471355310937e-06,-0.0007938282620096219,-0.001034716677686487,-1.4320582692949821e-05,-0.0009857554707926285,-3.876984411963882e-05,-4.0347645869891706e-05,0.0007787872492130036,0.06972616910934448,18.154138565063477,-0.9418671131134033,-18.222078323364258,-0.7134910225868225,-2.2753939628601074,0.20724813640117645,0
43,0.20999836921691895,-0.06972616910934448,-18.154138565063477,0.9418671131134033,18.222078323364258,0.7134910225868225,2.2753939628601074,-0.20724813640117645,0.0,0.0,0.0,0.0,0.0,0.0,0.0,-0.04912393805460965,0.5567941330247825,0.10057294232625037,0.6313679785023277,0.2905379087754235,0.08940778494749442,-0.21249419859439234,-0.6088832561969763,-0.057626986395366016,-0.6664593850662675,-2.5947442209892606,-0.05579632582162415,2.507949735604632,0.8763191901759968,-0.6090851748156966,-0.05753196718556838,-0.666603097082616,-2.5945565370258534,-0.05562143941554,2.507976027223799,0.8763108487046415,0.0007938282620096219,0.001034716677686487,1.4320582692949821e-05,0.0009857554707926285,3.876984411963882e-05,4.0347645869891706e-05,-0.0007787872492130036,0.0,0.0,0.0,0.0,0.0,0.0,0.0,-0.00020191861872032035,9.50192097976324e-05,-0.00014371201634855169,0.0001876839634071814,0.0001748864060841515,2.6291619167118085e-05,-8.341471355310937e-06,-0.0007938282620096219,-0.001034716677686487,-1.4320582692949821e-05,-0.0009857554707926285,-3.876984411963882e-05,-4.0347645869891706e-05,0.0007787872492130036,0.06972616910934448,18.154138565063477,-0.9418671131134033,-18.222078323364258,-0.7134910225868225,-2.2753939628601074,0.20724813640117645,0
44,0.2149968147277832,-0.06972616910934448,-18.154138565063477,0.9418671131134033,18.222078323364258,0.7134910225868225,2.2753939628601074,-0.20724813640117645,0.0,0.0,0.0,0.0,0.0,0.0,0.0,-0.04912393805460965,0.5567941330247825,0.10057294232625037,0.6313679785023277,0.2905379087754235,0.08940778494749442,-0.21249419859439234,-0.6088832561969763,-0.057626986395366016,-0.6664593850662675,-2.5947442209892606,-0.05579632582162415,2.507949735604632,0.8763191901759968,-0.6090851748156966,-0.05753196718556838,-0.666603097082616,-2.5945565370258534,-0.05562143941554,2.507976027223799,0.8763108487046415,0.0007938282620096219,0.001034716677686487,1.4320582692949821e-05,0.0009857554707926285,3.876984411963882e-05,4.0347645869891706e-05,-0.0007787872492130036,0.0,0.0,0.0,0.0,0.0,0.0,0.0,-0.00020191861872032035,9.50192097976324e-05,-0.00014371201634855169,0.0001876839634071814,0.0001748864060841515,2.6291619167118085e-05,-8.341471355310937e-06,-0.0007938282620096219,-0.001034716677686487,-1.4320582692949821e-05,-0.0009857554707926285,-3.876984411963882e-05,-4.0347645869891706e-05,0.0007787872492130036,0.06972616910934448,18.154138565063477,-0.9418671131134033,-18.222078323364258,-0.7134910225868225,-2.2753939628601074,0.20724813640117645,0
45,0.21999526023864746,-0.018151462078094482,-18.106531143188477,0.9180634021759033,18.222078323364258,0.7189841866493225,2.2689852714538574,-0.19351522624492645,0.0,0.0,0.0,0.0,0.0,0.0,0.0,-0.039946931724472494,0.5540481470377543,0.1096892788409365,0.6302047069351603,0.2901068104122759,0.089470154762527,-0.21487234519578338,-0.6088868754746621,-0.05763103755175608,-0.666459901118902,-2.59474468836319,-0.05579690930399194,2.5079504433208286,0.8763176642970906,-0.6090851748156966,-0.05753196718556838,-0.666603097082616,-2.5945565370258534,-0.05562143941554,2.507976027223799,0.8763108487046415,-0.00021479894644316048,-0.0008407334209892329,0.0006673233853753032,0.001182347855854878,-0.00014353723831686668,0.0002686323396161444,-0.0007578244253297443,0.0,0.0,0.0,0.0,0.0,0.0,0.0,-0.0001982993410344358,9.907036618769793e-05,-0.00014319596371403787,0.00018815133733651734,0.0001754698884519415,2.558390297036084e-05,-6.815592449083141e-06,0.00021479894644316048,0.0008407334209892329,-0.0006673233853753032,-0.001182347855854878,0.00014353723831686668,-0.0002686323396161444,0.0007578244253297443,0.018151462078094482,18.106531143188477,-0.9180634021759033,-18.222078323364258,-0.7189841866493225,-2.2689852714538574,0.19351522624492645,0
46,0.22499513626098633,-0.018151462078094482,-18.106531143188477,0.9180634021759033,18.222078323364258,0.7189841866493225,2.2689852714538574,-0.19351522624492645,0.0,0.0,0.0,0.0,0.0,0.0,0.0,-0.039946931724472494,0.5540481470377543,0.1096892788409365,0.6302047069351603,0.2901068104122759,0.089470154762527,-0.21487234519578338,-0.6088868754746621,-0.05763103755175608,-0.666459901118902,-2.59474468836319,-0.05579690930399194,2.5079504433208286,0.8763176642970906,-0.6090851748156966,-0.05753196718556838,-0.666603097082616,-2.5945565370258534,-0.05562143941554,2.507976027223799,0.8763108487046415,-0.00021479894644316048,-0.0008407334209892329,0.0006673233853753032,0.001182347855854878,-0.00014353723831686668,0.0002686323396161444,-0.0007578244253297443,0.0,0.0,0.0,0.0,0.0,0.0,0.0,-0.0001982993410344358,9.907036618769793e-05,-0.00014319596371403787,0.00018815133733651734,0.0001754698884519415,2.558390297036084e-05,-6.815592449083141e-06,0.00021479894644316048,0.0008407334209892329,-0.0006673233853753032,-0.001182347855854878,0.00014353723831686668,-0.0002686323396161444,0.0007578244253297443,0.018151462078094482,18.106531143188477,-0.9180634021759033,-18.222078323364258,-0.7189841866493225,-2.2689852714538574,0.19351522624492645,0
47,0.22999787330627441,-0.06972616910934448,-18.130334854125977,0.9180634021759033,18.222078323364258,0.7134910225868225,2.2753939628601074,-0.22098104655742645,0.0,0.0,0.0,0.0,0.0,0.0,0.0,-0.04971430584616188,0.5492364876186941,0.09963473926390495,0.6297003222974774,0.29094159669895414,0.08928786409552378,-0.2141153639280059,-0.6088832563039731,-0.0576293583509143,-0.6664584897278993,-2.5947419504532014,-0.05579154717640379,2.5079508432099193,0.876320716054903,-0.6090851748156966,-0.05753196718556838,-0.666603097082616,-2.5945565370258534,-0.05562143941554,2.507976027223799,0.8763108487046415,1.5486492494167125e-05,4.3180652801573624e-05,-0.0007768138551199602,0.0008416592409235429,0.0001676087503509913,-0.00015390762332082427,0.0006402098413064533,0.0,0.0,0.0,0.0,0.0,0.0,0.0,-0.00020191851172346453,9.739116534591974e-05,-0.00014460735471666375,0.00018541342734801347,0.0001701077608637913,2.5184013879631095e-05,-9.867350261538732e-06,-1.5486492494167125e-05,-4.3180652801573624e-05,0.0007768138551199602,-0.0008416592409235429,-0.0001676087503509913,0.00015390762332082427,-0.0006402098413064533,0.06972616910934448,18.130334854125977,-0.9180634021759033,-18.222078323364258,-0.7134910225868225,-2.2753939628601074,0.22098104655742645,0
48,0.23499417304992676,-0.06972616910934448,-18.130334854125977,0.9180634021759033,18.222078323364258,0.7134910225868225,2.2753939628601074,-0.22098104655742645,0.0,0.0,0.0,0.0,0.0,0.0,0.0,-0.04971430584616188,0.5492364876186941,0.09963473926390495,0.6297003222974774,0.29094159669895414,0.08928786409552378,-0.2141153639280059,-0.6088832563039731,-0.0576293583509143,-0.6664584897278993,-2.5947419504532014,-0.05579154717640379,2.5079508432099193,0.876320716054903,-0.6090851748156966,-0.05753196718556838,-0.666603097082616,-2.5945565370258534,-0.05562143941554,2.507976027223799,0.8763108487046415,1.5486492494167125e-05,4.3180652801573624e-05,-0.0007768138551199602,0.0008416592409235429,0.0001676087503509913,-0.00015390762332082427,0.0006402098413064533,0.0,0.0,0.0,0.0,0.0,0.0,0.0,-0.00020191851172346453,9.739116534591974e-05,-0.00014460735471666375,0.00018541342734801347,0.0001701077608637913,2.5184013879631095e-05,-9.867350261538732e-06,-1.5486492494167125e-05,-4.3180652801573624e-05,0.0007768138551199602,-0.0008416592409235429,-0.0001676087503509913,0.00015390762332082427,-0.0006402098413064533,0.06972616910934448,18.130334854125977,-0.9180634021759033,-18.222078323364258,-0.7134910225868225,-2.2753939628601074,0.22098104655742645,0
49,0.23999905586242676,-0.06972616910934448,-18.130334854125977,0.8942596912384033,18.245882034301758,0.7134910225868225,2.2753939628601074,-0.24844686686992645,0.0,0.0,0.0,0.0,0.0,0.0,0.0,-0.04764895037197408,0.5438768711759888,0.10191529750444034,0.6284707183090535,0.29083359771113104,0.08924914518832343,-0.21282929459158964,-0.6088833341981164,-0.05762865683117734,-0.6664588431408183,-2.5947438588251597,-0.05579310052205256,2.5079500846244738,0.8763237678127155,-0.6090851748156966,-0.05753196718556838,-0.666603097082616,-2.5945565370258534,-0.05562143941554,2.507976027223799,0.8763108487046415,0.00015562697313892542,-1.402246292721664e-05,-0.0003148694783663695,0.00026415207672874323,-2.3536224472471572e-05,-3.0367396439930572e-05,0.0007323590438262683,0.0,0.0,0.0,0.0,0.0,0.0,0.0,-0.00020184061758021787,9.668964560895915e-05,-0.000144253941797734,0.00018732179930625037,0.00017166110651255923,2.59425993252016e-05,-1.2919108073994323e-05,-0.00015562697313892542,1.402246292721664e-05,0.0003148694783663695,-0.00026415207672874323,2.3536224472471572e-05,3.0367396439930572e-05,-0.0007323590438262683,0.06972616910934448,18.130334854125977,-0.8942596912384033,-18.245882034301758,-0.7134910225868225,-2.2753939628601074,0.24844686686992645,0
50,0.24499917030334473,-0.06972616910934448,-18.130334854125977,0.8942596912384033,18.245882034301758,0.7134910225868225,2.2753939628601074,-0.24844686686992645,0.0,0.0,0.0,0.0,0.0,0.0,0.0,-0.04764895037197408,0.5438768711759888,0.10191529750444034,0.6284707183090535,0.29083359771113104,0.08924914518832343,-0.21282929459158964,-0.6088833341981164,-0.05762865683117734,-0.6664588431408183,-2.5947438588251597,-0.05579310052205256,2.5079500846244738,0.8763237678127155,-0.6090851748156966,-0.05753196718556838,-0.666603097082616,-2.5945565370258534,-0.05562143941554,2.507976027223799,0.8763108487046415,0.00015562697313892542,-1.402246292721664e-05,-0.0003148694783663695,0.00026415207672874323,-2.3536224472471572e-05,-3.0367396439930572e-05,0.0007323590438262683,0.0,0.0,0.0,0.0,0.0,0.0,0.0,-0.00020184061758021787,9.668964560895915e-05,-0.000144253941797734,0.00018732179930625037,0.00017166110651255923,2.59425993252016e-05,-1.2919108073994323e-05,-0.00015562697313892542,1.402246292721664e-05,0.0003148694783663695,-0.00026415207672874323,2.3536224472471572e-05,3.0367396439930572e-05,-0.0007323590438262683,0.06972616910934448,18.130334854125977,-0.8942596912384033,-18.245882034301758,-0.7134910225868225,-2.2753939628601074,0.24844686686992645,0
51,0.24999642372131348,-0.06972616910934448,-18.078760147094727,0.8942596912384033,18.269685745239258,0.7189841866493225,2.2753939628601074,-0.22098104655742645,0.0,0.0,0.0,0.0,0.0,0.0,0.0,-0.05008976282046142,0.547034288324478,0.09922277586555259,0.6260265259500274,0.29041058853958496,0.08899849790959796,-0.21483459469376193,-0.6088832590863471,-0.05763297762459113,-0.6664567730726035,-2.594748326837839,-0.055796592219034116,2.5079497312459758,0.876320716054903,-0.6090851748156966,-0.05753196718556838,-0.666603097082616,-2.5945565370258534,-0.05562143941554,2.507976027223799,0.8763108487046415,9.468135060334425e-05,-0.0003888338108255391,9.058094336395845e-05,-0.0005338709328723814,-0.0002534186810319186,-0.0002699238508310578,0.0004510386282378121,0.0,0.0,0.0,0.0,0.0,0.0,0.0,-0.00020191572934946667,0.00010101043902274731,-0.0001463240100124663,0.00019178981198564315,0.00017515280349411633,2.6295977823220795e-05,-9.867350261538732e-06,-9.468135060334425e-05,0.0003888338108255391,-9.058094336395845e-05,0.0005338709328723814,0.0002534186810319186,0.0002699238508310578,-0.0004510386282378121,0.06972616910934448,18.078760147094727,-0.8942596912384033,-18.269685745239258,-0.7189841866493225,-2.2753939628601074,0.22098104655742645,0
52,0.25500059127807617,-0.06972616910934448,-18.078760147094727,0.8942596912384033,18.269685745239258,0.7189841866493225,2.2753939628601074,-0.22098104655742645,0.0,0.0,0.0,0.0,0.0,0.0,0.0,-0.05008976282046142,0.547034288324478,0.09922277586555259,0.6260265259500274,0.29041058853958496,0.08899849790959796,-0.21483459469376193,-0.6088832590863471,-0.05763297762459113,-0.6664567730726035,-2.594748326837839,-0.055796592219034116,2.5079497312459758,0.876320716054903,-0.6090851748156966,-0.05753196718556838,-0.666603097082616,-2.5945565370258534,-0.05562143941554,2.507976027223799,0.8763108487046415,9.468135060334425e-05,-0.0003888338108255391,9.058094336395845e-05,-0.0005338709328723814,-0.0002534186810319186,-0.0002699238508310578,0.0004510386282378121,0.0,0.0,0.0,0.0,0.0,0.0,0.0,-0.00020191572934946667,0.00010101043902274731,-0.0001463240100124663,0.00019178981198564315,0.00017515280349411633,2.6295977823220795e-05,-9.867350261538732e-06,-9.468135060334425e-05,0.0003888338108255391,-9.058094336395845e-05,0.0005338709328723814,0.0002534186810319186,0.0002699238508310578,-0.0004510386282378121,0.06972616910934448,18.078760147094727,-0.8942596912384033,-18.269685745239258,-0.7189841866493225,-2.2753939628601074,0.22098104655742645,0
53,0.2599976062774658,-0.06972616910934448,-18.054956436157227,0.9696381092071533,18.198274612426758,0.7070823311805725,2.2625765800476074,-0.18710653483867645,0.0,0.0,0.0,0.0,0.0,0.0,0.0,-0.05062035915304199,0.5508646806655056,0.09977497717259522,0.6295543075288577,0.28984811735428706,0.08880195825852097,-0.21277386939973006,-0.6088832561969919,-0.05763464806440647,-0.6664614060241197,-2.5947430103731914,-0.055795502420040305,2.507954334312015,0.8763169502822007,-0.6090851748156966,-0.05753196718556838,-0.666603097082616,-2.5945565370258534,-0.05562143941554,2.507976027223799,0.8763108487046415,0.0004728981861858936,-0.00038099332214298177,-0.0012274629494457014,0.0015374537045515929,0.0002569658669238846,0.00037234299014294437,-0.0010595802130142634,0.0,0.0,0.0,0.0,0.0,0.0,0.0,-0.0002019186187046662,0.00010268087883808646,-0.00014169105849626273,0.00018647334733801202,0.00017406300450030499,2.169291178377719e-05,-6.101577559203264e-06,-0.0004728981861858936,0.00038099332214298177,0.0012274629494457014,-0.0015374537045515929,-0.0002569658669238846,-0.00037234299014294437,0.0010595802130142634,0.06972616910934448,18.054956436157227,-0.9696381092071533,-18.198274612426758,-0.7070823311805725,-2.2625765800476074,0.18710653483867645,0
54,0.2650024890899658,-0.06972616910934448,-18.054956436157227,0.9696381092071533,18.198274612426758,0.7070823311805725,2.2625765800476074,-0.18710653483867645,0.0,0.0,0.0,0.0,0.0,0.0,0.0,-0.05062035915304199,0.5508646806655056,0.09977497717259522,0.6295543075288577,0.28984811735428706,0.08880195825852097,-0.21277386939973006,-0.6088832561969919,-0.05763464806440647,-0.6664614060241197,-2.5947430103731914,-0.055795502420040305,2.507954334312015,0.8763169502822007,-0.6090851748156966,-0.05753196718556838,-0.666603097082616,-2.5945565370258534,-0.05562143941554,2.507976027223799,0.8763108487046415,0.0004728981861858936,-0.00038099332214298177,-0.0012274629494457014,0.0015374537045515929,0.0002569658669238846,0.00037234299014294437,-0.0010595802130142634,0.0,0.0,0.0,0.0,0.0,0.0,0.0,-0.0002019186187046662,0.00010268087883808646,-0.00014169105849626273,0.00018647334733801202,0.00017406300450030499,2.169291178377719e-05,-6.101577559203264e-06,-0.0004728981861858936,0.00038099332214298177,0.0012274629494457014,-0.0015374537045515929,-0.0002569658669238846,-0.00037234299014294437,0.0010595802130142634,0.06972616910934448,18.054956436157227,-0.9696381092071533,-18.198274612426758,-0.7070823311805725,-2.2625765800476074,0.18710653483867645,0
55,0.2711367607116699,-0.018151462078094482,-18.078760147094727,0.9180634021759033,18.245882034301758,0.7253928780555725,2.2689852714538574,-0.21457235515117645,0.0,0.0,0.0,0.0,0.0,0.0,0.0,-0.05549128917441889,0.5543293781638295,0.09743497340622359,0.6317806322614369,0.28987372879043194,0.08870480932846801,-0.21144435708994655,-0.6088868841414554,-0.05763297762855123,-0.6664587487924527,-2.594743620749042,-0.05579607667518003,2.507950484038156,0.8763200039780692,-0.6090851748156966,-0.05753196718556838,-0.666603097082616,-2.5945565370258534,-0.05562143941554,2.507976027223799,0.8763108487046415,-0.0009718525646367516,-9.557061746703605e-05,7.035245838694935e-05,0.0005364105090366924,-0.0004735875402743925,8.256007740664205e-05,0.000404245650239143,0.0,0.0,0.0,0.0,0.0,0.0,0.0,-0.00019829067424115276,0.00010101044298284345,-0.00014434829016329864,0.00018708372318876343,0.00017463725964003002,2.554318564307323e-05,-9.155273427707833e-06,0.0009718525646367516,9.557061746703605e-05,-7.035245838694935e-05,-0.0005364105090366924,0.0004735875402743925,-8.256007740664205e-05,-0.000404245650239143,0.018151462078094482,18.078760147094727,-0.9180634021759033,-18.245882034301758,-0.7253928780555725,-2.2689852714538574,0.21457235515117645,0
56,0.2761270999908447,-0.018151462078094482,-18.078760147094727,0.9180634021759033,18.245882034301758,0.7253928780555725,2.2689852714538574,-0.21457235515117645,0.0,0.0,0.0,0.0,0.0,0.0,0.0,-0.05549128917441889,0.5543293781638295,0.09743497340622359,0.6317806322614369,0.28987372879043194,0.08870480932846801,-0.21144435708994655,-0.6088868841414554,-0.05763297762855123,-0.6664587487924527,-2.594743620749042,-0.05579607667518003,2.507950484038156,0.8763200039780692,-0.6090851748156966,-0.05753196718556838,-0.666603097082616,-2.5945565370258534,-0.05562143941554,2.507976027223799,0.8763108487046415,-0.0009718525646367516,-9.557061746703605e-05,7.035245838694935e-05,0.0005364105090366924,-0.0004735875402743925,8.256007740664205e-05,0.000404245650239143,0.0,0.0,0.0,0.0,0.0,0.0,0.0,-0.00019829067424115276,0.00010101044298284345,-0.00014434829016329864,0.00018708372318876343,0.00017463725964003002,2.554318564307323e-05,-9.155273427707833e-06,0.0009718525646367516,9.557061746703605e-05,-7.035245838694935e-05,-0.0005364105090366924,0.0004735875402743925,-8.256007740664205e-05,-0.000404245650239143,0.018151462078094482,18.078760147094727,-0.9180634021759033,-18.245882034301758,-0.7253928780555725,-2.2689852714538574,0.21457235515117645,0
57,0.2799971103668213,-0.04592245817184448,-18.130334854125977,0.9418671131134033,18.245882034301758,0.7134910225868225,2.2818026542663574,-0.21457235515117645,0.0,0.0,0.0,0.0,0.0,0.0,0.0,-0.05715526395047744,0.5589588740200155,0.09689156039211155,0.6287644895652075,0.2902849218118273,0.08733385230395913,-0.21144543354721895,-0.6088849266328472,-0.05762936711989392,-0.6664617257756582,-2.5947442924917787,-0.05579527201728239,2.507950079289881,0.8763200039780801,-0.6090851748156966,-0.05753196718556838,-0.666603097082616,-2.5945565370258534,-0.05562143941554,2.507976027223799,0.8763108487046415,-4.7352717651064785e-05,0.00043223354486714605,-0.0006128141490683451,0.00015429062474426748,0.00018634975402301372,-0.0005287195475240994,-0.00025537328233609123,0.0,0.0,0.0,0.0,0.0,0.0,0.0,-0.00020024818284936075,9.739993432553856e-05,-0.00014137130695779376,0.00018775546592531,0.0001738326017423908,2.5947933917969124e-05,-9.155273438588019e-06,4.7352717651064785e-05,-0.00043223354486714605,0.0006128141490683451,-0.00015429062474426748,-0.00018634975402301372,0.0005287195475240994,0.00025537328233609123,0.04592245817184448,18.130334854125977,-0.9418671131134033,-18.245882034301758,-0.7134910225868225,-2.2818026542663574,0.21457235515117645,0
58,0.28499817848205566,-0.04592245817184448,-18.130334854125977,0.9418671131134033,18.245882034301758,0.7134910225868225,2.2818026542663574,-0.21457235515117645,0.0,0.0,0.0,0.0,0.0,0.0,0.0,-0.05715526395047744,0.5589588740200155,0.09689156039211155,0.6287644895652075,0.2902849218118273,0.08733385230395913,-0.21144543354721895,-0.6088849266328472,-0.05762936711989392,-0.6664617257756582,-2.5947442924917787,-0.05579527201728239,2.507950079289881,0.8763200039780801,-0.6090851748156966,-0.05753196718556838,-0.666603097082616,-2.5945565370258534,-0.05562143941554,2.507976027223799,0.8763108487046415,-4.7352717651064785e-05,0.00043223354486714605,-0.0006128141490683451,0.00015429062474426748,0.00018634975402301372,-0.0005287195475240994,-0.00025537328233609123,0.0,0.0,0.0,0.0,0.0,0.0,0.0,-0.00020024818284936075,9.739993432553856e-05,-0.00014137130695779376,0.00018775546592531,0.0001738326017423908,2.5947933917969124e-05,-9.155273438588019e-06,4.7352717651064785e-05,-0.00043223354486714605,0.0006128141490683451,-0.00015429062474426748,-0.00018634975402301372,0.0005287195475240994,0.00025537328233609123,0.04592245817184448,18.130334854125977,-0.9418671131134033,-18.245882034301758,-0.7134910225868225,-2.2818026542663574,0.21457235515117645,0
59,0.2899961471557617,-0.04592245817184448,-18.154138565063477,0.9418671131134033,18.269685745239258,0.7189841866493225,2.2882113456726074,-0.18710653483867645,0.0,0.0,0.0,0.0,0.0,0.0,0.0,-0.057186528883521624,0.5551626888868143,0.0985757658163121,0.6300394815316726,0.2911693456224127,0.08747275844566223,-0.2122704850839591,-0.608884926632831,-0.05762485516845683,-0.6664596219586152,-2.5947460314099566,-0.05579658010085485,2.507948437929797,0.8763137733058796,-0.6090851748156966,-0.05753196718556838,-0.666603097082616,-2.5945565370258534,-0.05562143941554,2.507976027223799,0.8763108487046415,6.590825333159722e-05,0.0007370783093150451,-0.0007143940909642669,-0.0004749803341306345,-0.00016105472013771844,-0.0005375568207717366,-0.0014245553638663768,0.0,0.0,0.0,0.0,0.0,0.0,0.0,-0.00020024818286557,9.288798288844408e-05,-0.00014347512400081364,0.00018949438410320596,0.00017514068531485072,2.758929400181742e-05,-2.9246012380745867e-06,-6.590825333159722e-05,-0.0007370783093150451,0.0007143940909642669,0.0004749803341306345,0.00016105472013771844,0.0005375568207717366,0.0014245553638663768,0.04592245817184448,18.154138565063477,-0.9418671131134033,-18.269685745239258,-0.7189841866493225,-2.2882113456726074,0.18710653483867645,0
60,0.2949950695037842,-0.04592245817184448,-18.154138565063477,0.9418671131134033,18.269685745239258,0.7189841866493225,2.2882113456726074,-0.18710653483867645,0.0,0.0,0.0,0.0,0.0,0.0,0.0,-0.057186528883521624,0.5551626888868143,0.0985757658163121,0.6300394815316726,0.2911693456224127,0.08747275844566223,-0.2122704850839591,-0.608884926632831,-0.05762485516845683,-0.6664596219586152,-2.5947460314099566,-0.05579658010085485,2.507948437929797,0.8763137733058796,-0.6090851748156966,-0.05753196718556838,-0.666603097082616,-2.5945565370258534,-0.05562143941554,2.507976027223799,0.8763108487046415,6.590825333159722e-05,0.0007370783093150451,-0.0007143940909642669,-0.0004749803341306345,-0.00016105472013771844,-0.0005375568207717366,-0.0014245553638663768,0.0,0.0,0.0,0.0,0.0,0.0,0.0,-0.00020024818286557,9.288798288844408e-05,-0.00014347512400081364,0.00018949438410320596,0.00017514068531485072,2.758929400181742e-05,-2.9246012380745867e-06,-6.590825333159722e-05,-0.0007370783093150451,0.0007143940909642669,0.0004749803341306345,0.00016105472013771844,0.0005375568207717366,0.0014245553638663768,0.04592245817184448,18.154138565063477,-0.9418671131134033,-18.269685745239258,-0.7189841866493225,-2.2882113456726074,0.18710653483867645,0
61,0.29999804496765137,0.03342324495315552,-18.177942276000977,0.9418671131134033,18.222078323364258,0.7134910225868225,2.2689852714538574,-0.22830526530742645,0.0,0.0,0.0,0.0,0.0,0.0,0.0,-0.04393617407320177,0.5545887983901412,0.11208336943871085,0.625953653820311,0.2905364433452326,0.0879175735632015,-0.21428543167818723,-0.6088904957153255,-0.05762593854219852,-0.666460078085706,-2.594741924792145,-0.055796220022304575,2.5079505610591126,0.8763215298390413,-0.6090851748156966,-0.05753196718556838,-0.666603097082616,-2.5945565370258534,-0.05562143941554,2.507976027223799,0.8763108487046415,-0.0018072997660533077,0.0011977711480948372,0.0005673131345898347,0.0005781952236314172,-0.0001888960452963521,0.0003117310713322781,0.0003483609499742685,0.0,0.0,0.0,0.0,0.0,0.0,0.0,-0.00019467910037107572,9.39713566301334e-05,-0.00014301899691004927,0.00018538776629162257,0.00017478060676457546,2.5466164686349657e-05,-1.0681134399836978e-05,0.0018072997660533077,-0.0011977711480948372,-0.0005673131345898347,-0.0005781952236314172,0.0001888960452963521,-0.0003117310713322781,-0.0003483609499742685,-0.03342324495315552,18.177942276000977,-0.9418671131134033,-18.222078323364258,-0.7134910225868225,-2.2689852714538574,0.22830526530742645,0
62,0.30499720573425293,0.03342324495315552,-18.177942276000977,0.9418671131134033,18.222078323364258,0.7134910225868225,2.2689852714538574,-0.22830526530742645,0.0,0.0,0.0,0.0,0.0,0.0,0.0,-0.04393617407320177,0.5545887983901412,0.11208336943871085,0.625953653820311,0.2905364433452326,0.0879175735632015,-0.21428543167818723,-0.6088904957153255,-0.05762593854219852,-0.666460078085706,-2.594741924792145,-0.055796220022304575,2.5079505610591126,0.8763215298390413,-0.6090851748156966,-0.05753196718556838,-0.666603097082616,-2.5945565370258534,-0.05562143941554,2.507976027223799,0.8763108487046415,-0.0018072997660533077,0.0011977711480948372,0.0005673131345898347,0.0005781952236314172,-0.0001888960452963521,0.0003117310713322781,0.0003483609499742685,0.0,0.0,0.0,0.0,0.0,0.0,0.0,-0.00019467910037107572,9.39713566301334e-05,-0.00014301899691004927,0.00018538776629162257,0.00017478060676457546,2.5466164686349657e-05,-1.0681134399836978e-05,0.0018072997660533077,-0.0011977711480948372,-0.0005673131345898347,-0.0005781952236314172,0.0001888960452963521,-0.0003117310713322781,-0.0003483609499742685,-0.03342324495315552,18.177942276000977,-0.9418671131134033,-18.222078323364258,-0.7134910225868225,-2.2689852714538574,0.22830526530742645,0
63,0.3099944591522217,0.03342324495315552,-18.177942276000977,0.9418671131134033,18.222078323364258,0.7134910225868225,2.2689852714538574,-0.22830526530742645,0.0,0.0,0.0,0.0,0.0,0.0,0.0,-0.04393617407320177,0.5545887983901412,0.11208336943871085,0.625953653820311,0.2905364433452326,0.0879175735632015,-0.21428543167818723,-0.6088904957153255,-0.05762593854219852,-0.666460078085706,-2.594741924792145,-0.055796220022304575,2.5079505610591126,0.8763215298390413,-0.6090851748156966,-0.05753196718556838,-0.666603097082616,-2.5945565370258534,-0.05562143941554,2.507976027223799,0.8763108487046415,-0.0018072997660533077,0.0011977711480948372,0.0005673131345898347,0.0005781952236314172,-0.0001888960452963521,0.0003117310713322781,0.0003483609499742685,0.0,0.0,0.0,0.0,0.0,0.0,0.0,-0.00019467910037107572,9.39713566301334e-05,-0.00014301899691004927,0.00018538776629162257,0.00017478060676457546,2.5466164686349657e-05,-1.0681134399836978e-05,0.0018072997660533077,-0.0011977711480948372,-0.0005673131345898347,-0.0005781952236314172,0.0001888960452963521,-0.0003117310713322781,-0.0003483609499742685,-0.03342324495315552,18.177942276000977,-0.9418671131134033,-18.222078323364258,-0.7134910225868225,-2.2689852714538574,0.22830526530742645,0
64,0.31499719619750977,0.03342324495315552,-18.177942276000977,0.9418671131134033,18.222078323364258,0.7134910225868225,2.2689852714538574,-0.22830526530742645,0.0,0.0,0.0,0.0,0.0,0.0,0.0,-0.04393617407320177,0.5545887983901412,0.11208336943871085,0.625953653820311,0.2905364433452326,0.0879175735632015,-0.21428543167818723,-0.6088904957153255,-0.05762593854219852,-0.666460078085706,-2.594741924792145,-0.055796220022304575,2.5079505610591126,0.8763215298390413,-0.6090851748156966,-0.05753196718556838,-0.666603097082616,-2.5945565370258534,-0.05562143941554,2.507976027223799,0.8763108487046415,-0.0018072997660533077,0.0011977711480948372,0.0005673131345898347,0.0005781952236314172,-0.0001888960452963521,0.0003117310713322781,0.0003483609499742685,0.0,0.0,0.0,0.0,0.0,0.0,0.0,-0.00019467910037107572,9.39713566301334e-05,-0.00014301899691004927,0.00018538776629162257,0.00017478060676457546,2.5466164686349657e-05,-1.0681134399836978e-05,0.0018072997660533077,-0.0011977711480948372,-0.0005673131345898347,-0.0005781952236314172,0.0001888960452963521,-0.0003117310713322781,-0.0003483609499742685,-0.03342324495315552,18.177942276000977,-0.9418671131134033,-18.222078323364258,-0.7134910225868225,-2.2689852714538574,0.22830526530742645,0
65,0.31999802589416504,-0.06972616910934448,-18.130334854125977,0.9180634021759033,18.269685745239258,0.7134910225868225,2.2625765800476074,-0.22098104655742645,0.0,0.0,0.0,0.0,0.0,0.0,0.0,-0.052731448032804905,0.5464500047804645,0.10555362521849496,0.624067669417067,0.2905238690797828,0.08882256326727617,-0.215823664741351,-0.6088853622277631,-0.05762652596468102,-0.6664577416289734,-2.594745268493956,-0.0557952286822614,2.5079525684106363,0.876320716054903,-0.6090851748156966,-0.05753196718556838,-0.666603097082616,-2.5945565370258534,-0.05562143941554,2.507976027223799,0.8763108487046415,0.0004913280075246507,8.316488161435249e-05,8.867219161076143e-05,-0.001033755791202639,5.3887461979926686e-05,0.0003534741193694065,0.0002973399221646042,0.0,0.0,0.0,0.0,0.0,0.0,0.0,-0.00019981258793344558,9.455877911263705e-05,-0.00014535545364258162,0.00018873146810260977,0.0001737892667214025,2.345881316268006e-05,-9.867350261538732e-06,-0.0004913280075246507,-8.316488161435249e-05,-8.867219161076143e-05,0.001033755791202639,-5.3887461979926686e-05,-0.0003534741193694065,-0.0002973399221646042,0.06972616910934448,18.130334854125977,-0.9180634021759033,-18.269685745239258,-0.7134910225868225,-2.2625765800476074,0.22098104655742645,0
66,0.3250091075897217,-0.06972616910934448,-18.130334854125977,0.9180634021759033,18.269685745239258,0.7134910225868225,2.2625765800476074,-0.22098104655742645,0.0,0.0,0.0,0.0,0.0,0.0,0.0,-0.052731448032804905,0.5464500047804645,0.10555362521849496,0.624067669417067,0.2905238690797828,0.08882256326727617,-0.215823664741351,-0.6088853622277631,-0.05762652596468102,-0.6664577416289734,-2.594745268493956,-0.0557952286822614,2.5079525684106363,0.876320716054903,-0.6090851748156966,-0.05753196718556838,-0.666603097082616,-2.5945565370258534,-0.05562143941554,2.507976027223799,0.8763108487046415,0.0004913280075246507,8.316488161435249e-05,8.867219161076143e-05,-0.001033755791202639,5.3887461979926686e-05,0.0003534741193694065,0.0002973399221646042,0.0,0.0,0.0,0.0,0.0,0.0,0.0,-0.00019981258793344558,9.455877911263705e-05,-0.00014535545364258162,0.00018873146810260977,0.0001737892667214025,2.345881316268006e-05,-9.867350261538732e-06,-0.0004913280075246507,-8.316488161435249e-05,-8.867219161076143e-05,0.001033755791202639,-5.3887461979926686e-05,-0.0003534741193694065,-0.0002973399221646042,0.06972616910934448,18.130334854125977,-0.9180634021759033,-18.269685745239258,-0.7134910225868225,-2.2625765800476074,0.22098104655742645,0
67,0.3300018310546875,-0.06972616910934448,-18.106531143188477,0.8942596912384033,18.269685745239258,0.7189841866493225,2.2625765800476074,-0.23471395671367645,0.0,0.0,0.0,0.0,0.0,0.0,0.0,-0.04910199328150896,0.5493871905106161,0.10997804407832984,0.6248167190607117,0.29024626732718145,0.08890113956763072,-0.21495057261263353,-0.6088832590977954,-0.057628826453601185,-0.6664581790034313,-2.594746261836751,-0.055793746160150696,2.5079522150437326,0.8763222419338093,-0.6090851748156966,-0.05753196718556838,-0.666603097082616,-2.5945565370258534,-0.05562143941554,2.507976027223799,0.8763108487046415,0.0001970174696639244,0.0002445578594419287,0.0005815432561995666,-0.00018504838379141078,-7.154545268048632e-05,0.0002233930142828049,0.0009274487488993334,0.0,0.0,0.0,0.0,0.0,0.0,0.0,-0.0002019157179011799,9.685926803280204e-05,-0.00014491807918470823,0.00018972481089774007,0.00017230674461069656,2.3812180066418165e-05,-1.1393229167766528e-05,-0.0001970174696639244,-0.0002445578594419287,-0.0005815432561995666,0.00018504838379141078,7.154545268048632e-05,-0.0002233930142828049,-0.0009274487488993334,0.06972616910934448,18.106531143188477,-0.8942596912384033,-18.269685745239258,-0.7189841866493225,-2.2625765800476074,0.23471395671367645,0
68,0.33525991439819336,-0.06972616910934448,-18.106531143188477,0.8942596912384033,18.269685745239258,0.7189841866493225,2.2625765800476074,-0.23471395671367645,0.0,0.0,0.0,0.0,0.0,0.0,0.0,-0.04910199328150896,0.5493871905106161,0.10997804407832984,0.6248167190607117,0.29024626732718145,0.08890113956763072,-0.21495057261263353,-0.6088832590977954,-0.057628826453601185,-0.6664581790034313,-2.594746261836751,-0.055793746160150696,2.5079522150437326,0.8763222419338093,-0.6090851748156966,-0.05753196718556838,-0.666603097082616,-2.5945565370258534,-0.05562143941554,2.507976027223799,0.8763108487046415,0.0001970174696639244,0.0002445578594419287,0.0005815432561995666,-0.00018504838379141078,-7.154545268048632e-05,0.0002233930142828049,0.0009274487488993334,0.0,0.0,0.0,0.0,0.0,0.0,0.0,-0.0002019157179011799,9.685926803280204e-05,-0.00014491807918470823,0.00018972481089774007,0.00017230674461069656,2.3812180066418165e-05,-1.1393229167766528e-05,-0.0001970174696639244,-0.0002445578594419287,-0.0005815432561995666,0.00018504838379141078,7.154545268048632e-05,-0.0002233930142828049,-0.0009274487488993334,0.06972616910934448,18.106531143188477,-0.8942596912384033,-18.269685745239258,-0.7189841866493225,-2.2625765800476074,0.23471395671367645,0
69,0.33998942375183105,-0.09352988004684448,-18.054956436157227,0.8704559803009033,18.269685745239258,0.7253928780555725,2.2753939628601074,-0.18710653483867645,0.0,0.0,0.0,0.0,0.0,0.0,0.0,-0.0591014549738859,0.5554862580352805,0.10038789348771558,0.624602533617293,0.29117172194086394,0.08780771725609772,-0.21507482212839743,-0.6088815857611367,-0.057634656820970354,-0.6664553104220446,-2.5947473319595087,-0.055794062826181844,2.5079497317344797,0.8763169522202676,-0.6090851748156966,-0.05753196718556838,-0.666603097082616,-2.5945565370258534,-0.05562143941554,2.507976027223799,0.8763108487046415,0.00028813784444655765,-7.164957343280561e-06,9.98914102448727e-05,-0.00036788754315961837,-0.00042471598330268585,-0.00011582950970791478,-0.0014938987854852656,0.0,0.0,0.0,0.0,0.0,0.0,0.0,-0.00020358905455986065,0.00010268963540197018,-0.00014778666057135847,0.00019079493365525835,0.00017262341064184367,2.62954893193168e-05,-6.1035156261324275e-06,-0.00028813784444655765,7.164957343280561e-06,-9.98914102448727e-05,0.00036788754315961837,0.00042471598330268585,0.00011582950970791478,0.0014938987854852656,0.09352988004684448,18.054956436157227,-0.8704559803009033,-18.269685745239258,-0.7253928780555725,-2.2753939628601074,0.18710653483867645,0
70,0.34499073028564453,-0.09352988004684448,-18.054956436157227,0.8704559803009033,18.269685745239258,0.7253928780555725,2.2753939628601074,-0.18710653483867645,0.0,0.0,0.0,0.0,0.0,0.0,0.0,-0.0591014549738859,0.5554862580352805,0.10038789348771558,0.624602533617293,0.29117172194086394,0.08780771725609772,-0.21507482212839743,-0.6088815857611367,-0.057634656820970354,-0.6664553104220446,-2.5947473319595087,-0.055794062826181844,2.5079497317344797,0.8763169522202676,-0.6090851748156966,-0.05753196718556838,-0.666603097082616,-2.5945565370258534,-0.05562143941554,2.507976027223799,0.8763108487046415,0.00028813784444655765,-7.164957343280561e-06,9.98914102448727e-05,-0.00036788754315961837,-0.00042471598330268585,-0.00011582950970791478,-0.0014938987854852656,0.0,0.0,0.0,0.0,0.0,0.0,0.0,-0.00020358905455986065,0.00010268963540197018,-0.00014778666057135847,0.00019079493365525835,0.00017262341064184367,2.62954893193168e-05,-6.1035156261324275e-06,-0.00028813784444655765,7.164957343280561e-06,-9.98914102448727e-05,0.00036788754315961837,0.00042471598330268585,0.00011582950970791478,0.0014938987854852656,0.09352988004684448,18.054956436157227,-0.8704559803009033,-18.269685745239258,-0.7253928780555725,-2.2753939628601074,0.18710653483867645,0
71,0.3499922752380371,-0.06972616910934448,-18.154138565063477,0.8942596912384033,18.245882034301758,0.7070823311805725,2.2625765800476074,-0.22830526530742645,0.0,0.0,0.0,0.0,0.0,0.0,0.0,-0.06098642458721192,0.5565368740328166,0.09847275842105759,0.6315823478907823,0.2911156662584292,0.08936244497309496,-0.2157344558794751,-0.6088853622277578,-0.057627693761056385,-0.6664582483429131,-2.5947459774103883,-0.05579526978861578,2.507951199004137,0.8763215298569863,-0.6090851748156966,-0.05753196718556838,-0.666603097082616,-2.5945565370258534,-0.05562143941554,2.507976027223799,0.8763108487046415,-0.0005616845879754475,0.001645373853573989,-6.57957344137181e-05,0.0007400251381598476,0.00036267425973554834,0.00043642170337084376,0.0012401956830701993,0.0,0.0,0.0,0.0,0.0,0.0,0.0,-0.00019981258793877466,9.572657548800184e-05,-0.00014484873970288525,0.00018944038453483358,0.00017383037307577842,2.482821966198756e-05,-1.0681152344815814e-05,0.0005616845879754475,-0.001645373853573989,6.57957344137181e-05,-0.0007400251381598476,-0.00036267425973554834,-0.00043642170337084376,-0.0012401956830701993,0.06972616910934448,18.154138565063477,-0.8942596912384033,-18.245882034301758,-0.7070823311805725,-2.2625765800476074,0.22830526530742645,0
72,0.3549926280975342,-0.06972616910934448,-18.154138565063477,0.8942596912384033,18.245882034301758,0.7070823311805725,2.2625765800476074,-0.22830526530742645,0.0,0.0,0.0,0.0,0.0,0.0,0.0,-0.06098642458721192,0.5565368740328166,0.09847275842105759,0.6315823478907823,0.2911156662584292,0.08936244497309496,-0.2157344558794751,-0.6088853622277578,-0.057627693761056385,-0.6664582483429131,-2.5947459774103883,-0.05579526978861578,2.507951199004137,0.8763215298569863,-0.6090851748156966,-0.05753196718556838,-0.666603097082616,-2.5945565370258534,-0.05562143941554,2.507976027223799,0.8763108487046415,-0.0005616845879754475,0.001645373853573989,-6.57957344137181e-05,0.0007400251381598476,0.00036267425973554834,0.00043642170337084376,0.0012401956830701993,0.0,0.0,0.0,0.0,0.0,0.0,0.0,-0.00019981258793877466,9.572657548800184e-05,-0.00014484873970288525,0.00018944038453483358,0.00017383037307577842,2.482821966198756e-05,-1.0681152344815814e-05,0.0005616845879754475,-0.001645373853573989,6.57957344137181e-05,-0.0007400251381598476,-0.00036267425973554834,-0.00043642170337084376,-0.0012401956830701993,0.06972616910934448,18.154138565063477,-0.8942596912384033,-18.245882034301758,-0.7070823311805725,-2.2625765800476074,0.22830526530742645,0
73,0.36000680923461914,-0.04592245817184448,-18.154138565063477,0.9418671131134033,18.269685745239258,0.7134910225868225,2.2818026542663574,-0.18710653483867645,0.0,0.0,0.0,0.0,0.0,0.0,0.0,-0.0554371327145564,0.5624469676072724,0.10450497912273314,0.6292460047008643,0.2907247868596205,0.08875281393336015,-0.21430982638333118,-0.6088849266367938,-0.057627696672020855,-0.6664600809893017,-2.5947452744938846,-0.05579633849714668,2.507949036609843,0.8763169522202676,-0.6090851748156966,-0.05753196718556838,-0.666603097082616,-2.5945565370258534,-0.05562143941554,2.507976027223799,0.8763108487046415,7.388206799294386e-05,0.0011721623271581498,-0.00020461522920799672,-0.0001101978837597086,0.0001561477501778218,-0.0002613372496676946,-0.0009832984709502734,0.0,0.0,0.0,0.0,0.0,0.0,0.0,-0.00020024817890273994,9.572948645247131e-05,-0.00014301609331435206,0.00018873746803116376,0.00017489908160667894,2.699061395583513e-05,-6.1035156261324275e-06,-7.388206799294386e-05,-0.0011721623271581498,0.00020461522920799672,0.0001101978837597086,-0.0001561477501778218,0.0002613372496676946,0.0009832984709502734,0.04592245817184448,18.154138565063477,-0.9418671131134033,-18.269685745239258,-0.7134910225868225,-2.2818026542663574,0.18710653483867645,0
74,0.3650062084197998,-0.04592245817184448,-18.154138565063477,0.9418671131134033,18.269685745239258,0.7134910225868225,2.2818026542663574,-0.18710653483867645,0.0,0.0,0.0,0.0,0.0,0.0,0.0,-0.0554371327145564,0.5624469676072724,0.10450497912273314,0.6292460047008643,0.2907247868596205,0.08875281393336015,-0.21430982638333118,-0.6088849266367938,-0.057627696672020855,-0.6664600809893017,-2.5947452744938846,-0.05579633849714668,2.507949036609843,0.8763169522202676,-0.6090851748156966,-0.05753196718556838,-0.666603097082616,-2.5945565370258534,-0.05562143941554,2.507976027223799,0.8763108487046415,7.388206799294386e-05,0.0011721623271581498,-0.00020461522920799672,-0.0001101978837597086,0.0001561477501778218,-0.0002613372496676946,-0.0009832984709502734,0.0,0.0,0.0,0.0,0.0,0.0,0.0,-0.00020024817890273994,9.572948645247131e-05,-0.00014301609331435206,0.00018873746803116376,0.00017489908160667894,2.699061395583513e-05,-6.1035156261324275e-06,-7.388206799294386e-05,-0.0011721623271581498,0.00020461522920799672,0.0001101978837597086,-0.0001561477501778218,0.0002613372496676946,0.0009832984709502734,0.04592245817184448,18.154138565063477,-0.9418671131134033,-18.269685745239258,-0.7134910225868225,-2.2818026542663574,0.18710653483867645,0
75,0.3699955940246582,-0.018151462078094482,-18.106531143188477,0.9934418201446533,18.269685745239258,0.7189841866493225,2.2753939628601074,-0.22830526530742645,0.0,0.0,0.0,0.0,0.0,0.0,0.0,-0.05503690097393061,0.5595470753986322,0.1047803986247116,0.626009032817443,0.2912226423341486,0.08803806710055198,-0.21266946048128493,-0.6088868754746621,-0.05762890636493726,-0.6664630308788758,-2.5947474372475,-0.055796593699947515,2.5079497312440795,0.8763215284034361,-0.6090851748156966,-0.05753196718556838,-0.666603097082616,-2.5945565370258534,-0.05562143941554,2.507976027223799,0.8763108487046415,0.00011383404330363613,-0.0007503453075064693,-0.0007558707757500064,-0.0007210304643167622,-5.2991248271976506e-05,-0.00016412264162629685,0.001263870961391611,0.0,0.0,0.0,0.0,0.0,0.0,0.0,-0.0001982993410344358,9.693917936887814e-05,-0.00014006620374018564,0.0001909002216464728,0.00017515428440751518,2.629597971948172e-05,-1.0679698794646697e-05,-0.00011383404330363613,0.0007503453075064693,0.0007558707757500064,0.0007210304643167622,5.2991248271976506e-05,0.00016412264162629685,-0.001263870961391611,0.018151462078094482,18.106531143188477,-0.9934418201446533,-18.269685745239258,-0.7189841866493225,-2.2753939628601074,0.22830526530742645,0
76,0.3750014305114746,-0.018151462078094482,-18.106531143188477,0.9934418201446533,18.269685745239258,0.7189841866493225,2.2753939628601074,-0.22830526530742645,0.0,0.0,0.0,0.0,0.0,0.0,0.0,-0.05503690097393061,0.5595470753986322,0.1047803986247116,0.626009032817443,0.2912226423341486,0.08803806710055198,-0.21266946048128493,-0.6088868754746621,-0.05762890636493726,-0.6664630308788758,-2.5947474372475,-0.055796593699947515,2.5079497312440795,0.8763215284034361,-0.6090851748156966,-0.05753196718556838,-0.666603097082616,-2.5945565370258534,-0.05562143941554,2.507976027223799,0.8763108487046415,0.00011383404330363613,-0.0007503453075064693,-0.0007558707757500064,-0.0007210304643167622,-5.2991248271976506e-05,-0.00016412264162629685,0.001263870961391611,0.0,0.0,0.0,0.0,0.0,0.0,0.0,-0.0001982993410344358,9.693917936887814e-05,-0.00014006620374018564,0.0001909002216464728,0.00017515428440751518,2.629597971948172e-05,-1.0679698794646697e-05,-0.00011383404330363613,0.0007503453075064693,0.0007558707757500064,0.0007210304643167622,5.2991248271976506e-05,0.00016412264162629685,-0.001263870961391611,0.018151462078094482,18.106531143188477,-0.9934418201446533,-18.269685745239258,-0.7189841866493225,-2.2753939628601074,0.22830526530742645,0
77,0.3799929618835449,-0.018151462078094482,-18.130334854125977,0.9696381092071533,18.245882034301758,0.7134910225868225,2.2818026542663574,-0.24844686686992645,0.0,0.0,0.0,0.0,0.0,0.0,0.0,-0.05301031802289487,0.5547702971334879,0.10766912990550002,0.6266071149800599,0.29165810846791435,0.08816739329609778,-0.2112695175623609,-0.6088871094780823,-0.05762936710787978,-0.6664622608584382,-2.594743697310156,-0.05579313852143152,2.5079490191671585,0.8763205888983193,-0.6090851748156966,-0.05753196718556838,-0.666603097082616,-2.5945565370258534,-0.05562143941554,2.507976027223799,0.8763108487046415,-8.181112387670418e-05,0.0001471975110937625,-0.0004801823116535813,0.0002248879157835185,-0.00011517220361510362,-0.00013742142545279386,0.0012424778580034802,0.0,0.0,0.0,0.0,0.0,0.0,0.0,-0.0001980653376142394,9.739992231139888e-05,-0.0001408362241778205,0.00018716028430265652,0.0001716991058915221,2.7008056640465128e-05,-9.740193677831854e-06,8.181112387670418e-05,-0.0001471975110937625,0.0004801823116535813,-0.0002248879157835185,0.00011517220361510362,0.00013742142545279386,-0.0012424778580034802,0.018151462078094482,18.130334854125977,-0.9696381092071533,-18.245882034301758,-0.7134910225868225,-2.2818026542663574,0.24844686686992645,0
78,0.3849928379058838,-0.018151462078094482,-18.130334854125977,0.9696381092071533,18.245882034301758,0.7134910225868225,2.2818026542663574,-0.24844686686992645,0.0,0.0,0.0,0.0,0.0,0.0,0.0,-0.05301031802289487,0.5547702971334879,0.10766912990550002,0.6266071149800599,0.29165810846791435,0.08816739329609778,-0.2112695175623609,-0.6088871094780823,-0.05762936710787978,-0.6664622608584382,-2.594743697310156,-0.05579313852143152,2.5079490191671585,0.8763205888983193,-0.6090851748156966,-0.05753196718556838,-0.666603097082616,-2.5945565370258534,-0.05562143941554,2.507976027223799,0.8763108487046415,-8.181112387670418e-05,0.0001471975110937625,-0.0004801823116535813,0.0002248879157835185,-0.00011517220361510362,-0.00013742142545279386,0.0012424778580034802,0.0,0.0,0.0,0.0,0.0,0.0,0.0,-0.0001980653376142394,9.739992231139888e-05,-0.0001408362241778205,0.00018716028430265652,0.0001716991058915221,2.7008056640465128e-05,-9.740193677831854e-06,8.181112387670418e-05,-0.0001471975110937625,0.0004801823116535813,-0.0002248879157835185,0.00011517220361510362,0.00013742142545279386,-0.0012424778580034802,0.018151462078094482,18.130334854125977,-0.9696381092071533,-18.245882034301758,-0.7134910225868225,-2.2818026542663574,0.24844686686992645,0
79,0.3900024890899658,-0.018151462078094482,-18.130334854125977,0.9696381092071533,18.245882034301758,0.7134910225868225,2.2818026542663574,-0.24844686686992645,0.0,0.0,0.0,0.0,0.0,0.0,0.0,-0.05301031802289487,0.5547702971334879,0.10766912990550002,0.6266071149800599,0.29165810846791435,0.08816739329609778,-0.2112695175623609,-0.6088871094780823,-0.05762936710787978,-0.6664622608584382,-2.594743697310156,-0.05579313852143152,2.5079490191671585,0.8763205888983193,-0.6090851748156966,-0.05753196718556838,-0.666603097082616,-2.5945565370258534,-0.05562143941554,2.507976027223799,0.8763108487046415,-8.181112387670418e-05,0.0001471975110937625,-0.0004801823116535813,0.0002248879157835185,-0.00011517220361510362,-0.00013742142545279386,0.0012424778580034802,0.0,0.0,0.0,0.0,0.0,0.0,0.0,-0.0001980653376142394,9.739992231139888e-05,-0.0001408362241778205,0.00018716028430265652,0.0001716991058915221,2.7008056640465128e-05,-9.740193677831854e-06,8.181112387670418e-05,-0.0001471975110937625,0.0004801823116535813,-0.0002248879157835185,0.00011517220361510362,0.00013742142545279386,-0.0012424778580034802,0.018151462078094482,18.130334854125977,-0.9696381092071533,-18.245882034301758,-0.7134910225868225,-2.2818026542663574,0.24844686686992645,0
