rezayati/contactInterpretation/dataset/franka_main/labeled_data/link6/b4_7.csv
index,time,tau_J0,tau_J1,tau_J2,tau_J3,tau_J4,tau_J5,tau_J6,tau_J_d0,tau_J_d1,tau_J_d2,tau_J_d3,tau_J_d4,tau_J_d5,tau_J_d6,tau_ext0,tau_ext1,tau_ext2,tau_ext3,tau_ext4,tau_ext5,tau_ext6,q0,q1,q2,q3,q4,q5,q6,q_d0,q_d1,q_d2,q_d3,q_d4,q_d5,q_d6,dq0,dq1,dq2,dq3,dq4,dq5,dq6,dq_d0,dq_d1,dq_d2,dq_d3,dq_d4,dq_d5,dq_d6,e0,e1,e2,e3,e4,e5,e6,de0,de1,de2,de3,de4,de5,de6,etau_J0,etau_J1,etau_J2,etau_J3,etau_J4,etau_J5,etau_J6,label
1,0.0,-0.2720577120780945,-11.675561904907227,1.0172455310821533,21.669649124145508,0.4269309639930725,2.5463900566101074,-0.28232139348983765,0.0,0.0,0.0,0.0,0.0,0.0,0.0,-0.28044502482177,0.6774061364132125,-0.18834660410079,0.3670414279107678,-0.10468660835554366,0.1354576787604141,-0.3219163475940795,0.17294994794710494,-0.4875841912512194,-0.11140004709310149,-1.9463599201891557,0.1334472532868385,2.5953996887737096,0.9452596282462701,0.1728802376190821,-0.48752024683155326,-0.11147110072896137,-1.9463801863486305,0.1336059019074957,2.595550359778934,0.9452445589611904,0.0001416409204728494,0.00011657402174291404,-0.00035957258441400694,-2.725838597399426e-05,0.0001933431623085868,-0.00028741092626295586,-0.0016658410925056149,0.0,0.0,0.0,0.0,0.0,0.0,0.0,-6.971032802283172e-05,6.394441966611764e-05,-7.105363585988012e-05,-2.026615947481325e-05,0.00015864862065717578,0.0001506710052243676,-1.5069285079660766e-05,-0.0001416409204728494,-0.00011657402174291404,0.00035957258441400694,2.725838597399426e-05,-0.0001933431623085868,0.00028741092626295586,0.0016658410925056149,0.2720577120780945,11.675561904907227,-1.0172455310821533,-21.669649124145508,-0.4269309639930725,-2.5463900566101074,0.28232139348983765,0
2,0.004999399185180664,-0.2720577120780945,-11.675561904907227,1.0172455310821533,21.669649124145508,0.4269309639930725,2.5463900566101074,-0.28232139348983765,0.0,0.0,0.0,0.0,0.0,0.0,0.0,-0.28044502482177,0.6774061364132125,-0.18834660410079,0.3670414279107678,-0.10468660835554366,0.1354576787604141,-0.3219163475940795,0.17294994794710494,-0.4875841912512194,-0.11140004709310149,-1.9463599201891557,0.1334472532868385,2.5953996887737096,0.9452596282462701,0.1728802376190821,-0.48752024683155326,-0.11147110072896137,-1.9463801863486305,0.1336059019074957,2.595550359778934,0.9452445589611904,0.0001416409204728494,0.00011657402174291404,-0.00035957258441400694,-2.725838597399426e-05,0.0001933431623085868,-0.00028741092626295586,-0.0016658410925056149,0.0,0.0,0.0,0.0,0.0,0.0,0.0,-6.971032802283172e-05,6.394441966611764e-05,-7.105363585988012e-05,-2.026615947481325e-05,0.00015864862065717578,0.0001506710052243676,-1.5069285079660766e-05,-0.0001416409204728494,-0.00011657402174291404,0.00035957258441400694,2.725838597399426e-05,-0.0001933431623085868,0.00028741092626295586,0.0016658410925056149,0.2720577120780945,11.675561904907227,-1.0172455310821533,-21.669649124145508,-0.4269309639930725,-2.5463900566101074,0.28232139348983765,0
3,0.009999752044677734,-0.2720577120780945,-11.675561904907227,1.0172455310821533,21.669649124145508,0.4269309639930725,2.5463900566101074,-0.28232139348983765,0.0,0.0,0.0,0.0,0.0,0.0,0.0,-0.28044502482177,0.6774061364132125,-0.18834660410079,0.3670414279107678,-0.10468660835554366,0.1354576787604141,-0.3219163475940795,0.17294994794710494,-0.4875841912512194,-0.11140004709310149,-1.9463599201891557,0.1334472532868385,2.5953996887737096,0.9452596282462701,0.1728802376190821,-0.48752024683155326,-0.11147110072896137,-1.9463801863486305,0.1336059019074957,2.595550359778934,0.9452445589611904,0.0001416409204728494,0.00011657402174291404,-0.00035957258441400694,-2.725838597399426e-05,0.0001933431623085868,-0.00028741092626295586,-0.0016658410925056149,0.0,0.0,0.0,0.0,0.0,0.0,0.0,-6.971032802283172e-05,6.394441966611764e-05,-7.105363585988012e-05,-2.026615947481325e-05,0.00015864862065717578,0.0001506710052243676,-1.5069285079660766e-05,-0.0001416409204728494,-0.00011657402174291404,0.00035957258441400694,2.725838597399426e-05,-0.0001933431623085868,0.00028741092626295586,0.0016658410925056149,0.2720577120780945,11.675561904907227,-1.0172455310821533,-21.669649124145508,-0.4269309639930725,-2.5463900566101074,0.28232139348983765,0
4,0.014997482299804688,-0.2720577120780945,-11.675561904907227,1.0172455310821533,21.669649124145508,0.4269309639930725,2.5463900566101074,-0.28232139348983765,0.0,0.0,0.0,0.0,0.0,0.0,0.0,-0.28044502482177,0.6774061364132125,-0.18834660410079,0.3670414279107678,-0.10468660835554366,0.1354576787604141,-0.3219163475940795,0.17294994794710494,-0.4875841912512194,-0.11140004709310149,-1.9463599201891557,0.1334472532868385,2.5953996887737096,0.9452596282462701,0.1728802376190821,-0.48752024683155326,-0.11147110072896137,-1.9463801863486305,0.1336059019074957,2.595550359778934,0.9452445589611904,0.0001416409204728494,0.00011657402174291404,-0.00035957258441400694,-2.725838597399426e-05,0.0001933431623085868,-0.00028741092626295586,-0.0016658410925056149,0.0,0.0,0.0,0.0,0.0,0.0,0.0,-6.971032802283172e-05,6.394441966611764e-05,-7.105363585988012e-05,-2.026615947481325e-05,0.00015864862065717578,0.0001506710052243676,-1.5069285079660766e-05,-0.0001416409204728494,-0.00011657402174291404,0.00035957258441400694,2.725838597399426e-05,-0.0001933431623085868,0.00028741092626295586,0.0016658410925056149,0.2720577120780945,11.675561904907227,-1.0172455310821533,-21.669649124145508,-0.4269309639930725,-2.5463900566101074,0.28232139348983765,0
5,0.01999831199645996,-0.2720577120780945,-11.651758193969727,0.9696381092071533,21.641878128051758,0.4507346749305725,2.5399813652038574,-0.28964561223983765,0.0,0.0,0.0,0.0,0.0,0.0,0.0,-0.27983333710479597,0.6835535700781358,-0.19209927294123602,0.35915614896212217,-0.10514963787536424,0.13516015870773568,-0.3225278016176008,0.17294994827308618,-0.48758586168707463,-0.1113967065461741,-1.9463602057725935,0.13344460843006767,2.595400400850508,0.9452578983863349,0.1728802376190821,-0.48752024683155326,-0.11147110072896137,-1.9463801863486305,0.1336059019074957,2.595550359778934,0.9452445589611904,-0.00020515491484920803,-3.7160124515054034e-06,0.0005755878573419494,0.000238351113641279,0.002271799973986139,-0.0002123348187560865,-0.0009870749262391866,0.0,0.0,0.0,0.0,0.0,0.0,0.0,-6.971065400407372e-05,6.561485552136759e-05,-7.439418278726295e-05,-1.998057603702641e-05,0.00016129347742802058,0.00014995892842595282,-1.333942514447628e-05,0.00020515491484920803,3.7160124515054034e-06,-0.0005755878573419494,-0.000238351113641279,-0.002271799973986139,0.0002123348187560865,0.0009870749262391866,0.2720577120780945,11.651758193969727,-0.9696381092071533,-21.641878128051758,-0.4507346749305725,-2.5399813652038574,0.28964561223983765,0
6,0.025028228759765625,-0.2720577120780945,-11.651758193969727,0.9696381092071533,21.641878128051758,0.4507346749305725,2.5399813652038574,-0.28964561223983765,0.0,0.0,0.0,0.0,0.0,0.0,0.0,-0.27983333710479597,0.6835535700781358,-0.19209927294123602,0.35915614896212217,-0.10514963787536424,0.13516015870773568,-0.3225278016176008,0.17294994827308618,-0.48758586168707463,-0.1113967065461741,-1.9463602057725935,0.13344460843006767,2.595400400850508,0.9452578983863349,0.1728802376190821,-0.48752024683155326,-0.11147110072896137,-1.9463801863486305,0.1336059019074957,2.595550359778934,0.9452445589611904,-0.00020515491484920803,-3.7160124515054034e-06,0.0005755878573419494,0.000238351113641279,0.002271799973986139,-0.0002123348187560865,-0.0009870749262391866,0.0,0.0,0.0,0.0,0.0,0.0,0.0,-6.971065400407372e-05,6.561485552136759e-05,-7.439418278726295e-05,-1.998057603702641e-05,0.00016129347742802058,0.00014995892842595282,-1.333942514447628e-05,0.00020515491484920803,3.7160124515054034e-06,-0.0005755878573419494,-0.000238351113641279,-0.002271799973986139,0.0002123348187560865,0.0009870749262391866,0.2720577120780945,11.651758193969727,-0.9696381092071533,-21.641878128051758,-0.4507346749305725,-2.5399813652038574,0.28964561223983765,0
7,0.03000783920288086,-0.2998287081718445,-11.651758193969727,0.9418671131134033,21.618074417114258,0.4333396553993225,2.5271639823913574,-0.35098594427108765,0.0,0.0,0.0,0.0,0.0,0.0,0.0,-0.2778221720425576,0.6787527278865894,-0.18814921570519524,0.3604444942975608,-0.10408532649501723,0.13511137603382756,-0.3234902712062203,0.1729527669436122,-0.48758586168707463,-0.11139475737956715,-1.9463578466935838,0.1334465412100156,2.5954018250041537,0.9452641095109375,0.1728802376190821,-0.48752024683155326,-0.11147110072896137,-1.9463801863486305,0.1336059019074957,2.595550359778934,0.9452445589611904,0.0004044158439068235,0.00011708283721837235,0.0017770021930294032,0.0008736019056491195,5.4575645382704566e-05,0.00031445790789534986,0.0013706564256737207,0.0,0.0,0.0,0.0,0.0,0.0,0.0,-7.252932453008509e-05,6.561485552136759e-05,-7.63433493942145e-05,-2.233965504672142e-05,0.00015936069748009873,0.00014853477478027344,-1.955054974711601e-05,-0.0004044158439068235,-0.00011708283721837235,-0.0017770021930294032,-0.0008736019056491195,-5.4575645382704566e-05,-0.00031445790789534986,-0.0013706564256737207,0.2998287081718445,11.651758193969727,-0.9418671131134033,-21.618074417114258,-0.4333396553993225,-2.5271639823913574,0.35098594427108765,0
8,0.03496956825256348,-0.2998287081718445,-11.651758193969727,0.9418671131134033,21.618074417114258,0.4333396553993225,2.5271639823913574,-0.35098594427108765,0.0,0.0,0.0,0.0,0.0,0.0,0.0,-0.2778221720425576,0.6787527278865894,-0.18814921570519524,0.3604444942975608,-0.10408532649501723,0.13511137603382756,-0.3234902712062203,0.1729527669436122,-0.48758586168707463,-0.11139475737956715,-1.9463578466935838,0.1334465412100156,2.5954018250041537,0.9452641095109375,0.1728802376190821,-0.48752024683155326,-0.11147110072896137,-1.9463801863486305,0.1336059019074957,2.595550359778934,0.9452445589611904,0.0004044158439068235,0.00011708283721837235,0.0017770021930294032,0.0008736019056491195,5.4575645382704566e-05,0.00031445790789534986,0.0013706564256737207,0.0,0.0,0.0,0.0,0.0,0.0,0.0,-7.252932453008509e-05,6.561485552136759e-05,-7.63433493942145e-05,-2.233965504672142e-05,0.00015936069748009873,0.00014853477478027344,-1.955054974711601e-05,-0.0004044158439068235,-0.00011708283721837235,-0.0017770021930294032,-0.0008736019056491195,-5.4575645382704566e-05,-0.00031445790789534986,-0.0013706564256737207,0.2998287081718445,11.651758193969727,-0.9418671131134033,-21.618074417114258,-0.4333396553993225,-2.5271639823913574,0.35098594427108765,0
9,0.04079318046569824,-0.2998287081718445,-11.651758193969727,0.9934418201446533,21.669649124145508,0.4269309639930725,2.5335726737976074,-0.35098594427108765,0.0,0.0,0.0,0.0,0.0,0.0,0.0,-0.28019852051003,0.6824217025263496,-0.1962034167775563,0.3596389527823531,-0.10373519929642813,0.13466333029868482,-0.32446506370105693,0.17295182061917708,-0.48758586168707463,-0.11139837665725173,-1.9463623313385219,0.1334472532868385,2.595400053289201,0.9452650749555986,0.1728802376190821,-0.48752024683155326,-0.11147110072896137,-1.9463801863486305,0.1336059019074957,2.595550359778934,0.9452445589611904,0.0007067308819138789,0.0008940028645884763,5.59166137066169e-06,-0.000547028116286565,7.663971303352081e-05,-8.894213005709426e-05,0.002028510097379334,0.0,0.0,0.0,0.0,0.0,0.0,0.0,-7.158300009496577e-05,6.561485552136759e-05,-7.272407170963446e-05,-1.7855010108647207e-05,0.00015864862065717578,0.0001503064897327988,-2.051599440822116e-05,-0.0007067308819138789,-0.0008940028645884763,-5.59166137066169e-06,0.000547028116286565,-7.663971303352081e-05,8.894213005709426e-05,-0.002028510097379334,0.2998287081718445,11.651758193969727,-0.9934418201446533,-21.669649124145508,-0.4269309639930725,-2.5335726737976074,0.35098594427108765,0
10,0.04500889778137207,-0.2998287081718445,-11.651758193969727,0.9934418201446533,21.669649124145508,0.4269309639930725,2.5335726737976074,-0.35098594427108765,0.0,0.0,0.0,0.0,0.0,0.0,0.0,-0.28019852051003,0.6824217025263496,-0.1962034167775563,0.3596389527823531,-0.10373519929642813,0.13466333029868482,-0.32446506370105693,0.17295182061917708,-0.48758586168707463,-0.11139837665725173,-1.9463623313385219,0.1334472532868385,2.595400053289201,0.9452650749555986,0.1728802376190821,-0.48752024683155326,-0.11147110072896137,-1.9463801863486305,0.1336059019074957,2.595550359778934,0.9452445589611904,0.0007067308819138789,0.0008940028645884763,5.59166137066169e-06,-0.000547028116286565,7.663971303352081e-05,-8.894213005709426e-05,0.002028510097379334,0.0,0.0,0.0,0.0,0.0,0.0,0.0,-7.158300009496577e-05,6.561485552136759e-05,-7.272407170963446e-05,-1.7855010108647207e-05,0.00015864862065717578,0.0001503064897327988,-2.051599440822116e-05,-0.0007067308819138789,-0.0008940028645884763,-5.59166137066169e-06,0.000547028116286565,-7.663971303352081e-05,8.894213005709426e-05,-0.002028510097379334,0.2998287081718445,11.651758193969727,-0.9934418201446533,-21.669649124145508,-0.4269309639930725,-2.5335726737976074,0.35098594427108765,0
11,0.05000042915344238,-0.2720577120780945,-11.600183486938477,1.0172455310821533,21.669649124145508,0.4333396553993225,2.5399813652038574,-0.33725303411483765,0.0,0.0,0.0,0.0,0.0,0.0,0.0,-0.2803627165353413,0.6880542381077855,-0.19709116364480384,0.3595178239178581,-0.10447029861076619,0.13441123495661353,-0.3238243037668833,0.17294989553606946,-0.487589480964761,-0.11140004709310698,-1.946362419536571,0.1334465412100156,2.595400400832563,0.9452658119093102,0.1728802376190821,-0.48752024683155326,-0.11147110072896137,-1.9463801863486305,0.1336059019074957,2.595550359778934,0.9452445589611904,-0.00039834457481307536,0.00016488803998427714,-0.00036833868004037,-0.00039090659329693296,-3.2047640257690574e-05,-0.0002133963719314208,0.0005783599358182715,0.0,0.0,0.0,0.0,0.0,0.0,0.0,-6.965791698734791e-05,6.923413320775174e-05,-7.105363585438451e-05,-1.7766812059560877e-05,0.00015936069748009873,0.0001499589463711537,-2.1252948119832027e-05,0.00039834457481307536,-0.00016488803998427714,0.00036833868004037,0.00039090659329693296,3.2047640257690574e-05,0.0002133963719314208,-0.0005783599358182715,0.2720577120780945,11.600183486938477,-1.0172455310821533,-21.669649124145508,-0.4333396553993225,-2.5399813652038574,0.33725303411483765,0
12,0.05499982833862305,-0.2720577120780945,-11.600183486938477,1.0172455310821533,21.669649124145508,0.4333396553993225,2.5399813652038574,-0.33725303411483765,0.0,0.0,0.0,0.0,0.0,0.0,0.0,-0.2803627165353413,0.6880542381077855,-0.19709116364480384,0.3595178239178581,-0.10447029861076619,0.13441123495661353,-0.3238243037668833,0.17294989553606946,-0.487589480964761,-0.11140004709310698,-1.946362419536571,0.1334465412100156,2.595400400832563,0.9452658119093102,0.1728802376190821,-0.48752024683155326,-0.11147110072896137,-1.9463801863486305,0.1336059019074957,2.595550359778934,0.9452445589611904,-0.00039834457481307536,0.00016488803998427714,-0.00036833868004037,-0.00039090659329693296,-3.2047640257690574e-05,-0.0002133963719314208,0.0005783599358182715,0.0,0.0,0.0,0.0,0.0,0.0,0.0,-6.965791698734791e-05,6.923413320775174e-05,-7.105363585438451e-05,-1.7766812059560877e-05,0.00015936069748009873,0.0001499589463711537,-2.1252948119832027e-05,0.00039834457481307536,-0.00016488803998427714,0.00036833868004037,0.00039090659329693296,3.2047640257690574e-05,0.0002133963719314208,-0.0005783599358182715,0.2720577120780945,11.600183486938477,-1.0172455310821533,-21.669649124145508,-0.4333396553993225,-2.5399813652038574,0.33725303411483765,0
13,0.05999946594238281,-0.2720577120780945,-11.600183486938477,0.9934418201446533,21.641878128051758,0.4333396553993225,2.5335726737976074,-0.28964561223983765,0.0,0.0,0.0,0.0,0.0,0.0,0.0,-0.2759277757676905,0.684741027379678,-0.18749518493897763,0.3625638534959449,-0.10483335757416004,0.135407804721894,-0.32356233302777515,0.17295065992769384,-0.487589480964761,-0.11139837665725173,-1.9463604673894082,0.1334465412100156,2.5954011129273304,0.945256825762932,0.1728802376190821,-0.48752024683155326,-0.11147110072896137,-1.9463801863486305,0.1336059019074957,2.595550359778934,0.9452445589611904,0.00024312565161684508,-0.0002419598780750855,0.0008604463946413261,-7.98336675468239e-05,-0.00021810213700518887,0.0001486985542627187,-0.00036988274717010143,0.0,0.0,0.0,0.0,0.0,0.0,0.0,-7.042230861173393e-05,6.923413320775174e-05,-7.272407170963446e-05,-1.9718959222370103e-05,0.00015936069748009873,0.00014924685160355722,-1.2266801741600553e-05,-0.00024312565161684508,0.0002419598780750855,-0.0008604463946413261,7.98336675468239e-05,0.00021810213700518887,-0.0001486985542627187,0.00036988274717010143,0.2720577120780945,11.600183486938477,-0.9934418201446533,-21.641878128051758,-0.4333396553993225,-2.5335726737976074,0.28964561223983765,0
14,0.06499934196472168,-0.2720577120780945,-11.600183486938477,0.9934418201446533,21.641878128051758,0.4333396553993225,2.5335726737976074,-0.28964561223983765,0.0,0.0,0.0,0.0,0.0,0.0,0.0,-0.2759277757676905,0.684741027379678,-0.18749518493897763,0.3625638534959449,-0.10483335757416004,0.135407804721894,-0.32356233302777515,0.17295065992769384,-0.487589480964761,-0.11139837665725173,-1.9463604673894082,0.1334465412100156,2.5954011129273304,0.945256825762932,0.1728802376190821,-0.48752024683155326,-0.11147110072896137,-1.9463801863486305,0.1336059019074957,2.595550359778934,0.9452445589611904,0.00024312565161684508,-0.0002419598780750855,0.0008604463946413261,-7.98336675468239e-05,-0.00021810213700518887,0.0001486985542627187,-0.00036988274717010143,0.0,0.0,0.0,0.0,0.0,0.0,0.0,-7.042230861173393e-05,6.923413320775174e-05,-7.272407170963446e-05,-1.9718959222370103e-05,0.00015936069748009873,0.00014924685160355722,-1.2266801741600553e-05,-0.00024312565161684508,0.0002419598780750855,-0.0008604463946413261,7.98336675468239e-05,0.00021810213700518887,-0.0001486985542627187,0.00036988274717010143,0.2720577120780945,11.600183486938477,-0.9934418201446533,-21.641878128051758,-0.4333396553993225,-2.5335726737976074,0.28964561223983765,0
15,0.06999993324279785,-0.2720577120780945,-11.651758193969727,1.0172455310821533,21.641878128051758,0.4214377999305725,2.5463900566101074,-0.32352012395858765,0.0,0.0,0.0,0.0,0.0,0.0,0.0,-0.2774670925005494,0.6890482792525889,-0.1928421289808591,0.3602955457750128,-0.10375005817763447,0.13589512752909857,-0.322258875562866,0.17295010626994178,-0.48758586168707463,-0.11140004709310698,-1.9463596730241797,0.133447863638401,2.5953996887736848,0.94526105929214,0.1728802376190821,-0.48752024683155326,-0.11147110072896137,-1.9463801863486305,0.1336059019074957,2.595550359778934,0.9452445589611904,2.0920441184689492e-05,0.0003750554314439446,-0.0001857366517761837,-0.00011444348366439903,0.0002896221636722885,-0.0005453934730727115,0.0007635623775495764,0.0,0.0,0.0,0.0,0.0,0.0,0.0,-6.986865085967242e-05,6.561485552136759e-05,-7.105363585438451e-05,-2.0513324450854853e-05,0.0001580382690946902,0.0001506710052492366,-1.6500330949575925e-05,-2.0920441184689492e-05,-0.0003750554314439446,0.0001857366517761837,0.00011444348366439903,-0.0002896221636722885,0.0005453934730727115,-0.0007635623775495764,0.2720577120780945,11.651758193969727,-1.0172455310821533,-21.641878128051758,-0.4214377999305725,-2.5463900566101074,0.32352012395858765,0
16,0.07500219345092773,-0.2720577120780945,-11.651758193969727,1.0172455310821533,21.641878128051758,0.4214377999305725,2.5463900566101074,-0.32352012395858765,0.0,0.0,0.0,0.0,0.0,0.0,0.0,-0.2774670925005494,0.6890482792525889,-0.1928421289808591,0.3602955457750128,-0.10375005817763447,0.13589512752909857,-0.322258875562866,0.17295010626994178,-0.48758586168707463,-0.11140004709310698,-1.9463596730241797,0.133447863638401,2.5953996887736848,0.94526105929214,0.1728802376190821,-0.48752024683155326,-0.11147110072896137,-1.9463801863486305,0.1336059019074957,2.595550359778934,0.9452445589611904,2.0920441184689492e-05,0.0003750554314439446,-0.0001857366517761837,-0.00011444348366439903,0.0002896221636722885,-0.0005453934730727115,0.0007635623775495764,0.0,0.0,0.0,0.0,0.0,0.0,0.0,-6.986865085967242e-05,6.561485552136759e-05,-7.105363585438451e-05,-2.0513324450854853e-05,0.0001580382690946902,0.0001506710052492366,-1.6500330949575925e-05,-2.0920441184689492e-05,-0.0003750554314439446,0.0001857366517761837,0.00011444348366439903,-0.0002896221636722885,0.0005453934730727115,-0.0007635623775495764,0.2720577120780945,11.651758193969727,-1.0172455310821533,-21.641878128051758,-0.4214377999305725,-2.5463900566101074,0.32352012395858765,0
17,0.0800023078918457,-0.2998287081718445,-11.651758193969727,0.9934418201446533,21.669649124145508,0.4333396553993225,2.5399813652038574,-0.33084434270858765,0.0,0.0,0.0,0.0,0.0,0.0,0.0,-0.2768586941555677,0.6927381360444054,-0.19223944395241538,0.3574028070139498,-0.10375395721250087,0.1358906458369316,-0.3212337562819265,0.17295181768534656,-0.48758586168707463,-0.11139837665725173,-1.94635928487978,0.1334461857897264,2.5954004008505076,0.9452625688198578,0.1728802376190821,-0.48752024683155326,-0.11147110072896137,-1.9463801863486305,0.1336059019074957,2.595550359778934,0.9452445589611904,0.00019000118208555762,0.00024228404599179048,0.00024218459687652653,-0.0007005056028085032,-0.00025418257666108595,-0.0001577834726393593,0.000991621619997579,0.0,0.0,0.0,0.0,0.0,0.0,0.0,-7.15800662644539e-05,6.561485552136759e-05,-7.272407170963446e-05,-2.090146885058708e-05,0.0001597161177692985,0.0001499589284263969,-1.8009858667400458e-05,-0.00019000118208555762,-0.00024228404599179048,-0.00024218459687652653,0.0007005056028085032,0.00025418257666108595,0.0001577834726393593,-0.000991621619997579,0.2998287081718445,11.651758193969727,-0.9934418201446533,-21.669649124145508,-0.4333396553993225,-2.5399813652038574,0.33084434270858765,0
18,0.08500552177429199,-0.2998287081718445,-11.651758193969727,0.9934418201446533,21.669649124145508,0.4333396553993225,2.5399813652038574,-0.33084434270858765,0.0,0.0,0.0,0.0,0.0,0.0,0.0,-0.2768586941555677,0.6927381360444054,-0.19223944395241538,0.3574028070139498,-0.10375395721250087,0.1358906458369316,-0.3212337562819265,0.17295181768534656,-0.48758586168707463,-0.11139837665725173,-1.94635928487978,0.1334461857897264,2.5954004008505076,0.9452625688198578,0.1728802376190821,-0.48752024683155326,-0.11147110072896137,-1.9463801863486305,0.1336059019074957,2.595550359778934,0.9452445589611904,0.00019000118208555762,0.00024228404599179048,0.00024218459687652653,-0.0007005056028085032,-0.00025418257666108595,-0.0001577834726393593,0.000991621619997579,0.0,0.0,0.0,0.0,0.0,0.0,0.0,-7.15800662644539e-05,6.561485552136759e-05,-7.272407170963446e-05,-2.090146885058708e-05,0.0001597161177692985,0.0001499589284263969,-1.8009858667400458e-05,-0.00019000118208555762,-0.00024228404599179048,-0.00024218459687652653,0.0007005056028085032,0.00025418257666108595,0.0001577834726393593,-0.000991621619997579,0.2998287081718445,11.651758193969727,-0.9934418201446533,-21.669649124145508,-0.4333396553993225,-2.5399813652038574,0.33084434270858765,0
19,0.0908060073852539,-0.3514034152030945,-11.627954483032227,0.9418671131134033,21.641878128051758,0.4269309639930725,2.5399813652038574,-0.31711143255233765,0.0,0.0,0.0,0.0,0.0,0.0,0.0,-0.2847983771652992,0.6914171136553601,-0.20076040177706508,0.35674352601815307,-0.1039191031242203,0.13588786771093433,-0.3191760857226662,0.1729557007894741,-0.4875875321229299,-0.11139475737956532,-1.946359648586859,0.13344725328483217,2.5954004008505076,0.9452602200295199,0.1728802376190821,-0.48752024683155326,-0.11147110072896137,-1.9463801863486305,0.1336059019074957,2.595550359778934,0.9452445589611904,0.0013068386909279933,-0.00039828950745667284,0.00028072967903734996,0.00010429040668133251,0.00012283590909094037,-0.00023455239077360416,-5.3933975342836545e-05,0.0,0.0,0.0,0.0,0.0,0.0,0.0,-7.546317039197614e-05,6.728529137661754e-05,-7.634334939604637e-05,-2.053776177146638e-05,0.00015864862266351532,0.0001499589284263969,-1.5661068329508865e-05,-0.0013068386909279933,0.00039828950745667284,-0.00028072967903734996,-0.00010429040668133251,-0.00012283590909094037,0.00023455239077360416,5.3933975342836545e-05,0.3514034152030945,11.627954483032227,-0.9418671131134033,-21.641878128051758,-0.4269309639930725,-2.5399813652038574,0.31711143255233765,0
20,0.09500908851623535,-0.3514034152030945,-11.627954483032227,0.9418671131134033,21.641878128051758,0.4269309639930725,2.5399813652038574,-0.31711143255233765,0.0,0.0,0.0,0.0,0.0,0.0,0.0,-0.2847983771652992,0.6914171136553601,-0.20076040177706508,0.35674352601815307,-0.1039191031242203,0.13588786771093433,-0.3191760857226662,0.1729557007894741,-0.4875875321229299,-0.11139475737956532,-1.946359648586859,0.13344725328483217,2.5954004008505076,0.9452602200295199,0.1728802376190821,-0.48752024683155326,-0.11147110072896137,-1.9463801863486305,0.1336059019074957,2.595550359778934,0.9452445589611904,0.0013068386909279933,-0.00039828950745667284,0.00028072967903734996,0.00010429040668133251,0.00012283590909094037,-0.00023455239077360416,-5.3933975342836545e-05,0.0,0.0,0.0,0.0,0.0,0.0,0.0,-7.546317039197614e-05,6.728529137661754e-05,-7.634334939604637e-05,-2.053776177146638e-05,0.00015864862266351532,0.0001499589284263969,-1.5661068329508865e-05,-0.0013068386909279933,0.00039828950745667284,-0.00028072967903734996,-0.00010429040668133251,-0.00012283590909094037,0.00023455239077360416,5.3933975342836545e-05,0.3514034152030945,11.627954483032227,-0.9418671131134033,-21.641878128051758,-0.4269309639930725,-2.5399813652038574,0.31711143255233765,0
21,0.10000848770141602,-0.2998287081718445,-11.675561904907227,0.9696381092071533,21.641878128051758,0.4333396553993225,2.5463900566101074,-0.26858848333358765,0.0,0.0,0.0,0.0,0.0,0.0,0.0,-0.2782158965859922,0.6817253355051531,-0.1907187566847456,0.3602243683545585,-0.10512005078458778,0.13561449503072054,-0.320012633354933,0.1729518441623171,-0.4875841912512194,-0.11139670622139647,-1.9463604708006101,0.1334465455979204,2.5953996887736848,0.9452592552118412,0.1728802376190821,-0.48752024683155326,-0.11147110072896137,-1.9463801863486305,0.1336059019074957,2.595550359778934,0.9452445589611904,0.00038752020917561084,0.0004852284488375685,0.00024799547165899223,0.0004652156632669207,3.280243767860381e-05,-0.0003864236631627039,-0.0014049910927479608,0.0,0.0,0.0,0.0,0.0,0.0,0.0,-7.160654323498661e-05,6.394441966611764e-05,-7.43945075648983e-05,-1.9715548020382556e-05,0.00015935630957528146,0.0001506710052492366,-1.4696250650758635e-05,-0.00038752020917561084,-0.0004852284488375685,-0.00024799547165899223,-0.0004652156632669207,-3.280243767860381e-05,0.0003864236631627039,0.0014049910927479608,0.2998287081718445,11.675561904907227,-0.9696381092071533,-21.641878128051758,-0.4333396553993225,-2.5463900566101074,0.26858848333358765,0
22,0.10580229759216309,-0.2998287081718445,-11.675561904907227,0.9696381092071533,21.641878128051758,0.4333396553993225,2.5463900566101074,-0.26858848333358765,0.0,0.0,0.0,0.0,0.0,0.0,0.0,-0.2782158965859922,0.6817253355051531,-0.1907187566847456,0.3602243683545585,-0.10512005078458778,0.13561449503072054,-0.320012633354933,0.1729518441623171,-0.4875841912512194,-0.11139670622139647,-1.9463604708006101,0.1334465455979204,2.5953996887736848,0.9452592552118412,0.1728802376190821,-0.48752024683155326,-0.11147110072896137,-1.9463801863486305,0.1336059019074957,2.595550359778934,0.9452445589611904,0.00038752020917561084,0.0004852284488375685,0.00024799547165899223,0.0004652156632669207,3.280243767860381e-05,-0.0003864236631627039,-0.0014049910927479608,0.0,0.0,0.0,0.0,0.0,0.0,0.0,-7.160654323498661e-05,6.394441966611764e-05,-7.43945075648983e-05,-1.9715548020382556e-05,0.00015935630957528146,0.0001506710052492366,-1.4696250650758635e-05,-0.00038752020917561084,-0.0004852284488375685,-0.00024799547165899223,-0.0004652156632669207,-3.280243767860381e-05,0.0003864236631627039,0.0014049910927479608,0.2998287081718445,11.675561904907227,-0.9696381092071533,-21.641878128051758,-0.4333396553993225,-2.5463900566101074,0.26858848333358765,0
23,0.1100015640258789,-0.2998287081718445,-11.651758193969727,0.9696381092071533,21.669649124145508,0.4333396553993225,2.5399813652038574,-0.27591270208358765,0.0,0.0,0.0,0.0,0.0,0.0,0.0,-0.2867490679578937,0.6858317997612418,-0.2078083772757083,0.3551444925710168,-0.10436548558162755,0.13519396461506866,-0.31935488398267703,0.17295193198300263,-0.48758586168707463,-0.11139670622139647,-1.9463602444454784,0.13344654121004038,2.5954004008505076,0.945258623901762,0.1728802376190821,-0.48752024683155326,-0.11147110072896137,-1.9463801863486305,0.1336059019074957,2.595550359778934,0.9452445589611904,-0.00010834260138687243,-0.0002898592085984887,-0.00012910100125009316,-0.0007522806123628465,-9.907318065659124e-05,-0.00020690328676784518,-0.0017751586571867805,0.0,0.0,0.0,0.0,0.0,0.0,0.0,-7.169436392051587e-05,6.561485552136759e-05,-7.43945075648983e-05,-1.9941903152131957e-05,0.000159360697455313,0.0001499589284263969,-1.4064940571545392e-05,0.00010834260138687243,0.0002898592085984887,0.00012910100125009316,0.0007522806123628465,9.907318065659124e-05,0.00020690328676784518,0.0017751586571867805,0.2998287081718445,11.651758193969727,-0.9696381092071533,-21.669649124145508,-0.4333396553993225,-2.5399813652038574,0.27591270208358765,0
24,0.11500144004821777,-0.2998287081718445,-11.651758193969727,0.9696381092071533,21.669649124145508,0.4333396553993225,2.5399813652038574,-0.27591270208358765,0.0,0.0,0.0,0.0,0.0,0.0,0.0,-0.2867490679578937,0.6858317997612418,-0.2078083772757083,0.3551444925710168,-0.10436548558162755,0.13519396461506866,-0.31935488398267703,0.17295193198300263,-0.48758586168707463,-0.11139670622139647,-1.9463602444454784,0.13344654121004038,2.5954004008505076,0.945258623901762,0.1728802376190821,-0.48752024683155326,-0.11147110072896137,-1.9463801863486305,0.1336059019074957,2.595550359778934,0.9452445589611904,-0.00010834260138687243,-0.0002898592085984887,-0.00012910100125009316,-0.0007522806123628465,-9.907318065659124e-05,-0.00020690328676784518,-0.0017751586571867805,0.0,0.0,0.0,0.0,0.0,0.0,0.0,-7.169436392051587e-05,6.561485552136759e-05,-7.43945075648983e-05,-1.9941903152131957e-05,0.000159360697455313,0.0001499589284263969,-1.4064940571545392e-05,0.00010834260138687243,0.0002898592085984887,0.00012910100125009316,0.0007522806123628465,9.907318065659124e-05,0.00020690328676784518,0.0017751586571867805,0.2998287081718445,11.651758193969727,-0.9696381092071533,-21.669649124145508,-0.4333396553993225,-2.5399813652038574,0.27591270208358765,0
25,0.11999821662902832,-0.2720577120780945,-11.651758193969727,0.9696381092071533,21.669649124145508,0.4269309639930725,2.5335726737976074,-0.28232139348983765,0.0,0.0,0.0,0.0,0.0,0.0,0.0,-0.2806258786350412,0.6633862348911751,-0.1959505275427501,0.37194594215288457,-0.10428327821073555,0.1390702970787395,-0.3204616069156812,0.172949877632257,-0.48758586168707463,-0.11139670622139647,-1.9463620633332996,0.13344725328683854,2.5954011521731872,0.9452572176241715,0.1728802376190821,-0.48752024683155326,-0.11147110072896137,-1.9463801863486305,0.1336059019074957,2.595550359778934,0.9452445589611904,-0.0001099592349466255,-0.00013925760430131949,0.0008996717106661362,-0.0002869129422443229,0.00017076144253155162,-0.0011060100800778037,-0.0009582984232461353,0.0,0.0,0.0,0.0,0.0,0.0,0.0,-6.964001317488755e-05,6.561485552136759e-05,-7.43945075648983e-05,-1.812301533088423e-05,0.00015864862065714802,0.0001492076057467706,-1.2658662981057667e-05,0.0001099592349466255,0.00013925760430131949,-0.0008996717106661362,0.0002869129422443229,-0.00017076144253155162,0.0011060100800778037,0.0009582984232461353,0.2720577120780945,11.651758193969727,-0.9696381092071533,-21.669649124145508,-0.4269309639930725,-2.5335726737976074,0.28232139348983765,0
26,0.1250009536743164,-0.2720577120780945,-11.651758193969727,0.9696381092071533,21.669649124145508,0.4269309639930725,2.5335726737976074,-0.28232139348983765,0.0,0.0,0.0,0.0,0.0,0.0,0.0,-0.2806258786350412,0.6633862348911751,-0.1959505275427501,0.37194594215288457,-0.10428327821073555,0.1390702970787395,-0.3204616069156812,0.172949877632257,-0.48758586168707463,-0.11139670622139647,-1.9463620633332996,0.13344725328683854,2.5954011521731872,0.9452572176241715,0.1728802376190821,-0.48752024683155326,-0.11147110072896137,-1.9463801863486305,0.1336059019074957,2.595550359778934,0.9452445589611904,-0.0001099592349466255,-0.00013925760430131949,0.0008996717106661362,-0.0002869129422443229,0.00017076144253155162,-0.0011060100800778037,-0.0009582984232461353,0.0,0.0,0.0,0.0,0.0,0.0,0.0,-6.964001317488755e-05,6.561485552136759e-05,-7.43945075648983e-05,-1.812301533088423e-05,0.00015864862065714802,0.0001492076057467706,-1.2658662981057667e-05,0.0001099592349466255,0.00013925760430131949,-0.0008996717106661362,0.0002869129422443229,-0.00017076144253155162,0.0011060100800778037,0.0009582984232461353,0.2720577120780945,11.651758193969727,-0.9696381092071533,-21.669649124145508,-0.4269309639930725,-2.5335726737976074,0.28232139348983765,0
27,0.1311030387878418,-0.2720577120780945,-11.651758193969727,0.9696381092071533,21.669649124145508,0.4269309639930725,2.5335726737976074,-0.28232139348983765,0.0,0.0,0.0,0.0,0.0,0.0,0.0,-0.2806258786350412,0.6633862348911751,-0.1959505275427501,0.37194594215288457,-0.10428327821073555,0.1390702970787395,-0.3204616069156812,0.172949877632257,-0.48758586168707463,-0.11139670622139647,-1.9463620633332996,0.13344725328683854,2.5954011521731872,0.9452572176241715,0.1728802376190821,-0.48752024683155326,-0.11147110072896137,-1.9463801863486305,0.1336059019074957,2.595550359778934,0.9452445589611904,-0.0001099592349466255,-0.00013925760430131949,0.0008996717106661362,-0.0002869129422443229,0.00017076144253155162,-0.0011060100800778037,-0.0009582984232461353,0.0,0.0,0.0,0.0,0.0,0.0,0.0,-6.964001317488755e-05,6.561485552136759e-05,-7.43945075648983e-05,-1.812301533088423e-05,0.00015864862065714802,0.0001492076057467706,-1.2658662981057667e-05,0.0001099592349466255,0.00013925760430131949,-0.0008996717106661362,0.0002869129422443229,-0.00017076144253155162,0.0011060100800778037,0.0009582984232461353,0.2720577120780945,11.651758193969727,-0.9696381092071533,-21.669649124145508,-0.4269309639930725,-2.5335726737976074,0.28232139348983765,0
28,0.1357874870300293,-0.2720577120780945,-11.651758193969727,0.9696381092071533,21.669649124145508,0.4269309639930725,2.5335726737976074,-0.28232139348983765,0.0,0.0,0.0,0.0,0.0,0.0,0.0,-0.2806258786350412,0.6633862348911751,-0.1959505275427501,0.37194594215288457,-0.10428327821073555,0.1390702970787395,-0.3204616069156812,0.172949877632257,-0.48758586168707463,-0.11139670622139647,-1.9463620633332996,0.13344725328683854,2.5954011521731872,0.9452572176241715,0.1728802376190821,-0.48752024683155326,-0.11147110072896137,-1.9463801863486305,0.1336059019074957,2.595550359778934,0.9452445589611904,-0.0001099592349466255,-0.00013925760430131949,0.0008996717106661362,-0.0002869129422443229,0.00017076144253155162,-0.0011060100800778037,-0.0009582984232461353,0.0,0.0,0.0,0.0,0.0,0.0,0.0,-6.964001317488755e-05,6.561485552136759e-05,-7.43945075648983e-05,-1.812301533088423e-05,0.00015864862065714802,0.0001492076057467706,-1.2658662981057667e-05,0.0001099592349466255,0.00013925760430131949,-0.0008996717106661362,0.0002869129422443229,-0.00017076144253155162,0.0011060100800778037,0.0009582984232461353,0.2720577120780945,11.651758193969727,-0.9696381092071533,-21.669649124145508,-0.4269309639930725,-2.5335726737976074,0.28232139348983765,0
29,0.1400003433227539,-0.24825400114059448,-11.627954483032227,0.9934418201446533,21.594270706176758,0.4269309639930725,2.5399813652038574,-0.31711143255233765,0.0,0.0,0.0,0.0,0.0,0.0,0.0,-0.2763634745081712,0.6908798379366127,-0.19375141903539428,0.3540903448714536,-0.10395405573624515,0.135052870729854,-0.3194231448514015,0.1729482251002141,-0.4875875321229299,-0.11139837665725173,-1.9463549723905609,0.13344725328683854,2.595400400850729,0.9452599851790956,0.1728802376190821,-0.48752024683155326,-0.11147110072896137,-1.9463801863486305,0.1336059019074957,2.595550359778934,0.9452445589611904,-0.0004771012786307693,-3.3293615174365415e-05,0.0008492070355835728,0.001385583797862214,-1.7119372467776812e-05,-0.00019554284272928319,0.0006678991769166536,0.0,0.0,0.0,0.0,0.0,0.0,0.0,-6.798748113198694e-05,6.728529137661754e-05,-7.272407170963446e-05,-2.5213958069647546e-05,0.00015864862065714802,0.0001499589282047964,-1.542621790517895e-05,0.0004771012786307693,3.3293615174365415e-05,-0.0008492070355835728,-0.001385583797862214,1.7119372467776812e-05,0.00019554284272928319,-0.0006678991769166536,0.24825400114059448,11.627954483032227,-0.9934418201446533,-21.594270706176758,-0.4269309639930725,-2.5399813652038574,0.31711143255233765,0
30,0.14500832557678223,-0.24825400114059448,-11.627954483032227,0.9934418201446533,21.594270706176758,0.4269309639930725,2.5399813652038574,-0.31711143255233765,0.0,0.0,0.0,0.0,0.0,0.0,0.0,-0.2763634745081712,0.6908798379366127,-0.19375141903539428,0.3540903448714536,-0.10395405573624515,0.135052870729854,-0.3194231448514015,0.1729482251002141,-0.4875875321229299,-0.11139837665725173,-1.9463549723905609,0.13344725328683854,2.595400400850729,0.9452599851790956,0.1728802376190821,-0.48752024683155326,-0.11147110072896137,-1.9463801863486305,0.1336059019074957,2.595550359778934,0.9452445589611904,-0.0004771012786307693,-3.3293615174365415e-05,0.0008492070355835728,0.001385583797862214,-1.7119372467776812e-05,-0.00019554284272928319,0.0006678991769166536,0.0,0.0,0.0,0.0,0.0,0.0,0.0,-6.798748113198694e-05,6.728529137661754e-05,-7.272407170963446e-05,-2.5213958069647546e-05,0.00015864862065714802,0.0001499589282047964,-1.542621790517895e-05,0.0004771012786307693,3.3293615174365415e-05,-0.0008492070355835728,-0.001385583797862214,1.7119372467776812e-05,0.00019554284272928319,-0.0006678991769166536,0.24825400114059448,11.627954483032227,-0.9934418201446533,-21.594270706176758,-0.4269309639930725,-2.5399813652038574,0.31711143255233765,0
31,0.15001583099365234,-0.2998287081718445,-11.627954483032227,1.0410492420196533,21.618074417114258,0.4269309639930725,2.5335726737976074,-0.33084434270858765,0.0,0.0,0.0,0.0,0.0,0.0,0.0,-0.2805353013806938,0.6827412596691105,-0.20118136332727504,0.3606188218214806,-0.10264985419128174,0.13633212503787573,-0.3191145428833167,0.17295181768415696,-0.4875875321229299,-0.11140171752896225,-1.946356416171426,0.13344725328683854,2.595401112927331,0.9452628099039271,0.1728802376190821,-0.48752024683155326,-0.11147110072896137,-1.9463801863486305,0.1336059019074957,2.595550359778934,0.9452445589611904,0.0008914664186211968,0.00036835720378138525,-0.0007371244726595997,0.0013915467375394265,-0.0019389864467047838,0.00011550759011966412,0.0008462608790372091,0.0,0.0,0.0,0.0,0.0,0.0,0.0,-7.158006507484993e-05,6.728529137661754e-05,-6.938319999912068e-05,-2.377017720456287e-05,0.00015864862065714802,0.00014924685160311313,-1.8250942736663944e-05,-0.0008914664186211968,-0.00036835720378138525,0.0007371244726595997,-0.0013915467375394265,0.0019389864467047838,-0.00011550759011966412,-0.0008462608790372091,0.2998287081718445,11.627954483032227,-1.0410492420196533,-21.618074417114258,-0.4269309639930725,-2.5335726737976074,0.33084434270858765,0
32,0.15578842163085938,-0.2998287081718445,-11.627954483032227,1.0410492420196533,21.618074417114258,0.4269309639930725,2.5335726737976074,-0.33084434270858765,0.0,0.0,0.0,0.0,0.0,0.0,0.0,-0.2805353013806938,0.6827412596691105,-0.20118136332727504,0.3606188218214806,-0.10264985419128174,0.13633212503787573,-0.3191145428833167,0.17295181768415696,-0.4875875321229299,-0.11140171752896225,-1.946356416171426,0.13344725328683854,2.595401112927331,0.9452628099039271,0.1728802376190821,-0.48752024683155326,-0.11147110072896137,-1.9463801863486305,0.1336059019074957,2.595550359778934,0.9452445589611904,0.0008914664186211968,0.00036835720378138525,-0.0007371244726595997,0.0013915467375394265,-0.0019389864467047838,0.00011550759011966412,0.0008462608790372091,0.0,0.0,0.0,0.0,0.0,0.0,0.0,-7.158006507484993e-05,6.728529137661754e-05,-6.938319999912068e-05,-2.377017720456287e-05,0.00015864862065714802,0.00014924685160311313,-1.8250942736663944e-05,-0.0008914664186211968,-0.00036835720378138525,0.0007371244726595997,-0.0013915467375394265,0.0019389864467047838,-0.00011550759011966412,-0.0008462608790372091,0.2998287081718445,11.627954483032227,-1.0410492420196533,-21.618074417114258,-0.4269309639930725,-2.5335726737976074,0.33084434270858765,0
33,0.1600041389465332,-0.2998287081718445,-11.600183486938477,0.9934418201446533,21.594270706176758,0.4333396553993225,2.5335726737976074,-0.30978721380233765,0.0,0.0,0.0,0.0,0.0,0.0,0.0,-0.27474513881274165,0.6953271622746531,-0.19178250912618772,0.35545138394067577,-0.10353338958572145,0.13550949854023528,-0.320293503080816,0.1729520551073072,-0.487589480964761,-0.11139837665725173,-1.94635416293332,0.13344654121001562,2.595401112927331,0.9452590576499522,0.1728802376190821,-0.48752024683155326,-0.11147110072896137,-1.9463801863486305,0.1336059019074957,2.595550359778934,0.9452445589611904,0.0008439242898160541,-0.00011358858206916875,0.0005783895134968549,0.001293470209643973,-0.00014924481074038028,-0.00014169349931935623,-0.0003890544698264514,0.0,0.0,0.0,0.0,0.0,0.0,0.0,-7.181748822510103e-05,6.923413320775174e-05,-7.272407170963446e-05,-2.6023415310438835e-05,0.00015936069748007098,0.00014924685160311313,-1.4498688761799272e-05,-0.0008439242898160541,0.00011358858206916875,-0.0005783895134968549,-0.001293470209643973,0.00014924481074038028,0.00014169349931935623,0.0003890544698264514,0.2998287081718445,11.600183486938477,-0.9934418201446533,-21.594270706176758,-0.4333396553993225,-2.5335726737976074,0.30978721380233765,0
34,0.16500544548034668,-0.2998287081718445,-11.600183486938477,0.9934418201446533,21.594270706176758,0.4333396553993225,2.5335726737976074,-0.30978721380233765,0.0,0.0,0.0,0.0,0.0,0.0,0.0,-0.27474513881274165,0.6953271622746531,-0.19178250912618772,0.35545138394067577,-0.10353338958572145,0.13550949854023528,-0.320293503080816,0.1729520551073072,-0.487589480964761,-0.11139837665725173,-1.94635416293332,0.13344654121001562,2.595401112927331,0.9452590576499522,0.1728802376190821,-0.48752024683155326,-0.11147110072896137,-1.9463801863486305,0.1336059019074957,2.595550359778934,0.9452445589611904,0.0008439242898160541,-0.00011358858206916875,0.0005783895134968549,0.001293470209643973,-0.00014924481074038028,-0.00014169349931935623,-0.0003890544698264514,0.0,0.0,0.0,0.0,0.0,0.0,0.0,-7.181748822510103e-05,6.923413320775174e-05,-7.272407170963446e-05,-2.6023415310438835e-05,0.00015936069748007098,0.00014924685160311313,-1.4498688761799272e-05,-0.0008439242898160541,0.00011358858206916875,-0.0005783895134968549,-0.001293470209643973,0.00014924481074038028,0.00014169349931935623,0.0003890544698264514,0.2998287081718445,11.600183486938477,-0.9934418201446533,-21.594270706176758,-0.4333396553993225,-2.5335726737976074,0.30978721380233765,0
35,0.17079687118530273,-0.2720577120780945,-11.576379776000977,1.0172455310821533,21.641878128051758,0.4214377999305725,2.5335726737976074,-0.30337852239608765,0.0,0.0,0.0,0.0,0.0,0.0,0.0,-0.2695207435939635,0.6977926501529039,-0.18368199932997142,0.35716269229427194,-0.10370099520655893,0.13533886512540277,-0.3212443186270847,0.17294986884619593,-0.4875911514006163,-0.11140004709310698,-1.9463601430521023,0.13344786363840103,2.595401112927331,0.9452588164810484,0.1728802376190821,-0.48752024683155326,-0.11147110072896137,-1.9463801863486305,0.1336059019074957,2.595550359778934,0.9452445589611904,0.00020213899858476382,-0.0005594182535508982,-1.5387298809393124e-07,4.967023320061437e-06,0.000569735099325342,0.0001541504626057176,-0.0007371947750273819,0.0,0.0,0.0,0.0,0.0,0.0,0.0,-6.963122711381442e-05,7.09045690630572e-05,-7.105363585438451e-05,-2.0043296528271526e-05,0.00015803826909466245,0.00014924685160311313,-1.4257519857951984e-05,-0.00020213899858476382,0.0005594182535508982,1.5387298809393124e-07,-4.967023320061437e-06,-0.000569735099325342,-0.0001541504626057176,0.0007371947750273819,0.2720577120780945,11.576379776000977,-1.0172455310821533,-21.641878128051758,-0.4214377999305725,-2.5335726737976074,0.30337852239608765,0
36,0.17553329467773438,-0.2720577120780945,-11.576379776000977,1.0172455310821533,21.641878128051758,0.4214377999305725,2.5335726737976074,-0.30337852239608765,0.0,0.0,0.0,0.0,0.0,0.0,0.0,-0.2695207435939635,0.6977926501529039,-0.18368199932997142,0.35716269229427194,-0.10370099520655893,0.13533886512540277,-0.3212443186270847,0.17294986884619593,-0.4875911514006163,-0.11140004709310698,-1.9463601430521023,0.13344786363840103,2.595401112927331,0.9452588164810484,0.1728802376190821,-0.48752024683155326,-0.11147110072896137,-1.9463801863486305,0.1336059019074957,2.595550359778934,0.9452445589611904,0.00020213899858476382,-0.0005594182535508982,-1.5387298809393124e-07,4.967023320061437e-06,0.000569735099325342,0.0001541504626057176,-0.0007371947750273819,0.0,0.0,0.0,0.0,0.0,0.0,0.0,-6.963122711381442e-05,7.09045690630572e-05,-7.105363585438451e-05,-2.0043296528271526e-05,0.00015803826909466245,0.00014924685160311313,-1.4257519857951984e-05,-0.00020213899858476382,0.0005594182535508982,1.5387298809393124e-07,-4.967023320061437e-06,-0.000569735099325342,-0.0001541504626057176,0.0007371947750273819,0.2720577120780945,11.576379776000977,-1.0172455310821533,-21.641878128051758,-0.4214377999305725,-2.5335726737976074,0.30337852239608765,0
37,0.18000388145446777,-0.3236324191093445,-11.627954483032227,1.0410492420196533,21.669649124145508,0.4333396553993225,2.5399813652038574,-0.33725303411483765,0.0,0.0,0.0,0.0,0.0,0.0,0.0,-0.27222462718765217,0.6877326380853043,-0.1875601486934493,0.36559686781089173,-0.10274639486536999,0.13689033448587717,-0.3217305134933105,0.17295372644742552,-0.4875875321229299,-0.11140171752896225,-1.9463595497447475,0.13344654121001562,2.595400400850508,0.9452621949863207,0.1728802376190821,-0.48752024683155326,-0.11147110072896137,-1.9463801863486305,0.1336059019074957,2.595550359778934,0.9452445589611904,0.0014397177279901281,-0.0002835353672769698,-0.0009374539080586085,-0.0001961468268174318,-8.83453067996176e-05,-3.849848003834935e-05,0.001199332824500937,0.0,0.0,0.0,0.0,0.0,0.0,0.0,-7.348882834340431e-05,6.728529137661754e-05,-6.938319999912068e-05,-2.063660388307298e-05,0.00015936069748007098,0.00014995892842595282,-1.763602513027429e-05,-0.0014397177279901281,0.0002835353672769698,0.0009374539080586085,0.0001961468268174318,8.83453067996176e-05,3.849848003834935e-05,-0.001199332824500937,0.3236324191093445,11.627954483032227,-1.0410492420196533,-21.669649124145508,-0.4333396553993225,-2.5399813652038574,0.33725303411483765,0
38,0.18561315536499023,-0.3236324191093445,-11.627954483032227,1.0410492420196533,21.669649124145508,0.4333396553993225,2.5399813652038574,-0.33725303411483765,0.0,0.0,0.0,0.0,0.0,0.0,0.0,-0.27222462718765217,0.6877326380853043,-0.1875601486934493,0.36559686781089173,-0.10274639486536999,0.13689033448587717,-0.3217305134933105,0.17295372644742552,-0.4875875321229299,-0.11140171752896225,-1.9463595497447475,0.13344654121001562,2.595400400850508,0.9452621949863207,0.1728802376190821,-0.48752024683155326,-0.11147110072896137,-1.9463801863486305,0.1336059019074957,2.595550359778934,0.9452445589611904,0.0014397177279901281,-0.0002835353672769698,-0.0009374539080586085,-0.0001961468268174318,-8.83453067996176e-05,-3.849848003834935e-05,0.001199332824500937,0.0,0.0,0.0,0.0,0.0,0.0,0.0,-7.348882834340431e-05,6.728529137661754e-05,-6.938319999912068e-05,-2.063660388307298e-05,0.00015936069748007098,0.00014995892842595282,-1.763602513027429e-05,-0.0014397177279901281,0.0002835353672769698,0.0009374539080586085,0.0001961468268174318,8.83453067996176e-05,3.849848003834935e-05,-0.001199332824500937,0.3236324191093445,11.627954483032227,-1.0410492420196533,-21.669649124145508,-0.4333396553993225,-2.5399813652038574,0.33725303411483765,0
39,0.1900019645690918,-0.2720577120780945,-11.675561904907227,0.9180634021759033,21.669649124145508,0.4388328194618225,2.5207552909851074,-0.33725303411483765,0.0,0.0,0.0,0.0,0.0,0.0,0.0,-0.2748091000562815,0.702446714918054,-0.19012653490966275,0.35210634749870123,-0.10239912422291211,0.13436109796379617,-0.3214440689924282,0.17294994805696187,-0.4875841912512194,-0.11139308694371006,-1.9463623401580223,0.1334459308584531,2.5954025370809766,0.9452653560339527,0.1728802376190821,-0.48752024683155326,-0.11147110072896137,-1.9463801863486305,0.1336059019074957,2.595550359778934,0.9452445589611904,-0.0005740591135063088,0.0004599729141861274,0.0017941638849155303,-0.0006575896881839073,8.4811965551103e-06,0.0018189134601835242,0.0008554545936828171,0.0,0.0,0.0,0.0,0.0,0.0,0.0,-6.971043787976083e-05,6.394441966611764e-05,-7.80137852513102e-05,-1.784619060818393e-05,0.0001599710490425843,0.00014782269795743375,-2.0797072762257507e-05,0.0005740591135063088,-0.0004599729141861274,-0.0017941638849155303,0.0006575896881839073,-8.4811965551103e-06,-0.0018189134601835242,-0.0008554545936828171,0.2720577120780945,11.675561904907227,-0.9180634021759033,-21.669649124145508,-0.4388328194618225,-2.5207552909851074,0.33725303411483765,0
40,0.19500041007995605,-0.2720577120780945,-11.675561904907227,0.9180634021759033,21.669649124145508,0.4388328194618225,2.5207552909851074,-0.33725303411483765,0.0,0.0,0.0,0.0,0.0,0.0,0.0,-0.2748091000562815,0.702446714918054,-0.19012653490966275,0.35210634749870123,-0.10239912422291211,0.13436109796379617,-0.3214440689924282,0.17294994805696187,-0.4875841912512194,-0.11139308694371006,-1.9463623401580223,0.1334459308584531,2.5954025370809766,0.9452653560339527,0.1728802376190821,-0.48752024683155326,-0.11147110072896137,-1.9463801863486305,0.1336059019074957,2.595550359778934,0.9452445589611904,-0.0005740591135063088,0.0004599729141861274,0.0017941638849155303,-0.0006575896881839073,8.4811965551103e-06,0.0018189134601835242,0.0008554545936828171,0.0,0.0,0.0,0.0,0.0,0.0,0.0,-6.971043787976083e-05,6.394441966611764e-05,-7.80137852513102e-05,-1.784619060818393e-05,0.0001599710490425843,0.00014782269795743375,-2.0797072762257507e-05,0.0005740591135063088,-0.0004599729141861274,-0.0017941638849155303,0.0006575896881839073,-8.4811965551103e-06,-0.0018189134601835242,-0.0008554545936828171,0.2720577120780945,11.675561904907227,-0.9180634021759033,-21.669649124145508,-0.4388328194618225,-2.5207552909851074,0.33725303411483765,0
41,0.20079565048217773,-0.24825400114059448,-11.627954483032227,0.9418671131134033,21.641878128051758,0.4269309639930725,2.5335726737976074,-0.28964561223983765,0.0,0.0,0.0,0.0,0.0,0.0,0.0,-0.27944848722213766,0.6948970162888141,-0.1937137342823197,0.3586259470715402,-0.1016440131179034,0.13759469759140355,-0.32133272755783915,0.17294822879000482,-0.4875875321229299,-0.11139475737956532,-1.9463597452651975,0.13344725328683854,2.595401112927331,0.9452612776180139,0.1728802376190821,-0.48752024683155326,-0.11147110072896137,-1.9463801863486305,0.1336059019074957,2.595550359778934,0.9452445589611904,-0.001269766288893127,-0.00042692839642305376,0.000790144413423164,0.00030697731304555985,7.261886436452578e-05,0.00026616817477760233,-0.0007322473193090938,0.0,0.0,0.0,0.0,0.0,0.0,0.0,-6.79911709227099e-05,6.728529137661754e-05,-7.634334939604637e-05,-2.0441083433020424e-05,0.00015864862065714802,0.00014924685160311313,-1.6718656823511147e-05,0.001269766288893127,0.00042692839642305376,-0.000790144413423164,-0.00030697731304555985,-7.261886436452578e-05,-0.00026616817477760233,0.0007322473193090938,0.24825400114059448,11.627954483032227,-0.9418671131134033,-21.641878128051758,-0.4269309639930725,-2.5335726737976074,0.28964561223983765,0
42,0.20500540733337402,-0.24825400114059448,-11.627954483032227,0.9418671131134033,21.641878128051758,0.4269309639930725,2.5335726737976074,-0.28964561223983765,0.0,0.0,0.0,0.0,0.0,0.0,0.0,-0.27944848722213766,0.6948970162888141,-0.1937137342823197,0.3586259470715402,-0.1016440131179034,0.13759469759140355,-0.32133272755783915,0.17294822879000482,-0.4875875321229299,-0.11139475737956532,-1.9463597452651975,0.13344725328683854,2.595401112927331,0.9452612776180139,0.1728802376190821,-0.48752024683155326,-0.11147110072896137,-1.9463801863486305,0.1336059019074957,2.595550359778934,0.9452445589611904,-0.001269766288893127,-0.00042692839642305376,0.000790144413423164,0.00030697731304555985,7.261886436452578e-05,0.00026616817477760233,-0.0007322473193090938,0.0,0.0,0.0,0.0,0.0,0.0,0.0,-6.79911709227099e-05,6.728529137661754e-05,-7.634334939604637e-05,-2.0441083433020424e-05,0.00015864862065714802,0.00014924685160311313,-1.6718656823511147e-05,0.001269766288893127,0.00042692839642305376,-0.000790144413423164,-0.00030697731304555985,-7.261886436452578e-05,-0.00026616817477760233,0.0007322473193090938,0.24825400114059448,11.627954483032227,-0.9418671131134033,-21.641878128051758,-0.4269309639930725,-2.5335726737976074,0.28964561223983765,0
43,0.2100050449371338,-0.2720577120780945,-11.627954483032227,0.9934418201446533,21.618074417114258,0.4269309639930725,2.5335726737976074,-0.28964561223983765,0.0,0.0,0.0,0.0,0.0,0.0,0.0,-0.28357690063473695,0.6868939434325134,-0.19948832346509374,0.3614224606723589,-0.1019283978122955,0.13856493459447752,-0.3205287549919952,0.17295011791255543,-0.4875875321229299,-0.11139837665725173,-1.9463580758431804,0.13344725328683854,2.595401112927331,0.9452572950963679,0.1728802376190821,-0.48752024683155326,-0.11147110072896137,-1.9463801863486305,0.1336059019074957,2.595550359778934,0.9452445589611904,-0.0007509365899324816,-0.0006110742272360819,-0.0005860809355240486,0.0008928224203828722,7.319174308760822e-05,0.0002681534737346297,-0.0010758753038513284,0.0,0.0,0.0,0.0,0.0,0.0,0.0,-6.988029347332336e-05,6.728529137661754e-05,-7.272407170963446e-05,-2.21105054500903e-05,0.00015864862065714802,0.00014924685160311313,-1.2736135177493502e-05,0.0007509365899324816,0.0006110742272360819,0.0005860809355240486,-0.0008928224203828722,-7.319174308760822e-05,-0.0002681534737346297,0.0010758753038513284,0.2720577120780945,11.627954483032227,-0.9934418201446533,-21.618074417114258,-0.4269309639930725,-2.5335726737976074,0.28964561223983765,0
44,0.2150273323059082,-0.2720577120780945,-11.627954483032227,0.9934418201446533,21.618074417114258,0.4269309639930725,2.5335726737976074,-0.28964561223983765,0.0,0.0,0.0,0.0,0.0,0.0,0.0,-0.28357690063473695,0.6868939434325134,-0.19948832346509374,0.3614224606723589,-0.1019283978122955,0.13856493459447752,-0.3205287549919952,0.17295011791255543,-0.4875875321229299,-0.11139837665725173,-1.9463580758431804,0.13344725328683854,2.595401112927331,0.9452572950963679,0.1728802376190821,-0.48752024683155326,-0.11147110072896137,-1.9463801863486305,0.1336059019074957,2.595550359778934,0.9452445589611904,-0.0007509365899324816,-0.0006110742272360819,-0.0005860809355240486,0.0008928224203828722,7.319174308760822e-05,0.0002681534737346297,-0.0010758753038513284,0.0,0.0,0.0,0.0,0.0,0.0,0.0,-6.988029347332336e-05,6.728529137661754e-05,-7.272407170963446e-05,-2.21105054500903e-05,0.00015864862065714802,0.00014924685160311313,-1.2736135177493502e-05,0.0007509365899324816,0.0006110742272360819,0.0005860809355240486,-0.0008928224203828722,-7.319174308760822e-05,-0.0002681534737346297,0.0010758753038513284,0.2720577120780945,11.627954483032227,-0.9934418201446533,-21.618074417114258,-0.4269309639930725,-2.5335726737976074,0.28964561223983765,0
45,0.22000432014465332,-0.2720577120780945,-11.651758193969727,0.9934418201446533,21.669649124145508,0.4333396553993225,2.5271639823913574,-0.27591270208358765,0.0,0.0,0.0,0.0,0.0,0.0,0.0,-0.27384887966571164,0.7801468214618539,-0.19174509703674852,0.3143331243312863,-0.10387154628162751,0.13079706795357166,-0.3211226339238943,0.17294986916911584,-0.48758588817802784,-0.11139837665725173,-1.9463616739717167,0.13344654121001562,2.5954018250041537,0.9452552582182336,0.1728802376190821,-0.48752024683155326,-0.11147110072896137,-1.9463801863486305,0.1336059019074957,2.595550359778934,0.9452445589611904,-0.0004566517022260661,-0.002017541449128128,0.00027217248790237193,-0.0006921546759169939,-1.7103548945162209e-06,0.00013283886883771657,-0.0013230515706199985,0.0,0.0,0.0,0.0,0.0,0.0,0.0,-6.963155003372745e-05,6.564134647457642e-05,-7.272407170963446e-05,-1.851237691385954e-05,0.00015936069748007098,0.00014853477478027344,-1.0699257043222943e-05,0.0004566517022260661,0.002017541449128128,-0.00027217248790237193,0.0006921546759169939,1.7103548945162209e-06,-0.00013283886883771657,0.0013230515706199985,0.2720577120780945,11.651758193969727,-0.9934418201446533,-21.669649124145508,-0.4333396553993225,-2.5271639823913574,0.27591270208358765,0
46,0.2250196933746338,-0.2720577120780945,-11.651758193969727,0.9934418201446533,21.669649124145508,0.4333396553993225,2.5271639823913574,-0.27591270208358765,0.0,0.0,0.0,0.0,0.0,0.0,0.0,-0.27384887966571164,0.7801468214618539,-0.19174509703674852,0.3143331243312863,-0.10387154628162751,0.13079706795357166,-0.3211226339238943,0.17294986916911584,-0.48758588817802784,-0.11139837665725173,-1.9463616739717167,0.13344654121001562,2.5954018250041537,0.9452552582182336,0.1728802376190821,-0.48752024683155326,-0.11147110072896137,-1.9463801863486305,0.1336059019074957,2.595550359778934,0.9452445589611904,-0.0004566517022260661,-0.002017541449128128,0.00027217248790237193,-0.0006921546759169939,-1.7103548945162209e-06,0.00013283886883771657,-0.0013230515706199985,0.0,0.0,0.0,0.0,0.0,0.0,0.0,-6.963155003372745e-05,6.564134647457642e-05,-7.272407170963446e-05,-1.851237691385954e-05,0.00015936069748007098,0.00014853477478027344,-1.0699257043222943e-05,0.0004566517022260661,0.002017541449128128,-0.00027217248790237193,0.0006921546759169939,1.7103548945162209e-06,-0.00013283886883771657,0.0013230515706199985,0.2720577120780945,11.651758193969727,-0.9934418201446533,-21.669649124145508,-0.4333396553993225,-2.5271639823913574,0.27591270208358765,0
47,0.23000288009643555,-0.2720577120780945,-11.651758193969727,0.9934418201446533,21.618074417114258,0.4333396553993225,2.5463900566101074,-0.33084434270858765,0.0,0.0,0.0,0.0,0.0,0.0,0.0,-0.279439147080285,0.7042678205003974,-0.19499823413722983,0.3524841105051477,-0.10349701346747546,0.1359364609127569,-0.32102925109735486,0.17294989651262568,-0.4875858616872242,-0.11139837665725173,-1.9463565718182885,0.1334465280463012,2.595399688773685,0.9452618710522884,0.1728802376190821,-0.48752024683155326,-0.11147110072896137,-1.9463801863486305,0.1336059019074957,2.595550359778934,0.9452445589611904,4.1592333702531907e-05,-3.0278046993992435e-05,0.0002528062510749345,0.0016015669621064809,-0.000296448699465212,-0.00042253181010101695,0.0009518530092624078,0.0,0.0,0.0,0.0,0.0,0.0,0.0,-6.965889354357269e-05,6.561485567091463e-05,-7.272407170963446e-05,-2.3614530342053186e-05,0.00015937386119449504,0.0001506710052487925,-1.7312091098009574e-05,-4.1592333702531907e-05,3.0278046993992435e-05,-0.0002528062510749345,-0.0016015669621064809,0.000296448699465212,0.00042253181010101695,-0.0009518530092624078,0.2720577120780945,11.651758193969727,-0.9934418201446533,-21.618074417114258,-0.4333396553993225,-2.5463900566101074,0.33084434270858765,0
48,0.23502421379089355,-0.2720577120780945,-11.651758193969727,0.9934418201446533,21.618074417114258,0.4333396553993225,2.5463900566101074,-0.33084434270858765,0.0,0.0,0.0,0.0,0.0,0.0,0.0,-0.279439147080285,0.7042678205003974,-0.19499823413722983,0.3524841105051477,-0.10349701346747546,0.1359364609127569,-0.32102925109735486,0.17294989651262568,-0.4875858616872242,-0.11139837665725173,-1.9463565718182885,0.1334465280463012,2.595399688773685,0.9452618710522884,0.1728802376190821,-0.48752024683155326,-0.11147110072896137,-1.9463801863486305,0.1336059019074957,2.595550359778934,0.9452445589611904,4.1592333702531907e-05,-3.0278046993992435e-05,0.0002528062510749345,0.0016015669621064809,-0.000296448699465212,-0.00042253181010101695,0.0009518530092624078,0.0,0.0,0.0,0.0,0.0,0.0,0.0,-6.965889354357269e-05,6.561485567091463e-05,-7.272407170963446e-05,-2.3614530342053186e-05,0.00015937386119449504,0.0001506710052487925,-1.7312091098009574e-05,-4.1592333702531907e-05,3.0278046993992435e-05,-0.0002528062510749345,-0.0016015669621064809,0.000296448699465212,0.00042253181010101695,-0.0009518530092624078,0.2720577120780945,11.651758193969727,-0.9934418201446533,-21.618074417114258,-0.4333396553993225,-2.5463900566101074,0.33084434270858765,0
49,0.23999929428100586,-0.2720577120780945,-11.651758193969727,0.9934418201446533,21.618074417114258,0.4333396553993225,2.5463900566101074,-0.33084434270858765,0.0,0.0,0.0,0.0,0.0,0.0,0.0,-0.279439147080285,0.7042678205003974,-0.19499823413722983,0.3524841105051477,-0.10349701346747546,0.1359364609127569,-0.32102925109735486,0.17294989651262568,-0.4875858616872242,-0.11139837665725173,-1.9463565718182885,0.1334465280463012,2.595399688773685,0.9452618710522884,0.1728802376190821,-0.48752024683155326,-0.11147110072896137,-1.9463801863486305,0.1336059019074957,2.595550359778934,0.9452445589611904,4.1592333702531907e-05,-3.0278046993992435e-05,0.0002528062510749345,0.0016015669621064809,-0.000296448699465212,-0.00042253181010101695,0.0009518530092624078,0.0,0.0,0.0,0.0,0.0,0.0,0.0,-6.965889354357269e-05,6.561485567091463e-05,-7.272407170963446e-05,-2.3614530342053186e-05,0.00015937386119449504,0.0001506710052487925,-1.7312091098009574e-05,-4.1592333702531907e-05,3.0278046993992435e-05,-0.0002528062510749345,-0.0016015669621064809,0.000296448699465212,0.00042253181010101695,-0.0009518530092624078,0.2720577120780945,11.651758193969727,-0.9934418201446533,-21.618074417114258,-0.4333396553993225,-2.5463900566101074,0.33084434270858765,0
50,0.24535846710205078,-0.2720577120780945,-11.651758193969727,0.9934418201446533,21.618074417114258,0.4333396553993225,2.5463900566101074,-0.33084434270858765,0.0,0.0,0.0,0.0,0.0,0.0,0.0,-0.279439147080285,0.7042678205003974,-0.19499823413722983,0.3524841105051477,-0.10349701346747546,0.1359364609127569,-0.32102925109735486,0.17294989651262568,-0.4875858616872242,-0.11139837665725173,-1.9463565718182885,0.1334465280463012,2.595399688773685,0.9452618710522884,0.1728802376190821,-0.48752024683155326,-0.11147110072896137,-1.9463801863486305,0.1336059019074957,2.595550359778934,0.9452445589611904,4.1592333702531907e-05,-3.0278046993992435e-05,0.0002528062510749345,0.0016015669621064809,-0.000296448699465212,-0.00042253181010101695,0.0009518530092624078,0.0,0.0,0.0,0.0,0.0,0.0,0.0,-6.965889354357269e-05,6.561485567091463e-05,-7.272407170963446e-05,-2.3614530342053186e-05,0.00015937386119449504,0.0001506710052487925,-1.7312091098009574e-05,-4.1592333702531907e-05,3.0278046993992435e-05,-0.0002528062510749345,-0.0016015669621064809,0.000296448699465212,0.00042253181010101695,-0.0009518530092624078,0.2720577120780945,11.651758193969727,-0.9934418201446533,-21.618074417114258,-0.4333396553993225,-2.5463900566101074,0.33084434270858765,0
51,0.25000691413879395,-0.2720577120780945,-11.651758193969727,0.9934418201446533,21.618074417114258,0.4333396553993225,2.5463900566101074,-0.33084434270858765,0.0,0.0,0.0,0.0,0.0,0.0,0.0,-0.279439147080285,0.7042678205003974,-0.19499823413722983,0.3524841105051477,-0.10349701346747546,0.1359364609127569,-0.32102925109735486,0.17294989651262568,-0.4875858616872242,-0.11139837665725173,-1.9463565718182885,0.1334465280463012,2.595399688773685,0.9452618710522884,0.1728802376190821,-0.48752024683155326,-0.11147110072896137,-1.9463801863486305,0.1336059019074957,2.595550359778934,0.9452445589611904,4.1592333702531907e-05,-3.0278046993992435e-05,0.0002528062510749345,0.0016015669621064809,-0.000296448699465212,-0.00042253181010101695,0.0009518530092624078,0.0,0.0,0.0,0.0,0.0,0.0,0.0,-6.965889354357269e-05,6.561485567091463e-05,-7.272407170963446e-05,-2.3614530342053186e-05,0.00015937386119449504,0.0001506710052487925,-1.7312091098009574e-05,-4.1592333702531907e-05,3.0278046993992435e-05,-0.0002528062510749345,-0.0016015669621064809,0.000296448699465212,0.00042253181010101695,-0.0009518530092624078,0.2720577120780945,11.651758193969727,-0.9934418201446533,-21.618074417114258,-0.4333396553993225,-2.5463900566101074,0.33084434270858765,0
52,0.2550241947174072,-0.24825400114059448,-11.627954483032227,0.9934418201446533,21.641878128051758,0.4388328194618225,2.5463900566101074,-0.30337852239608765,0.0,0.0,0.0,0.0,0.0,0.0,0.0,-0.27754993192516736,0.6595769942898909,-0.1913679301863573,0.3737029426396365,-0.10396506370325037,0.13828443926037137,-0.3217720064654796,0.17294820730432015,-0.4875875321229299,-0.11139837665725173,-1.946360231946414,0.13344593085842832,2.595399688773685,0.9452593780037419,0.1728802376190821,-0.48752024683155326,-0.11147110072896137,-1.9463801863486305,0.1336059019074957,2.595550359778934,0.9452445589611904,-0.00020480595534711865,-0.00045714865487770056,0.0008785940295446254,0.0005227843861545671,-0.00037454701849667536,-0.0005378223011324159,-0.0005037018577053331,0.0,0.0,0.0,0.0,0.0,0.0,0.0,-6.796968523803404e-05,6.728529137661754e-05,-7.272407170963446e-05,-1.9954402216582068e-05,0.00015997104906737003,0.0001506710052487925,-1.4819042551517114e-05,0.00020480595534711865,0.00045714865487770056,-0.0008785940295446254,-0.0005227843861545671,0.00037454701849667536,0.0005378223011324159,0.0005037018577053331,0.24825400114059448,11.627954483032227,-0.9934418201446533,-21.641878128051758,-0.4388328194618225,-2.5463900566101074,0.30337852239608765,0
53,0.26001811027526855,-0.24825400114059448,-11.627954483032227,0.9934418201446533,21.641878128051758,0.4388328194618225,2.5463900566101074,-0.30337852239608765,0.0,0.0,0.0,0.0,0.0,0.0,0.0,-0.27754993192516736,0.6595769942898909,-0.1913679301863573,0.3737029426396365,-0.10396506370325037,0.13828443926037137,-0.3217720064654796,0.17294820730432015,-0.4875875321229299,-0.11139837665725173,-1.946360231946414,0.13344593085842832,2.595399688773685,0.9452593780037419,0.1728802376190821,-0.48752024683155326,-0.11147110072896137,-1.9463801863486305,0.1336059019074957,2.595550359778934,0.9452445589611904,-0.00020480595534711865,-0.00045714865487770056,0.0008785940295446254,0.0005227843861545671,-0.00037454701849667536,-0.0005378223011324159,-0.0005037018577053331,0.0,0.0,0.0,0.0,0.0,0.0,0.0,-6.796968523803404e-05,6.728529137661754e-05,-7.272407170963446e-05,-1.9954402216582068e-05,0.00015997104906737003,0.0001506710052487925,-1.4819042551517114e-05,0.00020480595534711865,0.00045714865487770056,-0.0008785940295446254,-0.0005227843861545671,0.00037454701849667536,0.0005378223011324159,0.0005037018577053331,0.24825400114059448,11.627954483032227,-0.9934418201446533,-21.641878128051758,-0.4388328194618225,-2.5463900566101074,0.30337852239608765,0
54,0.26502180099487305,-0.2998287081718445,-11.600183486938477,1.0410492420196533,21.618074417114258,0.4333396553993225,2.5335726737976074,-0.28232139348983765,0.0,0.0,0.0,0.0,0.0,0.0,0.0,-0.27368781386711594,0.6615350176454188,-0.19087448547216976,0.3743600448864097,-0.1035975352336652,0.13731628514228195,-0.32160781816907763,0.17295205644566675,-0.487589480964761,-0.11140171752896225,-1.946356651657397,0.1334465412100156,2.595401112927331,0.9452592569933397,0.1728802376190821,-0.48752024683155326,-0.11147110072896137,-1.9463801863486305,0.1336059019074957,2.595550359778934,0.9452445589611904,0.000782227035967982,-0.0005979341350328529,-0.0003352509769049551,0.0009820875234886708,-0.00018162221725565307,-3.128860609202927e-05,-0.0013291302830102925,0.0,0.0,0.0,0.0,0.0,0.0,0.0,-7.181882658463534e-05,6.923413320775174e-05,-6.938319999912068e-05,-2.3534691233617622e-05,0.00015936069748009873,0.00014924685160311313,-1.4698032149262907e-05,-0.000782227035967982,0.0005979341350328529,0.0003352509769049551,-0.0009820875234886708,0.00018162221725565307,3.128860609202927e-05,0.0013291302830102925,0.2998287081718445,11.600183486938477,-1.0410492420196533,-21.618074417114258,-0.4333396553993225,-2.5335726737976074,0.28232139348983765,0
55,0.2700343132019043,-0.2998287081718445,-11.600183486938477,1.0410492420196533,21.618074417114258,0.4333396553993225,2.5335726737976074,-0.28232139348983765,0.0,0.0,0.0,0.0,0.0,0.0,0.0,-0.27368781386711594,0.6615350176454188,-0.19087448547216976,0.3743600448864097,-0.1035975352336652,0.13731628514228195,-0.32160781816907763,0.17295205644566675,-0.487589480964761,-0.11140171752896225,-1.946356651657397,0.1334465412100156,2.595401112927331,0.9452592569933397,0.1728802376190821,-0.48752024683155326,-0.11147110072896137,-1.9463801863486305,0.1336059019074957,2.595550359778934,0.9452445589611904,0.000782227035967982,-0.0005979341350328529,-0.0003352509769049551,0.0009820875234886708,-0.00018162221725565307,-3.128860609202927e-05,-0.0013291302830102925,0.0,0.0,0.0,0.0,0.0,0.0,0.0,-7.181882658463534e-05,6.923413320775174e-05,-6.938319999912068e-05,-2.3534691233617622e-05,0.00015936069748009873,0.00014924685160311313,-1.4698032149262907e-05,-0.000782227035967982,0.0005979341350328529,0.0003352509769049551,-0.0009820875234886708,0.00018162221725565307,3.128860609202927e-05,0.0013291302830102925,0.2998287081718445,11.600183486938477,-1.0410492420196533,-21.618074417114258,-0.4333396553993225,-2.5335726737976074,0.28232139348983765,0
56,0.2750370502471924,-0.24825400114059448,-11.600183486938477,1.0172455310821533,21.618074417114258,0.4269309639930725,2.5335726737976074,-0.33084434270858765,0.0,0.0,0.0,0.0,0.0,0.0,0.0,-0.2737419259917573,0.6686784031815214,-0.18849219328708433,0.37131539128527025,-0.10342754972124689,0.13634979915166384,-0.32156241012571996,0.17294820719620577,-0.487589480964761,-0.11140004709310698,-1.9463586943894273,0.1334472532868385,2.595401112927331,0.9452614797142269,0.1728802376190821,-0.48752024683155326,-0.11147110072896137,-1.9463801863486305,0.1336059019074957,2.595550359778934,0.9452445589611904,-0.0003821440777402394,-0.0005727863346927349,-5.684215507451503e-05,0.000884047214713865,0.00022844688079584887,-9.014027979859784e-05,0.0008283981962707649,0.0,0.0,0.0,0.0,0.0,0.0,0.0,-6.796957712365548e-05,6.923413320775174e-05,-7.105363585438451e-05,-2.149195920320146e-05,0.00015864862065717578,0.00014924685160311313,-1.692075303649787e-05,0.0003821440777402394,0.0005727863346927349,5.684215507451503e-05,-0.000884047214713865,-0.00022844688079584887,9.014027979859784e-05,-0.0008283981962707649,0.24825400114059448,11.600183486938477,-1.0172455310821533,-21.618074417114258,-0.4269309639930725,-2.5335726737976074,0.33084434270858765,0
57,0.2800173759460449,-0.24825400114059448,-11.600183486938477,1.0172455310821533,21.618074417114258,0.4269309639930725,2.5335726737976074,-0.33084434270858765,0.0,0.0,0.0,0.0,0.0,0.0,0.0,-0.2737419259917573,0.6686784031815214,-0.18849219328708433,0.37131539128527025,-0.10342754972124689,0.13634979915166384,-0.32156241012571996,0.17294820719620577,-0.487589480964761,-0.11140004709310698,-1.9463586943894273,0.1334472532868385,2.595401112927331,0.9452614797142269,0.1728802376190821,-0.48752024683155326,-0.11147110072896137,-1.9463801863486305,0.1336059019074957,2.595550359778934,0.9452445589611904,-0.0003821440777402394,-0.0005727863346927349,-5.684215507451503e-05,0.000884047214713865,0.00022844688079584887,-9.014027979859784e-05,0.0008283981962707649,0.0,0.0,0.0,0.0,0.0,0.0,0.0,-6.796957712365548e-05,6.923413320775174e-05,-7.105363585438451e-05,-2.149195920320146e-05,0.00015864862065717578,0.00014924685160311313,-1.692075303649787e-05,0.0003821440777402394,0.0005727863346927349,5.684215507451503e-05,-0.000884047214713865,-0.00022844688079584887,9.014027979859784e-05,-0.0008283981962707649,0.24825400114059448,11.600183486938477,-1.0172455310821533,-21.618074417114258,-0.4269309639930725,-2.5335726737976074,0.33084434270858765,0
58,0.2850475311279297,-0.2998287081718445,-11.600183486938477,1.0172455310821533,21.641878128051758,0.4269309639930725,2.5335726737976074,-0.33084434270858765,0.0,0.0,0.0,0.0,0.0,0.0,0.0,-0.2769917861815033,0.6739227844547288,-0.19022034455815176,0.3700254481261747,-0.103144348602663,0.1360093836836411,-0.3211624081178648,0.17295184405236583,-0.487589480964761,-0.11140004709310698,-1.9463572787719743,0.1334472532868385,2.595401112927331,0.9452624312512192,0.1728802376190821,-0.48752024683155326,-0.11147110072896137,-1.9463801863486305,0.1336059019074957,2.595550359778934,0.9452445589611904,0.000671693311030297,-0.00024341027558929274,-0.0007053921704151918,0.00018433914637655847,0.00012654988486430701,-3.281377895574513e-05,0.0012405069301376708,0.0,0.0,0.0,0.0,0.0,0.0,0.0,-7.16064332837163e-05,6.923413320775174e-05,-7.105363585438451e-05,-2.2907576656239215e-05,0.00015864862065717578,0.00014924685160311313,-1.7872290028808635e-05,-0.000671693311030297,0.00024341027558929274,0.0007053921704151918,-0.00018433914637655847,-0.00012654988486430701,3.281377895574513e-05,-0.0012405069301376708,0.2998287081718445,11.600183486938477,-1.0172455310821533,-21.641878128051758,-0.4269309639930725,-2.5335726737976074,0.33084434270858765,0
59,0.29001307487487793,-0.2998287081718445,-11.600183486938477,1.0172455310821533,21.641878128051758,0.4269309639930725,2.5335726737976074,-0.33084434270858765,0.0,0.0,0.0,0.0,0.0,0.0,0.0,-0.2769917861815033,0.6739227844547288,-0.19022034455815176,0.3700254481261747,-0.103144348602663,0.1360093836836411,-0.3211624081178648,0.17295184405236583,-0.487589480964761,-0.11140004709310698,-1.9463572787719743,0.1334472532868385,2.595401112927331,0.9452624312512192,0.1728802376190821,-0.48752024683155326,-0.11147110072896137,-1.9463801863486305,0.1336059019074957,2.595550359778934,0.9452445589611904,0.000671693311030297,-0.00024341027558929274,-0.0007053921704151918,0.00018433914637655847,0.00012654988486430701,-3.281377895574513e-05,0.0012405069301376708,0.0,0.0,0.0,0.0,0.0,0.0,0.0,-7.16064332837163e-05,6.923413320775174e-05,-7.105363585438451e-05,-2.2907576656239215e-05,0.00015864862065717578,0.00014924685160311313,-1.7872290028808635e-05,-0.000671693311030297,0.00024341027558929274,0.0007053921704151918,-0.00018433914637655847,-0.00012654988486430701,3.281377895574513e-05,-0.0012405069301376708,0.2998287081718445,11.600183486938477,-1.0172455310821533,-21.641878128051758,-0.4269309639930725,-2.5335726737976074,0.33084434270858765,0
60,0.294999361038208,-0.2720577120780945,-11.651758193969727,1.0172455310821533,21.641878128051758,0.4269309639930725,2.5207552909851074,-0.33725303411483765,0.0,0.0,0.0,0.0,0.0,0.0,0.0,-0.2742205251227394,0.6701084441867405,-0.18685025009358672,0.373137114296091,-0.10355613385868997,0.1360346137535189,-0.31990934325612197,0.17295010626562493,-0.48758586168707463,-0.11140004709310698,-1.946359675077489,0.1334472532868385,2.5954025370809766,0.9452654349482421,0.1728802376190821,-0.48752024683155326,-0.11147110072896137,-1.9463801863486305,0.1336059019074957,2.595550359778934,0.9452445589611904,7.086524295704153e-06,0.0002546250528728187,-0.0005432693586653117,6.691290790945978e-05,0.00025972210118564444,0.0006229586862167471,0.0011090444548125114,0.0,0.0,0.0,0.0,0.0,0.0,0.0,-6.986864654281999e-05,6.561485552136759e-05,-7.105363585438451e-05,-2.0511271141554488e-05,0.00015864862065717578,0.00014782269795743375,-2.087598705169391e-05,-7.086524295704153e-06,-0.0002546250528728187,0.0005432693586653117,-6.691290790945978e-05,-0.00025972210118564444,-0.0006229586862167471,-0.0011090444548125114,0.2720577120780945,11.651758193969727,-1.0172455310821533,-21.641878128051758,-0.4269309639930725,-2.5207552909851074,0.33725303411483765,0
61,0.3000030517578125,-0.2720577120780945,-11.651758193969727,1.0172455310821533,21.641878128051758,0.4269309639930725,2.5207552909851074,-0.33725303411483765,0.0,0.0,0.0,0.0,0.0,0.0,0.0,-0.2742205251227394,0.6701084441867405,-0.18685025009358672,0.373137114296091,-0.10355613385868997,0.1360346137535189,-0.31990934325612197,0.17295010626562493,-0.48758586168707463,-0.11140004709310698,-1.946359675077489,0.1334472532868385,2.5954025370809766,0.9452654349482421,0.1728802376190821,-0.48752024683155326,-0.11147110072896137,-1.9463801863486305,0.1336059019074957,2.595550359778934,0.9452445589611904,7.086524295704153e-06,0.0002546250528728187,-0.0005432693586653117,6.691290790945978e-05,0.00025972210118564444,0.0006229586862167471,0.0011090444548125114,0.0,0.0,0.0,0.0,0.0,0.0,0.0,-6.986864654281999e-05,6.561485552136759e-05,-7.105363585438451e-05,-2.0511271141554488e-05,0.00015864862065717578,0.00014782269795743375,-2.087598705169391e-05,-7.086524295704153e-06,-0.0002546250528728187,0.0005432693586653117,-6.691290790945978e-05,-0.00025972210118564444,-0.0006229586862167471,-0.0011090444548125114,0.2720577120780945,11.651758193969727,-1.0172455310821533,-21.641878128051758,-0.4269309639930725,-2.5207552909851074,0.33725303411483765,0
62,0.3050112724304199,-0.2720577120780945,-11.651758193969727,0.9934418201446533,21.669649124145508,0.4333396553993225,2.5399813652038574,-0.30978721380233765,0.0,0.0,0.0,0.0,0.0,0.0,0.0,-0.276282758780612,0.6810509656702393,-0.19251208486393043,0.36740084098740694,-0.10367956696297333,0.1352809798729841,-0.320553639143458,0.17294986982011948,-0.48758586168707463,-0.11139837665725173,-1.9463621694502549,0.1334465412100156,2.595400400850508,0.9452624249202579,0.1728802376190821,-0.48752024683155326,-0.11147110072896137,-1.9463801863486305,0.1336059019074957,2.595550359778934,0.9452445589611904,-0.00023080328040757568,0.00013183773803753491,-0.0003296143354821982,-0.0005258461728364515,-0.0002260223133823941,-0.0002672345653136461,-0.0005374882748230885,0.0,0.0,0.0,0.0,0.0,0.0,0.0,-6.963220103736734e-05,6.561485552136759e-05,-7.272407170963446e-05,-1.8016898375661228e-05,0.00015936069748009873,0.00014995892842595282,-1.7865959067497883e-05,0.00023080328040757568,-0.00013183773803753491,0.0003296143354821982,0.0005258461728364515,0.0002260223133823941,0.0002672345653136461,0.0005374882748230885,0.2720577120780945,11.651758193969727,-0.9934418201446533,-21.669649124145508,-0.4333396553993225,-2.5399813652038574,0.30978721380233765,0
63,0.31000399589538574,-0.2720577120780945,-11.651758193969727,0.9934418201446533,21.669649124145508,0.4333396553993225,2.5399813652038574,-0.30978721380233765,0.0,0.0,0.0,0.0,0.0,0.0,0.0,-0.276282758780612,0.6810509656702393,-0.19251208486393043,0.36740084098740694,-0.10367956696297333,0.1352809798729841,-0.320553639143458,0.17294986982011948,-0.48758586168707463,-0.11139837665725173,-1.9463621694502549,0.1334465412100156,2.595400400850508,0.9452624249202579,0.1728802376190821,-0.48752024683155326,-0.11147110072896137,-1.9463801863486305,0.1336059019074957,2.595550359778934,0.9452445589611904,-0.00023080328040757568,0.00013183773803753491,-0.0003296143354821982,-0.0005258461728364515,-0.0002260223133823941,-0.0002672345653136461,-0.0005374882748230885,0.0,0.0,0.0,0.0,0.0,0.0,0.0,-6.963220103736734e-05,6.561485552136759e-05,-7.272407170963446e-05,-1.8016898375661228e-05,0.00015936069748009873,0.00014995892842595282,-1.7865959067497883e-05,0.00023080328040757568,-0.00013183773803753491,0.0003296143354821982,0.0005258461728364515,0.0002260223133823941,0.0002672345653136461,0.0005374882748230885,0.2720577120780945,11.651758193969727,-0.9934418201446533,-21.669649124145508,-0.4333396553993225,-2.5399813652038574,0.30978721380233765,0
64,0.31500959396362305,-0.2998287081718445,-11.651758193969727,0.9934418201446533,21.693452835083008,0.4269309639930725,2.5399813652038574,-0.27591270208358765,0.0,0.0,0.0,0.0,0.0,0.0,0.0,-0.2765395579483586,0.6853971093536372,-0.1936601534427217,0.36396046665364984,-0.1044353213052385,0.13493855029484206,-0.3221824554295882,0.17295252962837995,-0.48758586168707463,-0.11139837665725173,-1.9463638398891896,0.1334472532868385,2.595400400850508,0.9452556028403664,0.1728802376190821,-0.48752024683155326,-0.11147110072896137,-1.9463801863486305,0.1336059019074957,2.595550359778934,0.9452445589611904,0.0005359459595955758,4.1751105266408526e-05,-0.0002746210632207724,-0.0009541639810536832,-5.535940621788539e-06,-9.622984557212022e-05,-0.0017390869875775496,0.0,0.0,0.0,0.0,0.0,0.0,0.0,-7.229200929784185e-05,6.561485552136759e-05,-7.272407170963446e-05,-1.634645944093016e-05,0.00015864862065717578,0.00014995892842595282,-1.1043879175942628e-05,-0.0005359459595955758,-4.1751105266408526e-05,0.0002746210632207724,0.0009541639810536832,5.535940621788539e-06,9.622984557212022e-05,0.0017390869875775496,0.2998287081718445,11.651758193969727,-0.9934418201446533,-21.693452835083008,-0.4269309639930725,-2.5399813652038574,0.27591270208358765,0
65,0.3200500011444092,-0.2998287081718445,-11.651758193969727,0.9934418201446533,21.693452835083008,0.4269309639930725,2.5399813652038574,-0.27591270208358765,0.0,0.0,0.0,0.0,0.0,0.0,0.0,-0.2765395579483586,0.6853971093536372,-0.1936601534427217,0.36396046665364984,-0.1044353213052385,0.13493855029484206,-0.3221824554295882,0.17295252962837995,-0.48758586168707463,-0.11139837665725173,-1.9463638398891896,0.1334472532868385,2.595400400850508,0.9452556028403664,0.1728802376190821,-0.48752024683155326,-0.11147110072896137,-1.9463801863486305,0.1336059019074957,2.595550359778934,0.9452445589611904,0.0005359459595955758,4.1751105266408526e-05,-0.0002746210632207724,-0.0009541639810536832,-5.535940621788539e-06,-9.622984557212022e-05,-0.0017390869875775496,0.0,0.0,0.0,0.0,0.0,0.0,0.0,-7.229200929784185e-05,6.561485552136759e-05,-7.272407170963446e-05,-1.634645944093016e-05,0.00015864862065717578,0.00014995892842595282,-1.1043879175942628e-05,-0.0005359459595955758,-4.1751105266408526e-05,0.0002746210632207724,0.0009541639810536832,5.535940621788539e-06,9.622984557212022e-05,0.0017390869875775496,0.2998287081718445,11.651758193969727,-0.9934418201446533,-21.693452835083008,-0.4269309639930725,-2.5399813652038574,0.27591270208358765,0
66,0.32506608963012695,-0.2998287081718445,-11.600183486938477,1.0172455310821533,21.669649124145508,0.4269309639930725,2.5399813652038574,-0.26858848333358765,0.0,0.0,0.0,0.0,0.0,0.0,0.0,-0.2808816870116949,0.6812827590694712,-0.19770637723945844,0.3667846636684616,-0.10484864781241847,0.1357993636975243,-0.3229582608721906,0.17295181772419574,-0.487589480964761,-0.11140004709310698,-1.9463617013374777,0.1334472532868385,2.595400400850508,0.9452556783743913,0.1728802376190821,-0.48752024683155326,-0.11147110072896137,-1.9463801863486305,0.1336059019074957,2.595550359778934,0.9452445589611904,-1.2804681553193307e-05,-0.0012180886112804295,-0.0009008596052251421,9.914503039677098e-05,-4.280713554419545e-05,-0.00012581951756393485,-0.0014877098658384496,0.0,0.0,0.0,0.0,0.0,0.0,0.0,-7.158010511362778e-05,6.923413320775174e-05,-7.105363585438451e-05,-1.8485011152868935e-05,0.00015864862065717578,0.00014995892842595282,-1.111941320086629e-05,1.2804681553193307e-05,0.0012180886112804295,0.0009008596052251421,-9.914503039677098e-05,4.280713554419545e-05,0.00012581951756393485,0.0014877098658384496,0.2998287081718445,11.600183486938477,-1.0172455310821533,-21.669649124145508,-0.4269309639930725,-2.5399813652038574,0.26858848333358765,0
67,0.3300163745880127,-0.2998287081718445,-11.600183486938477,1.0172455310821533,21.669649124145508,0.4269309639930725,2.5399813652038574,-0.26858848333358765,0.0,0.0,0.0,0.0,0.0,0.0,0.0,-0.2808816870116949,0.6812827590694712,-0.19770637723945844,0.3667846636684616,-0.10484864781241847,0.1357993636975243,-0.3229582608721906,0.17295181772419574,-0.487589480964761,-0.11140004709310698,-1.9463617013374777,0.1334472532868385,2.595400400850508,0.9452556783743913,0.1728802376190821,-0.48752024683155326,-0.11147110072896137,-1.9463801863486305,0.1336059019074957,2.595550359778934,0.9452445589611904,-1.2804681553193307e-05,-0.0012180886112804295,-0.0009008596052251421,9.914503039677098e-05,-4.280713554419545e-05,-0.00012581951756393485,-0.0014877098658384496,0.0,0.0,0.0,0.0,0.0,0.0,0.0,-7.158010511362778e-05,6.923413320775174e-05,-7.105363585438451e-05,-1.8485011152868935e-05,0.00015864862065717578,0.00014995892842595282,-1.111941320086629e-05,1.2804681553193307e-05,0.0012180886112804295,0.0009008596052251421,-9.914503039677098e-05,4.280713554419545e-05,0.00012581951756393485,0.0014877098658384496,0.2998287081718445,11.600183486938477,-1.0172455310821533,-21.669649124145508,-0.4269309639930725,-2.5399813652038574,0.26858848333358765,0
68,0.33499860763549805,-0.24825400114059448,-11.627954483032227,1.0410492420196533,21.618074417114258,0.4269309639930725,2.5335726737976074,-0.30978721380233765,0.0,0.0,0.0,0.0,0.0,0.0,0.0,-0.2819264920688281,0.6842723318370459,-0.19387834750617547,0.36676144810194533,-0.10519003161952505,0.13563921149591388,-0.3218618665866503,0.17294819938292402,-0.4875875321229299,-0.11140171752896225,-1.9463588002590284,0.1334472532868385,2.595401112927331,0.9452638318737794,0.1728802376190821,-0.48752024683155326,-0.11147110072896137,-1.9463801863486305,0.1336059019074957,2.595550359778934,0.9452445589611904,-0.0008245055133682162,-0.00032367144129999653,-0.0008280873983744485,0.0011857826185024901,0.00016742934104151997,0.00016300566340906494,7.266839880409796e-05,0.0,0.0,0.0,0.0,0.0,0.0,0.0,-6.796176384191166e-05,6.728529137661754e-05,-6.938319999912068e-05,-2.1386089602115632e-05,0.00015864862065717578,0.00014924685160311313,-1.9272912588963464e-05,0.0008245055133682162,0.00032367144129999653,0.0008280873983744485,-0.0011857826185024901,-0.00016742934104151997,-0.00016300566340906494,-7.266839880409796e-05,0.24825400114059448,11.627954483032227,-1.0410492420196533,-21.618074417114258,-0.4269309639930725,-2.5335726737976074,0.30978721380233765,0
69,0.3400142192840576,-0.24825400114059448,-11.627954483032227,1.0410492420196533,21.618074417114258,0.4269309639930725,2.5335726737976074,-0.30978721380233765,0.0,0.0,0.0,0.0,0.0,0.0,0.0,-0.2819264920688281,0.6842723318370459,-0.19387834750617547,0.36676144810194533,-0.10519003161952505,0.13563921149591388,-0.3218618665866503,0.17294819938292402,-0.4875875321229299,-0.11140171752896225,-1.9463588002590284,0.1334472532868385,2.595401112927331,0.9452638318737794,0.1728802376190821,-0.48752024683155326,-0.11147110072896137,-1.9463801863486305,0.1336059019074957,2.595550359778934,0.9452445589611904,-0.0008245055133682162,-0.00032367144129999653,-0.0008280873983744485,0.0011857826185024901,0.00016742934104151997,0.00016300566340906494,7.266839880409796e-05,0.0,0.0,0.0,0.0,0.0,0.0,0.0,-6.796176384191166e-05,6.728529137661754e-05,-6.938319999912068e-05,-2.1386089602115632e-05,0.00015864862065717578,0.00014924685160311313,-1.9272912588963464e-05,0.0008245055133682162,0.00032367144129999653,0.0008280873983744485,-0.0011857826185024901,-0.00016742934104151997,-0.00016300566340906494,-7.266839880409796e-05,0.24825400114059448,11.627954483032227,-1.0410492420196533,-21.618074417114258,-0.4269309639930725,-2.5335726737976074,0.30978721380233765,0
70,0.345001220703125,-0.24825400114059448,-11.627954483032227,1.0410492420196533,21.618074417114258,0.4269309639930725,2.5335726737976074,-0.30978721380233765,0.0,0.0,0.0,0.0,0.0,0.0,0.0,-0.2819264920688281,0.6842723318370459,-0.19387834750617547,0.36676144810194533,-0.10519003161952505,0.13563921149591388,-0.3218618665866503,0.17294819938292402,-0.4875875321229299,-0.11140171752896225,-1.9463588002590284,0.1334472532868385,2.595401112927331,0.9452638318737794,0.1728802376190821,-0.48752024683155326,-0.11147110072896137,-1.9463801863486305,0.1336059019074957,2.595550359778934,0.9452445589611904,-0.0008245055133682162,-0.00032367144129999653,-0.0008280873983744485,0.0011857826185024901,0.00016742934104151997,0.00016300566340906494,7.266839880409796e-05,0.0,0.0,0.0,0.0,0.0,0.0,0.0,-6.796176384191166e-05,6.728529137661754e-05,-6.938319999912068e-05,-2.1386089602115632e-05,0.00015864862065717578,0.00014924685160311313,-1.9272912588963464e-05,0.0008245055133682162,0.00032367144129999653,0.0008280873983744485,-0.0011857826185024901,-0.00016742934104151997,-0.00016300566340906494,-7.266839880409796e-05,0.24825400114059448,11.627954483032227,-1.0410492420196533,-21.618074417114258,-0.4269309639930725,-2.5335726737976074,0.30978721380233765,0
71,0.3500053882598877,-0.24825400114059448,-11.627954483032227,1.0410492420196533,21.618074417114258,0.4269309639930725,2.5335726737976074,-0.30978721380233765,0.0,0.0,0.0,0.0,0.0,0.0,0.0,-0.2819264920688281,0.6842723318370459,-0.19387834750617547,0.36676144810194533,-0.10519003161952505,0.13563921149591388,-0.3218618665866503,0.17294819938292402,-0.4875875321229299,-0.11140171752896225,-1.9463588002590284,0.1334472532868385,2.595401112927331,0.9452638318737794,0.1728802376190821,-0.48752024683155326,-0.11147110072896137,-1.9463801863486305,0.1336059019074957,2.595550359778934,0.9452445589611904,-0.0008245055133682162,-0.00032367144129999653,-0.0008280873983744485,0.0011857826185024901,0.00016742934104151997,0.00016300566340906494,7.266839880409796e-05,0.0,0.0,0.0,0.0,0.0,0.0,0.0,-6.796176384191166e-05,6.728529137661754e-05,-6.938319999912068e-05,-2.1386089602115632e-05,0.00015864862065717578,0.00014924685160311313,-1.9272912588963464e-05,0.0008245055133682162,0.00032367144129999653,0.0008280873983744485,-0.0011857826185024901,-0.00016742934104151997,-0.00016300566340906494,-7.266839880409796e-05,0.24825400114059448,11.627954483032227,-1.0410492420196533,-21.618074417114258,-0.4269309639930725,-2.5335726737976074,0.30978721380233765,0
72,0.35502052307128906,-0.24825400114059448,-11.627954483032227,1.0172455310821533,21.641878128051758,0.4333396553993225,2.5335726737976074,-0.27591270208358765,0.0,0.0,0.0,0.0,0.0,0.0,0.0,-0.2816305763874922,0.6860587322773303,-0.19262043805423526,0.36657275904398384,-0.10519341790453807,0.135475099262305,-0.32079598723573455,0.1729505715542192,-0.4875875321229299,-0.11140004709310698,-1.9463573625334047,0.1334465412100156,2.595401112927331,0.9452565011410148,0.1728802376190821,-0.48752024683155326,-0.11147110072896137,-1.9463801863486305,0.1336059019074957,2.595550359778934,0.9452445589611904,-0.0006107106234247573,0.00016519508912476427,-0.00013985370775788838,0.0003092799555168358,-8.828007260663158e-05,0.00010911388240719158,-0.001103067909066924,0.0,0.0,0.0,0.0,0.0,0.0,0.0,-7.033393513708464e-05,6.728529137661754e-05,-7.105363585438451e-05,-2.282381522578092e-05,0.00015936069748009873,0.00014924685160311313,-1.194217982436463e-05,0.0006107106234247573,-0.00016519508912476427,0.00013985370775788838,-0.0003092799555168358,8.828007260663158e-05,-0.00010911388240719158,0.001103067909066924,0.24825400114059448,11.627954483032227,-1.0172455310821533,-21.641878128051758,-0.4333396553993225,-2.5335726737976074,0.27591270208358765,0
73,0.36003828048706055,-0.24825400114059448,-11.627954483032227,1.0172455310821533,21.641878128051758,0.4333396553993225,2.5335726737976074,-0.27591270208358765,0.0,0.0,0.0,0.0,0.0,0.0,0.0,-0.2816305763874922,0.6860587322773303,-0.19262043805423526,0.36657275904398384,-0.10519341790453807,0.135475099262305,-0.32079598723573455,0.1729505715542192,-0.4875875321229299,-0.11140004709310698,-1.9463573625334047,0.1334465412100156,2.595401112927331,0.9452565011410148,0.1728802376190821,-0.48752024683155326,-0.11147110072896137,-1.9463801863486305,0.1336059019074957,2.595550359778934,0.9452445589611904,-0.0006107106234247573,0.00016519508912476427,-0.00013985370775788838,0.0003092799555168358,-8.828007260663158e-05,0.00010911388240719158,-0.001103067909066924,0.0,0.0,0.0,0.0,0.0,0.0,0.0,-7.033393513708464e-05,6.728529137661754e-05,-7.105363585438451e-05,-2.282381522578092e-05,0.00015936069748009873,0.00014924685160311313,-1.194217982436463e-05,0.0006107106234247573,-0.00016519508912476427,0.00013985370775788838,-0.0003092799555168358,8.828007260663158e-05,-0.00010911388240719158,0.001103067909066924,0.24825400114059448,11.627954483032227,-1.0172455310821533,-21.641878128051758,-0.4333396553993225,-2.5335726737976074,0.27591270208358765,0
74,0.365048885345459,-0.2720577120780945,-11.600183486938477,1.0172455310821533,21.669649124145508,0.4333396553993225,2.5335726737976074,-0.28964561223983765,0.0,0.0,0.0,0.0,0.0,0.0,0.0,-0.27985717940897237,0.6795094958504148,-0.1916157305660869,0.3712865114098343,-0.10454800005873549,0.13694212954174,-0.319123921198651,0.17294987862161235,-0.487589480964761,-0.1114021779591577,-1.9463624155959345,0.1334465412100156,2.595401112927331,0.9452603884186731,0.1728802376190821,-0.48752024683155326,-0.11147110072896137,-1.9463801863486305,0.1336059019074957,2.595550359778934,0.9452445589611904,-1.597618056148413e-05,-0.0004929555529008746,7.759228657963368e-05,-0.00025797958298172353,1.2873753506089775e-05,0.0005075362485671219,-0.0004392783545904456,0.0,0.0,0.0,0.0,0.0,0.0,0.0,-6.96410025302352e-05,6.923413320775174e-05,-6.89227698036643e-05,-1.7770752696044667e-05,0.00015936069748009873,0.00014924685160311313,-1.5829457482685605e-05,1.597618056148413e-05,0.0004929555529008746,-7.759228657963368e-05,0.00025797958298172353,-1.2873753506089775e-05,-0.0005075362485671219,0.0004392783545904456,0.2720577120780945,11.600183486938477,-1.0172455310821533,-21.669649124145508,-0.4333396553993225,-2.5335726737976074,0.28964561223983765,0
75,0.3700132369995117,-0.2720577120780945,-11.600183486938477,1.0172455310821533,21.669649124145508,0.4333396553993225,2.5335726737976074,-0.28964561223983765,0.0,0.0,0.0,0.0,0.0,0.0,0.0,-0.27985717940897237,0.6795094958504148,-0.1916157305660869,0.3712865114098343,-0.10454800005873549,0.13694212954174,-0.319123921198651,0.17294987862161235,-0.487589480964761,-0.1114021779591577,-1.9463624155959345,0.1334465412100156,2.595401112927331,0.9452603884186731,0.1728802376190821,-0.48752024683155326,-0.11147110072896137,-1.9463801863486305,0.1336059019074957,2.595550359778934,0.9452445589611904,-1.597618056148413e-05,-0.0004929555529008746,7.759228657963368e-05,-0.00025797958298172353,1.2873753506089775e-05,0.0005075362485671219,-0.0004392783545904456,0.0,0.0,0.0,0.0,0.0,0.0,0.0,-6.96410025302352e-05,6.923413320775174e-05,-6.89227698036643e-05,-1.7770752696044667e-05,0.00015936069748009873,0.00014924685160311313,-1.5829457482685605e-05,1.597618056148413e-05,0.0004929555529008746,-7.759228657963368e-05,0.00025797958298172353,-1.2873753506089775e-05,-0.0005075362485671219,0.0004392783545904456,0.2720577120780945,11.600183486938477,-1.0172455310821533,-21.669649124145508,-0.4333396553993225,-2.5335726737976074,0.28964561223983765,0
76,0.3750145435333252,-0.2720577120780945,-11.600183486938477,1.0172455310821533,21.618074417114258,0.4214377999305725,2.5463900566101074,-0.34457725286483765,0.0,0.0,0.0,0.0,0.0,0.0,0.0,-0.27969539154184303,0.6934064497953604,-0.19509013038884862,0.3633609330442526,-0.10348241175451031,0.13744621932946852,-0.31892297377702195,0.17294986981883442,-0.487589480964761,-0.11140004710513578,-1.9463559392010692,0.133447863638401,2.595399688773685,0.9452628849815352,0.1728802376190821,-0.48752024683155326,-0.11147110072896137,-1.9463801863486305,0.1336059019074957,2.595550359778934,0.9452445589611904,-0.00016528074750186666,-0.00017826183409065224,-0.0003003805685263809,0.0005569789508551966,0.0003128598194463453,-0.0002931241316793466,0.0016337411827662715,0.0,0.0,0.0,0.0,0.0,0.0,0.0,-6.963219975231194e-05,6.923413320775174e-05,-7.105362382558988e-05,-2.4247147561329285e-05,0.0001580382690946902,0.0001506710052487925,-1.8326020344794358e-05,0.00016528074750186666,0.00017826183409065224,0.0003003805685263809,-0.0005569789508551966,-0.0003128598194463453,0.0002931241316793466,-0.0016337411827662715,0.2720577120780945,11.600183486938477,-1.0172455310821533,-21.618074417114258,-0.4214377999305725,-2.5463900566101074,0.34457725286483765,0
77,0.37999844551086426,-0.2720577120780945,-11.600183486938477,1.0172455310821533,21.618074417114258,0.4214377999305725,2.5463900566101074,-0.34457725286483765,0.0,0.0,0.0,0.0,0.0,0.0,0.0,-0.27969539154184303,0.6934064497953604,-0.19509013038884862,0.3633609330442526,-0.10348241175451031,0.13744621932946852,-0.31892297377702195,0.17294986981883442,-0.487589480964761,-0.11140004710513578,-1.9463559392010692,0.133447863638401,2.595399688773685,0.9452628849815352,0.1728802376190821,-0.48752024683155326,-0.11147110072896137,-1.9463801863486305,0.1336059019074957,2.595550359778934,0.9452445589611904,-0.00016528074750186666,-0.00017826183409065224,-0.0003003805685263809,0.0005569789508551966,0.0003128598194463453,-0.0002931241316793466,0.0016337411827662715,0.0,0.0,0.0,0.0,0.0,0.0,0.0,-6.963219975231194e-05,6.923413320775174e-05,-7.105362382558988e-05,-2.4247147561329285e-05,0.0001580382690946902,0.0001506710052487925,-1.8326020344794358e-05,0.00016528074750186666,0.00017826183409065224,0.0003003805685263809,-0.0005569789508551966,-0.0003128598194463453,0.0002931241316793466,-0.0016337411827662715,0.2720577120780945,11.600183486938477,-1.0172455310821533,-21.618074417114258,-0.4214377999305725,-2.5463900566101074,0.34457725286483765,0
78,0.3849983215332031,-0.2998287081718445,-11.600183486938477,0.9934418201446533,21.618074417114258,0.4388328194618225,2.5271639823913574,-0.34457725286483765,0.0,0.0,0.0,0.0,0.0,0.0,0.0,-0.27124062461480025,0.6985765805879084,-0.18437484820611472,0.3604697031407136,-0.10396237267724272,0.13818046318299895,-0.32006633670782036,0.1729518176840118,-0.487589480964761,-0.1113983766572518,-1.9463578198245877,0.13344593085845308,2.5954018250041537,0.9452666170779431,0.1728802376190821,-0.48752024683155326,-0.11147110072896137,-1.9463801863486305,0.1336059019074957,2.595550359778934,0.9452445589611904,0.00076880824403048,-0.0004570026593917373,0.0002664324322785896,0.00026043969076908793,-0.00023107231096492208,0.0004177666386998855,0.001506286085127001,0.0,0.0,0.0,0.0,0.0,0.0,0.0,-7.158006492968827e-05,6.923413320775174e-05,-7.272407170956507e-05,-2.2366524042860547e-05,0.00015997104904261206,0.00014853477478027344,-2.2058116752710077e-05,-0.00076880824403048,0.0004570026593917373,-0.0002664324322785896,-0.00026043969076908793,0.00023107231096492208,-0.0004177666386998855,-0.001506286085127001,0.2998287081718445,11.600183486938477,-0.9934418201446533,-21.618074417114258,-0.4388328194618225,-2.5271639823913574,0.34457725286483765,0
79,0.3900113105773926,-0.2998287081718445,-11.600183486938477,0.9934418201446533,21.618074417114258,0.4388328194618225,2.5271639823913574,-0.34457725286483765,0.0,0.0,0.0,0.0,0.0,0.0,0.0,-0.27124062461480025,0.6985765805879084,-0.18437484820611472,0.3604697031407136,-0.10396237267724272,0.13818046318299895,-0.32006633670782036,0.1729518176840118,-0.487589480964761,-0.1113983766572518,-1.9463578198245877,0.13344593085845308,2.5954018250041537,0.9452666170779431,0.1728802376190821,-0.48752024683155326,-0.11147110072896137,-1.9463801863486305,0.1336059019074957,2.595550359778934,0.9452445589611904,0.00076880824403048,-0.0004570026593917373,0.0002664324322785896,0.00026043969076908793,-0.00023107231096492208,0.0004177666386998855,0.001506286085127001,0.0,0.0,0.0,0.0,0.0,0.0,0.0,-7.158006492968827e-05,6.923413320775174e-05,-7.272407170956507e-05,-2.2366524042860547e-05,0.00015997104904261206,0.00014853477478027344,-2.2058116752710077e-05,-0.00076880824403048,0.0004570026593917373,-0.0002664324322785896,-0.00026043969076908793,0.00023107231096492208,-0.0004177666386998855,-0.001506286085127001,0.2998287081718445,11.600183486938477,-0.9934418201446533,-21.618074417114258,-0.4388328194618225,-2.5271639823913574,0.34457725286483765,0
